rezayati/contactInterpretation/dataset/franka_main/labeled_data/link3/e1_3.csv
index,time,tau_J0,tau_J1,tau_J2,tau_J3,tau_J4,tau_J5,tau_J6,tau_J_d0,tau_J_d1,tau_J_d2,tau_J_d3,tau_J_d4,tau_J_d5,tau_J_d6,tau_ext0,tau_ext1,tau_ext2,tau_ext3,tau_ext4,tau_ext5,tau_ext6,q0,q1,q2,q3,q4,q5,q6,q_d0,q_d1,q_d2,q_d3,q_d4,q_d5,q_d6,dq0,dq1,dq2,dq3,dq4,dq5,dq6,dq_d0,dq_d1,dq_d2,dq_d3,dq_d4,dq_d5,dq_d6,e0,e1,e2,e3,e4,e5,e6,de0,de1,de2,de3,de4,de5,de6,etau_J0,etau_J1,etau_J2,etau_J3,etau_J4,etau_J5,etau_J6,label
1,0.0,-0.5299312472343445,-34.13833236694336,-3.7752349376678467,19.436067581176758,0.2429099678993225,1.777347207069397,-0.12485067546367645,0.0,0.0,0.0,0.0,0.0,0.0,0.0,-0.5072686312082549,-0.0965174629440064,-0.24632635808783868,0.4382976142736704,0.1941240480411207,-0.12240885250856984,-0.1197710136210761,1.0544061609360207,0.32420889819295784,-0.39250473587148577,-2.153497399380332,0.8647498016153518,2.4659404030242813,0.5444919895664402,1.0544104758940245,0.3238615046091247,-0.39250456234122666,-2.153291787532338,0.8647539153680389,2.46587817577521,0.5445020185570556,0.0008079993188949147,-0.0011837618891397468,-0.0010641568638725203,0.0005145932331620601,0.00020529735217996757,9.135036182800138e-05,0.00030613139780972083,0.0,0.0,0.0,0.0,0.0,0.0,0.0,4.314958003792668e-06,-0.00034739358383312213,1.7353025910660236e-07,0.00020561184799428034,4.113752687162631e-06,-6.222724907134491e-05,1.0028990615418287e-05,-0.0008079993188949147,0.0011837618891397468,0.0010641568638725203,-0.0005145932331620601,-0.00020529735217996757,-9.135036182800138e-05,-0.00030613139780972083,0.5299312472343445,34.13833236694336,3.7752349376678467,-19.436067581176758,-0.2429099678993225,-1.777347207069397,0.12485067546367645,0
2,0.00495457649230957,-0.5537349581718445,-34.18990707397461,-3.7752349376678467,19.412263870239258,0.2429099678993225,1.796573281288147,-0.14590780436992645,0.0,0.0,0.0,0.0,0.0,0.0,0.0,-0.5069195504020587,-0.08338759337334943,-0.2440073744179098,0.42799512439550547,0.19423454792840214,-0.12297877638721387,-0.12026717921577577,1.054407831371876,0.3242125174706442,-0.39250452386848944,-2.1534957289444767,0.8647467404398629,2.4659382667938865,0.54449362379752,1.0544104758940245,0.3238615046091247,-0.39250456234122666,-2.153291787532338,0.8647539153680389,2.46587817577521,0.5445020185570556,0.0014742058640266837,0.0005565605782218963,-0.0005577519510296704,0.0010016080883505914,0.0003843965991428494,-0.00041605553660264196,0.0013152780604326595,0.0,0.0,0.0,0.0,0.0,0.0,0.0,2.6445221483761827e-06,-0.0003510128615195063,-3.8472737218242514e-08,0.00020394141213886385,7.174928176034712e-06,-6.009101867654465e-05,8.394759535623741e-06,-0.0014742058640266837,-0.0005565605782218963,0.0005577519510296704,-0.0010016080883505914,-0.0003843965991428494,0.00041605553660264196,-0.0013152780604326595,0.5537349581718445,34.18990707397461,3.7752349376678467,-19.412263870239258,-0.2429099678993225,-1.796573281288147,0.14590780436992645,0
3,0.009950637817382812,-0.5537349581718445,-34.18990707397461,-3.7752349376678467,19.412263870239258,0.2429099678993225,1.796573281288147,-0.14590780436992645,0.0,0.0,0.0,0.0,0.0,0.0,0.0,-0.5069195504020587,-0.08338759337334943,-0.2440073744179098,0.42799512439550547,0.19423454792840214,-0.12297877638721387,-0.12026717921577577,1.054407831371876,0.3242125174706442,-0.39250452386848944,-2.1534957289444767,0.8647467404398629,2.4659382667938865,0.54449362379752,1.0544104758940245,0.3238615046091247,-0.39250456234122666,-2.153291787532338,0.8647539153680389,2.46587817577521,0.5445020185570556,0.0014742058640266837,0.0005565605782218963,-0.0005577519510296704,0.0010016080883505914,0.0003843965991428494,-0.00041605553660264196,0.0013152780604326595,0.0,0.0,0.0,0.0,0.0,0.0,0.0,2.6445221483761827e-06,-0.0003510128615195063,-3.8472737218242514e-08,0.00020394141213886385,7.174928176034712e-06,-6.009101867654465e-05,8.394759535623741e-06,-0.0014742058640266837,-0.0005565605782218963,0.0005577519510296704,-0.0010016080883505914,-0.0003843965991428494,0.00041605553660264196,-0.0013152780604326595,0.5537349581718445,34.18990707397461,3.7752349376678467,-19.412263870239258,-0.2429099678993225,-1.796573281288147,0.14590780436992645,0
4,0.014997720718383789,-0.5299312472343445,-34.16213607788086,-3.7990386486053467,19.436067581176758,0.2548118233680725,1.783755898475647,-0.15964071452617645,0.0,0.0,0.0,0.0,0.0,0.0,0.0,-0.504836138573377,-0.08905635931110639,-0.24236699255497537,0.42937024690171655,0.194304110212224,-0.12179455259532077,-0.12046490075236753,1.0544061609360207,0.3242105685197968,-0.39250283904119015,-2.153497399380332,0.8647485925598978,2.465939690947532,0.5444946774282925,1.0544104758940245,0.3238615046091247,-0.39250456234122666,-2.153291787532338,0.8647539153680389,2.46587817577521,0.5445020185570556,0.0008745327966008691,0.0004266021355560396,-6.923376123713174e-06,0.0005902620894762934,-7.191389448435646e-05,2.709645275611228e-05,0.001863965092122685,0.0,0.0,0.0,0.0,0.0,0.0,0.0,4.314958003792668e-06,-0.0003490639106720761,-1.7233000365046713e-06,0.00020561184799428034,5.32280814113939e-06,-6.151517232222403e-05,7.341128763105331e-06,-0.0008745327966008691,-0.0004266021355560396,6.923376123713174e-06,-0.0005902620894762934,7.191389448435646e-05,-2.709645275611228e-05,-0.001863965092122685,0.5299312472343445,34.16213607788086,3.7990386486053467,-19.436067581176758,-0.2548118233680725,-1.783755898475647,0.15964071452617645,0
5,0.01999831199645996,-0.5299312472343445,-34.16213607788086,-3.7990386486053467,19.436067581176758,0.2548118233680725,1.783755898475647,-0.15964071452617645,0.0,0.0,0.0,0.0,0.0,0.0,0.0,-0.504836138573377,-0.08905635931110639,-0.24236699255497537,0.42937024690171655,0.194304110212224,-0.12179455259532077,-0.12046490075236753,1.0544061609360207,0.3242105685197968,-0.39250283904119015,-2.153497399380332,0.8647485925598978,2.465939690947532,0.5444946774282925,1.0544104758940245,0.3238615046091247,-0.39250456234122666,-2.153291787532338,0.8647539153680389,2.46587817577521,0.5445020185570556,0.0008745327966008691,0.0004266021355560396,-6.923376123713174e-06,0.0005902620894762934,-7.191389448435646e-05,2.709645275611228e-05,0.001863965092122685,0.0,0.0,0.0,0.0,0.0,0.0,0.0,4.314958003792668e-06,-0.0003490639106720761,-1.7233000365046713e-06,0.00020561184799428034,5.32280814113939e-06,-6.151517232222403e-05,7.341128763105331e-06,-0.0008745327966008691,-0.0004266021355560396,6.923376123713174e-06,-0.0005902620894762934,7.191389448435646e-05,-2.709645275611228e-05,-0.001863965092122685,0.5299312472343445,34.16213607788086,3.7990386486053467,-19.436067581176758,-0.2548118233680725,-1.783755898475647,0.15964071452617645,0
6,0.024997949600219727,-0.5021602511405945,-34.13833236694336,-3.7990386486053467,19.436067581176758,0.2429099678993225,1.796573281288147,-0.09097616374492645,0.0,0.0,0.0,0.0,0.0,0.0,0.0,-0.5061955984850668,-0.08548391571776717,-0.2457766621951825,0.4262525692266812,0.19539410252007364,-0.1213362146005053,-0.12089357648900313,1.0544042120941897,0.32420889819295723,-0.3925028386778212,-2.153497399380332,0.8647499179013407,2.4659382667938865,0.5444871670625371,1.0544104758940245,0.3238615046091247,-0.39250456234122666,-2.153291787532338,0.8647539153680389,2.46587817577521,0.5445020185570556,1.8006259153390123e-05,-0.00013922867551606513,-1.9599436031635287e-05,0.000344622716739993,0.00022254761974890085,-0.0003648800030683982,-0.0011728236398871148,0.0,0.0,0.0,0.0,0.0,0.0,0.0,6.263799834815842e-06,-0.0003473935838325115,-1.723663405450715e-06,0.00020561184799428034,3.997466698213437e-06,-6.009101867654465e-05,1.4851494518519637e-05,-1.8006259153390123e-05,0.00013922867551606513,1.9599436031635287e-05,-0.000344622716739993,-0.00022254761974890085,0.0003648800030683982,0.0011728236398871148,0.5021602511405945,34.13833236694336,3.7990386486053467,-19.436067581176758,-0.2429099678993225,-1.796573281288147,0.09097616374492645,0
7,0.030013322830200195,-0.5021602511405945,-34.13833236694336,-3.7990386486053467,19.436067581176758,0.2429099678993225,1.796573281288147,-0.09097616374492645,0.0,0.0,0.0,0.0,0.0,0.0,0.0,-0.5061955984850668,-0.08548391571776717,-0.2457766621951825,0.4262525692266812,0.19539410252007364,-0.1213362146005053,-0.12089357648900313,1.0544042120941897,0.32420889819295723,-0.3925028386778212,-2.153497399380332,0.8647499179013407,2.4659382667938865,0.5444871670625371,1.0544104758940245,0.3238615046091247,-0.39250456234122666,-2.153291787532338,0.8647539153680389,2.46587817577521,0.5445020185570556,1.8006259153390123e-05,-0.00013922867551606513,-1.9599436031635287e-05,0.000344622716739993,0.00022254761974890085,-0.0003648800030683982,-0.0011728236398871148,0.0,0.0,0.0,0.0,0.0,0.0,0.0,6.263799834815842e-06,-0.0003473935838325115,-1.723663405450715e-06,0.00020561184799428034,3.997466698213437e-06,-6.009101867654465e-05,1.4851494518519637e-05,-1.8006259153390123e-05,0.00013922867551606513,1.9599436031635287e-05,-0.000344622716739993,-0.00022254761974890085,0.0003648800030683982,0.0011728236398871148,0.5021602511405945,34.13833236694336,3.7990386486053467,-19.436067581176758,-0.2429099678993225,-1.796573281288147,0.09097616374492645,0
8,0.03500652313232422,-0.5021602511405945,-34.13833236694336,-3.7990386486053467,19.436067581176758,0.2429099678993225,1.796573281288147,-0.09097616374492645,0.0,0.0,0.0,0.0,0.0,0.0,0.0,-0.5061955984850668,-0.08548391571776717,-0.2457766621951825,0.4262525692266812,0.19539410252007364,-0.1213362146005053,-0.12089357648900313,1.0544042120941897,0.32420889819295723,-0.3925028386778212,-2.153497399380332,0.8647499179013407,2.4659382667938865,0.5444871670625371,1.0544104758940245,0.3238615046091247,-0.39250456234122666,-2.153291787532338,0.8647539153680389,2.46587817577521,0.5445020185570556,1.8006259153390123e-05,-0.00013922867551606513,-1.9599436031635287e-05,0.000344622716739993,0.00022254761974890085,-0.0003648800030683982,-0.0011728236398871148,0.0,0.0,0.0,0.0,0.0,0.0,0.0,6.263799834815842e-06,-0.0003473935838325115,-1.723663405450715e-06,0.00020561184799428034,3.997466698213437e-06,-6.009101867654465e-05,1.4851494518519637e-05,-1.8006259153390123e-05,0.00013922867551606513,1.9599436031635287e-05,-0.000344622716739993,-0.00022254761974890085,0.0003648800030683982,0.0011728236398871148,0.5021602511405945,34.13833236694336,3.7990386486053467,-19.436067581176758,-0.2429099678993225,-1.796573281288147,0.09097616374492645,0
9,0.04000091552734375,-0.5021602511405945,-34.13833236694336,-3.7990386486053467,19.436067581176758,0.2429099678993225,1.796573281288147,-0.09097616374492645,0.0,0.0,0.0,0.0,0.0,0.0,0.0,-0.5061955984850668,-0.08548391571776717,-0.2457766621951825,0.4262525692266812,0.19539410252007364,-0.1213362146005053,-0.12089357648900313,1.0544042120941897,0.32420889819295723,-0.3925028386778212,-2.153497399380332,0.8647499179013407,2.4659382667938865,0.5444871670625371,1.0544104758940245,0.3238615046091247,-0.39250456234122666,-2.153291787532338,0.8647539153680389,2.46587817577521,0.5445020185570556,1.8006259153390123e-05,-0.00013922867551606513,-1.9599436031635287e-05,0.000344622716739993,0.00022254761974890085,-0.0003648800030683982,-0.0011728236398871148,0.0,0.0,0.0,0.0,0.0,0.0,0.0,6.263799834815842e-06,-0.0003473935838325115,-1.723663405450715e-06,0.00020561184799428034,3.997466698213437e-06,-6.009101867654465e-05,1.4851494518519637e-05,-1.8006259153390123e-05,0.00013922867551606513,1.9599436031635287e-05,-0.000344622716739993,-0.00022254761974890085,0.0003648800030683982,0.0011728236398871148,0.5021602511405945,34.13833236694336,3.7990386486053467,-19.436067581176758,-0.2429099678993225,-1.796573281288147,0.09097616374492645,0
10,0.04539775848388672,-0.5299312472343445,-34.16213607788086,-3.8228423595428467,19.436067581176758,0.2603049874305725,1.796573281288147,-0.13217489421367645,0.0,0.0,0.0,0.0,0.0,0.0,0.0,-0.5079343306516918,-0.0874850535927359,-0.24620398365465582,0.42937537782641344,0.1952226411924771,-0.12042631074765052,-0.12117518471783993,1.0544061609360207,0.3242105686288131,-0.3925011564682068,-2.153497399380332,0.8647479865749594,2.4659382667938865,0.5444916255088076,1.0544104758940245,0.3238615046091247,-0.39250456234122666,-2.153291787532338,0.8647539153680389,2.46587817577521,0.5445020185570556,5.277852129495981e-05,9.357807026648507e-05,0.0006022437725935276,0.000265185752593456,-0.00048194329695708276,-0.0005164761939424057,0.0007095834301622896,0.0,0.0,0.0,0.0,0.0,0.0,0.0,4.314958003792668e-06,-0.0003490640196883721,-3.4058730198349707e-06,0.00020561184799428034,5.928793079479355e-06,-6.009101867654465e-05,1.0393048248014125e-05,-5.277852129495981e-05,-9.357807026648507e-05,-0.0006022437725935276,-0.000265185752593456,0.00048194329695708276,0.0005164761939424057,-0.0007095834301622896,0.5299312472343445,34.16213607788086,3.8228423595428467,-19.436067581176758,-0.2603049874305725,-1.796573281288147,0.13217489421367645,0
11,0.050038814544677734,-0.5299312472343445,-34.16213607788086,-3.8228423595428467,19.436067581176758,0.2603049874305725,1.796573281288147,-0.13217489421367645,0.0,0.0,0.0,0.0,0.0,0.0,0.0,-0.5079343306516918,-0.0874850535927359,-0.24620398365465582,0.42937537782641344,0.1952226411924771,-0.12042631074765052,-0.12117518471783993,1.0544061609360207,0.3242105686288131,-0.3925011564682068,-2.153497399380332,0.8647479865749594,2.4659382667938865,0.5444916255088076,1.0544104758940245,0.3238615046091247,-0.39250456234122666,-2.153291787532338,0.8647539153680389,2.46587817577521,0.5445020185570556,5.277852129495981e-05,9.357807026648507e-05,0.0006022437725935276,0.000265185752593456,-0.00048194329695708276,-0.0005164761939424057,0.0007095834301622896,0.0,0.0,0.0,0.0,0.0,0.0,0.0,4.314958003792668e-06,-0.0003490640196883721,-3.4058730198349707e-06,0.00020561184799428034,5.928793079479355e-06,-6.009101867654465e-05,1.0393048248014125e-05,-5.277852129495981e-05,-9.357807026648507e-05,-0.0006022437725935276,-0.000265185752593456,0.00048194329695708276,0.0005164761939424057,-0.0007095834301622896,0.5299312472343445,34.16213607788086,3.8228423595428467,-19.436067581176758,-0.2603049874305725,-1.796573281288147,0.13217489421367645,0
12,0.05499863624572754,-0.4783565402030945,-34.16213607788086,-3.8228423595428467,19.459871292114258,0.2429099678993225,1.796573281288147,-0.14590780436992645,0.0,0.0,0.0,0.0,0.0,0.0,0.0,-0.5073787268631093,-0.08856003193618346,-0.24166720205220477,0.43103174957710266,0.19500643761132402,-0.1208457644332999,-0.1214177545903285,1.0544025416583342,0.3242105656853738,-0.3925011564681404,-2.1534990698161875,0.8647488553561355,2.4659382667938865,0.5444935307636553,1.0544104758940245,0.3238615046091247,-0.39250456234122666,-2.153291787532338,0.8647539153680389,2.46587817577521,0.5445020185570556,-0.0013453463905296595,-0.00039895729319633307,0.00030447458948628926,-0.00036449915835376696,0.000276874949710543,-0.000600917936241901,0.0009719281375667964,0.0,0.0,0.0,0.0,0.0,0.0,0.0,7.934235690232327e-06,-0.000349061076249102,-3.4058730862818187e-06,0.00020728228384969682,5.0600119033683555e-06,-6.009101867654465e-05,8.487793400346888e-06,0.0013453463905296595,0.00039895729319633307,-0.00030447458948628926,0.00036449915835376696,-0.000276874949710543,0.000600917936241901,-0.0009719281375667964,0.4783565402030945,34.16213607788086,3.8228423595428467,-19.459871292114258,-0.2429099678993225,-1.796573281288147,0.14590780436992645,0
13,0.0599977970123291,-0.4783565402030945,-34.16213607788086,-3.8228423595428467,19.459871292114258,0.2429099678993225,1.796573281288147,-0.14590780436992645,0.0,0.0,0.0,0.0,0.0,0.0,0.0,-0.5073787268631093,-0.08856003193618346,-0.24166720205220477,0.43103174957710266,0.19500643761132402,-0.1208457644332999,-0.1214177545903285,1.0544025416583342,0.3242105656853738,-0.3925011564681404,-2.1534990698161875,0.8647488553561355,2.4659382667938865,0.5444935307636553,1.0544104758940245,0.3238615046091247,-0.39250456234122666,-2.153291787532338,0.8647539153680389,2.46587817577521,0.5445020185570556,-0.0013453463905296595,-0.00039895729319633307,0.00030447458948628926,-0.00036449915835376696,0.000276874949710543,-0.000600917936241901,0.0009719281375667964,0.0,0.0,0.0,0.0,0.0,0.0,0.0,7.934235690232327e-06,-0.000349061076249102,-3.4058730862818187e-06,0.00020728228384969682,5.0600119033683555e-06,-6.009101867654465e-05,8.487793400346888e-06,0.0013453463905296595,0.00039895729319633307,-0.00030447458948628926,0.00036449915835376696,-0.000276874949710543,0.000600917936241901,-0.0009719281375667964,0.4783565402030945,34.16213607788086,3.8228423595428467,-19.459871292114258,-0.2429099678993225,-1.796573281288147,0.14590780436992645,0
14,0.06500029563903809,-0.5021602511405945,-34.18990707397461,-3.8228423595428467,19.487642288208008,0.2548118233680725,1.783755898475647,-0.09097616374492645,0.0,0.0,0.0,0.0,0.0,0.0,0.0,-0.511239976694577,-0.08760616101232412,-0.24164600901523645,0.42988836931937113,0.1947869807834402,-0.12059922673498469,-0.12176256616612452,1.0544042120941897,0.3242125174706276,-0.3925011564681404,-2.1535010186580186,0.8647484791291188,2.465939690947532,0.544487074037462,1.0544104758940245,0.3238615046091247,-0.39250456234122666,-2.153291787532338,0.8647539153680389,2.46587817577521,0.5445020185570556,-0.00038388549820340696,0.0008317559928422571,8.91696321847007e-05,-0.000790605133837475,-0.00017907381335235882,0.0002720678109077109,-0.001183781944998908,0.0,0.0,0.0,0.0,0.0,0.0,0.0,6.263799834815842e-06,-0.00035101286150290845,-3.4058730862818187e-06,0.00020923112568072,5.436238920131231e-06,-6.151517232222403e-05,1.4944519593607097e-05,0.00038388549820340696,-0.0008317559928422571,-8.91696321847007e-05,0.000790605133837475,0.00017907381335235882,-0.0002720678109077109,0.001183781944998908,0.5021602511405945,34.18990707397461,3.8228423595428467,-19.487642288208008,-0.2548118233680725,-1.783755898475647,0.09097616374492645,0
15,0.06995606422424316,-0.5021602511405945,-34.18990707397461,-3.8228423595428467,19.487642288208008,0.2548118233680725,1.783755898475647,-0.09097616374492645,0.0,0.0,0.0,0.0,0.0,0.0,0.0,-0.511239976694577,-0.08760616101232412,-0.24164600901523645,0.42988836931937113,0.1947869807834402,-0.12059922673498469,-0.12176256616612452,1.0544042120941897,0.3242125174706276,-0.3925011564681404,-2.1535010186580186,0.8647484791291188,2.465939690947532,0.544487074037462,1.0544104758940245,0.3238615046091247,-0.39250456234122666,-2.153291787532338,0.8647539153680389,2.46587817577521,0.5445020185570556,-0.00038388549820340696,0.0008317559928422571,8.91696321847007e-05,-0.000790605133837475,-0.00017907381335235882,0.0002720678109077109,-0.001183781944998908,0.0,0.0,0.0,0.0,0.0,0.0,0.0,6.263799834815842e-06,-0.00035101286150290845,-3.4058730862818187e-06,0.00020923112568072,5.436238920131231e-06,-6.151517232222403e-05,1.4944519593607097e-05,0.00038388549820340696,-0.0008317559928422571,-8.91696321847007e-05,0.000790605133837475,0.00017907381335235882,-0.0002720678109077109,0.001183781944998908,0.5021602511405945,34.18990707397461,3.8228423595428467,-19.487642288208008,-0.2548118233680725,-1.783755898475647,0.09097616374492645,0
16,0.0749654769897461,-0.5537349581718445,-34.18990707397461,-3.7990386486053467,19.487642288208008,0.2484031319618225,1.783755898475647,-0.11844198405742645,0.0,0.0,0.0,0.0,0.0,0.0,0.0,-0.5074514732198844,-0.09292318543682013,-0.2380584849295607,0.4314874374120424,0.19461896146725505,-0.12035541845188917,-0.1214626350461383,1.054407831371876,0.3242125174706442,-0.39250283573431344,-2.1535010186580186,0.8647461300883,2.465939690947532,0.5444911466700701,1.0544104758940245,0.3238615046091247,-0.39250456234122666,-2.153291787532338,0.8647539153680389,2.46587817577521,0.5445020185570556,0.0013078797182383766,0.00018358687518864385,-0.00031457037507317864,-0.0004585703366342543,-0.00015116993308321038,0.00018016870780293245,-0.00025943377008468167,0.0,0.0,0.0,0.0,0.0,0.0,0.0,2.6445221483761827e-06,-0.0003510128615195063,-1.7266069132215733e-06,0.00020923112568072,7.785279738881101e-06,-6.151517232222403e-05,1.0871886985452939e-05,-0.0013078797182383766,-0.00018358687518864385,0.00031457037507317864,0.0004585703366342543,0.00015116993308321038,-0.00018016870780293245,0.00025943377008468167,0.5537349581718445,34.18990707397461,3.7990386486053467,-19.487642288208008,-0.2484031319618225,-1.783755898475647,0.11844198405742645,0
17,0.08040261268615723,-0.5537349581718445,-34.18990707397461,-3.7990386486053467,19.487642288208008,0.2484031319618225,1.783755898475647,-0.11844198405742645,0.0,0.0,0.0,0.0,0.0,0.0,0.0,-0.5074514732198844,-0.09292318543682013,-0.2380584849295607,0.4314874374120424,0.19461896146725505,-0.12035541845188917,-0.1214626350461383,1.054407831371876,0.3242125174706442,-0.39250283573431344,-2.1535010186580186,0.8647461300883,2.465939690947532,0.5444911466700701,1.0544104758940245,0.3238615046091247,-0.39250456234122666,-2.153291787532338,0.8647539153680389,2.46587817577521,0.5445020185570556,0.0013078797182383766,0.00018358687518864385,-0.00031457037507317864,-0.0004585703366342543,-0.00015116993308321038,0.00018016870780293245,-0.00025943377008468167,0.0,0.0,0.0,0.0,0.0,0.0,0.0,2.6445221483761827e-06,-0.0003510128615195063,-1.7266069132215733e-06,0.00020923112568072,7.785279738881101e-06,-6.151517232222403e-05,1.0871886985452939e-05,-0.0013078797182383766,-0.00018358687518864385,0.00031457037507317864,0.0004585703366342543,0.00015116993308321038,-0.00018016870780293245,0.00025943377008468167,0.5537349581718445,34.18990707397461,3.7990386486053467,-19.487642288208008,-0.2484031319618225,-1.783755898475647,0.11844198405742645,0
18,0.08500051498413086,-0.4783565402030945,-34.16213607788086,-3.7752349376678467,19.436067581176758,0.2548118233680725,1.783755898475647,-0.11844198405742645,0.0,0.0,0.0,0.0,0.0,0.0,0.0,-0.5123602905320717,-0.08914533237629409,-0.24327726203594927,0.4306047802839128,0.1944220544485692,-0.12003990577622949,-0.12182437660908886,1.0544025416583342,0.3242105686288131,-0.3925044973399008,-2.153497399380332,0.864748242242325,2.465939690947532,0.5444915124859783,1.0544104758940245,0.3238615046091247,-0.39250456234122666,-2.153291787532338,0.8647539153680389,2.46587817577521,0.5445020185570556,-0.0007379761729280662,-0.00014725749620803617,-0.0008948432840800363,0.0008260423684634064,-0.00031825210746751664,0.0001946182615434803,0.00016747879628254775,0.0,0.0,0.0,0.0,0.0,0.0,0.0,7.934235690232327e-06,-0.0003490640196883721,-6.50013258773896e-08,0.00020561184799428034,5.673125713867577e-06,-6.151517232222403e-05,1.0506071077331924e-05,0.0007379761729280662,0.00014725749620803617,0.0008948432840800363,-0.0008260423684634064,0.00031825210746751664,-0.0001946182615434803,-0.00016747879628254775,0.4783565402030945,34.16213607788086,3.7752349376678467,-19.436067581176758,-0.2548118233680725,-1.783755898475647,0.11844198405742645,0
19,0.08999848365783691,-0.4783565402030945,-34.16213607788086,-3.7752349376678467,19.436067581176758,0.2548118233680725,1.783755898475647,-0.11844198405742645,0.0,0.0,0.0,0.0,0.0,0.0,0.0,-0.5123602905320717,-0.08914533237629409,-0.24327726203594927,0.4306047802839128,0.1944220544485692,-0.12003990577622949,-0.12182437660908886,1.0544025416583342,0.3242105686288131,-0.3925044973399008,-2.153497399380332,0.864748242242325,2.465939690947532,0.5444915124859783,1.0544104758940245,0.3238615046091247,-0.39250456234122666,-2.153291787532338,0.8647539153680389,2.46587817577521,0.5445020185570556,-0.0007379761729280662,-0.00014725749620803617,-0.0008948432840800363,0.0008260423684634064,-0.00031825210746751664,0.0001946182615434803,0.00016747879628254775,0.0,0.0,0.0,0.0,0.0,0.0,0.0,7.934235690232327e-06,-0.0003490640196883721,-6.50013258773896e-08,0.00020561184799428034,5.673125713867577e-06,-6.151517232222403e-05,1.0506071077331924e-05,0.0007379761729280662,0.00014725749620803617,0.0008948432840800363,-0.0008260423684634064,0.00031825210746751664,-0.0001946182615434803,-0.00016747879628254775,0.4783565402030945,34.16213607788086,3.7752349376678467,-19.436067581176758,-0.2548118233680725,-1.783755898475647,0.11844198405742645,0
20,0.08999848365783691,-0.4783565402030945,-34.16213607788086,-3.7752349376678467,19.436067581176758,0.2548118233680725,1.783755898475647,-0.11844198405742645,0.0,0.0,0.0,0.0,0.0,0.0,0.0,-0.5123602905320717,-0.08914533237629409,-0.24327726203594927,0.4306047802839128,0.1944220544485692,-0.12003990577622949,-0.12182437660908886,1.0544025416583342,0.3242105686288131,-0.3925044973399008,-2.153497399380332,0.864748242242325,2.465939690947532,0.5444915124859783,1.0544104758940245,0.3238615046091247,-0.39250456234122666,-2.153291787532338,0.8647539153680389,2.46587817577521,0.5445020185570556,-0.0007379761729280662,-0.00014725749620803617,-0.0008948432840800363,0.0008260423684634064,-0.00031825210746751664,0.0001946182615434803,0.00016747879628254775,0.0,0.0,0.0,0.0,0.0,0.0,0.0,7.934235690232327e-06,-0.0003490640196883721,-6.50013258773896e-08,0.00020561184799428034,5.673125713867577e-06,-6.151517232222403e-05,1.0506071077331924e-05,0.0007379761729280662,0.00014725749620803617,0.0008948432840800363,-0.0008260423684634064,0.00031825210746751664,-0.0001946182615434803,-0.00016747879628254775,0.4783565402030945,34.16213607788086,3.7752349376678467,-19.436067581176758,-0.2548118233680725,-1.783755898475647,0.11844198405742645,0
21,0.0999753475189209,-0.4505855441093445,-34.13833236694336,-3.7990386486053467,19.436067581176758,0.2429099678993225,1.783755898475647,-0.12485067546367645,0.0,0.0,0.0,0.0,0.0,0.0,0.0,-0.4977605148231273,-0.08828259572408648,-0.23162117342007532,0.430637300156504,0.19365137909480923,-0.12036570619657162,-0.12143069134429026,1.0544005928165032,0.32420889808394154,-0.3925028360613622,-2.153497399380332,0.8647498752080541,2.465939690947532,0.5444918597237545,1.0544104758940245,0.3238615046091247,-0.39250456234122666,-2.153291787532338,0.8647539153680389,2.46587817577521,0.5445020185570556,-0.0007038449731337264,-0.000561060406614785,-3.2288118235100164e-05,0.000395251246470118,0.00023711875778279165,0.00013097266281620048,0.0005404173731364654,0.0,0.0,0.0,0.0,0.0,0.0,0.0,9.883077521255501e-06,-0.00034739347481682614,-1.7262798644446242e-06,0.00020561184799428034,4.040159984786129e-06,-6.151517232222403e-05,1.0158833301132653e-05,0.0007038449731337264,0.000561060406614785,3.2288118235100164e-05,-0.000395251246470118,-0.00023711875778279165,-0.00013097266281620048,-0.0005404173731364654,0.4505855441093445,34.13833236694336,3.7990386486053467,-19.436067581176758,-0.2429099678993225,-1.783755898475647,0.12485067546367645,0
22,0.10499715805053711,-0.4505855441093445,-34.13833236694336,-3.7990386486053467,19.436067581176758,0.2429099678993225,1.783755898475647,-0.12485067546367645,0.0,0.0,0.0,0.0,0.0,0.0,0.0,-0.4977605148231273,-0.08828259572408648,-0.23162117342007532,0.430637300156504,0.19365137909480923,-0.12036570619657162,-0.12143069134429026,1.0544005928165032,0.32420889808394154,-0.3925028360613622,-2.153497399380332,0.8647498752080541,2.465939690947532,0.5444918597237545,1.0544104758940245,0.3238615046091247,-0.39250456234122666,-2.153291787532338,0.8647539153680389,2.46587817577521,0.5445020185570556,-0.0007038449731337264,-0.000561060406614785,-3.2288118235100164e-05,0.000395251246470118,0.00023711875778279165,0.00013097266281620048,0.0005404173731364654,0.0,0.0,0.0,0.0,0.0,0.0,0.0,9.883077521255501e-06,-0.00034739347481682614,-1.7262798644446242e-06,0.00020561184799428034,4.040159984786129e-06,-6.151517232222403e-05,1.0158833301132653e-05,0.0007038449731337264,0.000561060406614785,3.2288118235100164e-05,-0.000395251246470118,-0.00023711875778279165,-0.00013097266281620048,-0.0005404173731364654,0.4505855441093445,34.13833236694336,3.7990386486053467,-19.436067581176758,-0.2429099678993225,-1.783755898475647,0.12485067546367645,0
23,0.10999274253845215,-0.4783565402030945,-34.16213607788086,-3.7990386486053467,19.459871292114258,0.2484031319618225,1.783755898475647,-0.11844198405742645,0.0,0.0,0.0,0.0,0.0,0.0,0.0,-0.5159570760557762,-0.09032798606886468,-0.2501566050920933,0.4310114236554185,0.1942875025124306,-0.11851095990678512,-0.12123957895183339,1.0544025416583342,0.32421056862881287,-0.39250283574644357,-2.1534990698161875,0.8647493090032701,2.465939690947532,0.5444900866030343,1.0544104758940245,0.3238615046091247,-0.39250456234122666,-2.153291787532338,0.8647539153680389,2.46587817577521,0.5445020185570556,-0.0011175551274315212,5.141442906340943e-05,-0.0002648608116566466,-0.00041039812119962447,0.00010501828264421087,-0.00011363223564206532,0.00022499533259072246,0.0,0.0,0.0,0.0,0.0,0.0,0.0,7.934235690232327e-06,-0.00034906401968815004,-1.7265947830913397e-06,0.00020728228384969682,4.606364768844351e-06,-6.151517232222403e-05,1.1931954021271451e-05,0.0011175551274315212,-5.141442906340943e-05,0.0002648608116566466,0.00041039812119962447,-0.00010501828264421087,0.00011363223564206532,-0.00022499533259072246,0.4783565402030945,34.16213607788086,3.7990386486053467,-19.459871292114258,-0.2484031319618225,-1.783755898475647,0.11844198405742645,0
24,0.11499953269958496,-0.4783565402030945,-34.16213607788086,-3.7990386486053467,19.459871292114258,0.2484031319618225,1.783755898475647,-0.11844198405742645,0.0,0.0,0.0,0.0,0.0,0.0,0.0,-0.5159570760557762,-0.09032798606886468,-0.2501566050920933,0.4310114236554185,0.1942875025124306,-0.11851095990678512,-0.12123957895183339,1.0544025416583342,0.32421056862881287,-0.39250283574644357,-2.1534990698161875,0.8647493090032701,2.465939690947532,0.5444900866030343,1.0544104758940245,0.3238615046091247,-0.39250456234122666,-2.153291787532338,0.8647539153680389,2.46587817577521,0.5445020185570556,-0.0011175551274315212,5.141442906340943e-05,-0.0002648608116566466,-0.00041039812119962447,0.00010501828264421087,-0.00011363223564206532,0.00022499533259072246,0.0,0.0,0.0,0.0,0.0,0.0,0.0,7.934235690232327e-06,-0.00034906401968815004,-1.7265947830913397e-06,0.00020728228384969682,4.606364768844351e-06,-6.151517232222403e-05,1.1931954021271451e-05,0.0011175551274315212,-5.141442906340943e-05,0.0002648608116566466,0.00041039812119962447,-0.00010501828264421087,0.00011363223564206532,-0.00022499533259072246,0.4783565402030945,34.16213607788086,3.7990386486053467,-19.459871292114258,-0.2484031319618225,-1.783755898475647,0.11844198405742645,0
25,0.12000870704650879,-0.5021602511405945,-34.16213607788086,-3.8228423595428467,19.459871292114258,0.2484031319618225,1.790164589881897,-0.11111776530742645,0.0,0.0,0.0,0.0,0.0,0.0,0.0,-0.5065147633128341,-0.09115443491821465,-0.2411668134359951,0.43458079958832707,0.1940517278113776,-0.11902252789888382,-0.12004610768159675,1.0544042120941897,0.3242105686288131,-0.39250116638877053,-2.1534990698161875,0.8647491520199265,2.4659389832313603,0.5444925737577287,1.0544104758940245,0.3238615046091247,-0.39250456234122666,-2.153291787532338,0.8647539153680389,2.46587817577521,0.5445020185570556,6.492103842900527e-05,6.300005581112615e-05,0.00011399430361440074,0.0001317960946190676,1.9935643867109072e-05,-0.00020516611416693443,-0.0006753519570037529,0.0,0.0,0.0,0.0,0.0,0.0,0.0,6.263799834815842e-06,-0.0003490640196883721,-3.3959524561311127e-06,0.00020728228384969682,4.763348112390986e-06,-6.080745615033578e-05,9.444799326852049e-06,-6.492103842900527e-05,-6.300005581112615e-05,-0.00011399430361440074,-0.0001317960946190676,-1.9935643867109072e-05,0.00020516611416693443,0.0006753519570037529,0.5021602511405945,34.16213607788086,3.8228423595428467,-19.459871292114258,-0.2484031319618225,-1.790164589881897,0.11111776530742645,0
26,0.12501835823059082,-0.5021602511405945,-34.16213607788086,-3.8228423595428467,19.459871292114258,0.2484031319618225,1.790164589881897,-0.11111776530742645,0.0,0.0,0.0,0.0,0.0,0.0,0.0,-0.5065147633128341,-0.09115443491821465,-0.2411668134359951,0.43458079958832707,0.1940517278113776,-0.11902252789888382,-0.12004610768159675,1.0544042120941897,0.3242105686288131,-0.39250116638877053,-2.1534990698161875,0.8647491520199265,2.4659389832313603,0.5444925737577287,1.0544104758940245,0.3238615046091247,-0.39250456234122666,-2.153291787532338,0.8647539153680389,2.46587817577521,0.5445020185570556,6.492103842900527e-05,6.300005581112615e-05,0.00011399430361440074,0.0001317960946190676,1.9935643867109072e-05,-0.00020516611416693443,-0.0006753519570037529,0.0,0.0,0.0,0.0,0.0,0.0,0.0,6.263799834815842e-06,-0.0003490640196883721,-3.3959524561311127e-06,0.00020728228384969682,4.763348112390986e-06,-6.080745615033578e-05,9.444799326852049e-06,-6.492103842900527e-05,-6.300005581112615e-05,-0.00011399430361440074,-0.0001317960946190676,-1.9935643867109072e-05,0.00020516611416693443,0.0006753519570037529,0.5021602511405945,34.16213607788086,3.8228423595428467,-19.459871292114258,-0.2484031319618225,-1.790164589881897,0.11111776530742645,0
27,0.13000249862670898,-0.5021602511405945,-34.13833236694336,-3.7990386486053467,19.459871292114258,0.2484031319618225,1.796573281288147,-0.10470907390117645,0.0,0.0,0.0,0.0,0.0,0.0,0.0,-0.5081913312811399,-0.09028683652575988,-0.24272580124788615,0.4327609219664618,0.19426471085307537,-0.11923531548378391,-0.1206196932906926,1.0544042120941897,0.32420889819295784,-0.39250282690401433,-2.1534990698161875,0.8647493090030577,2.46593826684773,0.5444885608360133,1.0544104758940245,0.3238615046091247,-0.39250456234122666,-2.153291787532338,0.8647539153680389,2.46587817577521,0.5445020185570556,-0.00014434548427545404,-0.0007026579369177853,-9.738474268946555e-05,-6.153427514282326e-05,-9.97053227634894e-05,-0.00039544703297944225,-0.000475365102830386,0.0,0.0,0.0,0.0,0.0,0.0,0.0,6.263799834815842e-06,-0.00034739358383312213,-1.7354372123246087e-06,0.00020728228384969682,4.606364981230016e-06,-6.00910725201409e-05,1.345772104233145e-05,0.00014434548427545404,0.0007026579369177853,9.738474268946555e-05,6.153427514282326e-05,9.97053227634894e-05,0.00039544703297944225,0.000475365102830386,0.5021602511405945,34.13833236694336,3.7990386486053467,-19.459871292114258,-0.2484031319618225,-1.796573281288147,0.10470907390117645,0
28,0.13500308990478516,-0.5021602511405945,-34.13833236694336,-3.7990386486053467,19.459871292114258,0.2484031319618225,1.796573281288147,-0.10470907390117645,0.0,0.0,0.0,0.0,0.0,0.0,0.0,-0.5081913312811399,-0.09028683652575988,-0.24272580124788615,0.4327609219664618,0.19426471085307537,-0.11923531548378391,-0.1206196932906926,1.0544042120941897,0.32420889819295784,-0.39250282690401433,-2.1534990698161875,0.8647493090030577,2.46593826684773,0.5444885608360133,1.0544104758940245,0.3238615046091247,-0.39250456234122666,-2.153291787532338,0.8647539153680389,2.46587817577521,0.5445020185570556,-0.00014434548427545404,-0.0007026579369177853,-9.738474268946555e-05,-6.153427514282326e-05,-9.97053227634894e-05,-0.00039544703297944225,-0.000475365102830386,0.0,0.0,0.0,0.0,0.0,0.0,0.0,6.263799834815842e-06,-0.00034739358383312213,-1.7354372123246087e-06,0.00020728228384969682,4.606364981230016e-06,-6.00910725201409e-05,1.345772104233145e-05,0.00014434548427545404,0.0007026579369177853,9.738474268946555e-05,6.153427514282326e-05,9.97053227634894e-05,0.00039544703297944225,0.000475365102830386,0.5021602511405945,34.13833236694336,3.7990386486053467,-19.459871292114258,-0.2484031319618225,-1.796573281288147,0.10470907390117645,0
29,0.1399991512298584,-0.5299312472343445,-34.18990707397461,-3.8228423595428467,19.459871292114258,0.2484031319618225,1.790164589881897,-0.13858358561992645,0.0,0.0,0.0,0.0,0.0,0.0,0.0,-0.5068317151969877,-0.0912900317513401,-0.23939919012345293,0.43388175936431284,0.19405126539236356,-0.11896414820929424,-0.12047029481507156,1.0544061609360207,0.3242103627640983,-0.3925011564681404,-2.1534990698161875,0.8647450688357798,2.46593897887071,0.5444956230929575,1.0544104758940245,0.3238615046091247,-0.39250456234122666,-2.153291787532338,0.8647539153680389,2.46587817577521,0.5445020185570556,0.000702061977389206,0.00024540866384246474,0.0001993298303564621,0.00020353030653400773,0.00022671057883642752,-0.00014663581431840637,0.0012495264227862738,0.0,0.0,0.0,0.0,0.0,0.0,0.0,4.314958003792668e-06,-0.00034885815497359696,-3.4058730862818187e-06,0.00020728228384969682,8.846532259076945e-06,-6.080309549982843e-05,6.395464098085668e-06,-0.000702061977389206,-0.00024540866384246474,-0.0001993298303564621,-0.00020353030653400773,-0.00022671057883642752,0.00014663581431840637,-0.0012495264227862738,0.5299312472343445,34.18990707397461,3.8228423595428467,-19.459871292114258,-0.2484031319618225,-1.790164589881897,0.13858358561992645,0
30,0.14499616622924805,-0.5299312472343445,-34.18990707397461,-3.8228423595428467,19.459871292114258,0.2484031319618225,1.790164589881897,-0.13858358561992645,0.0,0.0,0.0,0.0,0.0,0.0,0.0,-0.5068317151969877,-0.0912900317513401,-0.23939919012345293,0.43388175936431284,0.19405126539236356,-0.11896414820929424,-0.12047029481507156,1.0544061609360207,0.3242103627640983,-0.3925011564681404,-2.1534990698161875,0.8647450688357798,2.46593897887071,0.5444956230929575,1.0544104758940245,0.3238615046091247,-0.39250456234122666,-2.153291787532338,0.8647539153680389,2.46587817577521,0.5445020185570556,0.000702061977389206,0.00024540866384246474,0.0001993298303564621,0.00020353030653400773,0.00022671057883642752,-0.00014663581431840637,0.0012495264227862738,0.0,0.0,0.0,0.0,0.0,0.0,0.0,4.314958003792668e-06,-0.00034885815497359696,-3.4058730862818187e-06,0.00020728228384969682,8.846532259076945e-06,-6.080309549982843e-05,6.395464098085668e-06,-0.000702061977389206,-0.00024540866384246474,-0.0001993298303564621,-0.00020353030653400773,-0.00022671057883642752,0.00014663581431840637,-0.0012495264227862738,0.5299312472343445,34.18990707397461,3.8228423595428467,-19.459871292114258,-0.2484031319618225,-1.790164589881897,0.13858358561992645,0
31,0.15000224113464355,-0.5537349581718445,-34.18990707397461,-3.8228423595428467,19.436067581176758,0.2429099678993225,1.777347207069397,-0.16604940593242645,0.0,0.0,0.0,0.0,0.0,0.0,0.0,-0.5155171585634264,-0.09702607812493722,-0.24747003991217692,0.4361290321265544,0.1947280789921992,-0.11817287879400835,-0.1198012336313072,1.054407831371876,0.32421251648541033,-0.3925011564681404,-2.153497399380332,0.8647499130554595,2.4659404030243555,0.5444954170148724,1.0544104758940245,0.3238615046091247,-0.39250456234122666,-2.153291787532338,0.8647539153680389,2.46587817577521,0.5445020185570556,0.00034457420191908844,0.0002410852089662167,0.0001308194840908458,0.0007974829247254278,0.00016871731797145074,0.0004892528934644844,0.0016101275204961026,0.0,0.0,0.0,0.0,0.0,0.0,0.0,2.6445221483761827e-06,-0.0003510118762856118,-3.4058730862818187e-06,0.00020561184799428034,4.002312579465261e-06,-6.222724914550781e-05,6.6015421832377186e-06,-0.00034457420191908844,-0.0002410852089662167,-0.0001308194840908458,-0.0007974829247254278,-0.00016871731797145074,-0.0004892528934644844,-0.0016101275204961026,0.5537349581718445,34.18990707397461,3.8228423595428467,-19.436067581176758,-0.2429099678993225,-1.777347207069397,0.16604940593242645,0
32,0.15501070022583008,-0.5537349581718445,-34.18990707397461,-3.8228423595428467,19.436067581176758,0.2429099678993225,1.777347207069397,-0.16604940593242645,0.0,0.0,0.0,0.0,0.0,0.0,0.0,-0.5155171585634264,-0.09702607812493722,-0.24747003991217692,0.4361290321265544,0.1947280789921992,-0.11817287879400835,-0.1198012336313072,1.054407831371876,0.32421251648541033,-0.3925011564681404,-2.153497399380332,0.8647499130554595,2.4659404030243555,0.5444954170148724,1.0544104758940245,0.3238615046091247,-0.39250456234122666,-2.153291787532338,0.8647539153680389,2.46587817577521,0.5445020185570556,0.00034457420191908844,0.0002410852089662167,0.0001308194840908458,0.0007974829247254278,0.00016871731797145074,0.0004892528934644844,0.0016101275204961026,0.0,0.0,0.0,0.0,0.0,0.0,0.0,2.6445221483761827e-06,-0.0003510118762856118,-3.4058730862818187e-06,0.00020561184799428034,4.002312579465261e-06,-6.222724914550781e-05,6.6015421832377186e-06,-0.00034457420191908844,-0.0002410852089662167,-0.0001308194840908458,-0.0007974829247254278,-0.00016871731797145074,-0.0004892528934644844,-0.0016101275204961026,0.5537349581718445,34.18990707397461,3.8228423595428467,-19.436067581176758,-0.2429099678993225,-1.777347207069397,0.16604940593242645,0
33,0.16001057624816895,-0.5537349581718445,-34.18990707397461,-3.8228423595428467,19.436067581176758,0.2429099678993225,1.777347207069397,-0.16604940593242645,0.0,0.0,0.0,0.0,0.0,0.0,0.0,-0.5155171585634264,-0.09702607812493722,-0.24747003991217692,0.4361290321265544,0.1947280789921992,-0.11817287879400835,-0.1198012336313072,1.054407831371876,0.32421251648541033,-0.3925011564681404,-2.153497399380332,0.8647499130554595,2.4659404030243555,0.5444954170148724,1.0544104758940245,0.3238615046091247,-0.39250456234122666,-2.153291787532338,0.8647539153680389,2.46587817577521,0.5445020185570556,0.00034457420191908844,0.0002410852089662167,0.0001308194840908458,0.0007974829247254278,0.00016871731797145074,0.0004892528934644844,0.0016101275204961026,0.0,0.0,0.0,0.0,0.0,0.0,0.0,2.6445221483761827e-06,-0.0003510118762856118,-3.4058730862818187e-06,0.00020561184799428034,4.002312579465261e-06,-6.222724914550781e-05,6.6015421832377186e-06,-0.00034457420191908844,-0.0002410852089662167,-0.0001308194840908458,-0.0007974829247254278,-0.00016871731797145074,-0.0004892528934644844,-0.0016101275204961026,0.5537349581718445,34.18990707397461,3.8228423595428467,-19.436067581176758,-0.2429099678993225,-1.777347207069397,0.16604940593242645,0
34,0.16528844833374023,-0.5537349581718445,-34.18990707397461,-3.8228423595428467,19.436067581176758,0.2429099678993225,1.777347207069397,-0.16604940593242645,0.0,0.0,0.0,0.0,0.0,0.0,0.0,-0.5155171585634264,-0.09702607812493722,-0.24747003991217692,0.4361290321265544,0.1947280789921992,-0.11817287879400835,-0.1198012336313072,1.054407831371876,0.32421251648541033,-0.3925011564681404,-2.153497399380332,0.8647499130554595,2.4659404030243555,0.5444954170148724,1.0544104758940245,0.3238615046091247,-0.39250456234122666,-2.153291787532338,0.8647539153680389,2.46587817577521,0.5445020185570556,0.00034457420191908844,0.0002410852089662167,0.0001308194840908458,0.0007974829247254278,0.00016871731797145074,0.0004892528934644844,0.0016101275204961026,0.0,0.0,0.0,0.0,0.0,0.0,0.0,2.6445221483761827e-06,-0.0003510118762856118,-3.4058730862818187e-06,0.00020561184799428034,4.002312579465261e-06,-6.222724914550781e-05,6.6015421832377186e-06,-0.00034457420191908844,-0.0002410852089662167,-0.0001308194840908458,-0.0007974829247254278,-0.00016871731797145074,-0.0004892528934644844,-0.0016101275204961026,0.5537349581718445,34.18990707397461,3.8228423595428467,-19.436067581176758,-0.2429099678993225,-1.777347207069397,0.16604940593242645,0
35,0.1699986457824707,-0.5021602511405945,-34.16213607788086,-3.8228423595428467,19.459871292114258,0.2484031319618225,1.777347207069397,-0.11111776530742645,0.0,0.0,0.0,0.0,0.0,0.0,0.0,-0.5158619125016133,-0.08516505996580462,-0.2414703065811214,0.4297361136419927,0.19492055297884672,-0.12126719713324996,-0.1201067903080071,1.0544042120941897,0.32421056862881303,-0.39250115748562553,-2.1534990698161875,0.8647493089488528,2.4659404030243555,0.5444903454652035,1.0544104758940245,0.3238615046091247,-0.39250456234122666,-2.153291787532338,0.8647539153680389,2.46587817577521,0.5445020185570556,-0.0008799086548747211,-8.565203240447834e-05,-7.405691052458476e-05,0.00030283061035290827,0.0002388007681884126,0.002536107740228524,-0.0006614528372339651,0.0,0.0,0.0,0.0,0.0,0.0,0.0,6.263799834815842e-06,-0.0003490640196883166,-3.40485560113013e-06,0.00020728228384969682,4.606419186092836e-06,-6.222724914550781e-05,1.1673091852126838e-05,0.0008799086548747211,8.565203240447834e-05,7.405691052458476e-05,-0.00030283061035290827,-0.0002388007681884126,-0.002536107740228524,0.0006614528372339651,0.5021602511405945,34.16213607788086,3.8228423595428467,-19.459871292114258,-0.2484031319618225,-1.777347207069397,0.11111776530742645,0
36,0.1750049591064453,-0.5021602511405945,-34.16213607788086,-3.8228423595428467,19.459871292114258,0.2484031319618225,1.777347207069397,-0.11111776530742645,0.0,0.0,0.0,0.0,0.0,0.0,0.0,-0.5158619125016133,-0.08516505996580462,-0.2414703065811214,0.4297361136419927,0.19492055297884672,-0.12126719713324996,-0.1201067903080071,1.0544042120941897,0.32421056862881303,-0.39250115748562553,-2.1534990698161875,0.8647493089488528,2.4659404030243555,0.5444903454652035,1.0544104758940245,0.3238615046091247,-0.39250456234122666,-2.153291787532338,0.8647539153680389,2.46587817577521,0.5445020185570556,-0.0008799086548747211,-8.565203240447834e-05,-7.405691052458476e-05,0.00030283061035290827,0.0002388007681884126,0.002536107740228524,-0.0006614528372339651,0.0,0.0,0.0,0.0,0.0,0.0,0.0,6.263799834815842e-06,-0.0003490640196883166,-3.40485560113013e-06,0.00020728228384969682,4.606419186092836e-06,-6.222724914550781e-05,1.1673091852126838e-05,0.0008799086548747211,8.565203240447834e-05,7.405691052458476e-05,-0.00030283061035290827,-0.0002388007681884126,-0.002536107740228524,0.0006614528372339651,0.5021602511405945,34.16213607788086,3.8228423595428467,-19.459871292114258,-0.2484031319618225,-1.777347207069397,0.11111776530742645,0
37,0.18001747131347656,-0.5299312472343445,-34.21371078491211,-3.8228423595428467,19.436067581176758,0.2429099678993225,1.783755898475647,-0.13858358561992645,0.0,0.0,0.0,0.0,0.0,0.0,0.0,-0.513156180205263,-0.09593172500292328,-0.24139438215041384,0.4375751949145263,0.19521271262210316,-0.1193513005684749,-0.12097430121032478,1.0544061609360207,0.3242141879064995,-0.3925011917894133,-2.153497399380332,0.8647499191934099,2.4659396909475326,0.5444923768327591,1.0544104758940245,0.3238615046091247,-0.39250456234122666,-2.153291787532338,0.8647539153680389,2.46587817577521,0.5445020185570556,0.00017834550124852815,0.0007312113311967874,0.0003954466191636548,0.0002448428550321182,0.00025808283757998256,0.00010535436044719975,0.0006335986791450668,0.0,0.0,0.0,0.0,0.0,0.0,0.0,4.314958003792668e-06,-0.00035268329737475623,-3.370551813375311e-06,0.00020561184799428034,3.9961746289840505e-06,-6.151517232266812e-05,9.64172429651633e-06,-0.00017834550124852815,-0.0007312113311967874,-0.0003954466191636548,-0.0002448428550321182,-0.00025808283757998256,-0.00010535436044719975,-0.0006335986791450668,0.5299312472343445,34.21371078491211,3.8228423595428467,-19.436067581176758,-0.2429099678993225,-1.783755898475647,0.13858358561992645,0
38,0.18500614166259766,-0.5299312472343445,-34.21371078491211,-3.8228423595428467,19.436067581176758,0.2429099678993225,1.783755898475647,-0.13858358561992645,0.0,0.0,0.0,0.0,0.0,0.0,0.0,-0.513156180205263,-0.09593172500292328,-0.24139438215041384,0.4375751949145263,0.19521271262210316,-0.1193513005684749,-0.12097430121032478,1.0544061609360207,0.3242141879064995,-0.3925011917894133,-2.153497399380332,0.8647499191934099,2.4659396909475326,0.5444923768327591,1.0544104758940245,0.3238615046091247,-0.39250456234122666,-2.153291787532338,0.8647539153680389,2.46587817577521,0.5445020185570556,0.00017834550124852815,0.0007312113311967874,0.0003954466191636548,0.0002448428550321182,0.00025808283757998256,0.00010535436044719975,0.0006335986791450668,0.0,0.0,0.0,0.0,0.0,0.0,0.0,4.314958003792668e-06,-0.00035268329737475623,-3.370551813375311e-06,0.00020561184799428034,3.9961746289840505e-06,-6.151517232266812e-05,9.64172429651633e-06,-0.00017834550124852815,-0.0007312113311967874,-0.0003954466191636548,-0.0002448428550321182,-0.00025808283757998256,-0.00010535436044719975,-0.0006335986791450668,0.5299312472343445,34.21371078491211,3.8228423595428467,-19.436067581176758,-0.2429099678993225,-1.783755898475647,0.13858358561992645,0
39,0.1900036334991455,-0.4783565402030945,-34.16213607788086,-3.7990386486053467,19.487642288208008,0.2484031319618225,1.777347207069397,-0.15964071452617645,0.0,0.0,0.0,0.0,0.0,0.0,0.0,-0.5129102775215951,-0.09504781878465067,-0.24113496296652645,0.43873449552609556,0.19528019731274732,-0.11897840846589323,-0.1218406556405632,1.0544025416583342,0.3242104891559534,-0.3925052231911907,-2.1535010186580186,0.8647493090033503,2.4659404030243555,0.5444950175590227,1.0544104758940245,0.3238615046091247,-0.39250456234122666,-2.153291787532338,0.8647539153680389,2.46587817577521,0.5445020185570556,-0.0009264877443588331,-0.00014279118446383396,-0.0001866389593723249,-0.0005852822049857523,2.3634889060113978e-06,0.0002815464604474451,0.0016334597357137853,0.0,0.0,0.0,0.0,0.0,0.0,0.0,7.934235690232327e-06,-0.00034898454682869007,6.608499640292642e-07,0.00020923112568072,4.606364688575226e-06,-6.222724914550781e-05,7.000998032857808e-06,0.0009264877443588331,0.00014279118446383396,0.0001866389593723249,0.0005852822049857523,-2.3634889060113978e-06,-0.0002815464604474451,-0.0016334597357137853,0.4783565402030945,34.16213607788086,3.7990386486053467,-19.487642288208008,-0.2484031319618225,-1.777347207069397,0.15964071452617645,0
40,0.19504809379577637,-0.4783565402030945,-34.16213607788086,-3.7990386486053467,19.487642288208008,0.2484031319618225,1.777347207069397,-0.15964071452617645,0.0,0.0,0.0,0.0,0.0,0.0,0.0,-0.5129102775215951,-0.09504781878465067,-0.24113496296652645,0.43873449552609556,0.19528019731274732,-0.11897840846589323,-0.1218406556405632,1.0544025416583342,0.3242104891559534,-0.3925052231911907,-2.1535010186580186,0.8647493090033503,2.4659404030243555,0.5444950175590227,1.0544104758940245,0.3238615046091247,-0.39250456234122666,-2.153291787532338,0.8647539153680389,2.46587817577521,0.5445020185570556,-0.0009264877443588331,-0.00014279118446383396,-0.0001866389593723249,-0.0005852822049857523,2.3634889060113978e-06,0.0002815464604474451,0.0016334597357137853,0.0,0.0,0.0,0.0,0.0,0.0,0.0,7.934235690232327e-06,-0.00034898454682869007,6.608499640292642e-07,0.00020923112568072,4.606364688575226e-06,-6.222724914550781e-05,7.000998032857808e-06,0.0009264877443588331,0.00014279118446383396,0.0001866389593723249,0.0005852822049857523,-2.3634889060113978e-06,-0.0002815464604474451,-0.0016334597357137853,0.4783565402030945,34.16213607788086,3.7990386486053467,-19.487642288208008,-0.2484031319618225,-1.777347207069397,0.15964071452617645,0
41,0.1999976634979248,-0.4505855441093445,-34.16213607788086,-3.7990386486053467,19.487642288208008,0.2484031319618225,1.777347207069397,-0.10470907390117645,0.0,0.0,0.0,0.0,0.0,0.0,0.0,-0.5134176242511993,-0.09563971869971254,-0.24494695250218332,0.4371118023277972,0.1956475216573512,-0.11929047614759854,-0.12216327655826487,1.0544005928165032,0.32421056862866354,-0.39250282690850474,-2.1535010186580186,0.86474613007102,2.4659404030243555,0.5444885652449527,1.0544104758940245,0.3238615046091247,-0.39250456234122666,-2.153291787532338,0.8647539153680389,2.46587817577521,0.5445020185570556,-0.0009774605617750016,-0.00018836885993809267,-0.00021326321435423406,-0.0006132242932178838,-9.108126887892495e-05,0.00030843090687500993,-0.00046517459575095833,0.0,0.0,0.0,0.0,0.0,0.0,0.0,9.883077521255501e-06,-0.00034906401953882504,-1.7354327219165633e-06,0.00020923112568072,7.785297018947368e-06,-6.222724914550781e-05,1.3453312102895687e-05,0.0009774605617750016,0.00018836885993809267,0.00021326321435423406,0.0006132242932178838,9.108126887892495e-05,-0.00030843090687500993,0.00046517459575095833,0.4505855441093445,34.16213607788086,3.7990386486053467,-19.487642288208008,-0.2484031319618225,-1.777347207069397,0.10470907390117645,0
42,0.20685434341430664,-0.4783565402030945,-34.18990707397461,-3.7990386486053467,19.487642288208008,0.2484031319618225,1.783755898475647,-0.11111776530742645,0.0,0.0,0.0,0.0,0.0,0.0,0.0,-0.5174645100432713,-0.10088097977013012,-0.25283766963488336,0.4402993475830731,0.19582281056906609,-0.11854566495515081,-0.12179191691375822,1.054402515167381,0.3242125174706442,-0.3925030656496236,-2.1535010186580186,0.864749308447056,2.4659396909475326,0.5444925829635718,1.0544104758940245,0.3238615046091247,-0.39250456234122666,-2.153291787532338,0.8647539153680389,2.46587817577521,0.5445020185570556,-0.0009126705718600334,6.0903541322210076e-05,-0.00010614464423115203,-0.00034788524328156913,3.0700297274782855e-05,0.00021873585637475598,-5.351375494649764e-05,0.0,0.0,0.0,0.0,0.0,0.0,0.0,7.960726643441163e-06,-0.0003510128615195063,-1.4966916030423327e-06,0.00020923112568072,4.606920982919149e-06,-6.151517232266812e-05,9.435593483764215e-06,0.0009126705718600334,-6.0903541322210076e-05,0.00010614464423115203,0.00034788524328156913,-3.0700297274782855e-05,-0.00021873585637475598,5.351375494649764e-05,0.4783565402030945,34.18990707397461,3.7990386486053467,-19.487642288208008,-0.2484031319618225,-1.783755898475647,0.11111776530742645,0
43,0.2100052833557129,-0.4783565402030945,-34.18990707397461,-3.7990386486053467,19.487642288208008,0.2484031319618225,1.783755898475647,-0.11111776530742645,0.0,0.0,0.0,0.0,0.0,0.0,0.0,-0.5174645100432713,-0.10088097977013012,-0.25283766963488336,0.4402993475830731,0.19582281056906609,-0.11854566495515081,-0.12179191691375822,1.054402515167381,0.3242125174706442,-0.3925030656496236,-2.1535010186580186,0.864749308447056,2.4659396909475326,0.5444925829635718,1.0544104758940245,0.3238615046091247,-0.39250456234122666,-2.153291787532338,0.8647539153680389,2.46587817577521,0.5445020185570556,-0.0009126705718600334,6.0903541322210076e-05,-0.00010614464423115203,-0.00034788524328156913,3.0700297274782855e-05,0.00021873585637475598,-5.351375494649764e-05,0.0,0.0,0.0,0.0,0.0,0.0,0.0,7.960726643441163e-06,-0.0003510128615195063,-1.4966916030423327e-06,0.00020923112568072,4.606920982919149e-06,-6.151517232266812e-05,9.435593483764215e-06,0.0009126705718600334,-6.0903541322210076e-05,0.00010614464423115203,0.00034788524328156913,-3.0700297274782855e-05,-0.00021873585637475598,5.351375494649764e-05,0.4783565402030945,34.18990707397461,3.7990386486053467,-19.487642288208008,-0.2484031319618225,-1.783755898475647,0.11111776530742645,0
44,0.21499967575073242,-0.4783565402030945,-34.18990707397461,-3.7990386486053467,19.487642288208008,0.2484031319618225,1.783755898475647,-0.11111776530742645,0.0,0.0,0.0,0.0,0.0,0.0,0.0,-0.5174645100432713,-0.10088097977013012,-0.25283766963488336,0.4402993475830731,0.19582281056906609,-0.11854566495515081,-0.12179191691375822,1.054402515167381,0.3242125174706442,-0.3925030656496236,-2.1535010186580186,0.864749308447056,2.4659396909475326,0.5444925829635718,1.0544104758940245,0.3238615046091247,-0.39250456234122666,-2.153291787532338,0.8647539153680389,2.46587817577521,0.5445020185570556,-0.0009126705718600334,6.0903541322210076e-05,-0.00010614464423115203,-0.00034788524328156913,3.0700297274782855e-05,0.00021873585637475598,-5.351375494649764e-05,0.0,0.0,0.0,0.0,0.0,0.0,0.0,7.960726643441163e-06,-0.0003510128615195063,-1.4966916030423327e-06,0.00020923112568072,4.606920982919149e-06,-6.151517232266812e-05,9.435593483764215e-06,0.0009126705718600334,-6.0903541322210076e-05,0.00010614464423115203,0.00034788524328156913,-3.0700297274782855e-05,-0.00021873585637475598,5.351375494649764e-05,0.4783565402030945,34.18990707397461,3.7990386486053467,-19.487642288208008,-0.2484031319618225,-1.783755898475647,0.11111776530742645,0
45,0.2199997901916504,-0.5299312472343445,-34.16213607788086,-3.8506133556365967,19.459871292114258,0.2484031319618225,1.783755898475647,-0.13217489421367645,0.0,0.0,0.0,0.0,0.0,0.0,0.0,-0.510090079755358,-0.08775516271290712,-0.24466536417566612,0.4310903368777404,0.19561936742500327,-0.12008614131410997,-0.12045405995010985,1.0544061609355722,0.3242105686288131,-0.3924994461579478,-2.1534990698161875,0.8647493090033437,2.4659396909475326,0.5444916517280242,1.0544104758940245,0.3238615046091247,-0.39250456234122666,-2.153291787532338,0.8647539153680389,2.46587817577521,0.5445020185570556,0.0007210017585145752,-0.00018807923074056558,0.0010739749740391463,-0.0002086008033448161,6.541542765300505e-05,-1.3330476382618103e-05,0.000535286029347932,0.0,0.0,0.0,0.0,0.0,0.0,0.0,4.31495845232277e-06,-0.0003490640196883721,-5.116183278863762e-06,0.00020728228384969682,4.6063646952365644e-06,-6.151517232266812e-05,1.0366829031438485e-05,-0.0007210017585145752,0.00018807923074056558,-0.0010739749740391463,0.0002086008033448161,-6.541542765300505e-05,1.3330476382618103e-05,-0.000535286029347932,0.5299312472343445,34.16213607788086,3.8506133556365967,-19.459871292114258,-0.2484031319618225,-1.783755898475647,0.13217489421367645,0
46,0.22499775886535645,-0.5299312472343445,-34.16213607788086,-3.8506133556365967,19.459871292114258,0.2484031319618225,1.783755898475647,-0.13217489421367645,0.0,0.0,0.0,0.0,0.0,0.0,0.0,-0.510090079755358,-0.08775516271290712,-0.24466536417566612,0.4310903368777404,0.19561936742500327,-0.12008614131410997,-0.12045405995010985,1.0544061609355722,0.3242105686288131,-0.3924994461579478,-2.1534990698161875,0.8647493090033437,2.4659396909475326,0.5444916517280242,1.0544104758940245,0.3238615046091247,-0.39250456234122666,-2.153291787532338,0.8647539153680389,2.46587817577521,0.5445020185570556,0.0007210017585145752,-0.00018807923074056558,0.0010739749740391463,-0.0002086008033448161,6.541542765300505e-05,-1.3330476382618103e-05,0.000535286029347932,0.0,0.0,0.0,0.0,0.0,0.0,0.0,4.31495845232277e-06,-0.0003490640196883721,-5.116183278863762e-06,0.00020728228384969682,4.6063646952365644e-06,-6.151517232266812e-05,1.0366829031438485e-05,-0.0007210017585145752,0.00018807923074056558,-0.0010739749740391463,0.0002086008033448161,-6.541542765300505e-05,1.3330476382618103e-05,-0.000535286029347932,0.5299312472343445,34.16213607788086,3.8506133556365967,-19.459871292114258,-0.2484031319618225,-1.783755898475647,0.13217489421367645,0
47,0.23003625869750977,-0.5299312472343445,-34.21371078491211,-3.8228423595428467,19.459871292114258,0.2548118233680725,1.790164589881897,-0.10470907390117645,0.0,0.0,0.0,0.0,0.0,0.0,0.0,-0.5169325244381617,-0.08967866245397083,-0.24904387415183088,0.43079451606084795,0.19612499708855782,-0.11994188434147793,-0.12135145108445694,1.0544061609360207,0.3242141879064995,-0.39250115646858924,-2.1534990698161875,0.8647485964420134,2.46593897887071,0.5444889269630322,1.0544104758940245,0.3238615046091247,-0.39250456234122666,-2.153291787532338,0.8647539153680389,2.46587817577521,0.5445020185570556,-0.00030556621607052135,0.0013357887283530017,-5.2478845186331026e-05,-0.00021565892923206507,-0.0002985781278288848,-0.00017429083729336936,-0.00048235578723959015,0.0,0.0,0.0,0.0,0.0,0.0,0.0,4.314958003792668e-06,-0.00035268329737475623,-3.40587263741865e-06,0.00020728228384969682,5.318926025510429e-06,-6.080309549982843e-05,1.309159402340665e-05,0.00030556621607052135,-0.0013357887283530017,5.2478845186331026e-05,0.00021565892923206507,0.0002985781278288848,0.00017429083729336936,0.00048235578723959015,0.5299312472343445,34.21371078491211,3.8228423595428467,-19.459871292114258,-0.2548118233680725,-1.790164589881897,0.10470907390117645,0
48,0.23499512672424316,-0.5299312472343445,-34.21371078491211,-3.8228423595428467,19.459871292114258,0.2548118233680725,1.790164589881897,-0.10470907390117645,0.0,0.0,0.0,0.0,0.0,0.0,0.0,-0.5169325244381617,-0.08967866245397083,-0.24904387415183088,0.43079451606084795,0.19612499708855782,-0.11994188434147793,-0.12135145108445694,1.0544061609360207,0.3242141879064995,-0.39250115646858924,-2.1534990698161875,0.8647485964420134,2.46593897887071,0.5444889269630322,1.0544104758940245,0.3238615046091247,-0.39250456234122666,-2.153291787532338,0.8647539153680389,2.46587817577521,0.5445020185570556,-0.00030556621607052135,0.0013357887283530017,-5.2478845186331026e-05,-0.00021565892923206507,-0.0002985781278288848,-0.00017429083729336936,-0.00048235578723959015,0.0,0.0,0.0,0.0,0.0,0.0,0.0,4.314958003792668e-06,-0.00035268329737475623,-3.40587263741865e-06,0.00020728228384969682,5.318926025510429e-06,-6.080309549982843e-05,1.309159402340665e-05,0.00030556621607052135,-0.0013357887283530017,5.2478845186331026e-05,0.00021565892923206507,0.0002985781278288848,0.00017429083729336936,0.00048235578723959015,0.5299312472343445,34.21371078491211,3.8228423595428467,-19.459871292114258,-0.2548118233680725,-1.790164589881897,0.10470907390117645,0
49,0.24001002311706543,-0.5537349581718445,-34.13833236694336,-3.8228423595428467,19.436067581176758,0.2548118233680725,1.790164589881897,-0.11844198405742645,0.0,0.0,0.0,0.0,0.0,0.0,0.0,-0.5175788127537785,-0.09476230306475186,-0.24649660475033952,0.43315226263802825,0.19601832714412404,-0.12000901659523223,-0.12181458610727085,1.054407831371876,0.32420889819295784,-0.3925011564681404,-2.153497399380332,0.8647485964420052,2.46593897887071,0.5444932714435003,1.0544104758940245,0.3238615046091247,-0.39250456234122666,-2.153291787532338,0.8647539153680389,2.46587817577521,0.5445020185570556,0.00032576692253702053,-0.0006053881794824405,-7.97985931319412e-05,0.00034393168246118604,-0.00016026967471808207,-0.00032105667913562167,0.00018948687331199506,0.0,0.0,0.0,0.0,0.0,0.0,0.0,2.6445221483761827e-06,-0.00034739358383312213,-3.4058730862818187e-06,0.00020561184799428034,5.318926033726079e-06,-6.080309549982843e-05,8.747113555251929e-06,-0.00032576692253702053,0.0006053881794824405,7.97985931319412e-05,-0.00034393168246118604,0.00016026967471808207,0.00032105667913562167,-0.00018948687331199506,0.5537349581718445,34.13833236694336,3.8228423595428467,-19.436067581176758,-0.2548118233680725,-1.790164589881897,0.11844198405742645,0
50,0.2449936866760254,-0.5537349581718445,-34.13833236694336,-3.8228423595428467,19.436067581176758,0.2548118233680725,1.790164589881897,-0.11844198405742645,0.0,0.0,0.0,0.0,0.0,0.0,0.0,-0.5175788127537785,-0.09476230306475186,-0.24649660475033952,0.43315226263802825,0.19601832714412404,-0.12000901659523223,-0.12181458610727085,1.054407831371876,0.32420889819295784,-0.3925011564681404,-2.153497399380332,0.8647485964420052,2.46593897887071,0.5444932714435003,1.0544104758940245,0.3238615046091247,-0.39250456234122666,-2.153291787532338,0.8647539153680389,2.46587817577521,0.5445020185570556,0.00032576692253702053,-0.0006053881794824405,-7.97985931319412e-05,0.00034393168246118604,-0.00016026967471808207,-0.00032105667913562167,0.00018948687331199506,0.0,0.0,0.0,0.0,0.0,0.0,0.0,2.6445221483761827e-06,-0.00034739358383312213,-3.4058730862818187e-06,0.00020561184799428034,5.318926033726079e-06,-6.080309549982843e-05,8.747113555251929e-06,-0.00032576692253702053,0.0006053881794824405,7.97985931319412e-05,-0.00034393168246118604,0.00016026967471808207,0.00032105667913562167,-0.00018948687331199506,0.5537349581718445,34.13833236694336,3.8228423595428467,-19.436067581176758,-0.2548118233680725,-1.790164589881897,0.11844198405742645,0
51,0.2500126361846924,-0.5299312472343445,-34.18990707397461,-3.7990386486053467,19.487642288208008,0.2365012764930725,1.790164589881897,-0.08365194499492645,0.0,0.0,0.0,0.0,0.0,0.0,0.0,-0.5211745659905066,-0.10077155910980665,-0.24817687495397234,0.436653346417767,0.19603170470363573,-0.11999085764808405,-0.1222288514672721,1.0544061609360207,0.3242125171435954,-0.39250290933240756,-2.1535010186580186,0.8647495717397731,2.46593897887071,0.544486273482614,1.0544104758940245,0.3238615046091247,-0.39250456234122666,-2.153291787532338,0.8647539153680389,2.46587817577521,0.5445020185570556,-5.677451713992435e-05,0.00032203508715574023,-0.00045146590566590595,-0.0002712273671118405,0.0005773756522475773,-4.941380776291761e-05,-0.001410604452122836,0.0,0.0,0.0,0.0,0.0,0.0,0.0,4.314958003792668e-06,-0.0003510125344706738,-1.6530088191024639e-06,0.00020923112568072,4.343628265846e-06,-6.080309549982843e-05,1.574507444157547e-05,5.677451713992435e-05,-0.00032203508715574023,0.00045146590566590595,0.0002712273671118405,-0.0005773756522475773,4.941380776291761e-05,0.001410604452122836,0.5299312472343445,34.18990707397461,3.7990386486053467,-19.487642288208008,-0.2365012764930725,-1.790164589881897,0.08365194499492645,0
52,0.25494909286499023,-0.5299312472343445,-34.18990707397461,-3.7990386486053467,19.487642288208008,0.2365012764930725,1.790164589881897,-0.08365194499492645,0.0,0.0,0.0,0.0,0.0,0.0,0.0,-0.5211745659905066,-0.10077155910980665,-0.24817687495397234,0.436653346417767,0.19603170470363573,-0.11999085764808405,-0.1222288514672721,1.0544061609360207,0.3242125171435954,-0.39250290933240756,-2.1535010186580186,0.8647495717397731,2.46593897887071,0.544486273482614,1.0544104758940245,0.3238615046091247,-0.39250456234122666,-2.153291787532338,0.8647539153680389,2.46587817577521,0.5445020185570556,-5.677451713992435e-05,0.00032203508715574023,-0.00045146590566590595,-0.0002712273671118405,0.0005773756522475773,-4.941380776291761e-05,-0.001410604452122836,0.0,0.0,0.0,0.0,0.0,0.0,0.0,4.314958003792668e-06,-0.0003510125344706738,-1.6530088191024639e-06,0.00020923112568072,4.343628265846e-06,-6.080309549982843e-05,1.574507444157547e-05,5.677451713992435e-05,-0.00032203508715574023,0.00045146590566590595,0.0002712273671118405,-0.0005773756522475773,4.941380776291761e-05,0.001410604452122836,0.5299312472343445,34.18990707397461,3.7990386486053467,-19.487642288208008,-0.2365012764930725,-1.790164589881897,0.08365194499492645,0
53,0.25995683670043945,-0.5299312472343445,-34.16213607788086,-3.8228423595428467,19.436067581176758,0.2429099678993225,1.790164589881897,-0.10470907390117645,0.0,0.0,0.0,0.0,0.0,0.0,0.0,-0.5155850113499555,-0.10534354927540235,-0.24239520707308998,0.4381154924599685,0.19548448269609423,-0.12005469302046846,-0.12199175280138932,1.0544061609360207,0.3242105686287965,-0.39250124477550563,-2.153497399380332,0.8647499062191255,2.4659357999563216,0.544488565031614,1.0544104758940245,0.3238615046091247,-0.39250456234122666,-2.153291787532338,0.8647539153680389,2.46587817577521,0.5445020185570556,0.00046092065257459096,-0.0008982707251500509,0.0004629170957062388,0.0006278484289609458,0.000293898953985394,-8.782134989457355e-05,-0.0007758408016571734,0.0,0.0,0.0,0.0,0.0,0.0,0.0,4.314958003792668e-06,-0.00034906401967177425,-3.3175657210282594e-06,0.00020561184799428034,4.0091489134086444e-06,-5.762418111165957e-05,1.3453525441575742e-05,-0.00046092065257459096,0.0008982707251500509,-0.0004629170957062388,-0.0006278484289609458,-0.000293898953985394,8.782134989457355e-05,0.0007758408016571734,0.5299312472343445,34.16213607788086,3.8228423595428467,-19.436067581176758,-0.2429099678993225,-1.790164589881897,0.10470907390117645,0
54,0.26500606536865234,-0.5299312472343445,-34.16213607788086,-3.8228423595428467,19.436067581176758,0.2429099678993225,1.790164589881897,-0.10470907390117645,0.0,0.0,0.0,0.0,0.0,0.0,0.0,-0.5155850113499555,-0.10534354927540235,-0.24239520707308998,0.4381154924599685,0.19548448269609423,-0.12005469302046846,-0.12199175280138932,1.0544061609360207,0.3242105686287965,-0.39250124477550563,-2.153497399380332,0.8647499062191255,2.4659357999563216,0.544488565031614,1.0544104758940245,0.3238615046091247,-0.39250456234122666,-2.153291787532338,0.8647539153680389,2.46587817577521,0.5445020185570556,0.00046092065257459096,-0.0008982707251500509,0.0004629170957062388,0.0006278484289609458,0.000293898953985394,-8.782134989457355e-05,-0.0007758408016571734,0.0,0.0,0.0,0.0,0.0,0.0,0.0,4.314958003792668e-06,-0.00034906401967177425,-3.3175657210282594e-06,0.00020561184799428034,4.0091489134086444e-06,-5.762418111165957e-05,1.3453525441575742e-05,-0.00046092065257459096,0.0008982707251500509,-0.0004629170957062388,-0.0006278484289609458,-0.000293898953985394,8.782134989457355e-05,0.0007758408016571734,0.5299312472343445,34.16213607788086,3.8228423595428467,-19.436067581176758,-0.2429099678993225,-1.790164589881897,0.10470907390117645,0
55,0.2723960876464844,-0.5299312472343445,-34.16213607788086,-3.8228423595428467,19.436067581176758,0.2429099678993225,1.790164589881897,-0.10470907390117645,0.0,0.0,0.0,0.0,0.0,0.0,0.0,-0.5155850113499555,-0.10534354927540235,-0.24239520707308998,0.4381154924599685,0.19548448269609423,-0.12005469302046846,-0.12199175280138932,1.0544061609360207,0.3242105686287965,-0.39250124477550563,-2.153497399380332,0.8647499062191255,2.4659357999563216,0.544488565031614,1.0544104758940245,0.3238615046091247,-0.39250456234122666,-2.153291787532338,0.8647539153680389,2.46587817577521,0.5445020185570556,0.00046092065257459096,-0.0008982707251500509,0.0004629170957062388,0.0006278484289609458,0.000293898953985394,-8.782134989457355e-05,-0.0007758408016571734,0.0,0.0,0.0,0.0,0.0,0.0,0.0,4.314958003792668e-06,-0.00034906401967177425,-3.3175657210282594e-06,0.00020561184799428034,4.0091489134086444e-06,-5.762418111165957e-05,1.3453525441575742e-05,-0.00046092065257459096,0.0008982707251500509,-0.0004629170957062388,-0.0006278484289609458,-0.000293898953985394,8.782134989457355e-05,0.0007758408016571734,0.5299312472343445,34.16213607788086,3.8228423595428467,-19.436067581176758,-0.2429099678993225,-1.790164589881897,0.10470907390117645,0
56,0.27500462532043457,-0.5299312472343445,-34.16213607788086,-3.8228423595428467,19.436067581176758,0.2429099678993225,1.790164589881897,-0.10470907390117645,0.0,0.0,0.0,0.0,0.0,0.0,0.0,-0.5155850113499555,-0.10534354927540235,-0.24239520707308998,0.4381154924599685,0.19548448269609423,-0.12005469302046846,-0.12199175280138932,1.0544061609360207,0.3242105686287965,-0.39250124477550563,-2.153497399380332,0.8647499062191255,2.4659357999563216,0.544488565031614,1.0544104758940245,0.3238615046091247,-0.39250456234122666,-2.153291787532338,0.8647539153680389,2.46587817577521,0.5445020185570556,0.00046092065257459096,-0.0008982707251500509,0.0004629170957062388,0.0006278484289609458,0.000293898953985394,-8.782134989457355e-05,-0.0007758408016571734,0.0,0.0,0.0,0.0,0.0,0.0,0.0,4.314958003792668e-06,-0.00034906401967177425,-3.3175657210282594e-06,0.00020561184799428034,4.0091489134086444e-06,-5.762418111165957e-05,1.3453525441575742e-05,-0.00046092065257459096,0.0008982707251500509,-0.0004629170957062388,-0.0006278484289609458,-0.000293898953985394,8.782134989457355e-05,0.0007758408016571734,0.5299312472343445,34.16213607788086,3.8228423595428467,-19.436067581176758,-0.2429099678993225,-1.790164589881897,0.10470907390117645,0
57,0.28000426292419434,-0.4783565402030945,-34.18990707397461,-3.8228423595428467,19.487642288208008,0.2365012764930725,1.783755898475647,-0.10470907390117645,0.0,0.0,0.0,0.0,0.0,0.0,0.0,-0.5224337119284668,-0.0939769153881011,-0.24820973204281638,0.4328934887542357,0.19541841650433722,-0.11987261936363575,-0.12264342841897048,1.0544025416583342,0.3242125174706442,-0.3925011564681958,-2.1535010186580186,0.8647506312702248,2.4659396909455387,0.5444899783822507,1.0544104758940245,0.3238615046091247,-0.39250456234122666,-2.153291787532338,0.8647539153680389,2.46587817577521,0.5445020185570556,-0.0006368085656576265,0.0007471810032514917,0.00022840750833046162,-0.0005577564501978174,0.00034343184362468324,0.00011363215005949586,-0.0009435921460028532,0.0,0.0,0.0,0.0,0.0,0.0,0.0,7.934235690232327e-06,-0.0003510128615195063,-3.40587303088169e-06,0.00020923112568072,3.284097814137965e-06,-6.151517032870757e-05,1.2040174804939241e-05,0.0006368085656576265,-0.0007471810032514917,-0.00022840750833046162,0.0005577564501978174,-0.00034343184362468324,-0.00011363215005949586,0.0009435921460028532,0.4783565402030945,34.18990707397461,3.8228423595428467,-19.487642288208008,-0.2365012764930725,-1.783755898475647,0.10470907390117645,0
58,0.2850043773651123,-0.4783565402030945,-34.18990707397461,-3.8228423595428467,19.487642288208008,0.2365012764930725,1.783755898475647,-0.10470907390117645,0.0,0.0,0.0,0.0,0.0,0.0,0.0,-0.5224337119284668,-0.0939769153881011,-0.24820973204281638,0.4328934887542357,0.19541841650433722,-0.11987261936363575,-0.12264342841897048,1.0544025416583342,0.3242125174706442,-0.3925011564681958,-2.1535010186580186,0.8647506312702248,2.4659396909455387,0.5444899783822507,1.0544104758940245,0.3238615046091247,-0.39250456234122666,-2.153291787532338,0.8647539153680389,2.46587817577521,0.5445020185570556,-0.0006368085656576265,0.0007471810032514917,0.00022840750833046162,-0.0005577564501978174,0.00034343184362468324,0.00011363215005949586,-0.0009435921460028532,0.0,0.0,0.0,0.0,0.0,0.0,0.0,7.934235690232327e-06,-0.0003510128615195063,-3.40587303088169e-06,0.00020923112568072,3.284097814137965e-06,-6.151517032870757e-05,1.2040174804939241e-05,0.0006368085656576265,-0.0007471810032514917,-0.00022840750833046162,0.0005577564501978174,-0.00034343184362468324,-0.00011363215005949586,0.0009435921460028532,0.4783565402030945,34.18990707397461,3.8228423595428467,-19.487642288208008,-0.2365012764930725,-1.783755898475647,0.10470907390117645,0
59,0.2899470329284668,-0.5299312472343445,-34.21371078491211,-3.8228423595428467,19.459871292114258,0.2603049874305725,1.783755898475647,-0.15964071452617645,0.0,0.0,0.0,0.0,0.0,0.0,0.0,-0.5172970092083619,-0.09731913652161822,-0.24671218064599906,0.43833553809021164,0.19494291995845203,-0.11954497642611013,-0.1229023274183243,1.0544061609360207,0.3242141879064995,-0.3925012369221465,-2.1534990698161875,0.8647448076605787,2.465939690947532,0.5444946816345272,1.0544104758940245,0.3238615046091247,-0.39250456234122666,-2.153291787532338,0.8647539153680389,2.46587817577521,0.5445020185570556,0.000547230682072114,0.0011307283404267522,0.0002743279673881177,9.12430368593382e-05,-0.00022303206280122338,0.00013028560182562086,0.0014487501455570015,0.0,0.0,0.0,0.0,0.0,0.0,0.0,4.314958003792668e-06,-0.00035268329737475623,-3.325419080157932e-06,0.00020728228384969682,9.107707460209724e-06,-6.151517232222403e-05,7.336922528411449e-06,-0.000547230682072114,-0.0011307283404267522,-0.0002743279673881177,-9.12430368593382e-05,0.00022303206280122338,-0.00013028560182562086,-0.0014487501455570015,0.5299312472343445,34.21371078491211,3.8228423595428467,-19.459871292114258,-0.2603049874305725,-1.783755898475647,0.15964071452617645,0
60,0.2950005531311035,-0.5299312472343445,-34.21371078491211,-3.8228423595428467,19.459871292114258,0.2603049874305725,1.783755898475647,-0.15964071452617645,0.0,0.0,0.0,0.0,0.0,0.0,0.0,-0.5172970092083619,-0.09731913652161822,-0.24671218064599906,0.43833553809021164,0.19494291995845203,-0.11954497642611013,-0.1229023274183243,1.0544061609360207,0.3242141879064995,-0.3925012369221465,-2.1534990698161875,0.8647448076605787,2.465939690947532,0.5444946816345272,1.0544104758940245,0.3238615046091247,-0.39250456234122666,-2.153291787532338,0.8647539153680389,2.46587817577521,0.5445020185570556,0.000547230682072114,0.0011307283404267522,0.0002743279673881177,9.12430368593382e-05,-0.00022303206280122338,0.00013028560182562086,0.0014487501455570015,0.0,0.0,0.0,0.0,0.0,0.0,0.0,4.314958003792668e-06,-0.00035268329737475623,-3.325419080157932e-06,0.00020728228384969682,9.107707460209724e-06,-6.151517232222403e-05,7.336922528411449e-06,-0.000547230682072114,-0.0011307283404267522,-0.0002743279673881177,-9.12430368593382e-05,0.00022303206280122338,-0.00013028560182562086,-0.0014487501455570015,0.5299312472343445,34.21371078491211,3.8228423595428467,-19.459871292114258,-0.2603049874305725,-1.783755898475647,0.15964071452617645,0
61,0.30000853538513184,-0.4505855441093445,-34.18990707397461,-3.7990386486053467,19.459871292114258,0.2603049874305725,1.783755898475647,-0.13858358561992645,0.0,0.0,0.0,0.0,0.0,0.0,0.0,-0.5119899049144406,-0.09177034029661355,-0.2442930195357599,0.43816291866130874,0.19567998691309338,-0.11961909671191856,-0.12272312240228635,1.0544005928165032,0.3242125174706442,-0.39250282726753466,-2.1534990698161875,0.8647479477538109,2.465939690947532,0.5444924829399413,1.0544104758940245,0.3238615046091247,-0.39250456234122666,-2.153291787532338,0.8647539153680389,2.46587817577521,0.5445020185570556,-0.0008501183414308433,0.0007660658596502861,-0.00038987345296955146,0.0001326639893770658,-0.0004192831281283154,-9.507592172189887e-05,0.0012270282838798456,0.0,0.0,0.0,0.0,0.0,0.0,0.0,9.883077521255501e-06,-0.0003510128615195063,-1.7350736919996557e-06,0.00020728228384969682,5.967614227997409e-06,-6.151517232222403e-05,9.535617114253547e-06,0.0008501183414308433,-0.0007660658596502861,0.00038987345296955146,-0.0001326639893770658,0.0004192831281283154,9.507592172189887e-05,-0.0012270282838798456,0.4505855441093445,34.18990707397461,3.7990386486053467,-19.459871292114258,-0.2603049874305725,-1.783755898475647,0.13858358561992645,0
62,0.3050107955932617,-0.4505855441093445,-34.18990707397461,-3.7990386486053467,19.459871292114258,0.2603049874305725,1.783755898475647,-0.13858358561992645,0.0,0.0,0.0,0.0,0.0,0.0,0.0,-0.5119899049144406,-0.09177034029661355,-0.2442930195357599,0.43816291866130874,0.19567998691309338,-0.11961909671191856,-0.12272312240228635,1.0544005928165032,0.3242125174706442,-0.39250282726753466,-2.1534990698161875,0.8647479477538109,2.465939690947532,0.5444924829399413,1.0544104758940245,0.3238615046091247,-0.39250456234122666,-2.153291787532338,0.8647539153680389,2.46587817577521,0.5445020185570556,-0.0008501183414308433,0.0007660658596502861,-0.00038987345296955146,0.0001326639893770658,-0.0004192831281283154,-9.507592172189887e-05,0.0012270282838798456,0.0,0.0,0.0,0.0,0.0,0.0,0.0,9.883077521255501e-06,-0.0003510128615195063,-1.7350736919996557e-06,0.00020728228384969682,5.967614227997409e-06,-6.151517232222403e-05,9.535617114253547e-06,0.0008501183414308433,-0.0007660658596502861,0.00038987345296955146,-0.0001326639893770658,0.0004192831281283154,9.507592172189887e-05,-0.0012270282838798456,0.4505855441093445,34.18990707397461,3.7990386486053467,-19.459871292114258,-0.2603049874305725,-1.783755898475647,0.13858358561992645,0
63,0.3099980354309082,-0.5299312472343445,-34.18990707397461,-3.7752349376678467,19.459871292114258,0.2429099678993225,1.777347207069397,-0.12485067546367645,0.0,0.0,0.0,0.0,0.0,0.0,0.0,-0.5134577544556762,-0.10228523866816835,-0.2489715713157859,0.44251179550181907,0.1957766947654241,-0.1188219130828864,-0.1218452479979171,1.0544061609360207,0.3242125174706442,-0.39250450028329226,-2.1534990698161875,0.8647499193546965,2.465940403024355,0.544490798678755,1.0544104758940245,0.3238615046091247,-0.39250456234122666,-2.153291787532338,0.8647539153680389,2.46587817577521,0.5445020185570556,0.0003367840380732444,0.00019006940858782613,-0.0004182619253440276,-6.920757300964736e-05,0.00015926185584012078,8.094680996497619e-05,0.0005263826377517712,0.0,0.0,0.0,0.0,0.0,0.0,0.0,4.314958003792668e-06,-0.0003510128615195063,-6.205793440239304e-08,0.00020728228384969682,3.996013342444371e-06,-6.222724914506372e-05,1.1219878300550157e-05,-0.0003367840380732444,-0.00019006940858782613,0.0004182619253440276,6.920757300964736e-05,-0.00015926185584012078,-8.094680996497619e-05,-0.0005263826377517712,0.5299312472343445,34.18990707397461,3.7752349376678467,-19.459871292114258,-0.2429099678993225,-1.777347207069397,0.12485067546367645,0
64,0.3150005340576172,-0.5299312472343445,-34.18990707397461,-3.7752349376678467,19.459871292114258,0.2429099678993225,1.777347207069397,-0.12485067546367645,0.0,0.0,0.0,0.0,0.0,0.0,0.0,-0.5134577544556762,-0.10228523866816835,-0.2489715713157859,0.44251179550181907,0.1957766947654241,-0.1188219130828864,-0.1218452479979171,1.0544061609360207,0.3242125174706442,-0.39250450028329226,-2.1534990698161875,0.8647499193546965,2.465940403024355,0.544490798678755,1.0544104758940245,0.3238615046091247,-0.39250456234122666,-2.153291787532338,0.8647539153680389,2.46587817577521,0.5445020185570556,0.0003367840380732444,0.00019006940858782613,-0.0004182619253440276,-6.920757300964736e-05,0.00015926185584012078,8.094680996497619e-05,0.0005263826377517712,0.0,0.0,0.0,0.0,0.0,0.0,0.0,4.314958003792668e-06,-0.0003510128615195063,-6.205793440239304e-08,0.00020728228384969682,3.996013342444371e-06,-6.222724914506372e-05,1.1219878300550157e-05,-0.0003367840380732444,-0.00019006940858782613,0.0004182619253440276,6.920757300964736e-05,-0.00015926185584012078,-8.094680996497619e-05,-0.0005263826377517712,0.5299312472343445,34.18990707397461,3.7752349376678467,-19.459871292114258,-0.2429099678993225,-1.777347207069397,0.12485067546367645,0
65,0.31995725631713867,-0.5299312472343445,-34.21371078491211,-3.7990386486053467,19.436067581176758,0.2603049874305725,1.777347207069397,-0.11844198405742645,0.0,0.0,0.0,0.0,0.0,0.0,0.0,-0.506133684387288,-0.09972990402599684,-0.2406324729507595,0.4420066019480682,0.19547335271320557,-0.12011575855044865,-0.12151467865259959,1.0544061609360207,0.3242141879064995,-0.392503630462927,-2.153497399380332,0.8647479734930155,2.465940403024355,0.5444932654615908,1.0544104758940245,0.3238615046091247,-0.39250456234122666,-2.153291787532338,0.8647539153680389,2.46587817577521,0.5445020185570556,0.0006027052212385777,0.0010437677014435165,-0.0001630369284653681,0.0007107148320285289,-0.00032495017185127237,0.0002640569907550646,-0.0002708771738129739,0.0,0.0,0.0,0.0,0.0,0.0,0.0,4.314958003792668e-06,-0.00035268329737475623,-9.318782996370345e-07,0.00020561184799428034,5.9418750234518924e-06,-6.222724914506372e-05,8.753095464775207e-06,-0.0006027052212385777,-0.0010437677014435165,0.0001630369284653681,-0.0007107148320285289,0.00032495017185127237,-0.0002640569907550646,0.0002708771738129739,0.5299312472343445,34.21371078491211,3.7990386486053467,-19.436067581176758,-0.2603049874305725,-1.777347207069397,0.11844198405742645,0
66,0.3249971866607666,-0.5299312472343445,-34.21371078491211,-3.7990386486053467,19.436067581176758,0.2603049874305725,1.777347207069397,-0.11844198405742645,0.0,0.0,0.0,0.0,0.0,0.0,0.0,-0.506133684387288,-0.09972990402599684,-0.2406324729507595,0.4420066019480682,0.19547335271320557,-0.12011575855044865,-0.12151467865259959,1.0544061609360207,0.3242141879064995,-0.392503630462927,-2.153497399380332,0.8647479734930155,2.465940403024355,0.5444932654615908,1.0544104758940245,0.3238615046091247,-0.39250456234122666,-2.153291787532338,0.8647539153680389,2.46587817577521,0.5445020185570556,0.0006027052212385777,0.0010437677014435165,-0.0001630369284653681,0.0007107148320285289,-0.00032495017185127237,0.0002640569907550646,-0.0002708771738129739,0.0,0.0,0.0,0.0,0.0,0.0,0.0,4.314958003792668e-06,-0.00035268329737475623,-9.318782996370345e-07,0.00020561184799428034,5.9418750234518924e-06,-6.222724914506372e-05,8.753095464775207e-06,-0.0006027052212385777,-0.0010437677014435165,0.0001630369284653681,-0.0007107148320285289,0.00032495017185127237,-0.0002640569907550646,0.0002708771738129739,0.5299312472343445,34.21371078491211,3.7990386486053467,-19.436067581176758,-0.2603049874305725,-1.777347207069397,0.11844198405742645,0
67,0.3302912712097168,-0.4783565402030945,-34.21371078491211,-3.8228423595428467,19.412263870239258,0.2484031319618225,1.783755898475647,-0.13217489421367645,0.0,0.0,0.0,0.0,0.0,0.0,0.0,-0.5135014204332654,-0.09462841158674956,-0.24595374119558475,0.43538591432420676,0.19581825053762203,-0.12041154989693988,-0.12240611394419314,1.0544025416583342,0.3242141879064995,-0.39250115647267647,-2.1534957289444767,0.8647493046426286,2.465939690947532,0.5444926778963841,1.0544104758940245,0.3238615046091247,-0.39250456234122666,-2.153291787532338,0.8647539153680389,2.46587817577521,0.5445020185570556,-0.0011809570168465615,0.001171240891950038,0.0001835588065285226,0.0010329753826531798,-7.079607192915906e-05,2.110119647503037e-05,0.000505891486946633,0.0,0.0,0.0,0.0,0.0,0.0,0.0,7.934235690232327e-06,-0.00035268329737475623,-3.405868550188096e-06,0.00020394141213886385,4.610725410358896e-06,-6.151517232222403e-05,9.340660671486312e-06,0.0011809570168465615,-0.001171240891950038,-0.0001835588065285226,-0.0010329753826531798,7.079607192915906e-05,-2.110119647503037e-05,-0.000505891486946633,0.4783565402030945,34.21371078491211,3.8228423595428467,-19.412263870239258,-0.2484031319618225,-1.783755898475647,0.13217489421367645,0
68,0.3350245952606201,-0.4783565402030945,-34.21371078491211,-3.8228423595428467,19.412263870239258,0.2484031319618225,1.783755898475647,-0.13217489421367645,0.0,0.0,0.0,0.0,0.0,0.0,0.0,-0.5135014204332654,-0.09462841158674956,-0.24595374119558475,0.43538591432420676,0.19581825053762203,-0.12041154989693988,-0.12240611394419314,1.0544025416583342,0.3242141879064995,-0.39250115647267647,-2.1534957289444767,0.8647493046426286,2.465939690947532,0.5444926778963841,1.0544104758940245,0.3238615046091247,-0.39250456234122666,-2.153291787532338,0.8647539153680389,2.46587817577521,0.5445020185570556,-0.0011809570168465615,0.001171240891950038,0.0001835588065285226,0.0010329753826531798,-7.079607192915906e-05,2.110119647503037e-05,0.000505891486946633,0.0,0.0,0.0,0.0,0.0,0.0,0.0,7.934235690232327e-06,-0.00035268329737475623,-3.405868550188096e-06,0.00020394141213886385,4.610725410358896e-06,-6.151517232222403e-05,9.340660671486312e-06,0.0011809570168465615,-0.001171240891950038,-0.0001835588065285226,-0.0010329753826531798,7.079607192915906e-05,-2.110119647503037e-05,-0.000505891486946633,0.4783565402030945,34.21371078491211,3.8228423595428467,-19.412263870239258,-0.2484031319618225,-1.783755898475647,0.13217489421367645,0
69,0.34000635147094727,-0.5537349581718445,-34.13833236694336,-3.7990386486053467,19.459871292114258,0.2484031319618225,1.783755898475647,-0.11844198405742645,0.0,0.0,0.0,0.0,0.0,0.0,0.0,-0.5204849453810474,-0.11054758189997616,-0.25491614232009596,0.4437672321978979,0.19507421186887314,-0.11690960192720494,-0.12076366604607047,1.054407831371876,0.32420889819295784,-0.392502827013012,-2.1534990698161875,0.8647492939833092,2.4659397040294846,0.5444911466758632,1.0544104758940245,0.3238615046091247,-0.39250456234122666,-2.153291787532338,0.8647539153680389,2.46587817577521,0.5445020185570556,0.0008837676075513159,-0.001208488099071595,-0.0005757368242793338,0.006265746540052823,-0.00010518984268625591,-0.0016798074995534981,0.0004057881265918162,0.0,0.0,0.0,0.0,0.0,0.0,0.0,2.6445221483761827e-06,-0.00034739358383312213,-1.735328214680365e-06,0.00020728228384969682,4.621384729674993e-06,-6.152825427463426e-05,1.0871881192420219e-05,-0.0008837676075513159,0.001208488099071595,0.0005757368242793338,-0.006265746540052823,0.00010518984268625591,0.0016798074995534981,-0.0004057881265918162,0.5537349581718445,34.13833236694336,3.7990386486053467,-19.459871292114258,-0.2484031319618225,-1.783755898475647,0.11844198405742645,0
70,0.34502720832824707,-0.5537349581718445,-34.13833236694336,-3.7990386486053467,19.459871292114258,0.2484031319618225,1.783755898475647,-0.11844198405742645,0.0,0.0,0.0,0.0,0.0,0.0,0.0,-0.5204849453810474,-0.11054758189997616,-0.25491614232009596,0.4437672321978979,0.19507421186887314,-0.11690960192720494,-0.12076366604607047,1.054407831371876,0.32420889819295784,-0.392502827013012,-2.1534990698161875,0.8647492939833092,2.4659397040294846,0.5444911466758632,1.0544104758940245,0.3238615046091247,-0.39250456234122666,-2.153291787532338,0.8647539153680389,2.46587817577521,0.5445020185570556,0.0008837676075513159,-0.001208488099071595,-0.0005757368242793338,0.006265746540052823,-0.00010518984268625591,-0.0016798074995534981,0.0004057881265918162,0.0,0.0,0.0,0.0,0.0,0.0,0.0,2.6445221483761827e-06,-0.00034739358383312213,-1.735328214680365e-06,0.00020728228384969682,4.621384729674993e-06,-6.152825427463426e-05,1.0871881192420219e-05,-0.0008837676075513159,0.001208488099071595,0.0005757368242793338,-0.006265746540052823,0.00010518984268625591,0.0016798074995534981,-0.0004057881265918162,0.5537349581718445,34.13833236694336,3.7990386486053467,-19.459871292114258,-0.2484031319618225,-1.783755898475647,0.11844198405742645,0
71,0.3499431610107422,-0.5021602511405945,-34.18990707397461,-3.8228423595428467,19.412263870239258,0.2548118233680725,1.790164589881897,-0.13217489421367645,0.0,0.0,0.0,0.0,0.0,0.0,0.0,-0.5198928644421327,-0.0666753074230405,-0.24862404021017712,0.39699646033251107,0.1951985019650289,-0.12374806635497837,-0.11951504760251747,1.0544042120941897,0.3242125174706442,-0.39250118295909914,-2.1534957289444767,0.8647485969257671,2.465938978871374,0.5444916124799688,1.0544104758940245,0.3238615046091247,-0.39250456234122666,-2.153291787532338,0.8647539153680389,2.46587817577521,0.5445020185570556,-0.00046274707120522315,0.0005849105569335989,-0.00017821778294110156,0.0016306940330166261,-0.00038572927642599523,-0.0003860815199748679,0.00034190291835130624,0.0,0.0,0.0,0.0,0.0,0.0,0.0,6.263799834815842e-06,-0.0003510128615195063,-3.3793821275218683e-06,0.00020394141213886385,5.318442271806667e-06,-6.080309616418589e-05,1.0406077086799748e-05,0.00046274707120522315,-0.0005849105569335989,0.00017821778294110156,-0.0016306940330166261,0.00038572927642599523,0.0003860815199748679,-0.00034190291835130624,0.5021602511405945,34.18990707397461,3.8228423595428467,-19.412263870239258,-0.2548118233680725,-1.790164589881897,0.13217489421367645,0
72,0.35500311851501465,-0.5021602511405945,-34.18990707397461,-3.8228423595428467,19.412263870239258,0.2548118233680725,1.790164589881897,-0.13217489421367645,0.0,0.0,0.0,0.0,0.0,0.0,0.0,-0.5198928644421327,-0.0666753074230405,-0.24862404021017712,0.39699646033251107,0.1951985019650289,-0.12374806635497837,-0.11951504760251747,1.0544042120941897,0.3242125174706442,-0.39250118295909914,-2.1534957289444767,0.8647485969257671,2.465938978871374,0.5444916124799688,1.0544104758940245,0.3238615046091247,-0.39250456234122666,-2.153291787532338,0.8647539153680389,2.46587817577521,0.5445020185570556,-0.00046274707120522315,0.0005849105569335989,-0.00017821778294110156,0.0016306940330166261,-0.00038572927642599523,-0.0003860815199748679,0.00034190291835130624,0.0,0.0,0.0,0.0,0.0,0.0,0.0,6.263799834815842e-06,-0.0003510128615195063,-3.3793821275218683e-06,0.00020394141213886385,5.318442271806667e-06,-6.080309616418589e-05,1.0406077086799748e-05,0.00046274707120522315,-0.0005849105569335989,0.00017821778294110156,-0.0016306940330166261,0.00038572927642599523,0.0003860815199748679,-0.00034190291835130624,0.5021602511405945,34.18990707397461,3.8228423595428467,-19.412263870239258,-0.2548118233680725,-1.790164589881897,0.13217489421367645,0
73,0.3599529266357422,-0.5299312472343445,-34.16213607788086,-3.7990386486053467,19.459871292114258,0.2548118233680725,1.783755898475647,-0.15964071452617645,0.0,0.0,0.0,0.0,0.0,0.0,0.0,-0.5119004050600685,-0.10179083761084058,-0.24282964189001222,0.4398951668843651,0.19471740149892536,-0.12089815182122002,-0.12146226279024573,1.0544061609360207,0.3242105686288131,-0.3925028269040123,-2.1534998115628783,0.8647485954550349,2.4659396909475326,0.5444978450363762,1.0544104758940245,0.3238615046091247,-0.39250456234122666,-2.153291787532338,0.8647539153680389,2.46587817577521,0.5445020185570556,0.000123367503815725,5.012855632686465e-05,-0.00039096938996117925,-8.453409666287447e-05,-0.00026569013223708593,7.790355435322358e-05,0.001568899058861634,0.0,0.0,0.0,0.0,0.0,0.0,0.0,4.314958003792668e-06,-0.0003490640196883721,-1.7354372143785213e-06,0.0002080240305404324,5.319913004009358e-06,-6.151517232266812e-05,4.173520679384701e-06,-0.000123367503815725,-5.012855632686465e-05,0.00039096938996117925,8.453409666287447e-05,0.00026569013223708593,-7.790355435322358e-05,-0.001568899058861634,0.5299312472343445,34.16213607788086,3.7990386486053467,-19.459871292114258,-0.2548118233680725,-1.783755898475647,0.15964071452617645,0
74,0.3650472164154053,-0.5299312472343445,-34.16213607788086,-3.7990386486053467,19.459871292114258,0.2548118233680725,1.783755898475647,-0.15964071452617645,0.0,0.0,0.0,0.0,0.0,0.0,0.0,-0.5119004050600685,-0.10179083761084058,-0.24282964189001222,0.4398951668843651,0.19471740149892536,-0.12089815182122002,-0.12146226279024573,1.0544061609360207,0.3242105686288131,-0.3925028269040123,-2.1534998115628783,0.8647485954550349,2.4659396909475326,0.5444978450363762,1.0544104758940245,0.3238615046091247,-0.39250456234122666,-2.153291787532338,0.8647539153680389,2.46587817577521,0.5445020185570556,0.000123367503815725,5.012855632686465e-05,-0.00039096938996117925,-8.453409666287447e-05,-0.00026569013223708593,7.790355435322358e-05,0.001568899058861634,0.0,0.0,0.0,0.0,0.0,0.0,0.0,4.314958003792668e-06,-0.0003490640196883721,-1.7354372143785213e-06,0.0002080240305404324,5.319913004009358e-06,-6.151517232266812e-05,4.173520679384701e-06,-0.000123367503815725,-5.012855632686465e-05,0.00039096938996117925,8.453409666287447e-05,0.00026569013223708593,-7.790355435322358e-05,-0.001568899058861634,0.5299312472343445,34.16213607788086,3.7990386486053467,-19.459871292114258,-0.2548118233680725,-1.783755898475647,0.15964071452617645,0
75,0.3700120449066162,-0.5021602511405945,-34.11452865600586,-3.8506133556365967,19.487642288208008,0.2548118233680725,1.783755898475647,-0.13858358561992645,0.0,0.0,0.0,0.0,0.0,0.0,0.0,-0.5137805557379022,-0.11196399507331041,-0.2433911579404357,0.4492186867384885,0.19432370991650158,-0.1199702063189219,-0.12263707257834323,1.0544042120941897,0.3242072277571026,-0.3925013543746676,-2.153501018662206,0.8647484777354016,2.4659396909475326,0.5444955039197924,1.0544104758940245,0.3238615046091247,-0.39250456234122666,-2.153291787532338,0.8647539153680389,2.46587817577521,0.5445020185570556,9.629648473663874e-05,-0.001433454759479403,0.0009530194631011784,-0.00035810075830124355,-0.00027483458093736354,-3.498521884996404e-05,0.0009035986763855649,0.0,0.0,0.0,0.0,0.0,0.0,0.0,6.263799834815842e-06,-0.0003457231479778722,-3.2079665590600825e-06,0.00020923112986803716,5.437632637272927e-06,-6.151517232266812e-05,6.514637263199674e-06,-9.629648473663874e-05,0.001433454759479403,-0.0009530194631011784,0.00035810075830124355,0.00027483458093736354,3.498521884996404e-05,-0.0009035986763855649,0.5021602511405945,34.11452865600586,3.8506133556365967,-19.487642288208008,-0.2548118233680725,-1.783755898475647,0.13858358561992645,0
76,0.3750784397125244,-0.5021602511405945,-34.11452865600586,-3.8506133556365967,19.487642288208008,0.2548118233680725,1.783755898475647,-0.13858358561992645,0.0,0.0,0.0,0.0,0.0,0.0,0.0,-0.5137805557379022,-0.11196399507331041,-0.2433911579404357,0.4492186867384885,0.19432370991650158,-0.1199702063189219,-0.12263707257834323,1.0544042120941897,0.3242072277571026,-0.3925013543746676,-2.153501018662206,0.8647484777354016,2.4659396909475326,0.5444955039197924,1.0544104758940245,0.3238615046091247,-0.39250456234122666,-2.153291787532338,0.8647539153680389,2.46587817577521,0.5445020185570556,9.629648473663874e-05,-0.001433454759479403,0.0009530194631011784,-0.00035810075830124355,-0.00027483458093736354,-3.498521884996404e-05,0.0009035986763855649,0.0,0.0,0.0,0.0,0.0,0.0,0.0,6.263799834815842e-06,-0.0003457231479778722,-3.2079665590600825e-06,0.00020923112986803716,5.437632637272927e-06,-6.151517232266812e-05,6.514637263199674e-06,-9.629648473663874e-05,0.001433454759479403,-0.0009530194631011784,0.00035810075830124355,0.00027483458093736354,3.498521884996404e-05,-0.0009035986763855649,0.5021602511405945,34.11452865600586,3.8506133556365967,-19.487642288208008,-0.2548118233680725,-1.783755898475647,0.13858358561992645,0
77,0.38001108169555664,-0.5021602511405945,-34.18990707397461,-3.7514312267303467,19.487642288208008,0.2484031319618225,1.783755898475647,-0.11111776530742645,0.0,0.0,0.0,0.0,0.0,0.0,0.0,-0.5129040968974374,-0.09992638486228879,-0.24155174200410207,0.4420427805645566,0.19460007638710342,-0.12088599881794672,-0.12247324014122117,1.0544042120941897,0.3242125174706442,-0.39250616876897104,-2.153501018658019,0.8647493090026803,2.4659396909475326,0.544493515676235,1.0544104758940245,0.3238615046091247,-0.39250456234122666,-2.153291787532338,0.8647539153680389,2.46587817577521,0.5445020185570556,-0.0005090297107092997,0.0007087996274324543,-0.0012092429002447487,-0.000548064844147699,0.0001791910035542555,-0.00010471533918335309,-0.0003922476219245873,0.0,0.0,0.0,0.0,0.0,0.0,0.0,6.263799834815842e-06,-0.0003510128615195063,1.606427744382799e-06,0.0002092311256811641,4.606365358594822e-06,-6.151517232266812e-05,8.502880820548953e-06,0.0005090297107092997,-0.0007087996274324543,0.0012092429002447487,0.000548064844147699,-0.0001791910035542555,0.00010471533918335309,0.0003922476219245873,0.5021602511405945,34.18990707397461,3.7514312267303467,-19.487642288208008,-0.2484031319618225,-1.783755898475647,0.11111776530742645,0
78,0.38500022888183594,-0.5021602511405945,-34.18990707397461,-3.7514312267303467,19.487642288208008,0.2484031319618225,1.783755898475647,-0.11111776530742645,0.0,0.0,0.0,0.0,0.0,0.0,0.0,-0.5129040968974374,-0.09992638486228879,-0.24155174200410207,0.4420427805645566,0.19460007638710342,-0.12088599881794672,-0.12247324014122117,1.0544042120941897,0.3242125174706442,-0.39250616876897104,-2.153501018658019,0.8647493090026803,2.4659396909475326,0.544493515676235,1.0544104758940245,0.3238615046091247,-0.39250456234122666,-2.153291787532338,0.8647539153680389,2.46587817577521,0.5445020185570556,-0.0005090297107092997,0.0007087996274324543,-0.0012092429002447487,-0.000548064844147699,0.0001791910035542555,-0.00010471533918335309,-0.0003922476219245873,0.0,0.0,0.0,0.0,0.0,0.0,0.0,6.263799834815842e-06,-0.0003510128615195063,1.606427744382799e-06,0.0002092311256811641,4.606365358594822e-06,-6.151517232266812e-05,8.502880820548953e-06,0.0005090297107092997,-0.0007087996274324543,0.0012092429002447487,0.000548064844147699,-0.0001791910035542555,0.00010471533918335309,0.0003922476219245873,0.5021602511405945,34.18990707397461,3.7514312267303467,-19.487642288208008,-0.2484031319618225,-1.783755898475647,0.11111776530742645,0
79,0.3899955749511719,-0.5021602511405945,-34.18990707397461,-3.7514312267303467,19.487642288208008,0.2484031319618225,1.783755898475647,-0.11111776530742645,0.0,0.0,0.0,0.0,0.0,0.0,0.0,-0.5129040968974374,-0.09992638486228879,-0.24155174200410207,0.4420427805645566,0.19460007638710342,-0.12088599881794672,-0.12247324014122117,1.0544042120941897,0.3242125174706442,-0.39250616876897104,-2.153501018658019,0.8647493090026803,2.4659396909475326,0.544493515676235,1.0544104758940245,0.3238615046091247,-0.39250456234122666,-2.153291787532338,0.8647539153680389,2.46587817577521,0.5445020185570556,-0.0005090297107092997,0.0007087996274324543,-0.0012092429002447487,-0.000548064844147699,0.0001791910035542555,-0.00010471533918335309,-0.0003922476219245873,0.0,0.0,0.0,0.0,0.0,0.0,0.0,6.263799834815842e-06,-0.0003510128615195063,1.606427744382799e-06,0.0002092311256811641,4.606365358594822e-06,-6.151517232266812e-05,8.502880820548953e-06,0.0005090297107092997,-0.0007087996274324543,0.0012092429002447487,0.000548064844147699,-0.0001791910035542555,0.00010471533918335309,0.0003922476219245873,0.5021602511405945,34.18990707397461,3.7514312267303467,-19.487642288208008,-0.2484031319618225,-1.783755898475647,0.11111776530742645,0
80,0.39499998092651367,-0.5021602511405945,-34.18990707397461,-3.7514312267303467,19.487642288208008,0.2484031319618225,1.783755898475647,-0.11111776530742645,0.0,0.0,0.0,0.0,0.0,0.0,0.0,-0.5129040968974374,-0.09992638486228879,-0.24155174200410207,0.4420427805645566,0.19460007638710342,-0.12088599881794672,-0.12247324014122117,1.0544042120941897,0.3242125174706442,-0.39250616876897104,-2.153501018658019,0.8647493090026803,2.4659396909475326,0.544493515676235,1.0544104758940245,0.3238615046091247,-0.39250456234122666,-2.153291787532338,0.8647539153680389,2.46587817577521,0.5445020185570556,-0.0005090297107092997,0.0007087996274324543,-0.0012092429002447487,-0.000548064844147699,0.0001791910035542555,-0.00010471533918335309,-0.0003922476219245873,0.0,0.0,0.0,0.0,0.0,0.0,0.0,6.263799834815842e-06,-0.0003510128615195063,1.606427744382799e-06,0.0002092311256811641,4.606365358594822e-06,-6.151517232266812e-05,8.502880820548953e-06,0.0005090297107092997,-0.0007087996274324543,0.0012092429002447487,0.000548064844147699,-0.0001791910035542555,0.00010471533918335309,0.0003922476219245873,0.5021602511405945,34.18990707397461,3.7514312267303467,-19.487642288208008,-0.2484031319618225,-1.783755898475647,0.11111776530742645,0
