rezayati/contactInterpretation/dataset/franka_main/labeled_data/link3/e1_4.csv
index,time,tau_J0,tau_J1,tau_J2,tau_J3,tau_J4,tau_J5,tau_J6,tau_J_d0,tau_J_d1,tau_J_d2,tau_J_d3,tau_J_d4,tau_J_d5,tau_J_d6,tau_ext0,tau_ext1,tau_ext2,tau_ext3,tau_ext4,tau_ext5,tau_ext6,q0,q1,q2,q3,q4,q5,q6,q_d0,q_d1,q_d2,q_d3,q_d4,q_d5,q_d6,dq0,dq1,dq2,dq3,dq4,dq5,dq6,dq_d0,dq_d1,dq_d2,dq_d3,dq_d4,dq_d5,dq_d6,e0,e1,e2,e3,e4,e5,e6,de0,de1,de2,de3,de4,de5,de6,etau_J0,etau_J1,etau_J2,etau_J3,etau_J4,etau_J5,etau_J6,label
1,0.0,-0.3514034152030945,-19.768823623657227,-0.4466826617717743,20.007356643676758,0.6777854561805725,2.4758944511413574,-0.26217979192733765,0.0,0.0,0.0,0.0,0.0,0.0,0.0,-0.31492933265387557,-0.06988105696814044,-0.2507163209479019,0.22954362963733263,0.09548589422211581,0.09974190075394888,-0.2410231159026662,1.2134450512985984,-0.22036882968758534,-0.007504334976848103,-2.6038954038118063,-0.10888728402125332,2.468182877102997,0.8264756643177273,1.2134413937687574,-0.2202432315892585,-0.0075118285948192216,-2.6038483821997875,-0.10888392708698907,2.4681821257803174,0.826474908251239,0.0004224423985139856,-0.0009643193525252485,-0.00016710289297518596,-0.000299477343027158,-5.4559121117655073e-05,-0.00022358474182916516,0.0010201838324577187,0.0,0.0,0.0,0.0,0.0,0.0,0.0,-3.6575298409946555e-06,0.0001255980983268512,-7.493617971118631e-06,4.702161201874944e-05,3.356934264245326e-06,-7.513226796262984e-07,-7.560664883055068e-07,-0.0004224423985139856,0.0009643193525252485,0.00016710289297518596,0.000299477343027158,5.4559121117655073e-05,0.00022358474182916516,-0.0010201838324577187,0.3514034152030945,19.768823623657227,0.4466826617717743,-20.007356643676758,-0.6777854561805725,-2.4758944511413574,0.26217979192733765,0
2,0.004997968673706055,-0.3514034152030945,-19.768823623657227,-0.4982573688030243,19.983552932739258,0.6832786202430725,2.4694857597351074,-0.21457235515117645,0.0,0.0,0.0,0.0,0.0,0.0,0.0,-0.31376954726945083,-0.07081745598919746,-0.24635152792281353,0.230473736914067,0.09450596239812491,0.10024494170605178,-0.24116867885787555,1.2134452894991468,-0.22036882968743643,-0.007500952427513302,-2.6038937588857576,-0.10888789437214534,2.4681835499341847,0.8264708635071543,1.2134413937687574,-0.2202432315892585,-0.0075118285948192216,-2.6038483821997875,-0.10888392708698907,2.4681821257803174,0.826474908251239,0.0005124667087854361,-0.0007563273411129895,0.0012185064689022387,0.0006526722895809776,-0.00020628636947908494,8.478319246065484e-05,-0.0012882669992932325,0.0,0.0,0.0,0.0,0.0,0.0,0.0,-3.895730389391616e-06,0.00012559809817794254,-1.0876167305919927e-05,4.5376685970044406e-05,3.9672851562672085e-06,-1.4241538672798981e-06,4.044744084774621e-06,-0.0005124667087854361,0.0007563273411129895,-0.0012185064689022387,-0.0006526722895809776,0.00020628636947908494,-8.478319246065484e-05,0.0012882669992932325,0.3514034152030945,19.768823623657227,0.4982573688030243,-19.983552932739258,-0.6832786202430725,-2.4694857597351074,0.21457235515117645,0
3,0.009996891021728516,-0.3514034152030945,-19.768823623657227,-0.4982573688030243,19.983552932739258,0.6832786202430725,2.4694857597351074,-0.21457235515117645,0.0,0.0,0.0,0.0,0.0,0.0,0.0,-0.31376954726945083,-0.07081745598919746,-0.24635152792281353,0.230473736914067,0.09450596239812491,0.10024494170605178,-0.24116867885787555,1.2134452894991468,-0.22036882968743643,-0.007500952427513302,-2.6038937588857576,-0.10888789437214534,2.4681835499341847,0.8264708635071543,1.2134413937687574,-0.2202432315892585,-0.0075118285948192216,-2.6038483821997875,-0.10888392708698907,2.4681821257803174,0.826474908251239,0.0005124667087854361,-0.0007563273411129895,0.0012185064689022387,0.0006526722895809776,-0.00020628636947908494,8.478319246065484e-05,-0.0012882669992932325,0.0,0.0,0.0,0.0,0.0,0.0,0.0,-3.895730389391616e-06,0.00012559809817794254,-1.0876167305919927e-05,4.5376685970044406e-05,3.9672851562672085e-06,-1.4241538672798981e-06,4.044744084774621e-06,-0.0005124667087854361,0.0007563273411129895,-0.0012185064689022387,-0.0006526722895809776,0.00020628636947908494,-8.478319246065484e-05,0.0012882669992932325,0.3514034152030945,19.768823623657227,0.4982573688030243,-19.983552932739258,-0.6832786202430725,-2.4694857597351074,0.21457235515117645,0
4,0.015003442764282227,-0.3514034152030945,-19.768823623657227,-0.4982573688030243,19.983552932739258,0.6832786202430725,2.4694857597351074,-0.21457235515117645,0.0,0.0,0.0,0.0,0.0,0.0,0.0,-0.31376954726945083,-0.07081745598919746,-0.24635152792281353,0.230473736914067,0.09450596239812491,0.10024494170605178,-0.24116867885787555,1.2134452894991468,-0.22036882968743643,-0.007500952427513302,-2.6038937588857576,-0.10888789437214534,2.4681835499341847,0.8264708635071543,1.2134413937687574,-0.2202432315892585,-0.0075118285948192216,-2.6038483821997875,-0.10888392708698907,2.4681821257803174,0.826474908251239,0.0005124667087854361,-0.0007563273411129895,0.0012185064689022387,0.0006526722895809776,-0.00020628636947908494,8.478319246065484e-05,-0.0012882669992932325,0.0,0.0,0.0,0.0,0.0,0.0,0.0,-3.895730389391616e-06,0.00012559809817794254,-1.0876167305919927e-05,4.5376685970044406e-05,3.9672851562672085e-06,-1.4241538672798981e-06,4.044744084774621e-06,-0.0005124667087854361,0.0007563273411129895,-0.0012185064689022387,-0.0006526722895809776,0.00020628636947908494,-8.478319246065484e-05,0.0012882669992932325,0.3514034152030945,19.768823623657227,0.4982573688030243,-19.983552932739258,-0.6832786202430725,-2.4694857597351074,0.21457235515117645,0
5,0.01999640464782715,-0.3514034152030945,-19.768823623657227,-0.4982573688030243,19.983552932739258,0.6832786202430725,2.4694857597351074,-0.21457235515117645,0.0,0.0,0.0,0.0,0.0,0.0,0.0,-0.31376954726945083,-0.07081745598919746,-0.24635152792281353,0.230473736914067,0.09450596239812491,0.10024494170605178,-0.24116867885787555,1.2134452894991468,-0.22036882968743643,-0.007500952427513302,-2.6038937588857576,-0.10888789437214534,2.4681835499341847,0.8264708635071543,1.2134413937687574,-0.2202432315892585,-0.0075118285948192216,-2.6038483821997875,-0.10888392708698907,2.4681821257803174,0.826474908251239,0.0005124667087854361,-0.0007563273411129895,0.0012185064689022387,0.0006526722895809776,-0.00020628636947908494,8.478319246065484e-05,-0.0012882669992932325,0.0,0.0,0.0,0.0,0.0,0.0,0.0,-3.895730389391616e-06,0.00012559809817794254,-1.0876167305919927e-05,4.5376685970044406e-05,3.9672851562672085e-06,-1.4241538672798981e-06,4.044744084774621e-06,-0.0005124667087854361,0.0007563273411129895,-0.0012185064689022387,-0.0006526722895809776,0.00020628636947908494,-8.478319246065484e-05,0.0012882669992932325,0.3514034152030945,19.768823623657227,0.4982573688030243,-19.983552932739258,-0.6832786202430725,-2.4694857597351074,0.21457235515117645,0
6,0.025012493133544922,-0.3236324191093445,-19.816431045532227,-0.4228789508342743,20.007356643676758,0.6777854561805725,2.4694857597351074,-0.22830526530742645,0.0,0.0,0.0,0.0,0.0,0.0,0.0,-0.31787423676189064,-0.06868573668689877,-0.25009497290567306,0.2317714117804151,0.09425816645488955,0.10054819358937739,-0.24101211262087022,1.2134431031122115,-0.2203654888157259,-0.007506008336563064,-2.60389540381195,-0.10888728418284546,2.468186728902187,0.8264734315305116,1.2134413937687574,-0.2202432315892585,-0.0075118285948192216,-2.6038483821997875,-0.10888392708698907,2.4681821257803174,0.826474908251239,0.00027293801367889886,0.0005699448458457966,-0.0010787034653159723,0.00022698315882792704,8.931239027294753e-05,-8.144767539145314e-05,-0.00012810395747110995,0.0,0.0,0.0,0.0,0.0,0.0,0.0,-1.7093434541148866e-06,0.00012225722646741488,-5.820258256157909e-06,4.702161216263434e-05,3.3570958563877706e-06,-4.603121869450888e-06,1.4767207274779537e-06,-0.00027293801367889886,-0.0005699448458457966,0.0010787034653159723,-0.00022698315882792704,-8.931239027294753e-05,8.144767539145314e-05,0.00012810395747110995,0.3236324191093445,19.816431045532227,0.4228789508342743,-20.007356643676758,-0.6777854561805725,-2.4694857597351074,0.22830526530742645,0
7,0.03000497817993164,-0.3236324191093445,-19.816431045532227,-0.4228789508342743,20.007356643676758,0.6777854561805725,2.4694857597351074,-0.22830526530742645,0.0,0.0,0.0,0.0,0.0,0.0,0.0,-0.31787423676189064,-0.06868573668689877,-0.25009497290567306,0.2317714117804151,0.09425816645488955,0.10054819358937739,-0.24101211262087022,1.2134431031122115,-0.2203654888157259,-0.007506008336563064,-2.60389540381195,-0.10888728418284546,2.468186728902187,0.8264734315305116,1.2134413937687574,-0.2202432315892585,-0.0075118285948192216,-2.6038483821997875,-0.10888392708698907,2.4681821257803174,0.826474908251239,0.00027293801367889886,0.0005699448458457966,-0.0010787034653159723,0.00022698315882792704,8.931239027294753e-05,-8.144767539145314e-05,-0.00012810395747110995,0.0,0.0,0.0,0.0,0.0,0.0,0.0,-1.7093434541148866e-06,0.00012225722646741488,-5.820258256157909e-06,4.702161216263434e-05,3.3570958563877706e-06,-4.603121869450888e-06,1.4767207274779537e-06,-0.00027293801367889886,-0.0005699448458457966,0.0010787034653159723,-0.00022698315882792704,-8.931239027294753e-05,8.144767539145314e-05,0.00012810395747110995,0.3236324191093445,19.816431045532227,0.4228789508342743,-20.007356643676758,-0.6777854561805725,-2.4694857597351074,0.22830526530742645,0
8,0.034949541091918945,-0.3514034152030945,-19.768823623657227,-0.4704863727092743,20.031160354614258,0.6713767647743225,2.4694857597351074,-0.20083944499492645,0.0,0.0,0.0,0.0,0.0,0.0,0.0,-0.3155013365494953,-0.06376338090158719,-0.24968945435813925,0.22909034569409006,0.09452544596433937,0.09992589553735867,-0.24082423694560498,1.213445050971555,-0.22036882968743643,-0.007502664540959852,-2.6038970742476613,-0.10888657194376083,2.4681835499519087,0.8264699100126767,1.2134413937687574,-0.2202432315892585,-0.0075118285948192216,-2.6038483821997875,-0.10888392708698907,2.4681821257803174,0.826474908251239,0.0010699233682878073,-0.000561462961905173,0.000792048759518225,-0.0005679739568186272,0.00025875582991437333,0.00017139072472512458,-0.001597190393485305,0.0,0.0,0.0,0.0,0.0,0.0,0.0,-3.6572027977133104e-06,0.00012559809817794254,-9.164053859369962e-06,4.869204787372183e-05,2.6448567717607396e-06,-1.4241715913243524e-06,4.998238562370361e-06,-0.0010699233682878073,0.000561462961905173,-0.000792048759518225,0.0005679739568186272,-0.00025875582991437333,-0.00017139072472512458,0.001597190393485305,0.3514034152030945,19.768823623657227,0.4704863727092743,-20.031160354614258,-0.6713767647743225,-2.4694857597351074,0.20083944499492645,0
9,0.03999733924865723,-0.3514034152030945,-19.768823623657227,-0.4704863727092743,20.031160354614258,0.6713767647743225,2.4694857597351074,-0.20083944499492645,0.0,0.0,0.0,0.0,0.0,0.0,0.0,-0.3155013365494953,-0.06376338090158719,-0.24968945435813925,0.22909034569409006,0.09452544596433937,0.09992589553735867,-0.24082423694560498,1.213445050971555,-0.22036882968743643,-0.007502664540959852,-2.6038970742476613,-0.10888657194376083,2.4681835499519087,0.8264699100126767,1.2134413937687574,-0.2202432315892585,-0.0075118285948192216,-2.6038483821997875,-0.10888392708698907,2.4681821257803174,0.826474908251239,0.0010699233682878073,-0.000561462961905173,0.000792048759518225,-0.0005679739568186272,0.00025875582991437333,0.00017139072472512458,-0.001597190393485305,0.0,0.0,0.0,0.0,0.0,0.0,0.0,-3.6572027977133104e-06,0.00012559809817794254,-9.164053859369962e-06,4.869204787372183e-05,2.6448567717607396e-06,-1.4241715913243524e-06,4.998238562370361e-06,-0.0010699233682878073,0.000561462961905173,-0.000792048759518225,0.0005679739568186272,-0.00025875582991437333,-0.00017139072472512458,0.001597190393485305,0.3514034152030945,19.768823623657227,0.4704863727092743,-20.031160354614258,-0.6713767647743225,-2.4694857597351074,0.20083944499492645,0
10,0.04499650001525879,-0.2998287081718445,-19.792627334594727,-0.4704863727092743,20.007356643676758,0.6713767647743225,2.4694857597351074,-0.20724813640117645,0.0,0.0,0.0,0.0,0.0,0.0,0.0,-0.3166468328660655,-0.06238242475697302,-0.25042060432175994,0.22949379846529144,0.09496149975789007,0.10017140992325517,-0.24073860171427383,1.2134414316938635,-0.22036715939626322,-0.007502664540943346,-2.6038954038118063,-0.10888657194375992,2.468183550095469,0.8264731452885692,1.2134413937687574,-0.2202432315892585,-0.0075118285948192216,-2.6038483821997875,-0.10888392708698907,2.4681821257803174,0.826474908251239,-5.670442055199953e-05,-8.339297722306185e-06,0.0005222718020832306,4.494632111518347e-06,0.0003319833782749876,2.533185698069947e-05,-0.0014027913131102717,0.0,0.0,0.0,0.0,0.0,0.0,0.0,-3.7925106166625255e-08,0.0001239278070047367,-9.164053875875856e-06,4.702161201874944e-05,2.6448567708448056e-06,-1.4243151515991315e-06,1.7629626698489886e-06,5.670442055199953e-05,8.339297722306185e-06,-0.0005222718020832306,-4.494632111518347e-06,-0.0003319833782749876,-2.533185698069947e-05,0.0014027913131102717,0.2998287081718445,19.792627334594727,0.4704863727092743,-20.007356643676758,-0.6713767647743225,-2.4694857597351074,0.20724813640117645,0
11,0.049994707107543945,-0.2998287081718445,-19.792627334594727,-0.4704863727092743,20.007356643676758,0.6713767647743225,2.4694857597351074,-0.20724813640117645,0.0,0.0,0.0,0.0,0.0,0.0,0.0,-0.3166468328660655,-0.06238242475697302,-0.25042060432175994,0.22949379846529144,0.09496149975789007,0.10017140992325517,-0.24073860171427383,1.2134414316938635,-0.22036715939626322,-0.007502664540943346,-2.6038954038118063,-0.10888657194375992,2.468183550095469,0.8264731452885692,1.2134413937687574,-0.2202432315892585,-0.0075118285948192216,-2.6038483821997875,-0.10888392708698907,2.4681821257803174,0.826474908251239,-5.670442055199953e-05,-8.339297722306185e-06,0.0005222718020832306,4.494632111518347e-06,0.0003319833782749876,2.533185698069947e-05,-0.0014027913131102717,0.0,0.0,0.0,0.0,0.0,0.0,0.0,-3.7925106166625255e-08,0.0001239278070047367,-9.164053875875856e-06,4.702161201874944e-05,2.6448567708448056e-06,-1.4243151515991315e-06,1.7629626698489886e-06,5.670442055199953e-05,8.339297722306185e-06,-0.0005222718020832306,-4.494632111518347e-06,-0.0003319833782749876,-2.533185698069947e-05,0.0014027913131102717,0.2998287081718445,19.792627334594727,0.4704863727092743,-20.007356643676758,-0.6713767647743225,-2.4694857597351074,0.20724813640117645,0
12,0.055045366287231445,-0.2998287081718445,-19.816431045532227,-0.4228789508342743,20.007356643676758,0.6896873116493225,2.4694857597351074,-0.24844686686992645,0.0,0.0,0.0,0.0,0.0,0.0,0.0,-0.3154743394237615,-0.06468023422746559,-0.252047299280297,0.23340262977967036,0.09525297295204502,0.10068388011638342,-0.2403358837452157,1.2134414316938635,-0.22036548885189722,-0.007506005412653872,-2.6038954038118063,-0.1088897104839729,2.4681835499339644,0.8264753681342978,1.2134413937687574,-0.2202432315892585,-0.0075118285948192216,-2.6038483821997875,-0.10888392708698907,2.4681821257803174,0.826474908251239,-0.0005278222354753578,0.0003518844817449497,-0.0004430023809433133,0.00031810494091763026,-0.0002447846327669788,-6.256310090970463e-05,0.0007308050202146098,0.0,0.0,0.0,0.0,0.0,0.0,0.0,-3.7925106166625255e-08,0.00012225726263873082,-5.823182165349931e-06,4.702161201874944e-05,5.783396983830014e-06,-1.42415364701165e-06,-4.598830587454472e-07,0.0005278222354753578,-0.0003518844817449497,0.0004430023809433133,-0.00031810494091763026,0.0002447846327669788,6.256310090970463e-05,-0.0007308050202146098,0.2998287081718445,19.816431045532227,0.4228789508342743,-20.007356643676758,-0.6896873116493225,-2.4694857597351074,0.24844686686992645,0
13,0.06003284454345703,-0.2998287081718445,-19.816431045532227,-0.4228789508342743,20.007356643676758,0.6896873116493225,2.4694857597351074,-0.24844686686992645,0.0,0.0,0.0,0.0,0.0,0.0,0.0,-0.3154743394237615,-0.06468023422746559,-0.252047299280297,0.23340262977967036,0.09525297295204502,0.10068388011638342,-0.2403358837452157,1.2134414316938635,-0.22036548885189722,-0.007506005412653872,-2.6038954038118063,-0.1088897104839729,2.4681835499339644,0.8264753681342978,1.2134413937687574,-0.2202432315892585,-0.0075118285948192216,-2.6038483821997875,-0.10888392708698907,2.4681821257803174,0.826474908251239,-0.0005278222354753578,0.0003518844817449497,-0.0004430023809433133,0.00031810494091763026,-0.0002447846327669788,-6.256310090970463e-05,0.0007308050202146098,0.0,0.0,0.0,0.0,0.0,0.0,0.0,-3.7925106166625255e-08,0.00012225726263873082,-5.823182165349931e-06,4.702161201874944e-05,5.783396983830014e-06,-1.42415364701165e-06,-4.598830587454472e-07,0.0005278222354753578,-0.0003518844817449497,0.0004430023809433133,-0.00031810494091763026,0.0002447846327669788,6.256310090970463e-05,-0.0007308050202146098,0.2998287081718445,19.816431045532227,0.4228789508342743,-20.007356643676758,-0.6896873116493225,-2.4694857597351074,0.24844686686992645,0
14,0.06501007080078125,-0.3236324191093445,-19.844202041625977,-0.4228789508342743,20.007356643676758,0.6777854561805725,2.4694857597351074,-0.20724813640117645,0.0,0.0,0.0,0.0,0.0,0.0,0.0,-0.3109471504321693,-0.06792351552746438,-0.24558005220907808,0.23611235823207752,0.0951138850278145,0.10074124103985463,-0.23998609708768473,1.2134431021660574,-0.22036353997389496,-0.007506005737384189,-2.60389609257659,-0.10888763889520948,2.4681835499339635,0.8264696131085869,1.2134413937687574,-0.2202432315892585,-0.0075118285948192216,-2.6038483821997875,-0.10888392708698907,2.4681821257803174,0.826474908251239,0.000441118288028091,0.0007801715370179581,-0.00045792908391325356,0.00040881035632877704,-8.492590367387032e-05,0.00019122113916933777,-0.0016972916129867394,0.0,0.0,0.0,0.0,0.0,0.0,0.0,-1.7083973000708852e-06,0.00012030838463647497,-5.822857435032643e-06,4.7710376802623244e-05,3.7118082204107283e-06,-1.4241536461234716e-06,5.295142652128604e-06,-0.000441118288028091,-0.0007801715370179581,0.00045792908391325356,-0.00040881035632877704,8.492590367387032e-05,-0.00019122113916933777,0.0016972916129867394,0.3236324191093445,19.844202041625977,0.4228789508342743,-20.007356643676758,-0.6777854561805725,-2.4694857597351074,0.20724813640117645,0
15,0.06999754905700684,-0.3236324191093445,-19.844202041625977,-0.4228789508342743,20.007356643676758,0.6777854561805725,2.4694857597351074,-0.20724813640117645,0.0,0.0,0.0,0.0,0.0,0.0,0.0,-0.3109471504321693,-0.06792351552746438,-0.24558005220907808,0.23611235823207752,0.0951138850278145,0.10074124103985463,-0.23998609708768473,1.2134431021660574,-0.22036353997389496,-0.007506005737384189,-2.60389609257659,-0.10888763889520948,2.4681835499339635,0.8264696131085869,1.2134413937687574,-0.2202432315892585,-0.0075118285948192216,-2.6038483821997875,-0.10888392708698907,2.4681821257803174,0.826474908251239,0.000441118288028091,0.0007801715370179581,-0.00045792908391325356,0.00040881035632877704,-8.492590367387032e-05,0.00019122113916933777,-0.0016972916129867394,0.0,0.0,0.0,0.0,0.0,0.0,0.0,-1.7083973000708852e-06,0.00012030838463647497,-5.822857435032643e-06,4.7710376802623244e-05,3.7118082204107283e-06,-1.4241536461234716e-06,5.295142652128604e-06,-0.000441118288028091,-0.0007801715370179581,0.00045792908391325356,-0.00040881035632877704,8.492590367387032e-05,-0.00019122113916933777,0.0016972916129867394,0.3236324191093445,19.844202041625977,0.4228789508342743,-20.007356643676758,-0.6777854561805725,-2.4694857597351074,0.20724813640117645,0
16,0.07499361038208008,-0.3236324191093445,-19.792627334594727,-0.4466826617717743,20.054964065551758,0.6713767647743225,2.4758944511413574,-0.25485557317733765,0.0,0.0,0.0,0.0,0.0,0.0,0.0,-0.3152660562331467,-0.0663141116791683,-0.24764572745982702,0.23374642283674185,0.09495009732882034,0.0997338619241757,-0.24115636935425472,1.2134431021297187,-0.22036715957711583,-0.007506465532410304,-2.6038987446874047,-0.10888692681415754,2.4681828378571407,0.8264760671108848,1.2134413937687574,-0.2202432315892585,-0.0075118285948192216,-2.6038483821997875,-0.10888392708698907,2.4681821257803174,0.826474908251239,-1.8507374721388363e-05,-0.0008841436053048069,1.2358194929625038e-05,-0.0009094226260838187,0.00047251636171633394,6.0677168014935205e-05,-1.983590912817381e-05,0.0,0.0,0.0,0.0,0.0,0.0,0.0,-1.7083609613610662e-06,0.00012392798785734738,-5.36306240891786e-06,5.036248761713935e-05,2.9997271684678584e-06,-7.120768232837804e-07,-1.1588596458000922e-06,1.8507374721388363e-05,0.0008841436053048069,-1.2358194929625038e-05,0.0009094226260838187,-0.00047251636171633394,-6.0677168014935205e-05,1.983590912817381e-05,0.3236324191093445,19.792627334594727,0.4466826617717743,-20.054964065551758,-0.6713767647743225,-2.4758944511413574,0.25485557317733765,0
17,0.07999396324157715,-0.3236324191093445,-19.792627334594727,-0.4466826617717743,20.054964065551758,0.6713767647743225,2.4758944511413574,-0.25485557317733765,0.0,0.0,0.0,0.0,0.0,0.0,0.0,-0.3152660562331467,-0.0663141116791683,-0.24764572745982702,0.23374642283674185,0.09495009732882034,0.0997338619241757,-0.24115636935425472,1.2134431021297187,-0.22036715957711583,-0.007506465532410304,-2.6038987446874047,-0.10888692681415754,2.4681828378571407,0.8264760671108848,1.2134413937687574,-0.2202432315892585,-0.0075118285948192216,-2.6038483821997875,-0.10888392708698907,2.4681821257803174,0.826474908251239,-1.8507374721388363e-05,-0.0008841436053048069,1.2358194929625038e-05,-0.0009094226260838187,0.00047251636171633394,6.0677168014935205e-05,-1.983590912817381e-05,0.0,0.0,0.0,0.0,0.0,0.0,0.0,-1.7083609613610662e-06,0.00012392798785734738,-5.36306240891786e-06,5.036248761713935e-05,2.9997271684678584e-06,-7.120768232837804e-07,-1.1588596458000922e-06,1.8507374721388363e-05,0.0008841436053048069,-1.2358194929625038e-05,0.0009094226260838187,-0.00047251636171633394,-6.0677168014935205e-05,1.983590912817381e-05,0.3236324191093445,19.792627334594727,0.4466826617717743,-20.054964065551758,-0.6713767647743225,-2.4758944511413574,0.25485557317733765,0
18,0.08499956130981445,-0.2998287081718445,-19.792627334594727,-0.4466826617717743,20.031160354614258,0.6713767647743225,2.4758944511413574,-0.22830526530742645,0.0,0.0,0.0,0.0,0.0,0.0,0.0,-0.3125536692784468,-0.06565599048010336,-0.24427110402889546,0.23273501781243172,0.09505104929308618,0.09973986392057699,-0.24263781581414218,1.2134414316938635,-0.22036723835665978,-0.0075043359509895605,-2.603897074247663,-0.10888657210602347,2.4681828378571407,0.8264730042557596,1.2134413937687574,-0.2202432315892585,-0.0075118285948192216,-2.6038483821997875,-0.10888392708698907,2.4681821257803174,0.826474908251239,-0.00025313798637456776,-0.000488641833877248,3.7385811615740085e-05,-0.00045880545737698477,0.00040911337676121355,-4.203204284518594e-05,-0.0004965776737863638,0.0,0.0,0.0,0.0,0.0,0.0,0.0,-3.7925106166625255e-08,0.00012400676740129124,-7.492643829661028e-06,4.869204787549819e-05,2.6450190343946245e-06,-7.120768232837804e-07,1.9039954793909075e-06,0.00025313798637456776,0.000488641833877248,-3.7385811615740085e-05,0.00045880545737698477,-0.00040911337676121355,4.203204284518594e-05,0.0004965776737863638,0.2998287081718445,19.792627334594727,0.4466826617717743,-20.031160354614258,-0.6713767647743225,-2.4758944511413574,0.22830526530742645,0
19,0.0900123119354248,-0.2998287081718445,-19.792627334594727,-0.4466826617717743,20.031160354614258,0.6713767647743225,2.4758944511413574,-0.22830526530742645,0.0,0.0,0.0,0.0,0.0,0.0,0.0,-0.3125536692784468,-0.06565599048010336,-0.24427110402889546,0.23273501781243172,0.09505104929308618,0.09973986392057699,-0.24263781581414218,1.2134414316938635,-0.22036723835665978,-0.0075043359509895605,-2.603897074247663,-0.10888657210602347,2.4681828378571407,0.8264730042557596,1.2134413937687574,-0.2202432315892585,-0.0075118285948192216,-2.6038483821997875,-0.10888392708698907,2.4681821257803174,0.826474908251239,-0.00025313798637456776,-0.000488641833877248,3.7385811615740085e-05,-0.00045880545737698477,0.00040911337676121355,-4.203204284518594e-05,-0.0004965776737863638,0.0,0.0,0.0,0.0,0.0,0.0,0.0,-3.7925106166625255e-08,0.00012400676740129124,-7.492643829661028e-06,4.869204787549819e-05,2.6450190343946245e-06,-7.120768232837804e-07,1.9039954793909075e-06,0.00025313798637456776,0.000488641833877248,-3.7385811615740085e-05,0.00045880545737698477,-0.00040911337676121355,4.203204284518594e-05,0.0004965776737863638,0.2998287081718445,19.792627334594727,0.4466826617717743,-20.031160354614258,-0.6713767647743225,-2.4758944511413574,0.22830526530742645,0
20,0.09501981735229492,-0.3236324191093445,-19.816431045532227,-0.4704863727092743,20.031160354614258,0.6777854561805725,2.4694857597351074,-0.25485557317733765,0.0,0.0,0.0,0.0,0.0,0.0,0.0,-0.31361586074008185,-0.07078173391825404,-0.24833300683015527,0.23534569970980704,0.09528550459890252,0.1005107569450501,-0.24189410088789917,1.2134431021297187,-0.22036549174555464,-0.0075026655151345005,-2.6038970742476613,-0.1088872840225861,2.4681835499339635,0.8264791457860703,1.2134413937687574,-0.2202432315892585,-0.0075118285948192216,-2.6038483821997875,-0.10888392708698907,2.4681821257803174,0.826474908251239,-0.00011367605599196237,0.0002384643119113451,0.0005104371276937475,-0.0004422063398268405,5.7285204969632336e-05,7.799530793086352e-05,0.0002738044341780355,0.0,0.0,0.0,0.0,0.0,0.0,0.0,-1.7083609613610662e-06,0.0001222601562961556,-9.163079684721027e-06,4.869204787372183e-05,3.3569355970264336e-06,-1.4241536461234716e-06,-4.237534831252887e-06,0.00011367605599196237,-0.0002384643119113451,-0.0005104371276937475,0.0004422063398268405,-5.7285204969632336e-05,-7.799530793086352e-05,-0.0002738044341780355,0.3236324191093445,19.816431045532227,0.4704863727092743,-20.031160354614258,-0.6777854561805725,-2.4694857597351074,0.25485557317733765,0
21,0.09999942779541016,-0.3236324191093445,-19.816431045532227,-0.4704863727092743,20.031160354614258,0.6777854561805725,2.4694857597351074,-0.25485557317733765,0.0,0.0,0.0,0.0,0.0,0.0,0.0,-0.31361586074008185,-0.07078173391825404,-0.24833300683015527,0.23534569970980704,0.09528550459890252,0.1005107569450501,-0.24189410088789917,1.2134431021297187,-0.22036549174555464,-0.0075026655151345005,-2.6038970742476613,-0.1088872840225861,2.4681835499339635,0.8264791457860703,1.2134413937687574,-0.2202432315892585,-0.0075118285948192216,-2.6038483821997875,-0.10888392708698907,2.4681821257803174,0.826474908251239,-0.00011367605599196237,0.0002384643119113451,0.0005104371276937475,-0.0004422063398268405,5.7285204969632336e-05,7.799530793086352e-05,0.0002738044341780355,0.0,0.0,0.0,0.0,0.0,0.0,0.0,-1.7083609613610662e-06,0.0001222601562961556,-9.163079684721027e-06,4.869204787372183e-05,3.3569355970264336e-06,-1.4241536461234716e-06,-4.237534831252887e-06,0.00011367605599196237,-0.0002384643119113451,-0.0005104371276937475,0.0004422063398268405,-5.7285204969632336e-05,-7.799530793086352e-05,-0.0002738044341780355,0.3236324191093445,19.816431045532227,0.4704863727092743,-20.031160354614258,-0.6777854561805725,-2.4694857597351074,0.25485557317733765,0
22,0.10496330261230469,-0.2720577120780945,-19.816431045532227,-0.4466826617717743,20.007356643676758,0.6777854561805725,2.4694857597351074,-0.22830526530742645,0.0,0.0,0.0,0.0,0.0,0.0,0.0,-0.31101916752409575,-0.06936029849699625,-0.24717981090062063,0.2337724060541861,0.0947992571649892,0.10013634748137853,-0.24210955171490894,1.2134394868129565,-0.2203654897923465,-0.007504334976804108,-2.6038954038467987,-0.10888728840167412,2.4681835630159155,0.8264719004790728,1.2134413937687574,-0.2202432315892585,-0.0075118285948192216,-2.6038483821997875,-0.10888392708698907,2.4681821257803174,0.826474908251239,-0.000972488966508081,0.0001414404615383018,-0.00023351787570557097,-1.3683916613883275e-05,3.4598833397584934e-05,-3.5119192586952836e-06,-0.0005581638984775799,0.0,0.0,0.0,0.0,0.0,0.0,0.0,1.90695580082334e-06,0.00012225820308800484,-7.49361801511382e-06,4.7021647011202816e-05,3.361314685049188e-06,-1.4372355980896145e-06,3.007772166219169e-06,0.000972488966508081,-0.0001414404615383018,0.00023351787570557097,1.3683916613883275e-05,-3.4598833397584934e-05,3.5119192586952836e-06,0.0005581638984775799,0.2720577120780945,19.816431045532227,0.4466826617717743,-20.007356643676758,-0.6777854561805725,-2.4694857597351074,0.22830526530742645,0
23,0.10999703407287598,-0.2720577120780945,-19.816431045532227,-0.4466826617717743,20.007356643676758,0.6777854561805725,2.4694857597351074,-0.22830526530742645,0.0,0.0,0.0,0.0,0.0,0.0,0.0,-0.31101916752409575,-0.06936029849699625,-0.24717981090062063,0.2337724060541861,0.0947992571649892,0.10013634748137853,-0.24210955171490894,1.2134394868129565,-0.2203654897923465,-0.007504334976804108,-2.6038954038467987,-0.10888728840167412,2.4681835630159155,0.8264719004790728,1.2134413937687574,-0.2202432315892585,-0.0075118285948192216,-2.6038483821997875,-0.10888392708698907,2.4681821257803174,0.826474908251239,-0.000972488966508081,0.0001414404615383018,-0.00023351787570557097,-1.3683916613883275e-05,3.4598833397584934e-05,-3.5119192586952836e-06,-0.0005581638984775799,0.0,0.0,0.0,0.0,0.0,0.0,0.0,1.90695580082334e-06,0.00012225820308800484,-7.49361801511382e-06,4.7021647011202816e-05,3.361314685049188e-06,-1.4372355980896145e-06,3.007772166219169e-06,0.000972488966508081,-0.0001414404615383018,0.00023351787570557097,1.3683916613883275e-05,-3.4598833397584934e-05,3.5119192586952836e-06,0.0005581638984775799,0.2720577120780945,19.816431045532227,0.4466826617717743,-20.007356643676758,-0.6777854561805725,-2.4694857597351074,0.22830526530742645,0
24,0.11499738693237305,-0.2720577120780945,-19.816431045532227,-0.4228789508342743,20.031160354614258,0.6832786202430725,2.4694857597351074,-0.24844686686992645,0.0,0.0,0.0,0.0,0.0,0.0,0.0,-0.31010680978313687,-0.06907969608271891,-0.25037384431565346,0.23344184720380973,0.09490308103222002,0.09964382554199103,-0.24182119121721388,1.2134394828883932,-0.2203654888157314,-0.007506005412653872,-2.603897099757468,-0.10888789485895799,2.468183549934037,0.8264744974374658,1.2134413937687574,-0.2202432315892585,-0.0075118285948192216,-2.6038483821997875,-0.10888392708698907,2.4681821257803174,0.826474908251239,-0.0009458243551876095,0.00018927598632272646,-0.0005623028357242127,-0.00047399857964401833,-7.758833563095878e-06,-0.00013663384042728955,0.0002569161097469396,0.0,0.0,0.0,0.0,0.0,0.0,0.0,1.9108803641643135e-06,0.00012225722647291049,-5.823182165349931e-06,4.871755768043329e-05,3.967771968912959e-06,-1.4241537198422805e-06,4.1081377322171875e-07,0.0009458243551876095,-0.00018927598632272646,0.0005623028357242127,0.00047399857964401833,7.758833563095878e-06,0.00013663384042728955,-0.0002569161097469396,0.2720577120780945,19.816431045532227,0.4228789508342743,-20.031160354614258,-0.6832786202430725,-2.4694857597351074,0.24844686686992645,0
25,0.1199953556060791,-0.2720577120780945,-19.816431045532227,-0.4228789508342743,20.031160354614258,0.6832786202430725,2.4694857597351074,-0.24844686686992645,0.0,0.0,0.0,0.0,0.0,0.0,0.0,-0.31010680978313687,-0.06907969608271891,-0.25037384431565346,0.23344184720380973,0.09490308103222002,0.09964382554199103,-0.24182119121721388,1.2134394828883932,-0.2203654888157314,-0.007506005412653872,-2.603897099757468,-0.10888789485895799,2.468183549934037,0.8264744974374658,1.2134413937687574,-0.2202432315892585,-0.0075118285948192216,-2.6038483821997875,-0.10888392708698907,2.4681821257803174,0.826474908251239,-0.0009458243551876095,0.00018927598632272646,-0.0005623028357242127,-0.00047399857964401833,-7.758833563095878e-06,-0.00013663384042728955,0.0002569161097469396,0.0,0.0,0.0,0.0,0.0,0.0,0.0,1.9108803641643135e-06,0.00012225722647291049,-5.823182165349931e-06,4.871755768043329e-05,3.967771968912959e-06,-1.4241537198422805e-06,4.1081377322171875e-07,0.0009458243551876095,-0.00018927598632272646,0.0005623028357242127,0.00047399857964401833,7.758833563095878e-06,0.00013663384042728955,-0.0002569161097469396,0.2720577120780945,19.816431045532227,0.4228789508342743,-20.031160354614258,-0.6832786202430725,-2.4694857597351074,0.24844686686992645,0
26,0.12500905990600586,-0.2720577120780945,-19.844202041625977,-0.4228789508342743,20.031160354614258,0.6832786202430725,2.4823031425476074,-0.26217979192733765,0.0,0.0,0.0,0.0,0.0,0.0,0.0,-0.30596246319986353,-0.065098306159904,-0.24934222551852683,0.22893766966803258,0.09545532783171391,0.09875494706855636,-0.2417335314401942,1.2134394828520323,-0.22036353997389477,-0.007506005412653872,-2.603897074247805,-0.10888789437214809,2.4681821257803174,0.8264770776284995,1.2134413937687574,-0.2202432315892585,-0.0075118285948192216,-2.6038483821997875,-0.10888392708698907,2.4681821257803174,0.826474908251239,-0.00036149956626173037,0.0009967202448859494,-0.0007905486757615369,-0.0009442496382204305,-0.00016031587158188616,-0.0005042745822706994,0.0010908843128379952,0.0,0.0,0.0,0.0,0.0,0.0,0.0,1.910916725078593e-06,0.00012030838463628069,-5.823182165349931e-06,4.869204801760674e-05,3.9672851590150104e-06,0.0,-2.1693772604969297e-06,0.00036149956626173037,-0.0009967202448859494,0.0007905486757615369,0.0009442496382204305,0.00016031587158188616,0.0005042745822706994,-0.0010908843128379952,0.2720577120780945,19.844202041625977,0.4228789508342743,-20.031160354614258,-0.6832786202430725,-2.4823031425476074,0.26217979192733765,0
27,0.13001084327697754,-0.2720577120780945,-19.844202041625977,-0.4228789508342743,20.031160354614258,0.6832786202430725,2.4823031425476074,-0.26217979192733765,0.0,0.0,0.0,0.0,0.0,0.0,0.0,-0.30596246319986353,-0.065098306159904,-0.24934222551852683,0.22893766966803258,0.09545532783171391,0.09875494706855636,-0.2417335314401942,1.2134394828520323,-0.22036353997389477,-0.007506005412653872,-2.603897074247805,-0.10888789437214809,2.4681821257803174,0.8264770776284995,1.2134413937687574,-0.2202432315892585,-0.0075118285948192216,-2.6038483821997875,-0.10888392708698907,2.4681821257803174,0.826474908251239,-0.00036149956626173037,0.0009967202448859494,-0.0007905486757615369,-0.0009442496382204305,-0.00016031587158188616,-0.0005042745822706994,0.0010908843128379952,0.0,0.0,0.0,0.0,0.0,0.0,0.0,1.910916725078593e-06,0.00012030838463628069,-5.823182165349931e-06,4.869204801760674e-05,3.9672851590150104e-06,0.0,-2.1693772604969297e-06,0.00036149956626173037,-0.0009967202448859494,0.0007905486757615369,0.0009442496382204305,0.00016031587158188616,0.0005042745822706994,-0.0010908843128379952,0.2720577120780945,19.844202041625977,0.4228789508342743,-20.031160354614258,-0.6832786202430725,-2.4823031425476074,0.26217979192733765,0
28,0.1350078582763672,-0.3236324191093445,-19.768823623657227,-0.4228789508342743,20.031160354614258,0.6832786202430725,2.4823031425476074,-0.26217979192733765,0.0,0.0,0.0,0.0,0.0,0.0,0.0,-0.3047104769745441,-0.06951241833215283,-0.25202841208779825,0.23269128806905723,0.096032593383933,0.09978015480773496,-0.241351836543019,1.213443817385456,-0.22036882968743643,-0.007506005412653872,-2.6038970751924686,-0.10888789437214534,2.468182125941823,0.82647571824196,1.2134413937687574,-0.2202432315892585,-0.0075118285948192216,-2.6038483821997875,-0.10888392708698907,2.4681821257803174,0.826474908251239,0.0006944122904002855,-0.0010170138418339049,-0.0004556370598803361,-0.0003035753948021858,-3.2876268713270346e-05,-0.0004842419096996467,0.0009267371217502943,0.0,0.0,0.0,0.0,0.0,0.0,0.0,-2.4236166986657537e-06,0.00012559809817794254,-5.823182165349931e-06,4.8692992681065306e-05,3.9672851562672085e-06,-1.6150547565985107e-10,-8.099907209402346e-07,-0.0006944122904002855,0.0010170138418339049,0.0004556370598803361,0.0003035753948021858,3.2876268713270346e-05,0.0004842419096996467,-0.0009267371217502943,0.3236324191093445,19.768823623657227,0.4228789508342743,-20.031160354614258,-0.6832786202430725,-2.4823031425476074,0.26217979192733765,0
29,0.14000701904296875,-0.3236324191093445,-19.768823623657227,-0.4228789508342743,20.031160354614258,0.6832786202430725,2.4823031425476074,-0.26217979192733765,0.0,0.0,0.0,0.0,0.0,0.0,0.0,-0.3047104769745441,-0.06951241833215283,-0.25202841208779825,0.23269128806905723,0.096032593383933,0.09978015480773496,-0.241351836543019,1.213443817385456,-0.22036882968743643,-0.007506005412653872,-2.6038970751924686,-0.10888789437214534,2.468182125941823,0.82647571824196,1.2134413937687574,-0.2202432315892585,-0.0075118285948192216,-2.6038483821997875,-0.10888392708698907,2.4681821257803174,0.826474908251239,0.0006944122904002855,-0.0010170138418339049,-0.0004556370598803361,-0.0003035753948021858,-3.2876268713270346e-05,-0.0004842419096996467,0.0009267371217502943,0.0,0.0,0.0,0.0,0.0,0.0,0.0,-2.4236166986657537e-06,0.00012559809817794254,-5.823182165349931e-06,4.8692992681065306e-05,3.9672851562672085e-06,-1.6150547565985107e-10,-8.099907209402346e-07,-0.0006944122904002855,0.0010170138418339049,0.0004556370598803361,0.0003035753948021858,3.2876268713270346e-05,0.0004842419096996467,-0.0009267371217502943,0.3236324191093445,19.768823623657227,0.4228789508342743,-20.031160354614258,-0.6832786202430725,-2.4823031425476074,0.26217979192733765,0
30,0.14500713348388672,-0.3236324191093445,-19.816431045532227,-0.4228789508342743,20.007356643676758,0.6777854561805725,2.4694857597351074,-0.20083944499492645,0.0,0.0,0.0,0.0,0.0,0.0,0.0,-0.30727007950686086,-0.06489185649924316,-0.2510676047301782,0.22843353856515342,0.09580752196657177,0.09900622771029242,-0.24272228461303494,1.2134431021337562,-0.22036548892423746,-0.007506005737384189,-2.6038954038118116,-0.10888728986203787,2.4681835499339644,0.8264731067920107,1.2134413937687574,-0.2202432315892585,-0.0075118285948192216,-2.6038483821997875,-0.10888392708698907,2.4681821257803174,0.826474908251239,0.0007000283765864183,0.0004366697305004523,-0.001031530454099803,0.0002641135192787279,-7.133171094981491e-05,6.5337218597806e-05,-0.0015680521437616737,0.0,0.0,0.0,0.0,0.0,0.0,0.0,-1.7083649987981175e-06,0.00012225733497897573,-5.822857435032643e-06,4.702161202407851e-05,3.3627750487957853e-06,-1.42415364701165e-06,1.8014592283455144e-06,-0.0007000283765864183,-0.0004366697305004523,0.001031530454099803,-0.0002641135192787279,7.133171094981491e-05,-6.5337218597806e-05,0.0015680521437616737,0.3236324191093445,19.816431045532227,0.4228789508342743,-20.007356643676758,-0.6777854561805725,-2.4694857597351074,0.20083944499492645,0
31,0.150007963180542,-0.3236324191093445,-19.816431045532227,-0.4228789508342743,20.007356643676758,0.6777854561805725,2.4694857597351074,-0.20083944499492645,0.0,0.0,0.0,0.0,0.0,0.0,0.0,-0.30727007950686086,-0.06489185649924316,-0.2510676047301782,0.22843353856515342,0.09580752196657177,0.09900622771029242,-0.24272228461303494,1.2134431021337562,-0.22036548892423746,-0.007506005737384189,-2.6038954038118116,-0.10888728986203787,2.4681835499339644,0.8264731067920107,1.2134413937687574,-0.2202432315892585,-0.0075118285948192216,-2.6038483821997875,-0.10888392708698907,2.4681821257803174,0.826474908251239,0.0007000283765864183,0.0004366697305004523,-0.001031530454099803,0.0002641135192787279,-7.133171094981491e-05,6.5337218597806e-05,-0.0015680521437616737,0.0,0.0,0.0,0.0,0.0,0.0,0.0,-1.7083649987981175e-06,0.00012225733497897573,-5.822857435032643e-06,4.702161202407851e-05,3.3627750487957853e-06,-1.42415364701165e-06,1.8014592283455144e-06,-0.0007000283765864183,-0.0004366697305004523,0.001031530454099803,-0.0002641135192787279,7.133171094981491e-05,-6.5337218597806e-05,0.0015680521437616737,0.3236324191093445,19.816431045532227,0.4228789508342743,-20.007356643676758,-0.6777854561805725,-2.4694857597351074,0.20083944499492645,0
32,0.15500760078430176,-0.3236324191093445,-19.816431045532227,-0.4228789508342743,20.007356643676758,0.6777854561805725,2.4694857597351074,-0.20083944499492645,0.0,0.0,0.0,0.0,0.0,0.0,0.0,-0.30727007950686086,-0.06489185649924316,-0.2510676047301782,0.22843353856515342,0.09580752196657177,0.09900622771029242,-0.24272228461303494,1.2134431021337562,-0.22036548892423746,-0.007506005737384189,-2.6038954038118116,-0.10888728986203787,2.4681835499339644,0.8264731067920107,1.2134413937687574,-0.2202432315892585,-0.0075118285948192216,-2.6038483821997875,-0.10888392708698907,2.4681821257803174,0.826474908251239,0.0007000283765864183,0.0004366697305004523,-0.001031530454099803,0.0002641135192787279,-7.133171094981491e-05,6.5337218597806e-05,-0.0015680521437616737,0.0,0.0,0.0,0.0,0.0,0.0,0.0,-1.7083649987981175e-06,0.00012225733497897573,-5.822857435032643e-06,4.702161202407851e-05,3.3627750487957853e-06,-1.42415364701165e-06,1.8014592283455144e-06,-0.0007000283765864183,-0.0004366697305004523,0.001031530454099803,-0.0002641135192787279,7.133171094981491e-05,-6.5337218597806e-05,0.0015680521437616737,0.3236324191093445,19.816431045532227,0.4228789508342743,-20.007356643676758,-0.6777854561805725,-2.4694857597351074,0.20083944499492645,0
33,0.16000747680664062,-0.3236324191093445,-19.816431045532227,-0.4228789508342743,20.007356643676758,0.6777854561805725,2.4694857597351074,-0.20083944499492645,0.0,0.0,0.0,0.0,0.0,0.0,0.0,-0.30727007950686086,-0.06489185649924316,-0.2510676047301782,0.22843353856515342,0.09580752196657177,0.09900622771029242,-0.24272228461303494,1.2134431021337562,-0.22036548892423746,-0.007506005737384189,-2.6038954038118116,-0.10888728986203787,2.4681835499339644,0.8264731067920107,1.2134413937687574,-0.2202432315892585,-0.0075118285948192216,-2.6038483821997875,-0.10888392708698907,2.4681821257803174,0.826474908251239,0.0007000283765864183,0.0004366697305004523,-0.001031530454099803,0.0002641135192787279,-7.133171094981491e-05,6.5337218597806e-05,-0.0015680521437616737,0.0,0.0,0.0,0.0,0.0,0.0,0.0,-1.7083649987981175e-06,0.00012225733497897573,-5.822857435032643e-06,4.702161202407851e-05,3.3627750487957853e-06,-1.42415364701165e-06,1.8014592283455144e-06,-0.0007000283765864183,-0.0004366697305004523,0.001031530454099803,-0.0002641135192787279,7.133171094981491e-05,-6.5337218597806e-05,0.0015680521437616737,0.3236324191093445,19.816431045532227,0.4228789508342743,-20.007356643676758,-0.6777854561805725,-2.4694857597351074,0.20083944499492645,0
34,0.1650068759918213,-0.2998287081718445,-19.792627334594727,-0.4228789508342743,20.031160354614258,0.6713767647743225,2.4694857597351074,-0.21457235515117645,0.0,0.0,0.0,0.0,0.0,0.0,0.0,-0.30393717654338803,-0.06759916529429168,-0.24672635798323345,0.23074872350082762,0.0950313839221764,0.0992987155176266,-0.24340234726188748,1.2134414316938635,-0.22036716804101839,-0.007506031715811382,-2.6038973038359225,-0.10888980518916369,2.4681835499339635,0.8264750860946558,1.2134413937687574,-0.2202432315892585,-0.0075118285948192216,-2.6038483821997875,-0.10888392708698907,2.4681821257803174,0.826474908251239,0.0002979890577520604,-0.00011292611998584463,-0.0006697857249201544,-0.00037403865357296955,0.00048094261029349797,8.167681559081665e-06,-0.0009526908261839129,0.0,0.0,0.0,0.0,0.0,0.0,0.0,-3.7925106166625255e-08,0.00012393645175989842,-5.796879007839359e-06,4.89216361350131e-05,5.878102174616817e-06,-1.4241536461234716e-06,-1.7784341677096194e-07,-0.0002979890577520604,0.00011292611998584463,0.0006697857249201544,0.00037403865357296955,-0.00048094261029349797,-8.167681559081665e-06,0.0009526908261839129,0.2998287081718445,19.792627334594727,0.4228789508342743,-20.031160354614258,-0.6713767647743225,-2.4694857597351074,0.21457235515117645,0
35,0.17000722885131836,-0.2998287081718445,-19.792627334594727,-0.4228789508342743,20.031160354614258,0.6713767647743225,2.4694857597351074,-0.21457235515117645,0.0,0.0,0.0,0.0,0.0,0.0,0.0,-0.30393717654338803,-0.06759916529429168,-0.24672635798323345,0.23074872350082762,0.0950313839221764,0.0992987155176266,-0.24340234726188748,1.2134414316938635,-0.22036716804101839,-0.007506031715811382,-2.6038973038359225,-0.10888980518916369,2.4681835499339635,0.8264750860946558,1.2134413937687574,-0.2202432315892585,-0.0075118285948192216,-2.6038483821997875,-0.10888392708698907,2.4681821257803174,0.826474908251239,0.0002979890577520604,-0.00011292611998584463,-0.0006697857249201544,-0.00037403865357296955,0.00048094261029349797,8.167681559081665e-06,-0.0009526908261839129,0.0,0.0,0.0,0.0,0.0,0.0,0.0,-3.7925106166625255e-08,0.00012393645175989842,-5.796879007839359e-06,4.89216361350131e-05,5.878102174616817e-06,-1.4241536461234716e-06,-1.7784341677096194e-07,-0.0002979890577520604,0.00011292611998584463,0.0006697857249201544,0.00037403865357296955,-0.00048094261029349797,-8.167681559081665e-06,0.0009526908261839129,0.2998287081718445,19.792627334594727,0.4228789508342743,-20.031160354614258,-0.6713767647743225,-2.4694857597351074,0.21457235515117645,0
36,0.1750175952911377,-0.3236324191093445,-19.844202041625977,-0.4228789508342743,20.007356643676758,0.6713767647743225,2.4758944511413574,-0.26858848333358765,0.0,0.0,0.0,0.0,0.0,0.0,0.0,-0.30348832773330464,-0.06482674487395527,-0.24892804129286636,0.2313170187060068,0.09530695946289813,0.09876043216874722,-0.2428148680190229,1.2134431021297187,-0.22036353997394437,-0.007506005737532671,-2.6038954041280378,-0.10888658510528554,2.4681828378571407,0.8264810858973334,1.2134413937687574,-0.2202432315892585,-0.0075118285948192216,-2.6038483821997875,-0.10888392708698907,2.4681821257803174,0.826474908251239,0.0003758348759077225,0.0015054738622305307,-0.00024277766407035224,0.00012397567604415023,7.932962071075292e-05,-1.5964252827985115e-05,0.0015065043478857238,0.0,0.0,0.0,0.0,0.0,0.0,0.0,-1.7083609613610662e-06,0.0001203083846858799,-5.822857286550721e-06,4.702192825023488e-05,2.6580182964641708e-06,-7.120768232837804e-07,-6.177646094340794e-06,-0.0003758348759077225,-0.0015054738622305307,0.00024277766407035224,-0.00012397567604415023,-7.932962071075292e-05,1.5964252827985115e-05,-0.0015065043478857238,0.3236324191093445,19.844202041625977,0.4228789508342743,-20.007356643676758,-0.6713767647743225,-2.4758944511413574,0.26858848333358765,0
37,0.18000102043151855,-0.3236324191093445,-19.844202041625977,-0.4228789508342743,20.007356643676758,0.6713767647743225,2.4758944511413574,-0.26858848333358765,0.0,0.0,0.0,0.0,0.0,0.0,0.0,-0.30348832773330464,-0.06482674487395527,-0.24892804129286636,0.2313170187060068,0.09530695946289813,0.09876043216874722,-0.2428148680190229,1.2134431021297187,-0.22036353997394437,-0.007506005737532671,-2.6038954041280378,-0.10888658510528554,2.4681828378571407,0.8264810858973334,1.2134413937687574,-0.2202432315892585,-0.0075118285948192216,-2.6038483821997875,-0.10888392708698907,2.4681821257803174,0.826474908251239,0.0003758348759077225,0.0015054738622305307,-0.00024277766407035224,0.00012397567604415023,7.932962071075292e-05,-1.5964252827985115e-05,0.0015065043478857238,0.0,0.0,0.0,0.0,0.0,0.0,0.0,-1.7083609613610662e-06,0.0001203083846858799,-5.822857286550721e-06,4.702192825023488e-05,2.6580182964641708e-06,-7.120768232837804e-07,-6.177646094340794e-06,-0.0003758348759077225,-0.0015054738622305307,0.00024277766407035224,-0.00012397567604415023,-7.932962071075292e-05,1.5964252827985115e-05,-0.0015065043478857238,0.3236324191093445,19.844202041625977,0.4228789508342743,-20.007356643676758,-0.6713767647743225,-2.4758944511413574,0.26858848333358765,0
38,0.18500757217407227,-0.2998287081718445,-19.768823623657227,-0.4704863727092743,19.983552932739258,0.6832786202430725,2.4566683769226074,-0.22098104655742645,0.0,0.0,0.0,0.0,0.0,0.0,0.0,-0.3061502828474085,-0.06577152381482568,-0.2519009471348164,0.23479990532029346,0.09545947036334285,0.09929717888194935,-0.2429243038601473,1.2134414320209121,-0.22036882968743643,-0.007502664540945179,-2.6038937333759526,-0.10889108818776884,2.4681851310710354,0.8264758157781356,1.2134413937687574,-0.2202432315892585,-0.0075118285948192216,-2.6038483821997875,-0.10888392708698907,2.4681821257803174,0.826474908251239,-0.0005209309933536749,-0.0007661118639766474,0.0005469329498663299,0.0009639563282170738,-0.00011264383244572897,0.0005511084992666164,-0.0012256495047664074,0.0,0.0,0.0,0.0,0.0,0.0,0.0,-3.8252154777040914e-08,0.00012559809817794254,-9.164053874042254e-06,4.535117616510931e-05,7.161100779765062e-06,-3.0052907180611044e-06,-9.075268965208494e-07,0.0005209309933536749,0.0007661118639766474,-0.0005469329498663299,-0.0009639563282170738,0.00011264383244572897,-0.0005511084992666164,0.0012256495047664074,0.2998287081718445,19.768823623657227,0.4704863727092743,-19.983552932739258,-0.6832786202430725,-2.4566683769226074,0.22098104655742645,0
39,0.19000744819641113,-0.2998287081718445,-19.768823623657227,-0.4704863727092743,19.983552932739258,0.6832786202430725,2.4566683769226074,-0.22098104655742645,0.0,0.0,0.0,0.0,0.0,0.0,0.0,-0.3061502828474085,-0.06577152381482568,-0.2519009471348164,0.23479990532029346,0.09545947036334285,0.09929717888194935,-0.2429243038601473,1.2134414320209121,-0.22036882968743643,-0.007502664540945179,-2.6038937333759526,-0.10889108818776884,2.4681851310710354,0.8264758157781356,1.2134413937687574,-0.2202432315892585,-0.0075118285948192216,-2.6038483821997875,-0.10888392708698907,2.4681821257803174,0.826474908251239,-0.0005209309933536749,-0.0007661118639766474,0.0005469329498663299,0.0009639563282170738,-0.00011264383244572897,0.0005511084992666164,-0.0012256495047664074,0.0,0.0,0.0,0.0,0.0,0.0,0.0,-3.8252154777040914e-08,0.00012559809817794254,-9.164053874042254e-06,4.535117616510931e-05,7.161100779765062e-06,-3.0052907180611044e-06,-9.075268965208494e-07,0.0005209309933536749,0.0007661118639766474,-0.0005469329498663299,-0.0009639563282170738,0.00011264383244572897,-0.0005511084992666164,0.0012256495047664074,0.2998287081718445,19.768823623657227,0.4704863727092743,-19.983552932739258,-0.6832786202430725,-2.4566683769226074,0.22098104655742645,0
40,0.19501328468322754,-0.3236324191093445,-19.816431045532227,-0.4466826617717743,20.007356643676758,0.6777854561805725,2.4758944511413574,-0.22830526530742645,0.0,0.0,0.0,0.0,0.0,0.0,0.0,-0.3030372103437501,-0.06518101687594982,-0.24795527443990267,0.23336083772143265,0.09568821177927264,0.09866132686500816,-0.24356774849007343,1.2134431050731598,-0.2203654888157259,-0.007504334976798609,-2.60389609257659,-0.10888763890700635,2.4681828378580266,0.8264719048960077,1.2134413937687574,-0.2202432315892585,-0.0075118285948192216,-2.6038483821997875,-0.10888392708698907,2.4681821257803174,0.826474908251239,0.0003420168013430628,0.0001787177481722556,-0.00011779007290920781,-0.00027159930081768015,-8.841501763277221e-06,-0.00025726832731086266,-0.00043095428763877504,0.0,0.0,0.0,0.0,0.0,0.0,0.0,-1.7113044024075208e-06,0.00012225722646741488,-7.493618020612894e-06,4.7710376802623244e-05,3.7118200172797655e-06,-7.120777092417541e-07,3.00335523129025e-06,-0.0003420168013430628,-0.0001787177481722556,0.00011779007290920781,0.00027159930081768015,8.841501763277221e-06,0.00025726832731086266,0.00043095428763877504,0.3236324191093445,19.816431045532227,0.4466826617717743,-20.007356643676758,-0.6777854561805725,-2.4758944511413574,0.22830526530742645,0
41,0.20002198219299316,-0.3236324191093445,-19.816431045532227,-0.4466826617717743,20.007356643676758,0.6777854561805725,2.4758944511413574,-0.22830526530742645,0.0,0.0,0.0,0.0,0.0,0.0,0.0,-0.3030372103437501,-0.06518101687594982,-0.24795527443990267,0.23336083772143265,0.09568821177927264,0.09866132686500816,-0.24356774849007343,1.2134431050731598,-0.2203654888157259,-0.007504334976798609,-2.60389609257659,-0.10888763890700635,2.4681828378580266,0.8264719048960077,1.2134413937687574,-0.2202432315892585,-0.0075118285948192216,-2.6038483821997875,-0.10888392708698907,2.4681821257803174,0.826474908251239,0.0003420168013430628,0.0001787177481722556,-0.00011779007290920781,-0.00027159930081768015,-8.841501763277221e-06,-0.00025726832731086266,-0.00043095428763877504,0.0,0.0,0.0,0.0,0.0,0.0,0.0,-1.7113044024075208e-06,0.00012225722646741488,-7.493618020612894e-06,4.7710376802623244e-05,3.7118200172797655e-06,-7.120777092417541e-07,3.00335523129025e-06,-0.0003420168013430628,-0.0001787177481722556,0.00011779007290920781,0.00027159930081768015,8.841501763277221e-06,0.00025726832731086266,0.00043095428763877504,0.3236324191093445,19.816431045532227,0.4466826617717743,-20.007356643676758,-0.6777854561805725,-2.4758944511413574,0.22830526530742645,0
42,0.20500850677490234,-0.3514034152030945,-19.768823623657227,-0.4228789508342743,20.031160354614258,0.6777854561805725,2.4694857597351074,-0.26217979192733765,0.0,0.0,0.0,0.0,0.0,0.0,0.0,-0.3073545661102195,-0.0725445253560385,-0.2522289020599227,0.23790918225656993,0.09611645379432525,0.099663863813868,-0.24304678736893298,1.2134450510805825,-0.22036882968743643,-0.007508135968263734,-2.6038970742515493,-0.10888728402258617,2.4681835499339635,0.8264799217936477,1.2134413937687574,-0.2202432315892585,-0.0075118285948192216,-2.6038483821997875,-0.10888392708698907,2.4681821257803174,0.826474908251239,0.0008842426189069419,-0.0014770230493829748,-0.001365064956243645,-0.000555284235336492,0.0003456144805480128,0.0001339968060794299,0.0009712193447822396,0.0,0.0,0.0,0.0,0.0,0.0,0.0,-3.6573118251670422e-06,0.00012559809817794254,-3.6926265554876325e-06,4.8692051761722865e-05,3.3569355970958226e-06,-1.4241536461234716e-06,-5.0135424086716895e-06,-0.0008842426189069419,0.0014770230493829748,0.001365064956243645,0.000555284235336492,-0.0003456144805480128,-0.0001339968060794299,-0.0009712193447822396,0.3514034152030945,19.768823623657227,0.4228789508342743,-20.031160354614258,-0.6777854561805725,-2.4694857597351074,0.26217979192733765,0
43,0.210005521774292,-0.3514034152030945,-19.768823623657227,-0.4228789508342743,20.031160354614258,0.6777854561805725,2.4694857597351074,-0.26217979192733765,0.0,0.0,0.0,0.0,0.0,0.0,0.0,-0.3073545661102195,-0.0725445253560385,-0.2522289020599227,0.23790918225656993,0.09611645379432525,0.099663863813868,-0.24304678736893298,1.2134450510805825,-0.22036882968743643,-0.007508135968263734,-2.6038970742515493,-0.10888728402258617,2.4681835499339635,0.8264799217936477,1.2134413937687574,-0.2202432315892585,-0.0075118285948192216,-2.6038483821997875,-0.10888392708698907,2.4681821257803174,0.826474908251239,0.0008842426189069419,-0.0014770230493829748,-0.001365064956243645,-0.000555284235336492,0.0003456144805480128,0.0001339968060794299,0.0009712193447822396,0.0,0.0,0.0,0.0,0.0,0.0,0.0,-3.6573118251670422e-06,0.00012559809817794254,-3.6926265554876325e-06,4.8692051761722865e-05,3.3569355970958226e-06,-1.4241536461234716e-06,-5.0135424086716895e-06,-0.0008842426189069419,0.0014770230493829748,0.001365064956243645,0.000555284235336492,-0.0003456144805480128,-0.0001339968060794299,-0.0009712193447822396,0.3514034152030945,19.768823623657227,0.4228789508342743,-20.031160354614258,-0.6777854561805725,-2.4694857597351074,0.26217979192733765,0
44,0.21500825881958008,-0.2720577120780945,-19.816431045532227,-0.4466826617717743,20.031160354614258,0.6777854561805725,2.4758944511413574,-0.26217979192733765,0.0,0.0,0.0,0.0,0.0,0.0,0.0,-0.30165778626854467,-0.0660640011737258,-0.24667318528194562,0.2324636097540681,0.09651351059080943,0.09909374909356045,-0.24299637727266316,1.2134394857954733,-0.22036762464883036,-0.007504335012879755,-2.6038970742476613,-0.10888728402058286,2.4681828378571407,0.8264792358976781,1.2134413937687574,-0.2202432315892585,-0.0075118285948192216,-2.6038483821997875,-0.10888392708698907,2.4681821257803174,0.826474908251239,-0.0006459160234557693,1.911336087027442e-06,-0.00011169818430152395,-0.00047342727064004543,-2.229712608988022e-05,-0.00024104065494514582,0.0007595463693666226,0.0,0.0,0.0,0.0,0.0,0.0,0.0,1.9079732840321384e-06,0.00012439305957187563,-7.493581939466143e-06,4.869204787372183e-05,3.3569335937816414e-06,-7.120768232837804e-07,-4.327646439095112e-06,0.0006459160234557693,-1.911336087027442e-06,0.00011169818430152395,0.00047342727064004543,2.229712608988022e-05,0.00024104065494514582,-0.0007595463693666226,0.2720577120780945,19.816431045532227,0.4466826617717743,-20.031160354614258,-0.6777854561805725,-2.4758944511413574,0.26217979192733765,0
45,0.21999573707580566,-0.2720577120780945,-19.816431045532227,-0.4466826617717743,20.031160354614258,0.6777854561805725,2.4758944511413574,-0.26217979192733765,0.0,0.0,0.0,0.0,0.0,0.0,0.0,-0.30165778626854467,-0.0660640011737258,-0.24667318528194562,0.2324636097540681,0.09651351059080943,0.09909374909356045,-0.24299637727266316,1.2134394857954733,-0.22036762464883036,-0.007504335012879755,-2.6038970742476613,-0.10888728402058286,2.4681828378571407,0.8264792358976781,1.2134413937687574,-0.2202432315892585,-0.0075118285948192216,-2.6038483821997875,-0.10888392708698907,2.4681821257803174,0.826474908251239,-0.0006459160234557693,1.911336087027442e-06,-0.00011169818430152395,-0.00047342727064004543,-2.229712608988022e-05,-0.00024104065494514582,0.0007595463693666226,0.0,0.0,0.0,0.0,0.0,0.0,0.0,1.9079732840321384e-06,0.00012439305957187563,-7.493581939466143e-06,4.869204787372183e-05,3.3569335937816414e-06,-7.120768232837804e-07,-4.327646439095112e-06,0.0006459160234557693,-1.911336087027442e-06,0.00011169818430152395,0.00047342727064004543,2.229712608988022e-05,0.00024104065494514582,-0.0007595463693666226,0.2720577120780945,19.816431045532227,0.4466826617717743,-20.031160354614258,-0.6777854561805725,-2.4758944511413574,0.26217979192733765,0
46,0.22500848770141602,-0.2998287081718445,-19.792627334594727,-0.4466826617717743,19.955781936645508,0.6658836007118225,2.4694857597351074,-0.24844686686992645,0.0,0.0,0.0,0.0,0.0,0.0,0.0,-0.3051834590157627,-0.06160712722820851,-0.2509718645021004,0.22943053438632477,0.09650349120654052,0.09792037500000902,-0.24196391665552874,1.2134414316938689,-0.22036715925560008,-0.007504334976798676,-2.60389178453412,-0.10888916855102049,2.4681835499339635,0.8264774503045934,1.2134413937687574,-0.2202432315892585,-0.0075118285948192216,-2.6038483821997875,-0.10888392708698907,2.4681821257803174,0.826474908251239,-0.00020219543189696447,0.00011782260813124245,0.00035659862795879197,0.0008345001119841059,0.0006693364064028362,0.0001561349688389502,0.0004741134945562704,0.0,0.0,0.0,0.0,0.0,0.0,0.0,-3.7925111495695774e-08,0.00012392766634158892,-7.49361802054524e-06,4.340233433230978e-05,5.2414640314135674e-06,-1.4241536461234716e-06,-2.5420533543707435e-06,0.00020219543189696447,-0.00011782260813124245,-0.00035659862795879197,-0.0008345001119841059,-0.0006693364064028362,-0.0001561349688389502,-0.0004741134945562704,0.2998287081718445,19.792627334594727,0.4466826617717743,-19.955781936645508,-0.6658836007118225,-2.4694857597351074,0.24844686686992645,0
47,0.22999835014343262,-0.2998287081718445,-19.792627334594727,-0.4466826617717743,19.955781936645508,0.6658836007118225,2.4694857597351074,-0.24844686686992645,0.0,0.0,0.0,0.0,0.0,0.0,0.0,-0.3051834590157627,-0.06160712722820851,-0.2509718645021004,0.22943053438632477,0.09650349120654052,0.09792037500000902,-0.24196391665552874,1.2134414316938689,-0.22036715925560008,-0.007504334976798676,-2.60389178453412,-0.10888916855102049,2.4681835499339635,0.8264774503045934,1.2134413937687574,-0.2202432315892585,-0.0075118285948192216,-2.6038483821997875,-0.10888392708698907,2.4681821257803174,0.826474908251239,-0.00020219543189696447,0.00011782260813124245,0.00035659862795879197,0.0008345001119841059,0.0006693364064028362,0.0001561349688389502,0.0004741134945562704,0.0,0.0,0.0,0.0,0.0,0.0,0.0,-3.7925111495695774e-08,0.00012392766634158892,-7.49361802054524e-06,4.340233433230978e-05,5.2414640314135674e-06,-1.4241536461234716e-06,-2.5420533543707435e-06,0.00020219543189696447,-0.00011782260813124245,-0.00035659862795879197,-0.0008345001119841059,-0.0006693364064028362,-0.0001561349688389502,-0.0004741134945562704,0.2998287081718445,19.792627334594727,0.4466826617717743,-19.955781936645508,-0.6658836007118225,-2.4694857597351074,0.24844686686992645,0
48,0.23500776290893555,-0.2998287081718445,-19.792627334594727,-0.4466826617717743,20.007356643676758,0.6713767647743225,2.4694857597351074,-0.26217979192733765,0.0,0.0,0.0,0.0,0.0,0.0,0.0,-0.30586070888089867,-0.06943478347149773,-0.2520884263089677,0.23384164165464194,0.09650765393153017,0.09915520481122414,-0.24226086033999603,1.2134414318028797,-0.22036715925158115,-0.0075044226539841994,-2.6038954038118063,-0.10888657196186328,2.4681835499339635,0.8264757965828851,1.2134413937687574,-0.2202432315892585,-0.0075118285948192216,-2.6038483821997875,-0.10888392708698907,2.4681821257803174,0.826474908251239,-6.909957323459126e-05,-0.00020477020268251702,-8.814657235905996e-05,6.468230730755247e-05,0.0003628983197520426,9.109455358335217e-05,0.0005821451037474201,0.0,0.0,0.0,0.0,0.0,0.0,0.0,-3.8034122296082273e-08,0.00012392766232266483,-7.405940835022128e-06,4.702161201874944e-05,2.644874874210834e-06,-1.4241536461234716e-06,-8.883316460206458e-07,6.909957323459126e-05,0.00020477020268251702,8.814657235905996e-05,-6.468230730755247e-05,-0.0003628983197520426,-9.109455358335217e-05,-0.0005821451037474201,0.2998287081718445,19.792627334594727,0.4466826617717743,-20.007356643676758,-0.6713767647743225,-2.4694857597351074,0.26217979192733765,0
49,0.24001073837280273,-0.2998287081718445,-19.792627334594727,-0.4466826617717743,20.007356643676758,0.6713767647743225,2.4694857597351074,-0.26217979192733765,0.0,0.0,0.0,0.0,0.0,0.0,0.0,-0.30586070888089867,-0.06943478347149773,-0.2520884263089677,0.23384164165464194,0.09650765393153017,0.09915520481122414,-0.24226086033999603,1.2134414318028797,-0.22036715925158115,-0.0075044226539841994,-2.6038954038118063,-0.10888657196186328,2.4681835499339635,0.8264757965828851,1.2134413937687574,-0.2202432315892585,-0.0075118285948192216,-2.6038483821997875,-0.10888392708698907,2.4681821257803174,0.826474908251239,-6.909957323459126e-05,-0.00020477020268251702,-8.814657235905996e-05,6.468230730755247e-05,0.0003628983197520426,9.109455358335217e-05,0.0005821451037474201,0.0,0.0,0.0,0.0,0.0,0.0,0.0,-3.8034122296082273e-08,0.00012392766232266483,-7.405940835022128e-06,4.702161201874944e-05,2.644874874210834e-06,-1.4241536461234716e-06,-8.883316460206458e-07,6.909957323459126e-05,0.00020477020268251702,8.814657235905996e-05,-6.468230730755247e-05,-0.0003628983197520426,-9.109455358335217e-05,-0.0005821451037474201,0.2998287081718445,19.792627334594727,0.4466826617717743,-20.007356643676758,-0.6713767647743225,-2.4694857597351074,0.26217979192733765,0
50,0.24500823020935059,-0.3236324191093445,-19.844202041625977,-0.4466826617717743,20.031160354614258,0.6777854561805725,2.4758944511413574,-0.22830526530742645,0.0,0.0,0.0,0.0,0.0,0.0,0.0,-0.30814125020265154,-0.06374691753332705,-0.25619772303124044,0.23073937997362184,0.09610458639719179,0.09856546686232559,-0.24392533718271478,1.2134438173854565,-0.22036353997389477,-0.007504334977293549,-2.603897074562597,-0.10888728402058293,2.468182838018646,0.8264719571978674,1.2134413937687574,-0.2202432315892585,-0.0075118285948192216,-2.6038483821997875,-0.10888392708698907,2.4681821257803174,0.826474908251239,0.00047450311525769573,0.0014186115810267722,-0.0004393567766436871,-0.0003998712817348834,9.450595121182367e-05,-0.00017749766437702425,-0.0011280524637516545,0.0,0.0,0.0,0.0,0.0,0.0,0.0,-2.423616699109843e-06,0.00012030838463628069,-7.493617525672867e-06,4.869236280935496e-05,3.3569335938510303e-06,-7.122383287594403e-07,2.951053371669232e-06,-0.00047450311525769573,-0.0014186115810267722,0.0004393567766436871,0.0003998712817348834,-9.450595121182367e-05,0.00017749766437702425,0.0011280524637516545,0.3236324191093445,19.844202041625977,0.4466826617717743,-20.031160354614258,-0.6777854561805725,-2.4758944511413574,0.22830526530742645,0
51,0.25000476837158203,-0.3236324191093445,-19.844202041625977,-0.4466826617717743,20.031160354614258,0.6777854561805725,2.4758944511413574,-0.22830526530742645,0.0,0.0,0.0,0.0,0.0,0.0,0.0,-0.30814125020265154,-0.06374691753332705,-0.25619772303124044,0.23073937997362184,0.09610458639719179,0.09856546686232559,-0.24392533718271478,1.2134438173854565,-0.22036353997389477,-0.007504334977293549,-2.603897074562597,-0.10888728402058293,2.468182838018646,0.8264719571978674,1.2134413937687574,-0.2202432315892585,-0.0075118285948192216,-2.6038483821997875,-0.10888392708698907,2.4681821257803174,0.826474908251239,0.00047450311525769573,0.0014186115810267722,-0.0004393567766436871,-0.0003998712817348834,9.450595121182367e-05,-0.00017749766437702425,-0.0011280524637516545,0.0,0.0,0.0,0.0,0.0,0.0,0.0,-2.423616699109843e-06,0.00012030838463628069,-7.493617525672867e-06,4.869236280935496e-05,3.3569335938510303e-06,-7.122383287594403e-07,2.951053371669232e-06,-0.00047450311525769573,-0.0014186115810267722,0.0004393567766436871,0.0003998712817348834,-9.450595121182367e-05,0.00017749766437702425,0.0011280524637516545,0.3236324191093445,19.844202041625977,0.4466826617717743,-20.031160354614258,-0.6777854561805725,-2.4758944511413574,0.22830526530742645,0
52,0.2550075054168701,-0.2720577120780945,-19.792627334594727,-0.4466826617717743,20.007356643676758,0.6713767647743225,2.4694857597351074,-0.21457235515117645,0.0,0.0,0.0,0.0,0.0,0.0,0.0,-0.30429433883125123,-0.06676732911335372,-0.25157960290725856,0.23364544556929262,0.09550446095861764,0.09868195901278697,-0.2450773618227105,1.2134394828560697,-0.22036715928775166,-0.007504334976798611,-2.603895403811808,-0.10888657194375992,2.4681835499339644,0.8264736770423987,1.2134413937687574,-0.2202432315892585,-0.0075118285948192216,-2.6038483821997875,-0.10888392708698907,2.4681821257803174,0.826474908251239,-0.0011420959382636969,-0.000351838599987099,0.0002717942437843743,0.0004240211027435086,0.00022709876038572808,0.0002254907929470982,-0.0009162348224020104,0.0,0.0,0.0,0.0,0.0,0.0,0.0,1.9109126876415417e-06,0.00012392769849317586,-7.493618020610292e-06,4.7021612020525794e-05,2.6448567708448056e-06,-1.42415364701165e-06,1.2312088403243493e-06,0.0011420959382636969,0.000351838599987099,-0.0002717942437843743,-0.0004240211027435086,-0.00022709876038572808,-0.0002254907929470982,0.0009162348224020104,0.2720577120780945,19.792627334594727,0.4466826617717743,-20.007356643676758,-0.6713767647743225,-2.4694857597351074,0.21457235515117645,0
53,0.26000475883483887,-0.2720577120780945,-19.792627334594727,-0.4466826617717743,20.007356643676758,0.6713767647743225,2.4694857597351074,-0.21457235515117645,0.0,0.0,0.0,0.0,0.0,0.0,0.0,-0.30429433883125123,-0.06676732911335372,-0.25157960290725856,0.23364544556929262,0.09550446095861764,0.09868195901278697,-0.2450773618227105,1.2134394828560697,-0.22036715928775166,-0.007504334976798611,-2.603895403811808,-0.10888657194375992,2.4681835499339644,0.8264736770423987,1.2134413937687574,-0.2202432315892585,-0.0075118285948192216,-2.6038483821997875,-0.10888392708698907,2.4681821257803174,0.826474908251239,-0.0011420959382636969,-0.000351838599987099,0.0002717942437843743,0.0004240211027435086,0.00022709876038572808,0.0002254907929470982,-0.0009162348224020104,0.0,0.0,0.0,0.0,0.0,0.0,0.0,1.9109126876415417e-06,0.00012392769849317586,-7.493618020610292e-06,4.7021612020525794e-05,2.6448567708448056e-06,-1.42415364701165e-06,1.2312088403243493e-06,0.0011420959382636969,0.000351838599987099,-0.0002717942437843743,-0.0004240211027435086,-0.00022709876038572808,-0.0002254907929470982,0.0009162348224020104,0.2720577120780945,19.792627334594727,0.4466826617717743,-20.007356643676758,-0.6713767647743225,-2.4694857597351074,0.21457235515117645,0
54,0.26500844955444336,-0.2720577120780945,-19.768823623657227,-0.4704863727092743,20.007356643676758,0.6896873116493225,2.4758944511413574,-0.26858848333358765,0.0,0.0,0.0,0.0,0.0,0.0,0.0,-0.3058958801982699,-0.06660980086165358,-0.2495116884936112,0.23362382579413649,0.09503354358732147,0.09895487249893711,-0.2449430653649342,1.2134394828520323,-0.22036883847687488,-0.007502664540943346,-2.6038954038118063,-0.10888860644896825,2.4681828378571407,0.8264795946959671,1.2134413937687574,-0.2202432315892585,-0.0075118285948192216,-2.6038483821997875,-0.10888392708698907,2.4681821257803174,0.826474908251239,-0.0009336403912398914,-0.0008495045065289428,0.0010024742569323365,0.0002652062282740352,-0.00014643504221839102,-0.0001021597371965784,0.0010607039866935917,0.0,0.0,0.0,0.0,0.0,0.0,0.0,1.910916725078593e-06,0.00012560688761639738,-9.164053875875856e-06,4.702161201874944e-05,4.679361979176289e-06,-7.120768232837804e-07,-4.686444728063677e-06,0.0009336403912398914,0.0008495045065289428,-0.0010024742569323365,-0.0002652062282740352,0.00014643504221839102,0.0001021597371965784,-0.0010607039866935917,0.2720577120780945,19.768823623657227,0.4704863727092743,-20.007356643676758,-0.6896873116493225,-2.4758944511413574,0.26858848333358765,0
55,0.270005464553833,-0.2720577120780945,-19.768823623657227,-0.4704863727092743,20.007356643676758,0.6896873116493225,2.4758944511413574,-0.26858848333358765,0.0,0.0,0.0,0.0,0.0,0.0,0.0,-0.3058958801982699,-0.06660980086165358,-0.2495116884936112,0.23362382579413649,0.09503354358732147,0.09895487249893711,-0.2449430653649342,1.2134394828520323,-0.22036883847687488,-0.007502664540943346,-2.6038954038118063,-0.10888860644896825,2.4681828378571407,0.8264795946959671,1.2134413937687574,-0.2202432315892585,-0.0075118285948192216,-2.6038483821997875,-0.10888392708698907,2.4681821257803174,0.826474908251239,-0.0009336403912398914,-0.0008495045065289428,0.0010024742569323365,0.0002652062282740352,-0.00014643504221839102,-0.0001021597371965784,0.0010607039866935917,0.0,0.0,0.0,0.0,0.0,0.0,0.0,1.910916725078593e-06,0.00012560688761639738,-9.164053875875856e-06,4.702161201874944e-05,4.679361979176289e-06,-7.120768232837804e-07,-4.686444728063677e-06,0.0009336403912398914,0.0008495045065289428,-0.0010024742569323365,-0.0002652062282740352,0.00014643504221839102,0.0001021597371965784,-0.0010607039866935917,0.2720577120780945,19.768823623657227,0.4704863727092743,-20.007356643676758,-0.6896873116493225,-2.4758944511413574,0.26858848333358765,0
56,0.2750072479248047,-0.2998287081718445,-19.792627334594727,-0.3713042438030243,20.007356643676758,0.6713767647743225,2.4694857597351074,-0.25485557317733765,0.0,0.0,0.0,0.0,0.0,0.0,0.0,-0.30468709194297255,-0.06904348424505033,-0.24700825002591786,0.2360970065629856,0.09532849775093385,0.10011970873486192,-0.24609604887059647,1.2134414320209121,-0.22036715936010923,-0.0075103348755435635,-2.603895641915001,-0.1088865763248512,2.468183554294614,0.8264785192559103,1.2134413937687574,-0.2202432315892585,-0.0075118285948192216,-2.6038483821997875,-0.10888392708698907,2.4681821257803174,0.826474908251239,-0.00019503365555366105,-0.000205437799560768,-0.0016400735415386379,0.00036338543732269025,0.0003748427809427978,0.00012685801857891858,0.00035814643894895184,0.0,0.0,0.0,0.0,0.0,0.0,0.0,-3.8252154777040914e-08,0.00012392777085074025,-1.493719275658112e-06,4.725971521324368e-05,2.6492378621262302e-06,-1.4285142966308229e-06,-3.61100467127784e-06,0.00019503365555366105,0.000205437799560768,0.0016400735415386379,-0.00036338543732269025,-0.0003748427809427978,-0.00012685801857891858,-0.00035814643894895184,0.2998287081718445,19.792627334594727,0.3713042438030243,-20.007356643676758,-0.6713767647743225,-2.4694857597351074,0.25485557317733765,0
57,0.28000378608703613,-0.2998287081718445,-19.792627334594727,-0.3713042438030243,20.007356643676758,0.6713767647743225,2.4694857597351074,-0.25485557317733765,0.0,0.0,0.0,0.0,0.0,0.0,0.0,-0.30468709194297255,-0.06904348424505033,-0.24700825002591786,0.2360970065629856,0.09532849775093385,0.10011970873486192,-0.24609604887059647,1.2134414320209121,-0.22036715936010923,-0.0075103348755435635,-2.603895641915001,-0.1088865763248512,2.468183554294614,0.8264785192559103,1.2134413937687574,-0.2202432315892585,-0.0075118285948192216,-2.6038483821997875,-0.10888392708698907,2.4681821257803174,0.826474908251239,-0.00019503365555366105,-0.000205437799560768,-0.0016400735415386379,0.00036338543732269025,0.0003748427809427978,0.00012685801857891858,0.00035814643894895184,0.0,0.0,0.0,0.0,0.0,0.0,0.0,-3.8252154777040914e-08,0.00012392777085074025,-1.493719275658112e-06,4.725971521324368e-05,2.6492378621262302e-06,-1.4285142966308229e-06,-3.61100467127784e-06,0.00019503365555366105,0.000205437799560768,0.0016400735415386379,-0.00036338543732269025,-0.0003748427809427978,-0.00012685801857891858,-0.00035814643894895184,0.2998287081718445,19.792627334594727,0.3713042438030243,-20.007356643676758,-0.6713767647743225,-2.4694857597351074,0.25485557317733765,0
58,0.2850074768066406,-0.2998287081718445,-19.792627334594727,-0.3713042438030243,20.007356643676758,0.6713767647743225,2.4694857597351074,-0.25485557317733765,0.0,0.0,0.0,0.0,0.0,0.0,0.0,-0.30468709194297255,-0.06904348424505033,-0.24700825002591786,0.2360970065629856,0.09532849775093385,0.10011970873486192,-0.24609604887059647,1.2134414320209121,-0.22036715936010923,-0.0075103348755435635,-2.603895641915001,-0.1088865763248512,2.468183554294614,0.8264785192559103,1.2134413937687574,-0.2202432315892585,-0.0075118285948192216,-2.6038483821997875,-0.10888392708698907,2.4681821257803174,0.826474908251239,-0.00019503365555366105,-0.000205437799560768,-0.0016400735415386379,0.00036338543732269025,0.0003748427809427978,0.00012685801857891858,0.00035814643894895184,0.0,0.0,0.0,0.0,0.0,0.0,0.0,-3.8252154777040914e-08,0.00012392777085074025,-1.493719275658112e-06,4.725971521324368e-05,2.6492378621262302e-06,-1.4285142966308229e-06,-3.61100467127784e-06,0.00019503365555366105,0.000205437799560768,0.0016400735415386379,-0.00036338543732269025,-0.0003748427809427978,-0.00012685801857891858,-0.00035814643894895184,0.2998287081718445,19.792627334594727,0.3713042438030243,-20.007356643676758,-0.6713767647743225,-2.4694857597351074,0.25485557317733765,0
59,0.2900052070617676,-0.2998287081718445,-19.792627334594727,-0.3713042438030243,20.007356643676758,0.6713767647743225,2.4694857597351074,-0.25485557317733765,0.0,0.0,0.0,0.0,0.0,0.0,0.0,-0.30468709194297255,-0.06904348424505033,-0.24700825002591786,0.2360970065629856,0.09532849775093385,0.10011970873486192,-0.24609604887059647,1.2134414320209121,-0.22036715936010923,-0.0075103348755435635,-2.603895641915001,-0.1088865763248512,2.468183554294614,0.8264785192559103,1.2134413937687574,-0.2202432315892585,-0.0075118285948192216,-2.6038483821997875,-0.10888392708698907,2.4681821257803174,0.826474908251239,-0.00019503365555366105,-0.000205437799560768,-0.0016400735415386379,0.00036338543732269025,0.0003748427809427978,0.00012685801857891858,0.00035814643894895184,0.0,0.0,0.0,0.0,0.0,0.0,0.0,-3.8252154777040914e-08,0.00012392777085074025,-1.493719275658112e-06,4.725971521324368e-05,2.6492378621262302e-06,-1.4285142966308229e-06,-3.61100467127784e-06,0.00019503365555366105,0.000205437799560768,0.0016400735415386379,-0.00036338543732269025,-0.0003748427809427978,-0.00012685801857891858,-0.00035814643894895184,0.2998287081718445,19.792627334594727,0.3713042438030243,-20.007356643676758,-0.6713767647743225,-2.4694857597351074,0.25485557317733765,0
60,0.2950434684753418,-0.2720577120780945,-19.816431045532227,-0.4704863727092743,19.955781936645508,0.6777854561805725,2.4758944511413574,-0.24844686686992645,0.0,0.0,0.0,0.0,0.0,0.0,0.0,-0.3080848576577389,-0.06685294502051162,-0.24899299738969577,0.2333851424901007,0.09526301026318855,0.09940829653076755,-0.24601162585749428,1.213439482852034,-0.2203654888157265,-0.007502664653195801,-2.6038917845354637,-0.10888728402060756,2.468182955594735,0.8264752126587323,1.2134413937687574,-0.2202432315892585,-0.0075118285948192216,-2.6038483821997875,-0.10888392708698907,2.4681821257803174,0.826474908251239,-0.0004501070265736496,0.00017312974831443627,0.0005913612021147959,0.0014447182937728864,6.590494836360019e-05,-0.00017206360380510468,2.01834846164185e-05,0.0,0.0,0.0,0.0,0.0,0.0,0.0,1.910916723302236e-06,0.0001222572264680255,-9.163941623420262e-06,4.340233567612373e-05,3.3569336184841037e-06,-8.298144176244193e-07,-3.044074932123664e-07,0.0004501070265736496,-0.00017312974831443627,-0.0005913612021147959,-0.0014447182937728864,-6.590494836360019e-05,0.00017206360380510468,-2.01834846164185e-05,0.2720577120780945,19.816431045532227,0.4704863727092743,-19.955781936645508,-0.6777854561805725,-2.4758944511413574,0.24844686686992645,0
61,0.29999423027038574,-0.2720577120780945,-19.816431045532227,-0.4704863727092743,19.955781936645508,0.6777854561805725,2.4758944511413574,-0.24844686686992645,0.0,0.0,0.0,0.0,0.0,0.0,0.0,-0.3080848576577389,-0.06685294502051162,-0.24899299738969577,0.2333851424901007,0.09526301026318855,0.09940829653076755,-0.24601162585749428,1.213439482852034,-0.2203654888157265,-0.007502664653195801,-2.6038917845354637,-0.10888728402060756,2.468182955594735,0.8264752126587323,1.2134413937687574,-0.2202432315892585,-0.0075118285948192216,-2.6038483821997875,-0.10888392708698907,2.4681821257803174,0.826474908251239,-0.0004501070265736496,0.00017312974831443627,0.0005913612021147959,0.0014447182937728864,6.590494836360019e-05,-0.00017206360380510468,2.01834846164185e-05,0.0,0.0,0.0,0.0,0.0,0.0,0.0,1.910916723302236e-06,0.0001222572264680255,-9.163941623420262e-06,4.340233567612373e-05,3.3569336184841037e-06,-8.298144176244193e-07,-3.044074932123664e-07,0.0004501070265736496,-0.00017312974831443627,-0.0005913612021147959,-0.0014447182937728864,-6.590494836360019e-05,0.00017206360380510468,-2.01834846164185e-05,0.2720577120780945,19.816431045532227,0.4704863727092743,-19.955781936645508,-0.6777854561805725,-2.4758944511413574,0.24844686686992645,0
62,0.3050076961517334,-0.2998287081718445,-19.816431045532227,-0.4704863727092743,20.031160354614258,0.6658836007118225,2.4758944511413574,-0.21457235515117645,0.0,0.0,0.0,0.0,0.0,0.0,0.0,-0.3085147140937384,-0.0693366096292963,-0.24982619207648554,0.23209583203818782,0.0950591690033009,0.09932726523215177,-0.2453271471647265,1.2134421469496008,-0.2203654888157259,-0.00750266454094398,-2.6038970742476613,-0.10888596164628496,2.468182837857805,0.826470885316472,1.2134413937687574,-0.2202432315892585,-0.0075118285948192216,-2.6038483821997875,-0.10888392708698907,2.4681821257803174,0.826474908251239,-0.00044657147252746,-0.0001993358139799339,0.0006558801879777487,-0.0009398296490735989,0.0004786932690045715,-8.522102522710152e-05,-0.0013129035026503517,0.0,0.0,0.0,0.0,0.0,0.0,0.0,-7.531808434713128e-07,0.00012225722646741488,-9.164053875241815e-06,4.869204787372183e-05,2.034559295885363e-06,-7.120774876412383e-07,4.022934767089481e-06,0.00044657147252746,0.0001993358139799339,-0.0006558801879777487,0.0009398296490735989,-0.0004786932690045715,8.522102522710152e-05,0.0013129035026503517,0.2998287081718445,19.816431045532227,0.4704863727092743,-20.031160354614258,-0.6658836007118225,-2.4758944511413574,0.21457235515117645,0
63,0.31000328063964844,-0.2998287081718445,-19.816431045532227,-0.4704863727092743,20.031160354614258,0.6658836007118225,2.4758944511413574,-0.21457235515117645,0.0,0.0,0.0,0.0,0.0,0.0,0.0,-0.3085147140937384,-0.0693366096292963,-0.24982619207648554,0.23209583203818782,0.0950591690033009,0.09932726523215177,-0.2453271471647265,1.2134421469496008,-0.2203654888157259,-0.00750266454094398,-2.6038970742476613,-0.10888596164628496,2.468182837857805,0.826470885316472,1.2134413937687574,-0.2202432315892585,-0.0075118285948192216,-2.6038483821997875,-0.10888392708698907,2.4681821257803174,0.826474908251239,-0.00044657147252746,-0.0001993358139799339,0.0006558801879777487,-0.0009398296490735989,0.0004786932690045715,-8.522102522710152e-05,-0.0013129035026503517,0.0,0.0,0.0,0.0,0.0,0.0,0.0,-7.531808434713128e-07,0.00012225722646741488,-9.164053875241815e-06,4.869204787372183e-05,2.034559295885363e-06,-7.120774876412383e-07,4.022934767089481e-06,0.00044657147252746,0.0001993358139799339,-0.0006558801879777487,0.0009398296490735989,-0.0004786932690045715,8.522102522710152e-05,0.0013129035026503517,0.2998287081718445,19.816431045532227,0.4704863727092743,-20.031160354614258,-0.6658836007118225,-2.4758944511413574,0.21457235515117645,0
64,0.31500697135925293,-0.3514034152030945,-19.792627334594727,-0.4704863727092743,20.031160354614258,0.6832786202430725,2.4694857597351074,-0.25485557317733765,0.0,0.0,0.0,0.0,0.0,0.0,0.0,-0.3071321559459026,-0.06570646502394512,-0.2459796150037308,0.22951856829372497,0.09527164333258456,0.0994456816501777,-0.24473049197785124,1.2134450509755872,-0.2203692980144978,-0.007502664540943346,-2.603897099757468,-0.10888895897732871,2.468183555748164,0.8264794471561464,1.2134413937687574,-0.2202432315892585,-0.0075118285948192216,-2.6038483821997875,-0.10888392708698907,2.4681821257803174,0.826474908251239,0.0008706309298809036,-0.00046021349555192844,0.0005592648610315133,-0.0008821423340953014,-0.00010052947684441626,0.00014390062685534178,0.0005703598543109973,0.0,0.0,0.0,0.0,0.0,0.0,0.0,-3.657206829821291e-06,0.000126066425239324,-9.164053875875856e-06,4.871755768043329e-05,5.031890339637912e-06,-1.42996784679994e-06,-4.538904907369634e-06,-0.0008706309298809036,0.00046021349555192844,-0.0005592648610315133,0.0008821423340953014,0.00010052947684441626,-0.00014390062685534178,-0.0005703598543109973,0.3514034152030945,19.792627334594727,0.4704863727092743,-20.031160354614258,-0.6832786202430725,-2.4694857597351074,0.25485557317733765,0
65,0.3200061321258545,-0.3514034152030945,-19.792627334594727,-0.4704863727092743,20.031160354614258,0.6832786202430725,2.4694857597351074,-0.25485557317733765,0.0,0.0,0.0,0.0,0.0,0.0,0.0,-0.3071321559459026,-0.06570646502394512,-0.2459796150037308,0.22951856829372497,0.09527164333258456,0.0994456816501777,-0.24473049197785124,1.2134450509755872,-0.2203692980144978,-0.007502664540943346,-2.603897099757468,-0.10888895897732871,2.468183555748164,0.8264794471561464,1.2134413937687574,-0.2202432315892585,-0.0075118285948192216,-2.6038483821997875,-0.10888392708698907,2.4681821257803174,0.826474908251239,0.0008706309298809036,-0.00046021349555192844,0.0005592648610315133,-0.0008821423340953014,-0.00010052947684441626,0.00014390062685534178,0.0005703598543109973,0.0,0.0,0.0,0.0,0.0,0.0,0.0,-3.657206829821291e-06,0.000126066425239324,-9.164053875875856e-06,4.871755768043329e-05,5.031890339637912e-06,-1.42996784679994e-06,-4.538904907369634e-06,-0.0008706309298809036,0.00046021349555192844,-0.0005592648610315133,0.0008821423340953014,0.00010052947684441626,-0.00014390062685534178,-0.0005703598543109973,0.3514034152030945,19.792627334594727,0.4704863727092743,-20.031160354614258,-0.6832786202430725,-2.4694857597351074,0.25485557317733765,0
66,0.32500791549682617,-0.2720577120780945,-19.768823623657227,-0.4466826617717743,20.007356643676758,0.6832786202430725,2.4694857597351074,-0.26217979192733765,0.0,0.0,0.0,0.0,0.0,0.0,0.0,-0.3088957863840366,-0.06781190406718665,-0.24832534718114696,0.2314861877543539,0.09546580447422252,0.09989998931874408,-0.24406856397092686,1.2134401981077696,-0.22036883067611387,-0.007504335012879755,-2.6038974701063022,-0.10888789486494298,2.468183549933996,0.8264793331317213,1.2134413937687574,-0.2202432315892585,-0.0075118285948192216,-2.6038483821997875,-0.10888392708698907,2.4681821257803174,0.826474908251239,-0.0007553762105187194,-0.0006870566155049245,-0.00038979690037274775,0.0004823503585360667,1.9922222889133816e-05,0.00012776547441118672,0.0007219627201244665,0.0,0.0,0.0,0.0,0.0,0.0,0.0,1.1956609877739055e-06,0.000125599086855388,-7.493581939466143e-06,4.908790651469985e-05,3.96777795390324e-06,-1.424153678541984e-06,-4.424880482245541e-06,0.0007553762105187194,0.0006870566155049245,0.00038979690037274775,-0.0004823503585360667,-1.9922222889133816e-05,-0.00012776547441118672,-0.0007219627201244665,0.2720577120780945,19.768823623657227,0.4466826617717743,-20.007356643676758,-0.6832786202430725,-2.4694857597351074,0.26217979192733765,0
67,0.33001017570495605,-0.2720577120780945,-19.768823623657227,-0.4466826617717743,20.007356643676758,0.6832786202430725,2.4694857597351074,-0.26217979192733765,0.0,0.0,0.0,0.0,0.0,0.0,0.0,-0.3088957863840366,-0.06781190406718665,-0.24832534718114696,0.2314861877543539,0.09546580447422252,0.09989998931874408,-0.24406856397092686,1.2134401981077696,-0.22036883067611387,-0.007504335012879755,-2.6038974701063022,-0.10888789486494298,2.468183549933996,0.8264793331317213,1.2134413937687574,-0.2202432315892585,-0.0075118285948192216,-2.6038483821997875,-0.10888392708698907,2.4681821257803174,0.826474908251239,-0.0007553762105187194,-0.0006870566155049245,-0.00038979690037274775,0.0004823503585360667,1.9922222889133816e-05,0.00012776547441118672,0.0007219627201244665,0.0,0.0,0.0,0.0,0.0,0.0,0.0,1.1956609877739055e-06,0.000125599086855388,-7.493581939466143e-06,4.908790651469985e-05,3.96777795390324e-06,-1.424153678541984e-06,-4.424880482245541e-06,0.0007553762105187194,0.0006870566155049245,0.00038979690037274775,-0.0004823503585360667,-1.9922222889133816e-05,-0.00012776547441118672,-0.0007219627201244665,0.2720577120780945,19.768823623657227,0.4466826617717743,-20.007356643676758,-0.6832786202430725,-2.4694857597351074,0.26217979192733765,0
68,0.335003137588501,-0.2998287081718445,-19.792627334594727,-0.4704863727092743,20.031160354614258,0.6896873116493225,2.4823031425476074,-0.22098104655742645,0.0,0.0,0.0,0.0,0.0,0.0,0.0,-0.30725035658821415,-0.06419715916799305,-0.2502477180325655,0.22613485384396095,0.09551450179317807,0.0994132336995672,-0.24392507852498888,1.213441431697901,-0.2203692950846912,-0.0075026645409435495,-2.6038970742593253,-0.10888860644897103,2.4681821257803174,0.8264754575528781,1.2134413937687574,-0.2202432315892585,-0.0075118285948192216,-2.6038483821997875,-0.10888392708698907,2.4681821257803174,0.826474908251239,-0.0005187627598132633,1.4967853634459793e-05,0.0006037914417698728,-0.00092775235565917,-0.00041505522895105083,-0.0003690181435566793,-0.001153402243922688,0.0,0.0,0.0,0.0,0.0,0.0,0.0,-3.792914360367661e-08,0.00012606349543270445,-9.164053875672026e-06,4.869205953772493e-05,4.679361981951846e-06,0.0,-5.493016390634153e-07,0.0005187627598132633,-1.4967853634459793e-05,-0.0006037914417698728,0.00092775235565917,0.00041505522895105083,0.0003690181435566793,0.001153402243922688,0.2998287081718445,19.792627334594727,0.4704863727092743,-20.031160354614258,-0.6896873116493225,-2.4823031425476074,0.22098104655742645,0
69,0.3400306701660156,-0.2998287081718445,-19.792627334594727,-0.4704863727092743,20.031160354614258,0.6896873116493225,2.4823031425476074,-0.22098104655742645,0.0,0.0,0.0,0.0,0.0,0.0,0.0,-0.30725035658821415,-0.06419715916799305,-0.2502477180325655,0.22613485384396095,0.09551450179317807,0.0994132336995672,-0.24392507852498888,1.213441431697901,-0.2203692950846912,-0.0075026645409435495,-2.6038970742593253,-0.10888860644897103,2.4681821257803174,0.8264754575528781,1.2134413937687574,-0.2202432315892585,-0.0075118285948192216,-2.6038483821997875,-0.10888392708698907,2.4681821257803174,0.826474908251239,-0.0005187627598132633,1.4967853634459793e-05,0.0006037914417698728,-0.00092775235565917,-0.00041505522895105083,-0.0003690181435566793,-0.001153402243922688,0.0,0.0,0.0,0.0,0.0,0.0,0.0,-3.792914360367661e-08,0.00012606349543270445,-9.164053875672026e-06,4.869205953772493e-05,4.679361981951846e-06,0.0,-5.493016390634153e-07,0.0005187627598132633,-1.4967853634459793e-05,-0.0006037914417698728,0.00092775235565917,0.00041505522895105083,0.0003690181435566793,0.001153402243922688,0.2998287081718445,19.792627334594727,0.4704863727092743,-20.031160354614258,-0.6896873116493225,-2.4823031425476074,0.22098104655742645,0
70,0.34503650665283203,-0.2998287081718445,-19.768823623657227,-0.4466826617717743,19.983552932739258,0.6777854561805725,2.4758944511413574,-0.25485557317733765,0.0,0.0,0.0,0.0,0.0,0.0,0.0,-0.30438591205136734,-0.07398038070059769,-0.24957969659675958,0.23402514627358295,0.0951315873277114,0.10091647774252328,-0.24334710758175582,1.2134414316938635,-0.2203688388144646,-0.007504334976798609,-2.603893733375951,-0.10888728402058283,2.468186016771529,0.8264783840943554,1.2134413937687574,-0.2202432315892585,-0.0075118285948192216,-2.6038483821997875,-0.10888392708698907,2.4681821257803174,0.826474908251239,5.404704993680636e-07,-0.001010535558300637,-1.1067922991803283e-05,0.0006582236966126081,0.00012786409029273666,-0.000205496152856302,0.0008821584824995709,0.0,0.0,0.0,0.0,0.0,0.0,0.0,-3.7925106166625255e-08,0.00012560722520610357,-7.493618020612894e-06,4.535117616333295e-05,3.3569335937538858e-06,-3.8909912114526435e-06,-3.4758431163295356e-06,-5.404704993680636e-07,0.001010535558300637,1.1067922991803283e-05,-0.0006582236966126081,-0.00012786409029273666,0.000205496152856302,-0.0008821584824995709,0.2998287081718445,19.768823623657227,0.4466826617717743,-19.983552932739258,-0.6777854561805725,-2.4758944511413574,0.25485557317733765,0
71,0.35005712509155273,-0.2998287081718445,-19.768823623657227,-0.4466826617717743,19.983552932739258,0.6777854561805725,2.4758944511413574,-0.25485557317733765,0.0,0.0,0.0,0.0,0.0,0.0,0.0,-0.30438591205136734,-0.07398038070059769,-0.24957969659675958,0.23402514627358295,0.0951315873277114,0.10091647774252328,-0.24334710758175582,1.2134414316938635,-0.2203688388144646,-0.007504334976798609,-2.603893733375951,-0.10888728402058283,2.468186016771529,0.8264783840943554,1.2134413937687574,-0.2202432315892585,-0.0075118285948192216,-2.6038483821997875,-0.10888392708698907,2.4681821257803174,0.826474908251239,5.404704993680636e-07,-0.001010535558300637,-1.1067922991803283e-05,0.0006582236966126081,0.00012786409029273666,-0.000205496152856302,0.0008821584824995709,0.0,0.0,0.0,0.0,0.0,0.0,0.0,-3.7925106166625255e-08,0.00012560722520610357,-7.493618020612894e-06,4.535117616333295e-05,3.3569335937538858e-06,-3.8909912114526435e-06,-3.4758431163295356e-06,-5.404704993680636e-07,0.001010535558300637,1.1067922991803283e-05,-0.0006582236966126081,-0.00012786409029273666,0.000205496152856302,-0.0008821584824995709,0.2998287081718445,19.768823623657227,0.4466826617717743,-19.983552932739258,-0.6777854561805725,-2.4758944511413574,0.25485557317733765,0
72,0.3550221920013428,-0.3514034152030945,-19.792627334594727,-0.4704863727092743,19.983552932739258,0.6777854561805725,2.4758944511413574,-0.20724813640117645,0.0,0.0,0.0,0.0,0.0,0.0,0.0,-0.3044135990050079,-0.06371403556876522,-0.25050584828914657,0.22700918019101618,0.09507542161002279,0.09942110028057585,-0.2427286236180195,1.2134450509715498,-0.22036715957716735,-0.007502664540943346,-2.6038937336908865,-0.10888728402058283,2.4681828378750854,0.8264707789227249,1.2134413937687574,-0.2202432315892585,-0.0075118285948192216,-2.6038483821997875,-0.10888392708698907,2.4681821257803174,0.826474908251239,0.0013898044417428607,-7.272100636487276e-05,0.0004592473257730178,0.0004446084380267413,5.7628203388833036e-05,-0.0003298723157295314,-0.0012315993868344673,0.0,0.0,0.0,0.0,0.0,0.0,0.0,-3.65720279238424e-06,0.00012392798790886173,-9.164053875875856e-06,4.535149109896608e-05,3.3569335937538858e-06,-7.12094768040572e-07,4.129328514124175e-06,-0.0013898044417428607,7.272100636487276e-05,-0.0004592473257730178,-0.0004446084380267413,-5.7628203388833036e-05,0.0003298723157295314,0.0012315993868344673,0.3514034152030945,19.792627334594727,0.4704863727092743,-19.983552932739258,-0.6777854561805725,-2.4758944511413574,0.20724813640117645,0
73,0.3600273132324219,-0.3514034152030945,-19.792627334594727,-0.4704863727092743,19.983552932739258,0.6777854561805725,2.4758944511413574,-0.20724813640117645,0.0,0.0,0.0,0.0,0.0,0.0,0.0,-0.3044135990050079,-0.06371403556876522,-0.25050584828914657,0.22700918019101618,0.09507542161002279,0.09942110028057585,-0.2427286236180195,1.2134450509715498,-0.22036715957716735,-0.007502664540943346,-2.6038937336908865,-0.10888728402058283,2.4681828378750854,0.8264707789227249,1.2134413937687574,-0.2202432315892585,-0.0075118285948192216,-2.6038483821997875,-0.10888392708698907,2.4681821257803174,0.826474908251239,0.0013898044417428607,-7.272100636487276e-05,0.0004592473257730178,0.0004446084380267413,5.7628203388833036e-05,-0.0003298723157295314,-0.0012315993868344673,0.0,0.0,0.0,0.0,0.0,0.0,0.0,-3.65720279238424e-06,0.00012392798790886173,-9.164053875875856e-06,4.535149109896608e-05,3.3569335937538858e-06,-7.12094768040572e-07,4.129328514124175e-06,-0.0013898044417428607,7.272100636487276e-05,-0.0004592473257730178,-0.0004446084380267413,-5.7628203388833036e-05,0.0003298723157295314,0.0012315993868344673,0.3514034152030945,19.792627334594727,0.4704863727092743,-19.983552932739258,-0.6777854561805725,-2.4758944511413574,0.20724813640117645,0
74,0.3650364875793457,-0.2998287081718445,-19.816431045532227,-0.4228789508342743,20.031160354614258,0.6777854561805725,2.4694857597351074,-0.21457235515117645,0.0,0.0,0.0,0.0,0.0,0.0,0.0,-0.3043626319036986,-0.06665827719007696,-0.25074701228760793,0.22991660745403183,0.09489938424982416,0.09926320506586585,-0.2419527511788907,1.2134414316938635,-0.22036548881572773,-0.007506005412653872,-2.603897074247663,-0.10888729716385669,2.4681835518720305,0.8264714537631008,1.2134413937687574,-0.2202432315892585,-0.0075118285948192216,-2.6038483821997875,-0.10888392708698907,2.4681821257803174,0.826474908251239,-0.00010583593528651896,0.00022123246223949443,-0.0007772391981427617,-0.0006520882665755153,-2.6594178856879712e-05,-8.847244644313478e-05,-0.001176566168416081,0.0,0.0,0.0,0.0,0.0,0.0,0.0,-3.7925106166625255e-08,0.00012225722646924675,-5.823182165349931e-06,4.869204787549819e-05,3.3700768676120374e-06,-1.4260917131636575e-06,3.4544881382103654e-06,0.00010583593528651896,-0.00022123246223949443,0.0007772391981427617,0.0006520882665755153,2.6594178856879712e-05,8.847244644313478e-05,0.001176566168416081,0.2998287081718445,19.816431045532227,0.4228789508342743,-20.031160354614258,-0.6777854561805725,-2.4694857597351074,0.21457235515117645,0
75,0.3700399398803711,-0.2998287081718445,-19.816431045532227,-0.4228789508342743,20.031160354614258,0.6777854561805725,2.4694857597351074,-0.21457235515117645,0.0,0.0,0.0,0.0,0.0,0.0,0.0,-0.3043626319036986,-0.06665827719007696,-0.25074701228760793,0.22991660745403183,0.09489938424982416,0.09926320506586585,-0.2419527511788907,1.2134414316938635,-0.22036548881572773,-0.007506005412653872,-2.603897074247663,-0.10888729716385669,2.4681835518720305,0.8264714537631008,1.2134413937687574,-0.2202432315892585,-0.0075118285948192216,-2.6038483821997875,-0.10888392708698907,2.4681821257803174,0.826474908251239,-0.00010583593528651896,0.00022123246223949443,-0.0007772391981427617,-0.0006520882665755153,-2.6594178856879712e-05,-8.847244644313478e-05,-0.001176566168416081,0.0,0.0,0.0,0.0,0.0,0.0,0.0,-3.7925106166625255e-08,0.00012225722646924675,-5.823182165349931e-06,4.869204787549819e-05,3.3700768676120374e-06,-1.4260917131636575e-06,3.4544881382103654e-06,0.00010583593528651896,-0.00022123246223949443,0.0007772391981427617,0.0006520882665755153,2.6594178856879712e-05,8.847244644313478e-05,0.001176566168416081,0.2998287081718445,19.816431045532227,0.4228789508342743,-20.031160354614258,-0.6777854561805725,-2.4694857597351074,0.21457235515117645,0
76,0.37504053115844727,-0.3236324191093445,-19.816431045532227,-0.4466826617717743,20.007356643676758,0.6896873116493225,2.4630770683288574,-0.26858848333358765,0.0,0.0,0.0,0.0,0.0,0.0,0.0,-0.3068686448054487,-0.07049868169229241,-0.25481731751787023,0.23145689293910385,0.09468541291604643,0.09893440547938841,-0.24115305403282336,1.2134433497056643,-0.22036620076009406,-0.007504571705199705,-2.6038954038118063,-0.10888860644904244,2.468184262010797,0.8264774424723845,1.2134413937687574,-0.2202432315892585,-0.0075118285948192216,-2.6038483821997875,-0.10888392708698907,2.4681821257803174,0.826474908251239,0.00014558993743657564,-0.00033103066916770037,8.350042050175655e-05,9.043535462772477e-05,-0.00031594477915891027,0.0002712471560518776,0.0012887251296433394,0.0,0.0,0.0,0.0,0.0,0.0,0.0,-1.9559369068833377e-06,0.00012296917083556846,-7.256889619516697e-06,4.702161201874944e-05,4.679362053366942e-06,-2.136230479621304e-06,-2.5342211454892904e-06,-0.00014558993743657564,0.00033103066916770037,-8.350042050175655e-05,-9.043535462772477e-05,0.00031594477915891027,-0.0002712471560518776,-0.0012887251296433394,0.3236324191093445,19.816431045532227,0.4466826617717743,-20.007356643676758,-0.6896873116493225,-2.4630770683288574,0.26858848333358765,0
77,0.3800373077392578,-0.3236324191093445,-19.816431045532227,-0.4466826617717743,20.007356643676758,0.6896873116493225,2.4630770683288574,-0.26858848333358765,0.0,0.0,0.0,0.0,0.0,0.0,0.0,-0.3068686448054487,-0.07049868169229241,-0.25481731751787023,0.23145689293910385,0.09468541291604643,0.09893440547938841,-0.24115305403282336,1.2134433497056643,-0.22036620076009406,-0.007504571705199705,-2.6038954038118063,-0.10888860644904244,2.468184262010797,0.8264774424723845,1.2134413937687574,-0.2202432315892585,-0.0075118285948192216,-2.6038483821997875,-0.10888392708698907,2.4681821257803174,0.826474908251239,0.00014558993743657564,-0.00033103066916770037,8.350042050175655e-05,9.043535462772477e-05,-0.00031594477915891027,0.0002712471560518776,0.0012887251296433394,0.0,0.0,0.0,0.0,0.0,0.0,0.0,-1.9559369068833377e-06,0.00012296917083556846,-7.256889619516697e-06,4.702161201874944e-05,4.679362053366942e-06,-2.136230479621304e-06,-2.5342211454892904e-06,-0.00014558993743657564,0.00033103066916770037,-8.350042050175655e-05,-9.043535462772477e-05,0.00031594477915891027,-0.0002712471560518776,-0.0012887251296433394,0.3236324191093445,19.816431045532227,0.4466826617717743,-20.007356643676758,-0.6896873116493225,-2.4630770683288574,0.26858848333358765,0
78,0.3850250244140625,-0.3236324191093445,-19.816431045532227,-0.4466826617717743,20.007356643676758,0.6896873116493225,2.4630770683288574,-0.26858848333358765,0.0,0.0,0.0,0.0,0.0,0.0,0.0,-0.3068686448054487,-0.07049868169229241,-0.25481731751787023,0.23145689293910385,0.09468541291604643,0.09893440547938841,-0.24115305403282336,1.2134433497056643,-0.22036620076009406,-0.007504571705199705,-2.6038954038118063,-0.10888860644904244,2.468184262010797,0.8264774424723845,1.2134413937687574,-0.2202432315892585,-0.0075118285948192216,-2.6038483821997875,-0.10888392708698907,2.4681821257803174,0.826474908251239,0.00014558993743657564,-0.00033103066916770037,8.350042050175655e-05,9.043535462772477e-05,-0.00031594477915891027,0.0002712471560518776,0.0012887251296433394,0.0,0.0,0.0,0.0,0.0,0.0,0.0,-1.9559369068833377e-06,0.00012296917083556846,-7.256889619516697e-06,4.702161201874944e-05,4.679362053366942e-06,-2.136230479621304e-06,-2.5342211454892904e-06,-0.00014558993743657564,0.00033103066916770037,-8.350042050175655e-05,-9.043535462772477e-05,0.00031594477915891027,-0.0002712471560518776,-0.0012887251296433394,0.3236324191093445,19.816431045532227,0.4466826617717743,-20.007356643676758,-0.6896873116493225,-2.4630770683288574,0.26858848333358765,0
79,0.39003801345825195,-0.3236324191093445,-19.816431045532227,-0.4466826617717743,20.007356643676758,0.6896873116493225,2.4630770683288574,-0.26858848333358765,0.0,0.0,0.0,0.0,0.0,0.0,0.0,-0.3068686448054487,-0.07049868169229241,-0.25481731751787023,0.23145689293910385,0.09468541291604643,0.09893440547938841,-0.24115305403282336,1.2134433497056643,-0.22036620076009406,-0.007504571705199705,-2.6038954038118063,-0.10888860644904244,2.468184262010797,0.8264774424723845,1.2134413937687574,-0.2202432315892585,-0.0075118285948192216,-2.6038483821997875,-0.10888392708698907,2.4681821257803174,0.826474908251239,0.00014558993743657564,-0.00033103066916770037,8.350042050175655e-05,9.043535462772477e-05,-0.00031594477915891027,0.0002712471560518776,0.0012887251296433394,0.0,0.0,0.0,0.0,0.0,0.0,0.0,-1.9559369068833377e-06,0.00012296917083556846,-7.256889619516697e-06,4.702161201874944e-05,4.679362053366942e-06,-2.136230479621304e-06,-2.5342211454892904e-06,-0.00014558993743657564,0.00033103066916770037,-8.350042050175655e-05,-9.043535462772477e-05,0.00031594477915891027,-0.0002712471560518776,-0.0012887251296433394,0.3236324191093445,19.816431045532227,0.4466826617717743,-20.007356643676758,-0.6896873116493225,-2.4630770683288574,0.26858848333358765,0
