rezayati/contactInterpretation/dataset/franka_main/labeled_data/link3/e1_5.csv
index,time,tau_J0,tau_J1,tau_J2,tau_J3,tau_J4,tau_J5,tau_J6,tau_J_d0,tau_J_d1,tau_J_d2,tau_J_d3,tau_J_d4,tau_J_d5,tau_J_d6,tau_ext0,tau_ext1,tau_ext2,tau_ext3,tau_ext4,tau_ext5,tau_ext6,q0,q1,q2,q3,q4,q5,q6,q_d0,q_d1,q_d2,q_d3,q_d4,q_d5,q_d6,dq0,dq1,dq2,dq3,dq4,dq5,dq6,dq_d0,dq_d1,dq_d2,dq_d3,dq_d4,dq_d5,dq_d6,e0,e1,e2,e3,e4,e5,e6,de0,de1,de2,de3,de4,de5,de6,etau_J0,etau_J1,etau_J2,etau_J3,etau_J4,etau_J5,etau_J6,label
1,0.0,-0.8076412081718445,-46.54800033569336,-5.687466144561768,19.535249710083008,0.7610984444618225,2.3916659355163574,-0.17978231608867645,0.0,0.0,0.0,0.0,0.0,0.0,0.0,-0.7942840061546348,-0.20719118282859564,-0.4991672812826658,0.3323693226104194,0.18428580003933817,0.11752831447811492,-0.1897873308845824,0.8779478257404135,0.7557296551709982,-0.2824957293460188,-1.6690446017248586,0.14140965868925034,2.403568602297041,1.0273460828380452,0.878092876070424,0.7554597494309409,-0.2825552651693207,-1.6690993614607135,0.1414185955172306,2.4034451173676383,1.0273381002308042,0.0002050097964704132,0.0004986367719772017,0.00048399517370086356,-0.00025463235132807126,9.285457637365257e-05,-0.00022049115144580667,-4.308553287566953e-05,0.0,0.0,0.0,0.0,0.0,0.0,0.0,0.00014505033001044332,-0.00026990574005736345,-5.953582330192608e-05,-5.4759735854892355e-05,8.936827980254858e-06,-0.00012348492940272848,-7.982607240997197e-06,-0.0002050097964704132,-0.0004986367719772017,-0.00048399517370086356,0.00025463235132807126,-9.285457637365257e-05,0.00022049115144580667,4.308553287566953e-05,0.8076412081718445,46.54800033569336,5.687466144561768,-19.535249710083008,-0.7610984444618225,-2.3916659355163574,0.17978231608867645,0
2,0.0050013065338134766,-0.8076412081718445,-46.57577133178711,-5.663662433624268,19.511445999145508,0.7730002999305725,2.3916659355163574,-0.22098104655742645,0.0,0.0,0.0,0.0,0.0,0.0,0.0,-0.7952369073221673,-0.2206272393682308,-0.5014737535055896,0.33976790982405164,0.18377987323062803,0.11945230622876628,-0.18962407796857897,0.877948497467436,0.7557330080738767,-0.28249668452614224,-1.6690429312890034,0.14140503424154324,2.403568602297041,1.027350660474764,0.878092876070424,0.7554597494309409,-0.2825552651693207,-1.6690993614607135,0.1414185955172306,2.4034451173676383,1.0273381002308042,0.00018894536117127723,0.0007641026650589627,-0.0005690008113302577,0.0007664315219069836,-9.041705034921144e-05,-0.00015971111845279257,0.0015400388966876958,0.0,0.0,0.0,0.0,0.0,0.0,0.0,0.00014437860298799343,-0.00027325864293581414,-5.8580643178485214e-05,-5.6430171710086796e-05,1.35612756873571e-05,-0.00012348492940272848,-1.2560243959791606e-05,-0.00018894536117127723,-0.0007641026650589627,0.0005690008113302577,-0.0007664315219069836,9.041705034921144e-05,0.00015971111845279257,-0.0015400388966876958,0.8076412081718445,46.57577133178711,5.663662433624268,-19.511445999145508,-0.7730002999305725,-2.3916659355163574,0.22098104655742645,0
3,0.009999990463256836,-0.8076412081718445,-46.57577133178711,-5.663662433624268,19.511445999145508,0.7730002999305725,2.3916659355163574,-0.22098104655742645,0.0,0.0,0.0,0.0,0.0,0.0,0.0,-0.7952369073221673,-0.2206272393682308,-0.5014737535055896,0.33976790982405164,0.18377987323062803,0.11945230622876628,-0.18962407796857897,0.877948497467436,0.7557330080738767,-0.28249668452614224,-1.6690429312890034,0.14140503424154324,2.403568602297041,1.027350660474764,0.878092876070424,0.7554597494309409,-0.2825552651693207,-1.6690993614607135,0.1414185955172306,2.4034451173676383,1.0273381002308042,0.00018894536117127723,0.0007641026650589627,-0.0005690008113302577,0.0007664315219069836,-9.041705034921144e-05,-0.00015971111845279257,0.0015400388966876958,0.0,0.0,0.0,0.0,0.0,0.0,0.0,0.00014437860298799343,-0.00027325864293581414,-5.8580643178485214e-05,-5.6430171710086796e-05,1.35612756873571e-05,-0.00012348492940272848,-1.2560243959791606e-05,-0.00018894536117127723,-0.0007641026650589627,0.0005690008113302577,-0.0007664315219069836,9.041705034921144e-05,0.00015971111845279257,-0.0015400388966876958,0.8076412081718445,46.57577133178711,5.663662433624268,-19.511445999145508,-0.7730002999305725,-2.3916659355163574,0.22098104655742645,0
4,0.014996051788330078,-0.8076412081718445,-46.52419662475586,-5.663662433624268,19.511445999145508,0.7610984444618225,2.3852572441101074,-0.15964071452617645,0.0,0.0,0.0,0.0,0.0,0.0,0.0,-0.7924128527391692,-0.217366120647678,-0.49835514468747044,0.3363114091462826,0.18396614582359036,0.1196615044474215,-0.18922900110136087,0.877947588420904,0.7557272430005657,-0.28249739977784194,-1.6690429312890034,0.14140920554819683,2.403569314373864,1.027343844882316,0.878092876070424,0.7554597494309409,-0.2825552651693207,-1.6690993614607135,0.1414185955172306,2.4034451173676383,1.0273381002308042,0.0002456770634235073,-0.00046226882904567873,-0.0005072459900354042,0.00048646354378052795,0.00026147232133011606,6.825302909026082e-05,-0.0017744872044812494,0.0,0.0,0.0,0.0,0.0,0.0,0.0,0.00014528764951993178,-0.0002674935696248548,-5.786539147878411e-05,-5.6430171710086796e-05,9.38996903376843e-06,-0.00012419700622556817,-5.744651511818688e-06,-0.0002456770634235073,0.00046226882904567873,0.0005072459900354042,-0.00048646354378052795,-0.00026147232133011606,-6.825302909026082e-05,0.0017744872044812494,0.8076412081718445,46.52419662475586,5.663662433624268,-19.511445999145508,-0.7610984444618225,-2.3852572441101074,0.15964071452617645,0
5,0.01999497413635254,-0.8076412081718445,-46.52419662475586,-5.663662433624268,19.511445999145508,0.7610984444618225,2.3852572441101074,-0.15964071452617645,0.0,0.0,0.0,0.0,0.0,0.0,0.0,-0.7924128527391692,-0.217366120647678,-0.49835514468747044,0.3363114091462826,0.18396614582359036,0.1196615044474215,-0.18922900110136087,0.877947588420904,0.7557272430005657,-0.28249739977784194,-1.6690429312890034,0.14140920554819683,2.403569314373864,1.027343844882316,0.878092876070424,0.7554597494309409,-0.2825552651693207,-1.6690993614607135,0.1414185955172306,2.4034451173676383,1.0273381002308042,0.0002456770634235073,-0.00046226882904567873,-0.0005072459900354042,0.00048646354378052795,0.00026147232133011606,6.825302909026082e-05,-0.0017744872044812494,0.0,0.0,0.0,0.0,0.0,0.0,0.0,0.00014528764951993178,-0.0002674935696248548,-5.786539147878411e-05,-5.6430171710086796e-05,9.38996903376843e-06,-0.00012419700622556817,-5.744651511818688e-06,-0.0002456770634235073,0.00046226882904567873,0.0005072459900354042,-0.00048646354378052795,-0.00026147232133011606,-6.825302909026082e-05,0.0017744872044812494,0.8076412081718445,46.52419662475586,5.663662433624268,-19.511445999145508,-0.7610984444618225,-2.3852572441101074,0.15964071452617645,0
6,0.02500772476196289,-0.8354122042655945,-46.54800033569336,-5.687466144561768,19.559053421020508,0.7610984444618225,2.3788485527038574,-0.21457235515117645,0.0,0.0,0.0,0.0,0.0,0.0,0.0,-0.8000892646051654,-0.2236025711062326,-0.5034984543454563,0.33712462088513245,0.184240543347333,0.12053098155710186,-0.19004693168794898,0.8779497702979453,0.7557289134243077,-0.2824957293460243,-1.669046272160714,0.1414063972838767,2.403570026450687,1.0273532068035824,0.878092876070424,0.7554597494309409,-0.2825552651693207,-1.6690993614607135,0.1414185955172306,2.4034451173676383,1.0273381002308042,0.0010586345737037424,-0.0001048216908388207,2.572475527525355e-05,-0.00047703755213791854,0.0003008527464822479,0.00034243188527281163,0.0009686159674048894,0.0,0.0,0.0,0.0,0.0,0.0,0.0,0.00014310577247866885,-0.00026916399336684993,-5.953582329643048e-05,-5.308929999947587e-05,1.219823335391057e-05,-0.00012490908304885195,-1.5106572778256222e-05,-0.0010586345737037424,0.0001048216908388207,-2.572475527525355e-05,0.00047703755213791854,-0.0003008527464822479,-0.00034243188527281163,-0.0009686159674048894,0.8354122042655945,46.54800033569336,5.687466144561768,-19.559053421020508,-0.7610984444618225,-2.3788485527038574,0.21457235515117645,0
7,0.029955625534057617,-0.8354122042655945,-46.54800033569336,-5.687466144561768,19.559053421020508,0.7610984444618225,2.3788485527038574,-0.21457235515117645,0.0,0.0,0.0,0.0,0.0,0.0,0.0,-0.8000892646051654,-0.2236025711062326,-0.5034984543454563,0.33712462088513245,0.184240543347333,0.12053098155710186,-0.19004693168794898,0.8779497702979453,0.7557289134243077,-0.2824957293460243,-1.669046272160714,0.1414063972838767,2.403570026450687,1.0273532068035824,0.878092876070424,0.7554597494309409,-0.2825552651693207,-1.6690993614607135,0.1414185955172306,2.4034451173676383,1.0273381002308042,0.0010586345737037424,-0.0001048216908388207,2.572475527525355e-05,-0.00047703755213791854,0.0003008527464822479,0.00034243188527281163,0.0009686159674048894,0.0,0.0,0.0,0.0,0.0,0.0,0.0,0.00014310577247866885,-0.00026916399336684993,-5.953582329643048e-05,-5.308929999947587e-05,1.219823335391057e-05,-0.00012490908304885195,-1.5106572778256222e-05,-0.0010586345737037424,0.0001048216908388207,-2.572475527525355e-05,0.00047703755213791854,-0.0003008527464822479,-0.00034243188527281163,-0.0009686159674048894,0.8354122042655945,46.54800033569336,5.687466144561768,-19.559053421020508,-0.7610984444618225,-2.3788485527038574,0.21457235515117645,0
8,0.035085201263427734,-0.8076412081718445,-46.54800033569336,-5.711269855499268,19.559053421020508,0.7665916085243225,2.3788485527038574,-0.18710653483867645,0.0,0.0,0.0,0.0,0.0,0.0,0.0,-0.7867064120307242,-0.20959057835161243,-0.4905412912199724,0.33144829634305006,0.18354514411667308,0.11911213111898303,-0.19052698746728666,0.8779499275230006,0.7557289134243077,-0.28249405891016904,-1.669046272160714,0.1414054269401704,2.403570026450687,1.0273468966462598,0.878092876070424,0.7554597494309409,-0.2825552651693207,-1.6690993614607135,0.1414185955172306,2.4034451173676383,1.0273381002308042,0.0006297482598997517,-1.9318842173066053e-05,0.0011306949768144822,-0.0004000272765079761,-8.445724014184308e-05,0.00026511457338983843,6.320981678506886e-05,0.0,0.0,0.0,0.0,0.0,0.0,0.0,0.0001429485474233605,-0.00026916399336684993,-6.120625915168043e-05,-5.308929999947587e-05,1.3168577060213016e-05,-0.00012490908304885195,-8.796415455591955e-06,-0.0006297482598997517,1.9318842173066053e-05,-0.0011306949768144822,0.0004000272765079761,8.445724014184308e-05,-0.00026511457338983843,-6.320981678506886e-05,0.8076412081718445,46.54800033569336,5.711269855499268,-19.559053421020508,-0.7665916085243225,-2.3788485527038574,0.18710653483867645,0
9,0.04000401496887207,-0.8076412081718445,-46.54800033569336,-5.711269855499268,19.559053421020508,0.7665916085243225,2.3788485527038574,-0.18710653483867645,0.0,0.0,0.0,0.0,0.0,0.0,0.0,-0.7867064120307242,-0.20959057835161243,-0.4905412912199724,0.33144829634305006,0.18354514411667308,0.11911213111898303,-0.19052698746728666,0.8779499275230006,0.7557289134243077,-0.28249405891016904,-1.669046272160714,0.1414054269401704,2.403570026450687,1.0273468966462598,0.878092876070424,0.7554597494309409,-0.2825552651693207,-1.6690993614607135,0.1414185955172306,2.4034451173676383,1.0273381002308042,0.0006297482598997517,-1.9318842173066053e-05,0.0011306949768144822,-0.0004000272765079761,-8.445724014184308e-05,0.00026511457338983843,6.320981678506886e-05,0.0,0.0,0.0,0.0,0.0,0.0,0.0,0.0001429485474233605,-0.00026916399336684993,-6.120625915168043e-05,-5.308929999947587e-05,1.3168577060213016e-05,-0.00012490908304885195,-8.796415455591955e-06,-0.0006297482598997517,1.9318842173066053e-05,-0.0011306949768144822,0.0004000272765079761,8.445724014184308e-05,-0.00026511457338983843,-6.320981678506886e-05,0.8076412081718445,46.54800033569336,5.711269855499268,-19.559053421020508,-0.7665916085243225,-2.3788485527038574,0.18710653483867645,0
10,0.044997215270996094,-0.7838374972343445,-46.52419662475586,-5.663662433624268,19.511445999145508,0.7665916085243225,2.3916659355163574,-0.16604940593242645,0.0,0.0,0.0,0.0,0.0,0.0,0.0,-0.7910412200014493,-0.21473250314668224,-0.49500163758719823,0.33353582832037854,0.1826713828178662,0.11939836775561499,-0.19056024435255361,0.8779465959289562,0.7557272429884525,-0.28249739978187954,-1.6690429312890034,0.14140656796009976,2.403568602297041,1.027344556959139,0.878092876070424,0.7554597494309409,-0.2825552651693207,-1.6690993614607135,0.1414185955172306,2.4034451173676383,1.0273381002308042,0.0003425284943042677,-0.0007265664269225747,6.836750928764934e-05,0.0003427922141112872,3.96644223591608e-05,-0.00018875884672110656,-0.0012964384294212295,0.0,0.0,0.0,0.0,0.0,0.0,0.0,0.00014628014146778057,-0.0002674935575116555,-5.786538744118053e-05,-5.6430171710086796e-05,1.202755713083925e-05,-0.00012348492940272848,-6.456728334880424e-06,-0.0003425284943042677,0.0007265664269225747,-6.836750928764934e-05,-0.0003427922141112872,-3.96644223591608e-05,0.00018875884672110656,0.0012964384294212295,0.7838374972343445,46.52419662475586,5.663662433624268,-19.511445999145508,-0.7665916085243225,-2.3916659355163574,0.16604940593242645,0
11,0.04996085166931152,-0.7838374972343445,-46.52419662475586,-5.663662433624268,19.511445999145508,0.7665916085243225,2.3916659355163574,-0.16604940593242645,0.0,0.0,0.0,0.0,0.0,0.0,0.0,-0.7910412200014493,-0.21473250314668224,-0.49500163758719823,0.33353582832037854,0.1826713828178662,0.11939836775561499,-0.19056024435255361,0.8779465959289562,0.7557272429884525,-0.28249739978187954,-1.6690429312890034,0.14140656796009976,2.403568602297041,1.027344556959139,0.878092876070424,0.7554597494309409,-0.2825552651693207,-1.6690993614607135,0.1414185955172306,2.4034451173676383,1.0273381002308042,0.0003425284943042677,-0.0007265664269225747,6.836750928764934e-05,0.0003427922141112872,3.96644223591608e-05,-0.00018875884672110656,-0.0012964384294212295,0.0,0.0,0.0,0.0,0.0,0.0,0.0,0.00014628014146778057,-0.0002674935575116555,-5.786538744118053e-05,-5.6430171710086796e-05,1.202755713083925e-05,-0.00012348492940272848,-6.456728334880424e-06,-0.0003425284943042677,0.0007265664269225747,-6.836750928764934e-05,-0.0003427922141112872,-3.96644223591608e-05,0.00018875884672110656,0.0012964384294212295,0.7838374972343445,46.52419662475586,5.663662433624268,-19.511445999145508,-0.7665916085243225,-2.3916659355163574,0.16604940593242645,0
12,0.05532550811767578,-0.7838374972343445,-46.54800033569336,-5.663662433624268,19.535249710083008,0.7610984444618225,2.3852572441101074,-0.20724813640117645,0.0,0.0,0.0,0.0,0.0,0.0,0.0,-0.8026784071449176,-0.209766325579564,-0.5042678355911536,0.330302803991978,0.1828270726960397,0.119863812566373,-0.192375002193909,0.8779458910203871,0.7557317744472569,-0.28249739880073316,-1.6690446017248586,0.14140930632323406,2.403569314373864,1.0273523929831052,0.878092876070424,0.7554597494309409,-0.2825552651693207,-1.6690993614607135,0.1414185955172306,2.4034451173676383,1.0273381002308042,-0.00018352050736398,0.000575050890312651,8.857109652246915e-05,-7.332245996396736e-05,0.0003170089293999822,0.00018348342481449355,0.0011355190492773042,0.0,0.0,0.0,0.0,0.0,0.0,0.0,0.00014698505003685192,-0.0002720250163160687,-5.7866368587566885e-05,-5.4759735854892355e-05,9.289193996536715e-06,-0.00012419700622556817,-1.4292752301026113e-05,0.00018352050736398,-0.000575050890312651,-8.857109652246915e-05,7.332245996396736e-05,-0.0003170089293999822,-0.00018348342481449355,-0.0011355190492773042,0.7838374972343445,46.54800033569336,5.663662433624268,-19.535249710083008,-0.7610984444618225,-2.3852572441101074,0.20724813640117645,0
13,0.060257911682128906,-0.7838374972343445,-46.54800033569336,-5.663662433624268,19.535249710083008,0.7610984444618225,2.3852572441101074,-0.20724813640117645,0.0,0.0,0.0,0.0,0.0,0.0,0.0,-0.8026784071449176,-0.209766325579564,-0.5042678355911536,0.330302803991978,0.1828270726960397,0.119863812566373,-0.192375002193909,0.8779458910203871,0.7557317744472569,-0.28249739880073316,-1.6690446017248586,0.14140930632323406,2.403569314373864,1.0273523929831052,0.878092876070424,0.7554597494309409,-0.2825552651693207,-1.6690993614607135,0.1414185955172306,2.4034451173676383,1.0273381002308042,-0.00018352050736398,0.000575050890312651,8.857109652246915e-05,-7.332245996396736e-05,0.0003170089293999822,0.00018348342481449355,0.0011355190492773042,0.0,0.0,0.0,0.0,0.0,0.0,0.0,0.00014698505003685192,-0.0002720250163160687,-5.7866368587566885e-05,-5.4759735854892355e-05,9.289193996536715e-06,-0.00012419700622556817,-1.4292752301026113e-05,0.00018352050736398,-0.000575050890312651,-8.857109652246915e-05,7.332245996396736e-05,-0.0003170089293999822,-0.00018348342481449355,-0.0011355190492773042,0.7838374972343445,46.54800033569336,5.663662433624268,-19.535249710083008,-0.7610984444618225,-2.3852572441101074,0.20724813640117645,0
14,0.06499862670898438,-0.7560665011405945,-46.52419662475586,-5.687466144561768,19.535249710083008,0.7665916085243225,2.3852572441101074,-0.21457235515117645,0.0,0.0,0.0,0.0,0.0,0.0,0.0,-0.7996809848432216,-0.20595656777753413,-0.5009289756030513,0.32460528916193504,0.18332496210470783,0.1186863468043095,-0.19285170171222898,0.8779461262064989,0.7557272518349208,-0.2824957195345546,-1.6690446017248586,0.1414096437438681,2.403569314373864,1.0273499484163349,0.878092876070424,0.7554597494309409,-0.2825552651693207,-1.6690993614607135,0.1414185955172306,2.4034451173676383,1.0273381002308042,-0.0008655688685890186,-0.0004927371518316499,0.00023172373010348988,-6.440358607529275e-05,0.00018896080426651732,0.00413150247642726,0.0005496518888247539,0.0,0.0,0.0,0.0,0.0,0.0,0.0,0.0001467498639250442,-0.00026750240397999114,-5.9545634766122735e-05,-5.4759735854892355e-05,8.951773362492199e-06,-0.00012419700622556817,-1.1848185530682898e-05,0.0008655688685890186,0.0004927371518316499,-0.00023172373010348988,6.440358607529275e-05,-0.00018896080426651732,-0.00413150247642726,-0.0005496518888247539,0.7560665011405945,46.52419662475586,5.687466144561768,-19.535249710083008,-0.7665916085243225,-2.3852572441101074,0.21457235515117645,0
15,0.06999731063842773,-0.7560665011405945,-46.52419662475586,-5.687466144561768,19.535249710083008,0.7665916085243225,2.3852572441101074,-0.21457235515117645,0.0,0.0,0.0,0.0,0.0,0.0,0.0,-0.7996809848432216,-0.20595656777753413,-0.5009289756030513,0.32460528916193504,0.18332496210470783,0.1186863468043095,-0.19285170171222898,0.8779461262064989,0.7557272518349208,-0.2824957195345546,-1.6690446017248586,0.1414096437438681,2.403569314373864,1.0273499484163349,0.878092876070424,0.7554597494309409,-0.2825552651693207,-1.6690993614607135,0.1414185955172306,2.4034451173676383,1.0273381002308042,-0.0008655688685890186,-0.0004927371518316499,0.00023172373010348988,-6.440358607529275e-05,0.00018896080426651732,0.00413150247642726,0.0005496518888247539,0.0,0.0,0.0,0.0,0.0,0.0,0.0,0.0001467498639250442,-0.00026750240397999114,-5.9545634766122735e-05,-5.4759735854892355e-05,8.951773362492199e-06,-0.00012419700622556817,-1.1848185530682898e-05,0.0008655688685890186,0.0004927371518316499,-0.00023172373010348988,6.440358607529275e-05,-0.00018896080426651732,-0.00413150247642726,-0.0005496518888247539,0.7560665011405945,46.52419662475586,5.687466144561768,-19.535249710083008,-0.7665916085243225,-2.3852572441101074,0.21457235515117645,0
16,0.07500457763671875,-0.7560665011405945,-46.52419662475586,-5.687466144561768,19.535249710083008,0.7665916085243225,2.3852572441101074,-0.21457235515117645,0.0,0.0,0.0,0.0,0.0,0.0,0.0,-0.7996809848432216,-0.20595656777753413,-0.5009289756030513,0.32460528916193504,0.18332496210470783,0.1186863468043095,-0.19285170171222898,0.8779461262064989,0.7557272518349208,-0.2824957195345546,-1.6690446017248586,0.1414096437438681,2.403569314373864,1.0273499484163349,0.878092876070424,0.7554597494309409,-0.2825552651693207,-1.6690993614607135,0.1414185955172306,2.4034451173676383,1.0273381002308042,-0.0008655688685890186,-0.0004927371518316499,0.00023172373010348988,-6.440358607529275e-05,0.00018896080426651732,0.00413150247642726,0.0005496518888247539,0.0,0.0,0.0,0.0,0.0,0.0,0.0,0.0001467498639250442,-0.00026750240397999114,-5.9545634766122735e-05,-5.4759735854892355e-05,8.951773362492199e-06,-0.00012419700622556817,-1.1848185530682898e-05,0.0008655688685890186,0.0004927371518316499,-0.00023172373010348988,6.440358607529275e-05,-0.00018896080426651732,-0.00413150247642726,-0.0005496518888247539,0.7560665011405945,46.52419662475586,5.687466144561768,-19.535249710083008,-0.7665916085243225,-2.3852572441101074,0.21457235515117645,0
17,0.08002805709838867,-0.7560665011405945,-46.52419662475586,-5.687466144561768,19.535249710083008,0.7665916085243225,2.3852572441101074,-0.21457235515117645,0.0,0.0,0.0,0.0,0.0,0.0,0.0,-0.7996809848432216,-0.20595656777753413,-0.5009289756030513,0.32460528916193504,0.18332496210470783,0.1186863468043095,-0.19285170171222898,0.8779461262064989,0.7557272518349208,-0.2824957195345546,-1.6690446017248586,0.1414096437438681,2.403569314373864,1.0273499484163349,0.878092876070424,0.7554597494309409,-0.2825552651693207,-1.6690993614607135,0.1414185955172306,2.4034451173676383,1.0273381002308042,-0.0008655688685890186,-0.0004927371518316499,0.00023172373010348988,-6.440358607529275e-05,0.00018896080426651732,0.00413150247642726,0.0005496518888247539,0.0,0.0,0.0,0.0,0.0,0.0,0.0,0.0001467498639250442,-0.00026750240397999114,-5.9545634766122735e-05,-5.4759735854892355e-05,8.951773362492199e-06,-0.00012419700622556817,-1.1848185530682898e-05,0.0008655688685890186,0.0004927371518316499,-0.00023172373010348988,6.440358607529275e-05,-0.00018896080426651732,-0.00413150247642726,-0.0005496518888247539,0.7560665011405945,46.52419662475586,5.687466144561768,-19.535249710083008,-0.7665916085243225,-2.3852572441101074,0.21457235515117645,0
18,0.08621335029602051,-0.7560665011405945,-46.52419662475586,-5.687466144561768,19.586824417114258,0.7730002999305725,2.3980746269226074,-0.16604940593242645,0.0,0.0,0.0,0.0,0.0,0.0,0.0,-0.7199413223277037,-0.19547006992504248,-0.4384496977783118,0.3271238516977037,0.18226922817714544,0.11862897000031197,-0.19340363645677278,0.8779467502279484,0.7557272429885025,-0.2824957293096302,-1.669048221002545,0.14140839493231178,2.403567890220218,1.027344556959139,0.878092876070424,0.7554597494309409,-0.2825552651693207,-1.6690993614607135,0.1414185955172306,2.4034451173676383,1.0273381002308042,-0.001283441484985842,-3.582430548932239e-05,-0.0013014809544924905,-0.0011300547128903164,-6.723324754916164e-05,-0.0004494528323798153,-0.0011324892326324762,0.0,0.0,0.0,0.0,0.0,0.0,0.0,0.00014612584247553073,-0.0002674935575616155,-5.953585969054043e-05,-5.1140458168452696e-05,1.0200584918823585e-05,-0.0001227728525798888,-6.456728334880424e-06,0.001283441484985842,3.582430548932239e-05,0.0013014809544924905,0.0011300547128903164,6.723324754916164e-05,0.0004494528323798153,0.0011324892326324762,0.7560665011405945,46.52419662475586,5.687466144561768,-19.586824417114258,-0.7730002999305725,-2.3980746269226074,0.16604940593242645,0
19,0.08999800682067871,-0.7560665011405945,-46.52419662475586,-5.687466144561768,19.586824417114258,0.7730002999305725,2.3980746269226074,-0.16604940593242645,0.0,0.0,0.0,0.0,0.0,0.0,0.0,-0.7199413223277037,-0.19547006992504248,-0.4384496977783118,0.3271238516977037,0.18226922817714544,0.11862897000031197,-0.19340363645677278,0.8779467502279484,0.7557272429885025,-0.2824957293096302,-1.669048221002545,0.14140839493231178,2.403567890220218,1.027344556959139,0.878092876070424,0.7554597494309409,-0.2825552651693207,-1.6690993614607135,0.1414185955172306,2.4034451173676383,1.0273381002308042,-0.001283441484985842,-3.582430548932239e-05,-0.0013014809544924905,-0.0011300547128903164,-6.723324754916164e-05,-0.0004494528323798153,-0.0011324892326324762,0.0,0.0,0.0,0.0,0.0,0.0,0.0,0.00014612584247553073,-0.0002674935575616155,-5.953585969054043e-05,-5.1140458168452696e-05,1.0200584918823585e-05,-0.0001227728525798888,-6.456728334880424e-06,0.001283441484985842,3.582430548932239e-05,0.0013014809544924905,0.0011300547128903164,6.723324754916164e-05,0.0004494528323798153,0.0011324892326324762,0.7560665011405945,46.52419662475586,5.687466144561768,-19.586824417114258,-0.7730002999305725,-2.3980746269226074,0.16604940593242645,0
20,0.09499692916870117,-0.8076412081718445,-46.57577133178711,-5.687466144561768,19.511445999145508,0.7730002999305725,2.3852572441101074,-0.18710653483867645,0.0,0.0,0.0,0.0,0.0,0.0,0.0,-0.7742404356486471,-0.21139239193467177,-0.4817863133400555,0.33409180136394556,0.1840512329166573,0.12023867948620791,-0.19272904457394413,0.877948266474304,0.7557308710964565,-0.2824957293460241,-1.6690407855217915,0.14140788119465916,2.403569314373864,1.0273468966401285,0.878092876070424,0.7554597494309409,-0.2825552651693207,-1.6690993614607135,0.1414185955172306,2.4034451173676383,1.0273381002308042,0.0004514367570314477,0.000668648450500684,0.00030008760496634513,0.000612014956762397,0.00015508981506418722,-7.562332971827478e-05,8.189609605949875e-05,0.0,0.0,0.0,0.0,0.0,0.0,0.0,0.00014460959611994895,-0.0002711216655156834,-5.953582329659701e-05,-5.857593892200086e-05,1.0714322571436785e-05,-0.00012419700622556817,-8.796409324274279e-06,-0.0004514367570314477,-0.000668648450500684,-0.00030008760496634513,-0.000612014956762397,-0.00015508981506418722,7.562332971827478e-05,-8.189609605949875e-05,0.8076412081718445,46.57577133178711,5.687466144561768,-19.511445999145508,-0.7730002999305725,-2.3852572441101074,0.18710653483867645,0
21,0.09999680519104004,-0.8076412081718445,-46.57577133178711,-5.687466144561768,19.511445999145508,0.7730002999305725,2.3852572441101074,-0.18710653483867645,0.0,0.0,0.0,0.0,0.0,0.0,0.0,-0.7742404356486471,-0.21139239193467177,-0.4817863133400555,0.33409180136394556,0.1840512329166573,0.12023867948620791,-0.19272904457394413,0.877948266474304,0.7557308710964565,-0.2824957293460241,-1.6690407855217915,0.14140788119465916,2.403569314373864,1.0273468966401285,0.878092876070424,0.7554597494309409,-0.2825552651693207,-1.6690993614607135,0.1414185955172306,2.4034451173676383,1.0273381002308042,0.0004514367570314477,0.000668648450500684,0.00030008760496634513,0.000612014956762397,0.00015508981506418722,-7.562332971827478e-05,8.189609605949875e-05,0.0,0.0,0.0,0.0,0.0,0.0,0.0,0.00014460959611994895,-0.0002711216655156834,-5.953582329659701e-05,-5.857593892200086e-05,1.0714322571436785e-05,-0.00012419700622556817,-8.796409324274279e-06,-0.0004514367570314477,-0.000668648450500684,-0.00030008760496634513,-0.000612014956762397,-0.00015508981506418722,7.562332971827478e-05,-8.189609605949875e-05,0.8076412081718445,46.57577133178711,5.687466144561768,-19.511445999145508,-0.7730002999305725,-2.3852572441101074,0.18710653483867645,0
22,0.10499453544616699,-0.8076412081718445,-46.57577133178711,-5.635891437530518,19.487642288208008,0.7784934639930725,2.3916659355163574,-0.22098104655742645,0.0,0.0,0.0,0.0,0.0,0.0,0.0,-0.8098162423641709,-0.22238892596086057,-0.5130940427457992,0.3372407448447461,0.1855375576163108,0.12058930149662249,-0.19118578032001143,0.8779483414676438,0.7557311007211065,-0.28249934862371073,-1.6690412608410352,0.1414083300634585,2.403568602297041,1.027350660474764,0.878092876070424,0.7554597494309409,-0.2825552651693207,-1.6690993614607135,0.1414185955172306,2.4034451173676383,1.0273381002308042,0.00023248643125793562,0.0002927259941867238,-0.0005341407820685298,0.0011588141035032572,-0.0004352413979759078,-0.0002005653062427066,0.0010658213016387324,0.0,0.0,0.0,0.0,0.0,0.0,0.0,0.0001445346027801886,-0.0002713512901656445,-5.591654560999082e-05,-5.8100619678258525e-05,1.026545377211252e-05,-0.00012348492940272848,-1.2560243959791606e-05,-0.00023248643125793562,-0.0002927259941867238,0.0005341407820685298,-0.0011588141035032572,0.0004352413979759078,0.0002005653062427066,-0.0010658213016387324,0.8076412081718445,46.57577133178711,5.635891437530518,-19.487642288208008,-0.7784934639930725,-2.3916659355163574,0.22098104655742645,0
23,0.10999727249145508,-0.8076412081718445,-46.57577133178711,-5.635891437530518,19.487642288208008,0.7784934639930725,2.3916659355163574,-0.22098104655742645,0.0,0.0,0.0,0.0,0.0,0.0,0.0,-0.8098162423641709,-0.22238892596086057,-0.5130940427457992,0.3372407448447461,0.1855375576163108,0.12058930149662249,-0.19118578032001143,0.8779483414676438,0.7557311007211065,-0.28249934862371073,-1.6690412608410352,0.1414083300634585,2.403568602297041,1.027350660474764,0.878092876070424,0.7554597494309409,-0.2825552651693207,-1.6690993614607135,0.1414185955172306,2.4034451173676383,1.0273381002308042,0.00023248643125793562,0.0002927259941867238,-0.0005341407820685298,0.0011588141035032572,-0.0004352413979759078,-0.0002005653062427066,0.0010658213016387324,0.0,0.0,0.0,0.0,0.0,0.0,0.0,0.0001445346027801886,-0.0002713512901656445,-5.591654560999082e-05,-5.8100619678258525e-05,1.026545377211252e-05,-0.00012348492940272848,-1.2560243959791606e-05,-0.00023248643125793562,-0.0002927259941867238,0.0005341407820685298,-0.0011588141035032572,0.0004352413979759078,0.0002005653062427066,-0.0010658213016387324,0.8076412081718445,46.57577133178711,5.635891437530518,-19.487642288208008,-0.7784934639930725,-2.3916659355163574,0.22098104655742645,0
24,0.11499595642089844,-0.8354122042655945,-46.57577133178711,-5.663662433624268,19.559053421020508,0.7730002999305725,2.3852572441101074,-0.14590780436992645,0.0,0.0,0.0,0.0,0.0,0.0,0.0,-0.8106411393373748,-0.22045817159183362,-0.5141629723409895,0.33502887058517644,0.18556044464943797,0.12039389407391378,-0.1918562877906594,0.8779495362988775,0.7557330884887029,-0.2824973899704154,-1.669046272160714,0.14140798202214092,2.403569314373864,1.027342320493299,0.878092876070424,0.7554597494309409,-0.2825552651693207,-1.6690993614607135,0.1414185955172306,2.4034451173676383,1.0273381002308042,0.0009786999508447885,0.0008130791941946524,-0.0006124351506062,-0.0004493823162953667,-0.00022808295997628664,8.238249344198644e-06,-0.0017651806132202596,0.0,0.0,0.0,0.0,0.0,0.0,0.0,0.00014333977154645794,-0.00027333905776205647,-5.787519890532167e-05,-5.308929999947587e-05,1.0613495089684122e-05,-0.00012419700622556817,-4.2202624948028955e-06,-0.0009786999508447885,-0.0008130791941946524,0.0006124351506062,0.0004493823162953667,0.00022808295997628664,-8.238249344198644e-06,0.0017651806132202596,0.8354122042655945,46.57577133178711,5.663662433624268,-19.559053421020508,-0.7730002999305725,-2.3852572441101074,0.14590780436992645,0
25,0.11999988555908203,-0.8354122042655945,-46.57577133178711,-5.663662433624268,19.559053421020508,0.7730002999305725,2.3852572441101074,-0.14590780436992645,0.0,0.0,0.0,0.0,0.0,0.0,0.0,-0.8106411393373748,-0.22045817159183362,-0.5141629723409895,0.33502887058517644,0.18556044464943797,0.12039389407391378,-0.1918562877906594,0.8779495362988775,0.7557330884887029,-0.2824973899704154,-1.669046272160714,0.14140798202214092,2.403569314373864,1.027342320493299,0.878092876070424,0.7554597494309409,-0.2825552651693207,-1.6690993614607135,0.1414185955172306,2.4034451173676383,1.0273381002308042,0.0009786999508447885,0.0008130791941946524,-0.0006124351506062,-0.0004493823162953667,-0.00022808295997628664,8.238249344198644e-06,-0.0017651806132202596,0.0,0.0,0.0,0.0,0.0,0.0,0.0,0.00014333977154645794,-0.00027333905776205647,-5.787519890532167e-05,-5.308929999947587e-05,1.0613495089684122e-05,-0.00012419700622556817,-4.2202624948028955e-06,-0.0009786999508447885,-0.0008130791941946524,0.0006124351506062,0.0004493823162953667,0.00022808295997628664,-8.238249344198644e-06,0.0017651806132202596,0.8354122042655945,46.57577133178711,5.663662433624268,-19.559053421020508,-0.7730002999305725,-2.3852572441101074,0.14590780436992645,0
26,0.12499403953552246,-0.7838374972343445,-46.50039291381836,-5.635891437530518,19.535249710083008,0.7730002999305725,2.3916659355163574,-0.18710653483867645,0.0,0.0,0.0,0.0,0.0,0.0,0.0,-0.8090379829215097,-0.21056086755514655,-0.5128211533763809,0.32787534451170963,0.18552718938216262,0.11926212291568496,-0.1906974967185207,0.8779466199901724,0.7557258109837434,-0.2824993485146391,-1.6690446017248586,0.14140825889231265,2.4035682314236957,1.027346896640137,0.878092876070424,0.7554597494309409,-0.2825552651693207,-1.6690993614607135,0.1414185955172306,2.4034451173676383,1.0273381002308042,-0.0007923766637353422,-0.0007039977060197,-0.0012522003622545573,-0.00037236739157880044,-2.211056881167299e-05,-0.00020363856062354294,0.00025456967662543863,0.0,0.0,0.0,0.0,0.0,0.0,0.0,0.0001462560802515389,-0.0002660615528025101,-5.591665468163143e-05,-5.4759735854892355e-05,1.0336624917950399e-05,-0.0001231140560573607,-8.796409332711974e-06,0.0007923766637353422,0.0007039977060197,0.0012522003622545573,0.00037236739157880044,2.211056881167299e-05,0.00020363856062354294,-0.00025456967662543863,0.7838374972343445,46.50039291381836,5.635891437530518,-19.535249710083008,-0.7730002999305725,-2.3916659355163574,0.18710653483867645,0
27,0.13062691688537598,-0.7838374972343445,-46.50039291381836,-5.635891437530518,19.535249710083008,0.7730002999305725,2.3916659355163574,-0.18710653483867645,0.0,0.0,0.0,0.0,0.0,0.0,0.0,-0.8090379829215097,-0.21056086755514655,-0.5128211533763809,0.32787534451170963,0.18552718938216262,0.11926212291568496,-0.1906974967185207,0.8779466199901724,0.7557258109837434,-0.2824993485146391,-1.6690446017248586,0.14140825889231265,2.4035682314236957,1.027346896640137,0.878092876070424,0.7554597494309409,-0.2825552651693207,-1.6690993614607135,0.1414185955172306,2.4034451173676383,1.0273381002308042,-0.0007923766637353422,-0.0007039977060197,-0.0012522003622545573,-0.00037236739157880044,-2.211056881167299e-05,-0.00020363856062354294,0.00025456967662543863,0.0,0.0,0.0,0.0,0.0,0.0,0.0,0.0001462560802515389,-0.0002660615528025101,-5.591665468163143e-05,-5.4759735854892355e-05,1.0336624917950399e-05,-0.0001231140560573607,-8.796409332711974e-06,0.0007923766637353422,0.0007039977060197,0.0012522003622545573,0.00037236739157880044,2.211056881167299e-05,0.00020363856062354294,-0.00025456967662543863,0.7838374972343445,46.50039291381836,5.635891437530518,-19.535249710083008,-0.7730002999305725,-2.3916659355163574,0.18710653483867645,0
28,0.134995698928833,-0.7838374972343445,-46.50039291381836,-5.635891437530518,19.535249710083008,0.7730002999305725,2.3916659355163574,-0.18710653483867645,0.0,0.0,0.0,0.0,0.0,0.0,0.0,-0.8090379829215097,-0.21056086755514655,-0.5128211533763809,0.32787534451170963,0.18552718938216262,0.11926212291568496,-0.1906974967185207,0.8779466199901724,0.7557258109837434,-0.2824993485146391,-1.6690446017248586,0.14140825889231265,2.4035682314236957,1.027346896640137,0.878092876070424,0.7554597494309409,-0.2825552651693207,-1.6690993614607135,0.1414185955172306,2.4034451173676383,1.0273381002308042,-0.0007923766637353422,-0.0007039977060197,-0.0012522003622545573,-0.00037236739157880044,-2.211056881167299e-05,-0.00020363856062354294,0.00025456967662543863,0.0,0.0,0.0,0.0,0.0,0.0,0.0,0.0001462560802515389,-0.0002660615528025101,-5.591665468163143e-05,-5.4759735854892355e-05,1.0336624917950399e-05,-0.0001231140560573607,-8.796409332711974e-06,0.0007923766637353422,0.0007039977060197,0.0012522003622545573,0.00037236739157880044,2.211056881167299e-05,0.00020363856062354294,-0.00025456967662543863,0.7838374972343445,46.50039291381836,5.635891437530518,-19.535249710083008,-0.7730002999305725,-2.3916659355163574,0.18710653483867645,0
29,0.14000248908996582,-0.8354122042655945,-46.52419662475586,-5.687466144561768,19.535249710083008,0.7784934639930725,2.3852572441101074,-0.21457235515117645,0.0,0.0,0.0,0.0,0.0,0.0,0.0,-0.7976149308554746,-0.2243558024385091,-0.5056811178627603,0.3373811399348704,0.1855032527816747,0.12099479796718378,-0.18863727387253668,0.8779495104052069,0.7557273316200247,-0.2824957293460237,-1.6690446017248586,0.14140741227731,2.4035693143717705,1.0273499483979411,0.878092876070424,0.7554597494309409,-0.2825552651693207,-1.6690993614607135,0.1414185955172306,2.4034451173676383,1.0273381002308042,0.0009399738159511804,-0.0004388763384900344,0.0005827521523689127,0.00016610785595218874,-0.0003730030408898239,1.4805357074877922e-06,0.0012406294194026815,0.0,0.0,0.0,0.0,0.0,0.0,0.0,0.00014336566521711003,-0.0002675821890838481,-5.95358232970411e-05,-5.4759735854892355e-05,1.11832399206091e-05,-0.00012419700413213164,-1.1848167136951915e-05,-0.0009399738159511804,0.0004388763384900344,-0.0005827521523689127,-0.00016610785595218874,0.0003730030408898239,-1.4805357074877922e-06,-0.0012406294194026815,0.8354122042655945,46.52419662475586,5.687466144561768,-19.535249710083008,-0.7784934639930725,-2.3852572441101074,0.21457235515117645,0
30,0.14500093460083008,-0.8354122042655945,-46.52419662475586,-5.687466144561768,19.535249710083008,0.7784934639930725,2.3852572441101074,-0.21457235515117645,0.0,0.0,0.0,0.0,0.0,0.0,0.0,-0.7976149308554746,-0.2243558024385091,-0.5056811178627603,0.3373811399348704,0.1855032527816747,0.12099479796718378,-0.18863727387253668,0.8779495104052069,0.7557273316200247,-0.2824957293460237,-1.6690446017248586,0.14140741227731,2.4035693143717705,1.0273499483979411,0.878092876070424,0.7554597494309409,-0.2825552651693207,-1.6690993614607135,0.1414185955172306,2.4034451173676383,1.0273381002308042,0.0009399738159511804,-0.0004388763384900344,0.0005827521523689127,0.00016610785595218874,-0.0003730030408898239,1.4805357074877922e-06,0.0012406294194026815,0.0,0.0,0.0,0.0,0.0,0.0,0.0,0.00014336566521711003,-0.0002675821890838481,-5.95358232970411e-05,-5.4759735854892355e-05,1.11832399206091e-05,-0.00012419700413213164,-1.1848167136951915e-05,-0.0009399738159511804,0.0004388763384900344,-0.0005827521523689127,-0.00016610785595218874,0.0003730030408898239,-1.4805357074877922e-06,-0.0012406294194026815,0.8354122042655945,46.52419662475586,5.687466144561768,-19.535249710083008,-0.7784934639930725,-2.3852572441101074,0.21457235515117645,0
31,0.14999961853027344,-0.8076412081718445,-46.52419662475586,-5.663662433624268,19.559053421020508,0.7610984444618225,2.3852572441101074,-0.18710653483867645,0.0,0.0,0.0,0.0,0.0,0.0,0.0,-0.7916166422028941,-0.21319980111710826,-0.4985979608115794,0.33318151414110864,0.18487670518437738,0.12000562488584357,-0.18786616205206422,0.8779475654151317,0.7557272459319474,-0.28249525401466763,-1.669046272160714,0.14140954485781432,2.403569314373864,1.0273468966401285,0.878092876070424,0.7554597494309409,-0.2825552651693207,-1.6690993614607135,0.1414185955172306,2.4034451173676383,1.0273381002308042,0.00034486785709216396,-0.0004852317197742039,0.00018940453046547046,-0.00018071563693036096,0.0002554556584489345,-0.00012941672946059903,0.00011665553370399804,0.0,0.0,0.0,0.0,0.0,0.0,0.0,0.00014531065529221898,-0.00026749650100654776,-6.001115465309459e-05,-5.308929999947587e-05,9.050659416282025e-06,-0.00012419700622556817,-8.796409324274279e-06,-0.00034486785709216396,0.0004852317197742039,-0.00018940453046547046,0.00018071563693036096,-0.0002554556584489345,0.00012941672946059903,-0.00011665553370399804,0.8076412081718445,46.52419662475586,5.663662433624268,-19.559053421020508,-0.7610984444618225,-2.3852572441101074,0.18710653483867645,0
32,0.15500283241271973,-0.8076412081718445,-46.52419662475586,-5.663662433624268,19.559053421020508,0.7610984444618225,2.3852572441101074,-0.18710653483867645,0.0,0.0,0.0,0.0,0.0,0.0,0.0,-0.7916166422028941,-0.21319980111710826,-0.4985979608115794,0.33318151414110864,0.18487670518437738,0.12000562488584357,-0.18786616205206422,0.8779475654151317,0.7557272459319474,-0.28249525401466763,-1.669046272160714,0.14140954485781432,2.403569314373864,1.0273468966401285,0.878092876070424,0.7554597494309409,-0.2825552651693207,-1.6690993614607135,0.1414185955172306,2.4034451173676383,1.0273381002308042,0.00034486785709216396,-0.0004852317197742039,0.00018940453046547046,-0.00018071563693036096,0.0002554556584489345,-0.00012941672946059903,0.00011665553370399804,0.0,0.0,0.0,0.0,0.0,0.0,0.0,0.00014531065529221898,-0.00026749650100654776,-6.001115465309459e-05,-5.308929999947587e-05,9.050659416282025e-06,-0.00012419700622556817,-8.796409324274279e-06,-0.00034486785709216396,0.0004852317197742039,-0.00018940453046547046,0.00018071563693036096,-0.0002554556584489345,0.00012941672946059903,-0.00011665553370399804,0.8076412081718445,46.52419662475586,5.663662433624268,-19.559053421020508,-0.7610984444618225,-2.3852572441101074,0.18710653483867645,0
33,0.16000008583068848,-0.8076412081718445,-46.54800033569336,-5.663662433624268,19.535249710083008,0.7610984444618225,2.3788485527038574,-0.15231649577617645,0.0,0.0,0.0,0.0,0.0,0.0,0.0,-0.8036977491989916,-0.2162127477727699,-0.5063172712431893,0.33312918048863777,0.18456207279074568,0.11931611068107985,-0.1874487192900633,0.87794757300801,0.7557289134606631,-0.2824973997697667,-1.6690446017611973,0.14140924450266676,2.403570026450687,1.0273430310802327,0.878092876070424,0.7554597494309409,-0.2825552651693207,-1.6690993614607135,0.1414185955172306,2.4034451173676383,1.0273381002308042,0.00016005417195794183,-4.435938685569407e-05,-0.00020364089373130196,-1.732758650464667e-05,0.00017183160482074487,0.0002699778988835078,-0.0014930399625266801,0.0,0.0,0.0,0.0,0.0,0.0,0.0,0.00014530306241400393,-0.0002691640297222131,-5.786539955404679e-05,-5.4759699516182536e-05,9.35101456384091e-06,-0.00012490908304885195,-4.930849428541606e-06,-0.00016005417195794183,4.435938685569407e-05,0.00020364089373130196,1.732758650464667e-05,-0.00017183160482074487,-0.0002699778988835078,0.0014930399625266801,0.8076412081718445,46.54800033569336,5.663662433624268,-19.535249710083008,-0.7610984444618225,-2.3788485527038574,0.15231649577617645,0
34,0.16500520706176758,-0.8076412081718445,-46.54800033569336,-5.663662433624268,19.535249710083008,0.7610984444618225,2.3788485527038574,-0.15231649577617645,0.0,0.0,0.0,0.0,0.0,0.0,0.0,-0.8036977491989916,-0.2162127477727699,-0.5063172712431893,0.33312918048863777,0.18456207279074568,0.11931611068107985,-0.1874487192900633,0.87794757300801,0.7557289134606631,-0.2824973997697667,-1.6690446017611973,0.14140924450266676,2.403570026450687,1.0273430310802327,0.878092876070424,0.7554597494309409,-0.2825552651693207,-1.6690993614607135,0.1414185955172306,2.4034451173676383,1.0273381002308042,0.00016005417195794183,-4.435938685569407e-05,-0.00020364089373130196,-1.732758650464667e-05,0.00017183160482074487,0.0002699778988835078,-0.0014930399625266801,0.0,0.0,0.0,0.0,0.0,0.0,0.0,0.00014530306241400393,-0.0002691640297222131,-5.786539955404679e-05,-5.4759699516182536e-05,9.35101456384091e-06,-0.00012490908304885195,-4.930849428541606e-06,-0.00016005417195794183,4.435938685569407e-05,0.00020364089373130196,1.732758650464667e-05,-0.00017183160482074487,-0.0002699778988835078,0.0014930399625266801,0.8076412081718445,46.54800033569336,5.663662433624268,-19.535249710083008,-0.7610984444618225,-2.3788485527038574,0.15231649577617645,0
35,0.17000555992126465,-0.8076412081718445,-46.54800033569336,-5.663662433624268,19.559053421020508,0.7730002999305725,2.3980746269226074,-0.20724813640117645,0.0,0.0,0.0,0.0,0.0,0.0,0.0,-0.7921438499538412,-0.2204740195680394,-0.4982307719704427,0.3363700636424165,0.18404124282079162,0.11991697079486795,-0.187467446041448,0.8779477954557486,0.7557289163677472,-0.2824973997818795,-1.6690462721607142,0.14140827244683501,2.403567890220218,1.0273491345958576,0.878092876070424,0.7554597494309409,-0.2825552651693207,-1.6690993614607135,0.1414185955172306,2.4034451173676383,1.0273381002308042,0.0008674223903786868,0.00017905616221271524,-0.00022767600531313807,-6.704246449104075e-05,-7.443358639760828e-05,-0.0004621222421162075,0.00021888450268924217,0.0,0.0,0.0,0.0,0.0,0.0,0.0,0.0001450806146753303,-0.00026916693680634207,-5.786538744123604e-05,-5.3089299999253825e-05,1.0323070395584777e-05,-0.0001227728525798888,-1.1034365053452788e-05,-0.0008674223903786868,-0.00017905616221271524,0.00022767600531313807,6.704246449104075e-05,7.443358639760828e-05,0.0004621222421162075,-0.00021888450268924217,0.8076412081718445,46.54800033569336,5.663662433624268,-19.559053421020508,-0.7730002999305725,-2.3980746269226074,0.20724813640117645,0
36,0.1750166416168213,-0.8076412081718445,-46.54800033569336,-5.663662433624268,19.559053421020508,0.7730002999305725,2.3980746269226074,-0.20724813640117645,0.0,0.0,0.0,0.0,0.0,0.0,0.0,-0.7921438499538412,-0.2204740195680394,-0.4982307719704427,0.3363700636424165,0.18404124282079162,0.11991697079486795,-0.187467446041448,0.8779477954557486,0.7557289163677472,-0.2824973997818795,-1.6690462721607142,0.14140827244683501,2.403567890220218,1.0273491345958576,0.878092876070424,0.7554597494309409,-0.2825552651693207,-1.6690993614607135,0.1414185955172306,2.4034451173676383,1.0273381002308042,0.0008674223903786868,0.00017905616221271524,-0.00022767600531313807,-6.704246449104075e-05,-7.443358639760828e-05,-0.0004621222421162075,0.00021888450268924217,0.0,0.0,0.0,0.0,0.0,0.0,0.0,0.0001450806146753303,-0.00026916693680634207,-5.786538744123604e-05,-5.3089299999253825e-05,1.0323070395584777e-05,-0.0001227728525798888,-1.1034365053452788e-05,-0.0008674223903786868,-0.00017905616221271524,0.00022767600531313807,6.704246449104075e-05,7.443358639760828e-05,0.0004621222421162075,-0.00021888450268924217,0.8076412081718445,46.54800033569336,5.663662433624268,-19.559053421020508,-0.7730002999305725,-2.3980746269226074,0.20724813640117645,0
37,0.1799943447113037,-0.7838374972343445,-46.52419662475586,-5.663662433624268,19.535249710083008,0.7665916085243225,2.3916659355163574,-0.20724813640117645,0.0,0.0,0.0,0.0,0.0,0.0,0.0,-0.8132356807598942,-0.21900192954112535,-0.514407835037938,0.3336416810944119,0.18440938433989174,0.12003299715941802,-0.18906989626659132,0.8779461280527434,0.7557272429884692,-0.28249739978187954,-1.6690446017248586,0.14140538741121497,2.403568602297041,1.0273491345958576,0.878092876070424,0.7554597494309409,-0.2825552651693207,-1.6690993614607135,0.1414185955172306,2.4034451173676383,1.0273381002308042,-0.0004578619770405769,-0.0009201584653107565,-0.0003523263669915049,0.00010706250443705974,7.07893779348589e-05,-0.00028939833652321463,0.0005746301034257404,0.0,0.0,0.0,0.0,0.0,0.0,0.0,0.00014674801768055357,-0.00026749355752830883,-5.786538744118053e-05,-5.4759735854892355e-05,1.3208106015627497e-05,-0.00012348492940272848,-1.1034365053452788e-05,0.0004578619770405769,0.0009201584653107565,0.0003523263669915049,-0.00010706250443705974,-7.07893779348589e-05,0.00028939833652321463,-0.0005746301034257404,0.7838374972343445,46.52419662475586,5.663662433624268,-19.535249710083008,-0.7665916085243225,-2.3916659355163574,0.20724813640117645,0
38,0.18500304222106934,-0.7838374972343445,-46.52419662475586,-5.663662433624268,19.535249710083008,0.7665916085243225,2.3916659355163574,-0.20724813640117645,0.0,0.0,0.0,0.0,0.0,0.0,0.0,-0.8132356807598942,-0.21900192954112535,-0.514407835037938,0.3336416810944119,0.18440938433989174,0.12003299715941802,-0.18906989626659132,0.8779461280527434,0.7557272429884692,-0.28249739978187954,-1.6690446017248586,0.14140538741121497,2.403568602297041,1.0273491345958576,0.878092876070424,0.7554597494309409,-0.2825552651693207,-1.6690993614607135,0.1414185955172306,2.4034451173676383,1.0273381002308042,-0.0004578619770405769,-0.0009201584653107565,-0.0003523263669915049,0.00010706250443705974,7.07893779348589e-05,-0.00028939833652321463,0.0005746301034257404,0.0,0.0,0.0,0.0,0.0,0.0,0.0,0.00014674801768055357,-0.00026749355752830883,-5.786538744118053e-05,-5.4759735854892355e-05,1.3208106015627497e-05,-0.00012348492940272848,-1.1034365053452788e-05,0.0004578619770405769,0.0009201584653107565,0.0003523263669915049,-0.00010706250443705974,-7.07893779348589e-05,0.00028939833652321463,-0.0005746301034257404,0.7838374972343445,46.52419662475586,5.663662433624268,-19.535249710083008,-0.7665916085243225,-2.3916659355163574,0.20724813640117645,0
39,0.18999767303466797,-0.7838374972343445,-46.57577133178711,-5.663662433624268,19.559053421020508,0.7610984444618225,2.3788485527038574,-0.17978231608867645,0.0,0.0,0.0,0.0,0.0,0.0,0.0,-0.7965271366590617,-0.21455537645154135,-0.5029959073262076,0.3331920738675709,0.1840373555755526,0.11967050094852788,-0.18899891676684796,0.8779458914457358,0.7557308721866193,-0.28249739978187954,-1.669046272160714,0.14141061654777098,2.403570026450687,1.0273460828380452,0.878092876070424,0.7554597494309409,-0.2825552651693207,-1.6690993614607135,0.1414185955172306,2.4034451173676383,1.0273381002308042,-6.549229639214381e-05,0.0007433968771657582,-0.0007264888804618015,-0.001150713001967284,0.0001701531967163933,0.00027861171159244784,-0.0007322603797314561,0.0,0.0,0.0,0.0,0.0,0.0,0.0,0.00014698462468820672,-0.00027112275567842126,-5.786538744118053e-05,-5.308929999947587e-05,7.978969459615515e-06,-0.00012490908304885195,-7.982607240997197e-06,6.549229639214381e-05,-0.0007433968771657582,0.0007264888804618015,0.001150713001967284,-0.0001701531967163933,-0.00027861171159244784,0.0007322603797314561,0.7838374972343445,46.57577133178711,5.663662433624268,-19.559053421020508,-0.7610984444618225,-2.3788485527038574,0.17978231608867645,0
40,0.19499993324279785,-0.7838374972343445,-46.57577133178711,-5.663662433624268,19.559053421020508,0.7610984444618225,2.3788485527038574,-0.17978231608867645,0.0,0.0,0.0,0.0,0.0,0.0,0.0,-0.7965271366590617,-0.21455537645154135,-0.5029959073262076,0.3331920738675709,0.1840373555755526,0.11967050094852788,-0.18899891676684796,0.8779458914457358,0.7557308721866193,-0.28249739978187954,-1.669046272160714,0.14141061654777098,2.403570026450687,1.0273460828380452,0.878092876070424,0.7554597494309409,-0.2825552651693207,-1.6690993614607135,0.1414185955172306,2.4034451173676383,1.0273381002308042,-6.549229639214381e-05,0.0007433968771657582,-0.0007264888804618015,-0.001150713001967284,0.0001701531967163933,0.00027861171159244784,-0.0007322603797314561,0.0,0.0,0.0,0.0,0.0,0.0,0.0,0.00014698462468820672,-0.00027112275567842126,-5.786538744118053e-05,-5.308929999947587e-05,7.978969459615515e-06,-0.00012490908304885195,-7.982607240997197e-06,6.549229639214381e-05,-0.0007433968771657582,0.0007264888804618015,0.001150713001967284,-0.0001701531967163933,-0.00027861171159244784,0.0007322603797314561,0.7838374972343445,46.57577133178711,5.663662433624268,-19.559053421020508,-0.7610984444618225,-2.3788485527038574,0.17978231608867645,0
41,0.1999955177307129,-0.7838374972343445,-46.57577133178711,-5.663662433624268,19.559053421020508,0.7610984444618225,2.3788485527038574,-0.17978231608867645,0.0,0.0,0.0,0.0,0.0,0.0,0.0,-0.7965271366590617,-0.21455537645154135,-0.5029959073262076,0.3331920738675709,0.1840373555755526,0.11967050094852788,-0.18899891676684796,0.8779458914457358,0.7557308721866193,-0.28249739978187954,-1.669046272160714,0.14141061654777098,2.403570026450687,1.0273460828380452,0.878092876070424,0.7554597494309409,-0.2825552651693207,-1.6690993614607135,0.1414185955172306,2.4034451173676383,1.0273381002308042,-6.549229639214381e-05,0.0007433968771657582,-0.0007264888804618015,-0.001150713001967284,0.0001701531967163933,0.00027861171159244784,-0.0007322603797314561,0.0,0.0,0.0,0.0,0.0,0.0,0.0,0.00014698462468820672,-0.00027112275567842126,-5.786538744118053e-05,-5.308929999947587e-05,7.978969459615515e-06,-0.00012490908304885195,-7.982607240997197e-06,6.549229639214381e-05,-0.0007433968771657582,0.0007264888804618015,0.001150713001967284,-0.0001701531967163933,-0.00027861171159244784,0.0007322603797314561,0.7838374972343445,46.57577133178711,5.663662433624268,-19.559053421020508,-0.7610984444618225,-2.3788485527038574,0.17978231608867645,0
42,0.2050015926361084,-0.7838374972343445,-46.57577133178711,-5.663662433624268,19.559053421020508,0.7610984444618225,2.3788485527038574,-0.17978231608867645,0.0,0.0,0.0,0.0,0.0,0.0,0.0,-0.7965271366590617,-0.21455537645154135,-0.5029959073262076,0.3331920738675709,0.1840373555755526,0.11967050094852788,-0.18899891676684796,0.8779458914457358,0.7557308721866193,-0.28249739978187954,-1.669046272160714,0.14141061654777098,2.403570026450687,1.0273460828380452,0.878092876070424,0.7554597494309409,-0.2825552651693207,-1.6690993614607135,0.1414185955172306,2.4034451173676383,1.0273381002308042,-6.549229639214381e-05,0.0007433968771657582,-0.0007264888804618015,-0.001150713001967284,0.0001701531967163933,0.00027861171159244784,-0.0007322603797314561,0.0,0.0,0.0,0.0,0.0,0.0,0.0,0.00014698462468820672,-0.00027112275567842126,-5.786538744118053e-05,-5.308929999947587e-05,7.978969459615515e-06,-0.00012490908304885195,-7.982607240997197e-06,6.549229639214381e-05,-0.0007433968771657582,0.0007264888804618015,0.001150713001967284,-0.0001701531967163933,-0.00027861171159244784,0.0007322603797314561,0.7838374972343445,46.57577133178711,5.663662433624268,-19.559053421020508,-0.7610984444618225,-2.3788485527038574,0.17978231608867645,0
43,0.20999765396118164,-0.8076412081718445,-46.52419662475586,-5.687466144561768,19.535249710083008,0.7665916085243225,2.3852572441101074,-0.19351522624492645,0.0,0.0,0.0,0.0,0.0,0.0,0.0,-0.7907429847256651,-0.21490159577646215,-0.501279889764779,0.33399288119093884,0.18427983519480579,0.11948260236173007,-0.18992347307470478,0.8779503695289742,0.7557272429885085,-0.2824957283648779,-1.6690446017248586,0.1414086282707802,2.403569314373864,1.0273476087169515,0.878092876070424,0.7554597494309409,-0.2825552651693207,-1.6690993614607135,0.1414185955172306,2.4034451173676383,1.0273381002308042,0.0007624087432080385,-0.0002431837635127569,0.00027558309530471023,-0.00020003895899905344,7.836775527822095e-05,-0.0002575365471459456,0.0002187906233365839,0.0,0.0,0.0,0.0,0.0,0.0,0.0,0.0001425065414497606,-0.00026749355756761073,-5.953680444281684e-05,-5.4759735854892355e-05,9.96724645038749e-06,-0.00012419700622556817,-9.508486147336015e-06,-0.0007624087432080385,0.0002431837635127569,-0.00027558309530471023,0.00020003895899905344,-7.836775527822095e-05,0.0002575365471459456,-0.0002187906233365839,0.8076412081718445,46.52419662475586,5.687466144561768,-19.535249710083008,-0.7665916085243225,-2.3852572441101074,0.19351522624492645,0
44,0.2149486541748047,-0.8076412081718445,-46.52419662475586,-5.687466144561768,19.535249710083008,0.7665916085243225,2.3852572441101074,-0.19351522624492645,0.0,0.0,0.0,0.0,0.0,0.0,0.0,-0.7907429847256651,-0.21490159577646215,-0.501279889764779,0.33399288119093884,0.18427983519480579,0.11948260236173007,-0.18992347307470478,0.8779503695289742,0.7557272429885085,-0.2824957283648779,-1.6690446017248586,0.1414086282707802,2.403569314373864,1.0273476087169515,0.878092876070424,0.7554597494309409,-0.2825552651693207,-1.6690993614607135,0.1414185955172306,2.4034451173676383,1.0273381002308042,0.0007624087432080385,-0.0002431837635127569,0.00027558309530471023,-0.00020003895899905344,7.836775527822095e-05,-0.0002575365471459456,0.0002187906233365839,0.0,0.0,0.0,0.0,0.0,0.0,0.0,0.0001425065414497606,-0.00026749355756761073,-5.953680444281684e-05,-5.4759735854892355e-05,9.96724645038749e-06,-0.00012419700622556817,-9.508486147336015e-06,-0.0007624087432080385,0.0002431837635127569,-0.00027558309530471023,0.00020003895899905344,-7.836775527822095e-05,0.0002575365471459456,-0.0002187906233365839,0.8076412081718445,46.52419662475586,5.687466144561768,-19.535249710083008,-0.7665916085243225,-2.3852572441101074,0.19351522624492645,0
45,0.21999692916870117,-0.8076412081718445,-46.52419662475586,-5.635891437530518,19.535249710083008,0.7610984444618225,2.3788485527038574,-0.22098104655742645,0.0,0.0,0.0,0.0,0.0,0.0,0.0,-0.7810610638868142,-0.22067322131026237,-0.49666035231688344,0.33713590275304656,0.18426287943225758,0.11896236117836125,-0.18929065766152503,0.8779475643570459,0.7557294682648629,-0.28249934862370524,-1.6690446017248586,0.1414095542646084,2.403570026450687,1.027350660474764,0.878092876070424,0.7554597494309409,-0.2825552651693207,-1.6690993614607135,0.1414185955172306,2.4034451173676383,1.0273381002308042,0.0007045753473825617,-0.0006046814594292167,-0.0007649210207627527,0.0001532672943259371,0.00020099836437509884,0.0001380897738876899,0.0010077143497730675,0.0,0.0,0.0,0.0,0.0,0.0,0.0,0.00014531171337806015,-0.0002697188339220169,-5.5916545615486424e-05,-5.4759735854892355e-05,9.041252622188356e-06,-0.00012490908304885195,-1.2560243959791606e-05,-0.0007045753473825617,0.0006046814594292167,0.0007649210207627527,-0.0001532672943259371,-0.00020099836437509884,-0.0001380897738876899,-0.0010077143497730675,0.8076412081718445,46.52419662475586,5.635891437530518,-19.535249710083008,-0.7610984444618225,-2.3788485527038574,0.22098104655742645,0
46,0.2250070571899414,-0.8076412081718445,-46.52419662475586,-5.635891437530518,19.535249710083008,0.7610984444618225,2.3788485527038574,-0.22098104655742645,0.0,0.0,0.0,0.0,0.0,0.0,0.0,-0.7810610638868142,-0.22067322131026237,-0.49666035231688344,0.33713590275304656,0.18426287943225758,0.11896236117836125,-0.18929065766152503,0.8779475643570459,0.7557294682648629,-0.28249934862370524,-1.6690446017248586,0.1414095542646084,2.403570026450687,1.027350660474764,0.878092876070424,0.7554597494309409,-0.2825552651693207,-1.6690993614607135,0.1414185955172306,2.4034451173676383,1.0273381002308042,0.0007045753473825617,-0.0006046814594292167,-0.0007649210207627527,0.0001532672943259371,0.00020099836437509884,0.0001380897738876899,0.0010077143497730675,0.0,0.0,0.0,0.0,0.0,0.0,0.0,0.00014531171337806015,-0.0002697188339220169,-5.5916545615486424e-05,-5.4759735854892355e-05,9.041252622188356e-06,-0.00012490908304885195,-1.2560243959791606e-05,-0.0007045753473825617,0.0006046814594292167,0.0007649210207627527,-0.0001532672943259371,-0.00020099836437509884,-0.0001380897738876899,-0.0010077143497730675,0.8076412081718445,46.52419662475586,5.635891437530518,-19.535249710083008,-0.7610984444618225,-2.3788485527038574,0.22098104655742645,0
47,0.2300095558166504,-0.7322627902030945,-46.52419662475586,-5.687466144561768,19.511445999145508,0.7610984444618225,2.3852572441101074,-0.15231649577617645,0.0,0.0,0.0,0.0,0.0,0.0,0.0,-0.7887498941788199,-0.21420645934041047,-0.49997529698966975,0.33124933590935973,0.18385646326152127,0.11752075429817528,-0.18918189265193847,0.8779444904378335,0.7557272430010142,-0.2824957293460243,-1.6690429312890034,0.14140958472432433,2.403569314373864,1.0273430310802327,0.878092876070424,0.7554597494309409,-0.2825552651693207,-1.6690993614607135,0.1414185955172306,2.4034451173676383,1.0273381002308042,-0.0013381975704550232,-0.0006711577856387091,0.0008176113637495297,0.00037800590248733676,0.0002869008899666814,-4.09479880372121e-05,-0.0014146246903536694,0.0,0.0,0.0,0.0,0.0,0.0,0.0,0.00014838563259045312,-0.0002674935700733849,-5.953582329643048e-05,-5.6430171710086796e-05,9.010792906272158e-06,-0.00012419700622556817,-4.930849428541606e-06,0.0013381975704550232,0.0006711577856387091,-0.0008176113637495297,-0.00037800590248733676,-0.0002869008899666814,4.09479880372121e-05,0.0014146246903536694,0.7322627902030945,46.52419662475586,5.687466144561768,-19.511445999145508,-0.7610984444618225,-2.3852572441101074,0.15231649577617645,0
48,0.23500299453735352,-0.7322627902030945,-46.52419662475586,-5.687466144561768,19.511445999145508,0.7610984444618225,2.3852572441101074,-0.15231649577617645,0.0,0.0,0.0,0.0,0.0,0.0,0.0,-0.7887498941788199,-0.21420645934041047,-0.49997529698966975,0.33124933590935973,0.18385646326152127,0.11752075429817528,-0.18918189265193847,0.8779444904378335,0.7557272430010142,-0.2824957293460243,-1.6690429312890034,0.14140958472432433,2.403569314373864,1.0273430310802327,0.878092876070424,0.7554597494309409,-0.2825552651693207,-1.6690993614607135,0.1414185955172306,2.4034451173676383,1.0273381002308042,-0.0013381975704550232,-0.0006711577856387091,0.0008176113637495297,0.00037800590248733676,0.0002869008899666814,-4.09479880372121e-05,-0.0014146246903536694,0.0,0.0,0.0,0.0,0.0,0.0,0.0,0.00014838563259045312,-0.0002674935700733849,-5.953582329643048e-05,-5.6430171710086796e-05,9.010792906272158e-06,-0.00012419700622556817,-4.930849428541606e-06,0.0013381975704550232,0.0006711577856387091,-0.0008176113637495297,-0.00037800590248733676,-0.0002869008899666814,4.09479880372121e-05,0.0014146246903536694,0.7322627902030945,46.52419662475586,5.687466144561768,-19.511445999145508,-0.7610984444618225,-2.3852572441101074,0.15231649577617645,0
49,0.23998403549194336,-0.7838374972343445,-46.50039291381836,-5.687466144561768,19.559053421020508,0.7610984444618225,2.3788485527038574,-0.21457235515117645,0.0,0.0,0.0,0.0,0.0,0.0,0.0,-0.7969191635260401,-0.21476920176479206,-0.5029569138515819,0.332051227475587,0.18350595226005836,0.11779751741773939,-0.18755431326225783,0.8779459720140714,0.7557255725525972,-0.2824957293460243,-1.669046272160714,0.14140601637590203,2.403570026450687,1.027349948453122,0.878092876070424,0.7554597494309409,-0.2825552651693207,-1.6690993614607135,0.1414185955172306,2.4034451173676383,1.0273381002308042,-0.0005087975238275321,-0.0006432449916993177,0.00041016033297348485,5.875430123702399e-05,0.00042386301992314356,-6.335005012371712e-06,0.001102798335366432,0.0,0.0,0.0,0.0,0.0,0.0,0.0,0.000146904056352537,-0.00026582312165635,-5.953582329643048e-05,-5.308929999947587e-05,1.2579141328572518e-05,-0.00012490908304885195,-1.1848222317922819e-05,0.0005087975238275321,0.0006432449916993177,-0.00041016033297348485,-5.875430123702399e-05,-0.00042386301992314356,6.335005012371712e-06,-0.001102798335366432,0.7838374972343445,46.50039291381836,5.687466144561768,-19.559053421020508,-0.7610984444618225,-2.3788485527038574,0.21457235515117645,0
50,0.24495244026184082,-0.7838374972343445,-46.50039291381836,-5.687466144561768,19.559053421020508,0.7610984444618225,2.3788485527038574,-0.21457235515117645,0.0,0.0,0.0,0.0,0.0,0.0,0.0,-0.7969191635260401,-0.21476920176479206,-0.5029569138515819,0.332051227475587,0.18350595226005836,0.11779751741773939,-0.18755431326225783,0.8779459720140714,0.7557255725525972,-0.2824957293460243,-1.669046272160714,0.14140601637590203,2.403570026450687,1.027349948453122,0.878092876070424,0.7554597494309409,-0.2825552651693207,-1.6690993614607135,0.1414185955172306,2.4034451173676383,1.0273381002308042,-0.0005087975238275321,-0.0006432449916993177,0.00041016033297348485,5.875430123702399e-05,0.00042386301992314356,-6.335005012371712e-06,0.001102798335366432,0.0,0.0,0.0,0.0,0.0,0.0,0.0,0.000146904056352537,-0.00026582312165635,-5.953582329643048e-05,-5.308929999947587e-05,1.2579141328572518e-05,-0.00012490908304885195,-1.1848222317922819e-05,0.0005087975238275321,0.0006432449916993177,-0.00041016033297348485,-5.875430123702399e-05,-0.00042386301992314356,6.335005012371712e-06,-0.001102798335366432,0.7838374972343445,46.50039291381836,5.687466144561768,-19.559053421020508,-0.7610984444618225,-2.3788485527038574,0.21457235515117645,0
51,0.24999618530273438,-0.8076412081718445,-46.59957504272461,-5.687466144561768,19.487642288208008,0.7665916085243225,2.3788485527038574,-0.18710653483867645,0.0,0.0,0.0,0.0,0.0,0.0,0.0,-0.8021460586039827,-0.2268737461267333,-0.5070172028816688,0.33906815161288284,0.18412130380748334,0.11735747222937029,-0.1867431887326905,0.8779485061331946,0.7557325328110104,-0.2824957293460243,-1.6690412608531482,0.14140574721586352,2.403570026450687,1.0273468966401287,0.878092876070424,0.7554597494309409,-0.2825552651693207,-1.6690993614607135,0.1414185955172306,2.4034451173676383,1.0273381002308042,-0.00027916160276044463,0.0008870656274460788,-0.00015721252661470442,0.0011446006584743876,5.091200912772123e-05,9.957900741565903e-05,-0.0003633440551700046,0.0,0.0,0.0,0.0,0.0,0.0,0.0,0.00014436993722932723,-0.00027278338006953007,-5.953582329643048e-05,-5.810060756528124e-05,1.2848301367079928e-05,-0.00012490908304885195,-8.796409324496324e-06,0.00027916160276044463,-0.0008870656274460788,0.00015721252661470442,-0.0011446006584743876,-5.091200912772123e-05,-9.957900741565903e-05,0.0003633440551700046,0.8076412081718445,46.59957504272461,5.687466144561768,-19.487642288208008,-0.7665916085243225,-2.3788485527038574,0.18710653483867645,0
52,0.2550008296966553,-0.8076412081718445,-46.59957504272461,-5.687466144561768,19.487642288208008,0.7665916085243225,2.3788485527038574,-0.18710653483867645,0.0,0.0,0.0,0.0,0.0,0.0,0.0,-0.8021460586039827,-0.2268737461267333,-0.5070172028816688,0.33906815161288284,0.18412130380748334,0.11735747222937029,-0.1867431887326905,0.8779485061331946,0.7557325328110104,-0.2824957293460243,-1.6690412608531482,0.14140574721586352,2.403570026450687,1.0273468966401287,0.878092876070424,0.7554597494309409,-0.2825552651693207,-1.6690993614607135,0.1414185955172306,2.4034451173676383,1.0273381002308042,-0.00027916160276044463,0.0008870656274460788,-0.00015721252661470442,0.0011446006584743876,5.091200912772123e-05,9.957900741565903e-05,-0.0003633440551700046,0.0,0.0,0.0,0.0,0.0,0.0,0.0,0.00014436993722932723,-0.00027278338006953007,-5.953582329643048e-05,-5.810060756528124e-05,1.2848301367079928e-05,-0.00012490908304885195,-8.796409324496324e-06,0.00027916160276044463,-0.0008870656274460788,0.00015721252661470442,-0.0011446006584743876,-5.091200912772123e-05,-9.957900741565903e-05,0.0003633440551700046,0.8076412081718445,46.59957504272461,5.687466144561768,-19.487642288208008,-0.7665916085243225,-2.3788485527038574,0.18710653483867645,0
53,0.2599983215332031,-0.8076412081718445,-46.59957504272461,-5.687466144561768,19.487642288208008,0.7665916085243225,2.3788485527038574,-0.18710653483867645,0.0,0.0,0.0,0.0,0.0,0.0,0.0,-0.8021460586039827,-0.2268737461267333,-0.5070172028816688,0.33906815161288284,0.18412130380748334,0.11735747222937029,-0.1867431887326905,0.8779485061331946,0.7557325328110104,-0.2824957293460243,-1.6690412608531482,0.14140574721586352,2.403570026450687,1.0273468966401287,0.878092876070424,0.7554597494309409,-0.2825552651693207,-1.6690993614607135,0.1414185955172306,2.4034451173676383,1.0273381002308042,-0.00027916160276044463,0.0008870656274460788,-0.00015721252661470442,0.0011446006584743876,5.091200912772123e-05,9.957900741565903e-05,-0.0003633440551700046,0.0,0.0,0.0,0.0,0.0,0.0,0.0,0.00014436993722932723,-0.00027278338006953007,-5.953582329643048e-05,-5.810060756528124e-05,1.2848301367079928e-05,-0.00012490908304885195,-8.796409324496324e-06,0.00027916160276044463,-0.0008870656274460788,0.00015721252661470442,-0.0011446006584743876,-5.091200912772123e-05,-9.957900741565903e-05,0.0003633440551700046,0.8076412081718445,46.59957504272461,5.687466144561768,-19.487642288208008,-0.7665916085243225,-2.3788485527038574,0.18710653483867645,0
54,0.26572751998901367,-0.8076412081718445,-46.59957504272461,-5.687466144561768,19.487642288208008,0.7665916085243225,2.3788485527038574,-0.18710653483867645,0.0,0.0,0.0,0.0,0.0,0.0,0.0,-0.8021460586039827,-0.2268737461267333,-0.5070172028816688,0.33906815161288284,0.18412130380748334,0.11735747222937029,-0.1867431887326905,0.8779485061331946,0.7557325328110104,-0.2824957293460243,-1.6690412608531482,0.14140574721586352,2.403570026450687,1.0273468966401287,0.878092876070424,0.7554597494309409,-0.2825552651693207,-1.6690993614607135,0.1414185955172306,2.4034451173676383,1.0273381002308042,-0.00027916160276044463,0.0008870656274460788,-0.00015721252661470442,0.0011446006584743876,5.091200912772123e-05,9.957900741565903e-05,-0.0003633440551700046,0.0,0.0,0.0,0.0,0.0,0.0,0.0,0.00014436993722932723,-0.00027278338006953007,-5.953582329643048e-05,-5.810060756528124e-05,1.2848301367079928e-05,-0.00012490908304885195,-8.796409324496324e-06,0.00027916160276044463,-0.0008870656274460788,0.00015721252661470442,-0.0011446006584743876,-5.091200912772123e-05,-9.957900741565903e-05,0.0003633440551700046,0.8076412081718445,46.59957504272461,5.687466144561768,-19.487642288208008,-0.7665916085243225,-2.3788485527038574,0.18710653483867645,0
55,0.27000975608825684,-0.8076412081718445,-46.54800033569336,-5.635891437530518,19.559053421020508,0.7665916085243225,2.3916659355163574,-0.19351522624492645,0.0,0.0,0.0,0.0,0.0,0.0,0.0,-0.7850343734802607,-0.20413467494121526,-0.4924686755322703,0.3272227878863571,0.18327166039321635,0.11507642855088714,-0.18780664707655845,0.8779475614575959,0.7557289222546261,-0.28249934862371073,-1.669046272160714,0.14140539327931406,2.403568602297041,1.0273476087169515,0.878092876070424,0.7554597494309409,-0.2825552651693207,-1.6690993614607135,0.1414185955172306,2.4034451173676383,1.0273381002308042,0.00016967955481932796,0.00042178457439530066,-0.0009556982973648425,-0.0011952063766870675,-1.520022137300818e-06,-0.0001949415222677013,0.0004233093875382061,0.0,0.0,0.0,0.0,0.0,0.0,0.0,0.00014531461282807356,-0.00026917282368521533,-5.591654560999082e-05,-5.308929999947587e-05,1.3202237916537518e-05,-0.00012348492940272848,-9.508486147336015e-06,-0.00016967955481932796,-0.00042178457439530066,0.0009556982973648425,0.0011952063766870675,1.520022137300818e-06,0.0001949415222677013,-0.0004233093875382061,0.8076412081718445,46.54800033569336,5.635891437530518,-19.559053421020508,-0.7665916085243225,-2.3916659355163574,0.19351522624492645,0
56,0.27495646476745605,-0.8076412081718445,-46.54800033569336,-5.635891437530518,19.559053421020508,0.7665916085243225,2.3916659355163574,-0.19351522624492645,0.0,0.0,0.0,0.0,0.0,0.0,0.0,-0.7850343734802607,-0.20413467494121526,-0.4924686755322703,0.3272227878863571,0.18327166039321635,0.11507642855088714,-0.18780664707655845,0.8779475614575959,0.7557289222546261,-0.28249934862371073,-1.669046272160714,0.14140539327931406,2.403568602297041,1.0273476087169515,0.878092876070424,0.7554597494309409,-0.2825552651693207,-1.6690993614607135,0.1414185955172306,2.4034451173676383,1.0273381002308042,0.00016967955481932796,0.00042178457439530066,-0.0009556982973648425,-0.0011952063766870675,-1.520022137300818e-06,-0.0001949415222677013,0.0004233093875382061,0.0,0.0,0.0,0.0,0.0,0.0,0.0,0.00014531461282807356,-0.00026917282368521533,-5.591654560999082e-05,-5.308929999947587e-05,1.3202237916537518e-05,-0.00012348492940272848,-9.508486147336015e-06,-0.00016967955481932796,-0.00042178457439530066,0.0009556982973648425,0.0011952063766870675,1.520022137300818e-06,0.0001949415222677013,-0.0004233093875382061,0.8076412081718445,46.54800033569336,5.635891437530518,-19.559053421020508,-0.7665916085243225,-2.3916659355163574,0.19351522624492645,0
57,0.2800006866455078,-0.7838374972343445,-46.57577133178711,-5.663662433624268,19.511445999145508,0.7730002999305725,2.3852572441101074,-0.15231649577617645,0.0,0.0,0.0,0.0,0.0,0.0,0.0,-0.7933453561552704,-0.2328338987475018,-0.5037027235260553,0.3391813465642647,0.1838429869636398,0.11822407784111084,-0.18738428166946913,0.87794659702124,0.7557308623024942,-0.28249739978187954,-1.6690429312890034,0.14140928096055913,2.403569314373864,1.0273430310802327,0.878092876070424,0.7554597494309409,-0.2825552651693207,-1.6690993614607135,0.1414185955172306,2.4034451173676383,1.0273381002308042,-9.909085111681699e-05,0.0004520570457085561,-9.314646092424459e-05,0.0008895006686608432,-7.966598169773197e-05,-0.00010790513539573335,-0.0018792037966554765,0.0,0.0,0.0,0.0,0.0,0.0,0.0,0.00014627904918396162,-0.0002711128715533473,-5.786538744118053e-05,-5.6430171710086796e-05,9.314556671469187e-06,-0.00012419700622556817,-4.930849428541606e-06,9.909085111681699e-05,-0.0004520570457085561,9.314646092424459e-05,-0.0008895006686608432,7.966598169773197e-05,0.00010790513539573335,0.0018792037966554765,0.7838374972343445,46.57577133178711,5.663662433624268,-19.511445999145508,-0.7730002999305725,-2.3852572441101074,0.15231649577617645,0
58,0.28499913215637207,-0.7838374972343445,-46.57577133178711,-5.663662433624268,19.511445999145508,0.7730002999305725,2.3852572441101074,-0.15231649577617645,0.0,0.0,0.0,0.0,0.0,0.0,0.0,-0.7933453561552704,-0.2328338987475018,-0.5037027235260553,0.3391813465642647,0.1838429869636398,0.11822407784111084,-0.18738428166946913,0.87794659702124,0.7557308623024942,-0.28249739978187954,-1.6690429312890034,0.14140928096055913,2.403569314373864,1.0273430310802327,0.878092876070424,0.7554597494309409,-0.2825552651693207,-1.6690993614607135,0.1414185955172306,2.4034451173676383,1.0273381002308042,-9.909085111681699e-05,0.0004520570457085561,-9.314646092424459e-05,0.0008895006686608432,-7.966598169773197e-05,-0.00010790513539573335,-0.0018792037966554765,0.0,0.0,0.0,0.0,0.0,0.0,0.0,0.00014627904918396162,-0.0002711128715533473,-5.786538744118053e-05,-5.6430171710086796e-05,9.314556671469187e-06,-0.00012419700622556817,-4.930849428541606e-06,9.909085111681699e-05,-0.0004520570457085561,9.314646092424459e-05,-0.0008895006686608432,7.966598169773197e-05,0.00010790513539573335,0.0018792037966554765,0.7838374972343445,46.57577133178711,5.663662433624268,-19.511445999145508,-0.7730002999305725,-2.3852572441101074,0.15231649577617645,0
59,0.29003071784973145,-0.7838374972343445,-46.54800033569336,-5.687466144561768,19.535249710083008,0.7730002999305725,2.3852572441101074,-0.20724813640117645,0.0,0.0,0.0,0.0,0.0,0.0,0.0,-0.7983702114400252,-0.2226326875249938,-0.5043747991509543,0.3324530518897661,0.18390986176950738,0.11708497780550779,-0.18600536819960886,0.8779459808982502,0.7557289134243079,-0.2824957293460243,-1.6690446017248586,0.14140786418858062,2.403569314373864,1.0273480749577282,0.878092876070424,0.7554597494309409,-0.2825552651693207,-1.6690993614607135,0.1414185955172306,2.4034451173676383,1.0273381002308042,-0.0005933753433752187,-0.0003693213983156214,0.0005053052657482993,-0.00016458006700978617,-0.0001090289810557303,-0.0002390606598739256,0.0009658393506888676,0.0,0.0,0.0,0.0,0.0,0.0,0.0,0.00014689517217381098,-0.000269163993367072,-5.953582329643048e-05,-5.4759735854892355e-05,1.0731328649982164e-05,-0.00012419700622556817,-9.974726923989152e-06,0.0005933753433752187,0.0003693213983156214,-0.0005053052657482993,0.00016458006700978617,0.0001090289810557303,0.0002390606598739256,-0.0009658393506888676,0.7838374972343445,46.54800033569336,5.687466144561768,-19.535249710083008,-0.7730002999305725,-2.3852572441101074,0.20724813640117645,0
60,0.29511213302612305,-0.7838374972343445,-46.54800033569336,-5.687466144561768,19.535249710083008,0.7730002999305725,2.3852572441101074,-0.20724813640117645,0.0,0.0,0.0,0.0,0.0,0.0,0.0,-0.7983702114400252,-0.2226326875249938,-0.5043747991509543,0.3324530518897661,0.18390986176950738,0.11708497780550779,-0.18600536819960886,0.8779459808982502,0.7557289134243079,-0.2824957293460243,-1.6690446017248586,0.14140786418858062,2.403569314373864,1.0273480749577282,0.878092876070424,0.7554597494309409,-0.2825552651693207,-1.6690993614607135,0.1414185955172306,2.4034451173676383,1.0273381002308042,-0.0005933753433752187,-0.0003693213983156214,0.0005053052657482993,-0.00016458006700978617,-0.0001090289810557303,-0.0002390606598739256,0.0009658393506888676,0.0,0.0,0.0,0.0,0.0,0.0,0.0,0.00014689517217381098,-0.000269163993367072,-5.953582329643048e-05,-5.4759735854892355e-05,1.0731328649982164e-05,-0.00012419700622556817,-9.974726923989152e-06,0.0005933753433752187,0.0003693213983156214,-0.0005053052657482993,0.00016458006700978617,0.0001090289810557303,0.0002390606598739256,-0.0009658393506888676,0.7838374972343445,46.54800033569336,5.687466144561768,-19.535249710083008,-0.7730002999305725,-2.3852572441101074,0.20724813640117645,0
61,0.30002379417419434,-0.7838374972343445,-46.57577133178711,-5.663662433624268,19.535249710083008,0.7665916085243225,2.3916659355163574,-0.20083944499492645,0.0,0.0,0.0,0.0,0.0,0.0,0.0,-0.7902694573442005,-0.21580462747417817,-0.4959502471178066,0.3299016093834949,0.18360983486767138,0.11685485923523857,-0.18599102078553362,0.8779459805737798,0.755730888757092,-0.28249739978187954,-1.6690446017248586,0.14140539145916753,2.403568602297041,1.0273484225130531,0.878092876070424,0.7554597494309409,-0.2825552651693207,-1.6690993614607135,0.1414185955172306,2.4034451173676383,1.0273381002308042,-0.0002596409009199813,0.0006224301395731607,-0.00018618373764346235,-0.0003575423137760507,0.00017052001006859154,-0.00010105335515351731,0.0005487617541525797,0.0,0.0,0.0,0.0,0.0,0.0,0.0,0.00014689549664415047,-0.00027113932615119296,-5.786538744118053e-05,-5.4759735854892355e-05,1.3204058063071011e-05,-0.00012348492940272848,-1.0322282248953485e-05,0.0002596409009199813,-0.0006224301395731607,0.00018618373764346235,0.0003575423137760507,-0.00017052001006859154,0.00010105335515351731,-0.0005487617541525797,0.7838374972343445,46.57577133178711,5.663662433624268,-19.535249710083008,-0.7665916085243225,-2.3916659355163574,0.20083944499492645,0
62,0.30500030517578125,-0.7838374972343445,-46.57577133178711,-5.663662433624268,19.535249710083008,0.7665916085243225,2.3916659355163574,-0.20083944499492645,0.0,0.0,0.0,0.0,0.0,0.0,0.0,-0.7902694573442005,-0.21580462747417817,-0.4959502471178066,0.3299016093834949,0.18360983486767138,0.11685485923523857,-0.18599102078553362,0.8779459805737798,0.755730888757092,-0.28249739978187954,-1.6690446017248586,0.14140539145916753,2.403568602297041,1.0273484225130531,0.878092876070424,0.7554597494309409,-0.2825552651693207,-1.6690993614607135,0.1414185955172306,2.4034451173676383,1.0273381002308042,-0.0002596409009199813,0.0006224301395731607,-0.00018618373764346235,-0.0003575423137760507,0.00017052001006859154,-0.00010105335515351731,0.0005487617541525797,0.0,0.0,0.0,0.0,0.0,0.0,0.0,0.00014689549664415047,-0.00027113932615119296,-5.786538744118053e-05,-5.4759735854892355e-05,1.3204058063071011e-05,-0.00012348492940272848,-1.0322282248953485e-05,0.0002596409009199813,-0.0006224301395731607,0.00018618373764346235,0.0003575423137760507,-0.00017052001006859154,0.00010105335515351731,-0.0005487617541525797,0.7838374972343445,46.57577133178711,5.663662433624268,-19.535249710083008,-0.7665916085243225,-2.3916659355163574,0.20083944499492645,0
63,0.309955358505249,-0.8076412081718445,-46.54800033569336,-5.635891437530518,19.559053421020508,0.7730002999305725,2.3852572441101074,-0.20083944499492645,0.0,0.0,0.0,0.0,0.0,0.0,0.0,-0.8036118061436739,-0.22775984624114148,-0.5071134106087052,0.3360488566640888,0.1844851344481288,0.11859374023812357,-0.1858148757517761,0.877947565305688,0.7557291518433354,-0.28249932180570875,-1.669046272160714,0.14140908572022626,2.403569314373864,1.0273484225190348,0.878092876070424,0.7554597494309409,-0.2825552651693207,-1.6690993614607135,0.1414185955172306,2.4034451173676383,1.0273381002308042,-0.0002769678609715519,-0.00024975702511477796,-0.0008448493771495746,-0.0002975202250132377,-0.00015373693070853888,1.9218326464036334e-05,0.0008549718232298273,0.0,0.0,0.0,0.0,0.0,0.0,0.0,0.00014531076473600635,-0.0002694024123945926,-5.5943363611976604e-05,-5.308929999947587e-05,9.50979700434229e-06,-0.00012419700622556817,-1.0322288230613097e-05,0.0002769678609715519,0.00024975702511477796,0.0008448493771495746,0.0002975202250132377,0.00015373693070853888,-1.9218326464036334e-05,-0.0008549718232298273,0.8076412081718445,46.54800033569336,5.635891437530518,-19.559053421020508,-0.7730002999305725,-2.3852572441101074,0.20083944499492645,0
64,0.31499671936035156,-0.8076412081718445,-46.54800033569336,-5.635891437530518,19.559053421020508,0.7730002999305725,2.3852572441101074,-0.20083944499492645,0.0,0.0,0.0,0.0,0.0,0.0,0.0,-0.8036118061436739,-0.22775984624114148,-0.5071134106087052,0.3360488566640888,0.1844851344481288,0.11859374023812357,-0.1858148757517761,0.877947565305688,0.7557291518433354,-0.28249932180570875,-1.669046272160714,0.14140908572022626,2.403569314373864,1.0273484225190348,0.878092876070424,0.7554597494309409,-0.2825552651693207,-1.6690993614607135,0.1414185955172306,2.4034451173676383,1.0273381002308042,-0.0002769678609715519,-0.00024975702511477796,-0.0008448493771495746,-0.0002975202250132377,-0.00015373693070853888,1.9218326464036334e-05,0.0008549718232298273,0.0,0.0,0.0,0.0,0.0,0.0,0.0,0.00014531076473600635,-0.0002694024123945926,-5.5943363611976604e-05,-5.308929999947587e-05,9.50979700434229e-06,-0.00012419700622556817,-1.0322288230613097e-05,0.0002769678609715519,0.00024975702511477796,0.0008448493771495746,0.0002975202250132377,0.00015373693070853888,-1.9218326464036334e-05,-0.0008549718232298273,0.8076412081718445,46.54800033569336,5.635891437530518,-19.559053421020508,-0.7730002999305725,-2.3852572441101074,0.20083944499492645,0
65,0.31999707221984863,-0.7838374972343445,-46.52419662475586,-5.687466144561768,19.511445999145508,0.7730002999305725,2.3916659355163574,-0.19351522624492645,0.0,0.0,0.0,0.0,0.0,0.0,0.0,-0.7944692834707467,-0.2167078050795634,-0.4980569493258265,0.3324213393311609,0.18462869551993535,0.11754849635586287,-0.18512387505036293,0.8779458997902059,0.7557272429889011,-0.28249572051565613,-1.6690429312890034,0.1414092858111545,2.403568602297041,1.0273476087169515,0.878092876070424,0.7554597494309409,-0.2825552651693207,-1.6690993614607135,0.1414185955172306,2.4034451173676383,1.0273381002308042,-0.00030433326519990983,-0.0005575299193301828,0.00035140060123005297,0.0006197930573759771,-4.454821967724482e-05,-0.0003246472135952478,0.0010088600012810717,0.0,0.0,0.0,0.0,0.0,0.0,0.0,0.00014697628021809184,-0.0002674935579602966,-5.9544653664589386e-05,-5.6430171710086796e-05,9.309706076099378e-06,-0.00012348492940272848,-9.508486147336015e-06,0.00030433326519990983,0.0005575299193301828,-0.00035140060123005297,-0.0006197930573759771,4.454821967724482e-05,0.0003246472135952478,-0.0010088600012810717,0.7838374972343445,46.52419662475586,5.687466144561768,-19.511445999145508,-0.7730002999305725,-2.3916659355163574,0.19351522624492645,0
66,0.3249971866607666,-0.7838374972343445,-46.52419662475586,-5.687466144561768,19.511445999145508,0.7730002999305725,2.3916659355163574,-0.19351522624492645,0.0,0.0,0.0,0.0,0.0,0.0,0.0,-0.7944692834707467,-0.2167078050795634,-0.4980569493258265,0.3324213393311609,0.18462869551993535,0.11754849635586287,-0.18512387505036293,0.8779458997902059,0.7557272429889011,-0.28249572051565613,-1.6690429312890034,0.1414092858111545,2.403568602297041,1.0273476087169515,0.878092876070424,0.7554597494309409,-0.2825552651693207,-1.6690993614607135,0.1414185955172306,2.4034451173676383,1.0273381002308042,-0.00030433326519990983,-0.0005575299193301828,0.00035140060123005297,0.0006197930573759771,-4.454821967724482e-05,-0.0003246472135952478,0.0010088600012810717,0.0,0.0,0.0,0.0,0.0,0.0,0.0,0.00014697628021809184,-0.0002674935579602966,-5.9544653664589386e-05,-5.6430171710086796e-05,9.309706076099378e-06,-0.00012348492940272848,-9.508486147336015e-06,0.00030433326519990983,0.0005575299193301828,-0.00035140060123005297,-0.0006197930573759771,4.454821967724482e-05,0.0003246472135952478,-0.0010088600012810717,0.7838374972343445,46.52419662475586,5.687466144561768,-19.511445999145508,-0.7730002999305725,-2.3916659355163574,0.19351522624492645,0
67,0.3300590515136719,-0.8354122042655945,-46.52419662475586,-5.663662433624268,19.535249710083008,0.7730002999305725,2.3980746269226074,-0.21457235515117645,0.0,0.0,0.0,0.0,0.0,0.0,0.0,-0.7829497904102135,-0.2148713168992834,-0.49098358614548454,0.33393002734680455,0.18419513353705616,0.1172874605570424,-0.18461224522875788,0.8779502210781953,0.7557272429884525,-0.28249739978182975,-1.6690446017248586,0.1414092868549489,2.403567890220218,1.0273499483979411,0.878092876070424,0.7554597494309409,-0.2825552651693207,-1.6690993614607135,0.1414185955172306,2.4034451173676383,1.0273381002308042,0.0015507393349613791,-0.00038298133985504326,0.00018663961264330983,8.27441591527952e-05,-0.00021406588750264046,-0.0006434916534711481,0.0009227628137243756,0.0,0.0,0.0,0.0,0.0,0.0,0.0,0.0001426549922286524,-0.0002674935575116555,-5.786538749097403e-05,-5.4759735854892355e-05,9.308662281687363e-06,-0.0001227728525798888,-1.1848167136951915e-05,-0.0015507393349613791,0.00038298133985504326,-0.00018663961264330983,-8.27441591527952e-05,0.00021406588750264046,0.0006434916534711481,-0.0009227628137243756,0.8354122042655945,46.52419662475586,5.663662433624268,-19.535249710083008,-0.7730002999305725,-2.3980746269226074,0.21457235515117645,0
68,0.3349952697753906,-0.8354122042655945,-46.52419662475586,-5.663662433624268,19.535249710083008,0.7730002999305725,2.3980746269226074,-0.21457235515117645,0.0,0.0,0.0,0.0,0.0,0.0,0.0,-0.7829497904102135,-0.2148713168992834,-0.49098358614548454,0.33393002734680455,0.18419513353705616,0.1172874605570424,-0.18461224522875788,0.8779502210781953,0.7557272429884525,-0.28249739978182975,-1.6690446017248586,0.1414092868549489,2.403567890220218,1.0273499483979411,0.878092876070424,0.7554597494309409,-0.2825552651693207,-1.6690993614607135,0.1414185955172306,2.4034451173676383,1.0273381002308042,0.0015507393349613791,-0.00038298133985504326,0.00018663961264330983,8.27441591527952e-05,-0.00021406588750264046,-0.0006434916534711481,0.0009227628137243756,0.0,0.0,0.0,0.0,0.0,0.0,0.0,0.0001426549922286524,-0.0002674935575116555,-5.786538749097403e-05,-5.4759735854892355e-05,9.308662281687363e-06,-0.0001227728525798888,-1.1848167136951915e-05,-0.0015507393349613791,0.00038298133985504326,-0.00018663961264330983,-8.27441591527952e-05,0.00021406588750264046,0.0006434916534711481,-0.0009227628137243756,0.8354122042655945,46.52419662475586,5.663662433624268,-19.535249710083008,-0.7730002999305725,-2.3980746269226074,0.21457235515117645,0
69,0.3399505615234375,-0.7838374972343445,-46.50039291381836,-5.635891437530518,19.487642288208008,0.7665916085243225,2.3852572441101074,-0.15964071452617645,0.0,0.0,0.0,0.0,0.0,0.0,0.0,-0.7974254076688849,-0.22600471444646636,-0.5008657964012935,0.33969504315697713,0.18465911454213868,0.11847938715096418,-0.18544500637706704,0.8779459170208003,0.7557255725525972,-0.28249934862371073,-1.6690412608531482,0.14140587733605173,2.403569314373864,1.027343844882316,0.878092876070424,0.7554597494309409,-0.2825552651693207,-1.6690993614607135,0.1414185955172306,2.4034451173676383,1.0273381002308042,-0.00035874589862876276,-0.0014041757104277324,-0.0007725217706688136,0.0013249232054634906,0.0002357627113484188,-7.174247287567291e-05,-0.0008042842109115992,0.0,0.0,0.0,0.0,0.0,0.0,0.0,0.0001469590496236961,-0.00026582312165635,-5.591654560999082e-05,-5.810060756528124e-05,1.2718181178872356e-05,-0.00012419700622556817,-5.744651511818688e-06,0.00035874589862876276,0.0014041757104277324,0.0007725217706688136,-0.0013249232054634906,-0.0002357627113484188,7.174247287567291e-05,0.0008042842109115992,0.7838374972343445,46.50039291381836,5.635891437530518,-19.487642288208008,-0.7665916085243225,-2.3852572441101074,0.15964071452617645,0
70,0.34499669075012207,-0.7838374972343445,-46.50039291381836,-5.635891437530518,19.487642288208008,0.7665916085243225,2.3852572441101074,-0.15964071452617645,0.0,0.0,0.0,0.0,0.0,0.0,0.0,-0.7974254076688849,-0.22600471444646636,-0.5008657964012935,0.33969504315697713,0.18465911454213868,0.11847938715096418,-0.18544500637706704,0.8779459170208003,0.7557255725525972,-0.28249934862371073,-1.6690412608531482,0.14140587733605173,2.403569314373864,1.027343844882316,0.878092876070424,0.7554597494309409,-0.2825552651693207,-1.6690993614607135,0.1414185955172306,2.4034451173676383,1.0273381002308042,-0.00035874589862876276,-0.0014041757104277324,-0.0007725217706688136,0.0013249232054634906,0.0002357627113484188,-7.174247287567291e-05,-0.0008042842109115992,0.0,0.0,0.0,0.0,0.0,0.0,0.0,0.0001469590496236961,-0.00026582312165635,-5.591654560999082e-05,-5.810060756528124e-05,1.2718181178872356e-05,-0.00012419700622556817,-5.744651511818688e-06,0.00035874589862876276,0.0014041757104277324,0.0007725217706688136,-0.0013249232054634906,-0.0002357627113484188,7.174247287567291e-05,0.0008042842109115992,0.7838374972343445,46.50039291381836,5.635891437530518,-19.487642288208008,-0.7665916085243225,-2.3852572441101074,0.15964071452617645,0
71,0.34994983673095703,-0.8354122042655945,-46.57577133178711,-5.663662433624268,19.535249710083008,0.7730002999305725,2.3788485527038574,-0.19351522624492645,0.0,0.0,0.0,0.0,0.0,0.0,0.0,-0.8022751580149031,-0.220785102544819,-0.5003957284089898,0.337055515631191,0.18450137200972044,0.11823163746262778,-0.1850716127277002,0.877949614331427,0.7557308622661388,-0.2824973996728633,-1.6690446017248586,0.14140941703395626,2.403570026450687,1.0273476087169515,0.878092876070424,0.7554597494309409,-0.2825552651693207,-1.6690993614607135,0.1414185955172306,2.4034451173676383,1.0273381002308042,0.0003685472422963843,0.0006280241938404889,-0.0002735682412933143,-6.597064600825027e-06,-0.0003038765411501589,0.00041252380943350604,0.00036248032798361513,0.0,0.0,0.0,0.0,0.0,0.0,0.0,0.00014326173899692485,-0.0002711128351979841,-5.7865496457421006e-05,-5.4759735854892355e-05,9.178483274335791e-06,-0.00012490908304885195,-9.508486147336015e-06,-0.0003685472422963843,-0.0006280241938404889,0.0002735682412933143,6.597064600825027e-06,0.0003038765411501589,-0.00041252380943350604,-0.00036248032798361513,0.8354122042655945,46.57577133178711,5.663662433624268,-19.535249710083008,-0.7730002999305725,-2.3788485527038574,0.19351522624492645,0
72,0.35500574111938477,-0.8354122042655945,-46.57577133178711,-5.663662433624268,19.535249710083008,0.7730002999305725,2.3788485527038574,-0.19351522624492645,0.0,0.0,0.0,0.0,0.0,0.0,0.0,-0.8022751580149031,-0.220785102544819,-0.5003957284089898,0.337055515631191,0.18450137200972044,0.11823163746262778,-0.1850716127277002,0.877949614331427,0.7557308622661388,-0.2824973996728633,-1.6690446017248586,0.14140941703395626,2.403570026450687,1.0273476087169515,0.878092876070424,0.7554597494309409,-0.2825552651693207,-1.6690993614607135,0.1414185955172306,2.4034451173676383,1.0273381002308042,0.0003685472422963843,0.0006280241938404889,-0.0002735682412933143,-6.597064600825027e-06,-0.0003038765411501589,0.00041252380943350604,0.00036248032798361513,0.0,0.0,0.0,0.0,0.0,0.0,0.0,0.00014326173899692485,-0.0002711128351979841,-5.7865496457421006e-05,-5.4759735854892355e-05,9.178483274335791e-06,-0.00012490908304885195,-9.508486147336015e-06,-0.0003685472422963843,-0.0006280241938404889,0.0002735682412933143,6.597064600825027e-06,0.0003038765411501589,-0.00041252380943350604,-0.00036248032798361513,0.8354122042655945,46.57577133178711,5.663662433624268,-19.535249710083008,-0.7730002999305725,-2.3788485527038574,0.19351522624492645,0
73,0.3600783348083496,-0.8354122042655945,-46.57577133178711,-5.735073566436768,19.511445999145508,0.7610984444618225,2.3788485527038574,-0.22098104655742645,0.0,0.0,0.0,0.0,0.0,0.0,0.0,-0.7922998067139331,-0.22183635570521404,-0.49194719253628527,0.3385425247423866,0.18380975697375795,0.1187406392420887,-0.18643208644661396,0.8779502151938734,0.7557308622661388,-0.28249167310955964,-1.6690429312890034,0.14141064778852017,2.403570026450687,1.027350660474764,0.878092876070424,0.7554597494309409,-0.2825552651693207,-1.6690993614607135,0.1414185955172306,2.4034451173676383,1.0273381002308042,0.0010230506019899283,0.0005499359210904174,0.0012411798276024163,0.0004933400835136778,0.00014499276809993664,0.0004654945213520941,0.0016965968783649197,0.0,0.0,0.0,0.0,0.0,0.0,0.0,0.00014266087655057103,-0.0002711128351979841,-6.359205976108617e-05,-5.6430171710086796e-05,7.947728710433477e-06,-0.00012490908304885195,-1.2560243959791606e-05,-0.0010230506019899283,-0.0005499359210904174,-0.0012411798276024163,-0.0004933400835136778,-0.00014499276809993664,-0.0004654945213520941,-0.0016965968783649197,0.8354122042655945,46.57577133178711,5.735073566436768,-19.511445999145508,-0.7610984444618225,-2.3788485527038574,0.22098104655742645,0
74,0.36499857902526855,-0.8354122042655945,-46.57577133178711,-5.735073566436768,19.511445999145508,0.7610984444618225,2.3788485527038574,-0.22098104655742645,0.0,0.0,0.0,0.0,0.0,0.0,0.0,-0.7922998067139331,-0.22183635570521404,-0.49194719253628527,0.3385425247423866,0.18380975697375795,0.1187406392420887,-0.18643208644661396,0.8779502151938734,0.7557308622661388,-0.28249167310955964,-1.6690429312890034,0.14141064778852017,2.403570026450687,1.027350660474764,0.878092876070424,0.7554597494309409,-0.2825552651693207,-1.6690993614607135,0.1414185955172306,2.4034451173676383,1.0273381002308042,0.0010230506019899283,0.0005499359210904174,0.0012411798276024163,0.0004933400835136778,0.00014499276809993664,0.0004654945213520941,0.0016965968783649197,0.0,0.0,0.0,0.0,0.0,0.0,0.0,0.00014266087655057103,-0.0002711128351979841,-6.359205976108617e-05,-5.6430171710086796e-05,7.947728710433477e-06,-0.00012490908304885195,-1.2560243959791606e-05,-0.0010230506019899283,-0.0005499359210904174,-0.0012411798276024163,-0.0004933400835136778,-0.00014499276809993664,-0.0004654945213520941,-0.0016965968783649197,0.8354122042655945,46.57577133178711,5.735073566436768,-19.511445999145508,-0.7610984444618225,-2.3788485527038574,0.22098104655742645,0
75,0.37000441551208496,-0.8354122042655945,-46.59957504272461,-5.687466144561768,19.511445999145508,0.7730002999305725,2.3788485527038574,-0.20724813640117645,0.0,0.0,0.0,0.0,0.0,0.0,0.0,-0.8030898741998176,-0.2158936597180237,-0.5007906958077522,0.33507749641798656,0.18310220548002773,0.11858196286138506,-0.18717965596846947,0.8779495142569791,0.7557325327019941,-0.2824957293419861,-1.6690429312890034,0.14140587491851034,2.403570026450687,1.0273491345958576,0.878092876070424,0.7554597494309409,-0.2825552651693207,-1.6690993614607135,0.1414185955172306,2.4034451173676383,1.0273381002308042,0.00036812718490289865,0.0013863585974959478,0.0002937878283109405,0.0005884187403844157,-0.0001802769303236041,0.00014718033489100816,0.00040855773392304895,0.0,0.0,0.0,0.0,0.0,0.0,0.0,0.00014336181344487553,-0.0002727832710532896,-5.9535827334644686e-05,-5.6430171710086796e-05,1.2720598720261656e-05,-0.00012490908304885195,-1.1034365053452788e-05,-0.00036812718490289865,-0.0013863585974959478,-0.0002937878283109405,-0.0005884187403844157,0.0001802769303236041,-0.00014718033489100816,-0.00040855773392304895,0.8354122042655945,46.59957504272461,5.687466144561768,-19.511445999145508,-0.7730002999305725,-2.3788485527038574,0.20724813640117645,0
76,0.37499547004699707,-0.8354122042655945,-46.59957504272461,-5.687466144561768,19.511445999145508,0.7730002999305725,2.3788485527038574,-0.20724813640117645,0.0,0.0,0.0,0.0,0.0,0.0,0.0,-0.8030898741998176,-0.2158936597180237,-0.5007906958077522,0.33507749641798656,0.18310220548002773,0.11858196286138506,-0.18717965596846947,0.8779495142569791,0.7557325327019941,-0.2824957293419861,-1.6690429312890034,0.14140587491851034,2.403570026450687,1.0273491345958576,0.878092876070424,0.7554597494309409,-0.2825552651693207,-1.6690993614607135,0.1414185955172306,2.4034451173676383,1.0273381002308042,0.00036812718490289865,0.0013863585974959478,0.0002937878283109405,0.0005884187403844157,-0.0001802769303236041,0.00014718033489100816,0.00040855773392304895,0.0,0.0,0.0,0.0,0.0,0.0,0.0,0.00014336181344487553,-0.0002727832710532896,-5.9535827334644686e-05,-5.6430171710086796e-05,1.2720598720261656e-05,-0.00012490908304885195,-1.1034365053452788e-05,-0.00036812718490289865,-0.0013863585974959478,-0.0002937878283109405,-0.0005884187403844157,0.0001802769303236041,-0.00014718033489100816,-0.00040855773392304895,0.8354122042655945,46.59957504272461,5.687466144561768,-19.511445999145508,-0.7730002999305725,-2.3788485527038574,0.20724813640117645,0
77,0.38004255294799805,-0.7838374972343445,-46.59957504272461,-5.687466144561768,19.586824417114258,0.7784934639930725,2.3916659355163574,-0.16604940593242645,0.0,0.0,0.0,0.0,0.0,0.0,0.0,-0.8076522758161835,-0.22265204885423728,-0.5052946314063556,0.3381040635549498,0.1834373900765292,0.11871709648483891,-0.18828096306520897,0.8779482313716249,0.7557325336831405,-0.2824957293460243,-1.669048221002545,0.1414044340287311,2.403568602297041,1.027344556959139,0.878092876070424,0.7554597494309409,-0.2825552651693207,-1.6690993614607135,0.1414185955172306,2.4034451173676383,1.0273381002308042,-0.000702960663404835,0.0009445898443951801,-5.155956743322149e-05,-0.0010460894620215907,-0.0002640453792711152,-0.00028437206392135656,-0.0014925298076078847,0.0,0.0,0.0,0.0,0.0,0.0,0.0,0.00014464469879904573,-0.00027278425219967595,-5.953582329643048e-05,-5.1140458168452696e-05,1.4161488499503383e-05,-0.00012348492940272848,-6.456728334880424e-06,0.000702960663404835,-0.0009445898443951801,5.155956743322149e-05,0.0010460894620215907,0.0002640453792711152,0.00028437206392135656,0.0014925298076078847,0.7838374972343445,46.59957504272461,5.687466144561768,-19.586824417114258,-0.7784934639930725,-2.3916659355163574,0.16604940593242645,0
78,0.3850412368774414,-0.7838374972343445,-46.59957504272461,-5.687466144561768,19.586824417114258,0.7784934639930725,2.3916659355163574,-0.16604940593242645,0.0,0.0,0.0,0.0,0.0,0.0,0.0,-0.8076522758161835,-0.22265204885423728,-0.5052946314063556,0.3381040635549498,0.1834373900765292,0.11871709648483891,-0.18828096306520897,0.8779482313716249,0.7557325336831405,-0.2824957293460243,-1.669048221002545,0.1414044340287311,2.403568602297041,1.027344556959139,0.878092876070424,0.7554597494309409,-0.2825552651693207,-1.6690993614607135,0.1414185955172306,2.4034451173676383,1.0273381002308042,-0.000702960663404835,0.0009445898443951801,-5.155956743322149e-05,-0.0010460894620215907,-0.0002640453792711152,-0.00028437206392135656,-0.0014925298076078847,0.0,0.0,0.0,0.0,0.0,0.0,0.0,0.00014464469879904573,-0.00027278425219967595,-5.953582329643048e-05,-5.1140458168452696e-05,1.4161488499503383e-05,-0.00012348492940272848,-6.456728334880424e-06,0.000702960663404835,-0.0009445898443951801,5.155956743322149e-05,0.0010460894620215907,0.0002640453792711152,0.00028437206392135656,0.0014925298076078847,0.7838374972343445,46.59957504272461,5.687466144561768,-19.586824417114258,-0.7784934639930725,-2.3916659355163574,0.16604940593242645,0
79,0.39003467559814453,-0.8076412081718445,-46.57577133178711,-5.635891437530518,19.511445999145508,0.7665916085243225,2.3852572441101074,-0.16604940593242645,0.0,0.0,0.0,0.0,0.0,0.0,0.0,-0.7971721268289749,-0.2143785493648847,-0.4973054704396686,0.33357560677266995,0.18352482811690185,0.11745629083727956,-0.18866868814586327,0.877949904388608,0.7557308622661444,-0.28249934862371073,-1.6690429312890034,0.14140574170949194,2.403569314373864,1.02734457036814,0.878092876070424,0.7554597494309409,-0.2825552651693207,-1.6690993614607135,0.1414185955172306,2.4034451173676383,1.0273381002308042,0.00024710564590850996,0.0003812467167219523,-0.00047971707000414495,0.0003663843740197528,0.00012263402547991364,-3.97864572304034e-05,-0.000850751449133603,0.0,0.0,0.0,0.0,0.0,0.0,0.0,0.0001429716818159843,-0.00027111283520353524,-5.591654560999082e-05,-5.6430171710086796e-05,1.285380773866085e-05,-0.00012419700622556817,-6.470137335901072e-06,-0.00024710564590850996,-0.0003812467167219523,0.00047971707000414495,-0.0003663843740197528,-0.00012263402547991364,3.97864572304034e-05,0.000850751449133603,0.8076412081718445,46.57577133178711,5.635891437530518,-19.511445999145508,-0.7665916085243225,-2.3852572441101074,0.16604940593242645,0
80,0.39499616622924805,-0.8076412081718445,-46.57577133178711,-5.635891437530518,19.511445999145508,0.7665916085243225,2.3852572441101074,-0.16604940593242645,0.0,0.0,0.0,0.0,0.0,0.0,0.0,-0.7971721268289749,-0.2143785493648847,-0.4973054704396686,0.33357560677266995,0.18352482811690185,0.11745629083727956,-0.18866868814586327,0.877949904388608,0.7557308622661444,-0.28249934862371073,-1.6690429312890034,0.14140574170949194,2.403569314373864,1.02734457036814,0.878092876070424,0.7554597494309409,-0.2825552651693207,-1.6690993614607135,0.1414185955172306,2.4034451173676383,1.0273381002308042,0.00024710564590850996,0.0003812467167219523,-0.00047971707000414495,0.0003663843740197528,0.00012263402547991364,-3.97864572304034e-05,-0.000850751449133603,0.0,0.0,0.0,0.0,0.0,0.0,0.0,0.0001429716818159843,-0.00027111283520353524,-5.591654560999082e-05,-5.6430171710086796e-05,1.285380773866085e-05,-0.00012419700622556817,-6.470137335901072e-06,-0.00024710564590850996,-0.0003812467167219523,0.00047971707000414495,-0.0003663843740197528,-0.00012263402547991364,3.97864572304034e-05,0.000850751449133603,0.8076412081718445,46.57577133178711,5.635891437530518,-19.511445999145508,-0.7665916085243225,-2.3852572441101074,0.16604940593242645,0
