rezayati/contactInterpretation/dataset/franka_main/labeled_data/link3/e1_6.csv
index,time,tau_J0,tau_J1,tau_J2,tau_J3,tau_J4,tau_J5,tau_J6,tau_J_d0,tau_J_d1,tau_J_d2,tau_J_d3,tau_J_d4,tau_J_d5,tau_J_d6,tau_ext0,tau_ext1,tau_ext2,tau_ext3,tau_ext4,tau_ext5,tau_ext6,q0,q1,q2,q3,q4,q5,q6,q_d0,q_d1,q_d2,q_d3,q_d4,q_d5,q_d6,dq0,dq1,dq2,dq3,dq4,dq5,dq6,dq_d0,dq_d1,dq_d2,dq_d3,dq_d4,dq_d5,dq_d6,e0,e1,e2,e3,e4,e5,e6,de0,de1,de2,de3,de4,de5,de6,etau_J0,etau_J1,etau_J2,etau_J3,etau_J4,etau_J5,etau_J6,label
1,0.0,0.16037636995315552,-18.277124404907227,1.1441986560821533,17.972139358520508,0.4983420968055725,2.2360262870788574,-0.17337362468242645,0.0,0.0,0.0,0.0,0.0,0.0,0.0,0.12888389862023344,0.3999246019217063,0.3198825551477532,0.353417959167656,0.0712197944072717,0.058088675679134644,-0.1846592416631556,-0.609167803459,-0.05744649575101702,-0.6666524980773559,-2.594551767107152,-0.05562382750708184,2.5079735364961473,0.8763154263411399,-0.6090851748156966,-0.05753196718556838,-0.666603097082616,-2.5945565370258534,-0.05562143941554,2.507976027223799,0.8763108487046415,-0.00031545165049190867,0.00099720646503057,-7.826121047857516e-05,0.00013005867271954894,-0.00012150751705846645,-0.00022430570952849024,-0.0002538400914086837,0.0,0.0,0.0,0.0,0.0,0.0,0.0,8.262864330343955e-05,-8.54714345513638e-05,4.940099473993431e-05,-4.769918701352793e-06,2.388091541842552e-06,2.490727651682789e-06,-4.5776364984151385e-06,0.00031545165049190867,-0.00099720646503057,7.826121047857516e-05,-0.00013005867271954894,0.00012150751705846645,0.00022430570952849024,0.0002538400914086837,-0.16037636995315552,18.277124404907227,-1.1441986560821533,-17.972139358520508,-0.4983420968055725,-2.2360262870788574,0.17337362468242645,0
2,0.00500798225402832,0.16037636995315552,-18.253320693969727,1.1164276599884033,17.999910354614258,0.4864402413368225,2.2488436698913574,-0.13858358561992645,0.0,0.0,0.0,0.0,0.0,0.0,0.0,0.13746813967725666,0.4479157389855658,0.32471376995538753,0.33378518598334966,0.07022908696171422,0.0538489236185191,-0.184985754218141,-0.609167803459,-0.05744816618687228,-0.6666505503067652,-2.5945537190018864,-0.0556221490203733,2.507974935348159,0.8763115602969489,-0.6090851748156966,-0.05753196718556838,-0.666603097082616,-2.5945565370258534,-0.05562143941554,2.507976027223799,0.8763108487046415,-7.363701733544639e-05,-0.0006875963555768375,0.0009763206739905422,-0.0003633251924135001,0.0005003691206041787,0.00011933504222987729,-0.0017786530747852113,0.0,0.0,0.0,0.0,0.0,0.0,0.0,8.262864330343955e-05,-8.380099869609997e-05,4.745322414922981e-05,-2.8180239670660967e-06,7.096048333030125e-07,1.0918756401245844e-06,-7.115923074119124e-07,7.363701733544639e-05,0.0006875963555768375,-0.0009763206739905422,0.0003633251924135001,-0.0005003691206041787,-0.00011933504222987729,0.0017786530747852113,-0.16037636995315552,18.253320693969727,-1.1164276599884033,-17.999910354614258,-0.4864402413368225,-2.2488436698913574,0.13858358561992645,0
3,0.010008096694946289,0.16037636995315552,-18.253320693969727,1.1164276599884033,17.999910354614258,0.4864402413368225,2.2488436698913574,-0.13858358561992645,0.0,0.0,0.0,0.0,0.0,0.0,0.0,0.13746813967725666,0.4479157389855658,0.32471376995538753,0.33378518598334966,0.07022908696171422,0.0538489236185191,-0.184985754218141,-0.609167803459,-0.05744816618687228,-0.6666505503067652,-2.5945537190018864,-0.0556221490203733,2.507974935348159,0.8763115602969489,-0.6090851748156966,-0.05753196718556838,-0.666603097082616,-2.5945565370258534,-0.05562143941554,2.507976027223799,0.8763108487046415,-7.363701733544639e-05,-0.0006875963555768375,0.0009763206739905422,-0.0003633251924135001,0.0005003691206041787,0.00011933504222987729,-0.0017786530747852113,0.0,0.0,0.0,0.0,0.0,0.0,0.0,8.262864330343955e-05,-8.380099869609997e-05,4.745322414922981e-05,-2.8180239670660967e-06,7.096048333030125e-07,1.0918756401245844e-06,-7.115923074119124e-07,7.363701733544639e-05,0.0006875963555768375,-0.0009763206739905422,0.0003633251924135001,-0.0005003691206041787,-0.00011933504222987729,0.0017786530747852113,-0.16037636995315552,18.253320693969727,-1.1164276599884033,-17.999910354614258,-0.4864402413368225,-2.2488436698913574,0.13858358561992645,0
4,0.015006303787231445,0.16037636995315552,-18.277124404907227,1.1680023670196533,17.972139358520508,0.5102439522743225,2.2488436698913574,-0.17337362468242645,0.0,0.0,0.0,0.0,0.0,0.0,0.0,0.1328203907871651,0.39225637678626607,0.3195581613775492,0.3592523930188806,0.07112771184424349,0.058300070820504105,-0.18442590289637026,-0.609167803459,-0.05744649575101702,-0.666654178251251,-2.594551028413382,-0.055624795551848134,2.5079749516223235,0.8763154263413587,-0.6090851748156966,-0.05753196718556838,-0.666603097082616,-2.5945565370258534,-0.05562143941554,2.507976027223799,0.8763108487046415,0.00017973608614676946,-0.0007167560944844268,-0.00046341750226294265,0.00026652510858519985,-0.0006112963279649843,-0.0003944155651813459,-0.0008298688115765304,0.0,0.0,0.0,0.0,0.0,0.0,0.0,8.262864330343955e-05,-8.54714345513638e-05,5.1081168634947716e-05,-5.508612471505359e-06,3.3561363081344164e-06,1.0756014754420562e-06,-4.577636717240097e-06,-0.00017973608614676946,0.0007167560944844268,0.00046341750226294265,-0.00026652510858519985,0.0006112963279649843,0.0003944155651813459,0.0008298688115765304,-0.16037636995315552,18.277124404907227,-1.1680023670196533,-17.972139358520508,-0.5102439522743225,-2.2488436698913574,0.17337362468242645,0
5,0.020023345947265625,0.16037636995315552,-18.277124404907227,1.1680023670196533,17.972139358520508,0.5102439522743225,2.2488436698913574,-0.17337362468242645,0.0,0.0,0.0,0.0,0.0,0.0,0.0,0.1328203907871651,0.39225637678626607,0.3195581613775492,0.3592523930188806,0.07112771184424349,0.058300070820504105,-0.18442590289637026,-0.609167803459,-0.05744649575101702,-0.666654178251251,-2.594551028413382,-0.055624795551848134,2.5079749516223235,0.8763154263413587,-0.6090851748156966,-0.05753196718556838,-0.666603097082616,-2.5945565370258534,-0.05562143941554,2.507976027223799,0.8763108487046415,0.00017973608614676946,-0.0007167560944844268,-0.00046341750226294265,0.00026652510858519985,-0.0006112963279649843,-0.0003944155651813459,-0.0008298688115765304,0.0,0.0,0.0,0.0,0.0,0.0,0.0,8.262864330343955e-05,-8.54714345513638e-05,5.1081168634947716e-05,-5.508612471505359e-06,3.3561363081344164e-06,1.0756014754420562e-06,-4.577636717240097e-06,-0.00017973608614676946,0.0007167560944844268,0.00046341750226294265,-0.00026652510858519985,0.0006112963279649843,0.0003944155651813459,0.0008298688115765304,-0.16037636995315552,18.277124404907227,-1.1680023670196533,-17.972139358520508,-0.5102439522743225,-2.2488436698913574,0.17337362468242645,0
6,0.025004148483276367,0.10880166292190552,-18.328699111938477,1.1441986560821533,17.999910354614258,0.4928489327430725,2.2424349784851074,-0.22098104655742645,0.0,0.0,0.0,0.0,0.0,0.0,0.0,0.13049151671295875,0.3803789786221108,0.3157472403090901,0.35935150518443676,0.0716153593332979,0.05811087127345887,-0.1840933040712787,-0.6091641841813137,-0.057442876473330615,-0.6666525078154447,-2.5945537188888497,-0.05562213983976248,2.5079735676644725,0.876320716054903,-0.6090851748156966,-0.05753196718556838,-0.666603097082616,-2.5945565370258534,-0.05562143941554,2.507976027223799,0.8763108487046415,0.0007711973262651944,-7.848098563168195e-06,-0.00021908916145550633,-0.0008871957292992611,2.3111408907643242e-05,-0.00022453016650614865,0.0017117870796447049,0.0,0.0,0.0,0.0,0.0,0.0,0.0,7.900936561711092e-05,-8.909071223776877e-05,4.941073282871411e-05,-2.818137003757215e-06,7.004242224828428e-07,2.4595593264287174e-06,-9.867350261538732e-06,-0.0007711973262651944,7.848098563168195e-06,0.00021908916145550633,0.0008871957292992611,-2.3111408907643242e-05,0.00022453016650614865,-0.0017117870796447049,-0.10880166292190552,18.328699111938477,-1.1441986560821533,-17.999910354614258,-0.4928489327430725,-2.2424349784851074,0.22098104655742645,0
7,0.029999256134033203,0.10880166292190552,-18.328699111938477,1.1441986560821533,17.999910354614258,0.4928489327430725,2.2424349784851074,-0.22098104655742645,0.0,0.0,0.0,0.0,0.0,0.0,0.0,0.13049151671295875,0.3803789786221108,0.3157472403090901,0.35935150518443676,0.0716153593332979,0.05811087127345887,-0.1840933040712787,-0.6091641841813137,-0.057442876473330615,-0.6666525078154447,-2.5945537188888497,-0.05562213983976248,2.5079735676644725,0.876320716054903,-0.6090851748156966,-0.05753196718556838,-0.666603097082616,-2.5945565370258534,-0.05562143941554,2.507976027223799,0.8763108487046415,0.0007711973262651944,-7.848098563168195e-06,-0.00021908916145550633,-0.0008871957292992611,2.3111408907643242e-05,-0.00022453016650614865,0.0017117870796447049,0.0,0.0,0.0,0.0,0.0,0.0,0.0,7.900936561711092e-05,-8.909071223776877e-05,4.941073282871411e-05,-2.818137003757215e-06,7.004242224828428e-07,2.4595593264287174e-06,-9.867350261538732e-06,-0.0007711973262651944,7.848098563168195e-06,0.00021908916145550633,0.0008871957292992611,-2.3111408907643242e-05,0.00022453016650614865,-0.0017117870796447049,-0.10880166292190552,18.328699111938477,-1.1441986560821533,-17.999910354614258,-0.4928489327430725,-2.2424349784851074,0.22098104655742645,0
8,0.03503680229187012,0.13260537385940552,-18.328699111938477,1.1164276599884033,17.999910354614258,0.4983420968055725,2.2424349784851074,-0.15231649577617645,0.0,0.0,0.0,0.0,0.0,0.0,0.0,0.13152331759321367,0.3755265905578859,0.31886006368499586,0.35560246109948224,0.07186437323503118,0.05840209531359304,-0.1841396723821567,-0.6091658546171689,-0.057442876473330615,-0.6666505589696508,-2.594553718964219,-0.05562378839509979,2.507975645826543,0.8763130866603718,-0.6090851748156966,-0.05753196718556838,-0.666603097082616,-2.5945565370258534,-0.05562143941554,2.507976027223799,0.8763108487046415,-0.000746747778687654,0.0009087291486662005,0.00028142248491779475,-0.00012348443197380616,-0.0002323285691571095,0.00021385185954414662,-0.001408528116842187,0.0,0.0,0.0,0.0,0.0,0.0,0.0,8.067980147230536e-05,-8.909071223776877e-05,4.746188703474985e-05,-2.818061634268787e-06,2.3489795597866903e-06,3.8139725599961594e-07,-2.237955730288732e-06,0.000746747778687654,-0.0009087291486662005,-0.00028142248491779475,0.00012348443197380616,0.0002323285691571095,-0.00021385185954414662,0.001408528116842187,-0.13260537385940552,18.328699111938477,-1.1164276599884033,-17.999910354614258,-0.4983420968055725,-2.2424349784851074,0.15231649577617645,0
9,0.03999686241149902,0.13260537385940552,-18.328699111938477,1.1164276599884033,17.999910354614258,0.4983420968055725,2.2424349784851074,-0.15231649577617645,0.0,0.0,0.0,0.0,0.0,0.0,0.0,0.13152331759321367,0.3755265905578859,0.31886006368499586,0.35560246109948224,0.07186437323503118,0.05840209531359304,-0.1841396723821567,-0.6091658546171689,-0.057442876473330615,-0.6666505589696508,-2.594553718964219,-0.05562378839509979,2.507975645826543,0.8763130866603718,-0.6090851748156966,-0.05753196718556838,-0.666603097082616,-2.5945565370258534,-0.05562143941554,2.507976027223799,0.8763108487046415,-0.000746747778687654,0.0009087291486662005,0.00028142248491779475,-0.00012348443197380616,-0.0002323285691571095,0.00021385185954414662,-0.001408528116842187,0.0,0.0,0.0,0.0,0.0,0.0,0.0,8.067980147230536e-05,-8.909071223776877e-05,4.746188703474985e-05,-2.818061634268787e-06,2.3489795597866903e-06,3.8139725599961594e-07,-2.237955730288732e-06,0.000746747778687654,-0.0009087291486662005,-0.00028142248491779475,0.00012348443197380616,0.0002323285691571095,-0.00021385185954414662,0.001408528116842187,-0.13260537385940552,18.328699111938477,-1.1164276599884033,-17.999910354614258,-0.4983420968055725,-2.2424349784851074,0.15231649577617645,0
10,0.04563546180725098,0.10880166292190552,-18.304895401000977,1.1164276599884033,17.948335647583008,0.4928489327430725,2.2232089042663574,-0.13858358561992645,0.0,0.0,0.0,0.0,0.0,0.0,0.0,0.1336440183104047,0.37116727179210524,0.3213697587917987,0.3512398733374205,0.07111822248197334,0.05850362086982538,-0.18412341952610195,-0.6091641841813137,-0.05744454690918588,-0.6666498569633529,-2.5945500997242177,-0.05562215301902051,2.5079747733568545,0.8763115606199601,-0.6090851748156966,-0.05753196718556838,-0.666603097082616,-2.5945565370258534,-0.05562143941554,2.507976027223799,0.8763108487046415,0.00042720945806895317,0.00036714151015453534,0.00020506542809716928,0.0005094264765817598,0.0001454025366605512,0.00039078815618716985,-0.0015834866476018977,0.0,0.0,0.0,0.0,0.0,0.0,0.0,7.900936561711092e-05,-8.742027638250494e-05,4.6759880736879644e-05,-6.4373016357421875e-06,7.136034805080294e-07,1.2538669444950301e-06,-7.119153185852767e-07,-0.00042720945806895317,-0.00036714151015453534,-0.00020506542809716928,-0.0005094264765817598,-0.0001454025366605512,-0.00039078815618716985,0.0015834866476018977,-0.10880166292190552,18.304895401000977,-1.1164276599884033,-17.948335647583008,-0.4928489327430725,-2.2232089042663574,0.13858358561992645,0
11,0.04999709129333496,0.10880166292190552,-18.304895401000977,1.1164276599884033,17.948335647583008,0.4928489327430725,2.2232089042663574,-0.13858358561992645,0.0,0.0,0.0,0.0,0.0,0.0,0.0,0.1336440183104047,0.37116727179210524,0.3213697587917987,0.3512398733374205,0.07111822248197334,0.05850362086982538,-0.18412341952610195,-0.6091641841813137,-0.05744454690918588,-0.6666498569633529,-2.5945500997242177,-0.05562215301902051,2.5079747733568545,0.8763115606199601,-0.6090851748156966,-0.05753196718556838,-0.666603097082616,-2.5945565370258534,-0.05562143941554,2.507976027223799,0.8763108487046415,0.00042720945806895317,0.00036714151015453534,0.00020506542809716928,0.0005094264765817598,0.0001454025366605512,0.00039078815618716985,-0.0015834866476018977,0.0,0.0,0.0,0.0,0.0,0.0,0.0,7.900936561711092e-05,-8.742027638250494e-05,4.6759880736879644e-05,-6.4373016357421875e-06,7.136034805080294e-07,1.2538669444950301e-06,-7.119153185852767e-07,-0.00042720945806895317,-0.00036714151015453534,-0.00020506542809716928,-0.0005094264765817598,-0.0001454025366605512,-0.00039078815618716985,0.0015834866476018977,-0.10880166292190552,18.304895401000977,-1.1164276599884033,-17.948335647583008,-0.4928489327430725,-2.2232089042663574,0.13858358561992645,0
12,0.05499863624572754,0.10880166292190552,-18.229516983032227,1.0688202381134033,18.023714065551758,0.5047507882118225,2.2360262870788574,-0.15231649577617645,0.0,0.0,0.0,0.0,0.0,0.0,0.0,0.11974183701319666,0.3809172499939035,0.3079673447772614,0.3476142499209841,0.0712903509329,0.055997052159640175,-0.1831332739272739,-0.6091641841813137,-0.05744983662272755,-0.6666444100568973,-2.5945553863853035,-0.055624526921409,2.507976357993362,0.8763130866603709,-0.6090851748156966,-0.05753196718556838,-0.666603097082616,-2.5945565370258534,-0.05562143941554,2.507976027223799,0.8763108487046415,-0.0009487846221560056,-8.01408756229943e-06,0.00041491835969283223,-0.0013974088325886722,-0.0002906880329229422,0.00012027305239943426,-0.0013555183940448421,0.0,0.0,0.0,0.0,0.0,0.0,0.0,7.900936561711092e-05,-8.213056284083614e-05,4.1312974281337844e-05,-1.1506405499517314e-06,3.087505868998308e-06,-3.30769562850719e-07,-2.2379557294005537e-06,0.0009487846221560056,8.01408756229943e-06,-0.00041491835969283223,0.0013974088325886722,0.0002906880329229422,-0.00012027305239943426,0.0013555183940448421,-0.10880166292190552,18.229516983032227,-1.0688202381134033,-18.023714065551758,-0.5047507882118225,-2.2360262870788574,0.15231649577617645,0
13,0.05999946594238281,0.10880166292190552,-18.229516983032227,1.0688202381134033,18.023714065551758,0.5047507882118225,2.2360262870788574,-0.15231649577617645,0.0,0.0,0.0,0.0,0.0,0.0,0.0,0.11974183701319666,0.3809172499939035,0.3079673447772614,0.3476142499209841,0.0712903509329,0.055997052159640175,-0.1831332739272739,-0.6091641841813137,-0.05744983662272755,-0.6666444100568973,-2.5945553863853035,-0.055624526921409,2.507976357993362,0.8763130866603709,-0.6090851748156966,-0.05753196718556838,-0.666603097082616,-2.5945565370258534,-0.05562143941554,2.507976027223799,0.8763108487046415,-0.0009487846221560056,-8.01408756229943e-06,0.00041491835969283223,-0.0013974088325886722,-0.0002906880329229422,0.00012027305239943426,-0.0013555183940448421,0.0,0.0,0.0,0.0,0.0,0.0,0.0,7.900936561711092e-05,-8.213056284083614e-05,4.1312974281337844e-05,-1.1506405499517314e-06,3.087505868998308e-06,-3.30769562850719e-07,-2.2379557294005537e-06,0.0009487846221560056,8.01408756229943e-06,-0.00041491835969283223,0.0013974088325886722,0.0002906880329229422,-0.00012027305239943426,0.0013555183940448421,-0.10880166292190552,18.229516983032227,-1.0688202381134033,-18.023714065551758,-0.5047507882118225,-2.2360262870788574,0.15231649577617645,0
14,0.06499958038330078,0.10880166292190552,-18.229516983032227,1.0688202381134033,18.023714065551758,0.5047507882118225,2.2360262870788574,-0.15231649577617645,0.0,0.0,0.0,0.0,0.0,0.0,0.0,0.11974183701319666,0.3809172499939035,0.3079673447772614,0.3476142499209841,0.0712903509329,0.055997052159640175,-0.1831332739272739,-0.6091641841813137,-0.05744983662272755,-0.6666444100568973,-2.5945553863853035,-0.055624526921409,2.507976357993362,0.8763130866603709,-0.6090851748156966,-0.05753196718556838,-0.666603097082616,-2.5945565370258534,-0.05562143941554,2.507976027223799,0.8763108487046415,-0.0009487846221560056,-8.01408756229943e-06,0.00041491835969283223,-0.0013974088325886722,-0.0002906880329229422,0.00012027305239943426,-0.0013555183940448421,0.0,0.0,0.0,0.0,0.0,0.0,0.0,7.900936561711092e-05,-8.213056284083614e-05,4.1312974281337844e-05,-1.1506405499517314e-06,3.087505868998308e-06,-3.30769562850719e-07,-2.2379557294005537e-06,0.0009487846221560056,8.01408756229943e-06,-0.00041491835969283223,0.0013974088325886722,0.0002906880329229422,-0.00012027305239943426,0.0013555183940448421,-0.10880166292190552,18.229516983032227,-1.0688202381134033,-18.023714065551758,-0.5047507882118225,-2.2360262870788574,0.15231649577617645,0
15,0.06999588012695312,0.10880166292190552,-18.229516983032227,1.0688202381134033,18.023714065551758,0.5047507882118225,2.2360262870788574,-0.15231649577617645,0.0,0.0,0.0,0.0,0.0,0.0,0.0,0.11974183701319666,0.3809172499939035,0.3079673447772614,0.3476142499209841,0.0712903509329,0.055997052159640175,-0.1831332739272739,-0.6091641841813137,-0.05744983662272755,-0.6666444100568973,-2.5945553863853035,-0.055624526921409,2.507976357993362,0.8763130866603709,-0.6090851748156966,-0.05753196718556838,-0.666603097082616,-2.5945565370258534,-0.05562143941554,2.507976027223799,0.8763108487046415,-0.0009487846221560056,-8.01408756229943e-06,0.00041491835969283223,-0.0013974088325886722,-0.0002906880329229422,0.00012027305239943426,-0.0013555183940448421,0.0,0.0,0.0,0.0,0.0,0.0,0.0,7.900936561711092e-05,-8.213056284083614e-05,4.1312974281337844e-05,-1.1506405499517314e-06,3.087505868998308e-06,-3.30769562850719e-07,-2.2379557294005537e-06,0.0009487846221560056,8.01408756229943e-06,-0.00041491835969283223,0.0013974088325886722,0.0002906880329229422,-0.00012027305239943426,0.0013555183940448421,-0.10880166292190552,18.229516983032227,-1.0688202381134033,-18.023714065551758,-0.5047507882118225,-2.2360262870788574,0.15231649577617645,0
16,0.07502126693725586,0.13260537385940552,-18.177942276000977,1.0926239490509033,17.972139358520508,0.5102439522743225,2.2552523612976074,-0.15964071452617645,0.0,0.0,0.0,0.0,0.0,0.0,0.0,0.12559606370973253,0.3882437509092072,0.3140589667363967,0.3524979927041202,0.07087867460462634,0.0565019866995191,-0.18293026529924666,-0.6091658546171689,-0.057453455900413945,-0.6666488798551135,-2.594549544882299,-0.05562503213271618,2.5079710601465877,0.876310721548067,-0.6090851748156966,-0.05753196718556838,-0.666603097082616,-2.5945565370258534,-0.05562143941554,2.507976027223799,0.8763108487046415,-0.00024212129947553748,-0.0010380671154026579,8.362883114391391e-05,0.00027989339703620645,-0.0007543119386445834,-0.0004765552174764492,-0.0012422803799034942,0.0,0.0,0.0,0.0,0.0,0.0,0.0,8.067980147230536e-05,-7.851128515443812e-05,4.578277249744911e-05,-6.992143554374053e-06,3.592717176183202e-06,4.967077211315285e-06,1.2715657449202666e-07,0.00024212129947553748,0.0010380671154026579,-8.362883114391391e-05,-0.00027989339703620645,0.0007543119386445834,0.0004765552174764492,0.0012422803799034942,-0.13260537385940552,18.177942276000977,-1.0926239490509033,-17.972139358520508,-0.5102439522743225,-2.2552523612976074,0.15964071452617645,0
17,0.08000493049621582,0.13260537385940552,-18.177942276000977,1.0926239490509033,17.972139358520508,0.5102439522743225,2.2552523612976074,-0.15964071452617645,0.0,0.0,0.0,0.0,0.0,0.0,0.0,0.12559606370973253,0.3882437509092072,0.3140589667363967,0.3524979927041202,0.07087867460462634,0.0565019866995191,-0.18293026529924666,-0.6091658546171689,-0.057453455900413945,-0.6666488798551135,-2.594549544882299,-0.05562503213271618,2.5079710601465877,0.876310721548067,-0.6090851748156966,-0.05753196718556838,-0.666603097082616,-2.5945565370258534,-0.05562143941554,2.507976027223799,0.8763108487046415,-0.00024212129947553748,-0.0010380671154026579,8.362883114391391e-05,0.00027989339703620645,-0.0007543119386445834,-0.0004765552174764492,-0.0012422803799034942,0.0,0.0,0.0,0.0,0.0,0.0,0.0,8.067980147230536e-05,-7.851128515443812e-05,4.578277249744911e-05,-6.992143554374053e-06,3.592717176183202e-06,4.967077211315285e-06,1.2715657449202666e-07,0.00024212129947553748,0.0010380671154026579,-8.362883114391391e-05,-0.00027989339703620645,0.0007543119386445834,0.0004765552174764492,0.0012422803799034942,-0.13260537385940552,18.177942276000977,-1.0926239490509033,-17.972139358520508,-0.5102439522743225,-2.2552523612976074,0.15964071452617645,0
18,0.08501052856445312,0.18418008089065552,-18.304895401000977,1.1164276599884033,17.972139358520508,0.4928489327430725,2.2424349784851074,-0.17978231608867645,0.0,0.0,0.0,0.0,0.0,0.0,0.0,0.12723648030724158,0.39377738433742643,0.31259404376709277,0.3543213508938043,0.07067835252945982,0.05725723028805134,-0.18249805742035077,-0.6091694738948553,-0.05744454690918588,-0.6666505588665671,-2.5945515228986142,-0.05562321764163953,2.5079724844977265,0.8763129594858512,-0.6090851748156966,-0.05753196718556838,-0.666603097082616,-2.5945565370258534,-0.05562143941554,2.507976027223799,0.8763108487046415,-0.0006539265732024938,0.0013206281975295896,0.0006190228518550993,-0.0001637728426416233,0.000169683763232711,-0.0003396023536683523,-0.0002976052077810064,0.0,0.0,0.0,0.0,0.0,0.0,0.0,8.429907915874502e-05,-8.742027638250494e-05,4.7461783951097125e-05,-5.014127239189037e-06,1.778226099528879e-06,3.542726072502944e-06,-2.110781209707646e-06,0.0006539265732024938,-0.0013206281975295896,-0.0006190228518550993,0.0001637728426416233,-0.000169683763232711,0.0003396023536683523,0.0002976052077810064,-0.18418008089065552,18.304895401000977,-1.1164276599884033,-17.972139358520508,-0.4928489327430725,-2.2424349784851074,0.17978231608867645,0
19,0.09000039100646973,0.18418008089065552,-18.304895401000977,1.1164276599884033,17.972139358520508,0.4928489327430725,2.2424349784851074,-0.17978231608867645,0.0,0.0,0.0,0.0,0.0,0.0,0.0,0.12723648030724158,0.39377738433742643,0.31259404376709277,0.3543213508938043,0.07067835252945982,0.05725723028805134,-0.18249805742035077,-0.6091694738948553,-0.05744454690918588,-0.6666505588665671,-2.5945515228986142,-0.05562321764163953,2.5079724844977265,0.8763129594858512,-0.6090851748156966,-0.05753196718556838,-0.666603097082616,-2.5945565370258534,-0.05562143941554,2.507976027223799,0.8763108487046415,-0.0006539265732024938,0.0013206281975295896,0.0006190228518550993,-0.0001637728426416233,0.000169683763232711,-0.0003396023536683523,-0.0002976052077810064,0.0,0.0,0.0,0.0,0.0,0.0,0.0,8.429907915874502e-05,-8.742027638250494e-05,4.7461783951097125e-05,-5.014127239189037e-06,1.778226099528879e-06,3.542726072502944e-06,-2.110781209707646e-06,0.0006539265732024938,-0.0013206281975295896,-0.0006190228518550993,0.0001637728426416233,-0.000169683763232711,0.0003396023536683523,0.0002976052077810064,-0.18418008089065552,18.304895401000977,-1.1164276599884033,-17.972139358520508,-0.4928489327430725,-2.2424349784851074,0.17978231608867645,0
20,0.09511375427246094,0.16037636995315552,-18.304895401000977,1.1918060779571533,18.047517776489258,0.4983420968055725,2.2424349784851074,-0.15964071452617645,0.0,0.0,0.0,0.0,0.0,0.0,0.0,0.129980378328336,0.3916061149155405,0.3144692413605234,0.35457976711884104,0.07118992267610262,0.05675778819611435,-0.18277285500210586,-0.609167803459,-0.05744454690918588,-0.666653742549375,-2.5945570598722187,-0.05562377542077431,2.5079756503301636,0.87631378270694,-0.6090851748156966,-0.05753196718556838,-0.666603097082616,-2.5945565370258534,-0.05562143941554,2.507976027223799,0.8763108487046415,0.0004188177030012575,-0.00010813499905811574,-0.0007499288067809073,-0.0017596997445679203,-0.0001574593667957934,-9.17185091601345e-06,-0.0005261972965038338,0.0,0.0,0.0,0.0,0.0,0.0,0.0,8.262864330343955e-05,-8.742027638250494e-05,5.064546675903614e-05,5.22846365313967e-07,2.3360052343116e-06,3.7689363541204557e-07,-2.934002298560223e-06,-0.0004188177030012575,0.00010813499905811574,0.0007499288067809073,0.0017596997445679203,0.0001574593667957934,9.17185091601345e-06,0.0005261972965038338,-0.16037636995315552,18.304895401000977,-1.1918060779571533,-18.047517776489258,-0.4983420968055725,-2.2424349784851074,0.15964071452617645,0
21,0.09999775886535645,0.16037636995315552,-18.304895401000977,1.1918060779571533,18.047517776489258,0.4983420968055725,2.2424349784851074,-0.15964071452617645,0.0,0.0,0.0,0.0,0.0,0.0,0.0,0.129980378328336,0.3916061149155405,0.3144692413605234,0.35457976711884104,0.07118992267610262,0.05675778819611435,-0.18277285500210586,-0.609167803459,-0.05744454690918588,-0.666653742549375,-2.5945570598722187,-0.05562377542077431,2.5079756503301636,0.87631378270694,-0.6090851748156966,-0.05753196718556838,-0.666603097082616,-2.5945565370258534,-0.05562143941554,2.507976027223799,0.8763108487046415,0.0004188177030012575,-0.00010813499905811574,-0.0007499288067809073,-0.0017596997445679203,-0.0001574593667957934,-9.17185091601345e-06,-0.0005261972965038338,0.0,0.0,0.0,0.0,0.0,0.0,0.0,8.262864330343955e-05,-8.742027638250494e-05,5.064546675903614e-05,5.22846365313967e-07,2.3360052343116e-06,3.7689363541204557e-07,-2.934002298560223e-06,-0.0004188177030012575,0.00010813499905811574,0.0007499288067809073,0.0017596997445679203,0.0001574593667957934,9.17185091601345e-06,0.0005261972965038338,-0.16037636995315552,18.304895401000977,-1.1918060779571533,-18.047517776489258,-0.4983420968055725,-2.2424349784851074,0.15964071452617645,0
22,0.10499787330627441,0.21195107698440552,-18.328699111938477,1.1680023670196533,18.023714065551758,0.4983420968055725,2.2488436698913574,-0.13858358561992645,0.0,0.0,0.0,0.0,0.0,0.0,0.0,0.1361392900048816,0.3900723998524443,0.317719187517515,0.35112966279223556,0.07160871449921029,0.05737505394818684,-0.18300223234593663,-0.6091714227366865,-0.057442876473330615,-0.6666541782394108,-2.594555389437759,-0.055623827993572995,2.5079759976940004,0.8763112075680911,-0.6090851748156966,-0.05753196718556838,-0.666603097082616,-2.5945565370258534,-0.05562143941554,2.507976027223799,0.8763108487046415,-0.000604508910313255,0.0005838460639310332,-0.00023736275396172126,-0.0009561040221047713,-5.2654596105622926e-05,0.0004489604526146308,-0.0021510463453857666,0.0,0.0,0.0,0.0,0.0,0.0,0.0,8.624792098987921e-05,-8.909071223776877e-05,5.1081156794752225e-05,-1.147588094330132e-06,2.3885780329954698e-06,2.9529798606375834e-08,-3.588634496232146e-07,0.000604508910313255,-0.0005838460639310332,0.00023736275396172126,0.0009561040221047713,5.2654596105622926e-05,-0.0004489604526146308,0.0021510463453857666,-0.21195107698440552,18.328699111938477,-1.1680023670196533,-18.023714065551758,-0.4983420968055725,-2.2488436698913574,0.13858358561992645,0
23,0.1100015640258789,0.21195107698440552,-18.328699111938477,1.1680023670196533,18.023714065551758,0.4983420968055725,2.2488436698913574,-0.13858358561992645,0.0,0.0,0.0,0.0,0.0,0.0,0.0,0.1361392900048816,0.3900723998524443,0.317719187517515,0.35112966279223556,0.07160871449921029,0.05737505394818684,-0.18300223234593663,-0.6091714227366865,-0.057442876473330615,-0.6666541782394108,-2.594555389437759,-0.055623827993572995,2.5079759976940004,0.8763112075680911,-0.6090851748156966,-0.05753196718556838,-0.666603097082616,-2.5945565370258534,-0.05562143941554,2.507976027223799,0.8763108487046415,-0.000604508910313255,0.0005838460639310332,-0.00023736275396172126,-0.0009561040221047713,-5.2654596105622926e-05,0.0004489604526146308,-0.0021510463453857666,0.0,0.0,0.0,0.0,0.0,0.0,0.0,8.624792098987921e-05,-8.909071223776877e-05,5.1081156794752225e-05,-1.147588094330132e-06,2.3885780329954698e-06,2.9529798606375834e-08,-3.588634496232146e-07,0.000604508910313255,-0.0005838460639310332,0.00023736275396172126,0.0009561040221047713,5.2654596105622926e-05,-0.0004489604526146308,0.0021510463453857666,-0.21195107698440552,18.328699111938477,-1.1680023670196533,-18.023714065551758,-0.4983420968055725,-2.2488436698913574,0.13858358561992645,0
24,0.11500024795532227,0.16037636995315552,-18.253320693969727,1.1441986560821533,17.999910354614258,0.5047507882118225,2.2296175956726074,-0.16604940593242645,0.0,0.0,0.0,0.0,0.0,0.0,0.0,0.1377664318723986,0.38536322916590776,0.31657019330654196,0.34814242005108326,0.0721265015904477,0.05833834206242927,-0.1825457928881687,-0.609167803459,-0.05744816618687228,-0.6666525078154446,-2.5945537190019037,-0.05562448603723347,2.5079744075121355,0.8763114335690609,-0.6090851748156966,-0.05753196718556838,-0.666603097082616,-2.5945565370258534,-0.05562143941554,2.507976027223799,0.8763108487046415,-0.0005142085414765755,-0.0012285496562421448,0.00015205313146644537,-0.0005877856446846302,-0.00035878936234549875,0.00025423061395765575,-0.0007452526726787172,0.0,0.0,0.0,0.0,0.0,0.0,0.0,8.262864330343955e-05,-8.380099869609997e-05,4.941073282860309e-05,-2.8180239497466175e-06,3.046621693467144e-06,1.619711663458645e-06,-5.848644194506036e-07,0.0005142085414765755,0.0012285496562421448,-0.00015205313146644537,0.0005877856446846302,0.00035878936234549875,-0.00025423061395765575,0.0007452526726787172,-0.16037636995315552,18.253320693969727,-1.1441986560821533,-17.999910354614258,-0.5047507882118225,-2.2296175956726074,0.16604940593242645,0
25,0.12000107765197754,0.16037636995315552,-18.253320693969727,1.1441986560821533,17.999910354614258,0.5047507882118225,2.2296175956726074,-0.16604940593242645,0.0,0.0,0.0,0.0,0.0,0.0,0.0,0.1377664318723986,0.38536322916590776,0.31657019330654196,0.34814242005108326,0.0721265015904477,0.05833834206242927,-0.1825457928881687,-0.609167803459,-0.05744816618687228,-0.6666525078154446,-2.5945537190019037,-0.05562448603723347,2.5079744075121355,0.8763114335690609,-0.6090851748156966,-0.05753196718556838,-0.666603097082616,-2.5945565370258534,-0.05562143941554,2.507976027223799,0.8763108487046415,-0.0005142085414765755,-0.0012285496562421448,0.00015205313146644537,-0.0005877856446846302,-0.00035878936234549875,0.00025423061395765575,-0.0007452526726787172,0.0,0.0,0.0,0.0,0.0,0.0,0.0,8.262864330343955e-05,-8.380099869609997e-05,4.941073282860309e-05,-2.8180239497466175e-06,3.046621693467144e-06,1.619711663458645e-06,-5.848644194506036e-07,0.0005142085414765755,0.0012285496562421448,-0.00015205313146644537,0.0005877856446846302,0.00035878936234549875,-0.00025423061395765575,0.0007452526726787172,-0.16037636995315552,18.253320693969727,-1.1441986560821533,-17.999910354614258,-0.5047507882118225,-2.2296175956726074,0.16604940593242645,0
26,0.12499785423278809,0.10880166292190552,-18.205713272094727,1.1441986560821533,17.948335647583008,0.4983420968055725,2.2360262870788574,-0.16604940593242645,0.0,0.0,0.0,0.0,0.0,0.0,0.0,0.1429023368151609,0.38954151871719706,0.32331018185227056,0.34900956231117325,0.07212729420042624,0.05729311859177654,-0.18257377456022847,-0.6091641841813137,-0.05745150705858281,-0.6666525049265136,-2.5945500997242177,-0.05562382783130211,2.5079777728380575,0.8763113158693747,-0.6090851748156966,-0.05753196718556838,-0.666603097082616,-2.5945565370258534,-0.05562143941554,2.507976027223799,0.8763108487046415,0.00032085578378950513,-0.0010760866500308978,-0.0005559357356131236,0.0006503732708582935,-0.000256140896921473,0.00026618493879870884,-0.0009088787219909536,0.0,0.0,0.0,0.0,0.0,0.0,0.0,7.900936561711092e-05,-8.046012698557231e-05,4.940784389761976e-05,-6.4373016357421875e-06,2.38841576211124e-06,-1.745614258474859e-06,-4.6716473323105134e-07,-0.00032085578378950513,0.0010760866500308978,0.0005559357356131236,-0.0006503732708582935,0.000256140896921473,-0.00026618493879870884,0.0009088787219909536,-0.10880166292190552,18.205713272094727,-1.1441986560821533,-17.948335647583008,-0.4983420968055725,-2.2360262870788574,0.16604940593242645,0
27,0.12999963760375977,0.10880166292190552,-18.205713272094727,1.1441986560821533,17.948335647583008,0.4983420968055725,2.2360262870788574,-0.16604940593242645,0.0,0.0,0.0,0.0,0.0,0.0,0.0,0.1429023368151609,0.38954151871719706,0.32331018185227056,0.34900956231117325,0.07212729420042624,0.05729311859177654,-0.18257377456022847,-0.6091641841813137,-0.05745150705858281,-0.6666525049265136,-2.5945500997242177,-0.05562382783130211,2.5079777728380575,0.8763113158693747,-0.6090851748156966,-0.05753196718556838,-0.666603097082616,-2.5945565370258534,-0.05562143941554,2.507976027223799,0.8763108487046415,0.00032085578378950513,-0.0010760866500308978,-0.0005559357356131236,0.0006503732708582935,-0.000256140896921473,0.00026618493879870884,-0.0009088787219909536,0.0,0.0,0.0,0.0,0.0,0.0,0.0,7.900936561711092e-05,-8.046012698557231e-05,4.940784389761976e-05,-6.4373016357421875e-06,2.38841576211124e-06,-1.745614258474859e-06,-4.6716473323105134e-07,-0.00032085578378950513,0.0010760866500308978,0.0005559357356131236,-0.0006503732708582935,0.000256140896921473,-0.00026618493879870884,0.0009088787219909536,-0.10880166292190552,18.205713272094727,-1.1441986560821533,-17.948335647583008,-0.4983420968055725,-2.2360262870788574,0.16604940593242645,0
28,0.13499832153320312,0.08103066682815552,-18.229516983032227,1.0926239490509033,17.999910354614258,0.4928489327430725,2.2424349784851074,-0.17337362468242645,0.0,0.0,0.0,0.0,0.0,0.0,0.0,0.13457689183079738,0.3924186505214554,0.3161540751378316,0.3528235976433657,0.07212188204124943,0.05808209608800556,-0.18406368735503492,-0.6091622353394825,-0.05744983662272755,-0.6666488875390991,-2.5945537098445373,-0.055622153037123284,2.507975663222608,0.8763154219621009,-0.6090851748156966,-0.05753196718556838,-0.666603097082616,-2.5945565370258534,-0.05562143941554,2.507976027223799,0.8763108487046415,6.314927748622459e-05,-8.895107327159538e-06,0.0003270212846693895,-0.000591023930612336,0.00022216576056820412,0.000157710997394486,-0.00032555801296017546,0.0,0.0,0.0,0.0,0.0,0.0,0.0,7.706052378597672e-05,-8.213056284083614e-05,4.579045648311908e-05,-2.8271813161673265e-06,7.136215832842518e-07,3.640011909666896e-07,-4.573257459394853e-06,-6.314927748622459e-05,8.895107327159538e-06,-0.0003270212846693895,0.000591023930612336,-0.00022216576056820412,-0.000157710997394486,0.00032555801296017546,-0.08103066682815552,18.229516983032227,-1.0926239490509033,-17.999910354614258,-0.4928489327430725,-2.2424349784851074,0.17337362468242645,0
29,0.1399986743927002,0.08103066682815552,-18.229516983032227,1.0926239490509033,17.999910354614258,0.4928489327430725,2.2424349784851074,-0.17337362468242645,0.0,0.0,0.0,0.0,0.0,0.0,0.0,0.13457689183079738,0.3924186505214554,0.3161540751378316,0.3528235976433657,0.07212188204124943,0.05808209608800556,-0.18406368735503492,-0.6091622353394825,-0.05744983662272755,-0.6666488875390991,-2.5945537098445373,-0.055622153037123284,2.507975663222608,0.8763154219621009,-0.6090851748156966,-0.05753196718556838,-0.666603097082616,-2.5945565370258534,-0.05562143941554,2.507976027223799,0.8763108487046415,6.314927748622459e-05,-8.895107327159538e-06,0.0003270212846693895,-0.000591023930612336,0.00022216576056820412,0.000157710997394486,-0.00032555801296017546,0.0,0.0,0.0,0.0,0.0,0.0,0.0,7.706052378597672e-05,-8.213056284083614e-05,4.579045648311908e-05,-2.8271813161673265e-06,7.136215832842518e-07,3.640011909666896e-07,-4.573257459394853e-06,-6.314927748622459e-05,8.895107327159538e-06,-0.0003270212846693895,0.000591023930612336,-0.00022216576056820412,-0.000157710997394486,0.00032555801296017546,-0.08103066682815552,18.229516983032227,-1.0926239490509033,-17.999910354614258,-0.4928489327430725,-2.2424349784851074,0.17337362468242645,0
30,0.14501047134399414,0.08103066682815552,-18.229516983032227,1.0926239490509033,17.999910354614258,0.4928489327430725,2.2424349784851074,-0.17337362468242645,0.0,0.0,0.0,0.0,0.0,0.0,0.0,0.13457689183079738,0.3924186505214554,0.3161540751378316,0.3528235976433657,0.07212188204124943,0.05808209608800556,-0.18406368735503492,-0.6091622353394825,-0.05744983662272755,-0.6666488875390991,-2.5945537098445373,-0.055622153037123284,2.507975663222608,0.8763154219621009,-0.6090851748156966,-0.05753196718556838,-0.666603097082616,-2.5945565370258534,-0.05562143941554,2.507976027223799,0.8763108487046415,6.314927748622459e-05,-8.895107327159538e-06,0.0003270212846693895,-0.000591023930612336,0.00022216576056820412,0.000157710997394486,-0.00032555801296017546,0.0,0.0,0.0,0.0,0.0,0.0,0.0,7.706052378597672e-05,-8.213056284083614e-05,4.579045648311908e-05,-2.8271813161673265e-06,7.136215832842518e-07,3.640011909666896e-07,-4.573257459394853e-06,-6.314927748622459e-05,8.895107327159538e-06,-0.0003270212846693895,0.000591023930612336,-0.00022216576056820412,-0.000157710997394486,0.00032555801296017546,-0.08103066682815552,18.229516983032227,-1.0926239490509033,-17.999910354614258,-0.4928489327430725,-2.2424349784851074,0.17337362468242645,0
31,0.15000271797180176,0.10880166292190552,-18.229516983032227,1.0926239490509033,17.948335647583008,0.5047507882118225,2.2488436698913574,-0.18710653483867645,0.0,0.0,0.0,0.0,0.0,0.0,0.0,0.13246361908529666,0.3997328128887986,0.31791862933235493,0.3517964158086811,0.07173538089498654,0.057882331755174765,-0.18451285559149855,-0.6091641841813137,-0.05744983662272755,-0.6666488884307552,-2.5945500995734276,-0.05562442128843026,2.5079728582408825,0.876316952220243,-0.6090851748156966,-0.05753196718556838,-0.666603097082616,-2.5945565370258534,-0.05562143941554,2.507976027223799,0.8763108487046415,-8.597250394814016e-05,-0.0005479849009145287,0.0002954054861940823,0.0006584170509865518,-0.0003257090770377854,-0.00045993508686607886,9.465097218799485e-05,0.0,0.0,0.0,0.0,0.0,0.0,0.0,7.900936561711092e-05,-8.213056284083614e-05,4.579134813920138e-05,-6.437452425789303e-06,2.9818728902591962e-06,3.168982916523788e-06,-6.103515601485476e-06,8.597250394814016e-05,0.0005479849009145287,-0.0002954054861940823,-0.0006584170509865518,0.0003257090770377854,0.00045993508686607886,-9.465097218799485e-05,-0.10880166292190552,18.229516983032227,-1.0926239490509033,-17.948335647583008,-0.5047507882118225,-2.2488436698913574,0.18710653483867645,0
32,0.1551051139831543,0.10880166292190552,-18.229516983032227,1.0926239490509033,17.948335647583008,0.5047507882118225,2.2488436698913574,-0.18710653483867645,0.0,0.0,0.0,0.0,0.0,0.0,0.0,0.13246361908529666,0.3997328128887986,0.31791862933235493,0.3517964158086811,0.07173538089498654,0.057882331755174765,-0.18451285559149855,-0.6091641841813137,-0.05744983662272755,-0.6666488884307552,-2.5945500995734276,-0.05562442128843026,2.5079728582408825,0.876316952220243,-0.6090851748156966,-0.05753196718556838,-0.666603097082616,-2.5945565370258534,-0.05562143941554,2.507976027223799,0.8763108487046415,-8.597250394814016e-05,-0.0005479849009145287,0.0002954054861940823,0.0006584170509865518,-0.0003257090770377854,-0.00045993508686607886,9.465097218799485e-05,0.0,0.0,0.0,0.0,0.0,0.0,0.0,7.900936561711092e-05,-8.213056284083614e-05,4.579134813920138e-05,-6.437452425789303e-06,2.9818728902591962e-06,3.168982916523788e-06,-6.103515601485476e-06,8.597250394814016e-05,0.0005479849009145287,-0.0002954054861940823,-0.0006584170509865518,0.0003257090770377854,0.00045993508686607886,-9.465097218799485e-05,-0.10880166292190552,18.229516983032227,-1.0926239490509033,-17.948335647583008,-0.5047507882118225,-2.2488436698913574,0.18710653483867645,0
33,0.1600031852722168,0.16037636995315552,-18.277124404907227,1.1164276599884033,17.999910354614258,0.5047507882118225,2.2625765800476074,-0.17978231608867645,0.0,0.0,0.0,0.0,0.0,0.0,0.0,0.1357270833198931,0.40007136541691196,0.3216451648027109,0.35451575495810733,0.07177343618241283,0.05818435822070443,-0.1849542109515631,-0.609167803459,-0.05744649575101702,-0.6666484526218386,-2.594553719001903,-0.055624498693048884,2.5079712885283136,0.8763150787800549,-0.6090851748156966,-0.05753196718556838,-0.666603097082616,-2.5945565370258534,-0.05562143941554,2.507976027223799,0.8763108487046415,-0.0007436691811359179,0.0002582389729317967,0.0011667946895001888,-0.0003062259480230991,-0.0003338036951563794,-0.0007595348961190287,-0.00011228294453253409,0.0,0.0,0.0,0.0,0.0,0.0,0.0,8.262864330343955e-05,-8.54714345513638e-05,4.535553922258018e-05,-2.818023950634796e-06,3.059277508883629e-06,4.738695485340116e-06,-4.2300754133917096e-06,0.0007436691811359179,-0.0002582389729317967,-0.0011667946895001888,0.0003062259480230991,0.0003338036951563794,0.0007595348961190287,0.00011228294453253409,-0.16037636995315552,18.277124404907227,-1.1164276599884033,-17.999910354614258,-0.5047507882118225,-2.2625765800476074,0.17978231608867645,0
34,0.1650090217590332,0.16037636995315552,-18.277124404907227,1.1164276599884033,17.999910354614258,0.5047507882118225,2.2625765800476074,-0.17978231608867645,0.0,0.0,0.0,0.0,0.0,0.0,0.0,0.1357270833198931,0.40007136541691196,0.3216451648027109,0.35451575495810733,0.07177343618241283,0.05818435822070443,-0.1849542109515631,-0.609167803459,-0.05744649575101702,-0.6666484526218386,-2.594553719001903,-0.055624498693048884,2.5079712885283136,0.8763150787800549,-0.6090851748156966,-0.05753196718556838,-0.666603097082616,-2.5945565370258534,-0.05562143941554,2.507976027223799,0.8763108487046415,-0.0007436691811359179,0.0002582389729317967,0.0011667946895001888,-0.0003062259480230991,-0.0003338036951563794,-0.0007595348961190287,-0.00011228294453253409,0.0,0.0,0.0,0.0,0.0,0.0,0.0,8.262864330343955e-05,-8.54714345513638e-05,4.535553922258018e-05,-2.818023950634796e-06,3.059277508883629e-06,4.738695485340116e-06,-4.2300754133917096e-06,0.0007436691811359179,-0.0002582389729317967,-0.0011667946895001888,0.0003062259480230991,0.0003338036951563794,0.0007595348961190287,0.00011228294453253409,-0.16037636995315552,18.277124404907227,-1.1164276599884033,-17.999910354614258,-0.5047507882118225,-2.2625765800476074,0.17978231608867645,0
35,0.17000222206115723,0.10880166292190552,-18.253320693969727,1.1441986560821533,17.972139358520508,0.4928489327430725,2.2424349784851074,-0.19351522624492645,0.0,0.0,0.0,0.0,0.0,0.0,0.0,0.1203445828059816,0.39556537633291367,0.30810868097215177,0.3527618400498406,0.07297295698611336,0.05836445668478269,-0.18554377837745453,-0.6091641841813137,-0.05744816618687228,-0.6666525078035543,-2.5945517701600727,-0.0556231782122521,2.507972468460722,0.8763176642911089,-0.6090851748156966,-0.05753196718556838,-0.666603097082616,-2.5945565370258534,-0.05562143941554,2.507976027223799,0.8763108487046415,0.0006031389996975618,-0.001434979387118945,-0.000612795629940045,0.00023878310028959743,0.00023887186438338725,5.734814474459712e-05,0.0006591761764368216,0.0,0.0,0.0,0.0,0.0,0.0,0.0,7.900936561711092e-05,-8.380099869609997e-05,4.941072093833654e-05,-4.766865780769791e-06,1.738796712100199e-06,3.5587630771161116e-06,-6.815586467423529e-06,-0.0006031389996975618,0.001434979387118945,0.000612795629940045,-0.00023878310028959743,-0.00023887186438338725,-5.734814474459712e-05,-0.0006591761764368216,-0.10880166292190552,18.253320693969727,-1.1441986560821533,-17.972139358520508,-0.4928489327430725,-2.2424349784851074,0.19351522624492645,0
36,0.17499923706054688,0.10880166292190552,-18.253320693969727,1.1441986560821533,17.972139358520508,0.4928489327430725,2.2424349784851074,-0.19351522624492645,0.0,0.0,0.0,0.0,0.0,0.0,0.0,0.1203445828059816,0.39556537633291367,0.30810868097215177,0.3527618400498406,0.07297295698611336,0.05836445668478269,-0.18554377837745453,-0.6091641841813137,-0.05744816618687228,-0.6666525078035543,-2.5945517701600727,-0.0556231782122521,2.507972468460722,0.8763176642911089,-0.6090851748156966,-0.05753196718556838,-0.666603097082616,-2.5945565370258534,-0.05562143941554,2.507976027223799,0.8763108487046415,0.0006031389996975618,-0.001434979387118945,-0.000612795629940045,0.00023878310028959743,0.00023887186438338725,5.734814474459712e-05,0.0006591761764368216,0.0,0.0,0.0,0.0,0.0,0.0,0.0,7.900936561711092e-05,-8.380099869609997e-05,4.941072093833654e-05,-4.766865780769791e-06,1.738796712100199e-06,3.5587630771161116e-06,-6.815586467423529e-06,-0.0006031389996975618,0.001434979387118945,0.000612795629940045,-0.00023878310028959743,-0.00023887186438338725,-5.734814474459712e-05,-0.0006591761764368216,-0.10880166292190552,18.253320693969727,-1.1441986560821533,-17.972139358520508,-0.4928489327430725,-2.2424349784851074,0.19351522624492645,0
37,0.18000054359436035,0.13260537385940552,-18.328699111938477,1.1680023670196533,17.972139358520508,0.5047507882118225,2.2360262870788574,-0.17978231608867645,0.0,0.0,0.0,0.0,0.0,0.0,0.0,0.13314641893719417,0.3921009231098236,0.31787977489024827,0.3521352306013284,0.0723084698380502,0.058500973280560406,-0.1860075818035253,-0.6091658546171689,-0.057442876473330615,-0.6666541782512998,-2.5945516877437735,-0.05562347546528704,2.507974243399813,0.8763161384181842,-0.6090851748156966,-0.05753196718556838,-0.666603097082616,-2.5945565370258534,-0.05562143941554,2.507976027223799,0.8763108487046415,0.00048532380197870595,0.0004942996856705618,-0.00045195072231434317,0.0002797992514640216,-0.0005002658394883153,0.00029595378125917005,0.00026181761594430827,0.0,0.0,0.0,0.0,0.0,0.0,0.0,8.067980147230536e-05,-8.909071223776877e-05,5.108116868379753e-05,-4.8492820798884395e-06,2.03604974703675e-06,1.7838239858569693e-06,-5.289713542744323e-06,-0.00048532380197870595,-0.0004942996856705618,0.00045195072231434317,-0.0002797992514640216,0.0005002658394883153,-0.00029595378125917005,-0.00026181761594430827,-0.13260537385940552,18.328699111938477,-1.1680023670196533,-17.972139358520508,-0.5047507882118225,-2.2360262870788574,0.17978231608867645,0
38,0.18500185012817383,0.13260537385940552,-18.328699111938477,1.1680023670196533,17.972139358520508,0.5047507882118225,2.2360262870788574,-0.17978231608867645,0.0,0.0,0.0,0.0,0.0,0.0,0.0,0.13314641893719417,0.3921009231098236,0.31787977489024827,0.3521352306013284,0.0723084698380502,0.058500973280560406,-0.1860075818035253,-0.6091658546171689,-0.057442876473330615,-0.6666541782512998,-2.5945516877437735,-0.05562347546528704,2.507974243399813,0.8763161384181842,-0.6090851748156966,-0.05753196718556838,-0.666603097082616,-2.5945565370258534,-0.05562143941554,2.507976027223799,0.8763108487046415,0.00048532380197870595,0.0004942996856705618,-0.00045195072231434317,0.0002797992514640216,-0.0005002658394883153,0.00029595378125917005,0.00026181761594430827,0.0,0.0,0.0,0.0,0.0,0.0,0.0,8.067980147230536e-05,-8.909071223776877e-05,5.108116868379753e-05,-4.8492820798884395e-06,2.03604974703675e-06,1.7838239858569693e-06,-5.289713542744323e-06,-0.00048532380197870595,-0.0004942996856705618,0.00045195072231434317,-0.0002797992514640216,0.0005002658394883153,-0.00029595378125917005,-0.00026181761594430827,-0.13260537385940552,18.328699111938477,-1.1680023670196533,-17.972139358520508,-0.5047507882118225,-2.2360262870788574,0.17978231608867645,0
39,0.18999838829040527,0.13260537385940552,-18.229516983032227,1.1441986560821533,17.972139358520508,0.4983420968055725,2.2424349784851074,-0.19351522624492645,0.0,0.0,0.0,0.0,0.0,0.0,0.0,0.1303482992344909,0.39280145214090884,0.3150121482999112,0.3505234388802933,0.07179950895820846,0.05749188608371553,-0.18478994711604405,-0.6091658546171689,-0.05744983662272755,-0.6666525078154447,-2.5945517697073917,-0.05562276338267697,2.507974001794753,0.8763176599364398,-0.6090851748156966,-0.05753196718556838,-0.666603097082616,-2.5945565370258534,-0.05562143941554,2.507976027223799,0.8763108487046415,0.0001463202141650111,-0.0009768338875538701,-7.960616383915924e-05,0.00014782287392786807,-9.120553708396831e-05,-1.8252665216728965e-05,0.000951736800588846,0.0,0.0,0.0,0.0,0.0,0.0,0.0,8.067980147230536e-05,-8.213056284083614e-05,4.941073282871411e-05,-4.767318461773584e-06,1.3239671369721928e-06,2.0254290458154856e-06,-6.811231798353745e-06,-0.0001463202141650111,0.0009768338875538701,7.960616383915924e-05,-0.00014782287392786807,9.120553708396831e-05,1.8252665216728965e-05,-0.000951736800588846,-0.13260537385940552,18.229516983032227,-1.1441986560821533,-17.972139358520508,-0.4983420968055725,-2.2424349784851074,0.19351522624492645,0
40,0.19499993324279785,0.13260537385940552,-18.229516983032227,1.1441986560821533,17.972139358520508,0.4983420968055725,2.2424349784851074,-0.19351522624492645,0.0,0.0,0.0,0.0,0.0,0.0,0.0,0.1303482992344909,0.39280145214090884,0.3150121482999112,0.3505234388802933,0.07179950895820846,0.05749188608371553,-0.18478994711604405,-0.6091658546171689,-0.05744983662272755,-0.6666525078154447,-2.5945517697073917,-0.05562276338267697,2.507974001794753,0.8763176599364398,-0.6090851748156966,-0.05753196718556838,-0.666603097082616,-2.5945565370258534,-0.05562143941554,2.507976027223799,0.8763108487046415,0.0001463202141650111,-0.0009768338875538701,-7.960616383915924e-05,0.00014782287392786807,-9.120553708396831e-05,-1.8252665216728965e-05,0.000951736800588846,0.0,0.0,0.0,0.0,0.0,0.0,0.0,8.067980147230536e-05,-8.213056284083614e-05,4.941073282871411e-05,-4.767318461773584e-06,1.3239671369721928e-06,2.0254290458154856e-06,-6.811231798353745e-06,-0.0001463202141650111,0.0009768338875538701,7.960616383915924e-05,-0.00014782287392786807,9.120553708396831e-05,1.8252665216728965e-05,-0.000951736800588846,-0.13260537385940552,18.229516983032227,-1.1441986560821533,-17.972139358520508,-0.4983420968055725,-2.2424349784851074,0.19351522624492645,0
41,0.20000195503234863,0.10880166292190552,-18.253320693969727,1.1164276599884033,17.972139358520508,0.4983420968055725,2.2552523612976074,-0.17337362468242645,0.0,0.0,0.0,0.0,0.0,0.0,0.0,0.1297626625185109,0.3923626768731886,0.3158665940311284,0.3524817341036313,0.07171607358016753,0.05822779589085762,-0.18327598977617304,-0.6091641841813137,-0.05744816618687228,-0.6666505589736136,-2.59455177016007,-0.05562370969839523,2.507971044148254,0.8763154263413369,-0.6090851748156966,-0.05753196718556838,-0.666603097082616,-2.5945565370258534,-0.05562143941554,2.507976027223799,0.8763108487046415,0.00018534365535806535,0.0003195338274562401,0.000249125947097442,0.00022884432986999332,-7.650747719996457e-06,-0.0005016679092348052,-0.0005530037336640985,0.0,0.0,0.0,0.0,0.0,0.0,0.0,7.900936561711092e-05,-8.380099869609997e-05,4.7461890997579914e-05,-4.7668657834343264e-06,2.270282855230954e-06,4.983075545084148e-06,-4.577636695368703e-06,-0.00018534365535806535,-0.0003195338274562401,-0.000249125947097442,-0.00022884432986999332,7.650747719996457e-06,0.0005016679092348052,0.0005530037336640985,-0.10880166292190552,18.253320693969727,-1.1164276599884033,-17.972139358520508,-0.4983420968055725,-2.2552523612976074,0.17337362468242645,0
42,0.20499634742736816,0.10880166292190552,-18.253320693969727,1.1164276599884033,17.972139358520508,0.4983420968055725,2.2552523612976074,-0.17337362468242645,0.0,0.0,0.0,0.0,0.0,0.0,0.0,0.1297626625185109,0.3923626768731886,0.3158665940311284,0.3524817341036313,0.07171607358016753,0.05822779589085762,-0.18327598977617304,-0.6091641841813137,-0.05744816618687228,-0.6666505589736136,-2.59455177016007,-0.05562370969839523,2.507971044148254,0.8763154263413369,-0.6090851748156966,-0.05753196718556838,-0.666603097082616,-2.5945565370258534,-0.05562143941554,2.507976027223799,0.8763108487046415,0.00018534365535806535,0.0003195338274562401,0.000249125947097442,0.00022884432986999332,-7.650747719996457e-06,-0.0005016679092348052,-0.0005530037336640985,0.0,0.0,0.0,0.0,0.0,0.0,0.0,7.900936561711092e-05,-8.380099869609997e-05,4.7461890997579914e-05,-4.7668657834343264e-06,2.270282855230954e-06,4.983075545084148e-06,-4.577636695368703e-06,-0.00018534365535806535,-0.0003195338274562401,-0.000249125947097442,-0.00022884432986999332,7.650747719996457e-06,0.0005016679092348052,0.0005530037336640985,-0.10880166292190552,18.253320693969727,-1.1164276599884033,-17.972139358520508,-0.4983420968055725,-2.2552523612976074,0.17337362468242645,0
43,0.21000289916992188,0.18418008089065552,-18.253320693969727,1.1441986560821533,17.972139358520508,0.4983420968055725,2.2424349784851074,-0.21457235515117645,0.0,0.0,0.0,0.0,0.0,0.0,0.0,0.1364089321208111,0.3951488118602825,0.32388318834800767,0.3525159035864565,0.07143798725307801,0.058592848758071775,-0.18358700574173553,-0.6091694738948553,-0.05744816618687228,-0.6666525078154447,-2.594551769820911,-0.05562382750641407,2.507973541497841,0.8763200034935634,-0.6090851748156966,-0.05753196718556838,-0.666603097082616,-2.5945565370258534,-0.05562143941554,2.507976027223799,0.8763108487046415,-0.0013033511343328544,0.00013863256147406488,7.275392542439652e-05,-8.626658363789717e-05,-3.486340187326374e-05,1.6368822504883182e-05,0.001661680015289901,0.0,0.0,0.0,0.0,0.0,0.0,0.0,8.429907915874502e-05,-8.380099869609997e-05,4.941073282871411e-05,-4.767204942357495e-06,2.388090874071158e-06,2.48572595795693e-06,-9.154788921938994e-06,0.0013033511343328544,-0.00013863256147406488,-7.275392542439652e-05,8.626658363789717e-05,3.486340187326374e-05,-1.6368822504883182e-05,-0.001661680015289901,-0.18418008089065552,18.253320693969727,-1.1441986560821533,-17.972139358520508,-0.4983420968055725,-2.2424349784851074,0.21457235515117645,0
44,0.21500515937805176,0.18418008089065552,-18.253320693969727,1.1441986560821533,17.972139358520508,0.4983420968055725,2.2424349784851074,-0.21457235515117645,0.0,0.0,0.0,0.0,0.0,0.0,0.0,0.1364089321208111,0.3951488118602825,0.32388318834800767,0.3525159035864565,0.07143798725307801,0.058592848758071775,-0.18358700574173553,-0.6091694738948553,-0.05744816618687228,-0.6666525078154447,-2.594551769820911,-0.05562382750641407,2.507973541497841,0.8763200034935634,-0.6090851748156966,-0.05753196718556838,-0.666603097082616,-2.5945565370258534,-0.05562143941554,2.507976027223799,0.8763108487046415,-0.0013033511343328544,0.00013863256147406488,7.275392542439652e-05,-8.626658363789717e-05,-3.486340187326374e-05,1.6368822504883182e-05,0.001661680015289901,0.0,0.0,0.0,0.0,0.0,0.0,0.0,8.429907915874502e-05,-8.380099869609997e-05,4.941073282871411e-05,-4.767204942357495e-06,2.388090874071158e-06,2.48572595795693e-06,-9.154788921938994e-06,0.0013033511343328544,-0.00013863256147406488,-7.275392542439652e-05,8.626658363789717e-05,3.486340187326374e-05,-1.6368822504883182e-05,-0.001661680015289901,-0.18418008089065552,18.253320693969727,-1.1441986560821533,-17.972139358520508,-0.4983420968055725,-2.2424349784851074,0.21457235515117645,0
45,0.2200031280517578,0.18418008089065552,-18.253320693969727,1.1441986560821533,17.972139358520508,0.4983420968055725,2.2424349784851074,-0.21457235515117645,0.0,0.0,0.0,0.0,0.0,0.0,0.0,0.1364089321208111,0.3951488118602825,0.32388318834800767,0.3525159035864565,0.07143798725307801,0.058592848758071775,-0.18358700574173553,-0.6091694738948553,-0.05744816618687228,-0.6666525078154447,-2.594551769820911,-0.05562382750641407,2.507973541497841,0.8763200034935634,-0.6090851748156966,-0.05753196718556838,-0.666603097082616,-2.5945565370258534,-0.05562143941554,2.507976027223799,0.8763108487046415,-0.0013033511343328544,0.00013863256147406488,7.275392542439652e-05,-8.626658363789717e-05,-3.486340187326374e-05,1.6368822504883182e-05,0.001661680015289901,0.0,0.0,0.0,0.0,0.0,0.0,0.0,8.429907915874502e-05,-8.380099869609997e-05,4.941073282871411e-05,-4.767204942357495e-06,2.388090874071158e-06,2.48572595795693e-06,-9.154788921938994e-06,0.0013033511343328544,-0.00013863256147406488,-7.275392542439652e-05,8.626658363789717e-05,3.486340187326374e-05,-1.6368822504883182e-05,-0.001661680015289901,-0.18418008089065552,18.253320693969727,-1.1441986560821533,-17.972139358520508,-0.4983420968055725,-2.2424349784851074,0.21457235515117645,0
46,0.2250049114227295,0.18418008089065552,-18.253320693969727,1.1441986560821533,17.972139358520508,0.4983420968055725,2.2424349784851074,-0.21457235515117645,0.0,0.0,0.0,0.0,0.0,0.0,0.0,0.1364089321208111,0.3951488118602825,0.32388318834800767,0.3525159035864565,0.07143798725307801,0.058592848758071775,-0.18358700574173553,-0.6091694738948553,-0.05744816618687228,-0.6666525078154447,-2.594551769820911,-0.05562382750641407,2.507973541497841,0.8763200034935634,-0.6090851748156966,-0.05753196718556838,-0.666603097082616,-2.5945565370258534,-0.05562143941554,2.507976027223799,0.8763108487046415,-0.0013033511343328544,0.00013863256147406488,7.275392542439652e-05,-8.626658363789717e-05,-3.486340187326374e-05,1.6368822504883182e-05,0.001661680015289901,0.0,0.0,0.0,0.0,0.0,0.0,0.0,8.429907915874502e-05,-8.380099869609997e-05,4.941073282871411e-05,-4.767204942357495e-06,2.388090874071158e-06,2.48572595795693e-06,-9.154788921938994e-06,0.0013033511343328544,-0.00013863256147406488,-7.275392542439652e-05,8.626658363789717e-05,3.486340187326374e-05,-1.6368822504883182e-05,-0.001661680015289901,-0.18418008089065552,18.253320693969727,-1.1441986560821533,-17.972139358520508,-0.4983420968055725,-2.2424349784851074,0.21457235515117645,0
47,0.2300119400024414,0.10880166292190552,-18.253320693969727,1.1441986560821533,17.972139358520508,0.4983420968055725,2.2488436698913574,-0.20724813640117645,0.0,0.0,0.0,0.0,0.0,0.0,0.0,0.1288602742491353,0.3963932241663894,0.31511620473715973,0.3588370828217916,0.07229209147700949,0.05930486752243733,-0.18515663092842188,-0.6091641841813137,-0.05744816618687228,-0.6666525078154447,-2.594551770160071,-0.05562382793977948,2.507971794660807,0.8763188369632844,-0.6090851748156966,-0.05753196718556838,-0.666603097082616,-2.5945565370258534,-0.05562143941554,2.507976027223799,0.8763108487046415,0.0003515633714001444,0.0002412952434465901,-0.0005862007582638308,0.0008335165167102344,-0.000138250440229401,-5.5089598583436345e-05,0.0011253531215760027,0.0,0.0,0.0,0.0,0.0,0.0,0.0,7.900936561711092e-05,-8.380099869609997e-05,4.941073282871411e-05,-4.766865782546148e-06,2.388524239477219e-06,4.232562992090294e-06,-7.988258642899204e-06,-0.0003515633714001444,-0.0002412952434465901,0.0005862007582638308,-0.0008335165167102344,0.000138250440229401,5.5089598583436345e-05,-0.0011253531215760027,-0.10880166292190552,18.253320693969727,-1.1441986560821533,-17.972139358520508,-0.4983420968055725,-2.2488436698913574,0.20724813640117645,0
48,0.2349987030029297,0.10880166292190552,-18.253320693969727,1.1441986560821533,17.972139358520508,0.4983420968055725,2.2488436698913574,-0.20724813640117645,0.0,0.0,0.0,0.0,0.0,0.0,0.0,0.1288602742491353,0.3963932241663894,0.31511620473715973,0.3588370828217916,0.07229209147700949,0.05930486752243733,-0.18515663092842188,-0.6091641841813137,-0.05744816618687228,-0.6666525078154447,-2.594551770160071,-0.05562382793977948,2.507971794660807,0.8763188369632844,-0.6090851748156966,-0.05753196718556838,-0.666603097082616,-2.5945565370258534,-0.05562143941554,2.507976027223799,0.8763108487046415,0.0003515633714001444,0.0002412952434465901,-0.0005862007582638308,0.0008335165167102344,-0.000138250440229401,-5.5089598583436345e-05,0.0011253531215760027,0.0,0.0,0.0,0.0,0.0,0.0,0.0,7.900936561711092e-05,-8.380099869609997e-05,4.941073282871411e-05,-4.766865782546148e-06,2.388524239477219e-06,4.232562992090294e-06,-7.988258642899204e-06,-0.0003515633714001444,-0.0002412952434465901,0.0005862007582638308,-0.0008335165167102344,0.000138250440229401,5.5089598583436345e-05,-0.0011253531215760027,-0.10880166292190552,18.253320693969727,-1.1441986560821533,-17.972139358520508,-0.4983420968055725,-2.2488436698913574,0.20724813640117645,0
49,0.23999667167663574,0.10880166292190552,-18.229516983032227,1.0926239490509033,17.999910354614258,0.4864402413368225,2.2424349784851074,-0.18710653483867645,0.0,0.0,0.0,0.0,0.0,0.0,0.0,0.13034724406957948,0.39608473034682223,0.31501536930460905,0.35921402207858816,0.07229987435340107,0.05975172003067766,-0.18587796728243858,-0.6091641841813137,-0.05744983662272755,-0.6666467735191904,-2.5945537190019037,-0.05562108609190662,2.5079739189366053,0.8763169391363216,-0.6090851748156966,-0.05753196718556838,-0.666603097082616,-2.5945565370258534,-0.05562143941554,2.507976027223799,0.8763108487046415,0.0004814487910447496,-0.0012100154408595555,0.000903196044651061,-0.0002011983079005268,0.0004361033476124571,-1.9103368515289813e-05,0.00023927079431952555,0.0,0.0,0.0,0.0,0.0,0.0,0.0,7.900936561711092e-05,-8.213056284083614e-05,4.367643657443576e-05,-2.8180239497466175e-06,-3.533236333785883e-07,2.1082871937139203e-06,-6.09043168009471e-06,-0.0004814487910447496,0.0012100154408595555,-0.000903196044651061,0.0002011983079005268,-0.0004361033476124571,1.9103368515289813e-05,-0.00023927079431952555,-0.10880166292190552,18.229516983032227,-1.0926239490509033,-17.999910354614258,-0.4864402413368225,-2.2424349784851074,0.18710653483867645,0
50,0.24499773979187012,0.10880166292190552,-18.229516983032227,1.0926239490509033,17.999910354614258,0.4864402413368225,2.2424349784851074,-0.18710653483867645,0.0,0.0,0.0,0.0,0.0,0.0,0.0,0.13034724406957948,0.39608473034682223,0.31501536930460905,0.35921402207858816,0.07229987435340107,0.05975172003067766,-0.18587796728243858,-0.6091641841813137,-0.05744983662272755,-0.6666467735191904,-2.5945537190019037,-0.05562108609190662,2.5079739189366053,0.8763169391363216,-0.6090851748156966,-0.05753196718556838,-0.666603097082616,-2.5945565370258534,-0.05562143941554,2.507976027223799,0.8763108487046415,0.0004814487910447496,-0.0012100154408595555,0.000903196044651061,-0.0002011983079005268,0.0004361033476124571,-1.9103368515289813e-05,0.00023927079431952555,0.0,0.0,0.0,0.0,0.0,0.0,0.0,7.900936561711092e-05,-8.213056284083614e-05,4.367643657443576e-05,-2.8180239497466175e-06,-3.533236333785883e-07,2.1082871937139203e-06,-6.09043168009471e-06,-0.0004814487910447496,0.0012100154408595555,-0.000903196044651061,0.0002011983079005268,-0.0004361033476124571,1.9103368515289813e-05,-0.00023927079431952555,-0.10880166292190552,18.229516983032227,-1.0926239490509033,-17.999910354614258,-0.4864402413368225,-2.2424349784851074,0.18710653483867645,0
51,0.24999499320983887,0.13260537385940552,-18.253320693969727,1.1441986560821533,17.972139358520508,0.4928489327430725,2.2296175956726074,-0.21457235515117645,0.0,0.0,0.0,0.0,0.0,0.0,0.0,0.13239734440055353,0.396303584552523,0.3190513475818912,0.35568594871872444,0.07240602770611462,0.058546594567200606,-0.18585169417898148,-0.6091658546171689,-0.05744816618687228,-0.6666525077044675,-2.5945517700470186,-0.055623217639636284,2.50797848294074,0.8763199995635695,-0.6090851748156966,-0.05753196718556838,-0.666603097082616,-2.5945565370258534,-0.05562143941554,2.507976027223799,0.8763108487046415,-0.00024613755998321275,-0.0010891765394306031,-9.405500327344939e-06,-0.00012529821951810143,2.654296930489421e-05,0.00027013032290921623,0.0006633174145401203,0.0,0.0,0.0,0.0,0.0,0.0,0.0,8.067980147230536e-05,-8.380099869609997e-05,4.94106218514867e-05,-4.766978834780389e-06,1.7782240962840867e-06,-2.4557169409078483e-06,-9.150858928053118e-06,0.00024613755998321275,0.0010891765394306031,9.405500327344939e-06,0.00012529821951810143,-2.654296930489421e-05,-0.00027013032290921623,-0.0006633174145401203,-0.13260537385940552,18.253320693969727,-1.1441986560821533,-17.972139358520508,-0.4928489327430725,-2.2296175956726074,0.21457235515117645,0
52,0.25499486923217773,0.13260537385940552,-18.253320693969727,1.1441986560821533,17.972139358520508,0.4928489327430725,2.2296175956726074,-0.21457235515117645,0.0,0.0,0.0,0.0,0.0,0.0,0.0,0.13239734440055353,0.396303584552523,0.3190513475818912,0.35568594871872444,0.07240602770611462,0.058546594567200606,-0.18585169417898148,-0.6091658546171689,-0.05744816618687228,-0.6666525077044675,-2.5945517700470186,-0.055623217639636284,2.50797848294074,0.8763199995635695,-0.6090851748156966,-0.05753196718556838,-0.666603097082616,-2.5945565370258534,-0.05562143941554,2.507976027223799,0.8763108487046415,-0.00024613755998321275,-0.0010891765394306031,-9.405500327344939e-06,-0.00012529821951810143,2.654296930489421e-05,0.00027013032290921623,0.0006633174145401203,0.0,0.0,0.0,0.0,0.0,0.0,0.0,8.067980147230536e-05,-8.380099869609997e-05,4.94106218514867e-05,-4.766978834780389e-06,1.7782240962840867e-06,-2.4557169409078483e-06,-9.150858928053118e-06,0.00024613755998321275,0.0010891765394306031,9.405500327344939e-06,0.00012529821951810143,-2.654296930489421e-05,-0.00027013032290921623,-0.0006633174145401203,-0.13260537385940552,18.253320693969727,-1.1441986560821533,-17.972139358520508,-0.4928489327430725,-2.2296175956726074,0.21457235515117645,0
53,0.2599952220916748,0.10880166292190552,-18.277124404907227,1.0926239490509033,17.999910354614258,0.5047507882118225,2.2424349784851074,-0.22830526530742645,0.0,0.0,0.0,0.0,0.0,0.0,0.0,0.12289930857941521,0.38832423236466396,0.3123790368453227,0.35893397316279757,0.07241838879686513,0.05837972756295491,-0.18636312701274896,-0.6091641841813137,-0.05744649575101702,-0.6666467825069755,-2.5945534625956395,-0.055624185040035676,2.5079772291807285,0.8763215298569614,-0.6090851748156966,-0.05753196718556838,-0.666603097082616,-2.5945565370258534,-0.05562143941554,2.507976027223799,0.8763108487046415,0.00031025051957644646,-0.0007130915201878224,0.0008460570248970708,-0.00028326494453726945,-0.0004480234464315479,2.5038356505386728e-05,0.0018815181295694103,0.0,0.0,0.0,0.0,0.0,0.0,0.0,7.900936561711092e-05,-8.54714345513638e-05,4.368542435950751e-05,-3.0744302139673607e-06,2.7456244956758358e-06,-1.2019569295418364e-06,-1.0681152319946818e-05,-0.00031025051957644646,0.0007130915201878224,-0.0008460570248970708,0.00028326494453726945,0.0004480234464315479,-2.5038356505386728e-05,-0.0018815181295694103,-0.10880166292190552,18.277124404907227,-1.0926239490509033,-17.999910354614258,-0.5047507882118225,-2.2424349784851074,0.22830526530742645,0
54,0.2649991512298584,0.10880166292190552,-18.277124404907227,1.0926239490509033,17.999910354614258,0.5047507882118225,2.2424349784851074,-0.22830526530742645,0.0,0.0,0.0,0.0,0.0,0.0,0.0,0.12289930857941521,0.38832423236466396,0.3123790368453227,0.35893397316279757,0.07241838879686513,0.05837972756295491,-0.18636312701274896,-0.6091641841813137,-0.05744649575101702,-0.6666467825069755,-2.5945534625956395,-0.055624185040035676,2.5079772291807285,0.8763215298569614,-0.6090851748156966,-0.05753196718556838,-0.666603097082616,-2.5945565370258534,-0.05562143941554,2.507976027223799,0.8763108487046415,0.00031025051957644646,-0.0007130915201878224,0.0008460570248970708,-0.00028326494453726945,-0.0004480234464315479,2.5038356505386728e-05,0.0018815181295694103,0.0,0.0,0.0,0.0,0.0,0.0,0.0,7.900936561711092e-05,-8.54714345513638e-05,4.368542435950751e-05,-3.0744302139673607e-06,2.7456244956758358e-06,-1.2019569295418364e-06,-1.0681152319946818e-05,-0.00031025051957644646,0.0007130915201878224,-0.0008460570248970708,0.00028326494453726945,0.0004480234464315479,-2.5038356505386728e-05,-0.0018815181295694103,-0.10880166292190552,18.277124404907227,-1.0926239490509033,-17.999910354614258,-0.5047507882118225,-2.2424349784851074,0.22830526530742645,0
55,0.26999807357788086,0.13260537385940552,-18.253320693969727,1.1164276599884033,17.972139358520508,0.5047507882118225,2.2488436698913574,-0.21457235515117645,0.0,0.0,0.0,0.0,0.0,0.0,0.0,0.1329896280605721,0.3862350428800982,0.32266648498428896,0.3541817439193275,0.07124622463999612,0.05817935850655875,-0.18573950822881688,-0.6091658546171689,-0.05744816618687228,-0.666650558961725,-2.5945517701586254,-0.055621328728774164,2.5079717945739537,0.876316825063692,-0.6090851748156966,-0.05753196718556838,-0.666603097082616,-2.5945565370258534,-0.05562143941554,2.507976027223799,0.8763108487046415,0.0005957741310467944,-0.0012256775163724436,0.0005676383544648328,0.0003565908276401601,-0.00025714841578022146,-0.00026614794210041596,0.0013547553218024428,0.0,0.0,0.0,0.0,0.0,0.0,0.0,8.067980147230536e-05,-8.380099869609997e-05,4.74618791089787e-05,-4.766867228056526e-06,-1.1068676583625425e-07,4.2326498452816e-06,-5.976359050530178e-06,-0.0005957741310467944,0.0012256775163724436,-0.0005676383544648328,-0.0003565908276401601,0.00025714841578022146,0.00026614794210041596,-0.0013547553218024428,-0.13260537385940552,18.253320693969727,-1.1164276599884033,-17.972139358520508,-0.5047507882118225,-2.2488436698913574,0.21457235515117645,0
56,0.2749955654144287,0.13260537385940552,-18.253320693969727,1.1164276599884033,17.972139358520508,0.5047507882118225,2.2488436698913574,-0.21457235515117645,0.0,0.0,0.0,0.0,0.0,0.0,0.0,0.1329896280605721,0.3862350428800982,0.32266648498428896,0.3541817439193275,0.07124622463999612,0.05817935850655875,-0.18573950822881688,-0.6091658546171689,-0.05744816618687228,-0.666650558961725,-2.5945517701586254,-0.055621328728774164,2.5079717945739537,0.876316825063692,-0.6090851748156966,-0.05753196718556838,-0.666603097082616,-2.5945565370258534,-0.05562143941554,2.507976027223799,0.8763108487046415,0.0005957741310467944,-0.0012256775163724436,0.0005676383544648328,0.0003565908276401601,-0.00025714841578022146,-0.00026614794210041596,0.0013547553218024428,0.0,0.0,0.0,0.0,0.0,0.0,0.0,8.067980147230536e-05,-8.380099869609997e-05,4.74618791089787e-05,-4.766867228056526e-06,-1.1068676583625425e-07,4.2326498452816e-06,-5.976359050530178e-06,-0.0005957741310467944,0.0012256775163724436,-0.0005676383544648328,-0.0003565908276401601,0.00025714841578022146,0.00026614794210041596,-0.0013547553218024428,-0.13260537385940552,18.253320693969727,-1.1164276599884033,-17.972139358520508,-0.5047507882118225,-2.2488436698913574,0.21457235515117645,0
57,0.2799959182739258,0.18418008089065552,-18.253320693969727,1.1680023670196533,17.972139358520508,0.4983420968055725,2.2488436698913574,-0.20083944499492645,0.0,0.0,0.0,0.0,0.0,0.0,0.0,0.1379641215317041,0.38826722959099425,0.32487261031592,0.35283131234460396,0.07122883419524774,0.057911316449706554,-0.18481462147317676,-0.6091694738948553,-0.05744816618687228,-0.6666539442478796,-2.5945517701600727,-0.055623827975741655,2.507972230720039,0.8763184780812289,-0.6090851748156966,-0.05753196718556838,-0.666603097082616,-2.5945565370258534,-0.05562143941554,2.507976027223799,0.8763108487046415,-0.00048189234654427357,-0.00027214670122452107,-0.00021390295599761015,0.0005104182489673585,-6.735347367932881e-05,-0.00027000475543589733,0.0001955373658414066,0.0,0.0,0.0,0.0,0.0,0.0,0.0,8.429907915874502e-05,-8.380099869609997e-05,5.084716526360111e-05,-4.766865780769791e-06,2.388560201654899e-06,3.7965037598119977e-06,-7.629376587381387e-06,0.00048189234654427357,0.00027214670122452107,0.00021390295599761015,-0.0005104182489673585,6.735347367932881e-05,0.00027000475543589733,-0.0001955373658414066,-0.18418008089065552,18.253320693969727,-1.1680023670196533,-17.972139358520508,-0.4983420968055725,-2.2488436698913574,0.20083944499492645,0
58,0.2850000858306885,0.18418008089065552,-18.253320693969727,1.1680023670196533,17.972139358520508,0.4983420968055725,2.2488436698913574,-0.20083944499492645,0.0,0.0,0.0,0.0,0.0,0.0,0.0,0.1379641215317041,0.38826722959099425,0.32487261031592,0.35283131234460396,0.07122883419524774,0.057911316449706554,-0.18481462147317676,-0.6091694738948553,-0.05744816618687228,-0.6666539442478796,-2.5945517701600727,-0.055623827975741655,2.507972230720039,0.8763184780812289,-0.6090851748156966,-0.05753196718556838,-0.666603097082616,-2.5945565370258534,-0.05562143941554,2.507976027223799,0.8763108487046415,-0.00048189234654427357,-0.00027214670122452107,-0.00021390295599761015,0.0005104182489673585,-6.735347367932881e-05,-0.00027000475543589733,0.0001955373658414066,0.0,0.0,0.0,0.0,0.0,0.0,0.0,8.429907915874502e-05,-8.380099869609997e-05,5.084716526360111e-05,-4.766865780769791e-06,2.388560201654899e-06,3.7965037598119977e-06,-7.629376587381387e-06,0.00048189234654427357,0.00027214670122452107,0.00021390295599761015,-0.0005104182489673585,6.735347367932881e-05,0.00027000475543589733,-0.0001955373658414066,-0.18418008089065552,18.253320693969727,-1.1680023670196533,-17.972139358520508,-0.4983420968055725,-2.2488436698913574,0.20083944499492645,0
59,0.29012179374694824,0.10880166292190552,-18.277124404907227,1.1164276599884033,17.972139358520508,0.4928489327430725,2.2488436698913574,-0.20724813640117645,0.0,0.0,0.0,0.0,0.0,0.0,0.0,0.13405213321006557,0.3927683207474915,0.3167560251159231,0.35236082275823977,0.07227354015189051,0.05739703287623623,-0.1851126210351936,-0.6091641841813137,-0.05744649575101702,-0.6666505589731733,-2.5945517701600727,-0.05561884093211017,2.5079732911663672,0.8763191901221616,-0.6090851748156966,-0.05753196718556838,-0.666603097082616,-2.5945565370258534,-0.05562143941554,2.507976027223799,0.8763108487046415,0.0007386672489022932,0.0011922976928560028,0.00036446366049993256,-2.5964336036348132e-05,0.0002559259081674814,-0.00025801764932932114,0.00046975707632539594,0.0,0.0,0.0,0.0,0.0,0.0,0.0,7.900936561711092e-05,-8.54714345513638e-05,4.746189055726546e-05,-4.766865780769791e-06,-2.5984834298303783e-06,2.736057431729222e-06,-8.341417520152383e-06,-0.0007386672489022932,-0.0011922976928560028,-0.00036446366049993256,2.5964336036348132e-05,-0.0002559259081674814,0.00025801764932932114,-0.00046975707632539594,-0.10880166292190552,18.277124404907227,-1.1164276599884033,-17.972139358520508,-0.4928489327430725,-2.2488436698913574,0.20724813640117645,0
60,0.295001745223999,0.10880166292190552,-18.277124404907227,1.1164276599884033,17.972139358520508,0.4928489327430725,2.2488436698913574,-0.20724813640117645,0.0,0.0,0.0,0.0,0.0,0.0,0.0,0.13405213321006557,0.3927683207474915,0.3167560251159231,0.35236082275823977,0.07227354015189051,0.05739703287623623,-0.1851126210351936,-0.6091641841813137,-0.05744649575101702,-0.6666505589731733,-2.5945517701600727,-0.05561884093211017,2.5079732911663672,0.8763191901221616,-0.6090851748156966,-0.05753196718556838,-0.666603097082616,-2.5945565370258534,-0.05562143941554,2.507976027223799,0.8763108487046415,0.0007386672489022932,0.0011922976928560028,0.00036446366049993256,-2.5964336036348132e-05,0.0002559259081674814,-0.00025801764932932114,0.00046975707632539594,0.0,0.0,0.0,0.0,0.0,0.0,0.0,7.900936561711092e-05,-8.54714345513638e-05,4.746189055726546e-05,-4.766865780769791e-06,-2.5984834298303783e-06,2.736057431729222e-06,-8.341417520152383e-06,-0.0007386672489022932,-0.0011922976928560028,-0.00036446366049993256,2.5964336036348132e-05,-0.0002559259081674814,0.00025801764932932114,-0.00046975707632539594,-0.10880166292190552,18.277124404907227,-1.1164276599884033,-17.972139358520508,-0.4928489327430725,-2.2488436698913574,0.20724813640117645,0
61,0.30081892013549805,0.18418008089065552,-18.205713272094727,1.1441986560821533,17.999910354614258,0.4864402413368225,2.2296175956726074,-0.17337362468242645,0.0,0.0,0.0,0.0,0.0,0.0,0.0,0.1347543587453986,0.3974778732170407,0.31488999819369856,0.35435492170237304,0.07280809337459478,0.05798055575751299,-0.18487399204725585,-0.6091694738948553,-0.05745150705858281,-0.6666525068524677,-2.5945537190019037,-0.0556225055407777,2.5079750728998587,0.8763153870955045,-0.6090851748156966,-0.05753196718556838,-0.666603097082616,-2.5945565370258534,-0.05562143941554,2.507976027223799,0.8763108487046415,-0.001289127532016998,-0.0007985998302407746,-0.0007681745360961744,-0.0007250685025072757,0.00048241069811859365,0.000228941366808337,-0.001106480370711002,0.0,0.0,0.0,0.0,0.0,0.0,0.0,8.429907915874502e-05,-8.046012698557231e-05,4.940976985168266e-05,-2.8180239497466175e-06,1.0661252377031083e-06,9.543239403164705e-07,-4.5383908630070025e-06,0.001289127532016998,0.0007985998302407746,0.0007681745360961744,0.0007250685025072757,-0.00048241069811859365,-0.000228941366808337,0.001106480370711002,-0.18418008089065552,18.205713272094727,-1.1441986560821533,-17.999910354614258,-0.4864402413368225,-2.2296175956726074,0.17337362468242645,0
62,0.30499696731567383,0.18418008089065552,-18.205713272094727,1.1441986560821533,17.999910354614258,0.4864402413368225,2.2296175956726074,-0.17337362468242645,0.0,0.0,0.0,0.0,0.0,0.0,0.0,0.1347543587453986,0.3974778732170407,0.31488999819369856,0.35435492170237304,0.07280809337459478,0.05798055575751299,-0.18487399204725585,-0.6091694738948553,-0.05745150705858281,-0.6666525068524677,-2.5945537190019037,-0.0556225055407777,2.5079750728998587,0.8763153870955045,-0.6090851748156966,-0.05753196718556838,-0.666603097082616,-2.5945565370258534,-0.05562143941554,2.507976027223799,0.8763108487046415,-0.001289127532016998,-0.0007985998302407746,-0.0007681745360961744,-0.0007250685025072757,0.00048241069811859365,0.000228941366808337,-0.001106480370711002,0.0,0.0,0.0,0.0,0.0,0.0,0.0,8.429907915874502e-05,-8.046012698557231e-05,4.940976985168266e-05,-2.8180239497466175e-06,1.0661252377031083e-06,9.543239403164705e-07,-4.5383908630070025e-06,0.001289127532016998,0.0007985998302407746,0.0007681745360961744,0.0007250685025072757,-0.00048241069811859365,-0.000228941366808337,0.001106480370711002,-0.18418008089065552,18.205713272094727,-1.1441986560821533,-17.999910354614258,-0.4864402413368225,-2.2296175956726074,0.17337362468242645,0
63,0.3100008964538574,0.10880166292190552,-18.229516983032227,1.1441986560821533,17.999910354614258,0.4983420968055725,2.2424349784851074,-0.17978231608867645,0.0,0.0,0.0,0.0,0.0,0.0,0.0,0.13555317938703043,0.4041852700120141,0.3136497991046228,0.35494517778382484,0.0725048607439695,0.05749903506911175,-0.18496621328443666,-0.6091641841813137,-0.05744983662272755,-0.6666525074944469,-2.5945537098445373,-0.05562382799386963,2.5079761186490908,0.8763161384179627,-0.6090851748156966,-0.05753196718556838,-0.666603097082616,-2.5945565370258534,-0.05562143941554,2.507976027223799,0.8763108487046415,0.0005455481711346788,-0.0002820232423311769,-0.0006829836500366923,-0.0006118037174615376,-9.903366712887105e-05,-9.190847819181402e-05,-0.00022206652556591128,0.0,0.0,0.0,0.0,0.0,0.0,0.0,7.900936561711092e-05,-8.213056284083614e-05,4.94104118309302e-05,-2.8271813161673265e-06,2.388578329633184e-06,-9.142529178163272e-08,-5.28971332125483e-06,-0.0005455481711346788,0.0002820232423311769,0.0006829836500366923,0.0006118037174615376,9.903366712887105e-05,9.190847819181402e-05,0.00022206652556591128,-0.10880166292190552,18.229516983032227,-1.1441986560821533,-17.999910354614258,-0.4983420968055725,-2.2424349784851074,0.17978231608867645,0
64,0.3149983882904053,0.10880166292190552,-18.229516983032227,1.1441986560821533,17.999910354614258,0.4983420968055725,2.2424349784851074,-0.17978231608867645,0.0,0.0,0.0,0.0,0.0,0.0,0.0,0.13555317938703043,0.4041852700120141,0.3136497991046228,0.35494517778382484,0.0725048607439695,0.05749903506911175,-0.18496621328443666,-0.6091641841813137,-0.05744983662272755,-0.6666525074944469,-2.5945537098445373,-0.05562382799386963,2.5079761186490908,0.8763161384179627,-0.6090851748156966,-0.05753196718556838,-0.666603097082616,-2.5945565370258534,-0.05562143941554,2.507976027223799,0.8763108487046415,0.0005455481711346788,-0.0002820232423311769,-0.0006829836500366923,-0.0006118037174615376,-9.903366712887105e-05,-9.190847819181402e-05,-0.00022206652556591128,0.0,0.0,0.0,0.0,0.0,0.0,0.0,7.900936561711092e-05,-8.213056284083614e-05,4.94104118309302e-05,-2.8271813161673265e-06,2.388578329633184e-06,-9.142529178163272e-08,-5.28971332125483e-06,-0.0005455481711346788,0.0002820232423311769,0.0006829836500366923,0.0006118037174615376,9.903366712887105e-05,9.190847819181402e-05,0.00022206652556591128,-0.10880166292190552,18.229516983032227,-1.1441986560821533,-17.999910354614258,-0.4983420968055725,-2.2424349784851074,0.17978231608867645,0
65,0.31999731063842773,0.10880166292190552,-18.229516983032227,1.1441986560821533,17.999910354614258,0.4983420968055725,2.2424349784851074,-0.17978231608867645,0.0,0.0,0.0,0.0,0.0,0.0,0.0,0.13555317938703043,0.4041852700120141,0.3136497991046228,0.35494517778382484,0.0725048607439695,0.05749903506911175,-0.18496621328443666,-0.6091641841813137,-0.05744983662272755,-0.6666525074944469,-2.5945537098445373,-0.05562382799386963,2.5079761186490908,0.8763161384179627,-0.6090851748156966,-0.05753196718556838,-0.666603097082616,-2.5945565370258534,-0.05562143941554,2.507976027223799,0.8763108487046415,0.0005455481711346788,-0.0002820232423311769,-0.0006829836500366923,-0.0006118037174615376,-9.903366712887105e-05,-9.190847819181402e-05,-0.00022206652556591128,0.0,0.0,0.0,0.0,0.0,0.0,0.0,7.900936561711092e-05,-8.213056284083614e-05,4.94104118309302e-05,-2.8271813161673265e-06,2.388578329633184e-06,-9.142529178163272e-08,-5.28971332125483e-06,-0.0005455481711346788,0.0002820232423311769,0.0006829836500366923,0.0006118037174615376,9.903366712887105e-05,9.190847819181402e-05,0.00022206652556591128,-0.10880166292190552,18.229516983032227,-1.1441986560821533,-17.999910354614258,-0.4983420968055725,-2.2424349784851074,0.17978231608867645,0
66,0.3249971866607666,0.10880166292190552,-18.229516983032227,1.1441986560821533,17.999910354614258,0.4983420968055725,2.2424349784851074,-0.17978231608867645,0.0,0.0,0.0,0.0,0.0,0.0,0.0,0.13555317938703043,0.4041852700120141,0.3136497991046228,0.35494517778382484,0.0725048607439695,0.05749903506911175,-0.18496621328443666,-0.6091641841813137,-0.05744983662272755,-0.6666525074944469,-2.5945537098445373,-0.05562382799386963,2.5079761186490908,0.8763161384179627,-0.6090851748156966,-0.05753196718556838,-0.666603097082616,-2.5945565370258534,-0.05562143941554,2.507976027223799,0.8763108487046415,0.0005455481711346788,-0.0002820232423311769,-0.0006829836500366923,-0.0006118037174615376,-9.903366712887105e-05,-9.190847819181402e-05,-0.00022206652556591128,0.0,0.0,0.0,0.0,0.0,0.0,0.0,7.900936561711092e-05,-8.213056284083614e-05,4.94104118309302e-05,-2.8271813161673265e-06,2.388578329633184e-06,-9.142529178163272e-08,-5.28971332125483e-06,-0.0005455481711346788,0.0002820232423311769,0.0006829836500366923,0.0006118037174615376,9.903366712887105e-05,9.190847819181402e-05,0.00022206652556591128,-0.10880166292190552,18.229516983032227,-1.1441986560821533,-17.999910354614258,-0.4983420968055725,-2.2424349784851074,0.17978231608867645,0
67,0.32999658584594727,0.13260537385940552,-18.277124404907227,1.1680023670196533,17.999910354614258,0.4928489327430725,2.2424349784851074,-0.19351522624492645,0.0,0.0,0.0,0.0,0.0,0.0,0.0,0.13444081269738936,0.40174813051989755,0.3129222420006931,0.3588575130029634,0.07284635257697893,0.057962249078024816,-0.18451580136356002,-0.6091658546171689,-0.05744649575101702,-0.6666541782512981,-2.594553719001852,-0.05562309919057985,2.5079760033480474,0.8763176642970906,-0.6090851748156966,-0.05753196718556838,-0.666603097082616,-2.5945565370258534,-0.05562143941554,2.507976027223799,0.8763108487046415,-0.00031517828108295937,-7.225572178630689e-05,-0.0008946784354798958,-0.00028699093956359515,7.711277943912911e-05,2.8200820265070803e-05,0.0001253497000544003,0.0,0.0,0.0,0.0,0.0,0.0,0.0,8.067980147230536e-05,-8.54714345513638e-05,5.1081168682132194e-05,-2.818024001260966e-06,1.6597750398528177e-06,2.3875751598012585e-08,-6.815592449083141e-06,0.00031517828108295937,7.225572178630689e-05,0.0008946784354798958,0.00028699093956359515,-7.711277943912911e-05,-2.8200820265070803e-05,-0.0001253497000544003,-0.13260537385940552,18.277124404907227,-1.1680023670196533,-17.999910354614258,-0.4928489327430725,-2.2424349784851074,0.19351522624492645,0
68,0.33499789237976074,0.13260537385940552,-18.277124404907227,1.1680023670196533,17.999910354614258,0.4928489327430725,2.2424349784851074,-0.19351522624492645,0.0,0.0,0.0,0.0,0.0,0.0,0.0,0.13444081269738936,0.40174813051989755,0.3129222420006931,0.3588575130029634,0.07284635257697893,0.057962249078024816,-0.18451580136356002,-0.6091658546171689,-0.05744649575101702,-0.6666541782512981,-2.594553719001852,-0.05562309919057985,2.5079760033480474,0.8763176642970906,-0.6090851748156966,-0.05753196718556838,-0.666603097082616,-2.5945565370258534,-0.05562143941554,2.507976027223799,0.8763108487046415,-0.00031517828108295937,-7.225572178630689e-05,-0.0008946784354798958,-0.00028699093956359515,7.711277943912911e-05,2.8200820265070803e-05,0.0001253497000544003,0.0,0.0,0.0,0.0,0.0,0.0,0.0,8.067980147230536e-05,-8.54714345513638e-05,5.1081168682132194e-05,-2.818024001260966e-06,1.6597750398528177e-06,2.3875751598012585e-08,-6.815592449083141e-06,0.00031517828108295937,7.225572178630689e-05,0.0008946784354798958,0.00028699093956359515,-7.711277943912911e-05,-2.8200820265070803e-05,-0.0001253497000544003,-0.13260537385940552,18.277124404907227,-1.1680023670196533,-17.999910354614258,-0.4928489327430725,-2.2424349784851074,0.19351522624492645,0
69,0.34001779556274414,0.10880166292190552,-18.253320693969727,1.1164276599884033,17.972139358520508,0.4864402413368225,2.2552523612976074,-0.20083944499492645,0.0,0.0,0.0,0.0,0.0,0.0,0.0,0.13252464523001095,0.4013520294616571,0.314875469710281,0.35070601881639213,0.07229981505655306,0.057690401972164754,-0.18414731056527417,-0.6091641841813137,-0.05744816618687228,-0.6666505589736136,-2.5945517701600727,-0.0556225055648157,2.507975300316178,0.8763184780991738,-0.6090851748156966,-0.05753196718556838,-0.666603097082616,-2.5945565370258534,-0.05562143941554,2.507976027223799,0.8763108487046415,0.0007287389957883624,-0.0010213790864411145,-8.353955390927991e-05,-0.0001819753762129405,0.00033710219643913724,-0.00016904781752168424,0.0007060269660742148,0.0,0.0,0.0,0.0,0.0,0.0,0.0,7.900936561711092e-05,-8.380099869609997e-05,4.7461890997579914e-05,-4.766865780769791e-06,1.066149275696926e-06,7.269076207627734e-07,-7.629394532360223e-06,-0.0007287389957883624,0.0010213790864411145,8.353955390927991e-05,0.0001819753762129405,-0.00033710219643913724,0.00016904781752168424,-0.0007060269660742148,-0.10880166292190552,18.253320693969727,-1.1164276599884033,-17.972139358520508,-0.4864402413368225,-2.2552523612976074,0.20083944499492645,0
70,0.3450045585632324,0.10880166292190552,-18.253320693969727,1.1164276599884033,17.972139358520508,0.4864402413368225,2.2552523612976074,-0.20083944499492645,0.0,0.0,0.0,0.0,0.0,0.0,0.0,0.13252464523001095,0.4013520294616571,0.314875469710281,0.35070601881639213,0.07229981505655306,0.057690401972164754,-0.18414731056527417,-0.6091641841813137,-0.05744816618687228,-0.6666505589736136,-2.5945517701600727,-0.0556225055648157,2.507975300316178,0.8763184780991738,-0.6090851748156966,-0.05753196718556838,-0.666603097082616,-2.5945565370258534,-0.05562143941554,2.507976027223799,0.8763108487046415,0.0007287389957883624,-0.0010213790864411145,-8.353955390927991e-05,-0.0001819753762129405,0.00033710219643913724,-0.00016904781752168424,0.0007060269660742148,0.0,0.0,0.0,0.0,0.0,0.0,0.0,7.900936561711092e-05,-8.380099869609997e-05,4.7461890997579914e-05,-4.766865780769791e-06,1.066149275696926e-06,7.269076207627734e-07,-7.629394532360223e-06,-0.0007287389957883624,0.0010213790864411145,8.353955390927991e-05,0.0001819753762129405,-0.00033710219643913724,0.00016904781752168424,-0.0007060269660742148,-0.10880166292190552,18.253320693969727,-1.1164276599884033,-17.972139358520508,-0.4864402413368225,-2.2552523612976074,0.20083944499492645,0
71,0.3499593734741211,0.10880166292190552,-18.253320693969727,1.1164276599884033,17.972139358520508,0.4864402413368225,2.2552523612976074,-0.20083944499492645,0.0,0.0,0.0,0.0,0.0,0.0,0.0,0.13252464523001095,0.4013520294616571,0.314875469710281,0.35070601881639213,0.07229981505655306,0.057690401972164754,-0.18414731056527417,-0.6091641841813137,-0.05744816618687228,-0.6666505589736136,-2.5945517701600727,-0.0556225055648157,2.507975300316178,0.8763184780991738,-0.6090851748156966,-0.05753196718556838,-0.666603097082616,-2.5945565370258534,-0.05562143941554,2.507976027223799,0.8763108487046415,0.0007287389957883624,-0.0010213790864411145,-8.353955390927991e-05,-0.0001819753762129405,0.00033710219643913724,-0.00016904781752168424,0.0007060269660742148,0.0,0.0,0.0,0.0,0.0,0.0,0.0,7.900936561711092e-05,-8.380099869609997e-05,4.7461890997579914e-05,-4.766865780769791e-06,1.066149275696926e-06,7.269076207627734e-07,-7.629394532360223e-06,-0.0007287389957883624,0.0010213790864411145,8.353955390927991e-05,0.0001819753762129405,-0.00033710219643913724,0.00016904781752168424,-0.0007060269660742148,-0.10880166292190552,18.253320693969727,-1.1164276599884033,-17.972139358520508,-0.4864402413368225,-2.2552523612976074,0.20083944499492645,0
72,0.35496091842651367,0.10880166292190552,-18.253320693969727,1.1164276599884033,17.972139358520508,0.4864402413368225,2.2552523612976074,-0.20083944499492645,0.0,0.0,0.0,0.0,0.0,0.0,0.0,0.13252464523001095,0.4013520294616571,0.314875469710281,0.35070601881639213,0.07229981505655306,0.057690401972164754,-0.18414731056527417,-0.6091641841813137,-0.05744816618687228,-0.6666505589736136,-2.5945517701600727,-0.0556225055648157,2.507975300316178,0.8763184780991738,-0.6090851748156966,-0.05753196718556838,-0.666603097082616,-2.5945565370258534,-0.05562143941554,2.507976027223799,0.8763108487046415,0.0007287389957883624,-0.0010213790864411145,-8.353955390927991e-05,-0.0001819753762129405,0.00033710219643913724,-0.00016904781752168424,0.0007060269660742148,0.0,0.0,0.0,0.0,0.0,0.0,0.0,7.900936561711092e-05,-8.380099869609997e-05,4.7461890997579914e-05,-4.766865780769791e-06,1.066149275696926e-06,7.269076207627734e-07,-7.629394532360223e-06,-0.0007287389957883624,0.0010213790864411145,8.353955390927991e-05,0.0001819753762129405,-0.00033710219643913724,0.00016904781752168424,-0.0007060269660742148,-0.10880166292190552,18.253320693969727,-1.1164276599884033,-17.972139358520508,-0.4864402413368225,-2.2552523612976074,0.20083944499492645,0
73,0.3600437641143799,0.10880166292190552,-18.253320693969727,1.1164276599884033,17.972139358520508,0.4864402413368225,2.2552523612976074,-0.20083944499492645,0.0,0.0,0.0,0.0,0.0,0.0,0.0,0.13252464523001095,0.4013520294616571,0.314875469710281,0.35070601881639213,0.07229981505655306,0.057690401972164754,-0.18414731056527417,-0.6091641841813137,-0.05744816618687228,-0.6666505589736136,-2.5945517701600727,-0.0556225055648157,2.507975300316178,0.8763184780991738,-0.6090851748156966,-0.05753196718556838,-0.666603097082616,-2.5945565370258534,-0.05562143941554,2.507976027223799,0.8763108487046415,0.0007287389957883624,-0.0010213790864411145,-8.353955390927991e-05,-0.0001819753762129405,0.00033710219643913724,-0.00016904781752168424,0.0007060269660742148,0.0,0.0,0.0,0.0,0.0,0.0,0.0,7.900936561711092e-05,-8.380099869609997e-05,4.7461890997579914e-05,-4.766865780769791e-06,1.066149275696926e-06,7.269076207627734e-07,-7.629394532360223e-06,-0.0007287389957883624,0.0010213790864411145,8.353955390927991e-05,0.0001819753762129405,-0.00033710219643913724,0.00016904781752168424,-0.0007060269660742148,-0.10880166292190552,18.253320693969727,-1.1164276599884033,-17.972139358520508,-0.4864402413368225,-2.2552523612976074,0.20083944499492645,0
74,0.3650064468383789,0.10880166292190552,-18.304895401000977,1.1164276599884033,17.972139358520508,0.4983420968055725,2.2360262870788574,-0.20724813640117645,0.0,0.0,0.0,0.0,0.0,0.0,0.0,0.12677793211890048,0.3922590979695792,0.3084346506213429,0.3438473619820062,0.07312827678147049,0.05809593249374631,-0.1836561652043554,-0.6091641841813137,-0.05744454690918588,-0.6666504809724735,-2.5945517701600727,-0.05562382355861308,2.507976488865858,0.8763191858153461,-0.6090851748156966,-0.05753196718556838,-0.666603097082616,-2.5945565370258534,-0.05562143941554,2.507976027223799,0.8763108487046415,0.00032676464696818915,0.0011214476050680126,-3.108568095539893e-05,-4.231629714824391e-05,2.9153980291535192e-05,9.58553818567539e-05,0.0006302099099973997,0.0,0.0,0.0,0.0,0.0,0.0,0.0,7.900936561711092e-05,-8.742027638250494e-05,4.7383889857477435e-05,-4.766865780769791e-06,2.3841430730822677e-06,-4.616420588021697e-07,-8.33711070458154e-06,-0.00032676464696818915,-0.0011214476050680126,3.108568095539893e-05,4.231629714824391e-05,-2.9153980291535192e-05,-9.58553818567539e-05,-0.0006302099099973997,-0.10880166292190552,18.304895401000977,-1.1164276599884033,-17.972139358520508,-0.4983420968055725,-2.2360262870788574,0.20724813640117645,0
75,0.3699991703033447,0.10880166292190552,-18.304895401000977,1.1164276599884033,17.972139358520508,0.4983420968055725,2.2360262870788574,-0.20724813640117645,0.0,0.0,0.0,0.0,0.0,0.0,0.0,0.12677793211890048,0.3922590979695792,0.3084346506213429,0.3438473619820062,0.07312827678147049,0.05809593249374631,-0.1836561652043554,-0.6091641841813137,-0.05744454690918588,-0.6666504809724735,-2.5945517701600727,-0.05562382355861308,2.507976488865858,0.8763191858153461,-0.6090851748156966,-0.05753196718556838,-0.666603097082616,-2.5945565370258534,-0.05562143941554,2.507976027223799,0.8763108487046415,0.00032676464696818915,0.0011214476050680126,-3.108568095539893e-05,-4.231629714824391e-05,2.9153980291535192e-05,9.58553818567539e-05,0.0006302099099973997,0.0,0.0,0.0,0.0,0.0,0.0,0.0,7.900936561711092e-05,-8.742027638250494e-05,4.7383889857477435e-05,-4.766865780769791e-06,2.3841430730822677e-06,-4.616420588021697e-07,-8.33711070458154e-06,-0.00032676464696818915,-0.0011214476050680126,3.108568095539893e-05,4.231629714824391e-05,-2.9153980291535192e-05,-9.58553818567539e-05,-0.0006302099099973997,-0.10880166292190552,18.304895401000977,-1.1164276599884033,-17.972139358520508,-0.4983420968055725,-2.2360262870788574,0.20724813640117645,0
76,0.3750038146972656,0.10880166292190552,-18.229516983032227,1.1441986560821533,17.948335647583008,0.4983420968055725,2.2360262870788574,-0.19351522624492645,0.0,0.0,0.0,0.0,0.0,0.0,0.0,0.13158271224105733,0.39797398532907985,0.31496535053903346,0.34548978233930955,0.07280674640977992,0.05811417409950673,-0.18300274705586023,-0.6091641841813137,-0.05744983662272755,-0.666652507815298,-2.5945500997242177,-0.05562382799386143,2.5079745977672263,0.8763176642970825,-0.6090851748156966,-0.05753196718556838,-0.666603097082616,-2.5945565370258534,-0.05562143941554,2.507976027223799,0.8763108487046415,0.0003476157296467135,0.00013544296622875894,-0.0006871666936650388,0.0006125797053148132,-0.00015991552682374205,0.00037114292033323446,0.00016880680337593795,0.0,0.0,0.0,0.0,0.0,0.0,0.0,7.900936561711092e-05,-8.213056284083614e-05,4.9410732681942626e-05,-6.4373016357421875e-06,2.3885783214314116e-06,1.4294565726657993e-06,-6.815592440978513e-06,-0.0003476157296467135,-0.00013544296622875894,0.0006871666936650388,-0.0006125797053148132,0.00015991552682374205,-0.00037114292033323446,-0.00016880680337593795,-0.10880166292190552,18.229516983032227,-1.1441986560821533,-17.948335647583008,-0.4983420968055725,-2.2360262870788574,0.19351522624492645,0
77,0.38004136085510254,0.10880166292190552,-18.229516983032227,1.1441986560821533,17.948335647583008,0.4983420968055725,2.2360262870788574,-0.19351522624492645,0.0,0.0,0.0,0.0,0.0,0.0,0.0,0.13158271224105733,0.39797398532907985,0.31496535053903346,0.34548978233930955,0.07280674640977992,0.05811417409950673,-0.18300274705586023,-0.6091641841813137,-0.05744983662272755,-0.666652507815298,-2.5945500997242177,-0.05562382799386143,2.5079745977672263,0.8763176642970825,-0.6090851748156966,-0.05753196718556838,-0.666603097082616,-2.5945565370258534,-0.05562143941554,2.507976027223799,0.8763108487046415,0.0003476157296467135,0.00013544296622875894,-0.0006871666936650388,0.0006125797053148132,-0.00015991552682374205,0.00037114292033323446,0.00016880680337593795,0.0,0.0,0.0,0.0,0.0,0.0,0.0,7.900936561711092e-05,-8.213056284083614e-05,4.9410732681942626e-05,-6.4373016357421875e-06,2.3885783214314116e-06,1.4294565726657993e-06,-6.815592440978513e-06,-0.0003476157296467135,-0.00013544296622875894,0.0006871666936650388,-0.0006125797053148132,0.00015991552682374205,-0.00037114292033323446,-0.00016880680337593795,-0.10880166292190552,18.229516983032227,-1.1441986560821533,-17.948335647583008,-0.4983420968055725,-2.2360262870788574,0.19351522624492645,0
78,0.3850071430206299,0.16037636995315552,-18.205713272094727,1.1164276599884033,17.972139358520508,0.5047507882118225,2.2424349784851074,-0.22098104655742645,0.0,0.0,0.0,0.0,0.0,0.0,0.0,0.1293727741625984,0.3984520796412346,0.31592466425369636,0.351528302516401,0.07231639782787574,0.05919803482332586,-0.18263531143399542,-0.609167803459,-0.05745150705858281,-0.6666505589736136,-2.5945517701600727,-0.055624539908430054,2.5079725075631196,0.876320716054903,-0.6090851748156966,-0.05753196718556838,-0.666603097082616,-2.5945565370258534,-0.05562143941554,2.507976027223799,0.8763108487046415,-0.000721286147735498,-0.0007022730729644276,0.00014359741933005354,0.00039754556433816335,-0.00035707766741284805,-0.00019497462693581492,0.0010011610749562983,0.0,0.0,0.0,0.0,0.0,0.0,0.0,8.262864330343955e-05,-8.046012698557231e-05,4.7461890997579914e-05,-4.766865780769791e-06,3.1004928900540962e-06,3.5196606793519436e-06,-9.867350261538732e-06,0.000721286147735498,0.0007022730729644276,-0.00014359741933005354,-0.00039754556433816335,0.00035707766741284805,0.00019497462693581492,-0.0010011610749562983,-0.16037636995315552,18.205713272094727,-1.1164276599884033,-17.972139358520508,-0.5047507882118225,-2.2424349784851074,0.22098104655742645,0
79,0.39000654220581055,0.16037636995315552,-18.205713272094727,1.1164276599884033,17.972139358520508,0.5047507882118225,2.2424349784851074,-0.22098104655742645,0.0,0.0,0.0,0.0,0.0,0.0,0.0,0.1293727741625984,0.3984520796412346,0.31592466425369636,0.351528302516401,0.07231639782787574,0.05919803482332586,-0.18263531143399542,-0.609167803459,-0.05745150705858281,-0.6666505589736136,-2.5945517701600727,-0.055624539908430054,2.5079725075631196,0.876320716054903,-0.6090851748156966,-0.05753196718556838,-0.666603097082616,-2.5945565370258534,-0.05562143941554,2.507976027223799,0.8763108487046415,-0.000721286147735498,-0.0007022730729644276,0.00014359741933005354,0.00039754556433816335,-0.00035707766741284805,-0.00019497462693581492,0.0010011610749562983,0.0,0.0,0.0,0.0,0.0,0.0,0.0,8.262864330343955e-05,-8.046012698557231e-05,4.7461890997579914e-05,-4.766865780769791e-06,3.1004928900540962e-06,3.5196606793519436e-06,-9.867350261538732e-06,0.000721286147735498,0.0007022730729644276,-0.00014359741933005354,-0.00039754556433816335,0.00035707766741284805,0.00019497462693581492,-0.0010011610749562983,-0.16037636995315552,18.205713272094727,-1.1164276599884033,-17.972139358520508,-0.5047507882118225,-2.2424349784851074,0.22098104655742645,0
