rezayati/contactInterpretation/dataset/franka_main/labeled_data/link3/e1_7.csv
index,time,tau_J0,tau_J1,tau_J2,tau_J3,tau_J4,tau_J5,tau_J6,tau_J_d0,tau_J_d1,tau_J_d2,tau_J_d3,tau_J_d4,tau_J_d5,tau_J_d6,tau_ext0,tau_ext1,tau_ext2,tau_ext3,tau_ext4,tau_ext5,tau_ext6,q0,q1,q2,q3,q4,q5,q6,q_d0,q_d1,q_d2,q_d3,q_d4,q_d5,q_d6,dq0,dq1,dq2,dq3,dq4,dq5,dq6,dq_d0,dq_d1,dq_d2,dq_d3,dq_d4,dq_d5,dq_d6,e0,e1,e2,e3,e4,e5,e6,de0,de1,de2,de3,de4,de5,de6,etau_J0,etau_J1,etau_J2,etau_J3,etau_J4,etau_J5,etau_J6,label
1,0.0,-0.19667929410934448,-11.949304580688477,1.3425629138946533,21.717256546020508,0.3738303780555725,2.5207552909851074,-0.20724813640117645,0.0,0.0,0.0,0.0,0.0,0.0,0.0,-0.16106111626845335,0.3638527579450553,0.12182373839212356,0.4473864681989838,-0.16182676868234547,0.12525519432048954,-0.2085917021820702,0.17255151317038545,-0.48756182208324583,-0.11146474699832094,-1.946461604787592,0.13361134407917655,2.595551071855757,0.9452476107196676,0.1728802376190821,-0.48752024683155326,-0.11147110072896137,-1.9463801863486305,0.1336059019074957,2.595550359778934,0.9452445589611904,0.000553346974253081,-6.28813597449305e-05,-0.0004913299027748088,0.0003635532697414386,1.0303299466279563e-05,0.0001967195047126379,0.00037789757713253456,0.0,0.0,0.0,0.0,0.0,0.0,0.0,0.0003287244486966656,4.157525169257159e-05,-6.3537306404237714e-06,8.141843896147805e-05,-5.442171680858365e-06,-7.120768228396912e-07,-3.051758477146116e-06,-0.000553346974253081,6.28813597449305e-05,0.0004913299027748088,-0.0003635532697414386,-1.0303299466279563e-05,-0.0001967195047126379,-0.00037789757713253456,0.19667929410934448,11.949304580688477,-1.3425629138946533,-21.717256546020508,-0.3738303780555725,-2.5207552909851074,0.20724813640117645,0
2,0.004996538162231445,-0.19667929410934448,-11.949304580688477,1.3425629138946533,21.717256546020508,0.3738303780555725,2.5207552909851074,-0.20724813640117645,0.0,0.0,0.0,0.0,0.0,0.0,0.0,-0.16106111626845335,0.3638527579450553,0.12182373839212356,0.4473864681989838,-0.16182676868234547,0.12525519432048954,-0.2085917021820702,0.17255151317038545,-0.48756182208324583,-0.11146474699832094,-1.946461604787592,0.13361134407917655,2.595551071855757,0.9452476107196676,0.1728802376190821,-0.48752024683155326,-0.11147110072896137,-1.9463801863486305,0.1336059019074957,2.595550359778934,0.9452445589611904,0.000553346974253081,-6.28813597449305e-05,-0.0004913299027748088,0.0003635532697414386,1.0303299466279563e-05,0.0001967195047126379,0.00037789757713253456,0.0,0.0,0.0,0.0,0.0,0.0,0.0,0.0003287244486966656,4.157525169257159e-05,-6.3537306404237714e-06,8.141843896147805e-05,-5.442171680858365e-06,-7.120768228396912e-07,-3.051758477146116e-06,-0.000553346974253081,6.28813597449305e-05,0.0004913299027748088,-0.0003635532697414386,-1.0303299466279563e-05,-0.0001967195047126379,-0.00037789757713253456,0.19667929410934448,11.949304580688477,-1.3425629138946533,-21.717256546020508,-0.3738303780555725,-2.5207552909851074,0.20724813640117645,0
3,0.009998559951782227,-0.17287558317184448,-12.024682998657227,1.2909882068634033,21.741060256958008,0.3793235421180725,2.5271639823913574,-0.17978231608867645,0.0,0.0,0.0,0.0,0.0,0.0,0.0,-0.16251307816675184,0.33382616328637976,0.12663249970484325,0.46587960814894613,-0.16152788065612222,0.12797028931049184,-0.20862134571769794,0.1725505697084365,-0.4875565324791684,-0.11146089116397195,-1.9464632752234474,0.13361073372761406,2.595550359778934,0.945244558961855,0.1728802376190821,-0.48752024683155326,-0.11147110072896137,-1.9463801863486305,0.1336059019074957,2.595550359778934,0.9452445589611904,-0.00017901813532698367,0.0006430783009331619,0.0011920106129352035,0.0006975643230083185,-0.00031787317341544816,3.698032049492221e-05,-0.0006438505003027809,0.0,0.0,0.0,0.0,0.0,0.0,0.0,0.0003296679106456202,3.628564761515296e-05,-1.02095649894135e-05,8.308887481689453e-05,-4.831820118372798e-06,0.0,-6.645795025406187e-13,0.00017901813532698367,-0.0006430783009331619,-0.0011920106129352035,-0.0006975643230083185,0.00031787317341544816,-3.698032049492221e-05,0.0006438505003027809,0.17287558317184448,12.024682998657227,-1.2909882068634033,-21.741060256958008,-0.3793235421180725,-2.5271639823913574,0.17978231608867645,0
4,0.015001058578491211,-0.17287558317184448,-12.024682998657227,1.2909882068634033,21.741060256958008,0.3793235421180725,2.5271639823913574,-0.17978231608867645,0.0,0.0,0.0,0.0,0.0,0.0,0.0,-0.16251307816675184,0.33382616328637976,0.12663249970484325,0.46587960814894613,-0.16152788065612222,0.12797028931049184,-0.20862134571769794,0.1725505697084365,-0.4875565324791684,-0.11146089116397195,-1.9464632752234474,0.13361073372761406,2.595550359778934,0.945244558961855,0.1728802376190821,-0.48752024683155326,-0.11147110072896137,-1.9463801863486305,0.1336059019074957,2.595550359778934,0.9452445589611904,-0.00017901813532698367,0.0006430783009331619,0.0011920106129352035,0.0006975643230083185,-0.00031787317341544816,3.698032049492221e-05,-0.0006438505003027809,0.0,0.0,0.0,0.0,0.0,0.0,0.0,0.0003296679106456202,3.628564761515296e-05,-1.02095649894135e-05,8.308887481689453e-05,-4.831820118372798e-06,0.0,-6.645795025406187e-13,0.00017901813532698367,-0.0006430783009331619,-0.0011920106129352035,-0.0006975643230083185,0.00031787317341544816,-3.698032049492221e-05,0.0006438505003027809,0.17287558317184448,12.024682998657227,-1.2909882068634033,-21.741060256958008,-0.3793235421180725,-2.5271639823913574,0.17978231608867645,0
5,0.020008087158203125,-0.14510458707809448,-12.048486709594727,1.2909882068634033,21.717256546020508,0.3793235421180725,2.5335726737976074,-0.17337362468242645,0.0,0.0,0.0,0.0,0.0,0.0,0.0,-0.16290900940897518,0.34025290283056026,0.12382453810738957,0.4569788291465537,-0.16129907555681453,0.1268550212854827,-0.20856176549974567,0.17255004479561595,-0.487554862006975,-0.11146088805920587,-1.946461604787592,0.13361073372761406,2.595549647702111,0.9452438468850322,0.1728802376190821,-0.48752024683155326,-0.11147110072896137,-1.9463801863486305,0.1336059019074957,2.595550359778934,0.9452445589611904,-0.00033911708766037505,0.0001733589260304811,0.000468035835723345,0.0006674334813053414,-0.0004017504533519399,-0.00028110785338666093,-0.0008884342712586822,0.0,0.0,0.0,0.0,0.0,0.0,0.0,0.0003301928234661633,3.46151754217483e-05,-1.0212669755496617e-05,8.141843896147805e-05,-4.831820118372798e-06,7.120768228396912e-07,7.120761582601887e-07,0.00033911708766037505,-0.0001733589260304811,-0.000468035835723345,-0.0006674334813053414,0.0004017504533519399,0.00028110785338666093,0.0008884342712586822,0.14510458707809448,12.048486709594727,-1.2909882068634033,-21.717256546020508,-0.3793235421180725,-2.5335726737976074,0.17337362468242645,0
6,0.025045394897460938,-0.14510458707809448,-12.048486709594727,1.2909882068634033,21.717256546020508,0.3793235421180725,2.5335726737976074,-0.17337362468242645,0.0,0.0,0.0,0.0,0.0,0.0,0.0,-0.16290900940897518,0.34025290283056026,0.12382453810738957,0.4569788291465537,-0.16129907555681453,0.1268550212854827,-0.20856176549974567,0.17255004479561595,-0.487554862006975,-0.11146088805920587,-1.946461604787592,0.13361073372761406,2.595549647702111,0.9452438468850322,0.1728802376190821,-0.48752024683155326,-0.11147110072896137,-1.9463801863486305,0.1336059019074957,2.595550359778934,0.9452445589611904,-0.00033911708766037505,0.0001733589260304811,0.000468035835723345,0.0006674334813053414,-0.0004017504533519399,-0.00028110785338666093,-0.0008884342712586822,0.0,0.0,0.0,0.0,0.0,0.0,0.0,0.0003301928234661633,3.46151754217483e-05,-1.0212669755496617e-05,8.141843896147805e-05,-4.831820118372798e-06,7.120768228396912e-07,7.120761582601887e-07,0.00033911708766037505,-0.0001733589260304811,-0.000468035835723345,-0.0006674334813053414,0.0004017504533519399,0.00028110785338666093,0.0008884342712586822,0.14510458707809448,12.048486709594727,-1.2909882068634033,-21.717256546020508,-0.3793235421180725,-2.5335726737976074,0.17337362468242645,0
7,0.030017614364624023,-0.17287558317184448,-11.973108291625977,1.3147919178009033,21.768831253051758,0.3738303780555725,2.5271639823913574,-0.22098104655742645,0.0,0.0,0.0,0.0,0.0,0.0,0.0,-0.15702258594296975,0.3495473221550378,0.12717797242454304,0.44596532458524496,-0.1617182058181513,0.12563416446830453,-0.20808083234839062,0.1725501864577361,-0.4875601513207901,-0.11146248823481564,-1.9464652240652784,0.1336113045880333,2.595550359778934,0.9452491365985738,0.1728802376190821,-0.48752024683155326,-0.11147110072896137,-1.9463801863486305,0.1336059019074957,2.595550359778934,0.9452445589611904,0.0008331188840717851,-0.0011248825133069462,3.3382484322193997e-05,-0.0006169342805492608,-0.00017016245725405186,5.5598434090129204e-05,0.0013227559650198927,0.0,0.0,0.0,0.0,0.0,0.0,0.0,0.00033005116134601775,3.990448923685275e-05,-8.612494145729399e-06,8.50377166479177e-05,-5.402680537613946e-06,0.0,-4.5776373833739115e-06,-0.0008331188840717851,0.0011248825133069462,-3.3382484322193997e-05,0.0006169342805492608,0.00017016245725405186,-5.5598434090129204e-05,-0.0013227559650198927,0.17287558317184448,11.973108291625977,-1.3147919178009033,-21.768831253051758,-0.3738303780555725,-2.5271639823913574,0.22098104655742645,0
8,0.035646677017211914,-0.17287558317184448,-11.973108291625977,1.3147919178009033,21.768831253051758,0.3738303780555725,2.5271639823913574,-0.22098104655742645,0.0,0.0,0.0,0.0,0.0,0.0,0.0,-0.15702258594296975,0.3495473221550378,0.12717797242454304,0.44596532458524496,-0.1617182058181513,0.12563416446830453,-0.20808083234839062,0.1725501864577361,-0.4875601513207901,-0.11146248823481564,-1.9464652240652784,0.1336113045880333,2.595550359778934,0.9452491365985738,0.1728802376190821,-0.48752024683155326,-0.11147110072896137,-1.9463801863486305,0.1336059019074957,2.595550359778934,0.9452445589611904,0.0008331188840717851,-0.0011248825133069462,3.3382484322193997e-05,-0.0006169342805492608,-0.00017016245725405186,5.5598434090129204e-05,0.0013227559650198927,0.0,0.0,0.0,0.0,0.0,0.0,0.0,0.00033005116134601775,3.990448923685275e-05,-8.612494145729399e-06,8.50377166479177e-05,-5.402680537613946e-06,0.0,-4.5776373833739115e-06,-0.0008331188840717851,0.0011248825133069462,-3.3382484322193997e-05,0.0006169342805492608,0.00017016245725405186,-5.5598434090129204e-05,-0.0013227559650198927,0.17287558317184448,11.973108291625977,-1.3147919178009033,-21.768831253051758,-0.3738303780555725,-2.5271639823913574,0.22098104655742645,0
9,0.04002118110656738,-0.17287558317184448,-11.973108291625977,1.3147919178009033,21.768831253051758,0.3738303780555725,2.5271639823913574,-0.22098104655742645,0.0,0.0,0.0,0.0,0.0,0.0,0.0,-0.15702258594296975,0.3495473221550378,0.12717797242454304,0.44596532458524496,-0.1617182058181513,0.12563416446830453,-0.20808083234839062,0.1725501864577361,-0.4875601513207901,-0.11146248823481564,-1.9464652240652784,0.1336113045880333,2.595550359778934,0.9452491365985738,0.1728802376190821,-0.48752024683155326,-0.11147110072896137,-1.9463801863486305,0.1336059019074957,2.595550359778934,0.9452445589611904,0.0008331188840717851,-0.0011248825133069462,3.3382484322193997e-05,-0.0006169342805492608,-0.00017016245725405186,5.5598434090129204e-05,0.0013227559650198927,0.0,0.0,0.0,0.0,0.0,0.0,0.0,0.00033005116134601775,3.990448923685275e-05,-8.612494145729399e-06,8.50377166479177e-05,-5.402680537613946e-06,0.0,-4.5776373833739115e-06,-0.0008331188840717851,0.0011248825133069462,-3.3382484322193997e-05,0.0006169342805492608,0.00017016245725405186,-5.5598434090129204e-05,-0.0013227559650198927,0.17287558317184448,11.973108291625977,-1.3147919178009033,-21.768831253051758,-0.3738303780555725,-2.5271639823913574,0.22098104655742645,0
10,0.0449979305267334,-0.17287558317184448,-11.973108291625977,1.3147919178009033,21.768831253051758,0.3738303780555725,2.5271639823913574,-0.22098104655742645,0.0,0.0,0.0,0.0,0.0,0.0,0.0,-0.15702258594296975,0.3495473221550378,0.12717797242454304,0.44596532458524496,-0.1617182058181513,0.12563416446830453,-0.20808083234839062,0.1725501864577361,-0.4875601513207901,-0.11146248823481564,-1.9464652240652784,0.1336113045880333,2.595550359778934,0.9452491365985738,0.1728802376190821,-0.48752024683155326,-0.11147110072896137,-1.9463801863486305,0.1336059019074957,2.595550359778934,0.9452445589611904,0.0008331188840717851,-0.0011248825133069462,3.3382484322193997e-05,-0.0006169342805492608,-0.00017016245725405186,5.5598434090129204e-05,0.0013227559650198927,0.0,0.0,0.0,0.0,0.0,0.0,0.0,0.00033005116134601775,3.990448923685275e-05,-8.612494145729399e-06,8.50377166479177e-05,-5.402680537613946e-06,0.0,-4.5776373833739115e-06,-0.0008331188840717851,0.0011248825133069462,-3.3382484322193997e-05,0.0006169342805492608,0.00017016245725405186,-5.5598434090129204e-05,-0.0013227559650198927,0.17287558317184448,11.973108291625977,-1.3147919178009033,-21.768831253051758,-0.3738303780555725,-2.5271639823913574,0.22098104655742645,0
11,0.05000138282775879,-0.12130087614059448,-11.925500869750977,1.2909882068634033,21.768831253051758,0.3738303780555725,2.5271639823913574,-0.23471395671367645,0.0,0.0,0.0,0.0,0.0,0.0,0.0,-0.15415606947089222,0.3556009238071827,0.1262222964659882,0.4424723189453672,-0.16175665073441378,0.1253809090176833,-0.20788379662072823,0.17254631860602665,-0.4875634130103488,-0.11146152036475694,-1.9464652239602998,0.13361134407895364,2.595550359778934,0.9452506581168293,0.1728802376190821,-0.48752024683155326,-0.11147110072896137,-1.9463801863486305,0.1336059019074957,2.595550359778934,0.9452445589611904,-0.0010105835661006306,-0.00024061790525154093,0.0011471220876928022,-0.0003945059366104261,2.519669543539379e-05,-0.00018163429253085058,0.001387400197927112,0.0,0.0,0.0,0.0,0.0,0.0,0.0,0.00033391901305546146,4.316617879551732e-05,-9.580364204425651e-06,8.50376116692253e-05,-5.4421714579533376e-06,0.0,-6.099155638872311e-06,0.0010105835661006306,0.00024061790525154093,-0.0011471220876928022,0.0003945059366104261,-2.519669543539379e-05,0.00018163429253085058,-0.001387400197927112,0.12130087614059448,11.925500869750977,-1.2909882068634033,-21.768831253051758,-0.3738303780555725,-2.5271639823913574,0.23471395671367645,0
12,0.05499887466430664,-0.12130087614059448,-11.925500869750977,1.2909882068634033,21.768831253051758,0.3738303780555725,2.5271639823913574,-0.23471395671367645,0.0,0.0,0.0,0.0,0.0,0.0,0.0,-0.15415606947089222,0.3556009238071827,0.1262222964659882,0.4424723189453672,-0.16175665073441378,0.1253809090176833,-0.20788379662072823,0.17254631860602665,-0.4875634130103488,-0.11146152036475694,-1.9464652239602998,0.13361134407895364,2.595550359778934,0.9452506581168293,0.1728802376190821,-0.48752024683155326,-0.11147110072896137,-1.9463801863486305,0.1336059019074957,2.595550359778934,0.9452445589611904,-0.0010105835661006306,-0.00024061790525154093,0.0011471220876928022,-0.0003945059366104261,2.519669543539379e-05,-0.00018163429253085058,0.001387400197927112,0.0,0.0,0.0,0.0,0.0,0.0,0.0,0.00033391901305546146,4.316617879551732e-05,-9.580364204425651e-06,8.50376116692253e-05,-5.4421714579533376e-06,0.0,-6.099155638872311e-06,0.0010105835661006306,0.00024061790525154093,-0.0011471220876928022,0.0003945059366104261,-2.519669543539379e-05,0.00018163429253085058,-0.001387400197927112,0.12130087614059448,11.925500869750977,-1.2909882068634033,-21.768831253051758,-0.3738303780555725,-2.5271639823913574,0.23471395671367645,0
13,0.059998512268066406,-0.14510458707809448,-11.873926162719727,1.3147919178009033,21.741060256958008,0.3738303780555725,2.5207552909851074,-0.22098104655742645,0.0,0.0,0.0,0.0,0.0,0.0,0.0,-0.159659936282826,0.36946078276504096,0.11882793198468654,0.4426787617159856,-0.16109863395685428,0.1244433581814701,-0.20772231631142754,0.1725501092117475,-0.4875671119058029,-0.1114625057402908,-1.9464632752234468,0.13361134407917655,2.595550954118187,0.9452491365985491,0.1728802376190821,-0.48752024683155326,-0.11147110072896137,-1.9463801863486305,0.1336059019074957,2.595550359778934,0.9452445589611904,-0.0002944552848937777,0.0001762497229875254,-0.00033858697596820354,-0.0003891998368942976,3.621703203802033e-05,-0.0002172781443583875,0.0010105242415926142,0.0,0.0,0.0,0.0,0.0,0.0,0.0,0.00033012840733462334,4.68650742496135e-05,-8.594988670562742e-06,8.30888748162284e-05,-5.442171680858365e-06,-5.943392529239588e-07,-4.57763735872696e-06,0.0002944552848937777,-0.0001762497229875254,0.00033858697596820354,0.0003891998368942976,-3.621703203802033e-05,0.0002172781443583875,-0.0010105242415926142,0.14510458707809448,11.873926162719727,-1.3147919178009033,-21.741060256958008,-0.3738303780555725,-2.5207552909851074,0.22098104655742645,0
14,0.06499981880187988,-0.14510458707809448,-11.873926162719727,1.3147919178009033,21.741060256958008,0.3738303780555725,2.5207552909851074,-0.22098104655742645,0.0,0.0,0.0,0.0,0.0,0.0,0.0,-0.159659936282826,0.36946078276504096,0.11882793198468654,0.4426787617159856,-0.16109863395685428,0.1244433581814701,-0.20772231631142754,0.1725501092117475,-0.4875671119058029,-0.1114625057402908,-1.9464632752234468,0.13361134407917655,2.595550954118187,0.9452491365985491,0.1728802376190821,-0.48752024683155326,-0.11147110072896137,-1.9463801863486305,0.1336059019074957,2.595550359778934,0.9452445589611904,-0.0002944552848937777,0.0001762497229875254,-0.00033858697596820354,-0.0003891998368942976,3.621703203802033e-05,-0.0002172781443583875,0.0010105242415926142,0.0,0.0,0.0,0.0,0.0,0.0,0.0,0.00033012840733462334,4.68650742496135e-05,-8.594988670562742e-06,8.30888748162284e-05,-5.442171680858365e-06,-5.943392529239588e-07,-4.57763735872696e-06,0.0002944552848937777,-0.0001762497229875254,0.00033858697596820354,0.0003891998368942976,-3.621703203802033e-05,0.0002172781443583875,-0.0010105242415926142,0.14510458707809448,11.873926162719727,-1.3147919178009033,-21.741060256958008,-0.3738303780555725,-2.5207552909851074,0.22098104655742645,0
15,0.06999683380126953,-0.14510458707809448,-11.873926162719727,1.3425629138946533,21.669649124145508,0.3738303780555725,2.5143465995788574,-0.21457235515117645,0.0,0.0,0.0,0.0,0.0,0.0,0.0,-0.16185399698734498,0.35521776013120027,0.117363752254409,0.4616100939373498,-0.16068638068898827,0.12615742471885716,-0.20733000855129652,0.17254862959620648,-0.48756711190625235,-0.11146659421330159,-1.9464582639158816,0.1336113440250049,2.595551783931915,0.9452484245217508,0.1728802376190821,-0.48752024683155326,-0.11147110072896137,-1.9463801863486305,0.1336059019074957,2.595550359778934,0.9452445589611904,-0.0006077306367569974,-0.0006418336546397784,-0.0010511582276782913,0.001959090271202401,-4.6332999365574303e-07,0.000315843828337658,0.0006877476449770554,0.0,0.0,0.0,0.0,0.0,0.0,0.0,0.00033160802287562907,4.6865074699087295e-05,-4.506515659780108e-06,7.807756725108916e-05,-5.442117509218969e-06,-1.4241529808778353e-06,-3.865560560423198e-06,0.0006077306367569974,0.0006418336546397784,0.0010511582276782913,-0.001959090271202401,4.6332999365574303e-07,-0.000315843828337658,-0.0006877476449770554,0.14510458707809448,11.873926162719727,-1.3425629138946533,-21.669649124145508,-0.3738303780555725,-2.5143465995788574,0.21457235515117645,0
16,0.0749971866607666,-0.14510458707809448,-11.873926162719727,1.3425629138946533,21.669649124145508,0.3738303780555725,2.5143465995788574,-0.21457235515117645,0.0,0.0,0.0,0.0,0.0,0.0,0.0,-0.16185399698734498,0.35521776013120027,0.117363752254409,0.4616100939373498,-0.16068638068898827,0.12615742471885716,-0.20733000855129652,0.17254862959620648,-0.48756711190625235,-0.11146659421330159,-1.9464582639158816,0.1336113440250049,2.595551783931915,0.9452484245217508,0.1728802376190821,-0.48752024683155326,-0.11147110072896137,-1.9463801863486305,0.1336059019074957,2.595550359778934,0.9452445589611904,-0.0006077306367569974,-0.0006418336546397784,-0.0010511582276782913,0.001959090271202401,-4.6332999365574303e-07,0.000315843828337658,0.0006877476449770554,0.0,0.0,0.0,0.0,0.0,0.0,0.0,0.00033160802287562907,4.6865074699087295e-05,-4.506515659780108e-06,7.807756725108916e-05,-5.442117509218969e-06,-1.4241529808778353e-06,-3.865560560423198e-06,0.0006077306367569974,0.0006418336546397784,0.0010511582276782913,-0.001959090271202401,4.6332999365574303e-07,-0.000315843828337658,-0.0006877476449770554,0.14510458707809448,11.873926162719727,-1.3425629138946533,-21.669649124145508,-0.3738303780555725,-2.5143465995788574,0.21457235515117645,0
17,0.07999825477600098,-0.14510458707809448,-12.000879287719727,1.3147919178009033,21.717256546020508,0.3738303780555725,2.5207552909851074,-0.19351522624492645,0.0,0.0,0.0,0.0,0.0,0.0,0.0,-0.15787457431866092,0.35836004597166704,0.12603403158182278,0.465229594541982,-0.16079819464138204,0.12660926628751606,-0.20730910539024802,0.1725510034953288,-0.48755605714781236,-0.11146255839856486,-1.946461604787592,0.13361134407917624,2.595551071855757,0.9452460848407613,0.1728802376190821,-0.48752024683155326,-0.11147110072896137,-1.9463801863486305,0.1336059019074957,2.595550359778934,0.9452445589611904,-0.0001162340135358358,0.001329927033447996,0.0002882591962193231,0.0008843454926312766,0.00021640523360022608,0.0001778770958362976,-0.00010039922696712516,0.0,0.0,0.0,0.0,0.0,0.0,0.0,0.0003292341237533247,3.581031625909947e-05,-8.542330396502096e-06,8.141843896147805e-05,-5.442171680553054e-06,-7.120768228396912e-07,-1.5258795709183204e-06,0.0001162340135358358,-0.001329927033447996,-0.0002882591962193231,-0.0008843454926312766,-0.00021640523360022608,-0.0001778770958362976,0.00010039922696712516,0.14510458707809448,12.000879287719727,-1.3147919178009033,-21.717256546020508,-0.3738303780555725,-2.5207552909851074,0.19351522624492645,0
18,0.08499860763549805,-0.14510458707809448,-12.000879287719727,1.3147919178009033,21.717256546020508,0.3738303780555725,2.5207552909851074,-0.19351522624492645,0.0,0.0,0.0,0.0,0.0,0.0,0.0,-0.15787457431866092,0.35836004597166704,0.12603403158182278,0.465229594541982,-0.16079819464138204,0.12660926628751606,-0.20730910539024802,0.1725510034953288,-0.48755605714781236,-0.11146255839856486,-1.946461604787592,0.13361134407917624,2.595551071855757,0.9452460848407613,0.1728802376190821,-0.48752024683155326,-0.11147110072896137,-1.9463801863486305,0.1336059019074957,2.595550359778934,0.9452445589611904,-0.0001162340135358358,0.001329927033447996,0.0002882591962193231,0.0008843454926312766,0.00021640523360022608,0.0001778770958362976,-0.00010039922696712516,0.0,0.0,0.0,0.0,0.0,0.0,0.0,0.0003292341237533247,3.581031625909947e-05,-8.542330396502096e-06,8.141843896147805e-05,-5.442171680553054e-06,-7.120768228396912e-07,-1.5258795709183204e-06,0.0001162340135358358,-0.001329927033447996,-0.0002882591962193231,-0.0008843454926312766,-0.00021640523360022608,-0.0001778770958362976,0.00010039922696712516,0.14510458707809448,12.000879287719727,-1.3147919178009033,-21.717256546020508,-0.3738303780555725,-2.5207552909851074,0.19351522624492645,0
19,0.08999967575073242,-0.06972616910934448,-12.024682998657227,1.3147919178009033,21.741060256958008,0.3674216866493225,2.5271639823913574,-0.15964071452617645,0.0,0.0,0.0,0.0,0.0,0.0,0.0,-0.15190772688732307,0.3631929013000909,0.13018792639133264,0.4623720112046536,-0.1602175527976382,0.1260798090302287,-0.20680238800282622,0.17254552064460482,-0.4875565324670561,-0.11146484716693705,-1.9464632752234474,0.13361205615599947,2.595550359778934,0.9452423210061258,0.1728802376190821,-0.48752024683155326,-0.11147110072896137,-1.9463801863486305,0.1336059019074957,2.595550359778934,0.9452445589611904,-0.0010163711696611188,0.0007221031314154974,0.00020319734230955956,0.0001890857133992696,0.007517629279920584,7.546008205362774e-05,-0.0014053916088354323,0.0,0.0,0.0,0.0,0.0,0.0,0.0,0.0003347169744772893,3.6285635502841806e-05,-6.253562024313708e-06,8.308887481689453e-05,-6.154248503781323e-06,0.0,2.2379550645990065e-06,0.0010163711696611188,-0.0007221031314154974,-0.00020319734230955956,-0.0001890857133992696,-0.007517629279920584,-7.546008205362774e-05,0.0014053916088354323,0.06972616910934448,12.024682998657227,-1.3147919178009033,-21.741060256958008,-0.3674216866493225,-2.5271639823913574,0.15964071452617645,0
20,0.0950019359588623,-0.06972616910934448,-12.024682998657227,1.3147919178009033,21.741060256958008,0.3674216866493225,2.5271639823913574,-0.15964071452617645,0.0,0.0,0.0,0.0,0.0,0.0,0.0,-0.15190772688732307,0.3631929013000909,0.13018792639133264,0.4623720112046536,-0.1602175527976382,0.1260798090302287,-0.20680238800282622,0.17254552064460482,-0.4875565324670561,-0.11146484716693705,-1.9464632752234474,0.13361205615599947,2.595550359778934,0.9452423210061258,0.1728802376190821,-0.48752024683155326,-0.11147110072896137,-1.9463801863486305,0.1336059019074957,2.595550359778934,0.9452445589611904,-0.0010163711696611188,0.0007221031314154974,0.00020319734230955956,0.0001890857133992696,0.007517629279920584,7.546008205362774e-05,-0.0014053916088354323,0.0,0.0,0.0,0.0,0.0,0.0,0.0,0.0003347169744772893,3.6285635502841806e-05,-6.253562024313708e-06,8.308887481689453e-05,-6.154248503781323e-06,0.0,2.2379550645990065e-06,0.0010163711696611188,-0.0007221031314154974,-0.00020319734230955956,-0.0001890857133992696,-0.007517629279920584,-7.546008205362774e-05,0.0014053916088354323,0.06972616910934448,12.024682998657227,-1.3147919178009033,-21.741060256958008,-0.3674216866493225,-2.5271639823913574,0.15964071452617645,0
21,0.10001802444458008,-0.17287558317184448,-12.000879287719727,1.3147919178009033,21.792634963989258,0.3738303780555725,2.5271639823913574,-0.22098104655742645,0.0,0.0,0.0,0.0,0.0,0.0,0.0,-0.1515523774693159,0.3778889315146704,0.1210081399013391,0.4495702196835794,-0.16001083159221,0.12488482705553285,-0.20691968805764493,0.17255018301341607,-0.48755796449644456,-0.11146258867486507,-1.9464668945011336,0.13361134407917655,2.595550359778934,0.9452491365985738,0.1728802376190821,-0.48752024683155326,-0.11147110072896137,-1.9463801863486305,0.1336059019074957,2.595550359778934,0.9452445589611904,0.0006644777048624066,0.0001570317945185398,0.0004378948235262125,-0.0010629337839538756,0.0005261248114032674,0.0001658096577249932,0.0013314284192961147,0.0,0.0,0.0,0.0,0.0,0.0,0.0,0.0003300546056660414,3.771766489130135e-05,-8.512054096299071e-06,8.670815250311215e-05,-5.442171680858365e-06,0.0,-4.5776373833739115e-06,-0.0006644777048624066,-0.0001570317945185398,-0.0004378948235262125,0.0010629337839538756,-0.0005261248114032674,-0.0001658096577249932,-0.0013314284192961147,0.17287558317184448,12.000879287719727,-1.3147919178009033,-21.792634963989258,-0.3738303780555725,-2.5271639823913574,0.22098104655742645,0
22,0.10501265525817871,-0.17287558317184448,-12.000879287719727,1.3147919178009033,21.792634963989258,0.3738303780555725,2.5271639823913574,-0.22098104655742645,0.0,0.0,0.0,0.0,0.0,0.0,0.0,-0.1515523774693159,0.3778889315146704,0.1210081399013391,0.4495702196835794,-0.16001083159221,0.12488482705553285,-0.20691968805764493,0.17255018301341607,-0.48755796449644456,-0.11146258867486507,-1.9464668945011336,0.13361134407917655,2.595550359778934,0.9452491365985738,0.1728802376190821,-0.48752024683155326,-0.11147110072896137,-1.9463801863486305,0.1336059019074957,2.595550359778934,0.9452445589611904,0.0006644777048624066,0.0001570317945185398,0.0004378948235262125,-0.0010629337839538756,0.0005261248114032674,0.0001658096577249932,0.0013314284192961147,0.0,0.0,0.0,0.0,0.0,0.0,0.0,0.0003300546056660414,3.771766489130135e-05,-8.512054096299071e-06,8.670815250311215e-05,-5.442171680858365e-06,0.0,-4.5776373833739115e-06,-0.0006644777048624066,-0.0001570317945185398,-0.0004378948235262125,0.0010629337839538756,-0.0005261248114032674,-0.0001658096577249932,-0.0013314284192961147,0.17287558317184448,12.000879287719727,-1.3147919178009033,-21.792634963989258,-0.3738303780555725,-2.5271639823913574,0.22098104655742645,0
23,0.11000370979309082,-0.12130087614059448,-11.925500869750977,1.2909882068634033,21.741060256958008,0.3619285225868225,2.5207552909851074,-0.17337362468242645,0.0,0.0,0.0,0.0,0.0,0.0,0.0,-0.151197249323212,0.3755763486892126,0.11924684138110979,0.4460875890232523,-0.1595816099758454,0.12493496683274127,-0.20562212472860875,0.17254703305687324,-0.4875634926281173,-0.11146084536873202,-1.9464632752234474,0.13361266650756198,2.595551071855757,0.9452471052722798,0.1728802376190821,-0.48752024683155326,-0.11147110072896137,-1.9463801863486305,0.1336059019074957,2.595550359778934,0.9452445589611904,-0.0010178955666869834,-0.0013588226514434929,0.000762874866158673,9.581988613493893e-05,0.00041376373116295466,0.00010942917312850013,-0.0009604293624487882,0.0,0.0,0.0,0.0,0.0,0.0,0.0,0.0003332045622088664,4.324579656406202e-05,-1.0255360229347033e-05,8.308887481689453e-05,-6.764600066294646e-06,-7.120768228396912e-07,-2.546311089424158e-06,0.0010178955666869834,0.0013588226514434929,-0.000762874866158673,-9.581988613493893e-05,-0.00041376373116295466,-0.00010942917312850013,0.0009604293624487882,0.12130087614059448,11.925500869750977,-1.2909882068634033,-21.741060256958008,-0.3619285225868225,-2.5207552909851074,0.17337362468242645,0
24,0.1150202751159668,-0.12130087614059448,-11.925500869750977,1.2909882068634033,21.741060256958008,0.3619285225868225,2.5207552909851074,-0.17337362468242645,0.0,0.0,0.0,0.0,0.0,0.0,0.0,-0.151197249323212,0.3755763486892126,0.11924684138110979,0.4460875890232523,-0.1595816099758454,0.12493496683274127,-0.20562212472860875,0.17254703305687324,-0.4875634926281173,-0.11146084536873202,-1.9464632752234474,0.13361266650756198,2.595551071855757,0.9452471052722798,0.1728802376190821,-0.48752024683155326,-0.11147110072896137,-1.9463801863486305,0.1336059019074957,2.595550359778934,0.9452445589611904,-0.0010178955666869834,-0.0013588226514434929,0.000762874866158673,9.581988613493893e-05,0.00041376373116295466,0.00010942917312850013,-0.0009604293624487882,0.0,0.0,0.0,0.0,0.0,0.0,0.0,0.0003332045622088664,4.324579656406202e-05,-1.0255360229347033e-05,8.308887481689453e-05,-6.764600066294646e-06,-7.120768228396912e-07,-2.546311089424158e-06,0.0010178955666869834,0.0013588226514434929,-0.000762874866158673,-9.581988613493893e-05,-0.00041376373116295466,-0.00010942917312850013,0.0009604293624487882,0.12130087614059448,11.925500869750977,-1.2909882068634033,-21.741060256958008,-0.3619285225868225,-2.5207552909851074,0.17337362468242645,0
25,0.11999702453613281,-0.17287558317184448,-11.925500869750977,1.3425629138946533,21.741060256958008,0.3674216866493225,2.5207552909851074,-0.20724813640117645,0.0,0.0,0.0,0.0,0.0,0.0,0.0,-0.15346808547260854,0.3528137382206808,0.11681371145661817,0.45485301413113977,-0.16048422173400084,0.12610749241608177,-0.20612202970086962,0.1725499367740225,-0.48756277737282866,-0.11146445751320219,-1.9464632752234474,0.13361205615599947,2.595551071855757,0.9452476107257988,0.1728802376190821,-0.48752024683155326,-0.11147110072896137,-1.9463801863486305,0.1336059019074957,2.595550359778934,0.9452445589611904,0.00019989431128008417,-0.0014772957108824044,-0.0011413687559192777,-0.00015459311728260728,0.0002164131704573938,0.0001459476807978586,0.0008642211126738892,0.0,0.0,0.0,0.0,0.0,0.0,0.0,0.0003303008450596112,4.253054127539846e-05,-6.643215759175036e-06,8.308887481689453e-05,-6.154248503781323e-06,-7.120768228396912e-07,-3.0517646083527694e-06,-0.00019989431128008417,0.0014772957108824044,0.0011413687559192777,0.00015459311728260728,-0.0002164131704573938,-0.0001459476807978586,-0.0008642211126738892,0.17287558317184448,11.925500869750977,-1.3425629138946533,-21.741060256958008,-0.3674216866493225,-2.5207552909851074,0.20724813640117645,0
26,0.12497377395629883,-0.17287558317184448,-11.925500869750977,1.3425629138946533,21.741060256958008,0.3674216866493225,2.5207552909851074,-0.20724813640117645,0.0,0.0,0.0,0.0,0.0,0.0,0.0,-0.15346808547260854,0.3528137382206808,0.11681371145661817,0.45485301413113977,-0.16048422173400084,0.12610749241608177,-0.20612202970086962,0.1725499367740225,-0.48756277737282866,-0.11146445751320219,-1.9464632752234474,0.13361205615599947,2.595551071855757,0.9452476107257988,0.1728802376190821,-0.48752024683155326,-0.11147110072896137,-1.9463801863486305,0.1336059019074957,2.595550359778934,0.9452445589611904,0.00019989431128008417,-0.0014772957108824044,-0.0011413687559192777,-0.00015459311728260728,0.0002164131704573938,0.0001459476807978586,0.0008642211126738892,0.0,0.0,0.0,0.0,0.0,0.0,0.0,0.0003303008450596112,4.253054127539846e-05,-6.643215759175036e-06,8.308887481689453e-05,-6.154248503781323e-06,-7.120768228396912e-07,-3.0517646083527694e-06,-0.00019989431128008417,0.0014772957108824044,0.0011413687559192777,0.00015459311728260728,-0.0002164131704573938,-0.0001459476807978586,-0.0008642211126738892,0.17287558317184448,11.925500869750977,-1.3425629138946533,-21.741060256958008,-0.3674216866493225,-2.5207552909851074,0.20724813640117645,0
27,0.12999773025512695,-0.17287558317184448,-12.024682998657227,1.2909882068634033,21.741060256958008,0.3619285225868225,2.5271639823913574,-0.22830526530742645,0.0,0.0,0.0,0.0,0.0,0.0,0.0,-0.15009574354619412,0.3388001552693217,0.12235488064580338,0.4612141863129389,-0.1618645940734617,0.12716546206902152,-0.20598600409823617,0.17255223449337462,-0.48755653247513137,-0.1114617852751617,-1.9464632752234474,0.13361231108727278,2.595550359778934,0.9452499504006571,0.1728802376190821,-0.48752024683155326,-0.11147110072896137,-1.9463801863486305,0.1336059019074957,2.595550359778934,0.9452445589611904,0.0007358803257626029,0.0005449380785091043,0.00032246905178031905,0.0003640740969034784,0.00019755672499484187,0.00016855688213751065,0.0007570962926164775,0.0,0.0,0.0,0.0,0.0,0.0,0.0,0.00032800312570749335,3.628564357810449e-05,-9.315453799660367e-06,8.308887481689453e-05,-6.4091797770948755e-06,0.0,-5.3914394666509935e-06,-0.0007358803257626029,-0.0005449380785091043,-0.00032246905178031905,-0.0003640740969034784,-0.00019755672499484187,-0.00016855688213751065,-0.0007570962926164775,0.17287558317184448,12.024682998657227,-1.2909882068634033,-21.741060256958008,-0.3619285225868225,-2.5271639823913574,0.22830526530742645,0
28,0.13499808311462402,-0.17287558317184448,-12.024682998657227,1.2909882068634033,21.741060256958008,0.3619285225868225,2.5271639823913574,-0.22830526530742645,0.0,0.0,0.0,0.0,0.0,0.0,0.0,-0.15009574354619412,0.3388001552693217,0.12235488064580338,0.4612141863129389,-0.1618645940734617,0.12716546206902152,-0.20598600409823617,0.17255223449337462,-0.48755653247513137,-0.1114617852751617,-1.9464632752234474,0.13361231108727278,2.595550359778934,0.9452499504006571,0.1728802376190821,-0.48752024683155326,-0.11147110072896137,-1.9463801863486305,0.1336059019074957,2.595550359778934,0.9452445589611904,0.0007358803257626029,0.0005449380785091043,0.00032246905178031905,0.0003640740969034784,0.00019755672499484187,0.00016855688213751065,0.0007570962926164775,0.0,0.0,0.0,0.0,0.0,0.0,0.0,0.00032800312570749335,3.628564357810449e-05,-9.315453799660367e-06,8.308887481689453e-05,-6.4091797770948755e-06,0.0,-5.3914394666509935e-06,-0.0007358803257626029,-0.0005449380785091043,-0.00032246905178031905,-0.0003640740969034784,-0.00019755672499484187,-0.00016855688213751065,-0.0007570962926164775,0.17287558317184448,12.024682998657227,-1.2909882068634033,-21.741060256958008,-0.3619285225868225,-2.5271639823913574,0.22830526530742645,0
29,0.1399984359741211,-0.14510458707809448,-12.100061416625977,1.3147919178009033,21.693452835083008,0.3738303780555725,2.5271639823913574,-0.17978231608867645,0.0,0.0,0.0,0.0,0.0,0.0,0.0,-0.1513168965708844,0.33560132641889545,0.11954154650455122,0.4589272136318386,-0.16289487746751546,0.12738948180583204,-0.20697977082289656,0.1725501000042405,-0.48755124276562734,-0.11146319069414033,-1.9464599343517368,0.13361134407850778,2.595550359778934,0.945244558961855,0.1728802376190821,-0.48752024683155326,-0.11147110072896137,-1.9463801863486305,0.1336059019074957,2.595550359778934,0.9452445589611904,-0.00020156812855394796,0.0017108599181103101,-9.439995030071607e-06,0.0017108070438111669,-0.00014876554433128315,-0.0001295419299011128,-0.000743220129030228,0.0,0.0,0.0,0.0,0.0,0.0,0.0,0.0003301376148416024,3.099593407407397e-05,-7.910034821034806e-06,7.97480031062836e-05,-5.442171012087771e-06,0.0,-6.645795025406187e-13,0.00020156812855394796,-0.0017108599181103101,9.439995030071607e-06,-0.0017108070438111669,0.00014876554433128315,0.0001295419299011128,0.000743220129030228,0.14510458707809448,12.100061416625977,-1.3147919178009033,-21.693452835083008,-0.3738303780555725,-2.5271639823913574,0.17978231608867645,0
30,0.14499783515930176,-0.14510458707809448,-12.100061416625977,1.3147919178009033,21.693452835083008,0.3738303780555725,2.5271639823913574,-0.17978231608867645,0.0,0.0,0.0,0.0,0.0,0.0,0.0,-0.1513168965708844,0.33560132641889545,0.11954154650455122,0.4589272136318386,-0.16289487746751546,0.12738948180583204,-0.20697977082289656,0.1725501000042405,-0.48755124276562734,-0.11146319069414033,-1.9464599343517368,0.13361134407850778,2.595550359778934,0.945244558961855,0.1728802376190821,-0.48752024683155326,-0.11147110072896137,-1.9463801863486305,0.1336059019074957,2.595550359778934,0.9452445589611904,-0.00020156812855394796,0.0017108599181103101,-9.439995030071607e-06,0.0017108070438111669,-0.00014876554433128315,-0.0001295419299011128,-0.000743220129030228,0.0,0.0,0.0,0.0,0.0,0.0,0.0,0.0003301376148416024,3.099593407407397e-05,-7.910034821034806e-06,7.97480031062836e-05,-5.442171012087771e-06,0.0,-6.645795025406187e-13,0.00020156812855394796,-0.0017108599181103101,9.439995030071607e-06,-0.0017108070438111669,0.00014876554433128315,0.0001295419299011128,0.000743220129030228,0.14510458707809448,12.100061416625977,-1.3147919178009033,-21.693452835083008,-0.3738303780555725,-2.5271639823913574,0.17978231608867645,0
31,0.14999794960021973,-0.14510458707809448,-12.100061416625977,1.3147919178009033,21.693452835083008,0.3738303780555725,2.5271639823913574,-0.17978231608867645,0.0,0.0,0.0,0.0,0.0,0.0,0.0,-0.1513168965708844,0.33560132641889545,0.11954154650455122,0.4589272136318386,-0.16289487746751546,0.12738948180583204,-0.20697977082289656,0.1725501000042405,-0.48755124276562734,-0.11146319069414033,-1.9464599343517368,0.13361134407850778,2.595550359778934,0.945244558961855,0.1728802376190821,-0.48752024683155326,-0.11147110072896137,-1.9463801863486305,0.1336059019074957,2.595550359778934,0.9452445589611904,-0.00020156812855394796,0.0017108599181103101,-9.439995030071607e-06,0.0017108070438111669,-0.00014876554433128315,-0.0001295419299011128,-0.000743220129030228,0.0,0.0,0.0,0.0,0.0,0.0,0.0,0.0003301376148416024,3.099593407407397e-05,-7.910034821034806e-06,7.97480031062836e-05,-5.442171012087771e-06,0.0,-6.645795025406187e-13,0.00020156812855394796,-0.0017108599181103101,9.439995030071607e-06,-0.0017108070438111669,0.00014876554433128315,0.0001295419299011128,0.000743220129030228,0.14510458707809448,12.100061416625977,-1.3147919178009033,-21.693452835083008,-0.3738303780555725,-2.5271639823913574,0.17978231608867645,0
32,0.1549999713897705,-0.14510458707809448,-12.100061416625977,1.3147919178009033,21.693452835083008,0.3738303780555725,2.5271639823913574,-0.17978231608867645,0.0,0.0,0.0,0.0,0.0,0.0,0.0,-0.1513168965708844,0.33560132641889545,0.11954154650455122,0.4589272136318386,-0.16289487746751546,0.12738948180583204,-0.20697977082289656,0.1725501000042405,-0.48755124276562734,-0.11146319069414033,-1.9464599343517368,0.13361134407850778,2.595550359778934,0.945244558961855,0.1728802376190821,-0.48752024683155326,-0.11147110072896137,-1.9463801863486305,0.1336059019074957,2.595550359778934,0.9452445589611904,-0.00020156812855394796,0.0017108599181103101,-9.439995030071607e-06,0.0017108070438111669,-0.00014876554433128315,-0.0001295419299011128,-0.000743220129030228,0.0,0.0,0.0,0.0,0.0,0.0,0.0,0.0003301376148416024,3.099593407407397e-05,-7.910034821034806e-06,7.97480031062836e-05,-5.442171012087771e-06,0.0,-6.645795025406187e-13,0.00020156812855394796,-0.0017108599181103101,9.439995030071607e-06,-0.0017108070438111669,0.00014876554433128315,0.0001295419299011128,0.000743220129030228,0.14510458707809448,12.100061416625977,-1.3147919178009033,-21.693452835083008,-0.3738303780555725,-2.5271639823913574,0.17978231608867645,0
33,0.1607050895690918,-0.12130087614059448,-12.000879287719727,1.3147919178009033,21.792634963989258,0.3738303780555725,2.5335726737976074,-0.20083944499492645,0.0,0.0,0.0,0.0,0.0,0.0,0.0,-0.14997894144159515,0.3451188038856801,0.12004149866513626,0.44876992370505653,-0.16284210011808442,0.12567949000052883,-0.20788668321639195,0.17254632729746497,-0.4875581940847065,-0.11146532361929413,-1.9464668945011336,0.13361134407917655,2.595549647702111,0.9452468986428446,0.1728802376190821,-0.48752024683155326,-0.11147110072896137,-1.9463801863486305,0.1336059019074957,2.595550359778934,0.9452445589611904,-0.0004697774037628847,-0.0001320633747851275,-5.317925848725998e-05,-0.0011437092675110202,-7.41725561211653e-05,-0.00044681949284639536,5.202116498595483e-05,0.0,0.0,0.0,0.0,0.0,0.0,0.0,0.0003339103216171424,3.794725315325875e-05,-5.777109667232105e-06,8.670815250311215e-05,-5.442171680858365e-06,7.120768228396912e-07,-2.3396816541954024e-06,0.0004697774037628847,0.0001320633747851275,5.317925848725998e-05,0.0011437092675110202,7.41725561211653e-05,0.00044681949284639536,-5.202116498595483e-05,0.12130087614059448,12.000879287719727,-1.3147919178009033,-21.792634963989258,-0.3738303780555725,-2.5335726737976074,0.20083944499492645,0
34,0.16499710083007812,-0.12130087614059448,-12.000879287719727,1.3147919178009033,21.792634963989258,0.3738303780555725,2.5335726737976074,-0.20083944499492645,0.0,0.0,0.0,0.0,0.0,0.0,0.0,-0.14997894144159515,0.3451188038856801,0.12004149866513626,0.44876992370505653,-0.16284210011808442,0.12567949000052883,-0.20788668321639195,0.17254632729746497,-0.4875581940847065,-0.11146532361929413,-1.9464668945011336,0.13361134407917655,2.595549647702111,0.9452468986428446,0.1728802376190821,-0.48752024683155326,-0.11147110072896137,-1.9463801863486305,0.1336059019074957,2.595550359778934,0.9452445589611904,-0.0004697774037628847,-0.0001320633747851275,-5.317925848725998e-05,-0.0011437092675110202,-7.41725561211653e-05,-0.00044681949284639536,5.202116498595483e-05,0.0,0.0,0.0,0.0,0.0,0.0,0.0,0.0003339103216171424,3.794725315325875e-05,-5.777109667232105e-06,8.670815250311215e-05,-5.442171680858365e-06,7.120768228396912e-07,-2.3396816541954024e-06,0.0004697774037628847,0.0001320633747851275,5.317925848725998e-05,0.0011437092675110202,7.41725561211653e-05,0.00044681949284639536,-5.202116498595483e-05,0.12130087614059448,12.000879287719727,-1.3147919178009033,-21.792634963989258,-0.3738303780555725,-2.5335726737976074,0.20083944499492645,0
35,0.17002201080322266,-0.19667929410934448,-11.949304580688477,1.3425629138946533,21.693452835083008,0.3738303780555725,2.5207552909851074,-0.22830526530742645,0.0,0.0,0.0,0.0,0.0,0.0,0.0,-0.14851572115499148,0.3599952421147604,0.11900392659319033,0.4431019721877412,-0.16220106970206782,0.12484974638876672,-0.20907874772580504,0.17255158061159495,-0.48756182219266087,-0.11146679883911745,-1.9464599343517368,0.13361134407917655,2.595551071855757,0.9452499504006571,0.1728802376190821,-0.48752024683155326,-0.11147110072896137,-1.9463801863486305,0.1336059019074957,2.595550359778934,0.9452445589611904,0.0007092333424310492,0.0007011368479916751,-0.0004263874978190521,0.001041896708366506,5.8130933176713204e-05,0.00015444030104590963,0.000417160062567832,0.0,0.0,0.0,0.0,0.0,0.0,0.0,0.00032865700748715976,4.157536110760418e-05,-4.3018898439189934e-06,7.97480031062836e-05,-5.442171680858365e-06,-7.120768228396912e-07,-5.3914394666509935e-06,-0.0007092333424310492,-0.0007011368479916751,0.0004263874978190521,-0.001041896708366506,-5.8130933176713204e-05,-0.00015444030104590963,-0.000417160062567832,0.19667929410934448,11.949304580688477,-1.3425629138946533,-21.693452835083008,-0.3738303780555725,-2.5207552909851074,0.22830526530742645,0
36,0.1750032901763916,-0.19667929410934448,-11.949304580688477,1.3425629138946533,21.693452835083008,0.3738303780555725,2.5207552909851074,-0.22830526530742645,0.0,0.0,0.0,0.0,0.0,0.0,0.0,-0.14851572115499148,0.3599952421147604,0.11900392659319033,0.4431019721877412,-0.16220106970206782,0.12484974638876672,-0.20907874772580504,0.17255158061159495,-0.48756182219266087,-0.11146679883911745,-1.9464599343517368,0.13361134407917655,2.595551071855757,0.9452499504006571,0.1728802376190821,-0.48752024683155326,-0.11147110072896137,-1.9463801863486305,0.1336059019074957,2.595550359778934,0.9452445589611904,0.0007092333424310492,0.0007011368479916751,-0.0004263874978190521,0.001041896708366506,5.8130933176713204e-05,0.00015444030104590963,0.000417160062567832,0.0,0.0,0.0,0.0,0.0,0.0,0.0,0.00032865700748715976,4.157536110760418e-05,-4.3018898439189934e-06,7.97480031062836e-05,-5.442171680858365e-06,-7.120768228396912e-07,-5.3914394666509935e-06,-0.0007092333424310492,-0.0007011368479916751,0.0004263874978190521,-0.001041896708366506,-5.8130933176713204e-05,-0.00015444030104590963,-0.000417160062567832,0.19667929410934448,11.949304580688477,-1.3425629138946533,-21.693452835083008,-0.3738303780555725,-2.5207552909851074,0.22830526530742645,0
37,0.17999768257141113,-0.17287558317184448,-11.901697158813477,1.2909882068634033,21.717256546020508,0.3619285225868225,2.5143465995788574,-0.18710653483867645,0.0,0.0,0.0,0.0,0.0,0.0,0.0,-0.15530820148029478,0.3474052388859,0.11739084287026277,0.45524928195109177,-0.16084125401388116,0.12685427978456715,-0.21163761778270482,0.1725522133334696,-0.4875651630644212,-0.11146081030592402,-1.9464616038427844,0.13361266650756198,2.5955517839325797,0.9452454934449476,0.1728802376190821,-0.48752024683155326,-0.11147110072896137,-1.9463801863486305,0.1336059019074957,2.595550359778934,0.9452445589611904,0.0001026846469600705,-0.00034432765909540424,6.510184086825717e-08,0.00034439373050339304,0.0005355113571254452,0.0002976309834565969,-0.0010049721265680048,0.0,0.0,0.0,0.0,0.0,0.0,0.0,0.00032802428561251595,4.49162328679531e-05,-1.0290423037351282e-05,8.141749415391253e-05,-6.764600066294646e-06,-1.4241536456793824e-06,-9.34483757153437e-07,-0.0001026846469600705,0.00034432765909540424,-6.510184086825717e-08,-0.00034439373050339304,-0.0005355113571254452,-0.0002976309834565969,0.0010049721265680048,0.17287558317184448,11.901697158813477,-1.2909882068634033,-21.717256546020508,-0.3619285225868225,-2.5143465995788574,0.18710653483867645,0
38,0.1871016025543213,-0.17287558317184448,-11.901697158813477,1.2909882068634033,21.717256546020508,0.3619285225868225,2.5143465995788574,-0.18710653483867645,0.0,0.0,0.0,0.0,0.0,0.0,0.0,-0.15530820148029478,0.3474052388859,0.11739084287026277,0.45524928195109177,-0.16084125401388116,0.12685427978456715,-0.21163761778270482,0.1725522133334696,-0.4875651630644212,-0.11146081030592402,-1.9464616038427844,0.13361266650756198,2.5955517839325797,0.9452454934449476,0.1728802376190821,-0.48752024683155326,-0.11147110072896137,-1.9463801863486305,0.1336059019074957,2.595550359778934,0.9452445589611904,0.0001026846469600705,-0.00034432765909540424,6.510184086825717e-08,0.00034439373050339304,0.0005355113571254452,0.0002976309834565969,-0.0010049721265680048,0.0,0.0,0.0,0.0,0.0,0.0,0.0,0.00032802428561251595,4.49162328679531e-05,-1.0290423037351282e-05,8.141749415391253e-05,-6.764600066294646e-06,-1.4241536456793824e-06,-9.34483757153437e-07,-0.0001026846469600705,0.00034432765909540424,-6.510184086825717e-08,-0.00034439373050339304,-0.0005355113571254452,-0.0002976309834565969,0.0010049721265680048,0.17287558317184448,11.901697158813477,-1.2909882068634033,-21.717256546020508,-0.3619285225868225,-2.5143465995788574,0.18710653483867645,0
39,0.19141602516174316,-0.17287558317184448,-11.925500869750977,1.2909882068634033,21.768831253051758,0.3555198311805725,2.5143465995788574,-0.17337362468242645,0.0,0.0,0.0,0.0,0.0,0.0,0.0,-0.15436097119645098,0.3479932765644027,0.12115450561468062,0.46192193543673254,-0.1611788035428253,0.12742850189203267,-0.2128459168263214,0.17254991923116592,-0.48756349262856596,-0.11146083822342594,-1.9464652240652731,0.13361337858438488,2.5955517839325797,0.9452438468857134,0.1728802376190821,-0.48752024683155326,-0.11147110072896137,-1.9463801863486305,0.1336059019074957,2.595550359778934,0.9452445589611904,0.0003860335376491048,-0.0002452951899714185,0.0003892052252458653,-0.000726972642011638,0.0004374428342324626,0.0004391516841795135,-0.0011933432244013377,0.0,0.0,0.0,0.0,0.0,0.0,0.0,0.0003303183879161953,4.3245797012703147e-05,-1.0262505535429955e-05,8.503771664258863e-05,-7.476676889189848e-06,-1.4241536456793824e-06,7.120754770273408e-07,-0.0003860335376491048,0.0002452951899714185,-0.0003892052252458653,0.000726972642011638,-0.0004374428342324626,-0.0004391516841795135,0.0011933432244013377,0.17287558317184448,11.925500869750977,-1.2909882068634033,-21.768831253051758,-0.3555198311805725,-2.5143465995788574,0.17337362468242645,0
40,0.19603943824768066,-0.17287558317184448,-11.925500869750977,1.2909882068634033,21.768831253051758,0.3555198311805725,2.5143465995788574,-0.17337362468242645,0.0,0.0,0.0,0.0,0.0,0.0,0.0,-0.15436097119645098,0.3479932765644027,0.12115450561468062,0.46192193543673254,-0.1611788035428253,0.12742850189203267,-0.2128459168263214,0.17254991923116592,-0.48756349262856596,-0.11146083822342594,-1.9464652240652731,0.13361337858438488,2.5955517839325797,0.9452438468857134,0.1728802376190821,-0.48752024683155326,-0.11147110072896137,-1.9463801863486305,0.1336059019074957,2.595550359778934,0.9452445589611904,0.0003860335376491048,-0.0002452951899714185,0.0003892052252458653,-0.000726972642011638,0.0004374428342324626,0.0004391516841795135,-0.0011933432244013377,0.0,0.0,0.0,0.0,0.0,0.0,0.0,0.0003303183879161953,4.3245797012703147e-05,-1.0262505535429955e-05,8.503771664258863e-05,-7.476676889189848e-06,-1.4241536456793824e-06,7.120754770273408e-07,-0.0003860335376491048,0.0002452951899714185,-0.0003892052252458653,0.000726972642011638,-0.0004374428342324626,-0.0004391516841795135,0.0011933432244013377,0.17287558317184448,11.925500869750977,-1.2909882068634033,-21.768831253051758,-0.3555198311805725,-2.5143465995788574,0.17337362468242645,0
41,0.19997024536132812,-0.09352988004684448,-12.048486709594727,1.2909882068634033,21.741060256958008,0.3738303780555725,2.5271639823913574,-0.17978231608867645,0.0,0.0,0.0,0.0,0.0,0.0,0.0,-0.15626917891427497,0.35041053478013795,0.11627908830935277,0.46290648871149864,-0.16160495481516882,0.1270759887732209,-0.21245904247126,0.17254712378616874,-0.4875548620433138,-0.11146183821391582,-1.946463354696307,0.13361134407917655,2.595550359778934,0.945244558961855,0.1728802376190821,-0.48752024683155326,-0.11147110072896137,-1.9463801863486305,0.1336059019074957,2.595550359778934,0.9452445589611904,-0.00120304422163931,0.00173147178991948,0.00033574782433199254,3.536950484776833e-05,-0.0001809896810112178,-0.00010497817454111993,-0.00028660718861919164,0.0,0.0,0.0,0.0,0.0,0.0,0.0,0.00033311383291337315,3.461521176051363e-05,-9.262515045543873e-06,8.316834767652104e-05,-5.442171680858365e-06,0.0,-6.645795025406187e-13,0.00120304422163931,-0.00173147178991948,-0.00033574782433199254,-3.536950484776833e-05,0.0001809896810112178,0.00010497817454111993,0.00028660718861919164,0.09352988004684448,12.048486709594727,-1.2909882068634033,-21.741060256958008,-0.3738303780555725,-2.5271639823913574,0.17978231608867645,0
42,0.2050166130065918,-0.09352988004684448,-12.048486709594727,1.2909882068634033,21.741060256958008,0.3738303780555725,2.5271639823913574,-0.17978231608867645,0.0,0.0,0.0,0.0,0.0,0.0,0.0,-0.15626917891427497,0.35041053478013795,0.11627908830935277,0.46290648871149864,-0.16160495481516882,0.1270759887732209,-0.21245904247126,0.17254712378616874,-0.4875548620433138,-0.11146183821391582,-1.946463354696307,0.13361134407917655,2.595550359778934,0.945244558961855,0.1728802376190821,-0.48752024683155326,-0.11147110072896137,-1.9463801863486305,0.1336059019074957,2.595550359778934,0.9452445589611904,-0.00120304422163931,0.00173147178991948,0.00033574782433199254,3.536950484776833e-05,-0.0001809896810112178,-0.00010497817454111993,-0.00028660718861919164,0.0,0.0,0.0,0.0,0.0,0.0,0.0,0.00033311383291337315,3.461521176051363e-05,-9.262515045543873e-06,8.316834767652104e-05,-5.442171680858365e-06,0.0,-6.645795025406187e-13,0.00120304422163931,-0.00173147178991948,-0.00033574782433199254,-3.536950484776833e-05,0.0001809896810112178,0.00010497817454111993,0.00028660718861919164,0.09352988004684448,12.048486709594727,-1.2909882068634033,-21.741060256958008,-0.3738303780555725,-2.5271639823913574,0.17978231608867645,0
43,0.20999598503112793,-0.12130087614059448,-11.973108291625977,1.3147919178009033,21.741060256958008,0.3619285225868225,2.5335726737976074,-0.19351522624492645,0.0,0.0,0.0,0.0,0.0,0.0,0.0,-0.14975026846043896,0.3589569884447186,0.11963551332868197,0.45703662488829105,-0.16170345234468253,0.12607783988515184,-0.21165500920357178,0.1725471740904562,-0.4875601517568554,-0.11146343914912926,-1.9464632752235969,0.13361266650756198,2.595549647702111,0.9452460848407613,0.1728802376190821,-0.48752024683155326,-0.11147110072896137,-1.9463801863486305,0.1336059019074957,2.595550359778934,0.9452445589611904,-0.0001607084161564624,-0.00048126677029612235,-3.570716927779185e-05,0.00024351276204752622,0.0003110490129537273,-0.00034290788403517047,-0.00029739199306755287,0.0,0.0,0.0,0.0,0.0,0.0,0.0,0.00033306352862591537,3.990492530214773e-05,-7.661579832105025e-06,8.308887496633055e-05,-6.764600066294646e-06,7.120768228396912e-07,-1.5258795709183204e-06,0.0001607084161564624,0.00048126677029612235,3.570716927779185e-05,-0.00024351276204752622,-0.0003110490129537273,0.00034290788403517047,0.00029739199306755287,0.12130087614059448,11.973108291625977,-1.3147919178009033,-21.741060256958008,-0.3619285225868225,-2.5335726737976074,0.19351522624492645,0
44,0.2149946689605713,-0.12130087614059448,-11.973108291625977,1.3147919178009033,21.741060256958008,0.3619285225868225,2.5335726737976074,-0.19351522624492645,0.0,0.0,0.0,0.0,0.0,0.0,0.0,-0.14975026846043896,0.3589569884447186,0.11963551332868197,0.45703662488829105,-0.16170345234468253,0.12607783988515184,-0.21165500920357178,0.1725471740904562,-0.4875601517568554,-0.11146343914912926,-1.9464632752235969,0.13361266650756198,2.595549647702111,0.9452460848407613,0.1728802376190821,-0.48752024683155326,-0.11147110072896137,-1.9463801863486305,0.1336059019074957,2.595550359778934,0.9452445589611904,-0.0001607084161564624,-0.00048126677029612235,-3.570716927779185e-05,0.00024351276204752622,0.0003110490129537273,-0.00034290788403517047,-0.00029739199306755287,0.0,0.0,0.0,0.0,0.0,0.0,0.0,0.00033306352862591537,3.990492530214773e-05,-7.661579832105025e-06,8.308887496633055e-05,-6.764600066294646e-06,7.120768228396912e-07,-1.5258795709183204e-06,0.0001607084161564624,0.00048126677029612235,3.570716927779185e-05,-0.00024351276204752622,-0.0003110490129537273,0.00034290788403517047,0.00029739199306755287,0.12130087614059448,11.973108291625977,-1.3147919178009033,-21.741060256958008,-0.3619285225868225,-2.5335726737976074,0.19351522624492645,0
45,0.21999669075012207,-0.14510458707809448,-11.949304580688477,1.3425629138946533,21.717256546020508,0.3793235421180725,2.5271639823913574,-0.13858358561992645,0.0,0.0,0.0,0.0,0.0,0.0,0.0,-0.15095805018759567,0.3610033294573297,0.11354437111229816,0.4511323532758737,-0.16151600772744476,0.12550521044876423,-0.20970469782597076,0.1725485983015665,-0.4875618221927107,-0.1114654026094349,-1.946461604787592,0.13361073372761406,2.595550359778934,0.9452399813251363,0.1728802376190821,-0.48752024683155326,-0.11147110072896137,-1.9463801863486305,0.1336059019074957,2.595550359778934,0.9452445589611904,-0.00029767108014147186,-0.0008581591528334766,-0.0006788500802569346,0.0003369080847468318,-0.0011133851172335292,-2.5839542395956638e-05,-0.0025809868637947948,0.0,0.0,0.0,0.0,0.0,0.0,0.0,0.0003316393175156196,4.1575361157453194e-05,-5.69811952647048e-06,8.141843896147805e-05,-4.831820118372798e-06,0.0,4.577636054103884e-06,0.00029767108014147186,0.0008581591528334766,0.0006788500802569346,-0.0003369080847468318,0.0011133851172335292,2.5839542395956638e-05,0.0025809868637947948,0.14510458707809448,11.949304580688477,-1.3425629138946533,-21.717256546020508,-0.3793235421180725,-2.5271639823913574,0.13858358561992645,0
46,0.22500157356262207,-0.14510458707809448,-11.949304580688477,1.3425629138946533,21.717256546020508,0.3793235421180725,2.5271639823913574,-0.13858358561992645,0.0,0.0,0.0,0.0,0.0,0.0,0.0,-0.15095805018759567,0.3610033294573297,0.11354437111229816,0.4511323532758737,-0.16151600772744476,0.12550521044876423,-0.20970469782597076,0.1725485983015665,-0.4875618221927107,-0.1114654026094349,-1.946461604787592,0.13361073372761406,2.595550359778934,0.9452399813251363,0.1728802376190821,-0.48752024683155326,-0.11147110072896137,-1.9463801863486305,0.1336059019074957,2.595550359778934,0.9452445589611904,-0.00029767108014147186,-0.0008581591528334766,-0.0006788500802569346,0.0003369080847468318,-0.0011133851172335292,-2.5839542395956638e-05,-0.0025809868637947948,0.0,0.0,0.0,0.0,0.0,0.0,0.0,0.0003316393175156196,4.1575361157453194e-05,-5.69811952647048e-06,8.141843896147805e-05,-4.831820118372798e-06,0.0,4.577636054103884e-06,0.00029767108014147186,0.0008581591528334766,0.0006788500802569346,-0.0003369080847468318,0.0011133851172335292,2.5839542395956638e-05,0.0025809868637947948,0.14510458707809448,11.949304580688477,-1.3425629138946533,-21.717256546020508,-0.3793235421180725,-2.5271639823913574,0.13858358561992645,0
47,0.23001408576965332,-0.22445029020309448,-11.973108291625977,1.3425629138946533,21.768831253051758,0.3793235421180725,2.5271639823913574,-0.22830526530742645,0.0,0.0,0.0,0.0,0.0,0.0,0.0,-0.1502639859104925,0.350948225798567,0.11819114738796893,0.45333622130886375,-0.1621854790743177,0.12655979588358257,-0.20881558280371398,0.17255447864363282,-0.4875601517568554,-0.11146443704561423,-1.9464652240652784,0.13361073372761406,2.5955500065662243,0.9452499504006571,0.1728802376190821,-0.48752024683155326,-0.11147110072896137,-1.9463801863486305,0.1336059019074957,2.595550359778934,0.9452445589611904,0.0013202203249778211,0.0001014902294982769,-0.0005448421504512578,-0.0007612857037353077,-0.00031839266495526085,-9.505499008982091e-05,0.0011098662915828752,0.0,0.0,0.0,0.0,0.0,0.0,0.0,0.0003257589754492862,3.990492530214773e-05,-6.663683347132854e-06,8.50377166479177e-05,-4.831820118372798e-06,3.532127097471971e-07,-5.3914394666509935e-06,-0.0013202203249778211,-0.0001014902294982769,0.0005448421504512578,0.0007612857037353077,0.00031839266495526085,9.505499008982091e-05,-0.0011098662915828752,0.22445029020309448,11.973108291625977,-1.3425629138946533,-21.768831253051758,-0.3793235421180725,-2.5271639823913574,0.22830526530742645,0
48,0.23500585556030273,-0.22445029020309448,-11.973108291625977,1.3425629138946533,21.768831253051758,0.3793235421180725,2.5271639823913574,-0.22830526530742645,0.0,0.0,0.0,0.0,0.0,0.0,0.0,-0.1502639859104925,0.350948225798567,0.11819114738796893,0.45333622130886375,-0.1621854790743177,0.12655979588358257,-0.20881558280371398,0.17255447864363282,-0.4875601517568554,-0.11146443704561423,-1.9464652240652784,0.13361073372761406,2.5955500065662243,0.9452499504006571,0.1728802376190821,-0.48752024683155326,-0.11147110072896137,-1.9463801863486305,0.1336059019074957,2.595550359778934,0.9452445589611904,0.0013202203249778211,0.0001014902294982769,-0.0005448421504512578,-0.0007612857037353077,-0.00031839266495526085,-9.505499008982091e-05,0.0011098662915828752,0.0,0.0,0.0,0.0,0.0,0.0,0.0,0.0003257589754492862,3.990492530214773e-05,-6.663683347132854e-06,8.50377166479177e-05,-4.831820118372798e-06,3.532127097471971e-07,-5.3914394666509935e-06,-0.0013202203249778211,-0.0001014902294982769,0.0005448421504512578,0.0007612857037353077,0.00031839266495526085,9.505499008982091e-05,-0.0011098662915828752,0.22445029020309448,11.973108291625977,-1.3425629138946533,-21.768831253051758,-0.3793235421180725,-2.5271639823913574,0.22830526530742645,0
49,0.2404308319091797,-0.17287558317184448,-12.024682998657227,1.2671844959259033,21.741060256958008,0.3619285225868225,2.5271639823913574,-0.17337362468242645,0.0,0.0,0.0,0.0,0.0,0.0,0.0,-0.15540884094103413,0.3552181266299933,0.12040175969535213,0.44950276816329926,-0.16224321809747433,0.1255189383609664,-0.20920164092735585,0.17255205502045665,-0.487556532479169,-0.11146197971236012,-1.9464632752234474,0.13361266650756198,2.59555035977694,0.9452438468850322,0.1728802376190821,-0.48752024683155326,-0.11147110072896137,-1.9463801863486305,0.1336059019074957,2.595550359778934,0.9452445589611904,0.00020600152691205667,0.0013246448720435975,0.0007794085705316371,0.0001567662903206743,0.00034278344380535297,-7.93664043913494e-05,-0.0011913728154409708,0.0,0.0,0.0,0.0,0.0,0.0,0.0,0.00032818259862546495,3.628564761576358e-05,-9.121016601248977e-06,8.308887481689453e-05,-6.764600066294646e-06,1.993960552226781e-12,7.120761582601887e-07,-0.00020600152691205667,-0.0013246448720435975,-0.0007794085705316371,-0.0001567662903206743,-0.00034278344380535297,7.93664043913494e-05,0.0011913728154409708,0.17287558317184448,12.024682998657227,-1.2671844959259033,-21.741060256958008,-0.3619285225868225,-2.5271639823913574,0.17337362468242645,0
50,0.24500465393066406,-0.17287558317184448,-12.024682998657227,1.2671844959259033,21.741060256958008,0.3619285225868225,2.5271639823913574,-0.17337362468242645,0.0,0.0,0.0,0.0,0.0,0.0,0.0,-0.15540884094103413,0.3552181266299933,0.12040175969535213,0.44950276816329926,-0.16224321809747433,0.1255189383609664,-0.20920164092735585,0.17255205502045665,-0.487556532479169,-0.11146197971236012,-1.9464632752234474,0.13361266650756198,2.59555035977694,0.9452438468850322,0.1728802376190821,-0.48752024683155326,-0.11147110072896137,-1.9463801863486305,0.1336059019074957,2.595550359778934,0.9452445589611904,0.00020600152691205667,0.0013246448720435975,0.0007794085705316371,0.0001567662903206743,0.00034278344380535297,-7.93664043913494e-05,-0.0011913728154409708,0.0,0.0,0.0,0.0,0.0,0.0,0.0,0.00032818259862546495,3.628564761576358e-05,-9.121016601248977e-06,8.308887481689453e-05,-6.764600066294646e-06,1.993960552226781e-12,7.120761582601887e-07,-0.00020600152691205667,-0.0013246448720435975,-0.0007794085705316371,-0.0001567662903206743,-0.00034278344380535297,7.93664043913494e-05,0.0011913728154409708,0.17287558317184448,12.024682998657227,-1.2671844959259033,-21.741060256958008,-0.3619285225868225,-2.5271639823913574,0.17337362468242645,0
51,0.24994945526123047,-0.19667929410934448,-12.000879287719727,1.3147919178009033,21.741060256958008,0.3738303780555725,2.5271639823913574,-0.16604940593242645,0.0,0.0,0.0,0.0,0.0,0.0,0.0,-0.15731392533916544,0.3472321719918933,0.12567038709970674,0.45376631726854544,-0.16274755704531527,0.12538921460592334,-0.20888359100225007,0.17255390971569623,-0.4875582029150243,-0.11146495230222359,-1.9464632752234474,0.13361134407917655,2.595550359778934,0.9452429153453789,0.1728802376190821,-0.48752024683155326,-0.11147110072896137,-1.9463801863486305,0.1336059019074957,2.595550359778934,0.9452445589611904,0.001106665413737439,0.00024204411711089885,9.78224324954358e-05,0.0003387231035766805,7.347150729200577e-05,0.0001362625578727475,-0.001073963317291349,0.0,0.0,0.0,0.0,0.0,0.0,0.0,0.00032632790338588125,3.7956083471013535e-05,-6.148426737781487e-06,8.308887481689453e-05,-5.442171680858365e-06,0.0,1.6436158115640254e-06,-0.001106665413737439,-0.00024204411711089885,-9.78224324954358e-05,-0.0003387231035766805,-7.347150729200577e-05,-0.0001362625578727475,0.001073963317291349,0.19667929410934448,12.000879287719727,-1.3147919178009033,-21.741060256958008,-0.3738303780555725,-2.5271639823913574,0.16604940593242645,0
52,0.2550055980682373,-0.19667929410934448,-12.000879287719727,1.3147919178009033,21.741060256958008,0.3738303780555725,2.5271639823913574,-0.16604940593242645,0.0,0.0,0.0,0.0,0.0,0.0,0.0,-0.15731392533916544,0.3472321719918933,0.12567038709970674,0.45376631726854544,-0.16274755704531527,0.12538921460592334,-0.20888359100225007,0.17255390971569623,-0.4875582029150243,-0.11146495230222359,-1.9464632752234474,0.13361134407917655,2.595550359778934,0.9452429153453789,0.1728802376190821,-0.48752024683155326,-0.11147110072896137,-1.9463801863486305,0.1336059019074957,2.595550359778934,0.9452445589611904,0.001106665413737439,0.00024204411711089885,9.78224324954358e-05,0.0003387231035766805,7.347150729200577e-05,0.0001362625578727475,-0.001073963317291349,0.0,0.0,0.0,0.0,0.0,0.0,0.0,0.00032632790338588125,3.7956083471013535e-05,-6.148426737781487e-06,8.308887481689453e-05,-5.442171680858365e-06,0.0,1.6436158115640254e-06,-0.001106665413737439,-0.00024204411711089885,-9.78224324954358e-05,-0.0003387231035766805,-7.347150729200577e-05,-0.0001362625578727475,0.001073963317291349,0.19667929410934448,12.000879287719727,-1.3147919178009033,-21.741060256958008,-0.3738303780555725,-2.5271639823913574,0.16604940593242645,0
53,0.2599930763244629,-0.19667929410934448,-12.000879287719727,1.3147919178009033,21.741060256958008,0.3738303780555725,2.5271639823913574,-0.16604940593242645,0.0,0.0,0.0,0.0,0.0,0.0,0.0,-0.15731392533916544,0.3472321719918933,0.12567038709970674,0.45376631726854544,-0.16274755704531527,0.12538921460592334,-0.20888359100225007,0.17255390971569623,-0.4875582029150243,-0.11146495230222359,-1.9464632752234474,0.13361134407917655,2.595550359778934,0.9452429153453789,0.1728802376190821,-0.48752024683155326,-0.11147110072896137,-1.9463801863486305,0.1336059019074957,2.595550359778934,0.9452445589611904,0.001106665413737439,0.00024204411711089885,9.78224324954358e-05,0.0003387231035766805,7.347150729200577e-05,0.0001362625578727475,-0.001073963317291349,0.0,0.0,0.0,0.0,0.0,0.0,0.0,0.00032632790338588125,3.7956083471013535e-05,-6.148426737781487e-06,8.308887481689453e-05,-5.442171680858365e-06,0.0,1.6436158115640254e-06,-0.001106665413737439,-0.00024204411711089885,-9.78224324954358e-05,-0.0003387231035766805,-7.347150729200577e-05,-0.0001362625578727475,0.001073963317291349,0.19667929410934448,12.000879287719727,-1.3147919178009033,-21.741060256958008,-0.3738303780555725,-2.5271639823913574,0.16604940593242645,0
54,0.2654130458831787,-0.19667929410934448,-12.000879287719727,1.3147919178009033,21.741060256958008,0.3738303780555725,2.5271639823913574,-0.16604940593242645,0.0,0.0,0.0,0.0,0.0,0.0,0.0,-0.15731392533916544,0.3472321719918933,0.12567038709970674,0.45376631726854544,-0.16274755704531527,0.12538921460592334,-0.20888359100225007,0.17255390971569623,-0.4875582029150243,-0.11146495230222359,-1.9464632752234474,0.13361134407917655,2.595550359778934,0.9452429153453789,0.1728802376190821,-0.48752024683155326,-0.11147110072896137,-1.9463801863486305,0.1336059019074957,2.595550359778934,0.9452445589611904,0.001106665413737439,0.00024204411711089885,9.78224324954358e-05,0.0003387231035766805,7.347150729200577e-05,0.0001362625578727475,-0.001073963317291349,0.0,0.0,0.0,0.0,0.0,0.0,0.0,0.00032632790338588125,3.7956083471013535e-05,-6.148426737781487e-06,8.308887481689453e-05,-5.442171680858365e-06,0.0,1.6436158115640254e-06,-0.001106665413737439,-0.00024204411711089885,-9.78224324954358e-05,-0.0003387231035766805,-7.347150729200577e-05,-0.0001362625578727475,0.001073963317291349,0.19667929410934448,12.000879287719727,-1.3147919178009033,-21.741060256958008,-0.3738303780555725,-2.5271639823913574,0.16604940593242645,0
55,0.26999592781066895,-0.12130087614059448,-12.000879287719727,1.3147919178009033,21.768831253051758,0.3793235421180725,2.5207552909851074,-0.18710653483867645,0.0,0.0,0.0,0.0,0.0,0.0,0.0,-0.16300629153407475,0.344913573646475,0.11936295609545064,0.452342384323254,-0.1621857476853116,0.12552534279972918,-0.20734834757012777,0.1725491389054914,-0.487558199971585,-0.11146326897767231,-1.9464652240652784,0.13361085220104382,2.5955510704022067,0.9452453727632738,0.1728802376190821,-0.48752024683155326,-0.11147110072896137,-1.9463801863486305,0.1336059019074957,2.595550359778934,0.9452445589611904,-0.0008979474596216448,-0.00019030228619302525,-8.266731184847205e-05,-0.000694845343406962,-0.0004668471033835344,0.0003146532605588065,-0.000556739597608261,0.0,0.0,0.0,0.0,0.0,0.0,0.0,0.0003310987135907162,3.795314003174344e-05,-7.831751289058553e-06,8.50377166479177e-05,-4.950293548133811e-06,-7.106232726705741e-07,-8.138020833881043e-07,0.0008979474596216448,0.00019030228619302525,8.266731184847205e-05,0.000694845343406962,0.0004668471033835344,-0.0003146532605588065,0.000556739597608261,0.12130087614059448,12.000879287719727,-1.3147919178009033,-21.768831253051758,-0.3793235421180725,-2.5207552909851074,0.18710653483867645,0
56,0.2750096321105957,-0.12130087614059448,-12.000879287719727,1.3147919178009033,21.768831253051758,0.3793235421180725,2.5207552909851074,-0.18710653483867645,0.0,0.0,0.0,0.0,0.0,0.0,0.0,-0.16300629153407475,0.344913573646475,0.11936295609545064,0.452342384323254,-0.1621857476853116,0.12552534279972918,-0.20734834757012777,0.1725491389054914,-0.487558199971585,-0.11146326897767231,-1.9464652240652784,0.13361085220104382,2.5955510704022067,0.9452453727632738,0.1728802376190821,-0.48752024683155326,-0.11147110072896137,-1.9463801863486305,0.1336059019074957,2.595550359778934,0.9452445589611904,-0.0008979474596216448,-0.00019030228619302525,-8.266731184847205e-05,-0.000694845343406962,-0.0004668471033835344,0.0003146532605588065,-0.000556739597608261,0.0,0.0,0.0,0.0,0.0,0.0,0.0,0.0003310987135907162,3.795314003174344e-05,-7.831751289058553e-06,8.50377166479177e-05,-4.950293548133811e-06,-7.106232726705741e-07,-8.138020833881043e-07,0.0008979474596216448,0.00019030228619302525,8.266731184847205e-05,0.000694845343406962,0.0004668471033835344,-0.0003146532605588065,0.000556739597608261,0.12130087614059448,12.000879287719727,-1.3147919178009033,-21.768831253051758,-0.3793235421180725,-2.5207552909851074,0.18710653483867645,0
57,0.2800173759460449,-0.12130087614059448,-11.973108291625977,1.3663666248321533,21.717256546020508,0.3619285225868225,2.5271639823913574,-0.17978231608867645,0.0,0.0,0.0,0.0,0.0,0.0,0.0,-0.15730180166053503,0.36101420062422174,0.12263757936711499,0.44378917836428516,-0.16251538346318872,0.12412437188413361,-0.20624374428361122,0.17254929726296228,-0.4875599133382597,-0.11146822968574019,-1.946461604787592,0.13361266650823078,2.595550359778926,0.945244558961855,0.1728802376190821,-0.48752024683155326,-0.11147110072896137,-1.9463801863486305,0.1336059019074957,2.595550359778934,0.9452445589611904,-0.0008216524963392869,0.00033123580739122705,-0.0011966318023116757,0.000669398317762849,0.00045202611262593024,-0.00018298062458356468,-0.0007684206790289025,0.0,0.0,0.0,0.0,0.0,0.0,0.0,0.00033094035611982986,3.9666506706448335e-05,-2.871043221178149e-06,8.141843896147805e-05,-6.764600735092996e-06,7.993605777301127e-15,-6.645795025406187e-13,0.0008216524963392869,-0.00033123580739122705,0.0011966318023116757,-0.000669398317762849,-0.00045202611262593024,0.00018298062458356468,0.0007684206790289025,0.12130087614059448,11.973108291625977,-1.3663666248321533,-21.717256546020508,-0.3619285225868225,-2.5271639823913574,0.17978231608867645,0
58,0.2850048542022705,-0.12130087614059448,-11.973108291625977,1.3663666248321533,21.717256546020508,0.3619285225868225,2.5271639823913574,-0.17978231608867645,0.0,0.0,0.0,0.0,0.0,0.0,0.0,-0.15730180166053503,0.36101420062422174,0.12263757936711499,0.44378917836428516,-0.16251538346318872,0.12412437188413361,-0.20624374428361122,0.17254929726296228,-0.4875599133382597,-0.11146822968574019,-1.946461604787592,0.13361266650823078,2.595550359778926,0.945244558961855,0.1728802376190821,-0.48752024683155326,-0.11147110072896137,-1.9463801863486305,0.1336059019074957,2.595550359778934,0.9452445589611904,-0.0008216524963392869,0.00033123580739122705,-0.0011966318023116757,0.000669398317762849,0.00045202611262593024,-0.00018298062458356468,-0.0007684206790289025,0.0,0.0,0.0,0.0,0.0,0.0,0.0,0.00033094035611982986,3.9666506706448335e-05,-2.871043221178149e-06,8.141843896147805e-05,-6.764600735092996e-06,7.993605777301127e-15,-6.645795025406187e-13,0.0008216524963392869,-0.00033123580739122705,0.0011966318023116757,-0.000669398317762849,-0.00045202611262593024,0.00018298062458356468,0.0007684206790289025,0.12130087614059448,11.973108291625977,-1.3663666248321533,-21.717256546020508,-0.3619285225868225,-2.5271639823913574,0.17978231608867645,0
59,0.2900111675262451,-0.19667929410934448,-11.949304580688477,1.2909882068634033,21.741060256958008,0.3619285225868225,2.5207552909851074,-0.18710653483867645,0.0,0.0,0.0,0.0,0.0,0.0,0.0,-0.1568676064380858,0.3602949762325176,0.12363159753730252,0.4480465846067469,-0.1627058263471805,0.1243445905698978,-0.20622276942869647,0.1725536473757695,-0.48756182219136485,-0.11146294907354465,-1.9464632752234474,0.133612666507562,2.595551071855757,0.9452453727639384,0.1728802376190821,-0.48752024683155326,-0.11147110072896137,-1.9463801863486305,0.1336059019074957,2.595550359778934,0.9452445589611904,0.0011192892263690865,0.0007569574524078597,0.0008068101050579901,-0.00017122657647186324,0.00013220228608192434,-3.152523833085756e-06,-0.00022842508474232759,0.0,0.0,0.0,0.0,0.0,0.0,0.0,0.0003265902433126078,4.157535981158533e-05,-8.151655416718806e-06,8.308887481689453e-05,-6.7646000663224015e-06,-7.120768228396912e-07,-8.138027479676069e-07,-0.0011192892263690865,-0.0007569574524078597,-0.0008068101050579901,0.00017122657647186324,-0.00013220228608192434,3.152523833085756e-06,0.00022842508474232759,0.19667929410934448,11.949304580688477,-1.2909882068634033,-21.741060256958008,-0.3619285225868225,-2.5207552909851074,0.18710653483867645,0
60,0.2949967384338379,-0.19667929410934448,-11.949304580688477,1.2909882068634033,21.741060256958008,0.3619285225868225,2.5207552909851074,-0.18710653483867645,0.0,0.0,0.0,0.0,0.0,0.0,0.0,-0.1568676064380858,0.3602949762325176,0.12363159753730252,0.4480465846067469,-0.1627058263471805,0.1243445905698978,-0.20622276942869647,0.1725536473757695,-0.48756182219136485,-0.11146294907354465,-1.9464632752234474,0.133612666507562,2.595551071855757,0.9452453727639384,0.1728802376190821,-0.48752024683155326,-0.11147110072896137,-1.9463801863486305,0.1336059019074957,2.595550359778934,0.9452445589611904,0.0011192892263690865,0.0007569574524078597,0.0008068101050579901,-0.00017122657647186324,0.00013220228608192434,-3.152523833085756e-06,-0.00022842508474232759,0.0,0.0,0.0,0.0,0.0,0.0,0.0,0.0003265902433126078,4.157535981158533e-05,-8.151655416718806e-06,8.308887481689453e-05,-6.7646000663224015e-06,-7.120768228396912e-07,-8.138027479676069e-07,-0.0011192892263690865,-0.0007569574524078597,-0.0008068101050579901,0.00017122657647186324,-0.00013220228608192434,3.152523833085756e-06,0.00022842508474232759,0.19667929410934448,11.949304580688477,-1.2909882068634033,-21.741060256958008,-0.3619285225868225,-2.5207552909851074,0.18710653483867645,0
61,0.29999852180480957,-0.19667929410934448,-11.925500869750977,1.3147919178009033,21.717256546020508,0.3738303780555725,2.5271639823913574,-0.22830526530742645,0.0,0.0,0.0,0.0,0.0,0.0,0.0,-0.1646225227271663,0.3663245308382104,0.11399774505254719,0.45190276885659825,-0.16244131183415086,0.1243118998251067,-0.2056152574683181,0.17255462296176236,-0.48756349262856596,-0.11146532947335723,-1.946461604787592,0.13361134407917657,2.595550359778934,0.9452499504006571,0.1728802376190821,-0.48752024683155326,-0.11147110072896137,-1.9463801863486305,0.1336059019074957,2.595550359778934,0.9452445589611904,0.00047599611766560124,0.0008945121016607286,-6.021618959060561e-05,0.0006144089853193814,-0.0023235954660755184,-7.458168103213566e-05,0.001494372078789319,0.0,0.0,0.0,0.0,0.0,0.0,0.0,0.00032561465731975603,4.3245797012703147e-05,-5.771255604136716e-06,8.141843896147805e-05,-5.442171680886121e-06,0.0,-5.3914394666509935e-06,-0.00047599611766560124,-0.0008945121016607286,6.021618959060561e-05,-0.0006144089853193814,0.0023235954660755184,7.458168103213566e-05,-0.001494372078789319,0.19667929410934448,11.925500869750977,-1.3147919178009033,-21.717256546020508,-0.3738303780555725,-2.5271639823913574,0.22830526530742645,0
62,0.30499935150146484,-0.19667929410934448,-11.925500869750977,1.3147919178009033,21.717256546020508,0.3738303780555725,2.5271639823913574,-0.22830526530742645,0.0,0.0,0.0,0.0,0.0,0.0,0.0,-0.1646225227271663,0.3663245308382104,0.11399774505254719,0.45190276885659825,-0.16244131183415086,0.1243118998251067,-0.2056152574683181,0.17255462296176236,-0.48756349262856596,-0.11146532947335723,-1.946461604787592,0.13361134407917657,2.595550359778934,0.9452499504006571,0.1728802376190821,-0.48752024683155326,-0.11147110072896137,-1.9463801863486305,0.1336059019074957,2.595550359778934,0.9452445589611904,0.00047599611766560124,0.0008945121016607286,-6.021618959060561e-05,0.0006144089853193814,-0.0023235954660755184,-7.458168103213566e-05,0.001494372078789319,0.0,0.0,0.0,0.0,0.0,0.0,0.0,0.00032561465731975603,4.3245797012703147e-05,-5.771255604136716e-06,8.141843896147805e-05,-5.442171680886121e-06,0.0,-5.3914394666509935e-06,-0.00047599611766560124,-0.0008945121016607286,6.021618959060561e-05,-0.0006144089853193814,0.0023235954660755184,7.458168103213566e-05,-0.001494372078789319,0.19667929410934448,11.925500869750977,-1.3147919178009033,-21.717256546020508,-0.3738303780555725,-2.5271639823913574,0.22830526530742645,0
63,0.3099966049194336,-0.12130087614059448,-11.973108291625977,1.3425629138946533,21.768831253051758,0.3738303780555725,2.5207552909851074,-0.16604940593242645,0.0,0.0,0.0,0.0,0.0,0.0,0.0,-0.16104027706871535,0.3559501500423206,0.12209812169322579,0.4607107123238463,-0.16357620324977284,0.1256495983559629,-0.20551687352229628,0.17254908912713302,-0.4875601517568554,-0.11146751792219084,-1.9464652240652784,0.13361134407917657,2.595551071855757,0.9452430330829488,0.1728802376190821,-0.48752024683155326,-0.11147110072896137,-1.9463801863486305,0.1336059019074957,2.595550359778934,0.9452445589611904,-0.0007903259333373211,0.0004142372609590751,-0.000929035661705312,-0.0008315543025495407,-0.0001881415263214341,0.00018869516881315511,-0.0014716876115121978,0.0,0.0,0.0,0.0,0.0,0.0,0.0,0.0003311484919490959,3.990492530214773e-05,-3.582806770527358e-06,8.50377166479177e-05,-5.442171680886121e-06,-7.120768228396912e-07,1.525878241648293e-06,0.0007903259333373211,-0.0004142372609590751,0.000929035661705312,0.0008315543025495407,0.0001881415263214341,-0.00018869516881315511,0.0014716876115121978,0.12130087614059448,11.973108291625977,-1.3425629138946533,-21.768831253051758,-0.3738303780555725,-2.5207552909851074,0.16604940593242645,0
64,0.31499767303466797,-0.12130087614059448,-11.973108291625977,1.3425629138946533,21.768831253051758,0.3738303780555725,2.5207552909851074,-0.16604940593242645,0.0,0.0,0.0,0.0,0.0,0.0,0.0,-0.16104027706871535,0.3559501500423206,0.12209812169322579,0.4607107123238463,-0.16357620324977284,0.1256495983559629,-0.20551687352229628,0.17254908912713302,-0.4875601517568554,-0.11146751792219084,-1.9464652240652784,0.13361134407917657,2.595551071855757,0.9452430330829488,0.1728802376190821,-0.48752024683155326,-0.11147110072896137,-1.9463801863486305,0.1336059019074957,2.595550359778934,0.9452445589611904,-0.0007903259333373211,0.0004142372609590751,-0.000929035661705312,-0.0008315543025495407,-0.0001881415263214341,0.00018869516881315511,-0.0014716876115121978,0.0,0.0,0.0,0.0,0.0,0.0,0.0,0.0003311484919490959,3.990492530214773e-05,-3.582806770527358e-06,8.50377166479177e-05,-5.442171680886121e-06,-7.120768228396912e-07,1.525878241648293e-06,0.0007903259333373211,-0.0004142372609590751,0.000929035661705312,0.0008315543025495407,0.0001881415263214341,-0.00018869516881315511,0.0014716876115121978,0.12130087614059448,11.973108291625977,-1.3425629138946533,-21.768831253051758,-0.3738303780555725,-2.5207552909851074,0.16604940593242645,0
65,0.31999707221984863,-0.17287558317184448,-12.024682998657227,1.3425629138946533,21.768831253051758,0.3674216866493225,2.5271639823913574,-0.23471395671367645,0.0,0.0,0.0,0.0,0.0,0.0,0.0,-0.1574437412931874,0.3569566590284185,0.12402007802717399,0.45983373514804937,-0.16410106175858813,0.12579933742995178,-0.20667604266535722,0.1725522052433849,-0.4875564526792605,-0.11146450735266553,-1.9464652240652784,0.1336120561559995,2.595550359778934,0.94525066247748,0.1728802376190821,-0.48752024683155326,-0.11147110072896137,-1.9463801863486305,0.1336059019074957,2.595550359778934,0.9452445589611904,0.00047142222097191274,0.0009688060183442012,-0.0004224443484332415,-0.0006345195339320737,0.00018654530677269564,-4.5470552682763396e-05,0.0015956639740384937,0.0,0.0,0.0,0.0,0.0,0.0,0.0,0.00032803237569720145,3.6205847707249106e-05,-6.5933762958408915e-06,8.50377166479177e-05,-6.154248503809079e-06,0.0,-6.103516289601707e-06,-0.00047142222097191274,-0.0009688060183442012,0.0004224443484332415,0.0006345195339320737,-0.00018654530677269564,4.5470552682763396e-05,-0.0015956639740384937,0.17287558317184448,12.024682998657227,-1.3425629138946533,-21.768831253051758,-0.3674216866493225,-2.5271639823913574,0.23471395671367645,0
66,0.32506442070007324,-0.17287558317184448,-12.024682998657227,1.3425629138946533,21.768831253051758,0.3674216866493225,2.5271639823913574,-0.23471395671367645,0.0,0.0,0.0,0.0,0.0,0.0,0.0,-0.1574437412931874,0.3569566590284185,0.12402007802717399,0.45983373514804937,-0.16410106175858813,0.12579933742995178,-0.20667604266535722,0.1725522052433849,-0.4875564526792605,-0.11146450735266553,-1.9464652240652784,0.1336120561559995,2.595550359778934,0.94525066247748,0.1728802376190821,-0.48752024683155326,-0.11147110072896137,-1.9463801863486305,0.1336059019074957,2.595550359778934,0.9452445589611904,0.00047142222097191274,0.0009688060183442012,-0.0004224443484332415,-0.0006345195339320737,0.00018654530677269564,-4.5470552682763396e-05,0.0015956639740384937,0.0,0.0,0.0,0.0,0.0,0.0,0.0,0.00032803237569720145,3.6205847707249106e-05,-6.5933762958408915e-06,8.50377166479177e-05,-6.154248503809079e-06,0.0,-6.103516289601707e-06,-0.00047142222097191274,-0.0009688060183442012,0.0004224443484332415,0.0006345195339320737,-0.00018654530677269564,4.5470552682763396e-05,-0.0015956639740384937,0.17287558317184448,12.024682998657227,-1.3425629138946533,-21.768831253051758,-0.3674216866493225,-2.5271639823913574,0.23471395671367645,0
67,0.3299977779388428,-0.19667929410934448,-12.048486709594727,1.3425629138946533,21.693452835083008,0.3738303780555725,2.5271639823913574,-0.16604940593242645,0.0,0.0,0.0,0.0,0.0,0.0,0.0,-0.16192405395503712,0.36439108854298063,0.11762790764984539,0.4510810624354231,-0.16357828128098417,0.12547640978595184,-0.20727911070062385,0.1725537456501818,-0.4875548610620172,-0.11146537544313288,-1.9464599343517368,0.13361134407917657,2.5955503466969816,0.9452430330829488,0.1728802376190821,-0.48752024683155326,-0.11147110072896137,-1.9463801863486305,0.1336059019074957,2.595550359778934,0.9452445589611904,0.00022286565891236067,0.0013715347201542095,-0.0004904728002170549,0.0015036753379314054,-0.00010893417164993915,-0.00011453523938861326,-0.0014462464767894328,0.0,0.0,0.0,0.0,0.0,0.0,0.0,0.0003264919689003054,3.46142304639141e-05,-5.7252858284839725e-06,7.97480031062836e-05,-5.442171680886121e-06,1.3081952410232134e-08,1.525878241648293e-06,-0.00022286565891236067,-0.0013715347201542095,0.0004904728002170549,-0.0015036753379314054,0.00010893417164993915,0.00011453523938861326,0.0014462464767894328,0.19667929410934448,12.048486709594727,-1.3425629138946533,-21.693452835083008,-0.3738303780555725,-2.5271639823913574,0.16604940593242645,0
68,0.3350088596343994,-0.19667929410934448,-12.048486709594727,1.3425629138946533,21.693452835083008,0.3738303780555725,2.5271639823913574,-0.16604940593242645,0.0,0.0,0.0,0.0,0.0,0.0,0.0,-0.16192405395503712,0.36439108854298063,0.11762790764984539,0.4510810624354231,-0.16357828128098417,0.12547640978595184,-0.20727911070062385,0.1725537456501818,-0.4875548610620172,-0.11146537544313288,-1.9464599343517368,0.13361134407917657,2.5955503466969816,0.9452430330829488,0.1728802376190821,-0.48752024683155326,-0.11147110072896137,-1.9463801863486305,0.1336059019074957,2.595550359778934,0.9452445589611904,0.00022286565891236067,0.0013715347201542095,-0.0004904728002170549,0.0015036753379314054,-0.00010893417164993915,-0.00011453523938861326,-0.0014462464767894328,0.0,0.0,0.0,0.0,0.0,0.0,0.0,0.0003264919689003054,3.46142304639141e-05,-5.7252858284839725e-06,7.97480031062836e-05,-5.442171680886121e-06,1.3081952410232134e-08,1.525878241648293e-06,-0.00022286565891236067,-0.0013715347201542095,0.0004904728002170549,-0.0015036753379314054,0.00010893417164993915,0.00011453523938861326,0.0014462464767894328,0.19667929410934448,12.048486709594727,-1.3425629138946533,-21.693452835083008,-0.3738303780555725,-2.5271639823913574,0.16604940593242645,0
69,0.3400003910064697,-0.17287558317184448,-11.949304580688477,1.3147919178009033,21.717256546020508,0.3857322335243225,2.5207552909851074,-0.19351522624492645,0.0,0.0,0.0,0.0,0.0,0.0,0.0,-0.16054623225130568,0.3662047015216568,0.12211112093833996,0.4457672260107128,-0.16335091747566455,0.12455381118636596,-0.20759714740588528,0.17255224365658803,-0.48756155728317285,-0.1114627176409843,-1.946461604787592,0.13361002165079117,2.595551071855683,0.9452460848407613,0.1728802376190821,-0.48752024683155326,-0.11147110072896137,-1.9463801863486305,0.1336059019074957,2.595550359778934,0.9452445589611904,0.00042857555750167123,-0.0008256888887655848,-0.0004070186679904644,0.0007743954972234017,-0.0005233957506035311,0.000124516412064338,0.00014803456017409414,0.0,0.0,0.0,0.0,0.0,0.0,0.0,0.0003279939624940831,4.131045161959168e-05,-8.383087977070769e-06,8.141843896147805e-05,-4.119743295477596e-06,-7.120767491208824e-07,-1.5258795709183204e-06,-0.00042857555750167123,0.0008256888887655848,0.0004070186679904644,-0.0007743954972234017,0.0005233957506035311,-0.000124516412064338,-0.00014803456017409414,0.17287558317184448,11.949304580688477,-1.3147919178009033,-21.717256546020508,-0.3857322335243225,-2.5207552909851074,0.19351522624492645,0
70,0.3449971675872803,-0.17287558317184448,-11.949304580688477,1.3147919178009033,21.717256546020508,0.3857322335243225,2.5207552909851074,-0.19351522624492645,0.0,0.0,0.0,0.0,0.0,0.0,0.0,-0.16054623225130568,0.3662047015216568,0.12211112093833996,0.4457672260107128,-0.16335091747566455,0.12455381118636596,-0.20759714740588528,0.17255224365658803,-0.48756155728317285,-0.1114627176409843,-1.946461604787592,0.13361002165079117,2.595551071855683,0.9452460848407613,0.1728802376190821,-0.48752024683155326,-0.11147110072896137,-1.9463801863486305,0.1336059019074957,2.595550359778934,0.9452445589611904,0.00042857555750167123,-0.0008256888887655848,-0.0004070186679904644,0.0007743954972234017,-0.0005233957506035311,0.000124516412064338,0.00014803456017409414,0.0,0.0,0.0,0.0,0.0,0.0,0.0,0.0003279939624940831,4.131045161959168e-05,-8.383087977070769e-06,8.141843896147805e-05,-4.119743295477596e-06,-7.120767491208824e-07,-1.5258795709183204e-06,-0.00042857555750167123,0.0008256888887655848,0.0004070186679904644,-0.0007743954972234017,0.0005233957506035311,-0.000124516412064338,-0.00014803456017409414,0.17287558317184448,11.949304580688477,-1.3147919178009033,-21.717256546020508,-0.3857322335243225,-2.5207552909851074,0.19351522624492645,0
71,0.34999918937683105,-0.22445029020309448,-12.000879287719727,1.2909882068634033,21.741060256958008,0.3793235421180725,2.5207552909851074,-0.22830526530742645,0.0,0.0,0.0,0.0,0.0,0.0,0.0,-0.16133089136015566,0.3541724168358529,0.12113878302169964,0.4502420371401714,-0.16253711610168878,0.1250420729619501,-0.20653728613728228,0.17255558641159097,-0.4875582028771901,-0.11146152805245593,-1.9464632752234474,0.1336107337276141,2.5955500122176276,0.9452499504006571,0.1728802376190821,-0.48752024683155326,-0.11147110072896137,-1.9463801863486305,0.1336059019074957,2.595550359778934,0.9452445589611904,0.001209343859627695,0.0006708465459442926,0.00047768752965420176,-5.1676764264011355e-05,-1.6516140317380164e-05,0.0003292134662522007,0.0014595064739110685,0.0,0.0,0.0,0.0,0.0,0.0,0.0,0.0003246512074911445,3.79560456368333e-05,-9.572676505434363e-06,8.308887481689453e-05,-4.831820118400554e-06,3.475613064019001e-07,-5.3914394666509935e-06,-0.001209343859627695,-0.0006708465459442926,-0.00047768752965420176,5.1676764264011355e-05,1.6516140317380164e-05,-0.0003292134662522007,-0.0014595064739110685,0.22445029020309448,12.000879287719727,-1.2909882068634033,-21.741060256958008,-0.3793235421180725,-2.5207552909851074,0.22830526530742645,0
72,0.3550088405609131,-0.22445029020309448,-12.000879287719727,1.2909882068634033,21.741060256958008,0.3793235421180725,2.5207552909851074,-0.22830526530742645,0.0,0.0,0.0,0.0,0.0,0.0,0.0,-0.16133089136015566,0.3541724168358529,0.12113878302169964,0.4502420371401714,-0.16253711610168878,0.1250420729619501,-0.20653728613728228,0.17255558641159097,-0.4875582028771901,-0.11146152805245593,-1.9464632752234474,0.1336107337276141,2.5955500122176276,0.9452499504006571,0.1728802376190821,-0.48752024683155326,-0.11147110072896137,-1.9463801863486305,0.1336059019074957,2.595550359778934,0.9452445589611904,0.001209343859627695,0.0006708465459442926,0.00047768752965420176,-5.1676764264011355e-05,-1.6516140317380164e-05,0.0003292134662522007,0.0014595064739110685,0.0,0.0,0.0,0.0,0.0,0.0,0.0,0.0003246512074911445,3.79560456368333e-05,-9.572676505434363e-06,8.308887481689453e-05,-4.831820118400554e-06,3.475613064019001e-07,-5.3914394666509935e-06,-0.001209343859627695,-0.0006708465459442926,-0.00047768752965420176,5.1676764264011355e-05,1.6516140317380164e-05,-0.0003292134662522007,-0.0014595064739110685,0.22445029020309448,12.000879287719727,-1.2909882068634033,-21.741060256958008,-0.3793235421180725,-2.5207552909851074,0.22830526530742645,0
73,0.3599996566772461,-0.17287558317184448,-11.973108291625977,1.3147919178009033,21.741060256958008,0.3793235421180725,2.5207552909851074,-0.18710653483867645,0.0,0.0,0.0,0.0,0.0,0.0,0.0,-0.16489902145101681,0.35427501547244583,0.11751639867209727,0.4494072394157133,-0.16100715371177263,0.12555130193389688,-0.2062542677646984,0.17255279637771187,-0.4875601517568552,-0.11146463664247133,-1.9464632752234474,0.1336107337276141,2.595551071849775,0.9452453727639384,0.1728802376190821,-0.48752024683155326,-0.11147110072896137,-1.9463801863486305,0.1336059019074957,2.595550359778934,0.9452445589611904,-4.581536433390301e-05,-4.463080192055502e-05,-0.0002144949704606671,-2.883455086339714e-05,-0.0002882772875298987,0.00011711721192050909,-0.0003548392524950613,0.0,0.0,0.0,0.0,0.0,0.0,0.0,0.000327441241370241,3.990492530192569e-05,-6.464086490035048e-06,8.308887481689453e-05,-4.831820118400554e-06,-7.120708409580345e-07,-8.138027479676069e-07,4.581536433390301e-05,4.463080192055502e-05,0.0002144949704606671,2.883455086339714e-05,0.0002882772875298987,-0.00011711721192050909,0.0003548392524950613,0.17287558317184448,11.973108291625977,-1.3147919178009033,-21.741060256958008,-0.3793235421180725,-2.5207552909851074,0.18710653483867645,0
74,0.3650054931640625,-0.17287558317184448,-11.973108291625977,1.3147919178009033,21.741060256958008,0.3793235421180725,2.5207552909851074,-0.18710653483867645,0.0,0.0,0.0,0.0,0.0,0.0,0.0,-0.16489902145101681,0.35427501547244583,0.11751639867209727,0.4494072394157133,-0.16100715371177263,0.12555130193389688,-0.2062542677646984,0.17255279637771187,-0.4875601517568552,-0.11146463664247133,-1.9464632752234474,0.1336107337276141,2.595551071849775,0.9452453727639384,0.1728802376190821,-0.48752024683155326,-0.11147110072896137,-1.9463801863486305,0.1336059019074957,2.595550359778934,0.9452445589611904,-4.581536433390301e-05,-4.463080192055502e-05,-0.0002144949704606671,-2.883455086339714e-05,-0.0002882772875298987,0.00011711721192050909,-0.0003548392524950613,0.0,0.0,0.0,0.0,0.0,0.0,0.0,0.000327441241370241,3.990492530192569e-05,-6.464086490035048e-06,8.308887481689453e-05,-4.831820118400554e-06,-7.120708409580345e-07,-8.138027479676069e-07,4.581536433390301e-05,4.463080192055502e-05,0.0002144949704606671,2.883455086339714e-05,0.0002882772875298987,-0.00011711721192050909,0.0003548392524950613,0.17287558317184448,11.973108291625977,-1.3147919178009033,-21.741060256958008,-0.3793235421180725,-2.5207552909851074,0.18710653483867645,0
75,0.3699982166290283,-0.17287558317184448,-11.973108291625977,1.3147919178009033,21.741060256958008,0.3793235421180725,2.5207552909851074,-0.18710653483867645,0.0,0.0,0.0,0.0,0.0,0.0,0.0,-0.16489902145101681,0.35427501547244583,0.11751639867209727,0.4494072394157133,-0.16100715371177263,0.12555130193389688,-0.2062542677646984,0.17255279637771187,-0.4875601517568552,-0.11146463664247133,-1.9464632752234474,0.1336107337276141,2.595551071849775,0.9452453727639384,0.1728802376190821,-0.48752024683155326,-0.11147110072896137,-1.9463801863486305,0.1336059019074957,2.595550359778934,0.9452445589611904,-4.581536433390301e-05,-4.463080192055502e-05,-0.0002144949704606671,-2.883455086339714e-05,-0.0002882772875298987,0.00011711721192050909,-0.0003548392524950613,0.0,0.0,0.0,0.0,0.0,0.0,0.0,0.000327441241370241,3.990492530192569e-05,-6.464086490035048e-06,8.308887481689453e-05,-4.831820118400554e-06,-7.120708409580345e-07,-8.138027479676069e-07,4.581536433390301e-05,4.463080192055502e-05,0.0002144949704606671,2.883455086339714e-05,0.0002882772875298987,-0.00011711721192050909,0.0003548392524950613,0.17287558317184448,11.973108291625977,-1.3147919178009033,-21.741060256958008,-0.3793235421180725,-2.5207552909851074,0.18710653483867645,0
76,0.3750417232513428,-0.17287558317184448,-11.973108291625977,1.3147919178009033,21.741060256958008,0.3793235421180725,2.5207552909851074,-0.18710653483867645,0.0,0.0,0.0,0.0,0.0,0.0,0.0,-0.16489902145101681,0.35427501547244583,0.11751639867209727,0.4494072394157133,-0.16100715371177263,0.12555130193389688,-0.2062542677646984,0.17255279637771187,-0.4875601517568552,-0.11146463664247133,-1.9464632752234474,0.1336107337276141,2.595551071849775,0.9452453727639384,0.1728802376190821,-0.48752024683155326,-0.11147110072896137,-1.9463801863486305,0.1336059019074957,2.595550359778934,0.9452445589611904,-4.581536433390301e-05,-4.463080192055502e-05,-0.0002144949704606671,-2.883455086339714e-05,-0.0002882772875298987,0.00011711721192050909,-0.0003548392524950613,0.0,0.0,0.0,0.0,0.0,0.0,0.0,0.000327441241370241,3.990492530192569e-05,-6.464086490035048e-06,8.308887481689453e-05,-4.831820118400554e-06,-7.120708409580345e-07,-8.138027479676069e-07,4.581536433390301e-05,4.463080192055502e-05,0.0002144949704606671,2.883455086339714e-05,0.0002882772875298987,-0.00011711721192050909,0.0003548392524950613,0.17287558317184448,11.973108291625977,-1.3147919178009033,-21.741060256958008,-0.3793235421180725,-2.5207552909851074,0.18710653483867645,0
77,0.37999606132507324,-0.14510458707809448,-11.973108291625977,1.3147919178009033,21.717256546020508,0.3793235421180725,2.5271639823913574,-0.23471395671367645,0.0,0.0,0.0,0.0,0.0,0.0,0.0,-0.1608048356463702,0.33922699633645265,0.12363997890217177,0.45832677585195575,-0.16110603138534876,0.12665348568178658,-0.20697994339603118,0.1725478949409189,-0.48756015077570897,-0.11146275420334195,-1.946461604787592,0.1336107337276141,2.595550359778934,0.94525066247748,0.1728802376190821,-0.48752024683155326,-0.11147110072896137,-1.9463801863486305,0.1336059019074957,2.595550359778934,0.9452445589611904,-1.1794971979449557e-05,-0.0006590880976355223,-1.1767995037667358e-05,0.0007252254912538848,-0.0004480057422325016,0.00016735129880370467,0.0012634319850633967,0.0,0.0,0.0,0.0,0.0,0.0,0.0,0.0003323426781632055,3.990394415570586e-05,-8.346525619415401e-06,8.141843896147805e-05,-4.831820118400554e-06,0.0,-6.103516289601707e-06,1.1794971979449557e-05,0.0006590880976355223,1.1767995037667358e-05,-0.0007252254912538848,0.0004480057422325016,-0.00016735129880370467,-0.0012634319850633967,0.14510458707809448,11.973108291625977,-1.3147919178009033,-21.717256546020508,-0.3793235421180725,-2.5271639823913574,0.23471395671367645,0
78,0.3850283622741699,-0.14510458707809448,-11.973108291625977,1.3147919178009033,21.717256546020508,0.3793235421180725,2.5271639823913574,-0.23471395671367645,0.0,0.0,0.0,0.0,0.0,0.0,0.0,-0.1608048356463702,0.33922699633645265,0.12363997890217177,0.45832677585195575,-0.16110603138534876,0.12665348568178658,-0.20697994339603118,0.1725478949409189,-0.48756015077570897,-0.11146275420334195,-1.946461604787592,0.1336107337276141,2.595550359778934,0.94525066247748,0.1728802376190821,-0.48752024683155326,-0.11147110072896137,-1.9463801863486305,0.1336059019074957,2.595550359778934,0.9452445589611904,-1.1794971979449557e-05,-0.0006590880976355223,-1.1767995037667358e-05,0.0007252254912538848,-0.0004480057422325016,0.00016735129880370467,0.0012634319850633967,0.0,0.0,0.0,0.0,0.0,0.0,0.0,0.0003323426781632055,3.990394415570586e-05,-8.346525619415401e-06,8.141843896147805e-05,-4.831820118400554e-06,0.0,-6.103516289601707e-06,1.1794971979449557e-05,0.0006590880976355223,1.1767995037667358e-05,-0.0007252254912538848,0.0004480057422325016,-0.00016735129880370467,-0.0012634319850633967,0.14510458707809448,11.973108291625977,-1.3147919178009033,-21.717256546020508,-0.3793235421180725,-2.5271639823913574,0.23471395671367645,0
79,0.3899977207183838,-0.17287558317184448,-12.000879287719727,1.2671844959259033,21.768831253051758,0.3793235421180725,2.5271639823913574,-0.22098104655742645,0.0,0.0,0.0,0.0,0.0,0.0,0.0,-0.16243123795860906,0.34448991262567924,0.11338062919010264,0.45493184461676095,-0.16125098126634077,0.12667156597444365,-0.20839145694527816,0.1725506513092829,-0.4875582029150077,-0.11146130482904235,-1.9464652240652784,0.1336107337276141,2.595550359778934,0.9452491365985738,0.1728802376190821,-0.48752024683155326,-0.11147110072896137,-1.9463801863486305,0.1336059019074957,2.595550359778934,0.9452445589611904,0.0006966755680739287,-2.6788721358652447e-06,0.0006565434059326856,-0.0002589410902093483,-0.0003072771169915475,0.00012198557733877083,0.0008612995794073341,0.0,0.0,0.0,0.0,0.0,0.0,0.0,0.0003295863097992069,3.79560834544157e-05,-9.79589991902119e-06,8.50377166479177e-05,-4.831820118400554e-06,0.0,-4.5776373833739115e-06,-0.0006966755680739287,2.6788721358652447e-06,-0.0006565434059326856,0.0002589410902093483,0.0003072771169915475,-0.00012198557733877083,-0.0008612995794073341,0.17287558317184448,12.000879287719727,-1.2671844959259033,-21.768831253051758,-0.3793235421180725,-2.5271639823913574,0.22098104655742645,0
80,0.39499855041503906,-0.17287558317184448,-12.000879287719727,1.2671844959259033,21.768831253051758,0.3793235421180725,2.5271639823913574,-0.22098104655742645,0.0,0.0,0.0,0.0,0.0,0.0,0.0,-0.16243123795860906,0.34448991262567924,0.11338062919010264,0.45493184461676095,-0.16125098126634077,0.12667156597444365,-0.20839145694527816,0.1725506513092829,-0.4875582029150077,-0.11146130482904235,-1.9464652240652784,0.1336107337276141,2.595550359778934,0.9452491365985738,0.1728802376190821,-0.48752024683155326,-0.11147110072896137,-1.9463801863486305,0.1336059019074957,2.595550359778934,0.9452445589611904,0.0006966755680739287,-2.6788721358652447e-06,0.0006565434059326856,-0.0002589410902093483,-0.0003072771169915475,0.00012198557733877083,0.0008612995794073341,0.0,0.0,0.0,0.0,0.0,0.0,0.0,0.0003295863097992069,3.79560834544157e-05,-9.79589991902119e-06,8.50377166479177e-05,-4.831820118400554e-06,0.0,-4.5776373833739115e-06,-0.0006966755680739287,2.6788721358652447e-06,-0.0006565434059326856,0.0002589410902093483,0.0003072771169915475,-0.00012198557733877083,-0.0008612995794073341,0.17287558317184448,12.000879287719727,-1.2671844959259033,-21.768831253051758,-0.3793235421180725,-2.5271639823913574,0.22098104655742645,0
