rezayati/contactInterpretation/dataset/franka_main/labeled_data/link3/e2_4.csv
index,time,tau_J0,tau_J1,tau_J2,tau_J3,tau_J4,tau_J5,tau_J6,tau_J_d0,tau_J_d1,tau_J_d2,tau_J_d3,tau_J_d4,tau_J_d5,tau_J_d6,tau_ext0,tau_ext1,tau_ext2,tau_ext3,tau_ext4,tau_ext5,tau_ext6,q0,q1,q2,q3,q4,q5,q6,q_d0,q_d1,q_d2,q_d3,q_d4,q_d5,q_d6,dq0,dq1,dq2,dq3,dq4,dq5,dq6,dq_d0,dq_d1,dq_d2,dq_d3,dq_d4,dq_d5,dq_d6,e0,e1,e2,e3,e4,e5,e6,de0,de1,de2,de3,de4,de5,de6,etau_J0,etau_J1,etau_J2,etau_J3,etau_J4,etau_J5,etau_J6,label
1,0.0,-0.2998287081718445,-19.768823623657227,-0.4228789508342743,19.955781936645508,0.6832786202430725,2.4630770683288574,-0.20083944499492645,0.0,0.0,0.0,0.0,0.0,0.0,0.0,-0.3313260805035622,-0.04801590982171563,-0.2414506611261513,0.2161216184622807,0.09694786744190224,0.0973454472312235,-0.24209660015186904,1.2134575249479527,-0.22013233336215335,-0.007512633812503997,-2.60389178453412,-0.10888789453440798,2.468184262064624,0.8264693255182094,1.2134413937687574,-0.2202432315892585,-0.0075118285948192216,-2.6038483821997875,-0.10888392708698907,2.4681821257803174,0.826474908251239,-0.000245560516329009,-0.0003648497168812355,-0.0005059123831702976,0.0013583230688529683,-0.00011566641193454901,0.0001974519882873365,-0.0018994788021066305,0.0,0.0,0.0,0.0,0.0,0.0,0.0,-1.613117919530005e-05,-0.00011089822710513841,8.052176847751433e-07,4.340233433230978e-05,3.967447418901093e-06,-2.1362843067862514e-06,5.582733029640963e-06,0.000245560516329009,0.0003648497168812355,0.0005059123831702976,-0.0013583230688529683,0.00011566641193454901,-0.0001974519882873365,0.0018994788021066305,0.2998287081718445,19.768823623657227,0.4228789508342743,-19.955781936645508,-0.6832786202430725,-2.4630770683288574,0.20083944499492645,0
2,0.004988193511962891,-0.2998287081718445,-19.768823623657227,-0.4228789508342743,19.955781936645508,0.6832786202430725,2.4630770683288574,-0.20083944499492645,0.0,0.0,0.0,0.0,0.0,0.0,0.0,-0.3313260805035622,-0.04801590982171563,-0.2414506611261513,0.2161216184622807,0.09694786744190224,0.0973454472312235,-0.24209660015186904,1.2134575249479527,-0.22013233336215335,-0.007512633812503997,-2.60389178453412,-0.10888789453440798,2.468184262064624,0.8264693255182094,1.2134413937687574,-0.2202432315892585,-0.0075118285948192216,-2.6038483821997875,-0.10888392708698907,2.4681821257803174,0.826474908251239,-0.000245560516329009,-0.0003648497168812355,-0.0005059123831702976,0.0013583230688529683,-0.00011566641193454901,0.0001974519882873365,-0.0018994788021066305,0.0,0.0,0.0,0.0,0.0,0.0,0.0,-1.613117919530005e-05,-0.00011089822710513841,8.052176847751433e-07,4.340233433230978e-05,3.967447418901093e-06,-2.1362843067862514e-06,5.582733029640963e-06,0.000245560516329009,0.0003648497168812355,0.0005059123831702976,-0.0013583230688529683,0.00011566641193454901,-0.0001974519882873365,0.0018994788021066305,0.2998287081718445,19.768823623657227,0.4228789508342743,-19.955781936645508,-0.6832786202430725,-2.4630770683288574,0.20083944499492645,0
3,0.009986400604248047,-0.3236324191093445,-19.792627334594727,-0.4228789508342743,20.007356643676758,0.6832786202430725,2.4630770683288574,-0.25485557317733765,0.0,0.0,0.0,0.0,0.0,0.0,0.0,-0.3314174009318169,-0.04643309625822289,-0.24346089875733046,0.21577466152616856,0.09685840116895496,0.09650689168352433,-0.24233335471803613,1.2134591953838079,-0.22013283684293683,-0.00751310726602311,-2.6038954038118063,-0.10888789437214626,2.4681842620107863,0.8264759646110712,1.2134413937687574,-0.2202432315892585,-0.0075118285948192216,-2.6038483821997875,-0.10888392708698907,2.4681821257803174,0.826474908251239,-2.044724715163048e-05,1.8413147456399523e-05,-0.00045855737628106437,-0.000841758893820986,-5.818718687243902e-05,0.00013267761650271367,0.0009511832332726086,0.0,0.0,0.0,0.0,0.0,0.0,0.0,-1.780161505049449e-05,-0.00011039474632165702,1.2786712038888662e-06,4.702161201874944e-05,3.9672851571831425e-06,-2.136230468963163e-06,-1.056359832163345e-06,2.044724715163048e-05,-1.8413147456399523e-05,0.00045855737628106437,0.000841758893820986,5.818718687243902e-05,-0.00013267761650271367,-0.0009511832332726086,0.3236324191093445,19.792627334594727,0.4228789508342743,-20.007356643676758,-0.6832786202430725,-2.4630770683288574,0.25485557317733765,0
4,0.014986276626586914,-0.3236324191093445,-19.792627334594727,-0.4228789508342743,20.007356643676758,0.6832786202430725,2.4630770683288574,-0.25485557317733765,0.0,0.0,0.0,0.0,0.0,0.0,0.0,-0.3314174009318169,-0.04643309625822289,-0.24346089875733046,0.21577466152616856,0.09685840116895496,0.09650689168352433,-0.24233335471803613,1.2134591953838079,-0.22013283684293683,-0.00751310726602311,-2.6038954038118063,-0.10888789437214626,2.4681842620107863,0.8264759646110712,1.2134413937687574,-0.2202432315892585,-0.0075118285948192216,-2.6038483821997875,-0.10888392708698907,2.4681821257803174,0.826474908251239,-2.044724715163048e-05,1.8413147456399523e-05,-0.00045855737628106437,-0.000841758893820986,-5.818718687243902e-05,0.00013267761650271367,0.0009511832332726086,0.0,0.0,0.0,0.0,0.0,0.0,0.0,-1.780161505049449e-05,-0.00011039474632165702,1.2786712038888662e-06,4.702161201874944e-05,3.9672851571831425e-06,-2.136230468963163e-06,-1.056359832163345e-06,2.044724715163048e-05,-1.8413147456399523e-05,0.00045855737628106437,0.000841758893820986,5.818718687243902e-05,-0.00013267761650271367,-0.0009511832332726086,0.3236324191093445,19.792627334594727,0.4228789508342743,-20.007356643676758,-0.6832786202430725,-2.4630770683288574,0.25485557317733765,0
5,0.01998615264892578,-0.3236324191093445,-19.792627334594727,-0.4228789508342743,20.007356643676758,0.6832786202430725,2.4630770683288574,-0.25485557317733765,0.0,0.0,0.0,0.0,0.0,0.0,0.0,-0.3314174009318169,-0.04643309625822289,-0.24346089875733046,0.21577466152616856,0.09685840116895496,0.09650689168352433,-0.24233335471803613,1.2134591953838079,-0.22013283684293683,-0.00751310726602311,-2.6038954038118063,-0.10888789437214626,2.4681842620107863,0.8264759646110712,1.2134413937687574,-0.2202432315892585,-0.0075118285948192216,-2.6038483821997875,-0.10888392708698907,2.4681821257803174,0.826474908251239,-2.044724715163048e-05,1.8413147456399523e-05,-0.00045855737628106437,-0.000841758893820986,-5.818718687243902e-05,0.00013267761650271367,0.0009511832332726086,0.0,0.0,0.0,0.0,0.0,0.0,0.0,-1.780161505049449e-05,-0.00011039474632165702,1.2786712038888662e-06,4.702161201874944e-05,3.9672851571831425e-06,-2.136230468963163e-06,-1.056359832163345e-06,2.044724715163048e-05,-1.8413147456399523e-05,0.00045855737628106437,0.000841758893820986,5.818718687243902e-05,-0.00013267761650271367,-0.0009511832332726086,0.3236324191093445,19.792627334594727,0.4228789508342743,-20.007356643676758,-0.6832786202430725,-2.4630770683288574,0.25485557317733765,0
6,0.024994850158691406,-0.3236324191093445,-19.792627334594727,-0.4228789508342743,20.007356643676758,0.6832786202430725,2.4630770683288574,-0.25485557317733765,0.0,0.0,0.0,0.0,0.0,0.0,0.0,-0.3314174009318169,-0.04643309625822289,-0.24346089875733046,0.21577466152616856,0.09685840116895496,0.09650689168352433,-0.24233335471803613,1.2134591953838079,-0.22013283684293683,-0.00751310726602311,-2.6038954038118063,-0.10888789437214626,2.4681842620107863,0.8264759646110712,1.2134413937687574,-0.2202432315892585,-0.0075118285948192216,-2.6038483821997875,-0.10888392708698907,2.4681821257803174,0.826474908251239,-2.044724715163048e-05,1.8413147456399523e-05,-0.00045855737628106437,-0.000841758893820986,-5.818718687243902e-05,0.00013267761650271367,0.0009511832332726086,0.0,0.0,0.0,0.0,0.0,0.0,0.0,-1.780161505049449e-05,-0.00011039474632165702,1.2786712038888662e-06,4.702161201874944e-05,3.9672851571831425e-06,-2.136230468963163e-06,-1.056359832163345e-06,2.044724715163048e-05,-1.8413147456399523e-05,0.00045855737628106437,0.000841758893820986,5.818718687243902e-05,-0.00013267761650271367,-0.0009511832332726086,0.3236324191093445,19.792627334594727,0.4228789508342743,-20.007356643676758,-0.6832786202430725,-2.4630770683288574,0.25485557317733765,0
7,0.029991865158081055,-0.3236324191093445,-19.792627334594727,-0.4466826617717743,19.983552932739258,0.6777854561805725,2.4630770683288574,-0.25485557317733765,0.0,0.0,0.0,0.0,0.0,0.0,0.0,-0.3326862077897885,-0.04557687496362262,-0.2431057993865258,0.21383919993372139,0.0967660719855688,0.09595928721723763,-0.24139652133624787,1.2134591953838079,-0.22013066297071596,-0.007510963376038315,-2.603893733375951,-0.10888728402058283,2.4681843012566427,0.8264796036584624,1.2134413937687574,-0.2202432315892585,-0.0075118285948192216,-2.6038483821997875,-0.10888392708698907,2.4681821257803174,0.826474908251239,-0.00022718943096208355,-0.00024096952104227045,4.539245740131708e-05,-0.00019361466245606528,8.561109297844399e-06,0.00010625095018487269,0.0001080437564452204,0.0,0.0,0.0,0.0,0.0,0.0,0.0,-1.780161505049449e-05,-0.00011256861854253009,-8.652187809066528e-07,4.535117616333295e-05,3.3569335937538858e-06,-2.175476325305681e-06,-4.6954072233651445e-06,0.00022718943096208355,0.00024096952104227045,-4.539245740131708e-05,0.00019361466245606528,-8.561109297844399e-06,-0.00010625095018487269,-0.0001080437564452204,0.3236324191093445,19.792627334594727,0.4466826617717743,-19.983552932739258,-0.6777854561805725,-2.4630770683288574,0.25485557317733765,0
8,0.035344600677490234,-0.3236324191093445,-19.792627334594727,-0.4466826617717743,19.983552932739258,0.6777854561805725,2.4630770683288574,-0.25485557317733765,0.0,0.0,0.0,0.0,0.0,0.0,0.0,-0.3326862077897885,-0.04557687496362262,-0.2431057993865258,0.21383919993372139,0.0967660719855688,0.09595928721723763,-0.24139652133624787,1.2134591953838079,-0.22013066297071596,-0.007510963376038315,-2.603893733375951,-0.10888728402058283,2.4681843012566427,0.8264796036584624,1.2134413937687574,-0.2202432315892585,-0.0075118285948192216,-2.6038483821997875,-0.10888392708698907,2.4681821257803174,0.826474908251239,-0.00022718943096208355,-0.00024096952104227045,4.539245740131708e-05,-0.00019361466245606528,8.561109297844399e-06,0.00010625095018487269,0.0001080437564452204,0.0,0.0,0.0,0.0,0.0,0.0,0.0,-1.780161505049449e-05,-0.00011256861854253009,-8.652187809066528e-07,4.535117616333295e-05,3.3569335937538858e-06,-2.175476325305681e-06,-4.6954072233651445e-06,0.00022718943096208355,0.00024096952104227045,-4.539245740131708e-05,0.00019361466245606528,-8.561109297844399e-06,-0.00010625095018487269,-0.0001080437564452204,0.3236324191093445,19.792627334594727,0.4466826617717743,-19.983552932739258,-0.6777854561805725,-2.4630770683288574,0.25485557317733765,0
9,0.03998517990112305,-0.3514034152030945,-19.768823623657227,-0.4228789508342743,20.007356643676758,0.6832786202430725,2.4630770683288574,-0.27591270208358765,0.0,0.0,0.0,0.0,0.0,0.0,0.0,-0.3342881834780583,-0.04894976103518439,-0.2412899566421123,0.21497076454570074,0.09666477793315281,0.0962533316108267,-0.24306255771160803,1.2134611442256389,-0.22013241249922946,-0.007512636731793768,-2.6038954038118063,-0.1088879075154192,2.4681842620110075,0.8264783811928583,1.2134413937687574,-0.2202432315892585,-0.0075118285948192216,-2.6038483821997875,-0.10888392708698907,2.4681821257803174,0.826474908251239,2.6577113296525834e-05,-0.00040402728613184066,-0.0003060428702586136,-0.0003357685754843134,-4.629059642928198e-05,0.00020013491266780717,0.0012203521707732168,0.0,0.0,0.0,0.0,0.0,0.0,0.0,-1.9750456881517664e-05,-0.00011081909002902401,8.081369745468678e-07,4.702161201874944e-05,3.98042843012536e-06,-2.1362306901195893e-06,-3.4729416192869067e-06,-2.6577113296525834e-05,0.00040402728613184066,0.0003060428702586136,0.0003357685754843134,4.629059642928198e-05,-0.00020013491266780717,-0.0012203521707732168,0.3514034152030945,19.768823623657227,0.4228789508342743,-20.007356643676758,-0.6832786202430725,-2.4630770683288574,0.27591270208358765,0
10,0.04498434066772461,-0.3514034152030945,-19.768823623657227,-0.4228789508342743,20.007356643676758,0.6832786202430725,2.4630770683288574,-0.27591270208358765,0.0,0.0,0.0,0.0,0.0,0.0,0.0,-0.3342881834780583,-0.04894976103518439,-0.2412899566421123,0.21497076454570074,0.09666477793315281,0.0962533316108267,-0.24306255771160803,1.2134611442256389,-0.22013241249922946,-0.007512636731793768,-2.6038954038118063,-0.1088879075154192,2.4681842620110075,0.8264783811928583,1.2134413937687574,-0.2202432315892585,-0.0075118285948192216,-2.6038483821997875,-0.10888392708698907,2.4681821257803174,0.826474908251239,2.6577113296525834e-05,-0.00040402728613184066,-0.0003060428702586136,-0.0003357685754843134,-4.629059642928198e-05,0.00020013491266780717,0.0012203521707732168,0.0,0.0,0.0,0.0,0.0,0.0,0.0,-1.9750456881517664e-05,-0.00011081909002902401,8.081369745468678e-07,4.702161201874944e-05,3.98042843012536e-06,-2.1362306901195893e-06,-3.4729416192869067e-06,-2.6577113296525834e-05,0.00040402728613184066,0.0003060428702586136,0.0003357685754843134,4.629059642928198e-05,-0.00020013491266780717,-0.0012203521707732168,0.3514034152030945,19.768823623657227,0.4228789508342743,-20.007356643676758,-0.6832786202430725,-2.4630770683288574,0.27591270208358765,0
11,0.04999494552612305,-0.3236324191093445,-19.768823623657227,-0.4704863727092743,19.955781936645508,0.6777854561805725,2.4630770683288574,-0.23471395671367645,0.0,0.0,0.0,0.0,0.0,0.0,0.0,-0.33441698017669913,-0.04673817737157798,-0.2392359123313915,0.20966487329705227,0.09686701202199352,0.0952760281123187,-0.24211370168984891,1.2134591953838079,-0.2201325737478593,-0.007509766394329064,-2.60389178453412,-0.1088874023101218,2.4681874409251745,0.8264770262167764,1.2134413937687574,-0.2202432315892585,-0.0075118285948192216,-2.6038483821997875,-0.10888392708698907,2.4681821257803174,0.826474908251239,-0.0005295940171973431,-0.00018137335305579158,0.0011101140247599145,0.00022249286029545502,6.740456157275876e-05,0.00018472348077178325,-0.0005983312631603491,0.0,0.0,0.0,0.0,0.0,0.0,0.0,-1.780161505049449e-05,-0.00011065784139918655,-2.062200490157186e-06,4.340233433230978e-05,3.475223132723415e-06,-5.315144857132026e-06,-2.1179655373959605e-06,0.0005295940171973431,0.00018137335305579158,-0.0011101140247599145,-0.00022249286029545502,-6.740456157275876e-05,-0.00018472348077178325,0.0005983312631603491,0.3236324191093445,19.768823623657227,0.4704863727092743,-19.955781936645508,-0.6777854561805725,-2.4630770683288574,0.23471395671367645,0
12,0.05513453483581543,-0.3236324191093445,-19.768823623657227,-0.4704863727092743,19.955781936645508,0.6777854561805725,2.4630770683288574,-0.23471395671367645,0.0,0.0,0.0,0.0,0.0,0.0,0.0,-0.33441698017669913,-0.04673817737157798,-0.2392359123313915,0.20966487329705227,0.09686701202199352,0.0952760281123187,-0.24211370168984891,1.2134591953838079,-0.2201325737478593,-0.007509766394329064,-2.60389178453412,-0.1088874023101218,2.4681874409251745,0.8264770262167764,1.2134413937687574,-0.2202432315892585,-0.0075118285948192216,-2.6038483821997875,-0.10888392708698907,2.4681821257803174,0.826474908251239,-0.0005295940171973431,-0.00018137335305579158,0.0011101140247599145,0.00022249286029545502,6.740456157275876e-05,0.00018472348077178325,-0.0005983312631603491,0.0,0.0,0.0,0.0,0.0,0.0,0.0,-1.780161505049449e-05,-0.00011065784139918655,-2.062200490157186e-06,4.340233433230978e-05,3.475223132723415e-06,-5.315144857132026e-06,-2.1179655373959605e-06,0.0005295940171973431,0.00018137335305579158,-0.0011101140247599145,-0.00022249286029545502,-6.740456157275876e-05,-0.00018472348077178325,0.0005983312631603491,0.3236324191093445,19.768823623657227,0.4704863727092743,-19.955781936645508,-0.6777854561805725,-2.4630770683288574,0.23471395671367645,0
13,0.05998706817626953,-0.3236324191093445,-19.768823623657227,-0.4704863727092743,19.955781936645508,0.6832786202430725,2.4694857597351074,-0.26217979192733765,0.0,0.0,0.0,0.0,0.0,0.0,0.0,-0.33605757275421005,-0.05118874284767729,-0.24188243279558638,0.21610792746608828,0.0970057857298606,0.09629355744823156,-0.24287429688686574,1.2134591953838079,-0.22013257458069155,-0.007509056211781957,-2.603891784639098,-0.10888789437281308,2.468184609590038,0.8264788829607936,1.2134413937687574,-0.2202432315892585,-0.0075118285948192216,-2.6038483821997875,-0.10888392708698907,2.4681821257803174,0.826474908251239,-0.0005506336081980703,-0.0004292321380712827,0.0007588332565851369,0.0008575201624932892,-6.570533318893251e-05,-1.2126284267234113e-05,0.0008311152307681823,0.0,0.0,0.0,0.0,0.0,0.0,0.0,-1.780161505049449e-05,-0.00011065700856693894,-2.7723830372649444e-06,4.3402439310558094e-05,3.967285824010847e-06,-2.4838097205659437e-06,-3.974709554599443e-06,0.0005506336081980703,0.0004292321380712827,-0.0007588332565851369,-0.0008575201624932892,6.570533318893251e-05,1.2126284267234113e-05,-0.0008311152307681823,0.3236324191093445,19.768823623657227,0.4704863727092743,-19.955781936645508,-0.6832786202430725,-2.4694857597351074,0.26217979192733765,0
14,0.06493902206420898,-0.3236324191093445,-19.768823623657227,-0.4704863727092743,19.955781936645508,0.6832786202430725,2.4694857597351074,-0.26217979192733765,0.0,0.0,0.0,0.0,0.0,0.0,0.0,-0.33605757275421005,-0.05118874284767729,-0.24188243279558638,0.21610792746608828,0.0970057857298606,0.09629355744823156,-0.24287429688686574,1.2134591953838079,-0.22013257458069155,-0.007509056211781957,-2.603891784639098,-0.10888789437281308,2.468184609590038,0.8264788829607936,1.2134413937687574,-0.2202432315892585,-0.0075118285948192216,-2.6038483821997875,-0.10888392708698907,2.4681821257803174,0.826474908251239,-0.0005506336081980703,-0.0004292321380712827,0.0007588332565851369,0.0008575201624932892,-6.570533318893251e-05,-1.2126284267234113e-05,0.0008311152307681823,0.0,0.0,0.0,0.0,0.0,0.0,0.0,-1.780161505049449e-05,-0.00011065700856693894,-2.7723830372649444e-06,4.3402439310558094e-05,3.967285824010847e-06,-2.4838097205659437e-06,-3.974709554599443e-06,0.0005506336081980703,0.0004292321380712827,-0.0007588332565851369,-0.0008575201624932892,6.570533318893251e-05,1.2126284267234113e-05,-0.0008311152307681823,0.3236324191093445,19.768823623657227,0.4704863727092743,-19.955781936645508,-0.6832786202430725,-2.4694857597351074,0.26217979192733765,0
15,0.06998491287231445,-0.3236324191093445,-19.745019912719727,-0.4228789508342743,20.007356643676758,0.6832786202430725,2.4694857597351074,-0.22098104655742645,0.0,0.0,0.0,0.0,0.0,0.0,0.0,-0.3326975527699256,-0.04711887506816138,-0.23995516964553,0.21489777730620557,0.09675967612224214,0.09636999557811234,-0.24326959384870103,1.2134591953838079,-0.22013424121864678,-0.007512397079483481,-2.6038954038118067,-0.10888824924053969,2.468184610062591,0.8264746251505626,1.2134413937687574,-0.2202432315892585,-0.0075118285948192216,-2.6038483821997875,-0.10888392708698907,2.4681821257803174,0.826474908251239,0.0001782196945880353,-0.0006082531037319079,-0.0006244004463178541,-0.0003522385439917065,-0.00020520243180202565,-9.924977999070053e-05,-0.0014516829490146114,0.0,0.0,0.0,0.0,0.0,0.0,0.0,-1.780161505049449e-05,-0.00010899037061171124,5.684846642595165e-07,4.7021612019193526e-05,4.322153550617713e-06,-2.484282273673699e-06,2.831006764569821e-07,-0.0001782196945880353,0.0006082531037319079,0.0006244004463178541,0.0003522385439917065,0.00020520243180202565,9.924977999070053e-05,0.0014516829490146114,0.3236324191093445,19.745019912719727,0.4228789508342743,-20.007356643676758,-0.6832786202430725,-2.4694857597351074,0.22098104655742645,0
16,0.07498431205749512,-0.3236324191093445,-19.745019912719727,-0.4228789508342743,20.007356643676758,0.6832786202430725,2.4694857597351074,-0.22098104655742645,0.0,0.0,0.0,0.0,0.0,0.0,0.0,-0.3326975527699256,-0.04711887506816138,-0.23995516964553,0.21489777730620557,0.09675967612224214,0.09636999557811234,-0.24326959384870103,1.2134591953838079,-0.22013424121864678,-0.007512397079483481,-2.6038954038118067,-0.10888824924053969,2.468184610062591,0.8264746251505626,1.2134413937687574,-0.2202432315892585,-0.0075118285948192216,-2.6038483821997875,-0.10888392708698907,2.4681821257803174,0.826474908251239,0.0001782196945880353,-0.0006082531037319079,-0.0006244004463178541,-0.0003522385439917065,-0.00020520243180202565,-9.924977999070053e-05,-0.0014516829490146114,0.0,0.0,0.0,0.0,0.0,0.0,0.0,-1.780161505049449e-05,-0.00010899037061171124,5.684846642595165e-07,4.7021612019193526e-05,4.322153550617713e-06,-2.484282273673699e-06,2.831006764569821e-07,-0.0001782196945880353,0.0006082531037319079,0.0006244004463178541,0.0003522385439917065,0.00020520243180202565,9.924977999070053e-05,0.0014516829490146114,0.3236324191093445,19.745019912719727,0.4228789508342743,-20.007356643676758,-0.6832786202430725,-2.4694857597351074,0.22098104655742645,0
17,0.07998490333557129,-0.3752071261405945,-19.768823623657227,-0.4466826617717743,19.955781936645508,0.6832786202430725,2.4758944511413574,-0.26217979192733765,0.0,0.0,0.0,0.0,0.0,0.0,0.0,-0.3341556402053039,-0.047986864311209354,-0.2445565568913197,0.21528028586526618,0.09663112525812217,0.09622846416080383,-0.24428365653954778,1.2134628146614943,-0.22013268497310542,-0.007511436828831482,-2.60389178453412,-0.10888789437414857,2.4681828378631248,0.8264760194618687,1.2134413937687574,-0.2202432315892585,-0.0075118285948192216,-2.6038483821997875,-0.10888392708698907,2.4681821257803174,0.826474908251239,0.0010291341771063117,-0.0006196487017297754,-0.00016902222986852437,0.0009094495815913424,-7.543201980627513e-05,-0.00030417209913232443,0.000613136215809273,0.0,0.0,0.0,0.0,0.0,0.0,0.0,-2.142089273693415e-05,-0.00011054661615306216,-3.9176598773914273e-07,4.340233433230978e-05,3.967287159498123e-06,-7.120828073858831e-07,-1.1112106296229385e-06,-0.0010291341771063117,0.0006196487017297754,0.00016902222986852437,-0.0009094495815913424,7.543201980627513e-05,0.00030417209913232443,-0.000613136215809273,0.3752071261405945,19.768823623657227,0.4466826617717743,-19.955781936645508,-0.6832786202430725,-2.4758944511413574,0.26217979192733765,0
18,0.08500361442565918,-0.3752071261405945,-19.768823623657227,-0.4466826617717743,19.955781936645508,0.6832786202430725,2.4758944511413574,-0.26217979192733765,0.0,0.0,0.0,0.0,0.0,0.0,0.0,-0.3341556402053039,-0.047986864311209354,-0.2445565568913197,0.21528028586526618,0.09663112525812217,0.09622846416080383,-0.24428365653954778,1.2134628146614943,-0.22013268497310542,-0.007511436828831482,-2.60389178453412,-0.10888789437414857,2.4681828378631248,0.8264760194618687,1.2134413937687574,-0.2202432315892585,-0.0075118285948192216,-2.6038483821997875,-0.10888392708698907,2.4681821257803174,0.826474908251239,0.0010291341771063117,-0.0006196487017297754,-0.00016902222986852437,0.0009094495815913424,-7.543201980627513e-05,-0.00030417209913232443,0.000613136215809273,0.0,0.0,0.0,0.0,0.0,0.0,0.0,-2.142089273693415e-05,-0.00011054661615306216,-3.9176598773914273e-07,4.340233433230978e-05,3.967287159498123e-06,-7.120828073858831e-07,-1.1112106296229385e-06,-0.0010291341771063117,0.0006196487017297754,0.00016902222986852437,-0.0009094495815913424,7.543201980627513e-05,0.00030417209913232443,-0.000613136215809273,0.3752071261405945,19.768823623657227,0.4466826617717743,-19.955781936645508,-0.6832786202430725,-2.4758944511413574,0.26217979192733765,0
19,0.08998727798461914,-0.3236324191093445,-19.792627334594727,-0.4228789508342743,19.983552932739258,0.6832786202430725,2.4758944511413574,-0.22830526530742645,0.0,0.0,0.0,0.0,0.0,0.0,0.0,-0.329754164122168,-0.045566447065912494,-0.242706047995042,0.2154586228340314,0.0965245122502076,0.09621799313517193,-0.24459224957192752,1.2134591953838079,-0.22013066715620944,-0.007512397083492475,-2.603893733375951,-0.10888789437214534,2.4681831910698504,0.8264755568355568,1.2134413937687574,-0.2202432315892585,-0.0075118285948192216,-2.6038483821997875,-0.10888392708698907,2.4681821257803174,0.826474908251239,-9.361061711361606e-05,1.6623901019138593e-06,-0.0004275051637281003,0.00015762942264340547,-1.79132788288159e-05,-0.0004177179208387672,-0.0007167801018836594,0.0,0.0,0.0,0.0,0.0,0.0,0.0,-1.780161505049449e-05,-0.0001125644330490505,5.684886732531744e-07,4.535117616333295e-05,3.9672851562672085e-06,-1.0652895330309775e-06,-6.485843178083428e-07,9.361061711361606e-05,-1.6623901019138593e-06,0.0004275051637281003,-0.00015762942264340547,1.79132788288159e-05,0.0004177179208387672,0.0007167801018836594,0.3236324191093445,19.792627334594727,0.4228789508342743,-19.983552932739258,-0.6832786202430725,-2.4758944511413574,0.22830526530742645,0
20,0.09498119354248047,-0.3236324191093445,-19.792627334594727,-0.4228789508342743,19.983552932739258,0.6832786202430725,2.4758944511413574,-0.22830526530742645,0.0,0.0,0.0,0.0,0.0,0.0,0.0,-0.329754164122168,-0.045566447065912494,-0.242706047995042,0.2154586228340314,0.0965245122502076,0.09621799313517193,-0.24459224957192752,1.2134591953838079,-0.22013066715620944,-0.007512397083492475,-2.603893733375951,-0.10888789437214534,2.4681831910698504,0.8264755568355568,1.2134413937687574,-0.2202432315892585,-0.0075118285948192216,-2.6038483821997875,-0.10888392708698907,2.4681821257803174,0.826474908251239,-9.361061711361606e-05,1.6623901019138593e-06,-0.0004275051637281003,0.00015762942264340547,-1.79132788288159e-05,-0.0004177179208387672,-0.0007167801018836594,0.0,0.0,0.0,0.0,0.0,0.0,0.0,-1.780161505049449e-05,-0.0001125644330490505,5.684886732531744e-07,4.535117616333295e-05,3.9672851562672085e-06,-1.0652895330309775e-06,-6.485843178083428e-07,9.361061711361606e-05,-1.6623901019138593e-06,0.0004275051637281003,-0.00015762942264340547,1.79132788288159e-05,0.0004177179208387672,0.0007167801018836594,0.3236324191093445,19.792627334594727,0.4228789508342743,-19.983552932739258,-0.6832786202430725,-2.4758944511413574,0.22830526530742645,0
21,0.10001087188720703,-0.3236324191093445,-19.768823623657227,-0.4466826617717743,20.007356643676758,0.6777854561805725,2.4630770683288574,-0.27591270208358765,0.0,0.0,0.0,0.0,0.0,0.0,0.0,-0.33167345350117106,-0.04351169281617176,-0.24272946123519967,0.2129816648561283,0.09711329444585114,0.09592064848468639,-0.24395779497107575,1.2134591953838079,-0.22013458359861565,-0.007511515738298538,-2.6038954038118063,-0.10888728402058283,2.46818426201278,0.8264775497020911,1.2134413937687574,-0.2202432315892585,-0.0075118285948192216,-2.6038483821997875,-0.10888392708698907,2.4681821257803174,0.826474908251239,0.00024091897034468051,-0.0006295991322517024,4.711875324782663e-05,-0.0006996484265015875,0.00011273942898153464,0.00019922250706950136,0.0015013984093682389,0.0,0.0,0.0,0.0,0.0,0.0,0.0,-1.780161505049449e-05,-0.00010864799064283504,-3.128565206839476e-07,4.702161201874944e-05,3.3569335937538858e-06,-2.136232462479626e-06,-2.641450852047811e-06,-0.00024091897034468051,0.0006295991322517024,-4.711875324782663e-05,0.0006996484265015875,-0.00011273942898153464,-0.00019922250706950136,-0.0015013984093682389,0.3236324191093445,19.768823623657227,0.4466826617717743,-20.007356643676758,-0.6777854561805725,-2.4630770683288574,0.27591270208358765,0
22,0.10498356819152832,-0.3236324191093445,-19.768823623657227,-0.4466826617717743,20.007356643676758,0.6777854561805725,2.4630770683288574,-0.27591270208358765,0.0,0.0,0.0,0.0,0.0,0.0,0.0,-0.33167345350117106,-0.04351169281617176,-0.24272946123519967,0.2129816648561283,0.09711329444585114,0.09592064848468639,-0.24395779497107575,1.2134591953838079,-0.22013458359861565,-0.007511515738298538,-2.6038954038118063,-0.10888728402058283,2.46818426201278,0.8264775497020911,1.2134413937687574,-0.2202432315892585,-0.0075118285948192216,-2.6038483821997875,-0.10888392708698907,2.4681821257803174,0.826474908251239,0.00024091897034468051,-0.0006295991322517024,4.711875324782663e-05,-0.0006996484265015875,0.00011273942898153464,0.00019922250706950136,0.0015013984093682389,0.0,0.0,0.0,0.0,0.0,0.0,0.0,-1.780161505049449e-05,-0.00010864799064283504,-3.128565206839476e-07,4.702161201874944e-05,3.3569335937538858e-06,-2.136232462479626e-06,-2.641450852047811e-06,-0.00024091897034468051,0.0006295991322517024,-4.711875324782663e-05,0.0006996484265015875,-0.00011273942898153464,-0.00019922250706950136,-0.0015013984093682389,0.3236324191093445,19.768823623657227,0.4466826617717743,-20.007356643676758,-0.6777854561805725,-2.4630770683288574,0.27591270208358765,0
23,0.10998296737670898,-0.3752071261405945,-19.745019912719727,-0.4466826617717743,20.031160354614258,0.6832786202430725,2.4694857597351074,-0.21457235515117645,0.0,0.0,0.0,0.0,0.0,0.0,0.0,-0.3339687082167257,-0.045909174429984406,-0.2444358231639874,0.2166223633044792,0.09711684754721354,0.0965010381489523,-0.24299272886176668,1.2134628146614943,-0.22013403028350828,-0.007510726648082658,-2.6038970742476613,-0.10888789437214534,2.4681835499339635,0.8264736756443929,1.2134413937687574,-0.2202432315892585,-0.0075118285948192216,-2.6038483821997875,-0.10888392708698907,2.4681821257803174,0.826474908251239,0.0010233305772313814,-0.0009495469429111292,-0.00023284875638292989,-0.0007972002579175337,-8.902948915347603e-05,4.2689086094159604e-05,-0.0013232663439256159,0.0,0.0,0.0,0.0,0.0,0.0,0.0,-2.142089273693415e-05,-0.00010920130575020615,-1.1019467365631572e-06,4.869204787372183e-05,3.9672851562672085e-06,-1.4241536461234716e-06,1.2326068461465667e-06,-0.0010233305772313814,0.0009495469429111292,0.00023284875638292989,0.0007972002579175337,8.902948915347603e-05,-4.2689086094159604e-05,0.0013232663439256159,0.3752071261405945,19.745019912719727,0.4466826617717743,-20.031160354614258,-0.6832786202430725,-2.4694857597351074,0.21457235515117645,0
24,0.11576223373413086,-0.3752071261405945,-19.745019912719727,-0.4466826617717743,20.031160354614258,0.6832786202430725,2.4694857597351074,-0.21457235515117645,0.0,0.0,0.0,0.0,0.0,0.0,0.0,-0.3339687082167257,-0.045909174429984406,-0.2444358231639874,0.2166223633044792,0.09711684754721354,0.0965010381489523,-0.24299272886176668,1.2134628146614943,-0.22013403028350828,-0.007510726648082658,-2.6038970742476613,-0.10888789437214534,2.4681835499339635,0.8264736756443929,1.2134413937687574,-0.2202432315892585,-0.0075118285948192216,-2.6038483821997875,-0.10888392708698907,2.4681821257803174,0.826474908251239,0.0010233305772313814,-0.0009495469429111292,-0.00023284875638292989,-0.0007972002579175337,-8.902948915347603e-05,4.2689086094159604e-05,-0.0013232663439256159,0.0,0.0,0.0,0.0,0.0,0.0,0.0,-2.142089273693415e-05,-0.00010920130575020615,-1.1019467365631572e-06,4.869204787372183e-05,3.9672851562672085e-06,-1.4241536461234716e-06,1.2326068461465667e-06,-0.0010233305772313814,0.0009495469429111292,0.00023284875638292989,0.0007972002579175337,8.902948915347603e-05,-4.2689086094159604e-05,0.0013232663439256159,0.3752071261405945,19.745019912719727,0.4466826617717743,-20.031160354614258,-0.6832786202430725,-2.4694857597351074,0.21457235515117645,0
25,0.12000775337219238,-0.3236324191093445,-19.816431045532227,-0.4704863727092743,20.031160354614258,0.6832786202430725,2.4566683769226074,-0.21457235515117645,0.0,0.0,0.0,0.0,0.0,0.0,0.0,-0.3303293179315841,-0.048376544540807274,-0.2423456079165102,0.21719823778876685,0.09649135352960711,0.09678086255735395,-0.24293902888762914,1.2134591953838079,-0.22012899248686696,-0.007511186871626309,-2.6038970742476613,-0.10888789437214534,2.468184974087609,0.8264739112810775,1.2134413937687574,-0.2202432315892585,-0.0075118285948192216,-2.6038483821997875,-0.10888392708698907,2.4681821257803174,0.826474908251239,9.172179499395574e-05,0.00017860005030442692,0.0006675423813682069,-0.0011446624186747388,-6.062652590464122e-05,0.0003659134612901644,-0.0014758899245557557,0.0,0.0,0.0,0.0,0.0,0.0,0.0,-1.780161505049449e-05,-0.0001142391023915279,-6.417231929126826e-07,4.869204787372183e-05,3.9672851562672085e-06,-2.848307291802854e-06,9.96970161537547e-07,-9.172179499395574e-05,-0.00017860005030442692,-0.0006675423813682069,0.0011446624186747388,6.062652590464122e-05,-0.0003659134612901644,0.0014758899245557557,0.3236324191093445,19.816431045532227,0.4704863727092743,-20.031160354614258,-0.6832786202430725,-2.4566683769226074,0.21457235515117645,0
26,0.12498021125793457,-0.3236324191093445,-19.816431045532227,-0.4704863727092743,20.031160354614258,0.6832786202430725,2.4566683769226074,-0.21457235515117645,0.0,0.0,0.0,0.0,0.0,0.0,0.0,-0.3303293179315841,-0.048376544540807274,-0.2423456079165102,0.21719823778876685,0.09649135352960711,0.09678086255735395,-0.24293902888762914,1.2134591953838079,-0.22012899248686696,-0.007511186871626309,-2.6038970742476613,-0.10888789437214534,2.468184974087609,0.8264739112810775,1.2134413937687574,-0.2202432315892585,-0.0075118285948192216,-2.6038483821997875,-0.10888392708698907,2.4681821257803174,0.826474908251239,9.172179499395574e-05,0.00017860005030442692,0.0006675423813682069,-0.0011446624186747388,-6.062652590464122e-05,0.0003659134612901644,-0.0014758899245557557,0.0,0.0,0.0,0.0,0.0,0.0,0.0,-1.780161505049449e-05,-0.0001142391023915279,-6.417231929126826e-07,4.869204787372183e-05,3.9672851562672085e-06,-2.848307291802854e-06,9.96970161537547e-07,-9.172179499395574e-05,-0.00017860005030442692,-0.0006675423813682069,0.0011446624186747388,6.062652590464122e-05,-0.0003659134612901644,0.0014758899245557557,0.3236324191093445,19.816431045532227,0.4704863727092743,-20.031160354614258,-0.6832786202430725,-2.4566683769226074,0.21457235515117645,0
27,0.13004279136657715,-0.3514034152030945,-19.768823623657227,-0.4466826617717743,20.007356643676758,0.6777854561805725,2.4630770683288574,-0.21457235515117645,0.0,0.0,0.0,0.0,0.0,0.0,0.0,-0.3333334399953924,-0.04432166880270723,-0.24660169489338743,0.21828797889642323,0.09701643706911606,0.09650302914816541,-0.24321530534557903,1.2134611442256389,-0.22013257099845296,-0.0075107266837185615,-2.6038954038118063,-0.10888740232807678,2.4681842634643365,0.8264737120954448,1.2134413937687574,-0.2202432315892585,-0.0075118285948192216,-2.6038483821997875,-0.10888392708698907,2.4681821257803174,0.826474908251239,0.000488419911712533,-0.00037800066351043754,-0.00016999836801645765,0.00013926210728607303,0.00020786545728362996,0.0002334404321339425,-0.0009029840299209864,0.0,0.0,0.0,0.0,0.0,0.0,0.0,-1.9750456881517664e-05,-0.00011066059080552804,-1.1019111006600746e-06,4.702161201874944e-05,3.4752410877081363e-06,-2.13768401913228e-06,1.1961557941919665e-06,-0.000488419911712533,0.00037800066351043754,0.00016999836801645765,-0.00013926210728607303,-0.00020786545728362996,-0.0002334404321339425,0.0009029840299209864,0.3514034152030945,19.768823623657227,0.4466826617717743,-20.007356643676758,-0.6777854561805725,-2.4630770683288574,0.21457235515117645,0
28,0.13501381874084473,-0.3514034152030945,-19.768823623657227,-0.4466826617717743,20.007356643676758,0.6777854561805725,2.4630770683288574,-0.21457235515117645,0.0,0.0,0.0,0.0,0.0,0.0,0.0,-0.3333334399953924,-0.04432166880270723,-0.24660169489338743,0.21828797889642323,0.09701643706911606,0.09650302914816541,-0.24321530534557903,1.2134611442256389,-0.22013257099845296,-0.0075107266837185615,-2.6038954038118063,-0.10888740232807678,2.4681842634643365,0.8264737120954448,1.2134413937687574,-0.2202432315892585,-0.0075118285948192216,-2.6038483821997875,-0.10888392708698907,2.4681821257803174,0.826474908251239,0.000488419911712533,-0.00037800066351043754,-0.00016999836801645765,0.00013926210728607303,0.00020786545728362996,0.0002334404321339425,-0.0009029840299209864,0.0,0.0,0.0,0.0,0.0,0.0,0.0,-1.9750456881517664e-05,-0.00011066059080552804,-1.1019111006600746e-06,4.702161201874944e-05,3.4752410877081363e-06,-2.13768401913228e-06,1.1961557941919665e-06,-0.000488419911712533,0.00037800066351043754,0.00016999836801645765,-0.00013926210728607303,-0.00020786545728362996,-0.0002334404321339425,0.0009029840299209864,0.3514034152030945,19.768823623657227,0.4466826617717743,-20.007356643676758,-0.6777854561805725,-2.4630770683288574,0.21457235515117645,0
29,0.14002490043640137,-0.3514034152030945,-19.768823623657227,-0.4466826617717743,20.007356643676758,0.6777854561805725,2.4630770683288574,-0.21457235515117645,0.0,0.0,0.0,0.0,0.0,0.0,0.0,-0.3333334399953924,-0.04432166880270723,-0.24660169489338743,0.21828797889642323,0.09701643706911606,0.09650302914816541,-0.24321530534557903,1.2134611442256389,-0.22013257099845296,-0.0075107266837185615,-2.6038954038118063,-0.10888740232807678,2.4681842634643365,0.8264737120954448,1.2134413937687574,-0.2202432315892585,-0.0075118285948192216,-2.6038483821997875,-0.10888392708698907,2.4681821257803174,0.826474908251239,0.000488419911712533,-0.00037800066351043754,-0.00016999836801645765,0.00013926210728607303,0.00020786545728362996,0.0002334404321339425,-0.0009029840299209864,0.0,0.0,0.0,0.0,0.0,0.0,0.0,-1.9750456881517664e-05,-0.00011066059080552804,-1.1019111006600746e-06,4.702161201874944e-05,3.4752410877081363e-06,-2.13768401913228e-06,1.1961557941919665e-06,-0.000488419911712533,0.00037800066351043754,0.00016999836801645765,-0.00013926210728607303,-0.00020786545728362996,-0.0002334404321339425,0.0009029840299209864,0.3514034152030945,19.768823623657227,0.4466826617717743,-20.007356643676758,-0.6777854561805725,-2.4630770683288574,0.21457235515117645,0
30,0.14502620697021484,-0.3514034152030945,-19.768823623657227,-0.4466826617717743,20.007356643676758,0.6777854561805725,2.4630770683288574,-0.21457235515117645,0.0,0.0,0.0,0.0,0.0,0.0,0.0,-0.3333334399953924,-0.04432166880270723,-0.24660169489338743,0.21828797889642323,0.09701643706911606,0.09650302914816541,-0.24321530534557903,1.2134611442256389,-0.22013257099845296,-0.0075107266837185615,-2.6038954038118063,-0.10888740232807678,2.4681842634643365,0.8264737120954448,1.2134413937687574,-0.2202432315892585,-0.0075118285948192216,-2.6038483821997875,-0.10888392708698907,2.4681821257803174,0.826474908251239,0.000488419911712533,-0.00037800066351043754,-0.00016999836801645765,0.00013926210728607303,0.00020786545728362996,0.0002334404321339425,-0.0009029840299209864,0.0,0.0,0.0,0.0,0.0,0.0,0.0,-1.9750456881517664e-05,-0.00011066059080552804,-1.1019111006600746e-06,4.702161201874944e-05,3.4752410877081363e-06,-2.13768401913228e-06,1.1961557941919665e-06,-0.000488419911712533,0.00037800066351043754,0.00016999836801645765,-0.00013926210728607303,-0.00020786545728362996,-0.0002334404321339425,0.0009029840299209864,0.3514034152030945,19.768823623657227,0.4466826617717743,-20.007356643676758,-0.6777854561805725,-2.4630770683288574,0.21457235515117645,0
31,0.15002155303955078,-0.2998287081718445,-19.792627334594727,-0.4466826617717743,19.983552932739258,0.6658836007118225,2.4694857597351074,-0.27591270208358765,0.0,0.0,0.0,0.0,0.0,0.0,0.0,-0.3332926684447447,-0.04673255253213407,-0.24517957982926109,0.21686183903659711,0.09686087048256004,0.09603914382825031,-0.24252747029295854,1.2134575249479527,-0.22013090327672824,-0.00751075392097505,-2.6038937588857576,-0.10888276777731605,2.4681870820610694,0.8264814812845305,1.2134413937687574,-0.2202432315892585,-0.0075118285948192216,-2.6038483821997875,-0.10888392708698907,2.4681821257803174,0.826474908251239,-0.0009598624693904551,-0.00015419792975972327,0.00024383757433909143,0.00045259289747801354,0.000626445204447708,8.354692512056787e-05,0.0013494719008444,0.0,0.0,0.0,0.0,0.0,0.0,0.0,-1.613117919530005e-05,-0.00011232831253024655,-1.0746738441716475e-06,4.5376685970044406e-05,-1.1593096730239116e-06,-4.9562807520331376e-06,-6.573033291434882e-06,0.0009598624693904551,0.00015419792975972327,-0.00024383757433909143,-0.00045259289747801354,-0.000626445204447708,-8.354692512056787e-05,-0.0013494719008444,0.2998287081718445,19.792627334594727,0.4466826617717743,-19.983552932739258,-0.6658836007118225,-2.4694857597351074,0.27591270208358765,0
32,0.15500402450561523,-0.2998287081718445,-19.792627334594727,-0.4466826617717743,19.983552932739258,0.6658836007118225,2.4694857597351074,-0.27591270208358765,0.0,0.0,0.0,0.0,0.0,0.0,0.0,-0.3332926684447447,-0.04673255253213407,-0.24517957982926109,0.21686183903659711,0.09686087048256004,0.09603914382825031,-0.24252747029295854,1.2134575249479527,-0.22013090327672824,-0.00751075392097505,-2.6038937588857576,-0.10888276777731605,2.4681870820610694,0.8264814812845305,1.2134413937687574,-0.2202432315892585,-0.0075118285948192216,-2.6038483821997875,-0.10888392708698907,2.4681821257803174,0.826474908251239,-0.0009598624693904551,-0.00015419792975972327,0.00024383757433909143,0.00045259289747801354,0.000626445204447708,8.354692512056787e-05,0.0013494719008444,0.0,0.0,0.0,0.0,0.0,0.0,0.0,-1.613117919530005e-05,-0.00011232831253024655,-1.0746738441716475e-06,4.5376685970044406e-05,-1.1593096730239116e-06,-4.9562807520331376e-06,-6.573033291434882e-06,0.0009598624693904551,0.00015419792975972327,-0.00024383757433909143,-0.00045259289747801354,-0.000626445204447708,-8.354692512056787e-05,-0.0013494719008444,0.2998287081718445,19.792627334594727,0.4466826617717743,-19.983552932739258,-0.6658836007118225,-2.4694857597351074,0.27591270208358765,0
33,0.16002559661865234,-0.3236324191093445,-19.768823623657227,-0.4466826617717743,20.031160354614258,0.6713767647743225,2.4758944511413574,-0.23471395671367645,0.0,0.0,0.0,0.0,0.0,0.0,0.0,-0.3339761259276898,-0.04644726413533416,-0.24565148707829448,0.21719515051899893,0.09672824490194319,0.0962643249780911,-0.24410613214000665,1.2134591953838079,-0.2201325736402578,-0.007510753271668172,-2.6038970773971637,-0.1088869267941251,2.468183191089789,0.8264761897430275,1.2134413937687574,-0.2202432315892585,-0.0075118285948192216,-2.6038483821997875,-0.10888392708698907,2.4681821257803174,0.826474908251239,-0.00028821110170568903,-0.00041255750358245745,5.297536885406583e-05,-0.0007481124752820763,0.0004745174759451811,-5.4433542034528256e-05,-0.000197227873761788,0.0,0.0,0.0,0.0,0.0,0.0,0.0,-1.780161505049449e-05,-0.00011065794900069759,-1.075323151049877e-06,4.869519737615846e-05,2.9997071360199357e-06,-1.0653094717483214e-06,-1.2814917884629295e-06,0.00028821110170568903,0.00041255750358245745,-5.297536885406583e-05,0.0007481124752820763,-0.0004745174759451811,5.4433542034528256e-05,0.000197227873761788,0.3236324191093445,19.768823623657227,0.4466826617717743,-20.031160354614258,-0.6713767647743225,-2.4758944511413574,0.23471395671367645,0
34,0.1650223731994629,-0.3236324191093445,-19.768823623657227,-0.4466826617717743,20.031160354614258,0.6713767647743225,2.4758944511413574,-0.23471395671367645,0.0,0.0,0.0,0.0,0.0,0.0,0.0,-0.3339761259276898,-0.04644726413533416,-0.24565148707829448,0.21719515051899893,0.09672824490194319,0.0962643249780911,-0.24410613214000665,1.2134591953838079,-0.2201325736402578,-0.007510753271668172,-2.6038970773971637,-0.1088869267941251,2.468183191089789,0.8264761897430275,1.2134413937687574,-0.2202432315892585,-0.0075118285948192216,-2.6038483821997875,-0.10888392708698907,2.4681821257803174,0.826474908251239,-0.00028821110170568903,-0.00041255750358245745,5.297536885406583e-05,-0.0007481124752820763,0.0004745174759451811,-5.4433542034528256e-05,-0.000197227873761788,0.0,0.0,0.0,0.0,0.0,0.0,0.0,-1.780161505049449e-05,-0.00011065794900069759,-1.075323151049877e-06,4.869519737615846e-05,2.9997071360199357e-06,-1.0653094717483214e-06,-1.2814917884629295e-06,0.00028821110170568903,0.00041255750358245745,-5.297536885406583e-05,0.0007481124752820763,-0.0004745174759451811,5.4433542034528256e-05,0.000197227873761788,0.3236324191093445,19.768823623657227,0.4466826617717743,-20.031160354614258,-0.6713767647743225,-2.4758944511413574,0.23471395671367645,0
35,0.1700136661529541,-0.3514034152030945,-19.792627334594727,-0.3990752398967743,19.983552932739258,0.6713767647743225,2.4758944511413574,-0.28232139348983765,0.0,0.0,0.0,0.0,0.0,0.0,0.0,-0.33466615458238125,-0.049553478750368654,-0.24500960140039915,0.218775205769194,0.09617951218384517,0.09687770005525427,-0.24427365654618718,1.2134611442256389,-0.22013354683545322,-0.007514067515489039,-2.60389396296423,-0.10888657194576305,2.468182842219785,0.8264780743243205,1.2134413937687574,-0.2202432315892585,-0.0075118285948192216,-2.6038483821997875,-0.10888392708698907,2.4681821257803174,0.826474908251239,0.0005157943040840756,0.00016744428219125462,-0.0011444782272828128,6.8439869758995455e-06,0.00038765893554391684,-0.0003695568691616476,0.0014015613256245516,0.0,0.0,0.0,0.0,0.0,0.0,0.0,-1.9750456881517664e-05,-0.00010968475380526699,2.2389206698171862e-06,4.558076444238779e-05,2.6448587739785756e-06,-7.164394677516839e-07,-3.1660730814841997e-06,-0.0005157943040840756,-0.00016744428219125462,0.0011444782272828128,-6.8439869758995455e-06,-0.00038765893554391684,0.0003695568691616476,-0.0014015613256245516,0.3514034152030945,19.792627334594727,0.3990752398967743,-19.983552932739258,-0.6713767647743225,-2.4758944511413574,0.28232139348983765,0
36,0.17500901222229004,-0.3514034152030945,-19.792627334594727,-0.3990752398967743,19.983552932739258,0.6713767647743225,2.4758944511413574,-0.28232139348983765,0.0,0.0,0.0,0.0,0.0,0.0,0.0,-0.33466615458238125,-0.049553478750368654,-0.24500960140039915,0.218775205769194,0.09617951218384517,0.09687770005525427,-0.24427365654618718,1.2134611442256389,-0.22013354683545322,-0.007514067515489039,-2.60389396296423,-0.10888657194576305,2.468182842219785,0.8264780743243205,1.2134413937687574,-0.2202432315892585,-0.0075118285948192216,-2.6038483821997875,-0.10888392708698907,2.4681821257803174,0.826474908251239,0.0005157943040840756,0.00016744428219125462,-0.0011444782272828128,6.8439869758995455e-06,0.00038765893554391684,-0.0003695568691616476,0.0014015613256245516,0.0,0.0,0.0,0.0,0.0,0.0,0.0,-1.9750456881517664e-05,-0.00010968475380526699,2.2389206698171862e-06,4.558076444238779e-05,2.6448587739785756e-06,-7.164394677516839e-07,-3.1660730814841997e-06,-0.0005157943040840756,-0.00016744428219125462,0.0011444782272828128,-6.8439869758995455e-06,-0.00038765893554391684,0.0003695568691616476,-0.0014015613256245516,0.3514034152030945,19.792627334594727,0.3990752398967743,-19.983552932739258,-0.6713767647743225,-2.4758944511413574,0.28232139348983765,0
37,0.18002629280090332,-0.3752071261405945,-19.768823623657227,-0.4704863727092743,20.007356643676758,0.6777854561805725,2.4630770683288574,-0.20083944499492645,0.0,0.0,0.0,0.0,0.0,0.0,0.0,-0.3351174345138778,-0.04537120812309193,-0.24478397066970123,0.218491683459298,0.09598852711941026,0.0971369764288633,-0.24445726097479675,1.2134628146614943,-0.22013233337440866,-0.007511186763382795,-2.603895403813102,-0.10888728402058283,2.4681842620108108,0.826469333376239,1.2134413937687574,-0.2202432315892585,-0.0075118285948192216,-2.6038483821997875,-0.10888392708698907,2.4681821257803174,0.826474908251239,0.0010296359201132474,-0.00010893810731345448,0.0008241884174661724,-0.0002886193255285734,2.0006367115212343e-05,0.0003088014523803481,-0.0011571598361687278,0.0,0.0,0.0,0.0,0.0,0.0,0.0,-2.142089273693415e-05,-0.00011089821484983053,-6.418314364266611e-07,4.702161331460175e-05,3.3569335937538858e-06,-2.1362304933880694e-06,5.574875000080581e-06,-0.0010296359201132474,0.00010893810731345448,-0.0008241884174661724,0.0002886193255285734,-2.0006367115212343e-05,-0.0003088014523803481,0.0011571598361687278,0.3752071261405945,19.768823623657227,0.4704863727092743,-20.007356643676758,-0.6777854561805725,-2.4630770683288574,0.20083944499492645,0
38,0.1850295066833496,-0.3752071261405945,-19.768823623657227,-0.4704863727092743,20.007356643676758,0.6777854561805725,2.4630770683288574,-0.20083944499492645,0.0,0.0,0.0,0.0,0.0,0.0,0.0,-0.3351174345138778,-0.04537120812309193,-0.24478397066970123,0.218491683459298,0.09598852711941026,0.0971369764288633,-0.24445726097479675,1.2134628146614943,-0.22013233337440866,-0.007511186763382795,-2.603895403813102,-0.10888728402058283,2.4681842620108108,0.826469333376239,1.2134413937687574,-0.2202432315892585,-0.0075118285948192216,-2.6038483821997875,-0.10888392708698907,2.4681821257803174,0.826474908251239,0.0010296359201132474,-0.00010893810731345448,0.0008241884174661724,-0.0002886193255285734,2.0006367115212343e-05,0.0003088014523803481,-0.0011571598361687278,0.0,0.0,0.0,0.0,0.0,0.0,0.0,-2.142089273693415e-05,-0.00011089821484983053,-6.418314364266611e-07,4.702161331460175e-05,3.3569335937538858e-06,-2.1362304933880694e-06,5.574875000080581e-06,-0.0010296359201132474,0.00010893810731345448,-0.0008241884174661724,0.0002886193255285734,-2.0006367115212343e-05,-0.0003088014523803481,0.0011571598361687278,0.3752071261405945,19.768823623657227,0.4704863727092743,-20.007356643676758,-0.6777854561805725,-2.4630770683288574,0.20083944499492645,0
39,0.1900186538696289,-0.2998287081718445,-19.792627334594727,-0.4466826617717743,20.007356643676758,0.6777854561805725,2.4566683769226074,-0.26217979192733765,0.0,0.0,0.0,0.0,0.0,0.0,0.0,-0.33007796038303405,-0.04331911890878301,-0.2398553077422209,0.21676721501381332,0.09565274447708642,0.09731840967240642,-0.24368677774834932,1.2134575249479527,-0.22013066292227368,-0.007510726655655244,-2.6038954039167845,-0.10888728450737074,2.468184974087609,0.8264770831203987,1.2134413937687574,-0.2202432315892585,-0.0075118285948192216,-2.6038483821997875,-0.10888392708698907,2.4681821257803174,0.826474908251239,-5.774067893122652e-05,3.437524684731613e-05,0.0003726834975295402,-0.0006216772124377429,-1.1745672896850987e-05,0.0006218674098068151,0.0010490643502957346,0.0,0.0,0.0,0.0,0.0,0.0,0.0,-1.613117919530005e-05,-0.00011256866698480805,-1.1019391639773696e-06,4.702171699699775e-05,3.357420381669418e-06,-2.848307291802854e-06,-2.174869159654591e-06,5.774067893122652e-05,-3.437524684731613e-05,-0.0003726834975295402,0.0006216772124377429,1.1745672896850987e-05,-0.0006218674098068151,-0.0010490643502957346,0.2998287081718445,19.792627334594727,0.4466826617717743,-20.007356643676758,-0.6777854561805725,-2.4566683769226074,0.26217979192733765,0
40,0.1951158046722412,-0.2998287081718445,-19.792627334594727,-0.4466826617717743,20.007356643676758,0.6777854561805725,2.4566683769226074,-0.26217979192733765,0.0,0.0,0.0,0.0,0.0,0.0,0.0,-0.33007796038303405,-0.04331911890878301,-0.2398553077422209,0.21676721501381332,0.09565274447708642,0.09731840967240642,-0.24368677774834932,1.2134575249479527,-0.22013066292227368,-0.007510726655655244,-2.6038954039167845,-0.10888728450737074,2.468184974087609,0.8264770831203987,1.2134413937687574,-0.2202432315892585,-0.0075118285948192216,-2.6038483821997875,-0.10888392708698907,2.4681821257803174,0.826474908251239,-5.774067893122652e-05,3.437524684731613e-05,0.0003726834975295402,-0.0006216772124377429,-1.1745672896850987e-05,0.0006218674098068151,0.0010490643502957346,0.0,0.0,0.0,0.0,0.0,0.0,0.0,-1.613117919530005e-05,-0.00011256866698480805,-1.1019391639773696e-06,4.702171699699775e-05,3.357420381669418e-06,-2.848307291802854e-06,-2.174869159654591e-06,5.774067893122652e-05,-3.437524684731613e-05,-0.0003726834975295402,0.0006216772124377429,1.1745672896850987e-05,-0.0006218674098068151,-0.0010490643502957346,0.2998287081718445,19.792627334594727,0.4466826617717743,-20.007356643676758,-0.6777854561805725,-2.4566683769226074,0.26217979192733765,0
41,0.19999265670776367,-0.2998287081718445,-19.792627334594727,-0.4466826617717743,20.007356643676758,0.6777854561805725,2.4566683769226074,-0.26217979192733765,0.0,0.0,0.0,0.0,0.0,0.0,0.0,-0.33007796038303405,-0.04331911890878301,-0.2398553077422209,0.21676721501381332,0.09565274447708642,0.09731840967240642,-0.24368677774834932,1.2134575249479527,-0.22013066292227368,-0.007510726655655244,-2.6038954039167845,-0.10888728450737074,2.468184974087609,0.8264770831203987,1.2134413937687574,-0.2202432315892585,-0.0075118285948192216,-2.6038483821997875,-0.10888392708698907,2.4681821257803174,0.826474908251239,-5.774067893122652e-05,3.437524684731613e-05,0.0003726834975295402,-0.0006216772124377429,-1.1745672896850987e-05,0.0006218674098068151,0.0010490643502957346,0.0,0.0,0.0,0.0,0.0,0.0,0.0,-1.613117919530005e-05,-0.00011256866698480805,-1.1019391639773696e-06,4.702171699699775e-05,3.357420381669418e-06,-2.848307291802854e-06,-2.174869159654591e-06,5.774067893122652e-05,-3.437524684731613e-05,-0.0003726834975295402,0.0006216772124377429,1.1745672896850987e-05,-0.0006218674098068151,-0.0010490643502957346,0.2998287081718445,19.792627334594727,0.4466826617717743,-20.007356643676758,-0.6777854561805725,-2.4566683769226074,0.26217979192733765,0
42,0.20498275756835938,-0.3514034152030945,-19.792627334594727,-0.4228789508342743,20.031160354614258,0.6832786202430725,2.4630770683288574,-0.21457235515117645,0.0,0.0,0.0,0.0,0.0,0.0,0.0,-0.332412610535028,-0.047543229431537375,-0.2458384022926594,0.22131752323352952,0.09570311798329188,0.09833131267577469,-0.24278828482732345,1.2134611442256389,-0.22013066596059738,-0.007512397079483526,-2.6038971507770823,-0.10888895897733115,2.4681842620107863,0.8264740699931709,1.2134413937687574,-0.2202432315892585,-0.0075118285948192216,-2.6038483821997875,-0.10888392708698907,2.4681821257803174,0.826474908251239,0.0005557436500936193,-0.00019682391125610732,-0.000388710168439616,-0.0007529789763520446,-0.00016130142354154226,0.00018885951479281676,-0.0012137214571060592,0.0,0.0,0.0,0.0,0.0,0.0,0.0,-1.9750456881517664e-05,-0.00011256562866110431,5.684846643046193e-07,4.8768577294744375e-05,5.031890342080403e-06,-2.136230468963163e-06,8.382580681809415e-07,-0.0005557436500936193,0.00019682391125610732,0.000388710168439616,0.0007529789763520446,0.00016130142354154226,-0.00018885951479281676,0.0012137214571060592,0.3514034152030945,19.792627334594727,0.4228789508342743,-20.031160354614258,-0.6832786202430725,-2.4630770683288574,0.21457235515117645,0
43,0.2100067138671875,-0.3514034152030945,-19.792627334594727,-0.4228789508342743,20.031160354614258,0.6832786202430725,2.4630770683288574,-0.21457235515117645,0.0,0.0,0.0,0.0,0.0,0.0,0.0,-0.332412610535028,-0.047543229431537375,-0.2458384022926594,0.22131752323352952,0.09570311798329188,0.09833131267577469,-0.24278828482732345,1.2134611442256389,-0.22013066596059738,-0.007512397079483526,-2.6038971507770823,-0.10888895897733115,2.4681842620107863,0.8264740699931709,1.2134413937687574,-0.2202432315892585,-0.0075118285948192216,-2.6038483821997875,-0.10888392708698907,2.4681821257803174,0.826474908251239,0.0005557436500936193,-0.00019682391125610732,-0.000388710168439616,-0.0007529789763520446,-0.00016130142354154226,0.00018885951479281676,-0.0012137214571060592,0.0,0.0,0.0,0.0,0.0,0.0,0.0,-1.9750456881517664e-05,-0.00011256562866110431,5.684846643046193e-07,4.8768577294744375e-05,5.031890342080403e-06,-2.136230468963163e-06,8.382580681809415e-07,-0.0005557436500936193,0.00019682391125610732,0.000388710168439616,0.0007529789763520446,0.00016130142354154226,-0.00018885951479281676,0.0012137214571060592,0.3514034152030945,19.792627334594727,0.4228789508342743,-20.031160354614258,-0.6832786202430725,-2.4630770683288574,0.21457235515117645,0
44,0.21501874923706055,-0.3514034152030945,-19.792627334594727,-0.4466826617717743,19.983552932739258,0.6777854561805725,2.4758944511413574,-0.26858848333358765,0.0,0.0,0.0,0.0,0.0,0.0,0.0,-0.3313016021715629,-0.04173038307584646,-0.24321457102729022,0.2169045836579911,0.09530268255335174,0.09665535700019719,-0.2427124253360329,1.2134611442256389,-0.22013303607018456,-0.0075107305403919996,-2.6038937333763825,-0.10888732345641414,2.4681828378571407,0.8264799279504034,1.2134413937687574,-0.2202432315892585,-0.0075118285948192216,-2.6038483821997875,-0.10888392708698907,2.4681821257803174,0.826474908251239,0.00043043430848519734,2.526540641963694e-05,0.00013181183911025653,0.0005329249953253035,4.302599080085703e-05,-0.00026347820138228036,0.0014650644746813087,0.0,0.0,0.0,0.0,0.0,0.0,0.0,-1.9750456881517664e-05,-0.0001101955190739301,-1.098054427222002e-06,4.535117659498766e-05,3.3963694250627174e-06,-7.120768232837804e-07,-5.019699164332536e-06,-0.00043043430848519734,-2.526540641963694e-05,-0.00013181183911025653,-0.0005329249953253035,-4.302599080085703e-05,0.00026347820138228036,-0.0014650644746813087,0.3514034152030945,19.792627334594727,0.4466826617717743,-19.983552932739258,-0.6777854561805725,-2.4758944511413574,0.26858848333358765,0
45,0.21998190879821777,-0.3514034152030945,-19.792627334594727,-0.4466826617717743,19.983552932739258,0.6777854561805725,2.4758944511413574,-0.26858848333358765,0.0,0.0,0.0,0.0,0.0,0.0,0.0,-0.3313016021715629,-0.04173038307584646,-0.24321457102729022,0.2169045836579911,0.09530268255335174,0.09665535700019719,-0.2427124253360329,1.2134611442256389,-0.22013303607018456,-0.0075107305403919996,-2.6038937333763825,-0.10888732345641414,2.4681828378571407,0.8264799279504034,1.2134413937687574,-0.2202432315892585,-0.0075118285948192216,-2.6038483821997875,-0.10888392708698907,2.4681821257803174,0.826474908251239,0.00043043430848519734,2.526540641963694e-05,0.00013181183911025653,0.0005329249953253035,4.302599080085703e-05,-0.00026347820138228036,0.0014650644746813087,0.0,0.0,0.0,0.0,0.0,0.0,0.0,-1.9750456881517664e-05,-0.0001101955190739301,-1.098054427222002e-06,4.535117659498766e-05,3.3963694250627174e-06,-7.120768232837804e-07,-5.019699164332536e-06,-0.00043043430848519734,-2.526540641963694e-05,-0.00013181183911025653,-0.0005329249953253035,-4.302599080085703e-05,0.00026347820138228036,-0.0014650644746813087,0.3514034152030945,19.792627334594727,0.4466826617717743,-19.983552932739258,-0.6777854561805725,-2.4758944511413574,0.26858848333358765,0
46,0.22501564025878906,-0.3514034152030945,-19.792627334594727,-0.3990752398967743,19.983552932739258,0.6777854561805725,2.4630770683288574,-0.24112264811992645,0.0,0.0,0.0,0.0,0.0,0.0,0.0,-0.32636554012798025,-0.047894719925056506,-0.24016801532667054,0.21759430911027441,0.0947964235843811,0.09691951497112143,-0.2429325706868382,1.2134611442256389,-0.22013066293567007,-0.0075140684895516705,-2.6038939642239556,-0.10888740231027022,2.4681842624953028,0.82647338131698,1.2134413937687574,-0.2202432315892585,-0.0075118285948192216,-2.6038483821997875,-0.10888392708698907,2.4681821257803174,0.826474908251239,0.0005348335302824328,-0.00013743750980612862,-0.000644693821500959,-3.802622696030382e-05,0.0002450297972796119,0.00033665026669721056,3.0972558993648415e-05,0.0,0.0,0.0,0.0,0.0,0.0,0.0,-1.9750456881517664e-05,-0.00011256865358841295,2.239894732448955e-06,4.558202416804491e-05,3.4752232811463557e-06,-2.1367149853901424e-06,1.5269342590329416e-06,-0.0005348335302824328,0.00013743750980612862,0.000644693821500959,3.802622696030382e-05,-0.0002450297972796119,-0.00033665026669721056,-3.0972558993648415e-05,0.3514034152030945,19.792627334594727,0.3990752398967743,-19.983552932739258,-0.6777854561805725,-2.4630770683288574,0.24112264811992645,0
47,0.2300107479095459,-0.3514034152030945,-19.792627334594727,-0.3990752398967743,19.983552932739258,0.6777854561805725,2.4630770683288574,-0.24112264811992645,0.0,0.0,0.0,0.0,0.0,0.0,0.0,-0.32636554012798025,-0.047894719925056506,-0.24016801532667054,0.21759430911027441,0.0947964235843811,0.09691951497112143,-0.2429325706868382,1.2134611442256389,-0.22013066293567007,-0.0075140684895516705,-2.6038939642239556,-0.10888740231027022,2.4681842624953028,0.82647338131698,1.2134413937687574,-0.2202432315892585,-0.0075118285948192216,-2.6038483821997875,-0.10888392708698907,2.4681821257803174,0.826474908251239,0.0005348335302824328,-0.00013743750980612862,-0.000644693821500959,-3.802622696030382e-05,0.0002450297972796119,0.00033665026669721056,3.0972558993648415e-05,0.0,0.0,0.0,0.0,0.0,0.0,0.0,-1.9750456881517664e-05,-0.00011256865358841295,2.239894732448955e-06,4.558202416804491e-05,3.4752232811463557e-06,-2.1367149853901424e-06,1.5269342590329416e-06,-0.0005348335302824328,0.00013743750980612862,0.000644693821500959,3.802622696030382e-05,-0.0002450297972796119,-0.00033665026669721056,-3.0972558993648415e-05,0.3514034152030945,19.792627334594727,0.3990752398967743,-19.983552932739258,-0.6777854561805725,-2.4630770683288574,0.24112264811992645,0
48,0.23502802848815918,-0.3514034152030945,-19.816431045532227,-0.3990752398967743,20.007356643676758,0.6832786202430725,2.4566683769226074,-0.26217979192733765,0.0,0.0,0.0,0.0,0.0,0.0,0.0,-0.3339122594488231,-0.04427184185555789,-0.2457662417980756,0.2149208495289266,0.09541165111956153,0.09691402622172568,-0.2428422087758541,1.2134611442256389,-0.22012900518227135,-0.007514067515344221,-2.603895404757917,-0.10888895897799615,2.468184974087612,0.8264758214363692,1.2134413937687574,-0.2202432315892585,-0.0075118285948192216,-2.6038483821997875,-0.10888392708698907,2.4681821257803174,0.826474908251239,9.336356451917356e-05,0.0010506667630201631,-0.0009691276917452277,-0.0007308044530608326,-0.00011990111226578128,0.00035044998240984213,0.0005693357175068333,0.0,0.0,0.0,0.0,0.0,0.0,0.0,-1.9750456881517664e-05,-0.00011422640698713349,2.2389205249998684e-06,4.702255812949474e-05,5.031891007076239e-06,-2.8483072944673893e-06,-9.131851301802385e-07,-9.336356451917356e-05,-0.0010506667630201631,0.0009691276917452277,0.0007308044530608326,0.00011990111226578128,-0.00035044998240984213,-0.0005693357175068333,0.3514034152030945,19.816431045532227,0.3990752398967743,-20.007356643676758,-0.6832786202430725,-2.4566683769226074,0.26217979192733765,0
49,0.24000978469848633,-0.3514034152030945,-19.816431045532227,-0.3990752398967743,20.007356643676758,0.6832786202430725,2.4566683769226074,-0.26217979192733765,0.0,0.0,0.0,0.0,0.0,0.0,0.0,-0.3339122594488231,-0.04427184185555789,-0.2457662417980756,0.2149208495289266,0.09541165111956153,0.09691402622172568,-0.2428422087758541,1.2134611442256389,-0.22012900518227135,-0.007514067515344221,-2.603895404757917,-0.10888895897799615,2.468184974087612,0.8264758214363692,1.2134413937687574,-0.2202432315892585,-0.0075118285948192216,-2.6038483821997875,-0.10888392708698907,2.4681821257803174,0.826474908251239,9.336356451917356e-05,0.0010506667630201631,-0.0009691276917452277,-0.0007308044530608326,-0.00011990111226578128,0.00035044998240984213,0.0005693357175068333,0.0,0.0,0.0,0.0,0.0,0.0,0.0,-1.9750456881517664e-05,-0.00011422640698713349,2.2389205249998684e-06,4.702255812949474e-05,5.031891007076239e-06,-2.8483072944673893e-06,-9.131851301802385e-07,-9.336356451917356e-05,-0.0010506667630201631,0.0009691276917452277,0.0007308044530608326,0.00011990111226578128,-0.00035044998240984213,-0.0005693357175068333,0.3514034152030945,19.816431045532227,0.3990752398967743,-20.007356643676758,-0.6832786202430725,-2.4566683769226074,0.26217979192733765,0
50,0.24502229690551758,-0.3236324191093445,-19.816431045532227,-0.4466826617717743,20.007356643676758,0.6832786202430725,2.4758944511413574,-0.22098104655742645,0.0,0.0,0.0,0.0,0.0,0.0,0.0,-0.3357720931925971,-0.050654346603393755,-0.24356384133133752,0.21893840971253398,0.09579937266113472,0.09741361267478074,-0.2422452947244218,1.2134591953838079,-0.2201289926311721,-0.0075107354113467546,-2.6038954038118116,-0.10888896336442942,2.468186016771529,0.8264715726239285,1.2134413937687574,-0.2202432315892585,-0.0075118285948192216,-2.6038483821997875,-0.10888392708698907,2.4681821257803174,0.826474908251239,-0.0001599383408829202,0.0006933925152226802,4.1083356222459204e-05,-0.00041115030313107823,6.854559468058599e-05,-0.00020274966409037913,-0.0007369611184648908,0.0,0.0,0.0,0.0,0.0,0.0,0.0,-1.780161505049449e-05,-0.00011423895808637674,-1.0931834724670075e-06,4.702161202407851e-05,5.036277440348402e-06,-3.8909912114526435e-06,3.335627310585565e-06,0.0001599383408829202,-0.0006933925152226802,-4.1083356222459204e-05,0.00041115030313107823,-6.854559468058599e-05,0.00020274966409037913,0.0007369611184648908,0.3236324191093445,19.816431045532227,0.4466826617717743,-20.007356643676758,-0.6832786202430725,-2.4758944511413574,0.22098104655742645,0
51,0.24999618530273438,-0.3236324191093445,-19.816431045532227,-0.4466826617717743,20.007356643676758,0.6832786202430725,2.4758944511413574,-0.22098104655742645,0.0,0.0,0.0,0.0,0.0,0.0,0.0,-0.3357720931925971,-0.050654346603393755,-0.24356384133133752,0.21893840971253398,0.09579937266113472,0.09741361267478074,-0.2422452947244218,1.2134591953838079,-0.2201289926311721,-0.0075107354113467546,-2.6038954038118116,-0.10888896336442942,2.468186016771529,0.8264715726239285,1.2134413937687574,-0.2202432315892585,-0.0075118285948192216,-2.6038483821997875,-0.10888392708698907,2.4681821257803174,0.826474908251239,-0.0001599383408829202,0.0006933925152226802,4.1083356222459204e-05,-0.00041115030313107823,6.854559468058599e-05,-0.00020274966409037913,-0.0007369611184648908,0.0,0.0,0.0,0.0,0.0,0.0,0.0,-1.780161505049449e-05,-0.00011423895808637674,-1.0931834724670075e-06,4.702161202407851e-05,5.036277440348402e-06,-3.8909912114526435e-06,3.335627310585565e-06,0.0001599383408829202,-0.0006933925152226802,-4.1083356222459204e-05,0.00041115030313107823,-6.854559468058599e-05,0.00020274966409037913,0.0007369611184648908,0.3236324191093445,19.816431045532227,0.4466826617717743,-20.007356643676758,-0.6832786202430725,-2.4758944511413574,0.22098104655742645,0
52,0.2550232410430908,-0.2998287081718445,-19.816431045532227,-0.4466826617717743,20.031160354614258,0.6777854561805725,2.4694857597351074,-0.24844686686992645,0.0,0.0,0.0,0.0,0.0,0.0,0.0,-0.33131916362761926,-0.04461188769286323,-0.24034219656212433,0.21085210626302905,0.09635138053244101,0.09664765239683668,-0.24089090647819864,1.2134575249479527,-0.22013112831952358,-0.00751072664367769,-2.6038970742476613,-0.10888728402661732,2.4681867288662964,0.8264743084786771,1.2134413937687574,-0.2202432315892585,-0.0075118285948192216,-2.6038483821997875,-0.10888392708698907,2.4681821257803174,0.826474908251239,-0.0006891926325143443,0.0007940538642720586,0.00037576597581196413,-0.0012293265916369295,8.197535574439121e-05,6.453568430529676e-05,0.0004590897142311946,0.0,0.0,0.0,0.0,0.0,0.0,0.0,-1.613117919530005e-05,-0.00011210326973490337,-1.1019511415317346e-06,4.869204787372183e-05,3.356939628246236e-06,-4.603085979049126e-06,5.997725619488747e-07,0.0006891926325143443,-0.0007940538642720586,-0.00037576597581196413,0.0012293265916369295,-8.197535574439121e-05,-6.453568430529676e-05,-0.0004590897142311946,0.2998287081718445,19.816431045532227,0.4466826617717743,-20.031160354614258,-0.6777854561805725,-2.4694857597351074,0.24844686686992645,0
53,0.2600235939025879,-0.2998287081718445,-19.816431045532227,-0.4466826617717743,20.031160354614258,0.6777854561805725,2.4694857597351074,-0.24844686686992645,0.0,0.0,0.0,0.0,0.0,0.0,0.0,-0.33131916362761926,-0.04461188769286323,-0.24034219656212433,0.21085210626302905,0.09635138053244101,0.09664765239683668,-0.24089090647819864,1.2134575249479527,-0.22013112831952358,-0.00751072664367769,-2.6038970742476613,-0.10888728402661732,2.4681867288662964,0.8264743084786771,1.2134413937687574,-0.2202432315892585,-0.0075118285948192216,-2.6038483821997875,-0.10888392708698907,2.4681821257803174,0.826474908251239,-0.0006891926325143443,0.0007940538642720586,0.00037576597581196413,-0.0012293265916369295,8.197535574439121e-05,6.453568430529676e-05,0.0004590897142311946,0.0,0.0,0.0,0.0,0.0,0.0,0.0,-1.613117919530005e-05,-0.00011210326973490337,-1.1019511415317346e-06,4.869204787372183e-05,3.356939628246236e-06,-4.603085979049126e-06,5.997725619488747e-07,0.0006891926325143443,-0.0007940538642720586,-0.00037576597581196413,0.0012293265916369295,-8.197535574439121e-05,-6.453568430529676e-05,-0.0004590897142311946,0.2998287081718445,19.816431045532227,0.4466826617717743,-20.031160354614258,-0.6777854561805725,-2.4694857597351074,0.24844686686992645,0
54,0.26502346992492676,-0.3236324191093445,-19.816431045532227,-0.4466826617717743,19.955781936645508,0.6896873116493225,2.4630770683288574,-0.24112264811992645,0.0,0.0,0.0,0.0,0.0,0.0,0.0,-0.33623007585343995,-0.050094844396582364,-0.24501306282548246,0.21311241932863317,0.09665385373875443,0.09728122807623527,-0.24161075382273842,1.2134591953838079,-0.22013115506159475,-0.007510814320813787,-2.60389178453412,-0.10888860644896828,2.468184266389382,0.8264780536544042,1.2134413937687574,-0.2202432315892585,-0.0075118285948192216,-2.6038483821997875,-0.10888392708698907,2.4681821257803174,0.826474908251239,-0.0005923976219914166,0.0005203807623022432,-0.0002063992176599853,0.0007233615363806831,-0.00020202732967463736,8.493458009801982e-05,-0.0008151837741389595,0.0,0.0,0.0,0.0,0.0,0.0,0.0,-1.780161505049449e-05,-0.00011207652766373477,-1.0142740054343638e-06,4.340233433230978e-05,4.679361979204044e-06,-2.140609064671395e-06,-3.145403165150107e-06,0.0005923976219914166,-0.0005203807623022432,0.0002063992176599853,-0.0007233615363806831,0.00020202732967463736,-8.493458009801982e-05,0.0008151837741389595,0.3236324191093445,19.816431045532227,0.4466826617717743,-19.955781936645508,-0.6896873116493225,-2.4630770683288574,0.24112264811992645,0
55,0.2700071334838867,-0.3236324191093445,-19.816431045532227,-0.4466826617717743,19.955781936645508,0.6896873116493225,2.4630770683288574,-0.24112264811992645,0.0,0.0,0.0,0.0,0.0,0.0,0.0,-0.33623007585343995,-0.050094844396582364,-0.24501306282548246,0.21311241932863317,0.09665385373875443,0.09728122807623527,-0.24161075382273842,1.2134591953838079,-0.22013115506159475,-0.007510814320813787,-2.60389178453412,-0.10888860644896828,2.468184266389382,0.8264780536544042,1.2134413937687574,-0.2202432315892585,-0.0075118285948192216,-2.6038483821997875,-0.10888392708698907,2.4681821257803174,0.826474908251239,-0.0005923976219914166,0.0005203807623022432,-0.0002063992176599853,0.0007233615363806831,-0.00020202732967463736,8.493458009801982e-05,-0.0008151837741389595,0.0,0.0,0.0,0.0,0.0,0.0,0.0,-1.780161505049449e-05,-0.00011207652766373477,-1.0142740054343638e-06,4.340233433230978e-05,4.679361979204044e-06,-2.140609064671395e-06,-3.145403165150107e-06,0.0005923976219914166,-0.0005203807623022432,0.0002063992176599853,-0.0007233615363806831,0.00020202732967463736,-8.493458009801982e-05,0.0008151837741389595,0.3236324191093445,19.816431045532227,0.4466826617717743,-19.955781936645508,-0.6896873116493225,-2.4630770683288574,0.24112264811992645,0
56,0.2750217914581299,-0.3236324191093445,-19.816431045532227,-0.4466826617717743,19.955781936645508,0.6896873116493225,2.4630770683288574,-0.24112264811992645,0.0,0.0,0.0,0.0,0.0,0.0,0.0,-0.33623007585343995,-0.050094844396582364,-0.24501306282548246,0.21311241932863317,0.09665385373875443,0.09728122807623527,-0.24161075382273842,1.2134591953838079,-0.22013115506159475,-0.007510814320813787,-2.60389178453412,-0.10888860644896828,2.468184266389382,0.8264780536544042,1.2134413937687574,-0.2202432315892585,-0.0075118285948192216,-2.6038483821997875,-0.10888392708698907,2.4681821257803174,0.826474908251239,-0.0005923976219914166,0.0005203807623022432,-0.0002063992176599853,0.0007233615363806831,-0.00020202732967463736,8.493458009801982e-05,-0.0008151837741389595,0.0,0.0,0.0,0.0,0.0,0.0,0.0,-1.780161505049449e-05,-0.00011207652766373477,-1.0142740054343638e-06,4.340233433230978e-05,4.679361979204044e-06,-2.140609064671395e-06,-3.145403165150107e-06,0.0005923976219914166,-0.0005203807623022432,0.0002063992176599853,-0.0007233615363806831,0.00020202732967463736,-8.493458009801982e-05,0.0008151837741389595,0.3236324191093445,19.816431045532227,0.4466826617717743,-19.955781936645508,-0.6896873116493225,-2.4630770683288574,0.24112264811992645,0
57,0.2800319194793701,-0.3236324191093445,-19.816431045532227,-0.4466826617717743,19.955781936645508,0.6896873116493225,2.4630770683288574,-0.24112264811992645,0.0,0.0,0.0,0.0,0.0,0.0,0.0,-0.33623007585343995,-0.050094844396582364,-0.24501306282548246,0.21311241932863317,0.09665385373875443,0.09728122807623527,-0.24161075382273842,1.2134591953838079,-0.22013115506159475,-0.007510814320813787,-2.60389178453412,-0.10888860644896828,2.468184266389382,0.8264780536544042,1.2134413937687574,-0.2202432315892585,-0.0075118285948192216,-2.6038483821997875,-0.10888392708698907,2.4681821257803174,0.826474908251239,-0.0005923976219914166,0.0005203807623022432,-0.0002063992176599853,0.0007233615363806831,-0.00020202732967463736,8.493458009801982e-05,-0.0008151837741389595,0.0,0.0,0.0,0.0,0.0,0.0,0.0,-1.780161505049449e-05,-0.00011207652766373477,-1.0142740054343638e-06,4.340233433230978e-05,4.679361979204044e-06,-2.140609064671395e-06,-3.145403165150107e-06,0.0005923976219914166,-0.0005203807623022432,0.0002063992176599853,-0.0007233615363806831,0.00020202732967463736,-8.493458009801982e-05,0.0008151837741389595,0.3236324191093445,19.816431045532227,0.4466826617717743,-19.955781936645508,-0.6896873116493225,-2.4630770683288574,0.24112264811992645,0
58,0.28501439094543457,-0.3236324191093445,-19.768823623657227,-0.4466826617717743,20.031160354614258,0.6777854561805725,2.4694857597351074,-0.22098104655742645,0.0,0.0,0.0,0.0,0.0,0.0,0.0,-0.33092364789721646,-0.04758444090895366,-0.24079376467407013,0.21312895467201537,0.09679038617611659,0.09679522569323383,-0.2438229245050841,1.2134591953838079,-0.22013233347884822,-0.007510727943044404,-2.6038970742476613,-0.10888728402058283,2.4681835544561443,0.8264742721078846,1.2134413937687574,-0.2202432315892585,-0.0075118285948192216,-2.6038483821997875,-0.10888392708698907,2.4681821257803174,0.826474908251239,-0.00016108965782303902,-0.00029975942961169775,0.0004587807320458848,-0.0007192642895282839,0.0002798009730717597,1.8893689099772605e-05,-0.0010905336069038623,0.0,0.0,0.0,0.0,0.0,0.0,0.0,-1.780161505049449e-05,-0.00011089811041026243,-1.1006517748176833e-06,4.869204787372183e-05,3.3569335937538858e-06,-1.4286758269754785e-06,6.361433544377348e-07,0.00016108965782303902,0.00029975942961169775,-0.0004587807320458848,0.0007192642895282839,-0.0002798009730717597,-1.8893689099772605e-05,0.0010905336069038623,0.3236324191093445,19.768823623657227,0.4466826617717743,-20.031160354614258,-0.6777854561805725,-2.4694857597351074,0.22098104655742645,0
59,0.2900245189666748,-0.3236324191093445,-19.768823623657227,-0.4466826617717743,20.031160354614258,0.6777854561805725,2.4694857597351074,-0.22098104655742645,0.0,0.0,0.0,0.0,0.0,0.0,0.0,-0.33092364789721646,-0.04758444090895366,-0.24079376467407013,0.21312895467201537,0.09679038617611659,0.09679522569323383,-0.2438229245050841,1.2134591953838079,-0.22013233347884822,-0.007510727943044404,-2.6038970742476613,-0.10888728402058283,2.4681835544561443,0.8264742721078846,1.2134413937687574,-0.2202432315892585,-0.0075118285948192216,-2.6038483821997875,-0.10888392708698907,2.4681821257803174,0.826474908251239,-0.00016108965782303902,-0.00029975942961169775,0.0004587807320458848,-0.0007192642895282839,0.0002798009730717597,1.8893689099772605e-05,-0.0010905336069038623,0.0,0.0,0.0,0.0,0.0,0.0,0.0,-1.780161505049449e-05,-0.00011089811041026243,-1.1006517748176833e-06,4.869204787372183e-05,3.3569335937538858e-06,-1.4286758269754785e-06,6.361433544377348e-07,0.00016108965782303902,0.00029975942961169775,-0.0004587807320458848,0.0007192642895282839,-0.0002798009730717597,-1.8893689099772605e-05,0.0010905336069038623,0.3236324191093445,19.768823623657227,0.4466826617717743,-20.031160354614258,-0.6777854561805725,-2.4694857597351074,0.22098104655742645,0
60,0.29500913619995117,-0.3236324191093445,-19.768823623657227,-0.4466826617717743,20.007356643676758,0.6777854561805725,2.4630770683288574,-0.26217979192733765,0.0,0.0,0.0,0.0,0.0,0.0,0.0,-0.3352876212130637,-0.04604939182889089,-0.24260125593241932,0.21072889494655422,0.09742974915611137,0.09602006290771206,-0.24292926670197035,1.2134591953838079,-0.22013526024053193,-0.007510730540399335,-2.6038954038118063,-0.10888728402058283,2.4681842620108116,0.8264771963510582,1.2134413937687574,-0.2202432315892585,-0.0075118285948192216,-2.6038483821997875,-0.10888392708698907,2.4681821257803174,0.826474908251239,-0.00011423875379399243,-0.0003382278594023163,-7.741299814921195e-05,-0.0007043940186893919,0.00031686398342923374,0.00025394958701768685,0.0007147712568113089,0.0,0.0,0.0,0.0,0.0,0.0,0.0,-1.780161505049449e-05,-0.00010797134872655989,-1.0980544198867237e-06,4.702161201874944e-05,3.3569335937538858e-06,-2.1362304942762478e-06,-2.2880998191698865e-06,0.00011423875379399243,0.0003382278594023163,7.741299814921195e-05,0.0007043940186893919,-0.00031686398342923374,-0.00025394958701768685,-0.0007147712568113089,0.3236324191093445,19.768823623657227,0.4466826617717743,-20.007356643676758,-0.6777854561805725,-2.4630770683288574,0.26217979192733765,0
61,0.30002307891845703,-0.3236324191093445,-19.768823623657227,-0.4466826617717743,20.007356643676758,0.6777854561805725,2.4630770683288574,-0.26217979192733765,0.0,0.0,0.0,0.0,0.0,0.0,0.0,-0.3352876212130637,-0.04604939182889089,-0.24260125593241932,0.21072889494655422,0.09742974915611137,0.09602006290771206,-0.24292926670197035,1.2134591953838079,-0.22013526024053193,-0.007510730540399335,-2.6038954038118063,-0.10888728402058283,2.4681842620108116,0.8264771963510582,1.2134413937687574,-0.2202432315892585,-0.0075118285948192216,-2.6038483821997875,-0.10888392708698907,2.4681821257803174,0.826474908251239,-0.00011423875379399243,-0.0003382278594023163,-7.741299814921195e-05,-0.0007043940186893919,0.00031686398342923374,0.00025394958701768685,0.0007147712568113089,0.0,0.0,0.0,0.0,0.0,0.0,0.0,-1.780161505049449e-05,-0.00010797134872655989,-1.0980544198867237e-06,4.702161201874944e-05,3.3569335937538858e-06,-2.1362304942762478e-06,-2.2880998191698865e-06,0.00011423875379399243,0.0003382278594023163,7.741299814921195e-05,0.0007043940186893919,-0.00031686398342923374,-0.00025394958701768685,-0.0007147712568113089,0.3236324191093445,19.768823623657227,0.4466826617717743,-20.007356643676758,-0.6777854561805725,-2.4630770683288574,0.26217979192733765,0
62,0.3050229549407959,-0.2720577120780945,-19.792627334594727,-0.4466826617717743,20.007356643676758,0.6832786202430725,2.4694857597351074,-0.24844686686992645,0.0,0.0,0.0,0.0,0.0,0.0,0.0,-0.3329513549888766,-0.04593124656269947,-0.23916114354715404,0.2168350004512788,0.09769454728870809,0.09704962397426019,-0.24238235765649196,1.2134555761061214,-0.22013351071626852,-0.0075107266797313395,-2.6038954038118063,-0.10888789437214534,2.4681835499339635,0.8264755534234504,1.2134413937687574,-0.2202432315892585,-0.0075118285948192216,-2.6038483821997875,-0.10888392708698907,2.4681821257803174,0.826474908251239,-0.0016530764167092661,0.0006781935757888073,0.0006920718291101141,-0.00010994611505527568,-0.00012187638257327397,-0.00019121532847105952,0.0004977064452168299,0.0,0.0,0.0,0.0,0.0,0.0,0.0,-1.4182337364054831e-05,-0.00010972087298996569,-1.1019150878820855e-06,4.702161201874944e-05,3.9672851562672085e-06,-1.4241536461234716e-06,-6.451722113220981e-07,0.0016530764167092661,-0.0006781935757888073,-0.0006920718291101141,0.00010994611505527568,0.00012187638257327397,0.00019121532847105952,-0.0004977064452168299,0.2720577120780945,19.792627334594727,0.4466826617717743,-20.007356643676758,-0.6832786202430725,-2.4694857597351074,0.24844686686992645,0
63,0.310030460357666,-0.2720577120780945,-19.792627334594727,-0.4466826617717743,20.007356643676758,0.6832786202430725,2.4694857597351074,-0.24844686686992645,0.0,0.0,0.0,0.0,0.0,0.0,0.0,-0.3329513549888766,-0.04593124656269947,-0.23916114354715404,0.2168350004512788,0.09769454728870809,0.09704962397426019,-0.24238235765649196,1.2134555761061214,-0.22013351071626852,-0.0075107266797313395,-2.6038954038118063,-0.10888789437214534,2.4681835499339635,0.8264755534234504,1.2134413937687574,-0.2202432315892585,-0.0075118285948192216,-2.6038483821997875,-0.10888392708698907,2.4681821257803174,0.826474908251239,-0.0016530764167092661,0.0006781935757888073,0.0006920718291101141,-0.00010994611505527568,-0.00012187638257327397,-0.00019121532847105952,0.0004977064452168299,0.0,0.0,0.0,0.0,0.0,0.0,0.0,-1.4182337364054831e-05,-0.00010972087298996569,-1.1019150878820855e-06,4.702161201874944e-05,3.9672851562672085e-06,-1.4241536461234716e-06,-6.451722113220981e-07,0.0016530764167092661,-0.0006781935757888073,-0.0006920718291101141,0.00010994611505527568,0.00012187638257327397,0.00019121532847105952,-0.0004977064452168299,0.2720577120780945,19.792627334594727,0.4466826617717743,-20.007356643676758,-0.6832786202430725,-2.4694857597351074,0.24844686686992645,0
64,0.31502509117126465,-0.3236324191093445,-19.768823623657227,-0.4466826617717743,20.007356643676758,0.6777854561805725,2.4823031425476074,-0.25485557317733765,0.0,0.0,0.0,0.0,0.0,0.0,0.0,-0.3309578396472241,-0.04298545991697065,-0.23635171082424397,0.21666652437008443,0.09714465932707977,0.09635998561682681,-0.2423878566861142,1.2134591953838079,-0.22013304535474343,-0.007510726643628399,-2.6038954038118063,-0.10888728402058283,2.4681821257803174,0.8264785047223397,1.2134413937687574,-0.2202432315892585,-0.0075118285948192216,-2.6038483821997875,-0.10888392708698907,2.4681821257803174,0.826474908251239,0.00020505218296596088,-0.0002494947927253416,0.0008544072746049245,-0.0003174129899977848,0.00018138142425940944,-0.0005546653982506429,4.307075708569443e-05,0.0,0.0,0.0,0.0,0.0,0.0,0.0,-1.780161505049449e-05,-0.00011018623451505838,-1.1019511908221674e-06,4.702161201874944e-05,3.3569335937538858e-06,0.0,-3.596471100708598e-06,-0.00020505218296596088,0.0002494947927253416,-0.0008544072746049245,0.0003174129899977848,-0.00018138142425940944,0.0005546653982506429,-4.307075708569443e-05,0.3236324191093445,19.768823623657227,0.4466826617717743,-20.007356643676758,-0.6777854561805725,-2.4823031425476074,0.25485557317733765,0
65,0.32003140449523926,-0.3236324191093445,-19.768823623657227,-0.4466826617717743,20.007356643676758,0.6777854561805725,2.4823031425476074,-0.25485557317733765,0.0,0.0,0.0,0.0,0.0,0.0,0.0,-0.3309578396472241,-0.04298545991697065,-0.23635171082424397,0.21666652437008443,0.09714465932707977,0.09635998561682681,-0.2423878566861142,1.2134591953838079,-0.22013304535474343,-0.007510726643628399,-2.6038954038118063,-0.10888728402058283,2.4681821257803174,0.8264785047223397,1.2134413937687574,-0.2202432315892585,-0.0075118285948192216,-2.6038483821997875,-0.10888392708698907,2.4681821257803174,0.826474908251239,0.00020505218296596088,-0.0002494947927253416,0.0008544072746049245,-0.0003174129899977848,0.00018138142425940944,-0.0005546653982506429,4.307075708569443e-05,0.0,0.0,0.0,0.0,0.0,0.0,0.0,-1.780161505049449e-05,-0.00011018623451505838,-1.1019511908221674e-06,4.702161201874944e-05,3.3569335937538858e-06,0.0,-3.596471100708598e-06,-0.00020505218296596088,0.0002494947927253416,-0.0008544072746049245,0.0003174129899977848,-0.00018138142425940944,0.0005546653982506429,-4.307075708569443e-05,0.3236324191093445,19.768823623657227,0.4466826617717743,-20.007356643676758,-0.6777854561805725,-2.4823031425476074,0.25485557317733765,0
66,0.325023889541626,-0.2720577120780945,-19.768823623657227,-0.4228789508342743,20.007356643676758,0.6832786202430725,2.4630770683288574,-0.27591270208358765,0.0,0.0,0.0,0.0,0.0,0.0,0.0,-0.33246584740785606,-0.03981702994159971,-0.23781038162605916,0.2150485014968594,0.09702139255662298,0.096662998674178,-0.24308813185835684,1.2134555761061214,-0.22013305518106854,-0.007512397115564605,-2.6038954038118063,-0.10888789437214534,2.4681843841090068,0.8264803824023323,1.2134413937687574,-0.2202432315892585,-0.0075118285948192216,-2.6038483821997875,-0.10888392708698907,2.4681821257803174,0.826474908251239,-0.001205856348016516,-0.000316901498482164,2.422033133073748e-05,-0.0002894825911618135,-9.789696630477362e-05,0.0003813955692668459,0.000764739646785238,0.0,0.0,0.0,0.0,0.0,0.0,0.0,-1.4182337364054831e-05,-0.00011017640818994368,5.68520745383716e-07,4.702161201874944e-05,3.9672851562672085e-06,-2.2583286893862464e-06,-5.4741510933098425e-06,0.001205856348016516,0.000316901498482164,-2.422033133073748e-05,0.0002894825911618135,9.789696630477362e-05,-0.0003813955692668459,-0.000764739646785238,0.2720577120780945,19.768823623657227,0.4228789508342743,-20.007356643676758,-0.6832786202430725,-2.4630770683288574,0.27591270208358765,0
67,0.33000874519348145,-0.2720577120780945,-19.768823623657227,-0.4228789508342743,20.007356643676758,0.6832786202430725,2.4630770683288574,-0.27591270208358765,0.0,0.0,0.0,0.0,0.0,0.0,0.0,-0.33246584740785606,-0.03981702994159971,-0.23781038162605916,0.2150485014968594,0.09702139255662298,0.096662998674178,-0.24308813185835684,1.2134555761061214,-0.22013305518106854,-0.007512397115564605,-2.6038954038118063,-0.10888789437214534,2.4681843841090068,0.8264803824023323,1.2134413937687574,-0.2202432315892585,-0.0075118285948192216,-2.6038483821997875,-0.10888392708698907,2.4681821257803174,0.826474908251239,-0.001205856348016516,-0.000316901498482164,2.422033133073748e-05,-0.0002894825911618135,-9.789696630477362e-05,0.0003813955692668459,0.000764739646785238,0.0,0.0,0.0,0.0,0.0,0.0,0.0,-1.4182337364054831e-05,-0.00011017640818994368,5.68520745383716e-07,4.702161201874944e-05,3.9672851562672085e-06,-2.2583286893862464e-06,-5.4741510933098425e-06,0.001205856348016516,0.000316901498482164,-2.422033133073748e-05,0.0002894825911618135,9.789696630477362e-05,-0.0003813955692668459,-0.000764739646785238,0.2720577120780945,19.768823623657227,0.4228789508342743,-20.007356643676758,-0.6832786202430725,-2.4630770683288574,0.27591270208358765,0
68,0.3350231647491455,-0.3514034152030945,-19.792627334594727,-0.4466826617717743,19.983552932739258,0.6658836007118225,2.4694857597351074,-0.22830526530742645,0.0,0.0,0.0,0.0,0.0,0.0,0.0,-0.3343787802408317,-0.04771721763846096,-0.23903110752456103,0.21740310941439897,0.09687680971828988,0.09746949542127836,-0.2432862960046034,1.2134611442256389,-0.22013074333341687,-0.007511445596550245,-2.603893733375951,-0.1088860798816622,2.468183550096158,0.8264731216703934,1.2134413937687574,-0.2202432315892585,-0.0075118285948192216,-2.6038483821997875,-0.10888392708698907,2.4681821257803174,0.826474908251239,0.0005449235449722096,-0.0003672053593730179,-8.663315799531003e-05,-0.00012420508559349812,0.0007004725814606391,1.7449210765071765e-05,-0.0002889976463071154,0.0,0.0,0.0,0.0,0.0,0.0,0.0,-1.9750456881517664e-05,-0.00011248825584161959,-3.8299826897632283e-07,4.535117616333295e-05,2.1527946731242364e-06,-1.4243158408255852e-06,1.786580845597463e-06,-0.0005449235449722096,0.0003672053593730179,8.663315799531003e-05,0.00012420508559349812,-0.0007004725814606391,-1.7449210765071765e-05,0.0002889976463071154,0.3514034152030945,19.792627334594727,0.4466826617717743,-19.983552932739258,-0.6658836007118225,-2.4694857597351074,0.22830526530742645,0
69,0.3400230407714844,-0.3514034152030945,-19.792627334594727,-0.4466826617717743,19.983552932739258,0.6658836007118225,2.4694857597351074,-0.22830526530742645,0.0,0.0,0.0,0.0,0.0,0.0,0.0,-0.3343787802408317,-0.04771721763846096,-0.23903110752456103,0.21740310941439897,0.09687680971828988,0.09746949542127836,-0.2432862960046034,1.2134611442256389,-0.22013074333341687,-0.007511445596550245,-2.603893733375951,-0.1088860798816622,2.468183550096158,0.8264731216703934,1.2134413937687574,-0.2202432315892585,-0.0075118285948192216,-2.6038483821997875,-0.10888392708698907,2.4681821257803174,0.826474908251239,0.0005449235449722096,-0.0003672053593730179,-8.663315799531003e-05,-0.00012420508559349812,0.0007004725814606391,1.7449210765071765e-05,-0.0002889976463071154,0.0,0.0,0.0,0.0,0.0,0.0,0.0,-1.9750456881517664e-05,-0.00011248825584161959,-3.8299826897632283e-07,4.535117616333295e-05,2.1527946731242364e-06,-1.4243158408255852e-06,1.786580845597463e-06,-0.0005449235449722096,0.0003672053593730179,8.663315799531003e-05,0.00012420508559349812,-0.0007004725814606391,-1.7449210765071765e-05,0.0002889976463071154,0.3514034152030945,19.792627334594727,0.4466826617717743,-19.983552932739258,-0.6658836007118225,-2.4694857597351074,0.22830526530742645,0
70,0.34502100944519043,-0.3752071261405945,-19.768823623657227,-0.4704863727092743,19.983552932739258,0.6896873116493225,2.4694857597351074,-0.24844686686992645,0.0,0.0,0.0,0.0,0.0,0.0,0.0,-0.3359327249589253,-0.04162140090228805,-0.24157857961232834,0.21408963204515663,0.09648919958727872,0.09703197753516837,-0.24202183328808974,1.2134628146614943,-0.22013470943628882,-0.007509135121298475,-2.603893733375951,-0.108888606449636,2.4681835630159163,0.8264784991220219,1.2134413937687574,-0.2202432315892585,-0.0075118285948192216,-2.6038483821997875,-0.10888392708698907,2.4681821257803174,0.826474908251239,0.0007149183371180036,-0.00038377962547761333,0.00043101827296712435,0.00018561078431869864,-0.0003026236337017648,-0.00012001929265606987,0.00028525899194521204,0.0,0.0,0.0,0.0,0.0,0.0,0.0,-2.142089273693415e-05,-0.0001085221529696645,-2.6934735207467114e-06,4.535117616333295e-05,4.679362646919927e-06,-1.437235598977793e-06,-3.5908707828324893e-06,-0.0007149183371180036,0.00038377962547761333,-0.00043101827296712435,-0.00018561078431869864,0.0003026236337017648,0.00012001929265606987,-0.00028525899194521204,0.3752071261405945,19.768823623657227,0.4704863727092743,-19.983552932739258,-0.6896873116493225,-2.4694857597351074,0.24844686686992645,0
71,0.35001277923583984,-0.3752071261405945,-19.768823623657227,-0.4704863727092743,19.983552932739258,0.6896873116493225,2.4694857597351074,-0.24844686686992645,0.0,0.0,0.0,0.0,0.0,0.0,0.0,-0.3359327249589253,-0.04162140090228805,-0.24157857961232834,0.21408963204515663,0.09648919958727872,0.09703197753516837,-0.24202183328808974,1.2134628146614943,-0.22013470943628882,-0.007509135121298475,-2.603893733375951,-0.108888606449636,2.4681835630159163,0.8264784991220219,1.2134413937687574,-0.2202432315892585,-0.0075118285948192216,-2.6038483821997875,-0.10888392708698907,2.4681821257803174,0.826474908251239,0.0007149183371180036,-0.00038377962547761333,0.00043101827296712435,0.00018561078431869864,-0.0003026236337017648,-0.00012001929265606987,0.00028525899194521204,0.0,0.0,0.0,0.0,0.0,0.0,0.0,-2.142089273693415e-05,-0.0001085221529696645,-2.6934735207467114e-06,4.535117616333295e-05,4.679362646919927e-06,-1.437235598977793e-06,-3.5908707828324893e-06,-0.0007149183371180036,0.00038377962547761333,-0.00043101827296712435,-0.00018561078431869864,0.0003026236337017648,0.00012001929265606987,-0.00028525899194521204,0.3752071261405945,19.768823623657227,0.4704863727092743,-19.983552932739258,-0.6896873116493225,-2.4694857597351074,0.24844686686992645,0
72,0.3550221920013428,-0.3752071261405945,-19.792627334594727,-0.4466826617717743,20.007356643676758,0.6832786202430725,2.4694857597351074,-0.24112264811992645,0.0,0.0,0.0,0.0,0.0,0.0,0.0,-0.33175385743226143,-0.04473276219382157,-0.23721451970835986,0.21402573054568153,0.0962448438624309,0.096717241176277,-0.2425237811336249,1.2134628146614943,-0.22013076844509688,-0.007510726644073665,-2.6038954038118063,-0.10888789437214534,2.468183549934037,0.8264738146410265,1.2134413937687574,-0.2202432315892585,-0.0075118285948192216,-2.6038483821997875,-0.10888392708698907,2.4681821257803174,0.826474908251239,0.0007004241799996372,0.00011188739316809293,0.00046466004219888055,-0.0004955169922326399,-0.00019581345642818515,-0.0002037510260261443,-0.0003820332194207011,0.0,0.0,0.0,0.0,0.0,0.0,0.0,-2.142089273693415e-05,-0.00011246314416160641,-1.101950745556815e-06,4.702161201874944e-05,3.9672851562672085e-06,-1.4241537198422805e-06,1.0936102124992075e-06,-0.0007004241799996372,-0.00011188739316809293,-0.00046466004219888055,0.0004955169922326399,0.00019581345642818515,0.0002037510260261443,0.0003820332194207011,0.3752071261405945,19.792627334594727,0.4466826617717743,-20.007356643676758,-0.6832786202430725,-2.4694857597351074,0.24112264811992645,0
73,0.36002182960510254,-0.3752071261405945,-19.792627334594727,-0.4466826617717743,20.007356643676758,0.6832786202430725,2.4694857597351074,-0.24112264811992645,0.0,0.0,0.0,0.0,0.0,0.0,0.0,-0.33175385743226143,-0.04473276219382157,-0.23721451970835986,0.21402573054568153,0.0962448438624309,0.096717241176277,-0.2425237811336249,1.2134628146614943,-0.22013076844509688,-0.007510726644073665,-2.6038954038118063,-0.10888789437214534,2.468183549934037,0.8264738146410265,1.2134413937687574,-0.2202432315892585,-0.0075118285948192216,-2.6038483821997875,-0.10888392708698907,2.4681821257803174,0.826474908251239,0.0007004241799996372,0.00011188739316809293,0.00046466004219888055,-0.0004955169922326399,-0.00019581345642818515,-0.0002037510260261443,-0.0003820332194207011,0.0,0.0,0.0,0.0,0.0,0.0,0.0,-2.142089273693415e-05,-0.00011246314416160641,-1.101950745556815e-06,4.702161201874944e-05,3.9672851562672085e-06,-1.4241537198422805e-06,1.0936102124992075e-06,-0.0007004241799996372,-0.00011188739316809293,-0.00046466004219888055,0.0004955169922326399,0.00019581345642818515,0.0002037510260261443,0.0003820332194207011,0.3752071261405945,19.792627334594727,0.4466826617717743,-20.007356643676758,-0.6832786202430725,-2.4694857597351074,0.24112264811992645,0
74,0.3650248050689697,-0.3236324191093445,-19.792627334594727,-0.4466826617717743,20.007356643676758,0.6777854561805725,2.4694857597351074,-0.21457235515117645,0.0,0.0,0.0,0.0,0.0,0.0,0.0,-0.3320366429792932,-0.054721217782572454,-0.23392105573275293,0.22020619397230698,0.09582039957584684,0.09745034465153532,-0.24352223568461903,1.2134591953838079,-0.2201314549487713,-0.007510752982865022,-2.6038954038118063,-0.10888728402058283,2.4681836676715334,0.8264718325434177,1.2134413937687574,-0.2202432315892585,-0.0075118285948192216,-2.6038483821997875,-0.10888392708698907,2.4681821257803174,0.826474908251239,-2.9979346322056643e-05,-0.0006998346400622135,0.0004332238752407806,-0.00011433949759811617,0.00013611130893460935,4.7027556328289174e-07,-0.0014132786817824935,0.0,0.0,0.0,0.0,0.0,0.0,0.0,-1.780161505049449e-05,-0.00011177664048719893,-1.0756119541996748e-06,4.702161201874944e-05,3.3569335937538858e-06,-1.541891216039204e-06,3.0757078213206057e-06,2.9979346322056643e-05,0.0006998346400622135,-0.0004332238752407806,0.00011433949759811617,-0.00013611130893460935,-4.7027556328289174e-07,0.0014132786817824935,0.3236324191093445,19.792627334594727,0.4466826617717743,-20.007356643676758,-0.6777854561805725,-2.4694857597351074,0.21457235515117645,0
75,0.37000417709350586,-0.3236324191093445,-19.792627334594727,-0.4466826617717743,20.007356643676758,0.6777854561805725,2.4694857597351074,-0.21457235515117645,0.0,0.0,0.0,0.0,0.0,0.0,0.0,-0.3320366429792932,-0.054721217782572454,-0.23392105573275293,0.22020619397230698,0.09582039957584684,0.09745034465153532,-0.24352223568461903,1.2134591953838079,-0.2201314549487713,-0.007510752982865022,-2.6038954038118063,-0.10888728402058283,2.4681836676715334,0.8264718325434177,1.2134413937687574,-0.2202432315892585,-0.0075118285948192216,-2.6038483821997875,-0.10888392708698907,2.4681821257803174,0.826474908251239,-2.9979346322056643e-05,-0.0006998346400622135,0.0004332238752407806,-0.00011433949759811617,0.00013611130893460935,4.7027556328289174e-07,-0.0014132786817824935,0.0,0.0,0.0,0.0,0.0,0.0,0.0,-1.780161505049449e-05,-0.00011177664048719893,-1.0756119541996748e-06,4.702161201874944e-05,3.3569335937538858e-06,-1.541891216039204e-06,3.0757078213206057e-06,2.9979346322056643e-05,0.0006998346400622135,-0.0004332238752407806,0.00011433949759811617,-0.00013611130893460935,-4.7027556328289174e-07,0.0014132786817824935,0.3236324191093445,19.792627334594727,0.4466826617717743,-20.007356643676758,-0.6777854561805725,-2.4694857597351074,0.21457235515117645,0
76,0.37502479553222656,-0.3236324191093445,-19.745019912719727,-0.4466826617717743,20.031160354614258,0.6777854561805725,2.4630770683288574,-0.26217979192733765,0.0,0.0,0.0,0.0,0.0,0.0,0.0,-0.3417748779755399,-0.041615079701262866,-0.24406653873727258,0.21057533155658226,0.09583976695209973,0.09525391706028741,-0.24370026986691354,1.2134591953838079,-0.2201340047750592,-0.007511436828980168,-2.6038970742476613,-0.10888728402058283,2.4681842620114507,0.8264770945927893,1.2134413937687574,-0.2202432315892585,-0.0075118285948192216,-2.6038483821997875,-0.10888392708698907,2.4681821257803174,0.826474908251239,-0.0007060481490252695,-0.0010297692411669207,-0.0003505886570103259,-0.0010808481367074678,-7.489995396349175e-05,0.00027470332011737586,0.0013246912840862216,0.0,0.0,0.0,0.0,0.0,0.0,0.0,-1.780161505049449e-05,-0.00010922681419928137,-3.917658390533915e-07,4.869204787372183e-05,3.3569335937538858e-06,-2.1362311333206208e-06,-2.1863415502476613e-06,0.0007060481490252695,0.0010297692411669207,0.0003505886570103259,0.0010808481367074678,7.489995396349175e-05,-0.00027470332011737586,-0.0013246912840862216,0.3236324191093445,19.745019912719727,0.4466826617717743,-20.031160354614258,-0.6777854561805725,-2.4630770683288574,0.26217979192733765,0
77,0.3800048828125,-0.3236324191093445,-19.745019912719727,-0.4466826617717743,20.031160354614258,0.6777854561805725,2.4630770683288574,-0.26217979192733765,0.0,0.0,0.0,0.0,0.0,0.0,0.0,-0.3417748779755399,-0.041615079701262866,-0.24406653873727258,0.21057533155658226,0.09583976695209973,0.09525391706028741,-0.24370026986691354,1.2134591953838079,-0.2201340047750592,-0.007511436828980168,-2.6038970742476613,-0.10888728402058283,2.4681842620114507,0.8264770945927893,1.2134413937687574,-0.2202432315892585,-0.0075118285948192216,-2.6038483821997875,-0.10888392708698907,2.4681821257803174,0.826474908251239,-0.0007060481490252695,-0.0010297692411669207,-0.0003505886570103259,-0.0010808481367074678,-7.489995396349175e-05,0.00027470332011737586,0.0013246912840862216,0.0,0.0,0.0,0.0,0.0,0.0,0.0,-1.780161505049449e-05,-0.00010922681419928137,-3.917658390533915e-07,4.869204787372183e-05,3.3569335937538858e-06,-2.1362311333206208e-06,-2.1863415502476613e-06,0.0007060481490252695,0.0010297692411669207,0.0003505886570103259,0.0010808481367074678,7.489995396349175e-05,-0.00027470332011737586,-0.0013246912840862216,0.3236324191093445,19.745019912719727,0.4466826617717743,-20.031160354614258,-0.6777854561805725,-2.4630770683288574,0.26217979192733765,0
78,0.3850257396697998,-0.3514034152030945,-19.816431045532227,-0.3990752398967743,19.955781936645508,0.6713767647743225,2.4758944511413574,-0.21457235515117645,0.0,0.0,0.0,0.0,0.0,0.0,0.0,-0.3336527585510118,-0.04689101568507344,-0.2363521504318854,0.21455144199994317,0.0953892815985589,0.09607946363476154,-0.24237556457307266,1.2134611442256389,-0.2201293356361582,-0.007514093822503416,-2.6038917848490555,-0.10888977014040041,2.4681828378571407,0.8264736731740185,1.2134413937687574,-0.2202432315892585,-0.0075118285948192216,-2.6038483821997875,-0.10888392708698907,2.4681821257803174,0.826474908251239,0.0003327541222263357,0.0009013007421022958,-0.0006885898493710355,0.000795178185963921,0.0003396234518787214,-0.00018816275647769244,-0.000770093537512541,0.0,0.0,0.0,0.0,0.0,0.0,0.0,-1.9750456881517664e-05,-0.00011389595310029588,2.2652276841948413e-06,4.3402649267942905e-05,5.843053411336285e-06,-7.120768232837804e-07,1.2350772204960947e-06,-0.0003327541222263357,-0.0009013007421022958,0.0006885898493710355,-0.000795178185963921,-0.0003396234518787214,0.00018816275647769244,0.000770093537512541,0.3514034152030945,19.816431045532227,0.3990752398967743,-19.955781936645508,-0.6713767647743225,-2.4758944511413574,0.21457235515117645,0
79,0.39002180099487305,-0.3514034152030945,-19.816431045532227,-0.3990752398967743,19.955781936645508,0.6713767647743225,2.4758944511413574,-0.21457235515117645,0.0,0.0,0.0,0.0,0.0,0.0,0.0,-0.3336527585510118,-0.04689101568507344,-0.2363521504318854,0.21455144199994317,0.0953892815985589,0.09607946363476154,-0.24237556457307266,1.2134611442256389,-0.2201293356361582,-0.007514093822503416,-2.6038917848490555,-0.10888977014040041,2.4681828378571407,0.8264736731740185,1.2134413937687574,-0.2202432315892585,-0.0075118285948192216,-2.6038483821997875,-0.10888392708698907,2.4681821257803174,0.826474908251239,0.0003327541222263357,0.0009013007421022958,-0.0006885898493710355,0.000795178185963921,0.0003396234518787214,-0.00018816275647769244,-0.000770093537512541,0.0,0.0,0.0,0.0,0.0,0.0,0.0,-1.9750456881517664e-05,-0.00011389595310029588,2.2652276841948413e-06,4.3402649267942905e-05,5.843053411336285e-06,-7.120768232837804e-07,1.2350772204960947e-06,-0.0003327541222263357,-0.0009013007421022958,0.0006885898493710355,-0.000795178185963921,-0.0003396234518787214,0.00018816275647769244,0.000770093537512541,0.3514034152030945,19.816431045532227,0.3990752398967743,-19.955781936645508,-0.6713767647743225,-2.4758944511413574,0.21457235515117645,0
