rezayati/contactInterpretation/dataset/franka_main/labeled_data/link3/e2_5.csv
index,time,tau_J0,tau_J1,tau_J2,tau_J3,tau_J4,tau_J5,tau_J6,tau_J_d0,tau_J_d1,tau_J_d2,tau_J_d3,tau_J_d4,tau_J_d5,tau_J_d6,tau_ext0,tau_ext1,tau_ext2,tau_ext3,tau_ext4,tau_ext5,tau_ext6,q0,q1,q2,q3,q4,q5,q6,q_d0,q_d1,q_d2,q_d3,q_d4,q_d5,q_d6,dq0,dq1,dq2,dq3,dq4,dq5,dq6,dq_d0,dq_d1,dq_d2,dq_d3,dq_d4,dq_d5,dq_d6,e0,e1,e2,e3,e4,e5,e6,de0,de1,de2,de3,de4,de5,de6,etau_J0,etau_J1,etau_J2,etau_J3,etau_J4,etau_J5,etau_J6,label
1,0.0,-0.8076412081718445,-46.54800033569336,-5.687466144561768,19.535249710083008,0.7730002999305725,2.3596224784851074,-0.19351522624492645,0.0,0.0,0.0,0.0,0.0,0.0,0.0,-0.8029055177300588,-0.1896922860792077,-0.5132625966404247,0.32530386714497145,0.18674768679251588,0.10213159588164862,-0.18936530972212767,0.8782988447330633,0.7557577024677342,-0.28248935165299627,-1.6690766690243297,0.1414047930982307,2.4035721626811557,1.0273476086990065,0.878092876070424,0.7554597494309409,-0.2825552651693207,-1.6690993614607135,0.1414185955172306,2.4034451173676383,1.0273381002308042,0.0009575161765755205,0.0004640903331904479,7.327644903236288e-05,-0.00044912455073763715,-0.0002018596676916019,0.0005236765931637073,0.0006218015910830016,0.0,0.0,0.0,0.0,0.0,0.0,0.0,-0.0002059686626393331,-0.0002979530367933636,-6.591351632445619e-05,-2.269243638375329e-05,1.3802418999897537e-05,-0.00012704531351737103,-9.508468202357179e-06,-0.0009575161765755205,-0.0004640903331904479,-7.327644903236288e-05,0.00044912455073763715,0.0002018596676916019,-0.0005236765931637073,-0.0006218015910830016,0.8076412081718445,46.54800033569336,5.687466144561768,-19.535249710083008,-0.7730002999305725,-2.3596224784851074,0.19351522624492645,0
2,0.0050048828125,-0.8076412081718445,-46.54800033569336,-5.687466144561768,19.535249710083008,0.7730002999305725,2.3596224784851074,-0.19351522624492645,0.0,0.0,0.0,0.0,0.0,0.0,0.0,-0.8029055177300588,-0.1896922860792077,-0.5132625966404247,0.32530386714497145,0.18674768679251588,0.10213159588164862,-0.18936530972212767,0.8782988447330633,0.7557577024677342,-0.28248935165299627,-1.6690766690243297,0.1414047930982307,2.4035721626811557,1.0273476086990065,0.878092876070424,0.7554597494309409,-0.2825552651693207,-1.6690993614607135,0.1414185955172306,2.4034451173676383,1.0273381002308042,0.0009575161765755205,0.0004640903331904479,7.327644903236288e-05,-0.00044912455073763715,-0.0002018596676916019,0.0005236765931637073,0.0006218015910830016,0.0,0.0,0.0,0.0,0.0,0.0,0.0,-0.0002059686626393331,-0.0002979530367933636,-6.591351632445619e-05,-2.269243638375329e-05,1.3802418999897537e-05,-0.00012704531351737103,-9.508468202357179e-06,-0.0009575161765755205,-0.0004640903331904479,-7.327644903236288e-05,0.00044912455073763715,0.0002018596676916019,-0.0005236765931637073,-0.0006218015910830016,0.8076412081718445,46.54800033569336,5.687466144561768,-19.535249710083008,-0.7730002999305725,-2.3596224784851074,0.19351522624492645,0
3,0.009998083114624023,-0.8076412081718445,-46.54800033569336,-5.687466144561768,19.535249710083008,0.7730002999305725,2.3596224784851074,-0.19351522624492645,0.0,0.0,0.0,0.0,0.0,0.0,0.0,-0.8029055177300588,-0.1896922860792077,-0.5132625966404247,0.32530386714497145,0.18674768679251588,0.10213159588164862,-0.18936530972212767,0.8782988447330633,0.7557577024677342,-0.28248935165299627,-1.6690766690243297,0.1414047930982307,2.4035721626811557,1.0273476086990065,0.878092876070424,0.7554597494309409,-0.2825552651693207,-1.6690993614607135,0.1414185955172306,2.4034451173676383,1.0273381002308042,0.0009575161765755205,0.0004640903331904479,7.327644903236288e-05,-0.00044912455073763715,-0.0002018596676916019,0.0005236765931637073,0.0006218015910830016,0.0,0.0,0.0,0.0,0.0,0.0,0.0,-0.0002059686626393331,-0.0002979530367933636,-6.591351632445619e-05,-2.269243638375329e-05,1.3802418999897537e-05,-0.00012704531351737103,-9.508468202357179e-06,-0.0009575161765755205,-0.0004640903331904479,-7.327644903236288e-05,0.00044912455073763715,0.0002018596676916019,-0.0005236765931637073,-0.0006218015910830016,0.8076412081718445,46.54800033569336,5.687466144561768,-19.535249710083008,-0.7730002999305725,-2.3596224784851074,0.19351522624492645,0
4,0.014998674392700195,-0.8076412081718445,-46.54800033569336,-5.687466144561768,19.535249710083008,0.7730002999305725,2.3596224784851074,-0.19351522624492645,0.0,0.0,0.0,0.0,0.0,0.0,0.0,-0.8029055177300588,-0.1896922860792077,-0.5132625966404247,0.32530386714497145,0.18674768679251588,0.10213159588164862,-0.18936530972212767,0.8782988447330633,0.7557577024677342,-0.28248935165299627,-1.6690766690243297,0.1414047930982307,2.4035721626811557,1.0273476086990065,0.878092876070424,0.7554597494309409,-0.2825552651693207,-1.6690993614607135,0.1414185955172306,2.4034451173676383,1.0273381002308042,0.0009575161765755205,0.0004640903331904479,7.327644903236288e-05,-0.00044912455073763715,-0.0002018596676916019,0.0005236765931637073,0.0006218015910830016,0.0,0.0,0.0,0.0,0.0,0.0,0.0,-0.0002059686626393331,-0.0002979530367933636,-6.591351632445619e-05,-2.269243638375329e-05,1.3802418999897537e-05,-0.00012704531351737103,-9.508468202357179e-06,-0.0009575161765755205,-0.0004640903331904479,-7.327644903236288e-05,0.00044912455073763715,0.0002018596676916019,-0.0005236765931637073,-0.0006218015910830016,0.8076412081718445,46.54800033569336,5.687466144561768,-19.535249710083008,-0.7730002999305725,-2.3596224784851074,0.19351522624492645,0
5,0.01999664306640625,-0.7838374972343445,-46.50039291381836,-5.735073566436768,19.535249710083008,0.7730002999305725,2.3724398612976074,-0.19351522624492645,0.0,0.0,0.0,0.0,0.0,0.0,0.0,-0.8036129047276189,-0.1930189903031354,-0.5184303514537338,0.32588681167208045,0.18722296775506989,0.10282479369273985,-0.18853578283606834,0.8782949665754741,0.7557543615960237,-0.2824860107773229,-1.6690766718581709,0.14140613211125924,2.40357073852751,1.0273476087169515,0.878092876070424,0.7554597494309409,-0.2825552651693207,-1.6690993614607135,0.1414185955172306,2.4034451173676383,1.0273381002308042,8.953720183363625e-05,-0.0006897702663658737,0.0015138986481572222,-4.680785811999981e-07,-5.716807914680974e-05,-0.00019335878928389218,0.00032905708465107413,0.0,0.0,0.0,0.0,0.0,0.0,0.0,-0.00020209050505015647,-0.0002946121650828637,-6.925439199784167e-05,-2.2689602542591558e-05,1.2463405971357977e-05,-0.00012562115987169165,-9.508486147336015e-06,-8.953720183363625e-05,0.0006897702663658737,-0.0015138986481572222,4.680785811999981e-07,5.716807914680974e-05,0.00019335878928389218,-0.00032905708465107413,0.7838374972343445,46.50039291381836,5.735073566436768,-19.535249710083008,-0.7730002999305725,-2.3724398612976074,0.19351522624492645,0
6,0.025002241134643555,-0.7838374972343445,-46.50039291381836,-5.735073566436768,19.535249710083008,0.7730002999305725,2.3724398612976074,-0.19351522624492645,0.0,0.0,0.0,0.0,0.0,0.0,0.0,-0.8036129047276189,-0.1930189903031354,-0.5184303514537338,0.32588681167208045,0.18722296775506989,0.10282479369273985,-0.18853578283606834,0.8782949665754741,0.7557543615960237,-0.2824860107773229,-1.6690766718581709,0.14140613211125924,2.40357073852751,1.0273476087169515,0.878092876070424,0.7554597494309409,-0.2825552651693207,-1.6690993614607135,0.1414185955172306,2.4034451173676383,1.0273381002308042,8.953720183363625e-05,-0.0006897702663658737,0.0015138986481572222,-4.680785811999981e-07,-5.716807914680974e-05,-0.00019335878928389218,0.00032905708465107413,0.0,0.0,0.0,0.0,0.0,0.0,0.0,-0.00020209050505015647,-0.0002946121650828637,-6.925439199784167e-05,-2.2689602542591558e-05,1.2463405971357977e-05,-0.00012562115987169165,-9.508486147336015e-06,-8.953720183363625e-05,0.0006897702663658737,-0.0015138986481572222,4.680785811999981e-07,5.716807914680974e-05,0.00019335878928389218,-0.00032905708465107413,0.7838374972343445,46.50039291381836,5.735073566436768,-19.535249710083008,-0.7730002999305725,-2.3724398612976074,0.19351522624492645,0
7,0.03077530860900879,-0.7838374972343445,-46.54800033569336,-5.635891437530518,19.535249710083008,0.7665916085243225,2.3724398612976074,-0.17337362468242645,0.0,0.0,0.0,0.0,0.0,0.0,0.0,-0.7995747620627363,-0.17924468616669154,-0.5163510650196694,0.31873188785611933,0.1872394849922369,0.1020089630918361,-0.18746702810729354,0.8782974388702862,0.7557577024677342,-0.2824929709267198,-1.6690766699685715,0.14140579588107177,2.40357073852751,1.0273453707612223,0.878092876070424,0.7554597494309409,-0.2825552651693207,-1.6690993614607135,0.1414185955172306,2.4034451173676383,1.0273381002308042,0.0003678441731509113,0.0011274696873129664,-0.0013001459877543433,-0.00046107803239051005,5.67540980733929e-05,-3.4392980879082024e-05,-0.0006711857373881769,0.0,0.0,0.0,0.0,0.0,0.0,0.0,-0.00020456279986225123,-0.0002979530367933636,-6.22942426009021e-05,-2.2691492141957426e-05,1.2799636158827843e-05,-0.00012562115987169165,-7.270530418157506e-06,-0.0003678441731509113,-0.0011274696873129664,0.0013001459877543433,0.00046107803239051005,-5.67540980733929e-05,3.4392980879082024e-05,0.0006711857373881769,0.7838374972343445,46.54800033569336,5.635891437530518,-19.535249710083008,-0.7665916085243225,-2.3724398612976074,0.17337362468242645,0
8,0.03499913215637207,-0.7838374972343445,-46.54800033569336,-5.635891437530518,19.535249710083008,0.7665916085243225,2.3724398612976074,-0.17337362468242645,0.0,0.0,0.0,0.0,0.0,0.0,0.0,-0.7995747620627363,-0.17924468616669154,-0.5163510650196694,0.31873188785611933,0.1872394849922369,0.1020089630918361,-0.18746702810729354,0.8782974388702862,0.7557577024677342,-0.2824929709267198,-1.6690766699685715,0.14140579588107177,2.40357073852751,1.0273453707612223,0.878092876070424,0.7554597494309409,-0.2825552651693207,-1.6690993614607135,0.1414185955172306,2.4034451173676383,1.0273381002308042,0.0003678441731509113,0.0011274696873129664,-0.0013001459877543433,-0.00046107803239051005,5.67540980733929e-05,-3.4392980879082024e-05,-0.0006711857373881769,0.0,0.0,0.0,0.0,0.0,0.0,0.0,-0.00020456279986225123,-0.0002979530367933636,-6.22942426009021e-05,-2.2691492141957426e-05,1.2799636158827843e-05,-0.00012562115987169165,-7.270530418157506e-06,-0.0003678441731509113,-0.0011274696873129664,0.0013001459877543433,0.00046107803239051005,-5.67540980733929e-05,3.4392980879082024e-05,0.0006711857373881769,0.7838374972343445,46.54800033569336,5.635891437530518,-19.535249710083008,-0.7665916085243225,-2.3724398612976074,0.17337362468242645,0
9,0.04019474983215332,-0.7560665011405945,-46.47658920288086,-5.663662433624268,19.535249710083008,0.7730002999305725,2.3724398612976074,-0.17978231608867645,0.0,0.0,0.0,0.0,0.0,0.0,0.0,-0.790643810368168,-0.1912647628916701,-0.5128463336108741,0.32675235027687155,0.18726728207216006,0.10336659223219116,-0.18757314034978215,0.8782947486227695,0.7557526911601684,-0.28249102208488863,-1.6690766691287318,0.14140479493398792,2.40357073852751,1.0273460828380452,0.878092876070424,0.7554597494309409,-0.2825552651693207,-1.6690993614607135,0.1414185955172306,2.4034451173676383,1.0273381002308042,-0.0006181630092627184,-0.0010095929917636876,-0.000250031072243524,-0.00022386288650702213,-9.852351004956258e-05,8.546776583344e-06,0.00020129897721734322,0.0,0.0,0.0,0.0,0.0,0.0,0.0,-0.0002018725523454945,-0.00029294172922755823,-6.424308443209181e-05,-2.2692331981710723e-05,1.3800583242684628e-05,-0.00012562115987169165,-7.982607240997197e-06,0.0006181630092627184,0.0010095929917636876,0.000250031072243524,0.00022386288650702213,9.852351004956258e-05,-8.546776583344e-06,-0.00020129897721734322,0.7560665011405945,46.47658920288086,5.663662433624268,-19.535249710083008,-0.7730002999305725,-2.3724398612976074,0.17978231608867645,0
10,0.044998884201049805,-0.7560665011405945,-46.47658920288086,-5.663662433624268,19.535249710083008,0.7730002999305725,2.3724398612976074,-0.17978231608867645,0.0,0.0,0.0,0.0,0.0,0.0,0.0,-0.790643810368168,-0.1912647628916701,-0.5128463336108741,0.32675235027687155,0.18726728207216006,0.10336659223219116,-0.18757314034978215,0.8782947486227695,0.7557526911601684,-0.28249102208488863,-1.6690766691287318,0.14140479493398792,2.40357073852751,1.0273460828380452,0.878092876070424,0.7554597494309409,-0.2825552651693207,-1.6690993614607135,0.1414185955172306,2.4034451173676383,1.0273381002308042,-0.0006181630092627184,-0.0010095929917636876,-0.000250031072243524,-0.00022386288650702213,-9.852351004956258e-05,8.546776583344e-06,0.00020129897721734322,0.0,0.0,0.0,0.0,0.0,0.0,0.0,-0.0002018725523454945,-0.00029294172922755823,-6.424308443209181e-05,-2.2692331981710723e-05,1.3800583242684628e-05,-0.00012562115987169165,-7.982607240997197e-06,0.0006181630092627184,0.0010095929917636876,0.000250031072243524,0.00022386288650702213,9.852351004956258e-05,-8.546776583344e-06,-0.00020129897721734322,0.7560665011405945,46.47658920288086,5.663662433624268,-19.535249710083008,-0.7730002999305725,-2.3724398612976074,0.17978231608867645,0
11,0.04999685287475586,-0.8076412081718445,-46.50039291381836,-5.663662433624268,19.511445999145508,0.7610984444618225,2.3788485527038574,-0.18710653483867645,0.0,0.0,0.0,0.0,0.0,0.0,0.0,-0.7926072452224996,-0.1911298414664951,-0.5137128054795689,0.32585430932613685,0.18701657029811272,0.10422009869918941,-0.18691464160892907,0.878299020350263,0.7557543615960237,-0.28249102208488863,-1.6690750240977013,0.14140639677584171,2.403570026450687,1.0273468966401285,0.878092876070424,0.7554597494309409,-0.2825552651693207,-1.6690993614607135,0.1414185955172306,2.4034451173676383,1.0273381002308042,0.0007191168778540015,-0.0005142340497913903,-0.000249469364548771,0.00024305236303424126,0.0003800337995894807,-0.00031686097345614645,-0.0002991783823681085,0.0,0.0,0.0,0.0,0.0,0.0,0.0,-0.00020614427983900452,-0.0002946121650828637,-6.424308443209181e-05,-2.4337363012216784e-05,1.219874138888577e-05,-0.00012490908304885195,-8.796409324274279e-06,-0.0007191168778540015,0.0005142340497913903,0.000249469364548771,-0.00024305236303424126,-0.0003800337995894807,0.00031686097345614645,0.0002991783823681085,0.8076412081718445,46.50039291381836,5.663662433624268,-19.511445999145508,-0.7610984444618225,-2.3788485527038574,0.18710653483867645,0
12,0.05526304244995117,-0.8076412081718445,-46.50039291381836,-5.663662433624268,19.511445999145508,0.7610984444618225,2.3788485527038574,-0.18710653483867645,0.0,0.0,0.0,0.0,0.0,0.0,0.0,-0.7926072452224996,-0.1911298414664951,-0.5137128054795689,0.32585430932613685,0.18701657029811272,0.10422009869918941,-0.18691464160892907,0.878299020350263,0.7557543615960237,-0.28249102208488863,-1.6690750240977013,0.14140639677584171,2.403570026450687,1.0273468966401285,0.878092876070424,0.7554597494309409,-0.2825552651693207,-1.6690993614607135,0.1414185955172306,2.4034451173676383,1.0273381002308042,0.0007191168778540015,-0.0005142340497913903,-0.000249469364548771,0.00024305236303424126,0.0003800337995894807,-0.00031686097345614645,-0.0002991783823681085,0.0,0.0,0.0,0.0,0.0,0.0,0.0,-0.00020614427983900452,-0.0002946121650828637,-6.424308443209181e-05,-2.4337363012216784e-05,1.219874138888577e-05,-0.00012490908304885195,-8.796409324274279e-06,-0.0007191168778540015,0.0005142340497913903,0.000249469364548771,-0.00024305236303424126,-0.0003800337995894807,0.00031686097345614645,0.0002991783823681085,0.8076412081718445,46.50039291381836,5.663662433624268,-19.511445999145508,-0.7610984444618225,-2.3788485527038574,0.18710653483867645,0
13,0.059995412826538086,-0.8076412081718445,-46.54800033569336,-5.663662433624268,19.535249710083008,0.7665916085243225,2.3788485527038574,-0.18710653483867645,0.0,0.0,0.0,0.0,0.0,0.0,0.0,-0.7958697196839021,-0.19201129298518035,-0.5142477793631555,0.3241696884448439,0.18683290701128452,0.10501380519821728,-0.18869999890888325,0.8782991083387852,0.7557577024677342,-0.28249102208488863,-1.6690766721731547,0.14140644990912912,2.403570026450687,1.0273468966401285,0.878092876070424,0.7554597494309409,-0.2825552651693207,-1.6690993614607135,0.1414185955172306,2.4034451173676383,1.0273381002308042,0.00018837100390998594,0.0009064167901977617,-0.0004721798566435468,-0.0004551948701328061,0.00015672734943108254,-0.0002306897907776438,0.00034090770463532453,0.0,0.0,0.0,0.0,0.0,0.0,0.0,-0.00020623226836125053,-0.0002979530367933636,-6.424308443209181e-05,-2.268928755877475e-05,1.2145608101477023e-05,-0.00012490908304885195,-8.796409324274279e-06,-0.00018837100390998594,-0.0009064167901977617,0.0004721798566435468,0.0004551948701328061,-0.00015672734943108254,0.0002306897907776438,-0.00034090770463532453,0.8076412081718445,46.54800033569336,5.663662433624268,-19.535249710083008,-0.7665916085243225,-2.3788485527038574,0.18710653483867645,0
14,0.06495881080627441,-0.8076412081718445,-46.54800033569336,-5.663662433624268,19.535249710083008,0.7665916085243225,2.3788485527038574,-0.18710653483867645,0.0,0.0,0.0,0.0,0.0,0.0,0.0,-0.7958697196839021,-0.19201129298518035,-0.5142477793631555,0.3241696884448439,0.18683290701128452,0.10501380519821728,-0.18869999890888325,0.8782991083387852,0.7557577024677342,-0.28249102208488863,-1.6690766721731547,0.14140644990912912,2.403570026450687,1.0273468966401285,0.878092876070424,0.7554597494309409,-0.2825552651693207,-1.6690993614607135,0.1414185955172306,2.4034451173676383,1.0273381002308042,0.00018837100390998594,0.0009064167901977617,-0.0004721798566435468,-0.0004551948701328061,0.00015672734943108254,-0.0002306897907776438,0.00034090770463532453,0.0,0.0,0.0,0.0,0.0,0.0,0.0,-0.00020623226836125053,-0.0002979530367933636,-6.424308443209181e-05,-2.268928755877475e-05,1.2145608101477023e-05,-0.00012490908304885195,-8.796409324274279e-06,-0.00018837100390998594,-0.0009064167901977617,0.0004721798566435468,0.0004551948701328061,-0.00015672734943108254,0.0002306897907776438,-0.00034090770463532453,0.8076412081718445,46.54800033569336,5.663662433624268,-19.535249710083008,-0.7665916085243225,-2.3788485527038574,0.18710653483867645,0
15,0.0700066089630127,-0.8076412081718445,-46.52419662475586,-5.663662433624268,19.586824417114258,0.7665916085243225,2.3788485527038574,-0.22830526530742645,0.0,0.0,0.0,0.0,0.0,0.0,0.0,-0.7971332944195167,-0.1738864825361649,-0.5101389724412948,0.3098651783858544,0.18625431052793376,0.10269484011319369,-0.18846705305960215,0.8782983943914037,0.755756032031879,-0.28249102208488863,-1.669080296804721,0.1414087332333714,2.403570026450687,1.0273514742768473,0.878092876070424,0.7554597494309409,-0.2825552651693207,-1.6690993614607135,0.1414185955172306,2.4034451173676383,1.0273381002308042,9.057138717135761e-05,0.00017566787413179466,-0.0007275256116803866,-0.0015449891499071636,0.00017158257705182387,0.0015886643040337464,0.0017993286046653664,0.0,0.0,0.0,0.0,0.0,0.0,0.0,-0.0002055183209797029,-0.00029628260093816916,-6.424308443209181e-05,-1.9064655992551138e-05,9.862283859213283e-06,-0.00012490908304885195,-1.3374046043068688e-05,-9.057138717135761e-05,-0.00017566787413179466,0.0007275256116803866,0.0015449891499071636,-0.00017158257705182387,-0.0015886643040337464,-0.0017993286046653664,0.8076412081718445,46.52419662475586,5.663662433624268,-19.586824417114258,-0.7665916085243225,-2.3788485527038574,0.22830526530742645,0
16,0.07500123977661133,-0.8076412081718445,-46.52419662475586,-5.663662433624268,19.586824417114258,0.7665916085243225,2.3788485527038574,-0.22830526530742645,0.0,0.0,0.0,0.0,0.0,0.0,0.0,-0.7971332944195167,-0.1738864825361649,-0.5101389724412948,0.3098651783858544,0.18625431052793376,0.10269484011319369,-0.18846705305960215,0.8782983943914037,0.755756032031879,-0.28249102208488863,-1.669080296804721,0.1414087332333714,2.403570026450687,1.0273514742768473,0.878092876070424,0.7554597494309409,-0.2825552651693207,-1.6690993614607135,0.1414185955172306,2.4034451173676383,1.0273381002308042,9.057138717135761e-05,0.00017566787413179466,-0.0007275256116803866,-0.0015449891499071636,0.00017158257705182387,0.0015886643040337464,0.0017993286046653664,0.0,0.0,0.0,0.0,0.0,0.0,0.0,-0.0002055183209797029,-0.00029628260093816916,-6.424308443209181e-05,-1.9064655992551138e-05,9.862283859213283e-06,-0.00012490908304885195,-1.3374046043068688e-05,-9.057138717135761e-05,-0.00017566787413179466,0.0007275256116803866,0.0015449891499071636,-0.00017158257705182387,-0.0015886643040337464,-0.0017993286046653664,0.8076412081718445,46.52419662475586,5.663662433624268,-19.586824417114258,-0.7665916085243225,-2.3788485527038574,0.22830526530742645,0
17,0.07994794845581055,-0.8354122042655945,-46.50039291381836,-5.663662433624268,19.511445999145508,0.7730002999305725,2.3788485527038574,-0.22098104655742645,0.0,0.0,0.0,0.0,0.0,0.0,0.0,-0.7854615945189058,-0.19389468175643246,-0.5018144386058445,0.3255421906636268,0.1859336179475074,0.10666277706217557,-0.1890106867649871,0.8783010290505494,0.7557543615960237,-0.28249102208488863,-1.6690749986229336,0.14140579044978469,2.403570026450687,1.027350660474764,0.878092876070424,0.7554597494309409,-0.2825552651693207,-1.6690993614607135,0.1414185955172306,2.4034451173676383,1.0273381002308042,0.0011658944820265695,-0.0008988536035609191,-0.0004099069716017099,0.00029181464733659464,0.00012318894383731008,-0.0003941944490509767,0.001241373123207471,0.0,0.0,0.0,0.0,0.0,0.0,0.0,-0.00020815298012544226,-0.0002946121650828637,-6.424308443209181e-05,-2.4362837779845492e-05,1.2805067445914586e-05,-0.00012490908304885195,-1.2560243959791606e-05,-0.0011658944820265695,0.0008988536035609191,0.0004099069716017099,-0.00029181464733659464,-0.00012318894383731008,0.0003941944490509767,-0.001241373123207471,0.8354122042655945,46.50039291381836,5.663662433624268,-19.511445999145508,-0.7730002999305725,-2.3788485527038574,0.22098104655742645,0
18,0.08499383926391602,-0.8354122042655945,-46.50039291381836,-5.663662433624268,19.511445999145508,0.7730002999305725,2.3788485527038574,-0.22098104655742645,0.0,0.0,0.0,0.0,0.0,0.0,0.0,-0.7854615945189058,-0.19389468175643246,-0.5018144386058445,0.3255421906636268,0.1859336179475074,0.10666277706217557,-0.1890106867649871,0.8783010290505494,0.7557543615960237,-0.28249102208488863,-1.6690749986229336,0.14140579044978469,2.403570026450687,1.027350660474764,0.878092876070424,0.7554597494309409,-0.2825552651693207,-1.6690993614607135,0.1414185955172306,2.4034451173676383,1.0273381002308042,0.0011658944820265695,-0.0008988536035609191,-0.0004099069716017099,0.00029181464733659464,0.00012318894383731008,-0.0003941944490509767,0.001241373123207471,0.0,0.0,0.0,0.0,0.0,0.0,0.0,-0.00020815298012544226,-0.0002946121650828637,-6.424308443209181e-05,-2.4362837779845492e-05,1.2805067445914586e-05,-0.00012490908304885195,-1.2560243959791606e-05,-0.0011658944820265695,0.0008988536035609191,0.0004099069716017099,-0.00029181464733659464,-0.00012318894383731008,0.0003941944490509767,-0.001241373123207471,0.8354122042655945,46.50039291381836,5.663662433624268,-19.511445999145508,-0.7730002999305725,-2.3788485527038574,0.22098104655742645,0
19,0.089996337890625,-0.7560665011405945,-46.52419662475586,-5.687466144561768,19.487642288208008,0.7665916085243225,2.3660311698913574,-0.15964071452617645,0.0,0.0,0.0,0.0,0.0,0.0,0.0,-0.8743012584172365,-0.1983186921565065,-0.569973890397799,0.32290215195377003,0.18778388939031282,0.10703991985508318,-0.1900594202547527,0.8782954814299618,0.755756032031879,-0.2824893516490334,-1.669074249339506,0.14140873371969928,2.403571450604333,1.027343844882316,0.878092876070424,0.7554597494309409,-0.2825552651693207,-1.6690993614607135,0.1414185955172306,2.4034451173676383,1.0273381002308042,-0.0002520367022607323,0.0005042791399243023,0.001893971787036835,0.0010357987822708977,0.00028858370030404167,0.0002150667758849983,-0.0013107373095033379,0.0,0.0,0.0,0.0,0.0,0.0,0.0,-0.0002026053595378663,-0.00029628260093816916,-6.591352028734176e-05,-2.5112121207371274e-05,9.861797531318661e-06,-0.00012633323669453134,-5.744651511818688e-06,0.0002520367022607323,-0.0005042791399243023,-0.001893971787036835,-0.0010357987822708977,-0.00028858370030404167,-0.0002150667758849983,0.0013107373095033379,0.7560665011405945,46.52419662475586,5.687466144561768,-19.487642288208008,-0.7665916085243225,-2.3660311698913574,0.15964071452617645,0
20,0.09500646591186523,-0.7560665011405945,-46.52419662475586,-5.687466144561768,19.487642288208008,0.7665916085243225,2.3660311698913574,-0.15964071452617645,0.0,0.0,0.0,0.0,0.0,0.0,0.0,-0.8743012584172365,-0.1983186921565065,-0.569973890397799,0.32290215195377003,0.18778388939031282,0.10703991985508318,-0.1900594202547527,0.8782954814299618,0.755756032031879,-0.2824893516490334,-1.669074249339506,0.14140873371969928,2.403571450604333,1.027343844882316,0.878092876070424,0.7554597494309409,-0.2825552651693207,-1.6690993614607135,0.1414185955172306,2.4034451173676383,1.0273381002308042,-0.0002520367022607323,0.0005042791399243023,0.001893971787036835,0.0010357987822708977,0.00028858370030404167,0.0002150667758849983,-0.0013107373095033379,0.0,0.0,0.0,0.0,0.0,0.0,0.0,-0.0002026053595378663,-0.00029628260093816916,-6.591352028734176e-05,-2.5112121207371274e-05,9.861797531318661e-06,-0.00012633323669453134,-5.744651511818688e-06,0.0002520367022607323,-0.0005042791399243023,-0.001893971787036835,-0.0010357987822708977,-0.00028858370030404167,-0.0002150667758849983,0.0013107373095033379,0.7560665011405945,46.52419662475586,5.687466144561768,-19.487642288208008,-0.7665916085243225,-2.3660311698913574,0.15964071452617645,0
21,0.09999322891235352,-0.8076412081718445,-46.52419662475586,-5.635891437530518,19.511445999145508,0.7665916085243225,2.3660311698913574,-0.19351522624492645,0.0,0.0,0.0,0.0,0.0,0.0,0.0,-0.8129935053583569,-0.19675464715986385,-0.5231880511417774,0.3278073768079445,0.18698262670642,0.10692603967916667,-0.18946499957217733,0.8782966956998657,0.755756032031879,-0.2824929709267198,-1.6690750241028995,0.14140999811458413,2.403571450604333,1.0273476087169515,0.878092876070424,0.7554597494309409,-0.2825552651693207,-1.6690993614607135,0.1414185955172306,2.4034451173676383,1.0273381002308042,0.0006349240695215204,0.0004820937832440927,-0.0012537972012344313,0.0006387360547899039,0.00021307651616809162,0.00015700805083496223,0.00040982127648007776,0.0,0.0,0.0,0.0,0.0,0.0,0.0,-0.00020381962944171494,-0.00029628260093816916,-6.22942426009021e-05,-2.4337357813930538e-05,8.597402646470798e-06,-0.00012633323669453134,-9.508486147336015e-06,-0.0006349240695215204,-0.0004820937832440927,0.0012537972012344313,-0.0006387360547899039,-0.00021307651616809162,-0.00015700805083496223,-0.00040982127648007776,0.8076412081718445,46.52419662475586,5.635891437530518,-19.511445999145508,-0.7665916085243225,-2.3660311698913574,0.19351522624492645,0
22,0.1051034927368164,-0.8076412081718445,-46.52419662475586,-5.635891437530518,19.511445999145508,0.7665916085243225,2.3660311698913574,-0.19351522624492645,0.0,0.0,0.0,0.0,0.0,0.0,0.0,-0.8129935053583569,-0.19675464715986385,-0.5231880511417774,0.3278073768079445,0.18698262670642,0.10692603967916667,-0.18946499957217733,0.8782966956998657,0.755756032031879,-0.2824929709267198,-1.6690750241028995,0.14140999811458413,2.403571450604333,1.0273476087169515,0.878092876070424,0.7554597494309409,-0.2825552651693207,-1.6690993614607135,0.1414185955172306,2.4034451173676383,1.0273381002308042,0.0006349240695215204,0.0004820937832440927,-0.0012537972012344313,0.0006387360547899039,0.00021307651616809162,0.00015700805083496223,0.00040982127648007776,0.0,0.0,0.0,0.0,0.0,0.0,0.0,-0.00020381962944171494,-0.00029628260093816916,-6.22942426009021e-05,-2.4337357813930538e-05,8.597402646470798e-06,-0.00012633323669453134,-9.508486147336015e-06,-0.0006349240695215204,-0.0004820937832440927,0.0012537972012344313,-0.0006387360547899039,-0.00021307651616809162,-0.00015700805083496223,-0.00040982127648007776,0.8076412081718445,46.52419662475586,5.635891437530518,-19.511445999145508,-0.7665916085243225,-2.3660311698913574,0.19351522624492645,0
23,0.10999846458435059,-0.7322627902030945,-46.50039291381836,-5.635891437530518,19.535249710083008,0.7784934639930725,2.3660311698913574,-0.21457235515117645,0.0,0.0,0.0,0.0,0.0,0.0,0.0,-0.7723293826915549,-0.18354289683587696,-0.489855601002672,0.32502059053257787,0.18592825169455884,0.10477773370015327,-0.1894685007398959,0.8782938169402019,0.7557543615960237,-0.2824929709267198,-1.6690766690238918,0.14140867110304475,2.403571450604333,1.0273499483979411,0.878092876070424,0.7554597494309409,-0.2825552651693207,-1.6690993614607135,0.1414185955172306,2.4034451173676383,1.0273381002308042,-0.001318388003437113,-0.00012593253269553592,-0.0010122645951075482,-0.00043568696106081536,-0.00027869587319895485,9.139799469274064e-05,0.0013168833845752749,0.0,0.0,0.0,0.0,0.0,0.0,0.0,-0.00020094086977795467,-0.0002946121650828637,-6.22942426009021e-05,-2.269243682162525e-05,9.924414185846775e-06,-0.00012633323669453134,-1.1848167136951915e-05,0.001318388003437113,0.00012593253269553592,0.0010122645951075482,0.00043568696106081536,0.00027869587319895485,-9.139799469274064e-05,-0.0013168833845752749,0.7322627902030945,46.50039291381836,5.635891437530518,-19.535249710083008,-0.7784934639930725,-2.3660311698913574,0.21457235515117645,0
24,0.11558151245117188,-0.7322627902030945,-46.50039291381836,-5.635891437530518,19.535249710083008,0.7784934639930725,2.3660311698913574,-0.21457235515117645,0.0,0.0,0.0,0.0,0.0,0.0,0.0,-0.7723293826915549,-0.18354289683587696,-0.489855601002672,0.32502059053257787,0.18592825169455884,0.10477773370015327,-0.1894685007398959,0.8782938169402019,0.7557543615960237,-0.2824929709267198,-1.6690766690238918,0.14140867110304475,2.403571450604333,1.0273499483979411,0.878092876070424,0.7554597494309409,-0.2825552651693207,-1.6690993614607135,0.1414185955172306,2.4034451173676383,1.0273381002308042,-0.001318388003437113,-0.00012593253269553592,-0.0010122645951075482,-0.00043568696106081536,-0.00027869587319895485,9.139799469274064e-05,0.0013168833845752749,0.0,0.0,0.0,0.0,0.0,0.0,0.0,-0.00020094086977795467,-0.0002946121650828637,-6.22942426009021e-05,-2.269243682162525e-05,9.924414185846775e-06,-0.00012633323669453134,-1.1848167136951915e-05,0.001318388003437113,0.00012593253269553592,0.0010122645951075482,0.00043568696106081536,0.00027869587319895485,-9.139799469274064e-05,-0.0013168833845752749,0.7322627902030945,46.50039291381836,5.635891437530518,-19.535249710083008,-0.7784934639930725,-2.3660311698913574,0.21457235515117645,0
25,0.12000584602355957,-0.8076412081718445,-46.54800033569336,-5.635891437530518,19.511445999145508,0.7849021553993225,2.3660311698913574,-0.18710653483867645,0.0,0.0,0.0,0.0,0.0,0.0,0.0,-0.7802474226297778,-0.19226722475207791,-0.4961810503198765,0.3311212476991285,0.1864164351767873,0.10478676504900519,-0.18857504838098116,0.8782983909755512,0.7557577024677342,-0.2824929709267198,-1.6690749985878928,0.14140350995367484,2.403571450604333,1.027346897136758,0.878092876070424,0.7554597494309409,-0.2825552651693207,-1.6690993614607135,0.1414185955172306,2.4034451173676383,1.0273381002308042,1.786719539571997e-05,0.0007848928098093082,-0.001087742805339279,0.0009223652912606558,-0.0004649017242367273,0.00013584923591699387,3.8295838819571215e-05,0.0,0.0,0.0,0.0,0.0,0.0,0.0,-0.00020551490512721315,-0.0002979530367933636,-6.22942426009021e-05,-2.4362872820704595e-05,1.5085563555755632e-05,-0.00012633323669453134,-8.796905953900591e-06,-1.786719539571997e-05,-0.0007848928098093082,0.001087742805339279,-0.0009223652912606558,0.0004649017242367273,-0.00013584923591699387,-3.8295838819571215e-05,0.8076412081718445,46.54800033569336,5.635891437530518,-19.511445999145508,-0.7849021553993225,-2.3660311698913574,0.18710653483867645,0
26,0.12499690055847168,-0.8076412081718445,-46.54800033569336,-5.635891437530518,19.511445999145508,0.7849021553993225,2.3660311698913574,-0.18710653483867645,0.0,0.0,0.0,0.0,0.0,0.0,0.0,-0.7802474226297778,-0.19226722475207791,-0.4961810503198765,0.3311212476991285,0.1864164351767873,0.10478676504900519,-0.18857504838098116,0.8782983909755512,0.7557577024677342,-0.2824929709267198,-1.6690749985878928,0.14140350995367484,2.403571450604333,1.027346897136758,0.878092876070424,0.7554597494309409,-0.2825552651693207,-1.6690993614607135,0.1414185955172306,2.4034451173676383,1.0273381002308042,1.786719539571997e-05,0.0007848928098093082,-0.001087742805339279,0.0009223652912606558,-0.0004649017242367273,0.00013584923591699387,3.8295838819571215e-05,0.0,0.0,0.0,0.0,0.0,0.0,0.0,-0.00020551490512721315,-0.0002979530367933636,-6.22942426009021e-05,-2.4362872820704595e-05,1.5085563555755632e-05,-0.00012633323669453134,-8.796905953900591e-06,-1.786719539571997e-05,-0.0007848928098093082,0.001087742805339279,-0.0009223652912606558,0.0004649017242367273,-0.00013584923591699387,-3.8295838819571215e-05,0.8076412081718445,46.54800033569336,5.635891437530518,-19.511445999145508,-0.7849021553993225,-2.3660311698913574,0.18710653483867645,0
27,0.1299910545349121,-0.8076412081718445,-46.54800033569336,-5.635891437530518,19.511445999145508,0.7849021553993225,2.3660311698913574,-0.18710653483867645,0.0,0.0,0.0,0.0,0.0,0.0,0.0,-0.7802474226297778,-0.19226722475207791,-0.4961810503198765,0.3311212476991285,0.1864164351767873,0.10478676504900519,-0.18857504838098116,0.8782983909755512,0.7557577024677342,-0.2824929709267198,-1.6690749985878928,0.14140350995367484,2.403571450604333,1.027346897136758,0.878092876070424,0.7554597494309409,-0.2825552651693207,-1.6690993614607135,0.1414185955172306,2.4034451173676383,1.0273381002308042,1.786719539571997e-05,0.0007848928098093082,-0.001087742805339279,0.0009223652912606558,-0.0004649017242367273,0.00013584923591699387,3.8295838819571215e-05,0.0,0.0,0.0,0.0,0.0,0.0,0.0,-0.00020551490512721315,-0.0002979530367933636,-6.22942426009021e-05,-2.4362872820704595e-05,1.5085563555755632e-05,-0.00012633323669453134,-8.796905953900591e-06,-1.786719539571997e-05,-0.0007848928098093082,0.001087742805339279,-0.0009223652912606558,0.0004649017242367273,-0.00013584923591699387,-3.8295838819571215e-05,0.8076412081718445,46.54800033569336,5.635891437530518,-19.511445999145508,-0.7849021553993225,-2.3660311698913574,0.18710653483867645,0
28,0.13500165939331055,-0.8076412081718445,-46.54800033569336,-5.635891437530518,19.511445999145508,0.7849021553993225,2.3660311698913574,-0.18710653483867645,0.0,0.0,0.0,0.0,0.0,0.0,0.0,-0.7802474226297778,-0.19226722475207791,-0.4961810503198765,0.3311212476991285,0.1864164351767873,0.10478676504900519,-0.18857504838098116,0.8782983909755512,0.7557577024677342,-0.2824929709267198,-1.6690749985878928,0.14140350995367484,2.403571450604333,1.027346897136758,0.878092876070424,0.7554597494309409,-0.2825552651693207,-1.6690993614607135,0.1414185955172306,2.4034451173676383,1.0273381002308042,1.786719539571997e-05,0.0007848928098093082,-0.001087742805339279,0.0009223652912606558,-0.0004649017242367273,0.00013584923591699387,3.8295838819571215e-05,0.0,0.0,0.0,0.0,0.0,0.0,0.0,-0.00020551490512721315,-0.0002979530367933636,-6.22942426009021e-05,-2.4362872820704595e-05,1.5085563555755632e-05,-0.00012633323669453134,-8.796905953900591e-06,-1.786719539571997e-05,-0.0007848928098093082,0.001087742805339279,-0.0009223652912606558,0.0004649017242367273,-0.00013584923591699387,-3.8295838819571215e-05,0.8076412081718445,46.54800033569336,5.635891437530518,-19.511445999145508,-0.7849021553993225,-2.3660311698913574,0.18710653483867645,0
29,0.14000296592712402,-0.7560665011405945,-46.52419662475586,-5.663662433624268,19.487642288208008,0.7730002999305725,2.3724398612976074,-0.15231649577617645,0.0,0.0,0.0,0.0,0.0,0.0,0.0,-0.7757135383648419,-0.1827855361853234,-0.49096384305753704,0.3262725121156743,0.1863482346779037,0.10288867675661031,-0.18784753610871588,0.8782925232615127,0.755756032031879,-0.28249102208488863,-1.6690733281520376,0.14140472003159102,2.40357073852751,1.0273430310802412,0.878092876070424,0.7554597494309409,-0.2825552651693207,-1.6690993614607135,0.1414185955172306,2.4034451173676383,1.0273381002308042,-0.0007183857832106037,-3.1924107229857306e-06,-5.439396535052662e-05,0.0004897648824581389,-2.0325653975524455e-06,-0.00017847011492492612,-0.0016630776860964483,0.0,0.0,0.0,0.0,0.0,0.0,0.0,-0.00019964719108878093,-0.00029628260093816916,-6.424308443209181e-05,-2.6033308675899036e-05,1.3875485639580631e-05,-0.00012562115987169165,-4.930849436979301e-06,0.0007183857832106037,3.1924107229857306e-06,5.439396535052662e-05,-0.0004897648824581389,2.0325653975524455e-06,0.00017847011492492612,0.0016630776860964483,0.7560665011405945,46.52419662475586,5.663662433624268,-19.487642288208008,-0.7730002999305725,-2.3724398612976074,0.15231649577617645,0
30,0.14499139785766602,-0.7560665011405945,-46.52419662475586,-5.663662433624268,19.487642288208008,0.7730002999305725,2.3724398612976074,-0.15231649577617645,0.0,0.0,0.0,0.0,0.0,0.0,0.0,-0.7757135383648419,-0.1827855361853234,-0.49096384305753704,0.3262725121156743,0.1863482346779037,0.10288867675661031,-0.18784753610871588,0.8782925232615127,0.755756032031879,-0.28249102208488863,-1.6690733281520376,0.14140472003159102,2.40357073852751,1.0273430310802412,0.878092876070424,0.7554597494309409,-0.2825552651693207,-1.6690993614607135,0.1414185955172306,2.4034451173676383,1.0273381002308042,-0.0007183857832106037,-3.1924107229857306e-06,-5.439396535052662e-05,0.0004897648824581389,-2.0325653975524455e-06,-0.00017847011492492612,-0.0016630776860964483,0.0,0.0,0.0,0.0,0.0,0.0,0.0,-0.00019964719108878093,-0.00029628260093816916,-6.424308443209181e-05,-2.6033308675899036e-05,1.3875485639580631e-05,-0.00012562115987169165,-4.930849436979301e-06,0.0007183857832106037,3.1924107229857306e-06,5.439396535052662e-05,-0.0004897648824581389,2.0325653975524455e-06,0.00017847011492492612,0.0016630776860964483,0.7560665011405945,46.52419662475586,5.663662433624268,-19.487642288208008,-0.7730002999305725,-2.3724398612976074,0.15231649577617645,0
31,0.15000677108764648,-0.7838374972343445,-46.47658920288086,-5.663662433624268,19.511445999145508,0.7849021553993225,2.3596224784851074,-0.20724813640117645,0.0,0.0,0.0,0.0,0.0,0.0,0.0,-0.7854115454547248,-0.1820027321959633,-0.49791428640952845,0.32598901143636383,0.18672649681198658,0.10244296839495447,-0.18745783452798434,0.8782945506994948,0.7557526911601684,-0.28249102208488863,-1.6690749986928712,0.14140457303943427,2.4035721626811557,1.0273491345958576,0.878092876070424,0.7554597494309409,-0.2825552651693207,-1.6690993614607135,0.1414185955172306,2.4034451173676383,1.0273381002308042,-0.0004982499384454864,-0.0008829453370438416,4.477524876633062e-06,0.0003620467249972624,-0.00048390456122438116,0.0004428766888697094,0.0007000354396726277,0.0,0.0,0.0,0.0,0.0,0.0,0.0,-0.000201674629070836,-0.00029294172922755823,-6.424308443209181e-05,-2.4362767842234234e-05,1.40224777963327e-05,-0.00012704531351737103,-1.1034365053452788e-05,0.0004982499384454864,0.0008829453370438416,-4.477524876633062e-06,-0.0003620467249972624,0.00048390456122438116,-0.0004428766888697094,-0.0007000354396726277,0.7838374972343445,46.47658920288086,5.663662433624268,-19.511445999145508,-0.7849021553993225,-2.3596224784851074,0.20724813640117645,0
32,0.15500593185424805,-0.7838374972343445,-46.47658920288086,-5.663662433624268,19.511445999145508,0.7849021553993225,2.3596224784851074,-0.20724813640117645,0.0,0.0,0.0,0.0,0.0,0.0,0.0,-0.7854115454547248,-0.1820027321959633,-0.49791428640952845,0.32598901143636383,0.18672649681198658,0.10244296839495447,-0.18745783452798434,0.8782945506994948,0.7557526911601684,-0.28249102208488863,-1.6690749986928712,0.14140457303943427,2.4035721626811557,1.0273491345958576,0.878092876070424,0.7554597494309409,-0.2825552651693207,-1.6690993614607135,0.1414185955172306,2.4034451173676383,1.0273381002308042,-0.0004982499384454864,-0.0008829453370438416,4.477524876633062e-06,0.0003620467249972624,-0.00048390456122438116,0.0004428766888697094,0.0007000354396726277,0.0,0.0,0.0,0.0,0.0,0.0,0.0,-0.000201674629070836,-0.00029294172922755823,-6.424308443209181e-05,-2.4362767842234234e-05,1.40224777963327e-05,-0.00012704531351737103,-1.1034365053452788e-05,0.0004982499384454864,0.0008829453370438416,-4.477524876633062e-06,-0.0003620467249972624,0.00048390456122438116,-0.0004428766888697094,-0.0007000354396726277,0.7838374972343445,46.47658920288086,5.663662433624268,-19.511445999145508,-0.7849021553993225,-2.3596224784851074,0.20724813640117645,0
33,0.16000151634216309,-0.8076412081718445,-46.54800033569336,-5.663662433624268,19.535249710083008,0.7730002999305725,2.3660311698913574,-0.16604940593242645,0.0,0.0,0.0,0.0,0.0,0.0,0.0,-0.7897833523425515,-0.18447494207189277,-0.500025652210263,0.32613033109806744,0.18648417883707172,0.10302175558110603,-0.18805400785335893,0.8782987904420791,0.7557577024677342,-0.28249102208488863,-1.6690787353181002,0.14140791633218838,2.403571450604333,1.027344556959139,0.878092876070424,0.7554597494309409,-0.2825552651693207,-1.6690993614607135,0.1414185955172306,2.4034451173676383,1.0273381002308042,0.000355910746808322,0.0007032261766638798,-0.00016017329905311883,-0.0005527673874625101,-0.00014027959967807273,4.174119129699166e-05,-0.0009965597623970664,0.0,0.0,0.0,0.0,0.0,0.0,0.0,-0.00020591437165518034,-0.0002979530367933636,-6.424308443209181e-05,-2.0626142613222598e-05,1.067918504221721e-05,-0.00012633323669453134,-6.456728334880424e-06,-0.000355910746808322,-0.0007032261766638798,0.00016017329905311883,0.0005527673874625101,0.00014027959967807273,-4.174119129699166e-05,0.0009965597623970664,0.8076412081718445,46.54800033569336,5.663662433624268,-19.535249710083008,-0.7730002999305725,-2.3660311698913574,0.16604940593242645,0
34,0.1649942398071289,-0.8076412081718445,-46.54800033569336,-5.663662433624268,19.535249710083008,0.7730002999305725,2.3660311698913574,-0.16604940593242645,0.0,0.0,0.0,0.0,0.0,0.0,0.0,-0.7897833523425515,-0.18447494207189277,-0.500025652210263,0.32613033109806744,0.18648417883707172,0.10302175558110603,-0.18805400785335893,0.8782987904420791,0.7557577024677342,-0.28249102208488863,-1.6690787353181002,0.14140791633218838,2.403571450604333,1.027344556959139,0.878092876070424,0.7554597494309409,-0.2825552651693207,-1.6690993614607135,0.1414185955172306,2.4034451173676383,1.0273381002308042,0.000355910746808322,0.0007032261766638798,-0.00016017329905311883,-0.0005527673874625101,-0.00014027959967807273,4.174119129699166e-05,-0.0009965597623970664,0.0,0.0,0.0,0.0,0.0,0.0,0.0,-0.00020591437165518034,-0.0002979530367933636,-6.424308443209181e-05,-2.0626142613222598e-05,1.067918504221721e-05,-0.00012633323669453134,-6.456728334880424e-06,-0.000355910746808322,-0.0007032261766638798,0.00016017329905311883,0.0005527673874625101,0.00014027959967807273,-4.174119129699166e-05,0.0009965597623970664,0.8076412081718445,46.54800033569336,5.663662433624268,-19.535249710083008,-0.7730002999305725,-2.3660311698913574,0.16604940593242645,0
35,0.1699991226196289,-0.8354122042655945,-46.54800033569336,-5.687466144561768,19.511445999145508,0.7665916085243225,2.3724398612976074,-0.17978231608867645,0.0,0.0,0.0,0.0,0.0,0.0,0.0,-0.7923199077708079,-0.188295435900664,-0.5013077562407667,0.327661457327781,0.1863475140079339,0.10346619845486048,-0.18830571880585653,0.8783008112382807,0.7557577024677342,-0.2824893516490334,-1.6690750023787877,0.14140873535180282,2.40357073852751,1.0273460828380452,0.878092876070424,0.7554597494309409,-0.2825552651693207,-1.6690993614607135,0.1414185955172306,2.4034451173676383,1.0273381002308042,0.0006601785219138343,0.0010200047483414046,0.0002925610561133032,0.0008457488964470064,0.0002570576253903005,4.325398694745717e-06,-0.0002696821073367835,0.0,0.0,0.0,0.0,0.0,0.0,0.0,-0.00020793516785677646,-0.0002979530367933636,-6.591352028734176e-05,-2.4359081925773296e-05,9.860165427783008e-06,-0.00012562115987169165,-7.982607240997197e-06,-0.0006601785219138343,-0.0010200047483414046,-0.0002925610561133032,-0.0008457488964470064,-0.0002570576253903005,-4.325398694745717e-06,0.0002696821073367835,0.8354122042655945,46.54800033569336,5.687466144561768,-19.511445999145508,-0.7665916085243225,-2.3724398612976074,0.17978231608867645,0
36,0.17500805854797363,-0.8354122042655945,-46.54800033569336,-5.687466144561768,19.511445999145508,0.7665916085243225,2.3724398612976074,-0.17978231608867645,0.0,0.0,0.0,0.0,0.0,0.0,0.0,-0.7923199077708079,-0.188295435900664,-0.5013077562407667,0.327661457327781,0.1863475140079339,0.10346619845486048,-0.18830571880585653,0.8783008112382807,0.7557577024677342,-0.2824893516490334,-1.6690750023787877,0.14140873535180282,2.40357073852751,1.0273460828380452,0.878092876070424,0.7554597494309409,-0.2825552651693207,-1.6690993614607135,0.1414185955172306,2.4034451173676383,1.0273381002308042,0.0006601785219138343,0.0010200047483414046,0.0002925610561133032,0.0008457488964470064,0.0002570576253903005,4.325398694745717e-06,-0.0002696821073367835,0.0,0.0,0.0,0.0,0.0,0.0,0.0,-0.00020793516785677646,-0.0002979530367933636,-6.591352028734176e-05,-2.4359081925773296e-05,9.860165427783008e-06,-0.00012562115987169165,-7.982607240997197e-06,-0.0006601785219138343,-0.0010200047483414046,-0.0002925610561133032,-0.0008457488964470064,-0.0002570576253903005,-4.325398694745717e-06,0.0002696821073367835,0.8354122042655945,46.54800033569336,5.687466144561768,-19.511445999145508,-0.7665916085243225,-2.3724398612976074,0.17978231608867645,0
37,0.17999601364135742,-0.8076412081718445,-46.54800033569336,-5.711269855499268,19.511445999145508,0.7610984444618225,2.3724398612976074,-0.22830526530742645,0.0,0.0,0.0,0.0,0.0,0.0,0.0,-0.79584389292831,-0.19081688819188994,-0.501802718809999,0.3257612921118516,0.18608369015478,0.10351247835472792,-0.18661404731490921,0.8782988702460272,0.7557577024677342,-0.28248768121317813,-1.669074998587914,0.14140753415893384,2.40357073852751,1.0273514742768473,0.878092876070424,0.7554597494309409,-0.2825552651693207,-1.6690993614607135,0.1414185955172306,2.4034451173676383,1.0273381002308042,-0.0002999662923885611,0.0004676314552539953,0.001056071749356302,0.0001159368242108311,0.0003384951746311995,-0.0001668436902354897,0.001828596691419869,0.0,0.0,0.0,0.0,0.0,0.0,0.0,-0.00020599417560318578,-0.0002979530367933636,-6.758395614259172e-05,-2.4362872799388313e-05,1.1061358296760027e-05,-0.00012562115987169165,-1.3374046043068688e-05,0.0002999662923885611,-0.0004676314552539953,-0.001056071749356302,-0.0001159368242108311,-0.0003384951746311995,0.0001668436902354897,-0.001828596691419869,0.8076412081718445,46.54800033569336,5.711269855499268,-19.511445999145508,-0.7610984444618225,-2.3724398612976074,0.22830526530742645,0
38,0.18511676788330078,-0.8076412081718445,-46.54800033569336,-5.711269855499268,19.511445999145508,0.7610984444618225,2.3724398612976074,-0.22830526530742645,0.0,0.0,0.0,0.0,0.0,0.0,0.0,-0.79584389292831,-0.19081688819188994,-0.501802718809999,0.3257612921118516,0.18608369015478,0.10351247835472792,-0.18661404731490921,0.8782988702460272,0.7557577024677342,-0.28248768121317813,-1.669074998587914,0.14140753415893384,2.40357073852751,1.0273514742768473,0.878092876070424,0.7554597494309409,-0.2825552651693207,-1.6690993614607135,0.1414185955172306,2.4034451173676383,1.0273381002308042,-0.0002999662923885611,0.0004676314552539953,0.001056071749356302,0.0001159368242108311,0.0003384951746311995,-0.0001668436902354897,0.001828596691419869,0.0,0.0,0.0,0.0,0.0,0.0,0.0,-0.00020599417560318578,-0.0002979530367933636,-6.758395614259172e-05,-2.4362872799388313e-05,1.1061358296760027e-05,-0.00012562115987169165,-1.3374046043068688e-05,0.0002999662923885611,-0.0004676314552539953,-0.001056071749356302,-0.0001159368242108311,-0.0003384951746311995,0.0001668436902354897,-0.001828596691419869,0.8076412081718445,46.54800033569336,5.711269855499268,-19.511445999145508,-0.7610984444618225,-2.3724398612976074,0.22830526530742645,0
39,0.18996095657348633,-0.7838374972343445,-46.52419662475586,-5.735073566436768,19.535249710083008,0.7784934639930725,2.3660311698913574,-0.20724813640117645,0.0,0.0,0.0,0.0,0.0,0.0,0.0,-0.7911097963755435,-0.19394987617976375,-0.5004146230324511,0.3255565018654178,0.18534922546609653,0.10460050270664736,-0.18659858570912122,0.8782950550241506,0.755756032031879,-0.2824860107773229,-1.6690773861327617,0.14140516831526032,2.403571450604333,1.0273491345958576,0.878092876070424,0.7554597494309409,-0.2825552651693207,-1.6690993614607135,0.1414185955172306,2.4034451173676383,1.0273381002308042,-0.00044842524947706923,-0.00015458673269030696,0.001153562654834786,-0.0005533782194537982,-0.0002563044456872981,0.0002877745196183112,0.0006823193196397084,0.0,0.0,0.0,0.0,0.0,0.0,0.0,-0.0002021789537266505,-0.00029628260093816916,-6.925439199784167e-05,-2.197532795178425e-05,1.342720197028413e-05,-0.00012633323669453134,-1.1034365053452788e-05,0.00044842524947706923,0.00015458673269030696,-0.001153562654834786,0.0005533782194537982,0.0002563044456872981,-0.0002877745196183112,-0.0006823193196397084,0.7838374972343445,46.52419662475586,5.735073566436768,-19.535249710083008,-0.7784934639930725,-2.3660311698913574,0.20724813640117645,0
40,0.19500732421875,-0.7838374972343445,-46.52419662475586,-5.735073566436768,19.535249710083008,0.7784934639930725,2.3660311698913574,-0.20724813640117645,0.0,0.0,0.0,0.0,0.0,0.0,0.0,-0.7911097963755435,-0.19394987617976375,-0.5004146230324511,0.3255565018654178,0.18534922546609653,0.10460050270664736,-0.18659858570912122,0.8782950550241506,0.755756032031879,-0.2824860107773229,-1.6690773861327617,0.14140516831526032,2.403571450604333,1.0273491345958576,0.878092876070424,0.7554597494309409,-0.2825552651693207,-1.6690993614607135,0.1414185955172306,2.4034451173676383,1.0273381002308042,-0.00044842524947706923,-0.00015458673269030696,0.001153562654834786,-0.0005533782194537982,-0.0002563044456872981,0.0002877745196183112,0.0006823193196397084,0.0,0.0,0.0,0.0,0.0,0.0,0.0,-0.0002021789537266505,-0.00029628260093816916,-6.925439199784167e-05,-2.197532795178425e-05,1.342720197028413e-05,-0.00012633323669453134,-1.1034365053452788e-05,0.00044842524947706923,0.00015458673269030696,-0.001153562654834786,0.0005533782194537982,0.0002563044456872981,-0.0002877745196183112,-0.0006823193196397084,0.7838374972343445,46.52419662475586,5.735073566436768,-19.535249710083008,-0.7784934639930725,-2.3660311698913574,0.20724813640117645,0
41,0.19999003410339355,-0.7838374972343445,-46.50039291381836,-5.663662433624268,19.535249710083008,0.7665916085243225,2.3724398612976074,-0.17337362468242645,0.0,0.0,0.0,0.0,0.0,0.0,0.0,-0.7863831735828033,-0.1871682632331195,-0.4982009017560743,0.32225691342140467,0.18568876882116847,0.10494712079821078,-0.1868869945236566,0.8782952139577627,0.7557543615960237,-0.28249102208488863,-1.6690766954824103,0.14140543070788777,2.40357073852751,1.0273453707612223,0.878092876070424,0.7554597494309409,-0.2825552651693207,-1.6690993614607135,0.1414185955172306,2.4034451173676383,1.0273381002308042,-7.107714080132371e-05,-0.0004330903668277268,-0.00019324861499206753,-0.00011591367969238931,5.252472217296413e-05,-9.672725076542034e-06,-0.0006592735977117684,0.0,0.0,0.0,0.0,0.0,0.0,0.0,-0.0002023378873386994,-0.0002946121650828637,-6.424308443209181e-05,-2.266597830313799e-05,1.3164809342824935e-05,-0.00012562115987169165,-7.270530418157506e-06,7.107714080132371e-05,0.0004330903668277268,0.00019324861499206753,0.00011591367969238931,-5.252472217296413e-05,9.672725076542034e-06,0.0006592735977117684,0.7838374972343445,46.50039291381836,5.663662433624268,-19.535249710083008,-0.7665916085243225,-2.3724398612976074,0.17337362468242645,0
42,0.2050015926361084,-0.7838374972343445,-46.50039291381836,-5.663662433624268,19.535249710083008,0.7665916085243225,2.3724398612976074,-0.17337362468242645,0.0,0.0,0.0,0.0,0.0,0.0,0.0,-0.7863831735828033,-0.1871682632331195,-0.4982009017560743,0.32225691342140467,0.18568876882116847,0.10494712079821078,-0.1868869945236566,0.8782952139577627,0.7557543615960237,-0.28249102208488863,-1.6690766954824103,0.14140543070788777,2.40357073852751,1.0273453707612223,0.878092876070424,0.7554597494309409,-0.2825552651693207,-1.6690993614607135,0.1414185955172306,2.4034451173676383,1.0273381002308042,-7.107714080132371e-05,-0.0004330903668277268,-0.00019324861499206753,-0.00011591367969238931,5.252472217296413e-05,-9.672725076542034e-06,-0.0006592735977117684,0.0,0.0,0.0,0.0,0.0,0.0,0.0,-0.0002023378873386994,-0.0002946121650828637,-6.424308443209181e-05,-2.266597830313799e-05,1.3164809342824935e-05,-0.00012562115987169165,-7.270530418157506e-06,7.107714080132371e-05,0.0004330903668277268,0.00019324861499206753,0.00011591367969238931,-5.252472217296413e-05,9.672725076542034e-06,0.0006592735977117684,0.7838374972343445,46.50039291381836,5.663662433624268,-19.535249710083008,-0.7665916085243225,-2.3724398612976074,0.17337362468242645,0
43,0.20995664596557617,-0.8354122042655945,-46.50039291381836,-5.663662433624268,19.535249710083008,0.7665916085243225,2.3852572441101074,-0.16604940593242645,0.0,0.0,0.0,0.0,0.0,0.0,0.0,-0.7907604993099109,-0.19228342564220957,-0.5043987445299883,0.3248416229835754,0.1861225668384828,0.1053041146258466,-0.18814958873712015,0.878299997748126,0.7557543615960237,-0.282491022405881,-1.669076694533704,0.14140857737372106,2.403569314373864,1.027344556959139,0.878092876070424,0.7554597494309409,-0.2825552651693207,-1.6690993614607135,0.1414185955172306,2.4034451173676383,1.0273381002308042,0.0016303521729330863,-0.0006140309416433216,-0.0008533551991259022,-0.0001696029208359487,0.0003008766963431725,-0.0005081449365899654,-0.0009524212086071712,0.0,0.0,0.0,0.0,0.0,0.0,0.0,-0.00020712167770198242,-0.0002946121650828637,-6.4242763439748e-05,-2.266692700936268e-05,1.0018143509538113e-05,-0.00012419700622556817,-6.456728334880424e-06,-0.0016303521729330863,0.0006140309416433216,0.0008533551991259022,0.0001696029208359487,-0.0003008766963431725,0.0005081449365899654,0.0009524212086071712,0.8354122042655945,46.50039291381836,5.663662433624268,-19.535249710083008,-0.7665916085243225,-2.3852572441101074,0.16604940593242645,0
44,0.21499395370483398,-0.8354122042655945,-46.50039291381836,-5.663662433624268,19.535249710083008,0.7665916085243225,2.3852572441101074,-0.16604940593242645,0.0,0.0,0.0,0.0,0.0,0.0,0.0,-0.7907604993099109,-0.19228342564220957,-0.5043987445299883,0.3248416229835754,0.1861225668384828,0.1053041146258466,-0.18814958873712015,0.878299997748126,0.7557543615960237,-0.282491022405881,-1.669076694533704,0.14140857737372106,2.403569314373864,1.027344556959139,0.878092876070424,0.7554597494309409,-0.2825552651693207,-1.6690993614607135,0.1414185955172306,2.4034451173676383,1.0273381002308042,0.0016303521729330863,-0.0006140309416433216,-0.0008533551991259022,-0.0001696029208359487,0.0003008766963431725,-0.0005081449365899654,-0.0009524212086071712,0.0,0.0,0.0,0.0,0.0,0.0,0.0,-0.00020712167770198242,-0.0002946121650828637,-6.4242763439748e-05,-2.266692700936268e-05,1.0018143509538113e-05,-0.00012419700622556817,-6.456728334880424e-06,-0.0016303521729330863,0.0006140309416433216,0.0008533551991259022,0.0001696029208359487,-0.0003008766963431725,0.0005081449365899654,0.0009524212086071712,0.8354122042655945,46.50039291381836,5.663662433624268,-19.535249710083008,-0.7665916085243225,-2.3852572441101074,0.16604940593242645,0
45,0.22000527381896973,-0.7838374972343445,-46.52419662475586,-5.663662433624268,19.511445999145508,0.7610984444618225,2.3660311698913574,-0.20724813640117645,0.0,0.0,0.0,0.0,0.0,0.0,0.0,-0.7954778497660603,-0.19200419002987887,-0.5092038099881667,0.32639073941258046,0.18662984599312119,0.10569261642088991,-0.18823954480569483,0.8782971208778013,0.755756032031879,-0.28249102208489046,-1.6690750240978436,0.1414070793951641,2.403571450604333,1.0273491345958576,0.878092876070424,0.7554597494309409,-0.2825552651693207,-1.6690993614607135,0.1414185955172306,2.4034451173676383,1.0273381002308042,-0.0005764741463313631,0.00016831169825692638,-0.00015653457716231718,0.0006756828232197231,0.00044494943016014707,0.00035670981021746303,0.0006055332284221204,0.0,0.0,0.0,0.0,0.0,0.0,0.0,-0.00020424480737735173,-0.00029628260093816916,-6.424308443025994e-05,-2.4337362869886192e-05,1.1516122066512757e-05,-0.00012633323669453134,-1.1034365053452788e-05,0.0005764741463313631,-0.00016831169825692638,0.00015653457716231718,-0.0006756828232197231,-0.00044494943016014707,-0.00035670981021746303,-0.0006055332284221204,0.7838374972343445,46.52419662475586,5.663662433624268,-19.511445999145508,-0.7610984444618225,-2.3660311698913574,0.20724813640117645,0
46,0.225006103515625,-0.7838374972343445,-46.52419662475586,-5.663662433624268,19.511445999145508,0.7610984444618225,2.3660311698913574,-0.20724813640117645,0.0,0.0,0.0,0.0,0.0,0.0,0.0,-0.7954778497660603,-0.19200419002987887,-0.5092038099881667,0.32639073941258046,0.18662984599312119,0.10569261642088991,-0.18823954480569483,0.8782971208778013,0.755756032031879,-0.28249102208489046,-1.6690750240978436,0.1414070793951641,2.403571450604333,1.0273491345958576,0.878092876070424,0.7554597494309409,-0.2825552651693207,-1.6690993614607135,0.1414185955172306,2.4034451173676383,1.0273381002308042,-0.0005764741463313631,0.00016831169825692638,-0.00015653457716231718,0.0006756828232197231,0.00044494943016014707,0.00035670981021746303,0.0006055332284221204,0.0,0.0,0.0,0.0,0.0,0.0,0.0,-0.00020424480737735173,-0.00029628260093816916,-6.424308443025994e-05,-2.4337362869886192e-05,1.1516122066512757e-05,-0.00012633323669453134,-1.1034365053452788e-05,0.0005764741463313631,-0.00016831169825692638,0.00015653457716231718,-0.0006756828232197231,-0.00044494943016014707,-0.00035670981021746303,-0.0006055332284221204,0.7838374972343445,46.52419662475586,5.663662433624268,-19.511445999145508,-0.7610984444618225,-2.3660311698913574,0.20724813640117645,0
47,0.22999334335327148,-0.7838374972343445,-46.52419662475586,-5.663662433624268,19.511445999145508,0.7665916085243225,2.3788485527038574,-0.21457235515117645,0.0,0.0,0.0,0.0,0.0,0.0,0.0,-0.7926538836066915,-0.18501369904205373,-0.5042787849838716,0.32285653713969586,0.1864300173021362,0.10531422690792344,-0.18880841363478357,0.8782952934422842,0.755756032031879,-0.28249172409514933,-1.6690749985880367,0.1414087118481214,2.403570026450687,1.0273499483979411,0.878092876070424,0.7554597494309409,-0.2825552651693207,-1.6690993614607135,0.1414185955172306,2.4034451173676383,1.0273381002308042,-0.0002588860127256675,0.0005721762118325676,-0.00018300060273620215,6.039136282805443e-05,0.0001056904106779331,-0.00020744465178212191,0.0007082104476672044,0.0,0.0,0.0,0.0,0.0,0.0,0.0,-0.00020241737186021957,-0.00029628260093816916,-6.354107417139154e-05,-2.436287267681969e-05,9.883669109200799e-06,-0.00012490908304885195,-1.1848167136951915e-05,0.0002588860127256675,-0.0005721762118325676,0.00018300060273620215,-6.039136282805443e-05,-0.0001056904106779331,0.00020744465178212191,-0.0007082104476672044,0.7838374972343445,46.52419662475586,5.663662433624268,-19.511445999145508,-0.7665916085243225,-2.3788485527038574,0.21457235515117645,0
48,0.23494553565979004,-0.7838374972343445,-46.52419662475586,-5.663662433624268,19.511445999145508,0.7665916085243225,2.3788485527038574,-0.21457235515117645,0.0,0.0,0.0,0.0,0.0,0.0,0.0,-0.7926538836066915,-0.18501369904205373,-0.5042787849838716,0.32285653713969586,0.1864300173021362,0.10531422690792344,-0.18880841363478357,0.8782952934422842,0.755756032031879,-0.28249172409514933,-1.6690749985880367,0.1414087118481214,2.403570026450687,1.0273499483979411,0.878092876070424,0.7554597494309409,-0.2825552651693207,-1.6690993614607135,0.1414185955172306,2.4034451173676383,1.0273381002308042,-0.0002588860127256675,0.0005721762118325676,-0.00018300060273620215,6.039136282805443e-05,0.0001056904106779331,-0.00020744465178212191,0.0007082104476672044,0.0,0.0,0.0,0.0,0.0,0.0,0.0,-0.00020241737186021957,-0.00029628260093816916,-6.354107417139154e-05,-2.436287267681969e-05,9.883669109200799e-06,-0.00012490908304885195,-1.1848167136951915e-05,0.0002588860127256675,-0.0005721762118325676,0.00018300060273620215,-6.039136282805443e-05,-0.0001056904106779331,0.00020744465178212191,-0.0007082104476672044,0.7838374972343445,46.52419662475586,5.663662433624268,-19.511445999145508,-0.7665916085243225,-2.3788485527038574,0.21457235515117645,0
49,0.24001479148864746,-0.7560665011405945,-46.52419662475586,-5.687466144561768,19.535249710083008,0.7730002999305725,2.3596224784851074,-0.18710653483867645,0.0,0.0,0.0,0.0,0.0,0.0,0.0,-0.7850590398088296,-0.1960883865088132,-0.5002095830844601,0.33028808652797514,0.1863293183103936,0.10676323291826245,-0.1898558997744423,0.8782954019088166,0.755756032031879,-0.28248935165299627,-1.6690787353181002,0.141408258028358,2.4035721626811557,1.0273468966401285,0.878092876070424,0.7554597494309409,-0.2825552651693207,-1.6690993614607135,0.1414185955172306,2.4034451173676383,1.0273381002308042,-0.00029063531351368926,-4.403175948102609e-05,0.00044346401708381317,0.00015527859058522475,-0.00016465310187375182,0.00042186440473004184,-0.0002696237886593388,0.0,0.0,0.0,0.0,0.0,0.0,0.0,-0.00020252583839264204,-0.00029628260093816916,-6.591351632445619e-05,-2.0626142613222598e-05,1.0337488872608214e-05,-0.00012704531351737103,-8.796409324274279e-06,0.00029063531351368926,4.403175948102609e-05,-0.00044346401708381317,-0.00015527859058522475,0.00016465310187375182,-0.00042186440473004184,0.0002696237886593388,0.7560665011405945,46.52419662475586,5.687466144561768,-19.535249710083008,-0.7730002999305725,-2.3596224784851074,0.18710653483867645,0
50,0.24501490592956543,-0.7560665011405945,-46.52419662475586,-5.687466144561768,19.535249710083008,0.7730002999305725,2.3596224784851074,-0.18710653483867645,0.0,0.0,0.0,0.0,0.0,0.0,0.0,-0.7850590398088296,-0.1960883865088132,-0.5002095830844601,0.33028808652797514,0.1863293183103936,0.10676323291826245,-0.1898558997744423,0.8782954019088166,0.755756032031879,-0.28248935165299627,-1.6690787353181002,0.141408258028358,2.4035721626811557,1.0273468966401285,0.878092876070424,0.7554597494309409,-0.2825552651693207,-1.6690993614607135,0.1414185955172306,2.4034451173676383,1.0273381002308042,-0.00029063531351368926,-4.403175948102609e-05,0.00044346401708381317,0.00015527859058522475,-0.00016465310187375182,0.00042186440473004184,-0.0002696237886593388,0.0,0.0,0.0,0.0,0.0,0.0,0.0,-0.00020252583839264204,-0.00029628260093816916,-6.591351632445619e-05,-2.0626142613222598e-05,1.0337488872608214e-05,-0.00012704531351737103,-8.796409324274279e-06,0.00029063531351368926,4.403175948102609e-05,-0.00044346401708381317,-0.00015527859058522475,0.00016465310187375182,-0.00042186440473004184,0.0002696237886593388,0.7560665011405945,46.52419662475586,5.687466144561768,-19.535249710083008,-0.7730002999305725,-2.3596224784851074,0.18710653483867645,0
51,0.25000619888305664,-0.7560665011405945,-46.52419662475586,-5.687466144561768,19.535249710083008,0.7730002999305725,2.3596224784851074,-0.18710653483867645,0.0,0.0,0.0,0.0,0.0,0.0,0.0,-0.7850590398088296,-0.1960883865088132,-0.5002095830844601,0.33028808652797514,0.1863293183103936,0.10676323291826245,-0.1898558997744423,0.8782954019088166,0.755756032031879,-0.28248935165299627,-1.6690787353181002,0.141408258028358,2.4035721626811557,1.0273468966401285,0.878092876070424,0.7554597494309409,-0.2825552651693207,-1.6690993614607135,0.1414185955172306,2.4034451173676383,1.0273381002308042,-0.00029063531351368926,-4.403175948102609e-05,0.00044346401708381317,0.00015527859058522475,-0.00016465310187375182,0.00042186440473004184,-0.0002696237886593388,0.0,0.0,0.0,0.0,0.0,0.0,0.0,-0.00020252583839264204,-0.00029628260093816916,-6.591351632445619e-05,-2.0626142613222598e-05,1.0337488872608214e-05,-0.00012704531351737103,-8.796409324274279e-06,0.00029063531351368926,4.403175948102609e-05,-0.00044346401708381317,-0.00015527859058522475,0.00016465310187375182,-0.00042186440473004184,0.0002696237886593388,0.7560665011405945,46.52419662475586,5.687466144561768,-19.535249710083008,-0.7730002999305725,-2.3596224784851074,0.18710653483867645,0
52,0.25499963760375977,-0.7560665011405945,-46.52419662475586,-5.687466144561768,19.535249710083008,0.7730002999305725,2.3596224784851074,-0.18710653483867645,0.0,0.0,0.0,0.0,0.0,0.0,0.0,-0.7850590398088296,-0.1960883865088132,-0.5002095830844601,0.33028808652797514,0.1863293183103936,0.10676323291826245,-0.1898558997744423,0.8782954019088166,0.755756032031879,-0.28248935165299627,-1.6690787353181002,0.141408258028358,2.4035721626811557,1.0273468966401285,0.878092876070424,0.7554597494309409,-0.2825552651693207,-1.6690993614607135,0.1414185955172306,2.4034451173676383,1.0273381002308042,-0.00029063531351368926,-4.403175948102609e-05,0.00044346401708381317,0.00015527859058522475,-0.00016465310187375182,0.00042186440473004184,-0.0002696237886593388,0.0,0.0,0.0,0.0,0.0,0.0,0.0,-0.00020252583839264204,-0.00029628260093816916,-6.591351632445619e-05,-2.0626142613222598e-05,1.0337488872608214e-05,-0.00012704531351737103,-8.796409324274279e-06,0.00029063531351368926,4.403175948102609e-05,-0.00044346401708381317,-0.00015527859058522475,0.00016465310187375182,-0.00042186440473004184,0.0002696237886593388,0.7560665011405945,46.52419662475586,5.687466144561768,-19.535249710083008,-0.7730002999305725,-2.3596224784851074,0.18710653483867645,0
53,0.2599945068359375,-0.7838374972343445,-46.52419662475586,-5.687466144561768,19.511445999145508,0.7665916085243225,2.3788485527038574,-0.22098104655742645,0.0,0.0,0.0,0.0,0.0,0.0,0.0,-0.7958188258839698,-0.1874281499365903,-0.5101797798631573,0.3243945626960975,0.1863609737208006,0.10544518900488493,-0.19134416374370988,0.8782952664802247,0.755756032031879,-0.2824893516490334,-1.669074998599557,0.14140540458422407,2.403570026450687,1.027350664944431,0.878092876070424,0.7554597494309409,-0.2825552651693207,-1.6690993614607135,0.1414185955172306,2.4034451173676383,1.0273381002308042,-0.00027132266886308656,-0.0001748351634499435,0.00046608164652940334,0.0003247515801025501,0.000174045935944783,-0.00032217377596300883,0.001410753567043088,0.0,0.0,0.0,0.0,0.0,0.0,0.0,-0.00020239040980074563,-0.00029628260093816916,-6.591352028734176e-05,-2.4362861156479454e-05,1.3190933006529404e-05,-0.00012490908304885195,-1.2564713626872503e-05,0.00027132266886308656,0.0001748351634499435,-0.00046608164652940334,-0.0003247515801025501,-0.000174045935944783,0.00032217377596300883,-0.001410753567043088,0.7838374972343445,46.52419662475586,5.687466144561768,-19.511445999145508,-0.7665916085243225,-2.3788485527038574,0.22098104655742645,0
54,0.2649574279785156,-0.7838374972343445,-46.52419662475586,-5.687466144561768,19.511445999145508,0.7665916085243225,2.3788485527038574,-0.22098104655742645,0.0,0.0,0.0,0.0,0.0,0.0,0.0,-0.7958188258839698,-0.1874281499365903,-0.5101797798631573,0.3243945626960975,0.1863609737208006,0.10544518900488493,-0.19134416374370988,0.8782952664802247,0.755756032031879,-0.2824893516490334,-1.669074998599557,0.14140540458422407,2.403570026450687,1.027350664944431,0.878092876070424,0.7554597494309409,-0.2825552651693207,-1.6690993614607135,0.1414185955172306,2.4034451173676383,1.0273381002308042,-0.00027132266886308656,-0.0001748351634499435,0.00046608164652940334,0.0003247515801025501,0.000174045935944783,-0.00032217377596300883,0.001410753567043088,0.0,0.0,0.0,0.0,0.0,0.0,0.0,-0.00020239040980074563,-0.00029628260093816916,-6.591352028734176e-05,-2.4362861156479454e-05,1.3190933006529404e-05,-0.00012490908304885195,-1.2564713626872503e-05,0.00027132266886308656,0.0001748351634499435,-0.00046608164652940334,-0.0003247515801025501,-0.000174045935944783,0.00032217377596300883,-0.001410753567043088,0.7838374972343445,46.52419662475586,5.687466144561768,-19.511445999145508,-0.7665916085243225,-2.3788485527038574,0.22098104655742645,0
55,0.27002406120300293,-0.8354122042655945,-46.50039291381836,-5.635891437530518,19.535249710083008,0.7730002999305725,2.3724398612976074,-0.20724813640117645,0.0,0.0,0.0,0.0,0.0,0.0,0.0,-0.7880204132104419,-0.19072066435748222,-0.5034811730695943,0.3276721665273424,0.185880073077627,0.10577715907039371,-0.19031536409392438,0.8782989127095026,0.7557543615960237,-0.2824929709267198,-1.669076677527017,0.14140467925643352,2.40357073852751,1.027349134595883,0.878092876070424,0.7554597494309409,-0.2825552651693207,-1.6690993614607135,0.1414185955172306,2.4034451173676383,1.0273381002308042,0.0010119802008898271,-0.000285278808396391,-0.0009601002915912751,0.00017762794724859808,-0.0001798583552122771,0.00013991912577551325,0.0006956335279521391,0.0,0.0,0.0,0.0,0.0,0.0,0.0,-0.00020603663907858838,-0.0002946121650828637,-6.22942426009021e-05,-2.268393369653232e-05,1.3916260797081081e-05,-0.00012562115987169165,-1.1034365078765873e-05,-0.0010119802008898271,0.000285278808396391,0.0009601002915912751,-0.00017762794724859808,0.0001798583552122771,-0.00013991912577551325,-0.0006956335279521391,0.8354122042655945,46.50039291381836,5.635891437530518,-19.535249710083008,-0.7730002999305725,-2.3724398612976074,0.20724813640117645,0
56,0.2750086784362793,-0.8354122042655945,-46.50039291381836,-5.635891437530518,19.535249710083008,0.7730002999305725,2.3724398612976074,-0.20724813640117645,0.0,0.0,0.0,0.0,0.0,0.0,0.0,-0.7880204132104419,-0.19072066435748222,-0.5034811730695943,0.3276721665273424,0.185880073077627,0.10577715907039371,-0.19031536409392438,0.8782989127095026,0.7557543615960237,-0.2824929709267198,-1.669076677527017,0.14140467925643352,2.40357073852751,1.027349134595883,0.878092876070424,0.7554597494309409,-0.2825552651693207,-1.6690993614607135,0.1414185955172306,2.4034451173676383,1.0273381002308042,0.0010119802008898271,-0.000285278808396391,-0.0009601002915912751,0.00017762794724859808,-0.0001798583552122771,0.00013991912577551325,0.0006956335279521391,0.0,0.0,0.0,0.0,0.0,0.0,0.0,-0.00020603663907858838,-0.0002946121650828637,-6.22942426009021e-05,-2.268393369653232e-05,1.3916260797081081e-05,-0.00012562115987169165,-1.1034365078765873e-05,-0.0010119802008898271,0.000285278808396391,0.0009601002915912751,-0.00017762794724859808,0.0001798583552122771,-0.00013991912577551325,-0.0006956335279521391,0.8354122042655945,46.50039291381836,5.635891437530518,-19.535249710083008,-0.7730002999305725,-2.3724398612976074,0.20724813640117645,0
57,0.27999377250671387,-0.7838374972343445,-46.50039291381836,-5.687466144561768,19.535249710083008,0.7730002999305725,2.3660311698913574,-0.16604940593242645,0.0,0.0,0.0,0.0,0.0,0.0,0.0,-0.7993282729182702,-0.1782857537014159,-0.5088122397654183,0.3225649422909459,0.18544981226178395,0.10504181068438664,-0.18943371663399228,0.8782973330900121,0.7557543615960237,-0.2824893516490334,-1.669076669023796,0.1414078773394406,2.403571450604333,1.027344556959139,0.878092876070424,0.7554597494309409,-0.2825552651693207,-1.6690993614607135,0.1414185955172306,2.4034451173676383,1.0273381002308042,-0.0008105840550122759,0.00019349887550873735,0.00022918369633516292,-0.00013443132840586526,-6.31706631563743e-05,7.820082756014261e-05,-0.0008624892245850425,0.0,0.0,0.0,0.0,0.0,0.0,0.0,-0.00020445701958815565,-0.0002946121650828637,-6.591352028734176e-05,-2.269243691754852e-05,1.071817778999784e-05,-0.00012633323669453134,-6.456728334880424e-06,0.0008105840550122759,-0.00019349887550873735,-0.00022918369633516292,0.00013443132840586526,6.31706631563743e-05,-7.820082756014261e-05,0.0008624892245850425,0.7838374972343445,46.50039291381836,5.687466144561768,-19.535249710083008,-0.7730002999305725,-2.3660311698913574,0.16604940593242645,0
58,0.28499770164489746,-0.7838374972343445,-46.50039291381836,-5.687466144561768,19.535249710083008,0.7730002999305725,2.3660311698913574,-0.16604940593242645,0.0,0.0,0.0,0.0,0.0,0.0,0.0,-0.7993282729182702,-0.1782857537014159,-0.5088122397654183,0.3225649422909459,0.18544981226178395,0.10504181068438664,-0.18943371663399228,0.8782973330900121,0.7557543615960237,-0.2824893516490334,-1.669076669023796,0.1414078773394406,2.403571450604333,1.027344556959139,0.878092876070424,0.7554597494309409,-0.2825552651693207,-1.6690993614607135,0.1414185955172306,2.4034451173676383,1.0273381002308042,-0.0008105840550122759,0.00019349887550873735,0.00022918369633516292,-0.00013443132840586526,-6.31706631563743e-05,7.820082756014261e-05,-0.0008624892245850425,0.0,0.0,0.0,0.0,0.0,0.0,0.0,-0.00020445701958815565,-0.0002946121650828637,-6.591352028734176e-05,-2.269243691754852e-05,1.071817778999784e-05,-0.00012633323669453134,-6.456728334880424e-06,0.0008105840550122759,-0.00019349887550873735,-0.00022918369633516292,0.00013443132840586526,6.31706631563743e-05,-7.820082756014261e-05,0.0008624892245850425,0.7838374972343445,46.50039291381836,5.687466144561768,-19.535249710083008,-0.7730002999305725,-2.3660311698913574,0.16604940593242645,0
59,0.2899641990661621,-0.8592159152030945,-46.50039291381836,-5.687466144561768,19.535249710083008,0.7730002999305725,2.3660311698913574,-0.20083944499492645,0.0,0.0,0.0,0.0,0.0,0.0,0.0,-0.7853310175300237,-0.19211441518192957,-0.49887739287951044,0.33082707980049636,0.185487348347931,0.1061201060145025,-0.18907026989531106,0.8783003181384753,0.7557543615960237,-0.2824893516490334,-1.6690766693386838,0.14140502932464058,2.403571450604333,1.0273484225190348,0.878092876070424,0.7554597494309409,-0.2825552651693207,-1.6690993614607135,0.1414185955172306,2.4034451173676383,1.0273381002308042,0.0016527571469974124,-0.0006096629770012458,0.0005498055779196889,-0.00032834843582208676,-6.883140740028341e-05,0.00022931920202012927,0.0005224614005560345,0.0,0.0,0.0,0.0,0.0,0.0,0.0,-0.00020744206805134446,-0.0002946121650828637,-6.591352028734176e-05,-2.2692122029654982e-05,1.3566192590019899e-05,-0.00012633323669453134,-1.0322288230613097e-05,-0.0016527571469974124,0.0006096629770012458,-0.0005498055779196889,0.00032834843582208676,6.883140740028341e-05,-0.00022931920202012927,-0.0005224614005560345,0.8592159152030945,46.50039291381836,5.687466144561768,-19.535249710083008,-0.7730002999305725,-2.3660311698913574,0.20083944499492645,0
60,0.29499387741088867,-0.8592159152030945,-46.50039291381836,-5.687466144561768,19.535249710083008,0.7730002999305725,2.3660311698913574,-0.20083944499492645,0.0,0.0,0.0,0.0,0.0,0.0,0.0,-0.7853310175300237,-0.19211441518192957,-0.49887739287951044,0.33082707980049636,0.185487348347931,0.1061201060145025,-0.18907026989531106,0.8783003181384753,0.7557543615960237,-0.2824893516490334,-1.6690766693386838,0.14140502932464058,2.403571450604333,1.0273484225190348,0.878092876070424,0.7554597494309409,-0.2825552651693207,-1.6690993614607135,0.1414185955172306,2.4034451173676383,1.0273381002308042,0.0016527571469974124,-0.0006096629770012458,0.0005498055779196889,-0.00032834843582208676,-6.883140740028341e-05,0.00022931920202012927,0.0005224614005560345,0.0,0.0,0.0,0.0,0.0,0.0,0.0,-0.00020744206805134446,-0.0002946121650828637,-6.591352028734176e-05,-2.2692122029654982e-05,1.3566192590019899e-05,-0.00012633323669453134,-1.0322288230613097e-05,-0.0016527571469974124,0.0006096629770012458,-0.0005498055779196889,0.00032834843582208676,6.883140740028341e-05,-0.00022931920202012927,-0.0005224614005560345,0.8592159152030945,46.50039291381836,5.687466144561768,-19.535249710083008,-0.7730002999305725,-2.3660311698913574,0.20083944499492645,0
61,0.29499387741088867,-0.8592159152030945,-46.50039291381836,-5.687466144561768,19.535249710083008,0.7730002999305725,2.3660311698913574,-0.20083944499492645,0.0,0.0,0.0,0.0,0.0,0.0,0.0,-0.7853310175300237,-0.19211441518192957,-0.49887739287951044,0.33082707980049636,0.185487348347931,0.1061201060145025,-0.18907026989531106,0.8783003181384753,0.7557543615960237,-0.2824893516490334,-1.6690766693386838,0.14140502932464058,2.403571450604333,1.0273484225190348,0.878092876070424,0.7554597494309409,-0.2825552651693207,-1.6690993614607135,0.1414185955172306,2.4034451173676383,1.0273381002308042,0.0016527571469974124,-0.0006096629770012458,0.0005498055779196889,-0.00032834843582208676,-6.883140740028341e-05,0.00022931920202012927,0.0005224614005560345,0.0,0.0,0.0,0.0,0.0,0.0,0.0,-0.00020744206805134446,-0.0002946121650828637,-6.591352028734176e-05,-2.2692122029654982e-05,1.3566192590019899e-05,-0.00012633323669453134,-1.0322288230613097e-05,-0.0016527571469974124,0.0006096629770012458,-0.0005498055779196889,0.00032834843582208676,6.883140740028341e-05,-0.00022931920202012927,-0.0005224614005560345,0.8592159152030945,46.50039291381836,5.687466144561768,-19.535249710083008,-0.7730002999305725,-2.3660311698913574,0.20083944499492645,0
62,0.30503344535827637,-0.8076412081718445,-46.54800033569336,-5.663662433624268,19.559053421020508,0.7730002999305725,2.3724398612976074,-0.21457235515117645,0.0,0.0,0.0,0.0,0.0,0.0,0.0,-0.7981300555833544,-0.19123833237306728,-0.5055969557249124,0.33020580257607474,0.18605216787871895,0.1063878137310308,-0.18878198737966262,0.8782991096335394,0.7557577024677342,-0.28249102208488863,-1.6690783394596052,0.14140467483005364,2.40357073852751,1.0273499483979411,0.878092876070424,0.7554597494309409,-0.2825552651693207,-1.6690993614607135,0.1414185955172306,2.4034451173676383,1.0273381002308042,0.00014271153238745322,0.0006218628008934825,-0.0005351041531693241,-0.00044984721648166085,-7.985166739441414e-05,-0.00020868025516821402,0.0016127034676806506,0.0,0.0,0.0,0.0,0.0,0.0,0.0,-0.00020623356311544327,-0.0002979530367933636,-6.424308443209181e-05,-2.1022001108317312e-05,1.3920687176954827e-05,-0.00012562115987169165,-1.1848167136951915e-05,-0.00014271153238745322,-0.0006218628008934825,0.0005351041531693241,0.00044984721648166085,7.985166739441414e-05,0.00020868025516821402,-0.0016127034676806506,0.8076412081718445,46.54800033569336,5.663662433624268,-19.559053421020508,-0.7730002999305725,-2.3724398612976074,0.21457235515117645,0
63,0.3100016117095947,-0.8076412081718445,-46.54800033569336,-5.663662433624268,19.559053421020508,0.7730002999305725,2.3724398612976074,-0.21457235515117645,0.0,0.0,0.0,0.0,0.0,0.0,0.0,-0.7981300555833544,-0.19123833237306728,-0.5055969557249124,0.33020580257607474,0.18605216787871895,0.1063878137310308,-0.18878198737966262,0.8782991096335394,0.7557577024677342,-0.28249102208488863,-1.6690783394596052,0.14140467483005364,2.40357073852751,1.0273499483979411,0.878092876070424,0.7554597494309409,-0.2825552651693207,-1.6690993614607135,0.1414185955172306,2.4034451173676383,1.0273381002308042,0.00014271153238745322,0.0006218628008934825,-0.0005351041531693241,-0.00044984721648166085,-7.985166739441414e-05,-0.00020868025516821402,0.0016127034676806506,0.0,0.0,0.0,0.0,0.0,0.0,0.0,-0.00020623356311544327,-0.0002979530367933636,-6.424308443209181e-05,-2.1022001108317312e-05,1.3920687176954827e-05,-0.00012562115987169165,-1.1848167136951915e-05,-0.00014271153238745322,-0.0006218628008934825,0.0005351041531693241,0.00044984721648166085,7.985166739441414e-05,0.00020868025516821402,-0.0016127034676806506,0.8076412081718445,46.54800033569336,5.663662433624268,-19.559053421020508,-0.7730002999305725,-2.3724398612976074,0.21457235515117645,0
64,0.31502532958984375,-0.8076412081718445,-46.50039291381836,-5.687466144561768,19.535249710083008,0.7665916085243225,2.3660311698913574,-0.21457235515117645,0.0,0.0,0.0,0.0,0.0,0.0,0.0,-0.7961371742758955,-0.17832355546017542,-0.5059571363981483,0.32299852581216426,0.18572118109086894,0.1046047718132951,-0.18778070577648476,0.8782991095017934,0.7557543615960237,-0.2824893516490334,-1.669076669023748,0.14140579571083509,2.403571450604333,1.0273499483979411,0.878092876070424,0.7554597494309409,-0.2825552651693207,-1.6690993614607135,0.1414185955172306,2.4034451173676383,1.0273381002308042,0.00045256676873533516,-0.00031836961894206886,-3.923730561843068e-05,-0.0003246492606033658,-5.2409710939401146e-05,-5.524340150371305e-05,0.001354576184704873,0.0,0.0,0.0,0.0,0.0,0.0,0.0,-0.00020623343136938477,-0.0002946121650828637,-6.591352028734176e-05,-2.2692436965510154e-05,1.2799806395513702e-05,-0.00012633323669453134,-1.1848167136951915e-05,-0.00045256676873533516,0.00031836961894206886,3.923730561843068e-05,0.0003246492606033658,5.2409710939401146e-05,5.524340150371305e-05,-0.001354576184704873,0.8076412081718445,46.50039291381836,5.687466144561768,-19.535249710083008,-0.7665916085243225,-2.3660311698913574,0.21457235515117645,0
65,0.32004761695861816,-0.8076412081718445,-46.50039291381836,-5.687466144561768,19.535249710083008,0.7665916085243225,2.3660311698913574,-0.21457235515117645,0.0,0.0,0.0,0.0,0.0,0.0,0.0,-0.7961371742758955,-0.17832355546017542,-0.5059571363981483,0.32299852581216426,0.18572118109086894,0.1046047718132951,-0.18778070577648476,0.8782991095017934,0.7557543615960237,-0.2824893516490334,-1.669076669023748,0.14140579571083509,2.403571450604333,1.0273499483979411,0.878092876070424,0.7554597494309409,-0.2825552651693207,-1.6690993614607135,0.1414185955172306,2.4034451173676383,1.0273381002308042,0.00045256676873533516,-0.00031836961894206886,-3.923730561843068e-05,-0.0003246492606033658,-5.2409710939401146e-05,-5.524340150371305e-05,0.001354576184704873,0.0,0.0,0.0,0.0,0.0,0.0,0.0,-0.00020623343136938477,-0.0002946121650828637,-6.591352028734176e-05,-2.2692436965510154e-05,1.2799806395513702e-05,-0.00012633323669453134,-1.1848167136951915e-05,-0.00045256676873533516,0.00031836961894206886,3.923730561843068e-05,0.0003246492606033658,5.2409710939401146e-05,5.524340150371305e-05,-0.001354576184704873,0.8076412081718445,46.50039291381836,5.687466144561768,-19.535249710083008,-0.7665916085243225,-2.3660311698913574,0.21457235515117645,0
66,0.3249630928039551,-0.8076412081718445,-46.52419662475586,-5.663662433624268,19.511445999145508,0.7665916085243225,2.3660311698913574,-0.19351522624492645,0.0,0.0,0.0,0.0,0.0,0.0,0.0,-0.7886122372801395,-0.18820765762039104,-0.5044970255469334,0.328940091661721,0.18483837024606456,0.10454168393957117,-0.1873335963753279,0.8782961599939721,0.755756032031879,-0.28249102208488863,-1.6690749985878928,0.14140999809799898,2.403571450604333,1.0273476087169515,0.878092876070424,0.7554597494309409,-0.2825552651693207,-1.6690993614607135,0.1414185955172306,2.4034451173676383,1.0273381002308042,0.0003920273280914123,0.00021456878688587685,3.6920831345882135e-05,0.0006947958840521095,5.1551349247354494e-05,-1.4566911534972953e-05,4.1594202765009144e-05,0.0,0.0,0.0,0.0,0.0,0.0,0.0,-0.00020328392354818092,-0.00029628260093816916,-6.424308443209181e-05,-2.4362872820704595e-05,8.597419231620718e-06,-0.00012633323669453134,-9.508486147336015e-06,-0.0003920273280914123,-0.00021456878688587685,-3.6920831345882135e-05,-0.0006947958840521095,-5.1551349247354494e-05,1.4566911534972953e-05,-4.1594202765009144e-05,0.8076412081718445,46.52419662475586,5.663662433624268,-19.511445999145508,-0.7665916085243225,-2.3660311698913574,0.19351522624492645,0
67,0.3299441337585449,-0.8076412081718445,-46.52419662475586,-5.663662433624268,19.511445999145508,0.7665916085243225,2.3660311698913574,-0.19351522624492645,0.0,0.0,0.0,0.0,0.0,0.0,0.0,-0.7886122372801395,-0.18820765762039104,-0.5044970255469334,0.328940091661721,0.18483837024606456,0.10454168393957117,-0.1873335963753279,0.8782961599939721,0.755756032031879,-0.28249102208488863,-1.6690749985878928,0.14140999809799898,2.403571450604333,1.0273476087169515,0.878092876070424,0.7554597494309409,-0.2825552651693207,-1.6690993614607135,0.1414185955172306,2.4034451173676383,1.0273381002308042,0.0003920273280914123,0.00021456878688587685,3.6920831345882135e-05,0.0006947958840521095,5.1551349247354494e-05,-1.4566911534972953e-05,4.1594202765009144e-05,0.0,0.0,0.0,0.0,0.0,0.0,0.0,-0.00020328392354818092,-0.00029628260093816916,-6.424308443209181e-05,-2.4362872820704595e-05,8.597419231620718e-06,-0.00012633323669453134,-9.508486147336015e-06,-0.0003920273280914123,-0.00021456878688587685,-3.6920831345882135e-05,-0.0006947958840521095,-5.1551349247354494e-05,1.4566911534972953e-05,-4.1594202765009144e-05,0.8076412081718445,46.52419662475586,5.663662433624268,-19.511445999145508,-0.7665916085243225,-2.3660311698913574,0.19351522624492645,0
68,0.33500170707702637,-0.7838374972343445,-46.54800033569336,-5.687466144561768,19.511445999145508,0.7665916085243225,2.3660311698913574,-0.22830526530742645,0.0,0.0,0.0,0.0,0.0,0.0,0.0,-0.7951160326855294,-0.18711546184361985,-0.5074065441674018,0.3268623387629726,0.1849339667884123,0.10372120861921795,-0.1885430623727624,0.8782950545727861,0.7557577024677342,-0.2824893516490334,-1.6690749985878928,0.14140967825940995,2.403571450604333,1.0273514742768473,0.878092876070424,0.7554597494309409,-0.2825552651693207,-1.6690993614607135,0.1414185955172306,2.4034451173676383,1.0273381002308042,2.3386839520454276e-05,0.000920986027385761,0.00035248317227413594,0.00047929863169585466,0.0002760099492933967,0.00011605703863451752,0.0018106113262700626,0.0,0.0,0.0,0.0,0.0,0.0,0.0,-0.00020217850236214918,-0.0002979530367933636,-6.591352028734176e-05,-2.4362872820704595e-05,8.917257820650892e-06,-0.00012633323669453134,-1.3374046043068688e-05,-2.3386839520454276e-05,-0.000920986027385761,-0.00035248317227413594,-0.00047929863169585466,-0.0002760099492933967,-0.00011605703863451752,-0.0018106113262700626,0.7838374972343445,46.54800033569336,5.687466144561768,-19.511445999145508,-0.7665916085243225,-2.3660311698913574,0.22830526530742645,0
69,0.3399927616119385,-0.7838374972343445,-46.54800033569336,-5.687466144561768,19.511445999145508,0.7665916085243225,2.3660311698913574,-0.22830526530742645,0.0,0.0,0.0,0.0,0.0,0.0,0.0,-0.7951160326855294,-0.18711546184361985,-0.5074065441674018,0.3268623387629726,0.1849339667884123,0.10372120861921795,-0.1885430623727624,0.8782950545727861,0.7557577024677342,-0.2824893516490334,-1.6690749985878928,0.14140967825940995,2.403571450604333,1.0273514742768473,0.878092876070424,0.7554597494309409,-0.2825552651693207,-1.6690993614607135,0.1414185955172306,2.4034451173676383,1.0273381002308042,2.3386839520454276e-05,0.000920986027385761,0.00035248317227413594,0.00047929863169585466,0.0002760099492933967,0.00011605703863451752,0.0018106113262700626,0.0,0.0,0.0,0.0,0.0,0.0,0.0,-0.00020217850236214918,-0.0002979530367933636,-6.591352028734176e-05,-2.4362872820704595e-05,8.917257820650892e-06,-0.00012633323669453134,-1.3374046043068688e-05,-2.3386839520454276e-05,-0.000920986027385761,-0.00035248317227413594,-0.00047929863169585466,-0.0002760099492933967,-0.00011605703863451752,-0.0018106113262700626,0.7838374972343445,46.54800033569336,5.687466144561768,-19.511445999145508,-0.7665916085243225,-2.3660311698913574,0.22830526530742645,0
70,0.34528303146362305,-0.7838374972343445,-46.52419662475586,-5.612087726593018,19.487642288208008,0.7730002999305725,2.3660311698913574,-0.24112264811992645,0.0,0.0,0.0,0.0,0.0,0.0,0.0,-0.7894631247529528,-0.18516339696348097,-0.5027646091249548,0.3254644488485667,0.18524993159705885,0.10359760892300615,-0.1887694601053689,0.878295293394281,0.755756032031879,-0.28249464136257507,-1.6690733290968451,0.1414058954377859,2.403571450604333,1.0273528984304932,0.878092876070424,0.7554597494309409,-0.2825552651693207,-1.6690993614607135,0.1414185955172306,2.4034451173676383,1.0273381002308042,-0.00017048189480921137,0.0001953557041156823,-0.0012998535076012825,0.000852843217059189,-0.00015671076825286837,0.00019294047643734534,0.0022406773039752004,0.0,0.0,0.0,0.0,0.0,0.0,0.0,-0.00020241732385706257,-0.00029628260093816916,-6.0623806745652153e-05,-2.603236386833352e-05,1.2700079444705192e-05,-0.00012633323669453134,-1.4798199688970115e-05,0.00017048189480921137,-0.0001953557041156823,0.0012998535076012825,-0.000852843217059189,0.00015671076825286837,-0.00019294047643734534,-0.0022406773039752004,0.7838374972343445,46.52419662475586,5.612087726593018,-19.487642288208008,-0.7730002999305725,-2.3660311698913574,0.24112264811992645,0
71,0.3500063419342041,-0.7838374972343445,-46.52419662475586,-5.612087726593018,19.487642288208008,0.7730002999305725,2.3660311698913574,-0.24112264811992645,0.0,0.0,0.0,0.0,0.0,0.0,0.0,-0.7894631247529528,-0.18516339696348097,-0.5027646091249548,0.3254644488485667,0.18524993159705885,0.10359760892300615,-0.1887694601053689,0.878295293394281,0.755756032031879,-0.28249464136257507,-1.6690733290968451,0.1414058954377859,2.403571450604333,1.0273528984304932,0.878092876070424,0.7554597494309409,-0.2825552651693207,-1.6690993614607135,0.1414185955172306,2.4034451173676383,1.0273381002308042,-0.00017048189480921137,0.0001953557041156823,-0.0012998535076012825,0.000852843217059189,-0.00015671076825286837,0.00019294047643734534,0.0022406773039752004,0.0,0.0,0.0,0.0,0.0,0.0,0.0,-0.00020241732385706257,-0.00029628260093816916,-6.0623806745652153e-05,-2.603236386833352e-05,1.2700079444705192e-05,-0.00012633323669453134,-1.4798199688970115e-05,0.00017048189480921137,-0.0001953557041156823,0.0012998535076012825,-0.000852843217059189,0.00015671076825286837,-0.00019294047643734534,-0.0022406773039752004,0.7838374972343445,46.52419662475586,5.612087726593018,-19.487642288208008,-0.7730002999305725,-2.3660311698913574,0.24112264811992645,0
72,0.355008602142334,-0.7838374972343445,-46.52419662475586,-5.663662433624268,19.535249710083008,0.7730002999305725,2.3788485527038574,-0.22098104655742645,0.0,0.0,0.0,0.0,0.0,0.0,0.0,-0.7883607359219803,-0.20086213185513538,-0.5031792270572711,0.3330803030166761,0.18574471698689746,0.10516333493552173,-0.18778216772437342,0.8782963970884434,0.755756032031879,-0.28249103075168197,-1.6690787353181162,0.141404833780816,2.403570026450687,1.027350660474764,0.878092876070424,0.7554597494309409,-0.2825552651693207,-1.6690993614607135,0.1414185955172306,2.4034451173676383,1.0273381002308042,0.00022580240280615916,-0.0005941933169323843,-0.00035045785049776427,0.00022279846056696322,4.3389440009157305e-05,-7.547228685856647e-05,0.0012313037420793147,0.0,0.0,0.0,0.0,0.0,0.0,0.0,-0.0002035210180194591,-0.00029628260093816916,-6.423441763875326e-05,-2.0626142597235386e-05,1.3761736414596992e-05,-0.00012490908304885195,-1.2560243959791606e-05,-0.00022580240280615916,0.0005941933169323843,0.00035045785049776427,-0.00022279846056696322,-4.3389440009157305e-05,7.547228685856647e-05,-0.0012313037420793147,0.7838374972343445,46.52419662475586,5.663662433624268,-19.535249710083008,-0.7730002999305725,-2.3788485527038574,0.22098104655742645,0
73,0.36000704765319824,-0.7838374972343445,-46.52419662475586,-5.663662433624268,19.535249710083008,0.7730002999305725,2.3788485527038574,-0.22098104655742645,0.0,0.0,0.0,0.0,0.0,0.0,0.0,-0.7883607359219803,-0.20086213185513538,-0.5031792270572711,0.3330803030166761,0.18574471698689746,0.10516333493552173,-0.18778216772437342,0.8782963970884434,0.755756032031879,-0.28249103075168197,-1.6690787353181162,0.141404833780816,2.403570026450687,1.027350660474764,0.878092876070424,0.7554597494309409,-0.2825552651693207,-1.6690993614607135,0.1414185955172306,2.4034451173676383,1.0273381002308042,0.00022580240280615916,-0.0005941933169323843,-0.00035045785049776427,0.00022279846056696322,4.3389440009157305e-05,-7.547228685856647e-05,0.0012313037420793147,0.0,0.0,0.0,0.0,0.0,0.0,0.0,-0.0002035210180194591,-0.00029628260093816916,-6.423441763875326e-05,-2.0626142597235386e-05,1.3761736414596992e-05,-0.00012490908304885195,-1.2560243959791606e-05,-0.00022580240280615916,0.0005941933169323843,0.00035045785049776427,-0.00022279846056696322,-4.3389440009157305e-05,7.547228685856647e-05,-0.0012313037420793147,0.7838374972343445,46.52419662475586,5.663662433624268,-19.535249710083008,-0.7730002999305725,-2.3788485527038574,0.22098104655742645,0
74,0.36527419090270996,-0.8592159152030945,-46.52419662475586,-5.687466144561768,19.487642288208008,0.7665916085243225,2.3724398612976074,-0.17978231608867645,0.0,0.0,0.0,0.0,0.0,0.0,0.0,-0.703910197206494,-0.16790229351952307,-0.43319278612190315,0.32154953197940944,0.1844320789869512,0.10322624147809864,-0.1882104180127518,0.878302612820548,0.755756032031879,-0.28248935197004205,-1.6690753944502779,0.14140540199013243,2.4035717981656393,1.0273460828380452,0.878092876070424,0.7554597494309409,-0.2825552651693207,-1.6690993614607135,0.1414185955172306,2.4034451173676383,1.0273381002308042,0.0015863259550730469,0.00024630900458394244,-0.0007030619901914133,0.0008754851314065177,1.9542814779232317e-05,5.637738009527834e-05,-0.00017809853014668175,0.0,0.0,0.0,0.0,0.0,0.0,0.0,-0.00020973675012403437,-0.00029628260093816916,-6.591319927867767e-05,-2.3967010435610447e-05,1.3193527098165347e-05,-0.00012668079800093324,-7.982607240997197e-06,-0.0015863259550730469,-0.00024630900458394244,0.0007030619901914133,-0.0008754851314065177,-1.9542814779232317e-05,-5.637738009527834e-05,0.00017809853014668175,0.8592159152030945,46.52419662475586,5.687466144561768,-19.487642288208008,-0.7665916085243225,-2.3724398612976074,0.17978231608867645,0
75,0.37001705169677734,-0.8592159152030945,-46.52419662475586,-5.687466144561768,19.487642288208008,0.7665916085243225,2.3724398612976074,-0.17978231608867645,0.0,0.0,0.0,0.0,0.0,0.0,0.0,-0.703910197206494,-0.16790229351952307,-0.43319278612190315,0.32154953197940944,0.1844320789869512,0.10322624147809864,-0.1882104180127518,0.878302612820548,0.755756032031879,-0.28248935197004205,-1.6690753944502779,0.14140540199013243,2.4035717981656393,1.0273460828380452,0.878092876070424,0.7554597494309409,-0.2825552651693207,-1.6690993614607135,0.1414185955172306,2.4034451173676383,1.0273381002308042,0.0015863259550730469,0.00024630900458394244,-0.0007030619901914133,0.0008754851314065177,1.9542814779232317e-05,5.637738009527834e-05,-0.00017809853014668175,0.0,0.0,0.0,0.0,0.0,0.0,0.0,-0.00020973675012403437,-0.00029628260093816916,-6.591319927867767e-05,-2.3967010435610447e-05,1.3193527098165347e-05,-0.00012668079800093324,-7.982607240997197e-06,-0.0015863259550730469,-0.00024630900458394244,0.0007030619901914133,-0.0008754851314065177,-1.9542814779232317e-05,-5.637738009527834e-05,0.00017809853014668175,0.8592159152030945,46.52419662475586,5.687466144561768,-19.487642288208008,-0.7665916085243225,-2.3724398612976074,0.17978231608867645,0
76,0.3750157356262207,-0.8592159152030945,-46.52419662475586,-5.687466144561768,19.487642288208008,0.7665916085243225,2.3724398612976074,-0.17978231608867645,0.0,0.0,0.0,0.0,0.0,0.0,0.0,-0.703910197206494,-0.16790229351952307,-0.43319278612190315,0.32154953197940944,0.1844320789869512,0.10322624147809864,-0.1882104180127518,0.878302612820548,0.755756032031879,-0.28248935197004205,-1.6690753944502779,0.14140540199013243,2.4035717981656393,1.0273460828380452,0.878092876070424,0.7554597494309409,-0.2825552651693207,-1.6690993614607135,0.1414185955172306,2.4034451173676383,1.0273381002308042,0.0015863259550730469,0.00024630900458394244,-0.0007030619901914133,0.0008754851314065177,1.9542814779232317e-05,5.637738009527834e-05,-0.00017809853014668175,0.0,0.0,0.0,0.0,0.0,0.0,0.0,-0.00020973675012403437,-0.00029628260093816916,-6.591319927867767e-05,-2.3967010435610447e-05,1.3193527098165347e-05,-0.00012668079800093324,-7.982607240997197e-06,-0.0015863259550730469,-0.00024630900458394244,0.0007030619901914133,-0.0008754851314065177,-1.9542814779232317e-05,-5.637738009527834e-05,0.00017809853014668175,0.8592159152030945,46.52419662475586,5.687466144561768,-19.487642288208008,-0.7665916085243225,-2.3724398612976074,0.17978231608867645,0
77,0.38000965118408203,-0.8592159152030945,-46.52419662475586,-5.687466144561768,19.487642288208008,0.7665916085243225,2.3724398612976074,-0.17978231608867645,0.0,0.0,0.0,0.0,0.0,0.0,0.0,-0.703910197206494,-0.16790229351952307,-0.43319278612190315,0.32154953197940944,0.1844320789869512,0.10322624147809864,-0.1882104180127518,0.878302612820548,0.755756032031879,-0.28248935197004205,-1.6690753944502779,0.14140540199013243,2.4035717981656393,1.0273460828380452,0.878092876070424,0.7554597494309409,-0.2825552651693207,-1.6690993614607135,0.1414185955172306,2.4034451173676383,1.0273381002308042,0.0015863259550730469,0.00024630900458394244,-0.0007030619901914133,0.0008754851314065177,1.9542814779232317e-05,5.637738009527834e-05,-0.00017809853014668175,0.0,0.0,0.0,0.0,0.0,0.0,0.0,-0.00020973675012403437,-0.00029628260093816916,-6.591319927867767e-05,-2.3967010435610447e-05,1.3193527098165347e-05,-0.00012668079800093324,-7.982607240997197e-06,-0.0015863259550730469,-0.00024630900458394244,0.0007030619901914133,-0.0008754851314065177,-1.9542814779232317e-05,-5.637738009527834e-05,0.00017809853014668175,0.8592159152030945,46.52419662475586,5.687466144561768,-19.487642288208008,-0.7665916085243225,-2.3724398612976074,0.17978231608867645,0
78,0.3849964141845703,-0.8076412081718445,-46.52419662475586,-5.687466144561768,19.511445999145508,0.7784934639930725,2.3788485527038574,-0.17337362468242645,0.0,0.0,0.0,0.0,0.0,0.0,0.0,-0.7906245716670822,-0.18247072217732951,-0.5003323922112431,0.3221396773967348,0.18566293168152048,0.10496260928461379,-0.1874153675674515,0.8782967251336532,0.755756032031879,-0.28249145767981726,-1.669074998599557,0.1414042002951998,2.403570026456669,1.0273453707612223,0.878092876070424,0.7554597494309409,-0.2825552651693207,-1.6690993614607135,0.1414185955172306,2.4034451173676383,1.0273381002308042,-3.156378259885255e-05,0.0003913401166397102,0.0003130680838829773,0.0004792470510280312,-0.0002781717900538868,-0.00028502790863098093,-0.0010871858693106973,0.0,0.0,0.0,0.0,0.0,0.0,0.0,-0.00020384906322923335,-0.00029628260093816916,-6.38074895034646e-05,-2.4362861156479454e-05,1.4395222030810784e-05,-0.0001249090890307336,-7.270530418157506e-06,3.156378259885255e-05,-0.0003913401166397102,-0.0003130680838829773,-0.0004792470510280312,0.0002781717900538868,0.00028502790863098093,0.0010871858693106973,0.8076412081718445,46.52419662475586,5.687466144561768,-19.511445999145508,-0.7784934639930725,-2.3788485527038574,0.17337362468242645,0
79,0.3899970054626465,-0.8076412081718445,-46.52419662475586,-5.687466144561768,19.511445999145508,0.7784934639930725,2.3788485527038574,-0.17337362468242645,0.0,0.0,0.0,0.0,0.0,0.0,0.0,-0.7906245716670822,-0.18247072217732951,-0.5003323922112431,0.3221396773967348,0.18566293168152048,0.10496260928461379,-0.1874153675674515,0.8782967251336532,0.755756032031879,-0.28249145767981726,-1.669074998599557,0.1414042002951998,2.403570026456669,1.0273453707612223,0.878092876070424,0.7554597494309409,-0.2825552651693207,-1.6690993614607135,0.1414185955172306,2.4034451173676383,1.0273381002308042,-3.156378259885255e-05,0.0003913401166397102,0.0003130680838829773,0.0004792470510280312,-0.0002781717900538868,-0.00028502790863098093,-0.0010871858693106973,0.0,0.0,0.0,0.0,0.0,0.0,0.0,-0.00020384906322923335,-0.00029628260093816916,-6.38074895034646e-05,-2.4362861156479454e-05,1.4395222030810784e-05,-0.0001249090890307336,-7.270530418157506e-06,3.156378259885255e-05,-0.0003913401166397102,-0.0003130680838829773,-0.0004792470510280312,0.0002781717900538868,0.00028502790863098093,0.0010871858693106973,0.8076412081718445,46.52419662475586,5.687466144561768,-19.511445999145508,-0.7784934639930725,-2.3788485527038574,0.17337362468242645,0
80,0.3949921131134033,-0.7560665011405945,-46.54800033569336,-5.711269855499268,19.511445999145508,0.7730002999305725,2.3852572441101074,-0.17337362468242645,0.0,0.0,0.0,0.0,0.0,0.0,0.0,-0.8115863925593676,-0.21052904165908531,-0.5190177098551249,0.3392402339736545,0.18656049061066352,0.10881340231236156,-0.18908060716775357,0.8782947486093108,0.7557577024677342,-0.28248768122506673,-1.6690750240976995,0.14140609700912926,2.403569314373864,1.0273453707612223,0.878092876070424,0.7554597494309409,-0.2825552651693207,-1.6690993614607135,0.1414185955172306,2.4034451173676383,1.0273381002308042,-0.001181920078595441,0.0004649745543044935,0.0007231053012580156,0.0009124427823128094,-2.1311465801172813e-05,-0.005962235847004617,-0.0006986808708844466,0.0,0.0,0.0,0.0,0.0,0.0,0.0,-0.0002018725388868159,-0.0002979530367933636,-6.75839442539905e-05,-2.433736301399314e-05,1.2498508101338457e-05,-0.00012419700622556817,-7.270530418157506e-06,0.001181920078595441,-0.0004649745543044935,-0.0007231053012580156,-0.0009124427823128094,2.1311465801172813e-05,0.005962235847004617,0.0006986808708844466,0.7560665011405945,46.54800033569336,5.711269855499268,-19.511445999145508,-0.7730002999305725,-2.3852572441101074,0.17337362468242645,0
