rezayati/contactInterpretation/dataset/franka_main/labeled_data/link3/e2_6.csv
index,time,tau_J0,tau_J1,tau_J2,tau_J3,tau_J4,tau_J5,tau_J6,tau_J_d0,tau_J_d1,tau_J_d2,tau_J_d3,tau_J_d4,tau_J_d5,tau_J_d6,tau_ext0,tau_ext1,tau_ext2,tau_ext3,tau_ext4,tau_ext5,tau_ext6,q0,q1,q2,q3,q4,q5,q6,q_d0,q_d1,q_d2,q_d3,q_d4,q_d5,q_d6,dq0,dq1,dq2,dq3,dq4,dq5,dq6,dq_d0,dq_d1,dq_d2,dq_d3,dq_d4,dq_d5,dq_d6,e0,e1,e2,e3,e4,e5,e6,de0,de1,de2,de3,de4,de5,de6,etau_J0,etau_J1,etau_J2,etau_J3,etau_J4,etau_J5,etau_J6,label
1,0.0,0.10880166292190552,-18.078760147094727,1.1441986560821533,17.999910354614258,0.5102439522743225,2.2360262870788574,-0.22830526530742645,0.0,0.0,0.0,0.0,0.0,0.0,0.0,0.10084868993113252,0.5437177171573935,0.32518432992061713,0.35992902181803116,0.07417919616940197,0.05901749240393032,-0.18447922881859202,-0.6093050851582925,-0.0574643979416589,-0.6666589451169308,-2.5945537190019037,-0.055625150422227716,2.507973196521281,0.8763183509425244,-0.6090851748156966,-0.05753196718556838,-0.666603097082616,-2.5945565370258534,-0.05562143941554,2.507976027223799,0.8763108487046415,-8.069740294999118e-05,-0.0014138861670050205,0.00028991824285796276,-0.00019000074104226424,-0.00037962246664333647,0.000103328121981915,0.0010120983883425746,0.0,0.0,0.0,0.0,0.0,0.0,0.0,0.00021991034259594144,-6.756924390948632e-05,5.5848034314798234e-05,-2.8180239497466175e-06,3.711006687716345e-06,2.8307025181639744e-06,-7.502237882928142e-06,8.069740294999118e-05,0.0014138861670050205,-0.00028991824285796276,0.00019000074104226424,0.00037962246664333647,-0.000103328121981915,-0.0010120983883425746,-0.10880166292190552,18.078760147094727,-1.1441986560821533,-17.999910354614258,-0.5102439522743225,-2.2360262870788574,0.22830526530742645,0
2,0.005008697509765625,0.10880166292190552,-18.078760147094727,1.1441986560821533,17.999910354614258,0.5102439522743225,2.2360262870788574,-0.22830526530742645,0.0,0.0,0.0,0.0,0.0,0.0,0.0,0.10084868993113252,0.5437177171573935,0.32518432992061713,0.35992902181803116,0.07417919616940197,0.05901749240393032,-0.18447922881859202,-0.6093050851582925,-0.0574643979416589,-0.6666589451169308,-2.5945537190019037,-0.055625150422227716,2.507973196521281,0.8763183509425244,-0.6090851748156966,-0.05753196718556838,-0.666603097082616,-2.5945565370258534,-0.05562143941554,2.507976027223799,0.8763108487046415,-8.069740294999118e-05,-0.0014138861670050205,0.00028991824285796276,-0.00019000074104226424,-0.00037962246664333647,0.000103328121981915,0.0010120983883425746,0.0,0.0,0.0,0.0,0.0,0.0,0.0,0.00021991034259594144,-6.756924390948632e-05,5.5848034314798234e-05,-2.8180239497466175e-06,3.711006687716345e-06,2.8307025181639744e-06,-7.502237882928142e-06,8.069740294999118e-05,0.0014138861670050205,-0.00028991824285796276,0.00019000074104226424,0.00037962246664333647,-0.000103328121981915,-0.0010120983883425746,-0.10880166292190552,18.078760147094727,-1.1441986560821533,-17.999910354614258,-0.5102439522743225,-2.2360262870788574,0.22830526530742645,0
3,0.010008096694946289,0.13260537385940552,-18.054956436157227,1.1441986560821533,17.999910354614258,0.4983420968055725,2.2360262870788574,-0.17337362468242645,0.0,0.0,0.0,0.0,0.0,0.0,0.0,0.09932017459969592,0.5442740068553221,0.32403369138458893,0.3556790344631922,0.07407817776611805,0.05746370126700449,-0.1855063405783363,-0.60930652158016,-0.057467655461848975,-0.6666586802075481,-2.5945537190019037,-0.0556227633886867,2.507973341714234,0.8763143666852871,-0.6090851748156966,-0.05753196718556838,-0.666603097082616,-2.5945565370258534,-0.05562143941554,2.507976027223799,0.8763108487046415,-0.0006336096482933363,-0.0013560066610523009,7.278233198234099e-05,-0.0008946745644516447,1.7316378948238557e-05,-2.9097839329376376e-05,-0.0003100785268813791,0.0,0.0,0.0,0.0,0.0,0.0,0.0,0.00022134676446339263,-6.431172371940824e-05,5.55831249321459e-05,-2.8180239497466175e-06,1.3239731466996307e-06,2.685509564948063e-06,-3.517980645573182e-06,0.0006336096482933363,0.0013560066610523009,-7.278233198234099e-05,0.0008946745644516447,-1.7316378948238557e-05,2.9097839329376376e-05,0.0003100785268813791,-0.13260537385940552,18.054956436157227,-1.1441986560821533,-17.999910354614258,-0.4983420968055725,-2.2360262870788574,0.17337362468242645,0
4,0.015009403228759766,0.13260537385940552,-18.054956436157227,1.1441986560821533,17.999910354614258,0.4983420968055725,2.2360262870788574,-0.17337362468242645,0.0,0.0,0.0,0.0,0.0,0.0,0.0,0.09932017459969592,0.5442740068553221,0.32403369138458893,0.3556790344631922,0.07407817776611805,0.05746370126700449,-0.1855063405783363,-0.60930652158016,-0.057467655461848975,-0.6666586802075481,-2.5945537190019037,-0.0556227633886867,2.507973341714234,0.8763143666852871,-0.6090851748156966,-0.05753196718556838,-0.666603097082616,-2.5945565370258534,-0.05562143941554,2.507976027223799,0.8763108487046415,-0.0006336096482933363,-0.0013560066610523009,7.278233198234099e-05,-0.0008946745644516447,1.7316378948238557e-05,-2.9097839329376376e-05,-0.0003100785268813791,0.0,0.0,0.0,0.0,0.0,0.0,0.0,0.00022134676446339263,-6.431172371940824e-05,5.55831249321459e-05,-2.8180239497466175e-06,1.3239731466996307e-06,2.685509564948063e-06,-3.517980645573182e-06,0.0006336096482933363,0.0013560066610523009,-7.278233198234099e-05,0.0008946745644516447,-1.7316378948238557e-05,2.9097839329376376e-05,0.0003100785268813791,-0.13260537385940552,18.054956436157227,-1.1441986560821533,-17.999910354614258,-0.4983420968055725,-2.2360262870788574,0.17337362468242645,0
5,0.02002406120300293,0.10880166292190552,-18.078760147094727,1.1441986560821533,17.972139358520508,0.4983420968055725,2.2360262870788574,-0.20724813640117645,0.0,0.0,0.0,0.0,0.0,0.0,0.0,0.10887126175064535,0.5512412806516307,0.33008439838069387,0.356290850906588,0.07355167130771192,0.056507079737202336,-0.1845666841366108,-0.6093048512499811,-0.0574639363376433,-0.666658942135807,-2.594551769820911,-0.05562381479049864,2.5079732356058857,0.876319190170015,-0.6090851748156966,-0.05753196718556838,-0.666603097082616,-2.5945565370258534,-0.05562143941554,2.507976027223799,0.8763108487046415,0.0007879125700469477,0.0003772570828011803,0.0003614473255596864,-0.000166771968540012,0.00015438591419410008,0.000262045138580478,0.000916883298508319,0.0,0.0,0.0,0.0,0.0,0.0,0.0,0.00021967643428455474,-6.803084792508102e-05,5.584505319100597e-05,-4.767204942357495e-06,2.3753749586394313e-06,2.7916179132780883e-06,-8.341465373540302e-06,-0.0007879125700469477,-0.0003772570828011803,-0.0003614473255596864,0.000166771968540012,-0.00015438591419410008,-0.000262045138580478,-0.000916883298508319,-0.10880166292190552,18.078760147094727,-1.1441986560821533,-17.972139358520508,-0.4983420968055725,-2.2360262870788574,0.20724813640117645,0
6,0.025226354598999023,0.10880166292190552,-18.078760147094727,1.1441986560821533,17.972139358520508,0.4983420968055725,2.2360262870788574,-0.20724813640117645,0.0,0.0,0.0,0.0,0.0,0.0,0.0,0.10887126175064535,0.5512412806516307,0.33008439838069387,0.356290850906588,0.07355167130771192,0.056507079737202336,-0.1845666841366108,-0.6093048512499811,-0.0574639363376433,-0.666658942135807,-2.594551769820911,-0.05562381479049864,2.5079732356058857,0.876319190170015,-0.6090851748156966,-0.05753196718556838,-0.666603097082616,-2.5945565370258534,-0.05562143941554,2.507976027223799,0.8763108487046415,0.0007879125700469477,0.0003772570828011803,0.0003614473255596864,-0.000166771968540012,0.00015438591419410008,0.000262045138580478,0.000916883298508319,0.0,0.0,0.0,0.0,0.0,0.0,0.0,0.00021967643428455474,-6.803084792508102e-05,5.584505319100597e-05,-4.767204942357495e-06,2.3753749586394313e-06,2.7916179132780883e-06,-8.341465373540302e-06,-0.0007879125700469477,-0.0003772570828011803,-0.0003614473255596864,0.000166771968540012,-0.00015438591419410008,-0.000262045138580478,-0.000916883298508319,-0.10880166292190552,18.078760147094727,-1.1441986560821533,-17.972139358520508,-0.4983420968055725,-2.2360262870788574,0.20724813640117645,0
7,0.030007123947143555,0.13260537385940552,-18.106531143188477,1.1918060779571533,17.999910354614258,0.4983420968055725,2.2552523612976074,-0.20724813640117645,0.0,0.0,0.0,0.0,0.0,0.0,0.0,0.11180745314207287,0.5549432880056392,0.32839897209713964,0.3618258324170103,0.0741247384592183,0.05808120199947708,-0.18462895202313118,-0.6093065475792195,-0.057464540236443366,-0.666662038630861,-2.594553719001902,-0.05562367011224622,2.507971042740194,0.8763191901759968,-0.6090851748156966,-0.05753196718556838,-0.666603097082616,-2.5945565370258534,-0.05562143941554,2.507976027223799,0.8763108487046415,-5.070325597655088e-05,0.0006592041664511779,-0.0004039558138989301,-6.168066179173695e-05,-5.3176998609801364e-05,-0.0005411848712109488,0.000829731730108453,0.0,0.0,0.0,0.0,0.0,0.0,0.0,0.00022137276352296453,-6.742694912501707e-05,5.89415482450395e-05,-2.8180239515229744e-06,2.2306967062193928e-06,4.984483604975054e-06,-8.341471355310937e-06,5.070325597655088e-05,-0.0006592041664511779,0.0004039558138989301,6.168066179173695e-05,5.3176998609801364e-05,0.0005411848712109488,-0.000829731730108453,-0.13260537385940552,18.106531143188477,-1.1918060779571533,-17.999910354614258,-0.4983420968055725,-2.2552523612976074,0.20724813640117645,0
8,0.03500676155090332,0.13260537385940552,-18.106531143188477,1.1918060779571533,17.999910354614258,0.4983420968055725,2.2552523612976074,-0.20724813640117645,0.0,0.0,0.0,0.0,0.0,0.0,0.0,0.11180745314207287,0.5549432880056392,0.32839897209713964,0.3618258324170103,0.0741247384592183,0.05808120199947708,-0.18462895202313118,-0.6093065475792195,-0.057464540236443366,-0.666662038630861,-2.594553719001902,-0.05562367011224622,2.507971042740194,0.8763191901759968,-0.6090851748156966,-0.05753196718556838,-0.666603097082616,-2.5945565370258534,-0.05562143941554,2.507976027223799,0.8763108487046415,-5.070325597655088e-05,0.0006592041664511779,-0.0004039558138989301,-6.168066179173695e-05,-5.3176998609801364e-05,-0.0005411848712109488,0.000829731730108453,0.0,0.0,0.0,0.0,0.0,0.0,0.0,0.00022137276352296453,-6.742694912501707e-05,5.89415482450395e-05,-2.8180239515229744e-06,2.2306967062193928e-06,4.984483604975054e-06,-8.341471355310937e-06,5.070325597655088e-05,-0.0006592041664511779,0.0004039558138989301,6.168066179173695e-05,5.3176998609801364e-05,0.0005411848712109488,-0.000829731730108453,-0.13260537385940552,18.106531143188477,-1.1918060779571533,-17.999910354614258,-0.4983420968055725,-2.2552523612976074,0.20724813640117645,0
9,0.040004730224609375,0.13260537385940552,-18.078760147094727,1.1680023670196533,18.023714065551758,0.5047507882118225,2.2424349784851074,-0.16604940593242645,0.0,0.0,0.0,0.0,0.0,0.0,0.0,0.11599390910277332,0.5554236467762624,0.3311541929724089,0.36281050432867995,0.07356442450514197,0.05903610114276611,-0.18581298442620522,-0.6093072235892464,-0.05746442559994975,-0.6666606155515393,-2.594555389437759,-0.055621346254252226,2.507975650276229,0.876314612539278,-0.6090851748156966,-0.05753196718556838,-0.666603097082616,-2.5945565370258534,-0.05562143941554,2.507976027223799,0.8763108487046415,0.00047999797626390925,-0.0008557632474325297,-0.000489227328621683,-0.0006226777024095728,-0.00011465581048699878,-2.729573014155395e-05,-0.00020627366360293495,0.0,0.0,0.0,0.0,0.0,0.0,0.0,0.00022204877354981,-6.754158561863427e-05,5.751846892332324e-05,-1.147588094330132e-06,-9.316128777442367e-08,3.7694757004658186e-07,-3.7638346365165276e-06,-0.00047999797626390925,0.0008557632474325297,0.000489227328621683,0.0006226777024095728,0.00011465581048699878,2.729573014155395e-05,0.00020627366360293495,-0.13260537385940552,18.078760147094727,-1.1680023670196533,-18.023714065551758,-0.5047507882118225,-2.2424349784851074,0.16604940593242645,0
10,0.04500102996826172,0.13260537385940552,-18.078760147094727,1.1680023670196533,18.023714065551758,0.5047507882118225,2.2424349784851074,-0.16604940593242645,0.0,0.0,0.0,0.0,0.0,0.0,0.0,0.11599390910277332,0.5554236467762624,0.3311541929724089,0.36281050432867995,0.07356442450514197,0.05903610114276611,-0.18581298442620522,-0.6093072235892464,-0.05746442559994975,-0.6666606155515393,-2.594555389437759,-0.055621346254252226,2.507975650276229,0.876314612539278,-0.6090851748156966,-0.05753196718556838,-0.666603097082616,-2.5945565370258534,-0.05562143941554,2.507976027223799,0.8763108487046415,0.00047999797626390925,-0.0008557632474325297,-0.000489227328621683,-0.0006226777024095728,-0.00011465581048699878,-2.729573014155395e-05,-0.00020627366360293495,0.0,0.0,0.0,0.0,0.0,0.0,0.0,0.00022204877354981,-6.754158561863427e-05,5.751846892332324e-05,-1.147588094330132e-06,-9.316128777442367e-08,3.7694757004658186e-07,-3.7638346365165276e-06,-0.00047999797626390925,0.0008557632474325297,0.000489227328621683,0.0006226777024095728,0.00011465581048699878,2.729573014155395e-05,0.00020627366360293495,-0.13260537385940552,18.078760147094727,-1.1680023670196533,-18.023714065551758,-0.5047507882118225,-2.2424349784851074,0.16604940593242645,0
11,0.050000667572021484,0.13260537385940552,-18.078760147094727,1.1680023670196533,18.023714065551758,0.5047507882118225,2.2424349784851074,-0.16604940593242645,0.0,0.0,0.0,0.0,0.0,0.0,0.0,0.11599390910277332,0.5554236467762624,0.3311541929724089,0.36281050432867995,0.07356442450514197,0.05903610114276611,-0.18581298442620522,-0.6093072235892464,-0.05746442559994975,-0.6666606155515393,-2.594555389437759,-0.055621346254252226,2.507975650276229,0.876314612539278,-0.6090851748156966,-0.05753196718556838,-0.666603097082616,-2.5945565370258534,-0.05562143941554,2.507976027223799,0.8763108487046415,0.00047999797626390925,-0.0008557632474325297,-0.000489227328621683,-0.0006226777024095728,-0.00011465581048699878,-2.729573014155395e-05,-0.00020627366360293495,0.0,0.0,0.0,0.0,0.0,0.0,0.0,0.00022204877354981,-6.754158561863427e-05,5.751846892332324e-05,-1.147588094330132e-06,-9.316128777442367e-08,3.7694757004658186e-07,-3.7638346365165276e-06,-0.00047999797626390925,0.0008557632474325297,0.000489227328621683,0.0006226777024095728,0.00011465581048699878,2.729573014155395e-05,0.00020627366360293495,-0.13260537385940552,18.078760147094727,-1.1680023670196533,-18.023714065551758,-0.5047507882118225,-2.2424349784851074,0.16604940593242645,0
12,0.05500030517578125,0.13260537385940552,-18.078760147094727,1.1680023670196533,18.023714065551758,0.5047507882118225,2.2424349784851074,-0.16604940593242645,0.0,0.0,0.0,0.0,0.0,0.0,0.0,0.11599390910277332,0.5554236467762624,0.3311541929724089,0.36281050432867995,0.07356442450514197,0.05903610114276611,-0.18581298442620522,-0.6093072235892464,-0.05746442559994975,-0.6666606155515393,-2.594555389437759,-0.055621346254252226,2.507975650276229,0.876314612539278,-0.6090851748156966,-0.05753196718556838,-0.666603097082616,-2.5945565370258534,-0.05562143941554,2.507976027223799,0.8763108487046415,0.00047999797626390925,-0.0008557632474325297,-0.000489227328621683,-0.0006226777024095728,-0.00011465581048699878,-2.729573014155395e-05,-0.00020627366360293495,0.0,0.0,0.0,0.0,0.0,0.0,0.0,0.00022204877354981,-6.754158561863427e-05,5.751846892332324e-05,-1.147588094330132e-06,-9.316128777442367e-08,3.7694757004658186e-07,-3.7638346365165276e-06,-0.00047999797626390925,0.0008557632474325297,0.000489227328621683,0.0006226777024095728,0.00011465581048699878,2.729573014155395e-05,0.00020627366360293495,-0.13260537385940552,18.078760147094727,-1.1680023670196533,-18.023714065551758,-0.5047507882118225,-2.2424349784851074,0.16604940593242645,0
13,0.060001373291015625,0.13260537385940552,-18.130334854125977,1.1441986560821533,17.972139358520508,0.4983420968055725,2.2488436698913574,-0.15231649577617645,0.0,0.0,0.0,0.0,0.0,0.0,0.0,0.11129462626783619,0.5558997636136023,0.3260015246334255,0.3613910882776616,0.07382811783154326,0.0586169741655517,-0.18613511907910688,-0.6093065215828017,-0.057461041666139724,-0.6666589186261273,-2.5945517701600727,-0.0556238235947493,2.507974939509421,0.876313082299721,-0.6090851748156966,-0.05753196718556838,-0.666603097082616,-2.5945565370258534,-0.05562143941554,2.507976027223799,0.8763108487046415,-0.0011582074209779815,0.00025061970139270454,0.00013187561392513536,0.00041169653716854556,0.00032672173064376937,-6.791294332100737e-06,-0.0009794363733361656,0.0,0.0,0.0,0.0,0.0,0.0,0.0,0.00022134676710516832,-7.092551942865927e-05,5.582154351124746e-05,-4.766865780769791e-06,2.384179209301285e-06,1.0877143781229393e-06,-2.2335950795593362e-06,0.0011582074209779815,-0.00025061970139270454,-0.00013187561392513536,-0.00041169653716854556,-0.00032672173064376937,6.791294332100737e-06,0.0009794363733361656,-0.13260537385940552,18.130334854125977,-1.1441986560821533,-17.972139358520508,-0.4983420968055725,-2.2488436698913574,0.15231649577617645,0
14,0.0650031566619873,0.13260537385940552,-18.130334854125977,1.1441986560821533,17.972139358520508,0.4983420968055725,2.2488436698913574,-0.15231649577617645,0.0,0.0,0.0,0.0,0.0,0.0,0.0,0.11129462626783619,0.5558997636136023,0.3260015246334255,0.3613910882776616,0.07382811783154326,0.0586169741655517,-0.18613511907910688,-0.6093065215828017,-0.057461041666139724,-0.6666589186261273,-2.5945517701600727,-0.0556238235947493,2.507974939509421,0.876313082299721,-0.6090851748156966,-0.05753196718556838,-0.666603097082616,-2.5945565370258534,-0.05562143941554,2.507976027223799,0.8763108487046415,-0.0011582074209779815,0.00025061970139270454,0.00013187561392513536,0.00041169653716854556,0.00032672173064376937,-6.791294332100737e-06,-0.0009794363733361656,0.0,0.0,0.0,0.0,0.0,0.0,0.0,0.00022134676710516832,-7.092551942865927e-05,5.582154351124746e-05,-4.766865780769791e-06,2.384179209301285e-06,1.0877143781229393e-06,-2.2335950795593362e-06,0.0011582074209779815,-0.00025061970139270454,-0.00013187561392513536,-0.00041169653716854556,-0.00032672173064376937,6.791294332100737e-06,0.0009794363733361656,-0.13260537385940552,18.130334854125977,-1.1441986560821533,-17.972139358520508,-0.4983420968055725,-2.2488436698913574,0.15231649577617645,0
15,0.07000374794006348,0.05722695589065552,-18.106531143188477,1.0926239490509033,17.999910354614258,0.5047507882118225,2.2424349784851074,-0.15231649577617645,0.0,0.0,0.0,0.0,0.0,0.0,0.0,0.1057969588940277,0.5550482751368684,0.3240542737656098,0.35919873579839534,0.07461757880402554,0.059371997301095436,-0.18642091715754716,-0.6093012319722948,-0.05746175151934404,-0.6666543633346104,-2.5945534717530068,-0.055624183741909736,2.5079728207702296,0.8763099077459592,-0.6090851748156966,-0.05753196718556838,-0.666603097082616,-2.5945565370258534,-0.05562143941554,2.507976027223799,0.8763108487046415,0.00036297278915817797,-0.0002682524336829856,0.0003591067267566083,-0.00041770482067112093,-0.00028566546050364655,2.779488505600481e-06,-0.0014272216252450224,0.0,0.0,0.0,0.0,0.0,0.0,0.0,0.0002160571565982261,-7.0215666224345e-05,5.1266251994364076e-05,-3.0652728466584733e-06,2.744326369735761e-06,3.206453569326584e-06,9.409586823050375e-07,-0.00036297278915817797,0.0002682524336829856,-0.0003591067267566083,0.00041770482067112093,0.00028566546050364655,-2.779488505600481e-06,0.0014272216252450224,-0.05722695589065552,18.106531143188477,-1.0926239490509033,-17.999910354614258,-0.5047507882118225,-2.2424349784851074,0.15231649577617645,0
16,0.07500910758972168,0.05722695589065552,-18.106531143188477,1.0926239490509033,17.999910354614258,0.5047507882118225,2.2424349784851074,-0.15231649577617645,0.0,0.0,0.0,0.0,0.0,0.0,0.0,0.1057969588940277,0.5550482751368684,0.3240542737656098,0.35919873579839534,0.07461757880402554,0.059371997301095436,-0.18642091715754716,-0.6093012319722948,-0.05746175151934404,-0.6666543633346104,-2.5945534717530068,-0.055624183741909736,2.5079728207702296,0.8763099077459592,-0.6090851748156966,-0.05753196718556838,-0.666603097082616,-2.5945565370258534,-0.05562143941554,2.507976027223799,0.8763108487046415,0.00036297278915817797,-0.0002682524336829856,0.0003591067267566083,-0.00041770482067112093,-0.00028566546050364655,2.779488505600481e-06,-0.0014272216252450224,0.0,0.0,0.0,0.0,0.0,0.0,0.0,0.0002160571565982261,-7.0215666224345e-05,5.1266251994364076e-05,-3.0652728466584733e-06,2.744326369735761e-06,3.206453569326584e-06,9.409586823050375e-07,-0.00036297278915817797,0.0002682524336829856,-0.0003591067267566083,0.00041770482067112093,0.00028566546050364655,-2.779488505600481e-06,0.0014272216252450224,-0.05722695589065552,18.106531143188477,-1.0926239490509033,-17.999910354614258,-0.5047507882118225,-2.2424349784851074,0.15231649577617645,0
17,0.0800023078918457,0.05722695589065552,-18.106531143188477,1.0926239490509033,17.972139358520508,0.4928489327430725,2.2424349784851074,-0.16604940593242645,0.0,0.0,0.0,0.0,0.0,0.0,0.0,0.10079319721058755,0.5524329618224425,0.321357372580247,0.3571800765046415,0.07397507819801548,0.05941708925629652,-0.1858951930360178,-0.6093012414950683,-0.05746264519370858,-0.6666524647746727,-2.594551770158677,-0.055620023824746574,2.507972588939903,0.876314612521333,-0.6090851748156966,-0.05753196718556838,-0.666603097082616,-2.5945565370258534,-0.05562143941554,2.507976027223799,0.8763108487046415,-0.0002324692533500357,-0.00010335740936815552,8.642541738538382e-05,0.00010344225427129512,0.00022086257102836319,-4.282182942220366e-05,-0.0008579536995240991,0.0,0.0,0.0,0.0,0.0,0.0,0.0,0.00021606667937168478,-6.932199185980675e-05,4.936769205665659e-05,-4.766867176542178e-06,-1.4155907934257361e-06,3.4382838958180173e-06,-3.7638166915376914e-06,0.0002324692533500357,0.00010335740936815552,-8.642541738538382e-05,-0.00010344225427129512,-0.00022086257102836319,4.282182942220366e-05,0.0008579536995240991,-0.05722695589065552,18.106531143188477,-1.0926239490509033,-17.972139358520508,-0.4928489327430725,-2.2424349784851074,0.16604940593242645,0
18,0.08500123023986816,0.05722695589065552,-18.106531143188477,1.0926239490509033,17.972139358520508,0.4928489327430725,2.2424349784851074,-0.16604940593242645,0.0,0.0,0.0,0.0,0.0,0.0,0.0,0.10079319721058755,0.5524329618224425,0.321357372580247,0.3571800765046415,0.07397507819801548,0.05941708925629652,-0.1858951930360178,-0.6093012414950683,-0.05746264519370858,-0.6666524647746727,-2.594551770158677,-0.055620023824746574,2.507972588939903,0.876314612521333,-0.6090851748156966,-0.05753196718556838,-0.666603097082616,-2.5945565370258534,-0.05562143941554,2.507976027223799,0.8763108487046415,-0.0002324692533500357,-0.00010335740936815552,8.642541738538382e-05,0.00010344225427129512,0.00022086257102836319,-4.282182942220366e-05,-0.0008579536995240991,0.0,0.0,0.0,0.0,0.0,0.0,0.0,0.00021606667937168478,-6.932199185980675e-05,4.936769205665659e-05,-4.766867176542178e-06,-1.4155907934257361e-06,3.4382838958180173e-06,-3.7638166915376914e-06,0.0002324692533500357,0.00010335740936815552,-8.642541738538382e-05,-0.00010344225427129512,-0.00022086257102836319,4.282182942220366e-05,0.0008579536995240991,-0.05722695589065552,18.106531143188477,-1.0926239490509033,-17.972139358520508,-0.4928489327430725,-2.2424349784851074,0.16604940593242645,0
19,0.09010887145996094,0.05722695589065552,-18.130334854125977,1.1164276599884033,18.023714065551758,0.4983420968055725,2.2488436698913574,-0.20724813640117645,0.0,0.0,0.0,0.0,0.0,0.0,0.0,0.08835886921156551,0.5466251407844132,0.3118899488940748,0.35696670085862037,0.0733824211517332,0.05924071084427736,-0.185827114727081,-0.6093012318653517,-0.057460708445239,-0.6666547444917349,-2.594555389437759,-0.05562382797584058,2.5079717547635507,0.8763191901759968,-0.6090851748156966,-0.05753196718556838,-0.666603097082616,-2.5945565370258534,-0.05562143941554,2.507976027223799,0.8763108487046415,-0.00034617235118109067,-0.0001418382854670753,-0.0008366468989261817,-0.001040955902912009,-8.4330027424996e-06,-0.0002953034788971189,0.0008651497244590042,0.0,0.0,0.0,0.0,0.0,0.0,0.0,0.00021605704965510508,-7.125874032938573e-05,5.164740911889343e-05,-1.147588094330132e-06,2.3885603005827094e-06,4.272460248255783e-06,-8.341471355310937e-06,0.00034617235118109067,0.0001418382854670753,0.0008366468989261817,0.001040955902912009,8.4330027424996e-06,0.0002953034788971189,-0.0008651497244590042,-0.05722695589065552,18.130334854125977,-1.1164276599884033,-18.023714065551758,-0.4983420968055725,-2.2488436698913574,0.20724813640117645,0
20,0.09501004219055176,0.05722695589065552,-18.130334854125977,1.1164276599884033,18.023714065551758,0.4983420968055725,2.2488436698913574,-0.20724813640117645,0.0,0.0,0.0,0.0,0.0,0.0,0.0,0.08835886921156551,0.5466251407844132,0.3118899488940748,0.35696670085862037,0.0733824211517332,0.05924071084427736,-0.185827114727081,-0.6093012318653517,-0.057460708445239,-0.6666547444917349,-2.594555389437759,-0.05562382797584058,2.5079717547635507,0.8763191901759968,-0.6090851748156966,-0.05753196718556838,-0.666603097082616,-2.5945565370258534,-0.05562143941554,2.507976027223799,0.8763108487046415,-0.00034617235118109067,-0.0001418382854670753,-0.0008366468989261817,-0.001040955902912009,-8.4330027424996e-06,-0.0002953034788971189,0.0008651497244590042,0.0,0.0,0.0,0.0,0.0,0.0,0.0,0.00021605704965510508,-7.125874032938573e-05,5.164740911889343e-05,-1.147588094330132e-06,2.3885603005827094e-06,4.272460248255783e-06,-8.341471355310937e-06,0.00034617235118109067,0.0001418382854670753,0.0008366468989261817,0.001040955902912009,8.4330027424996e-06,0.0002953034788971189,-0.0008651497244590042,-0.05722695589065552,18.130334854125977,-1.1164276599884033,-18.023714065551758,-0.4983420968055725,-2.2488436698913574,0.20724813640117645,0
21,0.100128173828125,0.10880166292190552,-18.130334854125977,1.1441986560821533,17.972139358520508,0.4864402413368225,2.2360262870788574,-0.19351522624492645,0.0,0.0,0.0,0.0,0.0,0.0,0.0,0.0920181955663857,0.5484230843657038,0.316678500792488,0.3519865597545479,0.07253151995773831,0.058851822764072165,-0.1865315992361532,-0.6093048511429837,-0.05745999360455351,-0.66665576608829,-2.5945517701600727,-0.05562144096030037,2.507973536489868,0.8763173110843808,-0.6090851748156966,-0.05753196718556838,-0.666603097082616,-2.5945565370258534,-0.05562143941554,2.507976027223799,0.8763108487046415,-0.00020254377949155872,-0.00010366278715943418,-0.0010153427316843785,0.000107365715511953,0.0004182635682728543,0.00039811869844337376,0.000502566308413674,0.0,0.0,0.0,0.0,0.0,0.0,0.0,0.0002196763272871438,-7.197358101487111e-05,5.2669005674021996e-05,-4.766865780769791e-06,1.5447603682328115e-09,2.4907339311042165e-06,-6.462379739335944e-06,0.00020254377949155872,0.00010366278715943418,0.0010153427316843785,-0.000107365715511953,-0.0004182635682728543,-0.00039811869844337376,-0.000502566308413674,-0.10880166292190552,18.130334854125977,-1.1441986560821533,-17.972139358520508,-0.4864402413368225,-2.2360262870788574,0.19351522624492645,0
22,0.10500121116638184,0.10880166292190552,-18.130334854125977,1.1441986560821533,17.972139358520508,0.4864402413368225,2.2360262870788574,-0.19351522624492645,0.0,0.0,0.0,0.0,0.0,0.0,0.0,0.0920181955663857,0.5484230843657038,0.316678500792488,0.3519865597545479,0.07253151995773831,0.058851822764072165,-0.1865315992361532,-0.6093048511429837,-0.05745999360455351,-0.66665576608829,-2.5945517701600727,-0.05562144096030037,2.507973536489868,0.8763173110843808,-0.6090851748156966,-0.05753196718556838,-0.666603097082616,-2.5945565370258534,-0.05562143941554,2.507976027223799,0.8763108487046415,-0.00020254377949155872,-0.00010366278715943418,-0.0010153427316843785,0.000107365715511953,0.0004182635682728543,0.00039811869844337376,0.000502566308413674,0.0,0.0,0.0,0.0,0.0,0.0,0.0,0.0002196763272871438,-7.197358101487111e-05,5.2669005674021996e-05,-4.766865780769791e-06,1.5447603682328115e-09,2.4907339311042165e-06,-6.462379739335944e-06,0.00020254377949155872,0.00010366278715943418,0.0010153427316843785,-0.000107365715511953,-0.0004182635682728543,-0.00039811869844337376,-0.000502566308413674,-0.10880166292190552,18.130334854125977,-1.1441986560821533,-17.972139358520508,-0.4864402413368225,-2.2360262870788574,0.19351522624492645,0
23,0.10999894142150879,0.10880166292190552,-18.106531143188477,1.1441986560821533,17.924531936645508,0.4983420968055725,2.2296175956726074,-0.20083944499492645,0.0,0.0,0.0,0.0,0.0,0.0,0.0,0.09726553170375439,0.5518174472304328,0.3193773630547547,0.34751468099447697,0.07266319710997708,0.058117277083628495,-0.18647131370090253,-0.6093048771433638,-0.057463881729901786,-0.6666589333292166,-2.5945484292883623,-0.055623827975172846,2.5079784842302764,0.8763170652481133,-0.6090851748156966,-0.05753196718556838,-0.666603097082616,-2.5945565370258534,-0.05562143941554,2.507976027223799,0.8763108487046415,0.0010399491405593659,2.90534365548957e-05,0.0002602739441446897,0.0009658348090113314,-1.7041570470927883e-06,0.0002380508230609757,0.0008058037197576272,0.0,0.0,0.0,0.0,0.0,0.0,0.0,0.00021970232766721498,-6.808545566659718e-05,5.583624660054909e-05,-8.107737491158673e-06,2.38855963284601e-06,-2.4570064773854483e-06,-6.216543471770919e-06,-0.0010399491405593659,-2.90534365548957e-05,-0.0002602739441446897,-0.0009658348090113314,1.7041570470927883e-06,-0.0002380508230609757,-0.0008058037197576272,-0.10880166292190552,18.106531143188477,-1.1441986560821533,-17.924531936645508,-0.4983420968055725,-2.2296175956726074,0.20083944499492645,0
24,0.11499977111816406,0.10880166292190552,-18.106531143188477,1.1441986560821533,17.924531936645508,0.4983420968055725,2.2296175956726074,-0.20083944499492645,0.0,0.0,0.0,0.0,0.0,0.0,0.0,0.09726553170375439,0.5518174472304328,0.3193773630547547,0.34751468099447697,0.07266319710997708,0.058117277083628495,-0.18647131370090253,-0.6093048771433638,-0.057463881729901786,-0.6666589333292166,-2.5945484292883623,-0.055623827975172846,2.5079784842302764,0.8763170652481133,-0.6090851748156966,-0.05753196718556838,-0.666603097082616,-2.5945565370258534,-0.05562143941554,2.507976027223799,0.8763108487046415,0.0010399491405593659,2.90534365548957e-05,0.0002602739441446897,0.0009658348090113314,-1.7041570470927883e-06,0.0002380508230609757,0.0008058037197576272,0.0,0.0,0.0,0.0,0.0,0.0,0.0,0.00021970232766721498,-6.808545566659718e-05,5.583624660054909e-05,-8.107737491158673e-06,2.38855963284601e-06,-2.4570064773854483e-06,-6.216543471770919e-06,-0.0010399491405593659,-2.90534365548957e-05,-0.0002602739441446897,-0.0009658348090113314,1.7041570470927883e-06,-0.0002380508230609757,-0.0008058037197576272,-0.10880166292190552,18.106531143188477,-1.1441986560821533,-17.924531936645508,-0.4983420968055725,-2.2296175956726074,0.20083944499492645,0
25,0.12000632286071777,0.13260537385940552,-18.054956436157227,1.1918060779571533,17.972139358520508,0.4928489327430725,2.2488436698913574,-0.16604940593242645,0.0,0.0,0.0,0.0,0.0,0.0,0.0,0.09871945955681102,0.5506888818122678,0.31868759088990956,0.35370954813147804,0.07345729234747825,0.05864378527728542,-0.1856709309438019,-0.6093072235892464,-0.057465394368054624,-0.6666622856253368,-2.5945517701600727,-0.05562317334460637,2.507971759149441,0.8763146125313025,-0.6090851748156966,-0.05753196718556838,-0.666603097082616,-2.5945565370258534,-0.05562143941554,2.507976027223799,0.8763108487046415,0.0006049582776611349,-0.0004646563286125119,-0.0005149024316805455,0.00044063358167461045,0.00019038461339465984,-0.00028418574271442106,-0.0002687229107550209,0.0,0.0,0.0,0.0,0.0,0.0,0.0,0.00022204877354981,-6.657281751375893e-05,5.918854272080054e-05,-4.766865780769791e-06,1.7339290663692664e-06,4.26807435793819e-06,-3.7638266610073856e-06,-0.0006049582776611349,0.0004646563286125119,0.0005149024316805455,-0.00044063358167461045,-0.00019038461339465984,0.00028418574271442106,0.0002687229107550209,-0.13260537385940552,18.054956436157227,-1.1918060779571533,-17.972139358520508,-0.4928489327430725,-2.2488436698913574,0.16604940593242645,0
26,0.1250019073486328,0.13260537385940552,-18.054956436157227,1.1918060779571533,17.972139358520508,0.4928489327430725,2.2488436698913574,-0.16604940593242645,0.0,0.0,0.0,0.0,0.0,0.0,0.0,0.09871945955681102,0.5506888818122678,0.31868759088990956,0.35370954813147804,0.07345729234747825,0.05864378527728542,-0.1856709309438019,-0.6093072235892464,-0.057465394368054624,-0.6666622856253368,-2.5945517701600727,-0.05562317334460637,2.507971759149441,0.8763146125313025,-0.6090851748156966,-0.05753196718556838,-0.666603097082616,-2.5945565370258534,-0.05562143941554,2.507976027223799,0.8763108487046415,0.0006049582776611349,-0.0004646563286125119,-0.0005149024316805455,0.00044063358167461045,0.00019038461339465984,-0.00028418574271442106,-0.0002687229107550209,0.0,0.0,0.0,0.0,0.0,0.0,0.0,0.00022204877354981,-6.657281751375893e-05,5.918854272080054e-05,-4.766865780769791e-06,1.7339290663692664e-06,4.26807435793819e-06,-3.7638266610073856e-06,-0.0006049582776611349,0.0004646563286125119,0.0005149024316805455,-0.00044063358167461045,-0.00019038461339465984,0.00028418574271442106,0.0002687229107550209,-0.13260537385940552,18.054956436157227,-1.1918060779571533,-17.972139358520508,-0.4928489327430725,-2.2488436698913574,0.16604940593242645,0
27,0.12999749183654785,0.13260537385940552,-18.054956436157227,1.1918060779571533,17.972139358520508,0.4928489327430725,2.2488436698913574,-0.16604940593242645,0.0,0.0,0.0,0.0,0.0,0.0,0.0,0.09871945955681102,0.5506888818122678,0.31868759088990956,0.35370954813147804,0.07345729234747825,0.05864378527728542,-0.1856709309438019,-0.6093072235892464,-0.057465394368054624,-0.6666622856253368,-2.5945517701600727,-0.05562317334460637,2.507971759149441,0.8763146125313025,-0.6090851748156966,-0.05753196718556838,-0.666603097082616,-2.5945565370258534,-0.05562143941554,2.507976027223799,0.8763108487046415,0.0006049582776611349,-0.0004646563286125119,-0.0005149024316805455,0.00044063358167461045,0.00019038461339465984,-0.00028418574271442106,-0.0002687229107550209,0.0,0.0,0.0,0.0,0.0,0.0,0.0,0.00022204877354981,-6.657281751375893e-05,5.918854272080054e-05,-4.766865780769791e-06,1.7339290663692664e-06,4.26807435793819e-06,-3.7638266610073856e-06,-0.0006049582776611349,0.0004646563286125119,0.0005149024316805455,-0.00044063358167461045,-0.00019038461339465984,0.00028418574271442106,0.0002687229107550209,-0.13260537385940552,18.054956436157227,-1.1918060779571533,-17.972139358520508,-0.4928489327430725,-2.2488436698913574,0.16604940593242645,0
28,0.13499975204467773,0.13260537385940552,-18.054956436157227,1.1918060779571533,17.972139358520508,0.4928489327430725,2.2488436698913574,-0.16604940593242645,0.0,0.0,0.0,0.0,0.0,0.0,0.0,0.09871945955681102,0.5506888818122678,0.31868759088990956,0.35370954813147804,0.07345729234747825,0.05864378527728542,-0.1856709309438019,-0.6093072235892464,-0.057465394368054624,-0.6666622856253368,-2.5945517701600727,-0.05562317334460637,2.507971759149441,0.8763146125313025,-0.6090851748156966,-0.05753196718556838,-0.666603097082616,-2.5945565370258534,-0.05562143941554,2.507976027223799,0.8763108487046415,0.0006049582776611349,-0.0004646563286125119,-0.0005149024316805455,0.00044063358167461045,0.00019038461339465984,-0.00028418574271442106,-0.0002687229107550209,0.0,0.0,0.0,0.0,0.0,0.0,0.0,0.00022204877354981,-6.657281751375893e-05,5.918854272080054e-05,-4.766865780769791e-06,1.7339290663692664e-06,4.26807435793819e-06,-3.7638266610073856e-06,-0.0006049582776611349,0.0004646563286125119,0.0005149024316805455,-0.00044063358167461045,-0.00019038461339465984,0.00028418574271442106,0.0002687229107550209,-0.13260537385940552,18.054956436157227,-1.1918060779571533,-17.972139358520508,-0.4928489327430725,-2.2488436698913574,0.16604940593242645,0
29,0.14000177383422852,0.13260537385940552,-18.054956436157227,1.1918060779571533,17.972139358520508,0.4928489327430725,2.2488436698913574,-0.16604940593242645,0.0,0.0,0.0,0.0,0.0,0.0,0.0,0.09871945955681102,0.5506888818122678,0.31868759088990956,0.35370954813147804,0.07345729234747825,0.05864378527728542,-0.1856709309438019,-0.6093072235892464,-0.057465394368054624,-0.6666622856253368,-2.5945517701600727,-0.05562317334460637,2.507971759149441,0.8763146125313025,-0.6090851748156966,-0.05753196718556838,-0.666603097082616,-2.5945565370258534,-0.05562143941554,2.507976027223799,0.8763108487046415,0.0006049582776611349,-0.0004646563286125119,-0.0005149024316805455,0.00044063358167461045,0.00019038461339465984,-0.00028418574271442106,-0.0002687229107550209,0.0,0.0,0.0,0.0,0.0,0.0,0.0,0.00022204877354981,-6.657281751375893e-05,5.918854272080054e-05,-4.766865780769791e-06,1.7339290663692664e-06,4.26807435793819e-06,-3.7638266610073856e-06,-0.0006049582776611349,0.0004646563286125119,0.0005149024316805455,-0.00044063358167461045,-0.00019038461339465984,0.00028418574271442106,0.0002687229107550209,-0.13260537385940552,18.054956436157227,-1.1918060779571533,-17.972139358520508,-0.4928489327430725,-2.2488436698913574,0.16604940593242645,0
30,0.1450028419494629,0.16037636995315552,-18.154138565063477,1.1164276599884033,17.972139358520508,0.4928489327430725,2.2488436698913574,-0.15231649577617645,0.0,0.0,0.0,0.0,0.0,0.0,0.0,0.1110595685971413,0.557823284816663,0.3290852705037637,0.3578123507002676,0.07378464508810563,0.05880840271885445,-0.18409199987680144,-0.6093112794299737,-0.05746054040510558,-0.6666569961662331,-2.5945517701600727,-0.055623213261213236,2.507972225875418,0.8763130866603718,-0.6090851748156966,-0.05753196718556838,-0.666603097082616,-2.5945565370258534,-0.05562143941554,2.507976027223799,0.8763108487046415,-0.0004035352740019149,0.00138987110874717,0.0003942900408904779,0.00042135505863184926,0.00011821713850697623,-0.00020685490481006197,-0.0008077811636174182,0.0,0.0,0.0,0.0,0.0,0.0,0.0,0.0002261046142770784,-7.142678046280493e-05,5.389908361708162e-05,-4.766865780769791e-06,1.7738456732363517e-06,3.8013483809606896e-06,-2.237955730288732e-06,0.0004035352740019149,-0.00138987110874717,-0.0003942900408904779,-0.00042135505863184926,-0.00011821713850697623,0.00020685490481006197,0.0008077811636174182,-0.16037636995315552,18.154138565063477,-1.1164276599884033,-17.972139358520508,-0.4928489327430725,-2.2488436698913574,0.15231649577617645,0
31,0.15001320838928223,0.16037636995315552,-18.154138565063477,1.1164276599884033,17.972139358520508,0.4928489327430725,2.2488436698913574,-0.15231649577617645,0.0,0.0,0.0,0.0,0.0,0.0,0.0,0.1110595685971413,0.557823284816663,0.3290852705037637,0.3578123507002676,0.07378464508810563,0.05880840271885445,-0.18409199987680144,-0.6093112794299737,-0.05746054040510558,-0.6666569961662331,-2.5945517701600727,-0.055623213261213236,2.507972225875418,0.8763130866603718,-0.6090851748156966,-0.05753196718556838,-0.666603097082616,-2.5945565370258534,-0.05562143941554,2.507976027223799,0.8763108487046415,-0.0004035352740019149,0.00138987110874717,0.0003942900408904779,0.00042135505863184926,0.00011821713850697623,-0.00020685490481006197,-0.0008077811636174182,0.0,0.0,0.0,0.0,0.0,0.0,0.0,0.0002261046142770784,-7.142678046280493e-05,5.389908361708162e-05,-4.766865780769791e-06,1.7738456732363517e-06,3.8013483809606896e-06,-2.237955730288732e-06,0.0004035352740019149,-0.00138987110874717,-0.0003942900408904779,-0.00042135505863184926,-0.00011821713850697623,0.00020685490481006197,0.0008077811636174182,-0.16037636995315552,18.154138565063477,-1.1164276599884033,-17.972139358520508,-0.4928489327430725,-2.2488436698913574,0.15231649577617645,0
32,0.15500831604003906,0.08103066682815552,-18.177942276000977,1.1164276599884033,17.999910354614258,0.4928489327430725,2.2424349784851074,-0.20083944499492645,0.0,0.0,0.0,0.0,0.0,0.0,0.0,0.11929839377474084,0.5549068728311375,0.32928663484522724,0.3579822781811703,0.0735096635754889,0.05915326421017964,-0.18360221247839462,-0.6093029023170096,-0.0574576777431458,-0.6666569958391836,-2.5945537190019037,-0.05561998423464909,2.5079725861949695,0.8763184776146572,-0.6090851748156966,-0.05753196718556838,-0.666603097082616,-2.5945565370258534,-0.05562143941554,2.507976027223799,0.8763108487046415,0.0009326538559153307,0.0009102734889637656,0.0008472194670620973,-0.0005883344275700086,0.0002960126150626069,0.0001777632147562655,0.00029823963593845,0.0,0.0,0.0,0.0,0.0,0.0,0.0,0.000217727501312992,-7.42894424225829e-05,5.389875656758303e-05,-2.8180239497466175e-06,-1.45518089091079e-06,3.441028829431758e-06,-7.628910015711199e-06,-0.0009326538559153307,-0.0009102734889637656,-0.0008472194670620973,0.0005883344275700086,-0.0002960126150626069,-0.0001777632147562655,-0.00029823963593845,-0.08103066682815552,18.177942276000977,-1.1164276599884033,-17.999910354614258,-0.4928489327430725,-2.2424349784851074,0.20083944499492645,0
33,0.16000676155090332,0.08103066682815552,-18.177942276000977,1.1164276599884033,17.999910354614258,0.4928489327430725,2.2424349784851074,-0.20083944499492645,0.0,0.0,0.0,0.0,0.0,0.0,0.0,0.11929839377474084,0.5549068728311375,0.32928663484522724,0.3579822781811703,0.0735096635754889,0.05915326421017964,-0.18360221247839462,-0.6093029023170096,-0.0574576777431458,-0.6666569958391836,-2.5945537190019037,-0.05561998423464909,2.5079725861949695,0.8763184776146572,-0.6090851748156966,-0.05753196718556838,-0.666603097082616,-2.5945565370258534,-0.05562143941554,2.507976027223799,0.8763108487046415,0.0009326538559153307,0.0009102734889637656,0.0008472194670620973,-0.0005883344275700086,0.0002960126150626069,0.0001777632147562655,0.00029823963593845,0.0,0.0,0.0,0.0,0.0,0.0,0.0,0.000217727501312992,-7.42894424225829e-05,5.389875656758303e-05,-2.8180239497466175e-06,-1.45518089091079e-06,3.441028829431758e-06,-7.628910015711199e-06,-0.0009326538559153307,-0.0009102734889637656,-0.0008472194670620973,0.0005883344275700086,-0.0002960126150626069,-0.0001777632147562655,-0.00029823963593845,-0.08103066682815552,18.177942276000977,-1.1164276599884033,-17.999910354614258,-0.4928489327430725,-2.2424349784851074,0.20083944499492645,0
34,0.16500592231750488,0.08103066682815552,-18.154138565063477,1.1441986560821533,17.999910354614258,0.5047507882118225,2.2488436698913574,-0.19351522624492645,0.0,0.0,0.0,0.0,0.0,0.0,0.0,0.11503322225972909,0.5540802198429263,0.32561480857056035,0.35555807791621397,0.07340045575751973,0.05912045584243849,-0.1842383238819132,-0.6093029812652698,-0.057458424576855203,-0.666658944971723,-2.5945537190019037,-0.055621346236890794,2.5079759996686053,0.8763176642970879,-0.6090851748156966,-0.05753196718556838,-0.666603097082616,-2.5945565370258534,-0.05562143941554,2.507976027223799,0.8763108487046415,-0.00027445219098821267,0.0006908358895110478,-0.0005719633942657212,-5.6188015002389425e-05,-0.0002132014262300384,-0.00016106407904247606,0.00045275447613143965,0.0,0.0,0.0,0.0,0.0,0.0,0.0,0.00021780644957325457,-7.354260871317991e-05,5.5847889106952486e-05,-2.8180239497466175e-06,-9.317864920616037e-08,2.7555193682360368e-08,-6.815592446418606e-06,0.00027445219098821267,-0.0006908358895110478,0.0005719633942657212,5.6188015002389425e-05,0.0002132014262300384,0.00016106407904247606,-0.00045275447613143965,-0.08103066682815552,18.154138565063477,-1.1441986560821533,-17.999910354614258,-0.5047507882118225,-2.2488436698913574,0.19351522624492645,0
35,0.17009878158569336,0.08103066682815552,-18.154138565063477,1.1441986560821533,17.999910354614258,0.5047507882118225,2.2488436698913574,-0.19351522624492645,0.0,0.0,0.0,0.0,0.0,0.0,0.0,0.11503322225972909,0.5540802198429263,0.32561480857056035,0.35555807791621397,0.07340045575751973,0.05912045584243849,-0.1842383238819132,-0.6093029812652698,-0.057458424576855203,-0.666658944971723,-2.5945537190019037,-0.055621346236890794,2.5079759996686053,0.8763176642970879,-0.6090851748156966,-0.05753196718556838,-0.666603097082616,-2.5945565370258534,-0.05562143941554,2.507976027223799,0.8763108487046415,-0.00027445219098821267,0.0006908358895110478,-0.0005719633942657212,-5.6188015002389425e-05,-0.0002132014262300384,-0.00016106407904247606,0.00045275447613143965,0.0,0.0,0.0,0.0,0.0,0.0,0.0,0.00021780644957325457,-7.354260871317991e-05,5.5847889106952486e-05,-2.8180239497466175e-06,-9.317864920616037e-08,2.7555193682360368e-08,-6.815592446418606e-06,0.00027445219098821267,-0.0006908358895110478,0.0005719633942657212,5.6188015002389425e-05,0.0002132014262300384,0.00016106407904247606,-0.00045275447613143965,-0.08103066682815552,18.154138565063477,-1.1441986560821533,-17.999910354614258,-0.5047507882118225,-2.2488436698913574,0.19351522624492645,0
36,0.1750020980834961,0.08103066682815552,-18.154138565063477,1.1441986560821533,17.999910354614258,0.5047507882118225,2.2488436698913574,-0.19351522624492645,0.0,0.0,0.0,0.0,0.0,0.0,0.0,0.11503322225972909,0.5540802198429263,0.32561480857056035,0.35555807791621397,0.07340045575751973,0.05912045584243849,-0.1842383238819132,-0.6093029812652698,-0.057458424576855203,-0.666658944971723,-2.5945537190019037,-0.055621346236890794,2.5079759996686053,0.8763176642970879,-0.6090851748156966,-0.05753196718556838,-0.666603097082616,-2.5945565370258534,-0.05562143941554,2.507976027223799,0.8763108487046415,-0.00027445219098821267,0.0006908358895110478,-0.0005719633942657212,-5.6188015002389425e-05,-0.0002132014262300384,-0.00016106407904247606,0.00045275447613143965,0.0,0.0,0.0,0.0,0.0,0.0,0.0,0.00021780644957325457,-7.354260871317991e-05,5.5847889106952486e-05,-2.8180239497466175e-06,-9.317864920616037e-08,2.7555193682360368e-08,-6.815592446418606e-06,0.00027445219098821267,-0.0006908358895110478,0.0005719633942657212,5.6188015002389425e-05,0.0002132014262300384,0.00016106407904247606,-0.00045275447613143965,-0.08103066682815552,18.154138565063477,-1.1441986560821533,-17.999910354614258,-0.5047507882118225,-2.2488436698913574,0.19351522624492645,0
37,0.18000411987304688,0.08103066682815552,-18.154138565063477,1.1441986560821533,17.999910354614258,0.5047507882118225,2.2488436698913574,-0.19351522624492645,0.0,0.0,0.0,0.0,0.0,0.0,0.0,0.11503322225972909,0.5540802198429263,0.32561480857056035,0.35555807791621397,0.07340045575751973,0.05912045584243849,-0.1842383238819132,-0.6093029812652698,-0.057458424576855203,-0.666658944971723,-2.5945537190019037,-0.055621346236890794,2.5079759996686053,0.8763176642970879,-0.6090851748156966,-0.05753196718556838,-0.666603097082616,-2.5945565370258534,-0.05562143941554,2.507976027223799,0.8763108487046415,-0.00027445219098821267,0.0006908358895110478,-0.0005719633942657212,-5.6188015002389425e-05,-0.0002132014262300384,-0.00016106407904247606,0.00045275447613143965,0.0,0.0,0.0,0.0,0.0,0.0,0.0,0.00021780644957325457,-7.354260871317991e-05,5.5847889106952486e-05,-2.8180239497466175e-06,-9.317864920616037e-08,2.7555193682360368e-08,-6.815592446418606e-06,0.00027445219098821267,-0.0006908358895110478,0.0005719633942657212,5.6188015002389425e-05,0.0002132014262300384,0.00016106407904247606,-0.00045275447613143965,-0.08103066682815552,18.154138565063477,-1.1441986560821533,-17.999910354614258,-0.5047507882118225,-2.2488436698913574,0.19351522624492645,0
38,0.18500828742980957,0.03342324495315552,-18.106531143188477,1.1441986560821533,17.972139358520508,0.5047507882118225,2.2296175956726074,-0.21457235515117645,0.0,0.0,0.0,0.0,0.0,0.0,0.0,0.10340618022825422,0.5481905064958644,0.3204781055486034,0.35465651369586915,0.0736759185369772,0.05933734180024713,-0.1840246511674422,-0.6093016703496009,-0.057462409369139184,-0.6666589441359332,-2.5945515229111757,-0.05562454005266341,2.507973891071128,0.876316825063692,-0.6090851748156966,-0.05753196718556838,-0.666603097082616,-2.5945565370258534,-0.05562143941554,2.507976027223799,0.8763108487046415,0.00024539287178215253,-0.0005848842014047198,-0.0010910311572682502,0.0004152329595976768,-0.00023862474946555897,0.000513141195268361,0.001360442723411339,0.0,0.0,0.0,0.0,0.0,0.0,0.0,0.0002164955339043484,-6.955781642919989e-05,5.584705331718176e-05,-5.014114677681647e-06,3.100637123408523e-06,2.1361526711949352e-06,-5.976359050530178e-06,-0.00024539287178215253,0.0005848842014047198,0.0010910311572682502,-0.0004152329595976768,0.00023862474946555897,-0.000513141195268361,-0.001360442723411339,-0.03342324495315552,18.106531143188477,-1.1441986560821533,-17.972139358520508,-0.5047507882118225,-2.2296175956726074,0.21457235515117645,0
39,0.19000577926635742,0.03342324495315552,-18.106531143188477,1.1441986560821533,17.972139358520508,0.5047507882118225,2.2296175956726074,-0.21457235515117645,0.0,0.0,0.0,0.0,0.0,0.0,0.0,0.10340618022825422,0.5481905064958644,0.3204781055486034,0.35465651369586915,0.0736759185369772,0.05933734180024713,-0.1840246511674422,-0.6093016703496009,-0.057462409369139184,-0.6666589441359332,-2.5945515229111757,-0.05562454005266341,2.507973891071128,0.876316825063692,-0.6090851748156966,-0.05753196718556838,-0.666603097082616,-2.5945565370258534,-0.05562143941554,2.507976027223799,0.8763108487046415,0.00024539287178215253,-0.0005848842014047198,-0.0010910311572682502,0.0004152329595976768,-0.00023862474946555897,0.000513141195268361,0.001360442723411339,0.0,0.0,0.0,0.0,0.0,0.0,0.0,0.0002164955339043484,-6.955781642919989e-05,5.584705331718176e-05,-5.014114677681647e-06,3.100637123408523e-06,2.1361526711949352e-06,-5.976359050530178e-06,-0.00024539287178215253,0.0005848842014047198,0.0010910311572682502,-0.0004152329595976768,0.00023862474946555897,-0.000513141195268361,-0.001360442723411339,-0.03342324495315552,18.106531143188477,-1.1441986560821533,-17.972139358520508,-0.5047507882118225,-2.2296175956726074,0.21457235515117645,0
40,0.19500112533569336,0.08103066682815552,-18.130334854125977,1.1164276599884033,17.948335647583008,0.5047507882118225,2.2360262870788574,-0.16604940593242645,0.0,0.0,0.0,0.0,0.0,0.0,0.0,0.09125595942299397,0.5446953272817922,0.3156077539248767,0.35475058346012756,0.07404734565427785,0.05966134904626197,-0.1832593764364504,-0.6093036043233182,-0.05746097288507391,-0.6666548495268855,-2.5945500987053367,-0.0556245398543424,2.507973183438664,0.8763146123598274,-0.6090851748156966,-0.05753196718556838,-0.666603097082616,-2.5945565370258534,-0.05562143941554,2.507976027223799,0.8763108487046415,-0.0010283151114234335,0.00028650997583962813,-0.000262141077252559,0.0009876680494116065,-0.00027999190748996154,0.00014329343630215547,-0.0007337956172484071,0.0,0.0,0.0,0.0,0.0,0.0,0.0,0.00021842950762163138,-7.099430049447436e-05,5.1752444269470566e-05,-6.438320516721774e-06,3.1004388024030716e-06,2.8437851349316645e-06,-3.7636551859510092e-06,0.0010283151114234335,-0.00028650997583962813,0.000262141077252559,-0.0009876680494116065,0.00027999190748996154,-0.00014329343630215547,0.0007337956172484071,-0.08103066682815552,18.130334854125977,-1.1164276599884033,-17.948335647583008,-0.5047507882118225,-2.2360262870788574,0.16604940593242645,0
41,0.1999969482421875,0.08103066682815552,-18.130334854125977,1.1164276599884033,17.948335647583008,0.5047507882118225,2.2360262870788574,-0.16604940593242645,0.0,0.0,0.0,0.0,0.0,0.0,0.0,0.09125595942299397,0.5446953272817922,0.3156077539248767,0.35475058346012756,0.07404734565427785,0.05966134904626197,-0.1832593764364504,-0.6093036043233182,-0.05746097288507391,-0.6666548495268855,-2.5945500987053367,-0.0556245398543424,2.507973183438664,0.8763146123598274,-0.6090851748156966,-0.05753196718556838,-0.666603097082616,-2.5945565370258534,-0.05562143941554,2.507976027223799,0.8763108487046415,-0.0010283151114234335,0.00028650997583962813,-0.000262141077252559,0.0009876680494116065,-0.00027999190748996154,0.00014329343630215547,-0.0007337956172484071,0.0,0.0,0.0,0.0,0.0,0.0,0.0,0.00021842950762163138,-7.099430049447436e-05,5.1752444269470566e-05,-6.438320516721774e-06,3.1004388024030716e-06,2.8437851349316645e-06,-3.7636551859510092e-06,0.0010283151114234335,-0.00028650997583962813,0.000262141077252559,-0.0009876680494116065,0.00027999190748996154,-0.00014329343630215547,0.0007337956172484071,-0.08103066682815552,18.130334854125977,-1.1164276599884033,-17.948335647583008,-0.5047507882118225,-2.2360262870788574,0.16604940593242645,0
42,0.2050020694732666,0.13260537385940552,-18.106531143188477,1.0926239490509033,18.023714065551758,0.5047507882118225,2.2360262870788574,-0.16604940593242645,0.0,0.0,0.0,0.0,0.0,0.0,0.0,0.08909422215311916,0.5491442864446602,0.3193830383432582,0.35182039516427305,0.0738150281547498,0.05895488793707823,-0.18374489380431966,-0.6093065215828019,-0.057463882385006486,-0.6666552949393328,-2.5945553894377533,-0.05562453568960018,2.507973309736055,0.8763131866064857,-0.6090851748156966,-0.05753196718556838,-0.666603097082616,-2.5945565370258534,-0.05562143941554,2.507976027223799,0.8763108487046415,-0.0013472114231128937,5.361015022830315e-05,0.0004909798026225018,-0.0009098969818141803,-0.00036406659221683283,-4.0031633462163885e-05,-0.000828608488559347,0.0,0.0,0.0,0.0,0.0,0.0,0.0,0.00022134676710527934,-6.808480056189753e-05,5.2197856716840185e-05,-1.1475881001032917e-06,3.0962740601783723e-06,2.7174877441638046e-06,-2.3379018442293287e-06,0.0013472114231128937,-5.361015022830315e-05,-0.0004909798026225018,0.0009098969818141803,0.00036406659221683283,4.0031633462163885e-05,0.000828608488559347,-0.13260537385940552,18.106531143188477,-1.0926239490509033,-18.023714065551758,-0.5047507882118225,-2.2360262870788574,0.16604940593242645,0
43,0.2100052833557129,0.13260537385940552,-18.106531143188477,1.0926239490509033,18.023714065551758,0.5047507882118225,2.2360262870788574,-0.16604940593242645,0.0,0.0,0.0,0.0,0.0,0.0,0.0,0.08909422215311916,0.5491442864446602,0.3193830383432582,0.35182039516427305,0.0738150281547498,0.05895488793707823,-0.18374489380431966,-0.6093065215828019,-0.057463882385006486,-0.6666552949393328,-2.5945553894377533,-0.05562453568960018,2.507973309736055,0.8763131866064857,-0.6090851748156966,-0.05753196718556838,-0.666603097082616,-2.5945565370258534,-0.05562143941554,2.507976027223799,0.8763108487046415,-0.0013472114231128937,5.361015022830315e-05,0.0004909798026225018,-0.0009098969818141803,-0.00036406659221683283,-4.0031633462163885e-05,-0.000828608488559347,0.0,0.0,0.0,0.0,0.0,0.0,0.0,0.00022134676710527934,-6.808480056189753e-05,5.2197856716840185e-05,-1.1475881001032917e-06,3.0962740601783723e-06,2.7174877441638046e-06,-2.3379018442293287e-06,0.0013472114231128937,-5.361015022830315e-05,-0.0004909798026225018,0.0009098969818141803,0.00036406659221683283,4.0031633462163885e-05,0.000828608488559347,-0.13260537385940552,18.106531143188477,-1.0926239490509033,-18.023714065551758,-0.5047507882118225,-2.2360262870788574,0.16604940593242645,0
44,0.21500897407531738,0.13260537385940552,-18.205713272094727,1.1680023670196533,17.972139358520508,0.5047507882118225,2.2488436698913574,-0.20083944499492645,0.0,0.0,0.0,0.0,0.0,0.0,0.0,0.09362903674286886,0.5464757124311038,0.32141642289219097,0.35434846768509193,0.07360686954721145,0.05860569215404372,-0.18349825865876426,-0.6093065216145047,-0.057455414300053666,-0.6666605359708853,-2.5945517701600727,-0.05562453958388004,2.5079759939621393,0.8763174169994449,-0.6090851748156966,-0.05753196718556838,-0.666603097082616,-2.5945565370258534,-0.05562143941554,2.507976027223799,0.8763108487046415,-0.00023638004020038337,0.00211227411655665,7.162265006038361e-07,0.00025090539394180306,-0.0004720646703116249,-0.0003030412908689376,3.0573169173313826e-05,0.0,0.0,0.0,0.0,0.0,0.0,0.0,0.0002213467988081419,-7.655288551471767e-05,5.7438888269256694e-05,-4.766865780769791e-06,3.100168340042231e-06,3.326165964878669e-08,-6.568294803388497e-06,0.00023638004020038337,-0.00211227411655665,-7.162265006038361e-07,-0.00025090539394180306,0.0004720646703116249,0.0003030412908689376,-3.0573169173313826e-05,-0.13260537385940552,18.205713272094727,-1.1680023670196533,-17.972139358520508,-0.5047507882118225,-2.2488436698913574,0.20083944499492645,0
45,0.22000694274902344,0.13260537385940552,-18.205713272094727,1.1680023670196533,17.972139358520508,0.5047507882118225,2.2488436698913574,-0.20083944499492645,0.0,0.0,0.0,0.0,0.0,0.0,0.0,0.09362903674286886,0.5464757124311038,0.32141642289219097,0.35434846768509193,0.07360686954721145,0.05860569215404372,-0.18349825865876426,-0.6093065216145047,-0.057455414300053666,-0.6666605359708853,-2.5945517701600727,-0.05562453958388004,2.5079759939621393,0.8763174169994449,-0.6090851748156966,-0.05753196718556838,-0.666603097082616,-2.5945565370258534,-0.05562143941554,2.507976027223799,0.8763108487046415,-0.00023638004020038337,0.00211227411655665,7.162265006038361e-07,0.00025090539394180306,-0.0004720646703116249,-0.0003030412908689376,3.0573169173313826e-05,0.0,0.0,0.0,0.0,0.0,0.0,0.0,0.0002213467988081419,-7.655288551471767e-05,5.7438888269256694e-05,-4.766865780769791e-06,3.100168340042231e-06,3.326165964878669e-08,-6.568294803388497e-06,0.00023638004020038337,-0.00211227411655665,-7.162265006038361e-07,-0.00025090539394180306,0.0004720646703116249,0.0003030412908689376,-3.0573169173313826e-05,-0.13260537385940552,18.205713272094727,-1.1680023670196533,-17.972139358520508,-0.5047507882118225,-2.2488436698913574,0.20083944499492645,0
46,0.2250072956085205,0.16037636995315552,-18.106531143188477,1.1680023670196533,18.023714065551758,0.5047507882118225,2.2360262870788574,-0.20724813640117645,0.0,0.0,0.0,0.0,0.0,0.0,0.0,0.09929472747034554,0.5493863600159721,0.32548009561306224,0.3507655534245929,0.07370971218120326,0.05807958043161886,-0.185370537295825,-0.6093106027728247,-0.0574619764800785,-0.6666582312576791,-2.594555389437759,-0.05562028164995765,2.5079731963830407,0.8763191901700069,-0.6090851748156966,-0.05753196718556838,-0.666603097082616,-2.5945565370258534,-0.05562143941554,2.507976027223799,0.8763108487046415,0.00013659042173552356,-9.906291689917923e-05,0.00038735039520013305,-0.0014282811025185032,-0.00016139987475977035,0.0002001020997853501,0.0007504531445235588,0.0,0.0,0.0,0.0,0.0,0.0,0.0,0.00022542795712809927,-6.999070548988073e-05,5.5134175063087376e-05,-1.147588094330132e-06,-1.1577655823491462e-06,2.8308407582500195e-06,-8.341465365435674e-06,-0.00013659042173552356,9.906291689917923e-05,-0.00038735039520013305,0.0014282811025185032,0.00016139987475977035,-0.0002001020997853501,-0.0007504531445235588,-0.16037636995315552,18.106531143188477,-1.1680023670196533,-18.023714065551758,-0.5047507882118225,-2.2360262870788574,0.20724813640117645,0
47,0.23011398315429688,0.16037636995315552,-18.106531143188477,1.1680023670196533,18.023714065551758,0.5047507882118225,2.2360262870788574,-0.20724813640117645,0.0,0.0,0.0,0.0,0.0,0.0,0.0,0.09929472747034554,0.5493863600159721,0.32548009561306224,0.3507655534245929,0.07370971218120326,0.05807958043161886,-0.185370537295825,-0.6093106027728247,-0.0574619764800785,-0.6666582312576791,-2.594555389437759,-0.05562028164995765,2.5079731963830407,0.8763191901700069,-0.6090851748156966,-0.05753196718556838,-0.666603097082616,-2.5945565370258534,-0.05562143941554,2.507976027223799,0.8763108487046415,0.00013659042173552356,-9.906291689917923e-05,0.00038735039520013305,-0.0014282811025185032,-0.00016139987475977035,0.0002001020997853501,0.0007504531445235588,0.0,0.0,0.0,0.0,0.0,0.0,0.0,0.00022542795712809927,-6.999070548988073e-05,5.5134175063087376e-05,-1.147588094330132e-06,-1.1577655823491462e-06,2.8308407582500195e-06,-8.341465365435674e-06,-0.00013659042173552356,9.906291689917923e-05,-0.00038735039520013305,0.0014282811025185032,0.00016139987475977035,-0.0002001020997853501,-0.0007504531445235588,-0.16037636995315552,18.106531143188477,-1.1680023670196533,-18.023714065551758,-0.5047507882118225,-2.2360262870788574,0.20724813640117645,0
48,0.23500514030456543,0.18418008089065552,-18.130334854125977,1.1680023670196533,17.999910354614258,0.5047507882118225,2.2488436698913574,-0.13858358561992645,0.0,0.0,0.0,0.0,0.0,0.0,0.0,0.1084002115285268,0.5413130287599338,0.33083978404763426,0.35628099027767784,0.07434869821738758,0.058977516102170495,-0.18557561048958046,-0.6093101411895548,-0.05746306730141324,-0.6666606152124275,-2.5945537190019037,-0.055620281625921496,2.507972151582177,0.8763115607814655,-0.6090851748156966,-0.05753196718556838,-0.666603097082616,-2.5945565370258534,-0.05562143941554,2.507976027223799,0.8763108487046415,-0.0006858367516303766,-0.00015742301186633608,0.0007334756961388528,6.352341857081438e-05,-0.000266999828705807,-0.00023549576239062766,-0.001244957032876563,0.0,0.0,0.0,0.0,0.0,0.0,0.0,0.00022496637385827079,-6.88998841551422e-05,5.751812981147353e-05,-2.8180239497466175e-06,-1.157789618504157e-06,3.875641621853276e-06,-7.120768240609365e-07,0.0006858367516303766,0.00015742301186633608,-0.0007334756961388528,-6.352341857081438e-05,0.000266999828705807,0.00023549576239062766,0.001244957032876563,-0.18418008089065552,18.130334854125977,-1.1680023670196533,-17.999910354614258,-0.5047507882118225,-2.2488436698913574,0.13858358561992645,0
49,0.2400035858154297,0.18418008089065552,-18.130334854125977,1.1680023670196533,17.999910354614258,0.5047507882118225,2.2488436698913574,-0.13858358561992645,0.0,0.0,0.0,0.0,0.0,0.0,0.0,0.1084002115285268,0.5413130287599338,0.33083978404763426,0.35628099027767784,0.07434869821738758,0.058977516102170495,-0.18557561048958046,-0.6093101411895548,-0.05746306730141324,-0.6666606152124275,-2.5945537190019037,-0.055620281625921496,2.507972151582177,0.8763115607814655,-0.6090851748156966,-0.05753196718556838,-0.666603097082616,-2.5945565370258534,-0.05562143941554,2.507976027223799,0.8763108487046415,-0.0006858367516303766,-0.00015742301186633608,0.0007334756961388528,6.352341857081438e-05,-0.000266999828705807,-0.00023549576239062766,-0.001244957032876563,0.0,0.0,0.0,0.0,0.0,0.0,0.0,0.00022496637385827079,-6.88998841551422e-05,5.751812981147353e-05,-2.8180239497466175e-06,-1.157789618504157e-06,3.875641621853276e-06,-7.120768240609365e-07,0.0006858367516303766,0.00015742301186633608,-0.0007334756961388528,-6.352341857081438e-05,0.000266999828705807,0.00023549576239062766,0.001244957032876563,-0.18418008089065552,18.130334854125977,-1.1680023670196533,-17.999910354614258,-0.5047507882118225,-2.2488436698913574,0.13858358561992645,0
50,0.24500250816345215,0.16037636995315552,-18.130334854125977,1.2156097888946533,17.999910354614258,0.4983420968055725,2.2296175956726074,-0.14590780436992645,0.0,0.0,0.0,0.0,0.0,0.0,0.0,0.11827547306047469,0.5466589625715104,0.3397008785881513,0.3499806390230685,0.07421333326702365,0.057796444389145274,-0.18346057892893064,-0.6093115153540659,-0.057462866929201,-0.6666639560975955,-2.5945537190019037,-0.05562382780756809,2.5079739040775224,0.8763123745297137,-0.6090851748156966,-0.05753196718556838,-0.666603097082616,-2.5945565370258534,-0.05562143941554,2.507976027223799,0.8763108487046415,-0.00013280437880750529,0.0004000815382640902,-0.0007983973594668017,-0.0005909185757332761,6.243250740103376e-05,0.0005055195629311334,-0.0014142165565500682,0.0,0.0,0.0,0.0,0.0,0.0,0.0,0.00022634053836934065,-6.910025636738121e-05,6.0859014979541826e-05,-2.8180239497466175e-06,2.3883920280895476e-06,2.123146276566956e-06,-1.5258250721794653e-06,0.00013280437880750529,-0.0004000815382640902,0.0007983973594668017,0.0005909185757332761,-6.243250740103376e-05,-0.0005055195629311334,0.0014142165565500682,-0.16037636995315552,18.130334854125977,-1.2156097888946533,-17.999910354614258,-0.4983420968055725,-2.2296175956726074,0.14590780436992645,0
51,0.2500009536743164,0.16037636995315552,-18.130334854125977,1.2156097888946533,17.999910354614258,0.4983420968055725,2.2296175956726074,-0.14590780436992645,0.0,0.0,0.0,0.0,0.0,0.0,0.0,0.11827547306047469,0.5466589625715104,0.3397008785881513,0.3499806390230685,0.07421333326702365,0.057796444389145274,-0.18346057892893064,-0.6093115153540659,-0.057462866929201,-0.6666639560975955,-2.5945537190019037,-0.05562382780756809,2.5079739040775224,0.8763123745297137,-0.6090851748156966,-0.05753196718556838,-0.666603097082616,-2.5945565370258534,-0.05562143941554,2.507976027223799,0.8763108487046415,-0.00013280437880750529,0.0004000815382640902,-0.0007983973594668017,-0.0005909185757332761,6.243250740103376e-05,0.0005055195629311334,-0.0014142165565500682,0.0,0.0,0.0,0.0,0.0,0.0,0.0,0.00022634053836934065,-6.910025636738121e-05,6.0859014979541826e-05,-2.8180239497466175e-06,2.3883920280895476e-06,2.123146276566956e-06,-1.5258250721794653e-06,0.00013280437880750529,-0.0004000815382640902,0.0007983973594668017,0.0005909185757332761,-6.243250740103376e-05,-0.0005055195629311334,0.0014142165565500682,-0.16037636995315552,18.130334854125977,-1.2156097888946533,-17.999910354614258,-0.4983420968055725,-2.2296175956726074,0.14590780436992645,0
52,0.2550036907196045,0.10880166292190552,-18.054956436157227,1.0926239490509033,17.999910354614258,0.4864402413368225,2.2360262870788574,-0.12485067546367645,0.0,0.0,0.0,0.0,0.0,0.0,0.0,0.11321310194783007,0.5468870515320903,0.3325453312967293,0.3552363968303831,0.0751776233888966,0.057896620796893325,-0.18226733999178535,-0.6093050854850145,-0.057468447595455045,-0.6666553258393934,-2.5945537190019037,-0.05562250556548401,2.5079768332136303,0.8763100349025593,-0.6090851748156966,-0.05753196718556838,-0.666603097082616,-2.5945565370258534,-0.05562143941554,2.507976027223799,0.8763108487046415,-0.00023507557115113144,-0.0004934173315433606,0.0007787555984816064,-0.00010608879462972845,0.0005278463497825607,2.315591078289046e-05,-0.0022341971004062227,0.0,0.0,0.0,0.0,0.0,0.0,0.0,0.00021991066931792425,-6.351959011333813e-05,5.2228756777350505e-05,-2.8180239497466175e-06,1.0661499440095534e-06,-8.059898313206304e-07,8.13802082166859e-07,0.00023507557115113144,0.0004934173315433606,-0.0007787555984816064,0.00010608879462972845,-0.0005278463497825607,-2.315591078289046e-05,0.0022341971004062227,-0.10880166292190552,18.054956436157227,-1.0926239490509033,-17.999910354614258,-0.4864402413368225,-2.2360262870788574,0.12485067546367645,0
53,0.26000046730041504,0.10880166292190552,-18.054956436157227,1.0926239490509033,17.999910354614258,0.4864402413368225,2.2360262870788574,-0.12485067546367645,0.0,0.0,0.0,0.0,0.0,0.0,0.0,0.11321310194783007,0.5468870515320903,0.3325453312967293,0.3552363968303831,0.0751776233888966,0.057896620796893325,-0.18226733999178535,-0.6093050854850145,-0.057468447595455045,-0.6666553258393934,-2.5945537190019037,-0.05562250556548401,2.5079768332136303,0.8763100349025593,-0.6090851748156966,-0.05753196718556838,-0.666603097082616,-2.5945565370258534,-0.05562143941554,2.507976027223799,0.8763108487046415,-0.00023507557115113144,-0.0004934173315433606,0.0007787555984816064,-0.00010608879462972845,0.0005278463497825607,2.315591078289046e-05,-0.0022341971004062227,0.0,0.0,0.0,0.0,0.0,0.0,0.0,0.00021991066931792425,-6.351959011333813e-05,5.2228756777350505e-05,-2.8180239497466175e-06,1.0661499440095534e-06,-8.059898313206304e-07,8.13802082166859e-07,0.00023507557115113144,0.0004934173315433606,-0.0007787555984816064,0.00010608879462972845,-0.0005278463497825607,-2.315591078289046e-05,0.0022341971004062227,-0.10880166292190552,18.054956436157227,-1.0926239490509033,-17.999910354614258,-0.4864402413368225,-2.2360262870788574,0.12485067546367645,0
54,0.2650012969970703,0.03342324495315552,-18.106531143188477,1.0688202381134033,17.999910354614258,0.5047507882118225,2.2424349784851074,-0.15964071452617645,0.0,0.0,0.0,0.0,0.0,0.0,0.0,0.11314863682196488,0.5511144528844694,0.3323003500487185,0.3575460333567812,0.07430680019156857,0.05776024146712412,-0.18102378863212762,-0.6092995700975582,-0.05746165983573839,-0.6666536524600994,-2.5945537190019037,-0.05562441983407622,2.5079724813958153,0.8763139003009496,-0.6090851748156966,-0.05753196718556838,-0.666603097082616,-2.5945565370258534,-0.05562143941554,2.507976027223799,0.8763108487046415,0.0006693215317622129,0.0005658696757712401,0.0011421700814046617,-0.0003645748414837921,-0.00010484342319760978,5.677255163803474e-05,-0.0012092104329764894,0.0,0.0,0.0,0.0,0.0,0.0,0.0,0.0002143952818616235,-7.030734982998998e-05,5.055537748344108e-05,-2.8180239497466175e-06,2.9804185362192204e-06,3.5458279836753093e-06,-3.0515963080901543e-06,-0.0006693215317622129,-0.0005658696757712401,-0.0011421700814046617,0.0003645748414837921,0.00010484342319760978,-5.677255163803474e-05,0.0012092104329764894,-0.03342324495315552,18.106531143188477,-1.0688202381134033,-17.999910354614258,-0.5047507882118225,-2.2424349784851074,0.15964071452617645,0
55,0.2700004577636719,0.03342324495315552,-18.106531143188477,1.0688202381134033,17.999910354614258,0.5047507882118225,2.2424349784851074,-0.15964071452617645,0.0,0.0,0.0,0.0,0.0,0.0,0.0,0.11314863682196488,0.5511144528844694,0.3323003500487185,0.3575460333567812,0.07430680019156857,0.05776024146712412,-0.18102378863212762,-0.6092995700975582,-0.05746165983573839,-0.6666536524600994,-2.5945537190019037,-0.05562441983407622,2.5079724813958153,0.8763139003009496,-0.6090851748156966,-0.05753196718556838,-0.666603097082616,-2.5945565370258534,-0.05562143941554,2.507976027223799,0.8763108487046415,0.0006693215317622129,0.0005658696757712401,0.0011421700814046617,-0.0003645748414837921,-0.00010484342319760978,5.677255163803474e-05,-0.0012092104329764894,0.0,0.0,0.0,0.0,0.0,0.0,0.0,0.0002143952818616235,-7.030734982998998e-05,5.055537748344108e-05,-2.8180239497466175e-06,2.9804185362192204e-06,3.5458279836753093e-06,-3.0515963080901543e-06,-0.0006693215317622129,-0.0005658696757712401,-0.0011421700814046617,0.0003645748414837921,0.00010484342319760978,-5.677255163803474e-05,0.0012092104329764894,-0.03342324495315552,18.106531143188477,-1.0688202381134033,-17.999910354614258,-0.5047507882118225,-2.2424349784851074,0.15964071452617645,0
56,0.27500057220458984,0.08103066682815552,-18.154138565063477,1.0688202381134033,18.023714065551758,0.5047507882118225,2.2296175956726074,-0.21457235515117645,0.0,0.0,0.0,0.0,0.0,0.0,0.0,0.10185236415619861,0.5485742760294339,0.3249930292217905,0.3617656923047325,0.07420807603834757,0.058613305954054104,-0.18077521657307077,-0.6093029023012015,-0.05745858197993809,-0.6666515096363101,-2.5945553802803927,-0.05562453860965019,2.5079784827586393,0.876320002524529,-0.6090851748156966,-0.05753196718556838,-0.666603097082616,-2.5945565370258534,-0.05562143941554,2.507976027223799,0.8763108487046415,-0.0007366864135249312,0.0004068593566894518,0.0005393639236941195,-0.0008983870145620042,-0.0002022881267701304,0.0005903656313216948,0.0008981441050543097,0.0,0.0,0.0,0.0,0.0,0.0,0.0,0.00021772748550497045,-7.338520563029277e-05,4.841255369414377e-05,-1.156745460750841e-06,3.09919411019266e-06,-2.4555348403509925e-06,-9.153819887530723e-06,0.0007366864135249312,-0.0004068593566894518,-0.0005393639236941195,0.0008983870145620042,0.0002022881267701304,-0.0005903656313216948,-0.0008981441050543097,-0.08103066682815552,18.154138565063477,-1.0688202381134033,-18.023714065551758,-0.5047507882118225,-2.2296175956726074,0.21457235515117645,0
57,0.2800171375274658,0.08103066682815552,-18.154138565063477,1.0688202381134033,18.023714065551758,0.5047507882118225,2.2296175956726074,-0.21457235515117645,0.0,0.0,0.0,0.0,0.0,0.0,0.0,0.10185236415619861,0.5485742760294339,0.3249930292217905,0.3617656923047325,0.07420807603834757,0.058613305954054104,-0.18077521657307077,-0.6093029023012015,-0.05745858197993809,-0.6666515096363101,-2.5945553802803927,-0.05562453860965019,2.5079784827586393,0.876320002524529,-0.6090851748156966,-0.05753196718556838,-0.666603097082616,-2.5945565370258534,-0.05562143941554,2.507976027223799,0.8763108487046415,-0.0007366864135249312,0.0004068593566894518,0.0005393639236941195,-0.0008983870145620042,-0.0002022881267701304,0.0005903656313216948,0.0008981441050543097,0.0,0.0,0.0,0.0,0.0,0.0,0.0,0.00021772748550497045,-7.338520563029277e-05,4.841255369414377e-05,-1.156745460750841e-06,3.09919411019266e-06,-2.4555348403509925e-06,-9.153819887530723e-06,0.0007366864135249312,-0.0004068593566894518,-0.0005393639236941195,0.0008983870145620042,0.0002022881267701304,-0.0005903656313216948,-0.0008981441050543097,-0.08103066682815552,18.154138565063477,-1.0688202381134033,-18.023714065551758,-0.5047507882118225,-2.2296175956726074,0.21457235515117645,0
58,0.2850067615509033,0.08103066682815552,-18.154138565063477,1.0688202381134033,18.023714065551758,0.5047507882118225,2.2296175956726074,-0.21457235515117645,0.0,0.0,0.0,0.0,0.0,0.0,0.0,0.10185236415619861,0.5485742760294339,0.3249930292217905,0.3617656923047325,0.07420807603834757,0.058613305954054104,-0.18077521657307077,-0.6093029023012015,-0.05745858197993809,-0.6666515096363101,-2.5945553802803927,-0.05562453860965019,2.5079784827586393,0.876320002524529,-0.6090851748156966,-0.05753196718556838,-0.666603097082616,-2.5945565370258534,-0.05562143941554,2.507976027223799,0.8763108487046415,-0.0007366864135249312,0.0004068593566894518,0.0005393639236941195,-0.0008983870145620042,-0.0002022881267701304,0.0005903656313216948,0.0008981441050543097,0.0,0.0,0.0,0.0,0.0,0.0,0.0,0.00021772748550497045,-7.338520563029277e-05,4.841255369414377e-05,-1.156745460750841e-06,3.09919411019266e-06,-2.4555348403509925e-06,-9.153819887530723e-06,0.0007366864135249312,-0.0004068593566894518,-0.0005393639236941195,0.0008983870145620042,0.0002022881267701304,-0.0005903656313216948,-0.0008981441050543097,-0.08103066682815552,18.154138565063477,-1.0688202381134033,-18.023714065551758,-0.5047507882118225,-2.2296175956726074,0.21457235515117645,0
59,0.29001522064208984,0.08103066682815552,-18.154138565063477,1.0688202381134033,18.023714065551758,0.5047507882118225,2.2296175956726074,-0.21457235515117645,0.0,0.0,0.0,0.0,0.0,0.0,0.0,0.10185236415619861,0.5485742760294339,0.3249930292217905,0.3617656923047325,0.07420807603834757,0.058613305954054104,-0.18077521657307077,-0.6093029023012015,-0.05745858197993809,-0.6666515096363101,-2.5945553802803927,-0.05562453860965019,2.5079784827586393,0.876320002524529,-0.6090851748156966,-0.05753196718556838,-0.666603097082616,-2.5945565370258534,-0.05562143941554,2.507976027223799,0.8763108487046415,-0.0007366864135249312,0.0004068593566894518,0.0005393639236941195,-0.0008983870145620042,-0.0002022881267701304,0.0005903656313216948,0.0008981441050543097,0.0,0.0,0.0,0.0,0.0,0.0,0.0,0.00021772748550497045,-7.338520563029277e-05,4.841255369414377e-05,-1.156745460750841e-06,3.09919411019266e-06,-2.4555348403509925e-06,-9.153819887530723e-06,0.0007366864135249312,-0.0004068593566894518,-0.0005393639236941195,0.0008983870145620042,0.0002022881267701304,-0.0005903656313216948,-0.0008981441050543097,-0.08103066682815552,18.154138565063477,-1.0688202381134033,-18.023714065551758,-0.5047507882118225,-2.2296175956726074,0.21457235515117645,0
60,0.29496002197265625,0.08103066682815552,-18.154138565063477,1.1164276599884033,17.948335647583008,0.5047507882118225,2.2360262870788574,-0.20083944499492645,0.0,0.0,0.0,0.0,0.0,0.0,0.0,0.10070902015206697,0.549112939556201,0.3245618068710113,0.3585344752852509,0.0736763274027756,0.05773059710342095,-0.181566000430164,-0.6093029032641296,-0.05745832280887162,-0.6666547445321116,-2.594550099724166,-0.05562134035959263,2.5079746063287693,0.8763173792151797,-0.6090851748156966,-0.05753196718556838,-0.666603097082616,-2.5945565370258534,-0.05562143941554,2.507976027223799,0.8763108487046415,-0.00015240401751291056,-0.00017309251688420822,-0.00014109339975786227,0.0006543575618607897,-0.00027479067957467417,0.00030697179801696567,0.0009351365787977592,0.0,0.0,0.0,0.0,0.0,0.0,0.0,0.00021772844843304107,-7.364437669676177e-05,5.164744949559541e-05,-6.437301687256536e-06,-9.905594736819845e-08,1.420895029635716e-06,-6.5305105382273965e-06,0.00015240401751291056,0.00017309251688420822,0.00014109339975786227,-0.0006543575618607897,0.00027479067957467417,-0.00030697179801696567,-0.0009351365787977592,-0.08103066682815552,18.154138565063477,-1.1164276599884033,-17.948335647583008,-0.5047507882118225,-2.2360262870788574,0.20083944499492645,0
61,0.2999997138977051,0.08103066682815552,-18.154138565063477,1.1164276599884033,17.948335647583008,0.5047507882118225,2.2360262870788574,-0.20083944499492645,0.0,0.0,0.0,0.0,0.0,0.0,0.0,0.10070902015206697,0.549112939556201,0.3245618068710113,0.3585344752852509,0.0736763274027756,0.05773059710342095,-0.181566000430164,-0.6093029032641296,-0.05745832280887162,-0.6666547445321116,-2.594550099724166,-0.05562134035959263,2.5079746063287693,0.8763173792151797,-0.6090851748156966,-0.05753196718556838,-0.666603097082616,-2.5945565370258534,-0.05562143941554,2.507976027223799,0.8763108487046415,-0.00015240401751291056,-0.00017309251688420822,-0.00014109339975786227,0.0006543575618607897,-0.00027479067957467417,0.00030697179801696567,0.0009351365787977592,0.0,0.0,0.0,0.0,0.0,0.0,0.0,0.00021772844843304107,-7.364437669676177e-05,5.164744949559541e-05,-6.437301687256536e-06,-9.905594736819845e-08,1.420895029635716e-06,-6.5305105382273965e-06,0.00015240401751291056,0.00017309251688420822,0.00014109339975786227,-0.0006543575618607897,0.00027479067957467417,-0.00030697179801696567,-0.0009351365787977592,-0.08103066682815552,18.154138565063477,-1.1164276599884033,-17.948335647583008,-0.5047507882118225,-2.2360262870788574,0.20083944499492645,0
62,0.30500102043151855,0.13260537385940552,-18.177942276000977,1.1164276599884033,17.948335647583008,0.4983420968055725,2.2488436698913574,-0.14590780436992645,0.0,0.0,0.0,0.0,0.0,0.0,0.0,0.09762039540485655,0.5438740789090623,0.32237468309459894,0.35747160989228793,0.07357320277009051,0.05739182644226626,-0.18169529710811788,-0.6093067555822645,-0.05745736800102464,-0.6666569874322205,-2.5945500173079186,-0.05562378416489443,2.507973172036244,0.8763113149392163,-0.6090851748156966,-0.05753196718556838,-0.666603097082616,-2.5945565370258534,-0.05562143941554,2.507976027223799,0.8763108487046415,-0.0004476905339817279,0.0006651001208375712,0.0005472032763816348,0.0005233485449817107,-8.64017640939809e-05,-0.00031288144454978776,-0.001453216159983583,0.0,0.0,0.0,0.0,0.0,0.0,0.0,0.00022158076656797476,-7.459918454374298e-05,5.389034960445738e-05,-6.519717934860836e-06,2.344749354427078e-06,2.855187554828831e-06,-4.662345748362995e-07,0.0004476905339817279,-0.0006651001208375712,-0.0005472032763816348,-0.0005233485449817107,8.64017640939809e-05,0.00031288144454978776,0.001453216159983583,-0.13260537385940552,18.177942276000977,-1.1164276599884033,-17.948335647583008,-0.4983420968055725,-2.2488436698913574,0.14590780436992645,0
63,0.3099982738494873,0.13260537385940552,-18.177942276000977,1.1164276599884033,17.948335647583008,0.4983420968055725,2.2488436698913574,-0.14590780436992645,0.0,0.0,0.0,0.0,0.0,0.0,0.0,0.09762039540485655,0.5438740789090623,0.32237468309459894,0.35747160989228793,0.07357320277009051,0.05739182644226626,-0.18169529710811788,-0.6093067555822645,-0.05745736800102464,-0.6666569874322205,-2.5945500173079186,-0.05562378416489443,2.507973172036244,0.8763113149392163,-0.6090851748156966,-0.05753196718556838,-0.666603097082616,-2.5945565370258534,-0.05562143941554,2.507976027223799,0.8763108487046415,-0.0004476905339817279,0.0006651001208375712,0.0005472032763816348,0.0005233485449817107,-8.64017640939809e-05,-0.00031288144454978776,-0.001453216159983583,0.0,0.0,0.0,0.0,0.0,0.0,0.0,0.00022158076656797476,-7.459918454374298e-05,5.389034960445738e-05,-6.519717934860836e-06,2.344749354427078e-06,2.855187554828831e-06,-4.662345748362995e-07,0.0004476905339817279,-0.0006651001208375712,-0.0005472032763816348,-0.0005233485449817107,8.64017640939809e-05,0.00031288144454978776,0.001453216159983583,-0.13260537385940552,18.177942276000977,-1.1164276599884033,-17.948335647583008,-0.4983420968055725,-2.2488436698913574,0.14590780436992645,0
64,0.3149991035461426,0.13260537385940552,-18.130334854125977,1.0926239490509033,17.972139358520508,0.5047507882118225,2.2424349784851074,-0.13858358561992645,0.0,0.0,0.0,0.0,0.0,0.0,0.0,0.08766580913424321,0.5415664222267291,0.31366793578726965,0.35520896991522677,0.07405931409195074,0.05700083065074321,-0.18145327777840595,-0.6093065340979807,-0.057462121199676586,-0.6666553228959381,-2.5945517701599177,-0.05562442178114543,2.507973565959623,0.8763105011413423,-0.6090851748156966,-0.05753196718556838,-0.666603097082616,-2.5945565370258534,-0.05562143941554,2.507976027223799,0.8763108487046415,-0.0007920780587892258,0.000260949670648226,0.0010484899118060403,0.00011755624916563215,-0.00018269358300797932,-6.99611120470509e-05,-0.0014218182437866868,0.0,0.0,0.0,0.0,0.0,0.0,0.0,0.00022135928228417256,-6.984598589179769e-05,5.2225813322093195e-05,-4.766865935756925e-06,2.9823656054334124e-06,2.4612641760235476e-06,3.47563299141207e-07,0.0007920780587892258,-0.000260949670648226,-0.0010484899118060403,-0.00011755624916563215,0.00018269358300797932,6.99611120470509e-05,0.0014218182437866868,-0.13260537385940552,18.130334854125977,-1.0926239490509033,-17.972139358520508,-0.5047507882118225,-2.2424349784851074,0.13858358561992645,0
65,0.31999993324279785,0.13260537385940552,-18.130334854125977,1.0926239490509033,17.972139358520508,0.5047507882118225,2.2424349784851074,-0.13858358561992645,0.0,0.0,0.0,0.0,0.0,0.0,0.0,0.08766580913424321,0.5415664222267291,0.31366793578726965,0.35520896991522677,0.07405931409195074,0.05700083065074321,-0.18145327777840595,-0.6093065340979807,-0.057462121199676586,-0.6666553228959381,-2.5945517701599177,-0.05562442178114543,2.507973565959623,0.8763105011413423,-0.6090851748156966,-0.05753196718556838,-0.666603097082616,-2.5945565370258534,-0.05562143941554,2.507976027223799,0.8763108487046415,-0.0007920780587892258,0.000260949670648226,0.0010484899118060403,0.00011755624916563215,-0.00018269358300797932,-6.99611120470509e-05,-0.0014218182437866868,0.0,0.0,0.0,0.0,0.0,0.0,0.0,0.00022135928228417256,-6.984598589179769e-05,5.2225813322093195e-05,-4.766865935756925e-06,2.9823656054334124e-06,2.4612641760235476e-06,3.47563299141207e-07,0.0007920780587892258,-0.000260949670648226,-0.0010484899118060403,-0.00011755624916563215,0.00018269358300797932,6.99611120470509e-05,0.0014218182437866868,-0.13260537385940552,18.130334854125977,-1.0926239490509033,-17.972139358520508,-0.5047507882118225,-2.2424349784851074,0.13858358561992645,0
66,0.3250002861022949,0.16037636995315552,-18.106531143188477,1.1918060779571533,17.999910354614258,0.5047507882118225,2.2360262870788574,-0.15231649577617645,0.0,0.0,0.0,0.0,0.0,0.0,0.0,0.09925219458433372,0.5418904207653489,0.3250342352613657,0.3583977933655785,0.0739109279052109,0.05753903944015017,-0.18126554383949572,-0.6093084704207408,-0.057464504196310516,-0.6666622859887743,-2.5945537190019037,-0.05562452687266353,2.5079735733731803,0.876313086600555,-0.6090851748156966,-0.05753196718556838,-0.666603097082616,-2.5945565370258534,-0.05562143941554,2.507976027223799,0.8763108487046415,-0.0010304160493318556,0.00022193895777647264,-0.0006348630275984648,-0.0002549343546875407,-0.00036616666782613415,0.00012436848484578095,-0.00152520301307844,0.0,0.0,0.0,0.0,0.0,0.0,0.0,0.00022329560504419366,-6.746298925786737e-05,5.9188906158302856e-05,-2.8180239497466175e-06,3.087457123532311e-06,2.45385061869996e-06,-2.2378959134705667e-06,0.0010304160493318556,-0.00022193895777647264,0.0006348630275984648,0.0002549343546875407,0.00036616666782613415,-0.00012436848484578095,0.00152520301307844,-0.16037636995315552,18.106531143188477,-1.1918060779571533,-17.999910354614258,-0.5047507882118225,-2.2360262870788574,0.15231649577617645,0
67,0.33000993728637695,0.16037636995315552,-18.106531143188477,1.1918060779571533,17.999910354614258,0.5047507882118225,2.2360262870788574,-0.15231649577617645,0.0,0.0,0.0,0.0,0.0,0.0,0.0,0.09925219458433372,0.5418904207653489,0.3250342352613657,0.3583977933655785,0.0739109279052109,0.05753903944015017,-0.18126554383949572,-0.6093084704207408,-0.057464504196310516,-0.6666622859887743,-2.5945537190019037,-0.05562452687266353,2.5079735733731803,0.876313086600555,-0.6090851748156966,-0.05753196718556838,-0.666603097082616,-2.5945565370258534,-0.05562143941554,2.507976027223799,0.8763108487046415,-0.0010304160493318556,0.00022193895777647264,-0.0006348630275984648,-0.0002549343546875407,-0.00036616666782613415,0.00012436848484578095,-0.00152520301307844,0.0,0.0,0.0,0.0,0.0,0.0,0.0,0.00022329560504419366,-6.746298925786737e-05,5.9188906158302856e-05,-2.8180239497466175e-06,3.087457123532311e-06,2.45385061869996e-06,-2.2378959134705667e-06,0.0010304160493318556,-0.00022193895777647264,0.0006348630275984648,0.0002549343546875407,0.00036616666782613415,-0.00012436848484578095,0.00152520301307844,-0.16037636995315552,18.106531143188477,-1.1918060779571533,-17.999910354614258,-0.5047507882118225,-2.2360262870788574,0.15231649577617645,0
68,0.335007905960083,0.10880166292190552,-18.031152725219727,1.1918060779571533,17.972139358520508,0.4928489327430725,2.2296175956726074,-0.22098104655742645,0.0,0.0,0.0,0.0,0.0,0.0,0.0,0.10167091445381468,0.553533987674868,0.32685076397629087,0.35557921872243203,0.0738752827844585,0.056578412378497624,-0.1811674669077276,-0.6093048598097771,-0.057469802394179474,-0.6666621973585647,-2.5945517701600727,-0.05562281020074295,2.5079770747551122,0.8763207160549027,-0.6090851748156966,-0.05753196718556838,-0.666603097082616,-2.5945565370258534,-0.05562143941554,2.507976027223799,0.8763108487046415,0.00040239513676050944,-0.0006878800993567247,-0.0005320907742725596,0.00013642934967170146,0.0002206416581666074,0.0002983003053001508,0.0008510931381467248,0.0,0.0,0.0,0.0,0.0,0.0,0.0,0.00021968499408053788,-6.216479138890924e-05,5.910027594868694e-05,-4.766865780769791e-06,1.3707852029518075e-06,-1.0475313132474184e-06,-9.867350261205665e-06,-0.00040239513676050944,0.0006878800993567247,0.0005320907742725596,-0.00013642934967170146,-0.0002206416581666074,-0.0002983003053001508,-0.0008510931381467248,-0.10880166292190552,18.031152725219727,-1.1918060779571533,-17.972139358520508,-0.4928489327430725,-2.2296175956726074,0.22098104655742645,0
69,0.3400132656097412,0.10880166292190552,-18.031152725219727,1.1918060779571533,17.972139358520508,0.4928489327430725,2.2296175956726074,-0.22098104655742645,0.0,0.0,0.0,0.0,0.0,0.0,0.0,0.10167091445381468,0.553533987674868,0.32685076397629087,0.35557921872243203,0.0738752827844585,0.056578412378497624,-0.1811674669077276,-0.6093048598097771,-0.057469802394179474,-0.6666621973585647,-2.5945517701600727,-0.05562281020074295,2.5079770747551122,0.8763207160549027,-0.6090851748156966,-0.05753196718556838,-0.666603097082616,-2.5945565370258534,-0.05562143941554,2.507976027223799,0.8763108487046415,0.00040239513676050944,-0.0006878800993567247,-0.0005320907742725596,0.00013642934967170146,0.0002206416581666074,0.0002983003053001508,0.0008510931381467248,0.0,0.0,0.0,0.0,0.0,0.0,0.0,0.00021968499408053788,-6.216479138890924e-05,5.910027594868694e-05,-4.766865780769791e-06,1.3707852029518075e-06,-1.0475313132474184e-06,-9.867350261205665e-06,-0.00040239513676050944,0.0006878800993567247,0.0005320907742725596,-0.00013642934967170146,-0.0002206416581666074,-0.0002983003053001508,-0.0008510931381467248,-0.10880166292190552,18.031152725219727,-1.1918060779571533,-17.972139358520508,-0.4928489327430725,-2.2296175956726074,0.22098104655742645,0
70,0.3450007438659668,0.10880166292190552,-18.078760147094727,1.1164276599884033,17.972139358520508,0.4928489327430725,2.2552523612976074,-0.21457235515117645,0.0,0.0,0.0,0.0,0.0,0.0,0.0,0.09973813183142946,0.5547144551670344,0.3243101274765734,0.35908974339250843,0.07392897511970277,0.05694417337214128,-0.18252508589580077,-0.609304855351599,-0.05746577501477329,-0.6666569962747491,-2.5945517701600727,-0.05562309935054247,2.5079756490047407,0.8763200039780801,-0.6090851748156966,-0.05753196718556838,-0.666603097082616,-2.5945565370258534,-0.05562143941554,2.507976027223799,0.8763108487046415,0.00016238515246108664,-6.483230041959466e-05,0.0006483658544939129,4.220023467855128e-05,8.308944176239814e-05,-0.00038870068128744233,0.0008781446259044837,0.0,0.0,0.0,0.0,0.0,0.0,0.0,0.0002196805359023779,-6.619217079509299e-05,5.389919213305561e-05,-4.766865780769791e-06,1.659935002472357e-06,3.7821905829460434e-07,-9.155273438588019e-06,-0.00016238515246108664,6.483230041959466e-05,-0.0006483658544939129,-4.220023467855128e-05,-8.308944176239814e-05,0.00038870068128744233,-0.0008781446259044837,-0.10880166292190552,18.078760147094727,-1.1164276599884033,-17.972139358520508,-0.4928489327430725,-2.2552523612976074,0.21457235515117645,0
71,0.35001039505004883,0.10880166292190552,-18.078760147094727,1.1164276599884033,17.972139358520508,0.4928489327430725,2.2552523612976074,-0.21457235515117645,0.0,0.0,0.0,0.0,0.0,0.0,0.0,0.09973813183142946,0.5547144551670344,0.3243101274765734,0.35908974339250843,0.07392897511970277,0.05694417337214128,-0.18252508589580077,-0.609304855351599,-0.05746577501477329,-0.6666569962747491,-2.5945517701600727,-0.05562309935054247,2.5079756490047407,0.8763200039780801,-0.6090851748156966,-0.05753196718556838,-0.666603097082616,-2.5945565370258534,-0.05562143941554,2.507976027223799,0.8763108487046415,0.00016238515246108664,-6.483230041959466e-05,0.0006483658544939129,4.220023467855128e-05,8.308944176239814e-05,-0.00038870068128744233,0.0008781446259044837,0.0,0.0,0.0,0.0,0.0,0.0,0.0,0.0002196805359023779,-6.619217079509299e-05,5.389919213305561e-05,-4.766865780769791e-06,1.659935002472357e-06,3.7821905829460434e-07,-9.155273438588019e-06,-0.00016238515246108664,6.483230041959466e-05,-0.0006483658544939129,-4.220023467855128e-05,-8.308944176239814e-05,0.00038870068128744233,-0.0008781446259044837,-0.10880166292190552,18.078760147094727,-1.1164276599884033,-17.972139358520508,-0.4928489327430725,-2.2552523612976074,0.21457235515117645,0
72,0.3549997806549072,0.08103066682815552,-18.130334854125977,1.1680023670196533,17.999910354614258,0.5102439522743225,2.2424349784851074,-0.21457235515117645,0.0,0.0,0.0,0.0,0.0,0.0,0.0,0.11062480142578056,0.5561041097066096,0.33140162552271973,0.35938305527239506,0.07329379765003552,0.058688778275355284,-0.18303258629100533,-0.6093029803023006,-0.057462155737087434,-0.6666606155529357,-2.5945537190019037,-0.05562515025976997,2.507972466848352,0.8763199996174293,-0.6090851748156966,-0.05753196718556838,-0.666603097082616,-2.5945565370258534,-0.05562143941554,2.507976027223799,0.8763108487046415,0.0007863131284949793,0.00011009555016806621,-0.0002743847652311422,-4.5751206702266526e-05,-0.0002896791654635298,0.00016184856682765737,0.00036912582336759577,0.0,0.0,0.0,0.0,0.0,0.0,0.0,0.00021780548660399468,-6.981144848094978e-05,5.751847031965074e-05,-2.8180239497466175e-06,3.7108442299677025e-06,3.5603754469093474e-06,-9.150912787858623e-06,-0.0007863131284949793,-0.00011009555016806621,0.0002743847652311422,4.5751206702266526e-05,0.0002896791654635298,-0.00016184856682765737,-0.00036912582336759577,-0.08103066682815552,18.130334854125977,-1.1680023670196533,-17.999910354614258,-0.5102439522743225,-2.2424349784851074,0.21457235515117645,0
73,0.3600013256072998,0.08103066682815552,-18.130334854125977,1.1680023670196533,17.999910354614258,0.5102439522743225,2.2424349784851074,-0.21457235515117645,0.0,0.0,0.0,0.0,0.0,0.0,0.0,0.11062480142578056,0.5561041097066096,0.33140162552271973,0.35938305527239506,0.07329379765003552,0.058688778275355284,-0.18303258629100533,-0.6093029803023006,-0.057462155737087434,-0.6666606155529357,-2.5945537190019037,-0.05562515025976997,2.507972466848352,0.8763199996174293,-0.6090851748156966,-0.05753196718556838,-0.666603097082616,-2.5945565370258534,-0.05562143941554,2.507976027223799,0.8763108487046415,0.0007863131284949793,0.00011009555016806621,-0.0002743847652311422,-4.5751206702266526e-05,-0.0002896791654635298,0.00016184856682765737,0.00036912582336759577,0.0,0.0,0.0,0.0,0.0,0.0,0.0,0.00021780548660399468,-6.981144848094978e-05,5.751847031965074e-05,-2.8180239497466175e-06,3.7108442299677025e-06,3.5603754469093474e-06,-9.150912787858623e-06,-0.0007863131284949793,-0.00011009555016806621,0.0002743847652311422,4.5751206702266526e-05,0.0002896791654635298,-0.00016184856682765737,-0.00036912582336759577,-0.08103066682815552,18.130334854125977,-1.1680023670196533,-17.999910354614258,-0.5102439522743225,-2.2424349784851074,0.21457235515117645,0
74,0.36501073837280273,0.08103066682815552,-18.154138565063477,1.0926239490509033,17.972139358520508,0.4983420968055725,2.2488436698913574,-0.21457235515117645,0.0,0.0,0.0,0.0,0.0,0.0,0.0,0.10565130143482729,0.5545734504414204,0.32187311709849153,0.3539978005844269,0.07401109430786763,0.05833715712450132,-0.18330518930392384,-0.6093029023012994,-0.057458398268133114,-0.666655325403329,-2.5945517701600727,-0.05562382361277818,2.5079749467592016,0.876320003978072,-0.6090851748156966,-0.05753196718556838,-0.666603097082616,-2.5945565370258534,-0.05562143941554,2.507976027223799,0.8763108487046415,0.0004873538653849462,9.59120831476445e-05,0.0006734867823671355,0.0003146414812758401,-0.00010545802986355548,-0.0003975747983567378,0.000999624515054476,0.0,0.0,0.0,0.0,0.0,0.0,0.0,0.0002177274856027811,-7.356891743526967e-05,5.22283207129437e-05,-4.766865780769791e-06,2.3841972381782872e-06,1.0804645973472304e-06,-9.15527343048339e-06,-0.0004873538653849462,-9.59120831476445e-05,-0.0006734867823671355,-0.0003146414812758401,0.00010545802986355548,0.0003975747983567378,-0.000999624515054476,-0.08103066682815552,18.154138565063477,-1.0926239490509033,-17.972139358520508,-0.4983420968055725,-2.2488436698913574,0.21457235515117645,0
75,0.37000298500061035,0.08103066682815552,-18.154138565063477,1.0926239490509033,17.972139358520508,0.4983420968055725,2.2488436698913574,-0.21457235515117645,0.0,0.0,0.0,0.0,0.0,0.0,0.0,0.10565130143482729,0.5545734504414204,0.32187311709849153,0.3539978005844269,0.07401109430786763,0.05833715712450132,-0.18330518930392384,-0.6093029023012994,-0.057458398268133114,-0.666655325403329,-2.5945517701600727,-0.05562382361277818,2.5079749467592016,0.876320003978072,-0.6090851748156966,-0.05753196718556838,-0.666603097082616,-2.5945565370258534,-0.05562143941554,2.507976027223799,0.8763108487046415,0.0004873538653849462,9.59120831476445e-05,0.0006734867823671355,0.0003146414812758401,-0.00010545802986355548,-0.0003975747983567378,0.000999624515054476,0.0,0.0,0.0,0.0,0.0,0.0,0.0,0.0002177274856027811,-7.356891743526967e-05,5.22283207129437e-05,-4.766865780769791e-06,2.3841972381782872e-06,1.0804645973472304e-06,-9.15527343048339e-06,-0.0004873538653849462,-9.59120831476445e-05,-0.0006734867823671355,-0.0003146414812758401,0.00010545802986355548,0.0003975747983567378,-0.000999624515054476,-0.08103066682815552,18.154138565063477,-1.0926239490509033,-17.972139358520508,-0.4983420968055725,-2.2488436698913574,0.21457235515117645,0
76,0.3750145435333252,0.08103066682815552,-18.154138565063477,1.0926239490509033,17.972139358520508,0.4983420968055725,2.2488436698913574,-0.21457235515117645,0.0,0.0,0.0,0.0,0.0,0.0,0.0,0.10565130143482729,0.5545734504414204,0.32187311709849153,0.3539978005844269,0.07401109430786763,0.05833715712450132,-0.18330518930392384,-0.6093029023012994,-0.057458398268133114,-0.666655325403329,-2.5945517701600727,-0.05562382361277818,2.5079749467592016,0.876320003978072,-0.6090851748156966,-0.05753196718556838,-0.666603097082616,-2.5945565370258534,-0.05562143941554,2.507976027223799,0.8763108487046415,0.0004873538653849462,9.59120831476445e-05,0.0006734867823671355,0.0003146414812758401,-0.00010545802986355548,-0.0003975747983567378,0.000999624515054476,0.0,0.0,0.0,0.0,0.0,0.0,0.0,0.0002177274856027811,-7.356891743526967e-05,5.22283207129437e-05,-4.766865780769791e-06,2.3841972381782872e-06,1.0804645973472304e-06,-9.15527343048339e-06,-0.0004873538653849462,-9.59120831476445e-05,-0.0006734867823671355,-0.0003146414812758401,0.00010545802986355548,0.0003975747983567378,-0.000999624515054476,-0.08103066682815552,18.154138565063477,-1.0926239490509033,-17.972139358520508,-0.4983420968055725,-2.2488436698913574,0.21457235515117645,0
77,0.38001322746276855,0.08103066682815552,-18.154138565063477,1.0926239490509033,17.972139358520508,0.4983420968055725,2.2488436698913574,-0.21457235515117645,0.0,0.0,0.0,0.0,0.0,0.0,0.0,0.10565130143482729,0.5545734504414204,0.32187311709849153,0.3539978005844269,0.07401109430786763,0.05833715712450132,-0.18330518930392384,-0.6093029023012994,-0.057458398268133114,-0.666655325403329,-2.5945517701600727,-0.05562382361277818,2.5079749467592016,0.876320003978072,-0.6090851748156966,-0.05753196718556838,-0.666603097082616,-2.5945565370258534,-0.05562143941554,2.507976027223799,0.8763108487046415,0.0004873538653849462,9.59120831476445e-05,0.0006734867823671355,0.0003146414812758401,-0.00010545802986355548,-0.0003975747983567378,0.000999624515054476,0.0,0.0,0.0,0.0,0.0,0.0,0.0,0.0002177274856027811,-7.356891743526967e-05,5.22283207129437e-05,-4.766865780769791e-06,2.3841972381782872e-06,1.0804645973472304e-06,-9.15527343048339e-06,-0.0004873538653849462,-9.59120831476445e-05,-0.0006734867823671355,-0.0003146414812758401,0.00010545802986355548,0.0003975747983567378,-0.000999624515054476,-0.08103066682815552,18.154138565063477,-1.0926239490509033,-17.972139358520508,-0.4983420968055725,-2.2488436698913574,0.21457235515117645,0
78,0.3849973678588867,0.03342324495315552,-18.154138565063477,1.1164276599884033,17.999910354614258,0.4983420968055725,2.2360262870788574,-0.20083944499492645,0.0,0.0,0.0,0.0,0.0,0.0,0.0,0.10729633321907643,0.5489090705705737,0.3208653013562775,0.3547170495651303,0.07363414255819208,0.058489058693004616,-0.18348218427878488,-0.609299561429442,-0.05745831992092226,-0.6666569874449291,-2.5945537190019037,-0.05562345852181306,2.507973664581814,0.8763184780991738,-0.6090851748156966,-0.05753196718556838,-0.666603097082616,-2.5945565370258534,-0.05562143941554,2.507976027223799,0.8763108487046415,0.0012968847034201475,0.00027328652741848386,-2.5695382816529924e-05,-0.00019351931172509307,-0.00011927073916633114,0.00020931971243160567,0.0006435652069771052,0.0,0.0,0.0,0.0,0.0,0.0,0.0,0.0002143866137453987,-7.364726464612059e-05,5.389036231306932e-05,-2.8180239497466175e-06,2.019106273058735e-06,2.362641985165226e-06,-7.629394532360223e-06,-0.0012968847034201475,-0.00027328652741848386,2.5695382816529924e-05,0.00019351931172509307,0.00011927073916633114,-0.00020931971243160567,-0.0006435652069771052,-0.03342324495315552,18.154138565063477,-1.1164276599884033,-17.999910354614258,-0.4983420968055725,-2.2360262870788574,0.20083944499492645,0
79,0.3900024890899658,0.03342324495315552,-18.154138565063477,1.1164276599884033,17.999910354614258,0.4983420968055725,2.2360262870788574,-0.20083944499492645,0.0,0.0,0.0,0.0,0.0,0.0,0.0,0.10729633321907643,0.5489090705705737,0.3208653013562775,0.3547170495651303,0.07363414255819208,0.058489058693004616,-0.18348218427878488,-0.609299561429442,-0.05745831992092226,-0.6666569874449291,-2.5945537190019037,-0.05562345852181306,2.507973664581814,0.8763184780991738,-0.6090851748156966,-0.05753196718556838,-0.666603097082616,-2.5945565370258534,-0.05562143941554,2.507976027223799,0.8763108487046415,0.0012968847034201475,0.00027328652741848386,-2.5695382816529924e-05,-0.00019351931172509307,-0.00011927073916633114,0.00020931971243160567,0.0006435652069771052,0.0,0.0,0.0,0.0,0.0,0.0,0.0,0.0002143866137453987,-7.364726464612059e-05,5.389036231306932e-05,-2.8180239497466175e-06,2.019106273058735e-06,2.362641985165226e-06,-7.629394532360223e-06,-0.0012968847034201475,-0.00027328652741848386,2.5695382816529924e-05,0.00019351931172509307,0.00011927073916633114,-0.00020931971243160567,-0.0006435652069771052,-0.03342324495315552,18.154138565063477,-1.1164276599884033,-17.999910354614258,-0.4983420968055725,-2.2360262870788574,0.20083944499492645,0
