rezayati/contactInterpretation/dataset/franka_main/labeled_data/link3/e2_7.csv
index,time,tau_J0,tau_J1,tau_J2,tau_J3,tau_J4,tau_J5,tau_J6,tau_J_d0,tau_J_d1,tau_J_d2,tau_J_d3,tau_J_d4,tau_J_d5,tau_J_d6,tau_ext0,tau_ext1,tau_ext2,tau_ext3,tau_ext4,tau_ext5,tau_ext6,q0,q1,q2,q3,q4,q5,q6,q_d0,q_d1,q_d2,q_d3,q_d4,q_d5,q_d6,dq0,dq1,dq2,dq3,dq4,dq5,dq6,dq_d0,dq_d1,dq_d2,dq_d3,dq_d4,dq_d5,dq_d6,e0,e1,e2,e3,e4,e5,e6,de0,de1,de2,de3,de4,de5,de6,etau_J0,etau_J1,etau_J2,etau_J3,etau_J4,etau_J5,etau_J6,label
1,0.0,-0.22445029020309448,-11.949304580688477,1.3147919178009033,21.741060256958008,0.3738303780555725,2.5271639823913574,-0.20083944499492645,0.0,0.0,0.0,0.0,0.0,0.0,0.0,-0.22344077964736533,0.4274428950038995,0.09459711621537768,0.4261395289720135,-0.16374471031866825,0.12147582092705966,-0.20641369832031717,0.1729944650060252,-0.4874499446020313,-0.11147206087593445,-1.946402478812831,0.13361134407917655,2.595550359778934,0.9452468986428446,0.1728802376190821,-0.48752024683155326,-0.11147110072896137,-1.9463801863486305,0.1336059019074957,2.595550359778934,0.9452445589611904,-6.451194077969749e-05,0.0006776571475254946,-7.737681839814535e-05,-0.0005978683808013704,-0.00019580478227839497,-0.00019705061807792632,0.00040510321275888996,0.0,0.0,0.0,0.0,0.0,0.0,0.0,-0.00011422738694308321,-7.030222952197906e-05,9.601469730807777e-07,2.229246420037967e-05,-5.442171680858365e-06,0.0,-2.3396816541954024e-06,6.451194077969749e-05,-0.0006776571475254946,7.737681839814535e-05,0.0005978683808013704,0.00019580478227839497,0.00019705061807792632,-0.00040510321275888996,0.22445029020309448,11.949304580688477,-1.3147919178009033,-21.741060256958008,-0.3738303780555725,-2.5271639823913574,0.20083944499492645,0
2,0.004999399185180664,-0.22445029020309448,-11.949304580688477,1.3147919178009033,21.741060256958008,0.3738303780555725,2.5271639823913574,-0.20083944499492645,0.0,0.0,0.0,0.0,0.0,0.0,0.0,-0.22344077964736533,0.4274428950038995,0.09459711621537768,0.4261395289720135,-0.16374471031866825,0.12147582092705966,-0.20641369832031717,0.1729944650060252,-0.4874499446020313,-0.11147206087593445,-1.946402478812831,0.13361134407917655,2.595550359778934,0.9452468986428446,0.1728802376190821,-0.48752024683155326,-0.11147110072896137,-1.9463801863486305,0.1336059019074957,2.595550359778934,0.9452445589611904,-6.451194077969749e-05,0.0006776571475254946,-7.737681839814535e-05,-0.0005978683808013704,-0.00019580478227839497,-0.00019705061807792632,0.00040510321275888996,0.0,0.0,0.0,0.0,0.0,0.0,0.0,-0.00011422738694308321,-7.030222952197906e-05,9.601469730807777e-07,2.229246420037967e-05,-5.442171680858365e-06,0.0,-2.3396816541954024e-06,6.451194077969749e-05,-0.0006776571475254946,7.737681839814535e-05,0.0005978683808013704,0.00019580478227839497,0.00019705061807792632,-0.00040510321275888996,0.22445029020309448,11.949304580688477,-1.3147919178009033,-21.741060256958008,-0.3738303780555725,-2.5271639823913574,0.20083944499492645,0
3,0.009998321533203125,-0.2720577120780945,-12.072290420532227,1.3425629138946533,21.741060256958008,0.3793235421180725,2.5143465995788574,-0.22098104655742645,0.0,0.0,0.0,0.0,0.0,0.0,0.0,-0.2212002970118724,0.3830870528633541,0.1049033281305422,0.44458008768000584,-0.16398725419915688,0.12447737884782022,-0.20586397113448185,0.17299780587773572,-0.4874413490468267,-0.1114740097177656,-1.9464024784857783,0.13361073372761406,2.5955517839325797,0.9452491365985738,0.1728802376190821,-0.48752024683155326,-0.11147110072896137,-1.9463801863486305,0.1336059019074957,2.595550359778934,0.9452445589611904,0.001198395659827901,0.0013085144627561058,-0.00021671116724238798,0.0002993869397997386,-0.00032921991181077663,0.0004025815049733846,0.0011820255124277731,0.0,0.0,0.0,0.0,0.0,0.0,0.0,-0.00011756825865361087,-7.889778472658371e-05,2.9089888042288514e-06,2.229213714777245e-05,-4.831820118372798e-06,-1.4241536456793824e-06,-4.5776373833739115e-06,-0.001198395659827901,-0.0013085144627561058,0.00021671116724238798,-0.0002993869397997386,0.00032921991181077663,-0.0004025815049733846,-0.0011820255124277731,0.2720577120780945,12.072290420532227,-1.3425629138946533,-21.741060256958008,-0.3793235421180725,-2.5143465995788574,0.22098104655742645,0
4,0.015016794204711914,-0.2720577120780945,-12.072290420532227,1.3425629138946533,21.741060256958008,0.3793235421180725,2.5143465995788574,-0.22098104655742645,0.0,0.0,0.0,0.0,0.0,0.0,0.0,-0.2212002970118724,0.3830870528633541,0.1049033281305422,0.44458008768000584,-0.16398725419915688,0.12447737884782022,-0.20586397113448185,0.17299780587773572,-0.4874413490468267,-0.1114740097177656,-1.9464024784857783,0.13361073372761406,2.5955517839325797,0.9452491365985738,0.1728802376190821,-0.48752024683155326,-0.11147110072896137,-1.9463801863486305,0.1336059019074957,2.595550359778934,0.9452445589611904,0.001198395659827901,0.0013085144627561058,-0.00021671116724238798,0.0002993869397997386,-0.00032921991181077663,0.0004025815049733846,0.0011820255124277731,0.0,0.0,0.0,0.0,0.0,0.0,0.0,-0.00011756825865361087,-7.889778472658371e-05,2.9089888042288514e-06,2.229213714777245e-05,-4.831820118372798e-06,-1.4241536456793824e-06,-4.5776373833739115e-06,-0.001198395659827901,-0.0013085144627561058,0.00021671116724238798,-0.0002993869397997386,0.00032921991181077663,-0.0004025815049733846,-0.0011820255124277731,0.2720577120780945,12.072290420532227,-1.3425629138946533,-21.741060256958008,-0.3793235421180725,-2.5143465995788574,0.22098104655742645,0
5,0.020007848739624023,-0.19667929410934448,-12.024682998657227,1.3147919178009033,21.717256546020508,0.3793235421180725,2.5207552909851074,-0.15964071452617645,0.0,0.0,0.0,0.0,0.0,0.0,0.0,-0.2236725987103398,0.39366148304163134,0.10370895104983652,0.42808032968214976,-0.1631909725287378,0.12192414387595817,-0.20485761714901266,0.17299251583865935,-0.48744465456112523,-0.11147205990160154,-1.9464015233056584,0.13361073372761406,2.595551071855757,0.9452423210061258,0.1728802376190821,-0.48752024683155326,-0.11147110072896137,-1.9463801863486305,0.1336059019074957,2.595550359778934,0.9452445589611904,-0.0004861828686206544,-3.4773995192287344e-05,-0.0004156564945102791,-8.479096296690342e-05,-0.000318842784085292,1.2741878157088884e-05,-0.0014339833397061953,0.0,0.0,0.0,0.0,0.0,0.0,0.0,-0.00011227821957723871,-7.559227042802652e-05,9.591726401747547e-07,2.1336957027884296e-05,-4.831820118372798e-06,-7.120768228396912e-07,2.2379550645990065e-06,0.0004861828686206544,3.4773995192287344e-05,0.0004156564945102791,8.479096296690342e-05,0.000318842784085292,-1.2741878157088884e-05,0.0014339833397061953,0.19667929410934448,12.024682998657227,-1.3147919178009033,-21.717256546020508,-0.3793235421180725,-2.5207552909851074,0.15964071452617645,0
6,0.02500748634338379,-0.19667929410934448,-12.024682998657227,1.3147919178009033,21.717256546020508,0.3793235421180725,2.5207552909851074,-0.15964071452617645,0.0,0.0,0.0,0.0,0.0,0.0,0.0,-0.2236725987103398,0.39366148304163134,0.10370895104983652,0.42808032968214976,-0.1631909725287378,0.12192414387595817,-0.20485761714901266,0.17299251583865935,-0.48744465456112523,-0.11147205990160154,-1.9464015233056584,0.13361073372761406,2.595551071855757,0.9452423210061258,0.1728802376190821,-0.48752024683155326,-0.11147110072896137,-1.9463801863486305,0.1336059019074957,2.595550359778934,0.9452445589611904,-0.0004861828686206544,-3.4773995192287344e-05,-0.0004156564945102791,-8.479096296690342e-05,-0.000318842784085292,1.2741878157088884e-05,-0.0014339833397061953,0.0,0.0,0.0,0.0,0.0,0.0,0.0,-0.00011227821957723871,-7.559227042802652e-05,9.591726401747547e-07,2.1336957027884296e-05,-4.831820118372798e-06,-7.120768228396912e-07,2.2379550645990065e-06,0.0004861828686206544,3.4773995192287344e-05,0.0004156564945102791,8.479096296690342e-05,0.000318842784085292,-1.2741878157088884e-05,0.0014339833397061953,0.19667929410934448,12.024682998657227,-1.3147919178009033,-21.717256546020508,-0.3793235421180725,-2.5207552909851074,0.15964071452617645,0
7,0.03000664710998535,-0.19667929410934448,-11.925500869750977,1.2671844959259033,21.768831253051758,0.3674216866493225,2.5271639823913574,-0.20724813640117645,0.0,0.0,0.0,0.0,0.0,0.0,0.0,-0.22171425986882945,0.4072414647439679,0.10163904991050025,0.41640870106102096,-0.16278849831509767,0.11989577813705415,-0.20468598785010397,0.1729925161641922,-0.4874516147103226,-0.1114687198959592,-1.9464044273316452,0.13361205615599947,2.595550359778934,0.9452476107196676,0.1728802376190821,-0.48752024683155326,-0.11147110072896137,-1.9463801863486305,0.1336059019074957,2.595550359778934,0.9452445589611904,-0.0008908630400360009,-0.0002467298694149013,0.0008989661376887975,-0.0009121321007343616,0.00011760411428294478,-0.0002717769849345513,0.000851606794577564,0.0,0.0,0.0,0.0,0.0,0.0,0.0,-0.00011227854511008939,-6.863212123064955e-05,-2.3808330021635182e-06,2.4240983014678363e-05,-6.154248503781323e-06,0.0,-3.051758477146116e-06,0.0008908630400360009,0.0002467298694149013,-0.0008989661376887975,0.0009121321007343616,-0.00011760411428294478,0.0002717769849345513,-0.000851606794577564,0.19667929410934448,11.925500869750977,-1.2671844959259033,-21.768831253051758,-0.3674216866493225,-2.5271639823913574,0.20724813640117645,0
8,0.034999847412109375,-0.19667929410934448,-11.925500869750977,1.2671844959259033,21.768831253051758,0.3674216866493225,2.5271639823913574,-0.20724813640117645,0.0,0.0,0.0,0.0,0.0,0.0,0.0,-0.22171425986882945,0.4072414647439679,0.10163904991050025,0.41640870106102096,-0.16278849831509767,0.11989577813705415,-0.20468598785010397,0.1729925161641922,-0.4874516147103226,-0.1114687198959592,-1.9464044273316452,0.13361205615599947,2.595550359778934,0.9452476107196676,0.1728802376190821,-0.48752024683155326,-0.11147110072896137,-1.9463801863486305,0.1336059019074957,2.595550359778934,0.9452445589611904,-0.0008908630400360009,-0.0002467298694149013,0.0008989661376887975,-0.0009121321007343616,0.00011760411428294478,-0.0002717769849345513,0.000851606794577564,0.0,0.0,0.0,0.0,0.0,0.0,0.0,-0.00011227854511008939,-6.863212123064955e-05,-2.3808330021635182e-06,2.4240983014678363e-05,-6.154248503781323e-06,0.0,-3.051758477146116e-06,0.0008908630400360009,0.0002467298694149013,-0.0008989661376887975,0.0009121321007343616,-0.00011760411428294478,0.0002717769849345513,-0.000851606794577564,0.19667929410934448,11.925500869750977,-1.2671844959259033,-21.768831253051758,-0.3674216866493225,-2.5271639823913574,0.20724813640117645,0
9,0.04000139236450195,-0.24825400114059448,-11.873926162719727,1.2909882068634033,21.717256546020508,0.3738303780555725,2.5079379081726074,-0.14590780436992645,0.0,0.0,0.0,0.0,0.0,0.0,0.0,-0.2200889932308395,0.39969187708681114,0.10689582932456312,0.4192913440494257,-0.16283119370913246,0.12061746927110385,-0.204145176974884,0.17299613544188044,-0.487455233988009,-0.11147037874808378,-1.946400808049921,0.13361134407917655,2.595552142796693,0.9452407951272196,0.1728802376190821,-0.48752024683155326,-0.11147110072896137,-1.9463801863486305,0.1336059019074957,2.595550359778934,0.9452445589611904,0.00032224393613081246,-0.0007460463315054722,0.00010661320890047203,-0.0006748772476722749,-0.00022863523712380934,0.0005210020264653078,-0.001886177269719657,0.0,0.0,0.0,0.0,0.0,0.0,0.0,-0.00011589782279833316,-6.50128435442654e-05,-7.219808775826841e-07,2.0621701290579608e-05,-5.442171680858365e-06,-1.7830177592159657e-06,3.763833970826802e-06,-0.00032224393613081246,0.0007460463315054722,-0.00010661320890047203,0.0006748772476722749,0.00022863523712380934,-0.0005210020264653078,0.001886177269719657,0.24825400114059448,11.873926162719727,-1.2909882068634033,-21.717256546020508,-0.3738303780555725,-2.5079379081726074,0.14590780436992645,0
10,0.04499983787536621,-0.24825400114059448,-11.873926162719727,1.2909882068634033,21.717256546020508,0.3738303780555725,2.5079379081726074,-0.14590780436992645,0.0,0.0,0.0,0.0,0.0,0.0,0.0,-0.2200889932308395,0.39969187708681114,0.10689582932456312,0.4192913440494257,-0.16283119370913246,0.12061746927110385,-0.204145176974884,0.17299613544188044,-0.487455233988009,-0.11147037874808378,-1.946400808049921,0.13361134407917655,2.595552142796693,0.9452407951272196,0.1728802376190821,-0.48752024683155326,-0.11147110072896137,-1.9463801863486305,0.1336059019074957,2.595550359778934,0.9452445589611904,0.00032224393613081246,-0.0007460463315054722,0.00010661320890047203,-0.0006748772476722749,-0.00022863523712380934,0.0005210020264653078,-0.001886177269719657,0.0,0.0,0.0,0.0,0.0,0.0,0.0,-0.00011589782279833316,-6.50128435442654e-05,-7.219808775826841e-07,2.0621701290579608e-05,-5.442171680858365e-06,-1.7830177592159657e-06,3.763833970826802e-06,-0.00032224393613081246,0.0007460463315054722,-0.00010661320890047203,0.0006748772476722749,0.00022863523712380934,-0.0005210020264653078,0.001886177269719657,0.24825400114059448,11.873926162719727,-1.2909882068634033,-21.717256546020508,-0.3738303780555725,-2.5079379081726074,0.14590780436992645,0
11,0.04999732971191406,-0.22445029020309448,-11.873926162719727,1.2909882068634033,21.693452835083008,0.3674216866493225,2.5207552909851074,-0.20083944499492645,0.0,0.0,0.0,0.0,0.0,0.0,0.0,-0.2283204088752454,0.39688589623853443,0.09740631615128954,0.4270552215094125,-0.16231336399215318,0.12150886128234713,-0.2032895074453786,0.1729944650060252,-0.4874583344106837,-0.11147039044001318,-1.946399137614066,0.13361205615599947,2.595551071853763,0.9452468986428446,0.1728802376190821,-0.48752024683155326,-0.11147110072896137,-1.9463801863486305,0.1336059019074957,2.595550359778934,0.9452445589611904,-0.0003318761057631226,3.171974077924094e-05,-0.000543009658478779,0.00021521860268362505,6.60108286832147e-05,-7.153243776749709e-06,0.0003227224574452972,0.0,0.0,0.0,0.0,0.0,0.0,0.0,-0.00011422738694308321,-6.191242086955873e-05,-7.10288948185811e-07,1.8951265435385167e-05,-6.154248503781323e-06,-7.12074828879139e-07,-2.3396816541954024e-06,0.0003318761057631226,-3.171974077924094e-05,0.000543009658478779,-0.00021521860268362505,-6.60108286832147e-05,7.153243776749709e-06,-0.0003227224574452972,0.22445029020309448,11.873926162719727,-1.2909882068634033,-21.693452835083008,-0.3674216866493225,-2.5207552909851074,0.20083944499492645,0
12,0.05500006675720215,-0.22445029020309448,-11.873926162719727,1.2909882068634033,21.693452835083008,0.3674216866493225,2.5207552909851074,-0.20083944499492645,0.0,0.0,0.0,0.0,0.0,0.0,0.0,-0.2283204088752454,0.39688589623853443,0.09740631615128954,0.4270552215094125,-0.16231336399215318,0.12150886128234713,-0.2032895074453786,0.1729944650060252,-0.4874583344106837,-0.11147039044001318,-1.946399137614066,0.13361205615599947,2.595551071853763,0.9452468986428446,0.1728802376190821,-0.48752024683155326,-0.11147110072896137,-1.9463801863486305,0.1336059019074957,2.595550359778934,0.9452445589611904,-0.0003318761057631226,3.171974077924094e-05,-0.000543009658478779,0.00021521860268362505,6.60108286832147e-05,-7.153243776749709e-06,0.0003227224574452972,0.0,0.0,0.0,0.0,0.0,0.0,0.0,-0.00011422738694308321,-6.191242086955873e-05,-7.10288948185811e-07,1.8951265435385167e-05,-6.154248503781323e-06,-7.12074828879139e-07,-2.3396816541954024e-06,0.0003318761057631226,-3.171974077924094e-05,0.000543009658478779,-0.00021521860268362505,-6.60108286832147e-05,7.153243776749709e-06,-0.0003227224574452972,0.22445029020309448,11.873926162719727,-1.2909882068634033,-21.693452835083008,-0.3674216866493225,-2.5207552909851074,0.20083944499492645,0
13,0.0599970817565918,-0.22445029020309448,-11.873926162719727,1.2909882068634033,21.693452835083008,0.3674216866493225,2.5207552909851074,-0.20083944499492645,0.0,0.0,0.0,0.0,0.0,0.0,0.0,-0.2283204088752454,0.39688589623853443,0.09740631615128954,0.4270552215094125,-0.16231336399215318,0.12150886128234713,-0.2032895074453786,0.1729944650060252,-0.4874583344106837,-0.11147039044001318,-1.946399137614066,0.13361205615599947,2.595551071853763,0.9452468986428446,0.1728802376190821,-0.48752024683155326,-0.11147110072896137,-1.9463801863486305,0.1336059019074957,2.595550359778934,0.9452445589611904,-0.0003318761057631226,3.171974077924094e-05,-0.000543009658478779,0.00021521860268362505,6.60108286832147e-05,-7.153243776749709e-06,0.0003227224574452972,0.0,0.0,0.0,0.0,0.0,0.0,0.0,-0.00011422738694308321,-6.191242086955873e-05,-7.10288948185811e-07,1.8951265435385167e-05,-6.154248503781323e-06,-7.12074828879139e-07,-2.3396816541954024e-06,0.0003318761057631226,-3.171974077924094e-05,0.000543009658478779,-0.00021521860268362505,-6.60108286832147e-05,7.153243776749709e-06,-0.0003227224574452972,0.22445029020309448,11.873926162719727,-1.2909882068634033,-21.693452835083008,-0.3674216866493225,-2.5207552909851074,0.20083944499492645,0
14,0.06499600410461426,-0.22445029020309448,-11.873926162719727,1.2909882068634033,21.693452835083008,0.3674216866493225,2.5207552909851074,-0.20083944499492645,0.0,0.0,0.0,0.0,0.0,0.0,0.0,-0.2283204088752454,0.39688589623853443,0.09740631615128954,0.4270552215094125,-0.16231336399215318,0.12150886128234713,-0.2032895074453786,0.1729944650060252,-0.4874583344106837,-0.11147039044001318,-1.946399137614066,0.13361205615599947,2.595551071853763,0.9452468986428446,0.1728802376190821,-0.48752024683155326,-0.11147110072896137,-1.9463801863486305,0.1336059019074957,2.595550359778934,0.9452445589611904,-0.0003318761057631226,3.171974077924094e-05,-0.000543009658478779,0.00021521860268362505,6.60108286832147e-05,-7.153243776749709e-06,0.0003227224574452972,0.0,0.0,0.0,0.0,0.0,0.0,0.0,-0.00011422738694308321,-6.191242086955873e-05,-7.10288948185811e-07,1.8951265435385167e-05,-6.154248503781323e-06,-7.12074828879139e-07,-2.3396816541954024e-06,0.0003318761057631226,-3.171974077924094e-05,0.000543009658478779,-0.00021521860268362505,-6.60108286832147e-05,7.153243776749709e-06,-0.0003227224574452972,0.22445029020309448,11.873926162719727,-1.2909882068634033,-21.693452835083008,-0.3674216866493225,-2.5207552909851074,0.20083944499492645,0
15,0.0700080394744873,-0.22445029020309448,-11.873926162719727,1.2671844959259033,21.717256546020508,0.3793235421180725,2.5335726737976074,-0.15964071452617645,0.0,0.0,0.0,0.0,0.0,0.0,0.0,-0.23260333969434793,0.39046304255615233,0.0938279562547788,0.4369009160383477,-0.162162394392159,0.12319136424196687,-0.20286132033459545,0.1729944650060252,-0.4874574067187275,-0.1114687200042239,-1.9464015233056584,0.13361073372761406,2.5955496477021107,0.9452423210061258,0.1728802376190821,-0.48752024683155326,-0.11147110072896137,-1.9463801863486305,0.1336059019074957,2.595550359778934,0.9452445589611904,-0.0013807920919793745,-0.00010238487112522778,0.00019267728179400776,0.0003024614197707599,-0.0003992864277696511,-0.00027497297198733904,-0.001745854818023206,0.0,0.0,0.0,0.0,0.0,0.0,0.0,-0.00011422738694308321,-6.284011282575719e-05,-2.38072473746076e-06,2.1336957027884296e-05,-4.831820118372798e-06,7.120768232837804e-07,2.2379550645990065e-06,0.0013807920919793745,0.00010238487112522778,-0.00019267728179400776,-0.0003024614197707599,0.0003992864277696511,0.00027497297198733904,0.001745854818023206,0.22445029020309448,11.873926162719727,-1.2671844959259033,-21.717256546020508,-0.3793235421180725,-2.5335726737976074,0.15964071452617645,0
16,0.07500386238098145,-0.22445029020309448,-11.873926162719727,1.2671844959259033,21.717256546020508,0.3793235421180725,2.5335726737976074,-0.15964071452617645,0.0,0.0,0.0,0.0,0.0,0.0,0.0,-0.23260333969434793,0.39046304255615233,0.0938279562547788,0.4369009160383477,-0.162162394392159,0.12319136424196687,-0.20286132033459545,0.1729944650060252,-0.4874574067187275,-0.1114687200042239,-1.9464015233056584,0.13361073372761406,2.5955496477021107,0.9452423210061258,0.1728802376190821,-0.48752024683155326,-0.11147110072896137,-1.9463801863486305,0.1336059019074957,2.595550359778934,0.9452445589611904,-0.0013807920919793745,-0.00010238487112522778,0.00019267728179400776,0.0003024614197707599,-0.0003992864277696511,-0.00027497297198733904,-0.001745854818023206,0.0,0.0,0.0,0.0,0.0,0.0,0.0,-0.00011422738694308321,-6.284011282575719e-05,-2.38072473746076e-06,2.1336957027884296e-05,-4.831820118372798e-06,7.120768232837804e-07,2.2379550645990065e-06,0.0013807920919793745,0.00010238487112522778,-0.00019267728179400776,-0.0003024614197707599,0.0003992864277696511,0.00027497297198733904,0.001745854818023206,0.22445029020309448,11.873926162719727,-1.2671844959259033,-21.717256546020508,-0.3793235421180725,-2.5335726737976074,0.15964071452617645,0
17,0.0801246166229248,-0.19667929410934448,-11.925500869750977,1.2909882068634033,21.741060256958008,0.3674216866493225,2.5207552909851074,-0.23471395671367645,0.0,0.0,0.0,0.0,0.0,0.0,0.0,-0.2280549453083343,0.41458061817672676,0.1051006197444588,0.42843384161165565,-0.16360389350485932,0.12174163347366035,-0.20467608118605704,0.17299251616419403,-0.4874516945106854,-0.11147039043606959,-1.946402478522265,0.13361205615599947,2.595551067495106,0.94525066247748,0.1728802376190821,-0.48752024683155326,-0.11147110072896137,-1.9463801863486305,0.1336059019074957,2.595550359778934,0.9452445589611904,-0.0004131819229428206,0.000167270556309458,-6.663073362843467e-05,-0.0009260370341683998,0.00012356322745294188,4.478657490147398e-05,0.0010638967010951595,0.0,0.0,0.0,0.0,0.0,0.0,0.0,-0.00011227854511192126,-6.855232086788732e-05,-7.102928917812612e-07,2.2292173634363976e-05,-6.154248503781323e-06,-7.077161718882508e-07,-6.103516289601707e-06,0.0004131819229428206,-0.000167270556309458,6.663073362843467e-05,0.0009260370341683998,-0.00012356322745294188,-4.478657490147398e-05,-0.0010638967010951595,0.19667929410934448,11.925500869750977,-1.2909882068634033,-21.741060256958008,-0.3674216866493225,-2.5207552909851074,0.23471395671367645,0
18,0.08500885963439941,-0.19667929410934448,-11.925500869750977,1.2909882068634033,21.741060256958008,0.3674216866493225,2.5207552909851074,-0.23471395671367645,0.0,0.0,0.0,0.0,0.0,0.0,0.0,-0.2280549453083343,0.41458061817672676,0.1051006197444588,0.42843384161165565,-0.16360389350485932,0.12174163347366035,-0.20467608118605704,0.17299251616419403,-0.4874516945106854,-0.11147039043606959,-1.946402478522265,0.13361205615599947,2.595551067495106,0.94525066247748,0.1728802376190821,-0.48752024683155326,-0.11147110072896137,-1.9463801863486305,0.1336059019074957,2.595550359778934,0.9452445589611904,-0.0004131819229428206,0.000167270556309458,-6.663073362843467e-05,-0.0009260370341683998,0.00012356322745294188,4.478657490147398e-05,0.0010638967010951595,0.0,0.0,0.0,0.0,0.0,0.0,0.0,-0.00011227854511192126,-6.855232086788732e-05,-7.102928917812612e-07,2.2292173634363976e-05,-6.154248503781323e-06,-7.077161718882508e-07,-6.103516289601707e-06,0.0004131819229428206,-0.000167270556309458,6.663073362843467e-05,0.0009260370341683998,-0.00012356322745294188,-4.478657490147398e-05,-0.0010638967010951595,0.19667929410934448,11.925500869750977,-1.2909882068634033,-21.741060256958008,-0.3674216866493225,-2.5207552909851074,0.23471395671367645,0
19,0.09002089500427246,-0.24825400114059448,-11.901697158813477,1.3147919178009033,21.741060256958008,0.3619285225868225,2.5207552909851074,-0.20724813640117645,0.0,0.0,0.0,0.0,0.0,0.0,0.0,-0.23044160268224814,0.41334241009339995,0.09686670987644651,0.4303499665015279,-0.1630393956415645,0.12239258416141219,-0.2061584544021004,0.17299613544188044,-0.48745353272257397,-0.11147206087593442,-1.946402481429216,0.13361266650756198,2.5955510718557324,0.9452476107196676,0.1728802376190821,-0.48752024683155326,-0.11147110072896137,-1.9463801863486305,0.1336059019074957,2.595550359778934,0.9452445589611904,0.0009712495106136796,-0.0005552553198886967,-0.0003841331179088256,-0.00028086567144386496,0.0005461264090462339,3.84636946362713e-05,0.0005120712203050243,0.0,0.0,0.0,0.0,0.0,0.0,0.0,-0.00011589782279833316,-6.671410897929331e-05,9.60146973053022e-07,2.2295080585488236e-05,-6.764600066294646e-06,-7.120767984147847e-07,-3.051758477146116e-06,-0.0009712495106136796,0.0005552553198886967,0.0003841331179088256,0.00028086567144386496,-0.0005461264090462339,-3.84636946362713e-05,-0.0005120712203050243,0.24825400114059448,11.901697158813477,-1.3147919178009033,-21.741060256958008,-0.3619285225868225,-2.5207552909851074,0.20724813640117645,0
20,0.09500360488891602,-0.24825400114059448,-11.901697158813477,1.3147919178009033,21.741060256958008,0.3619285225868225,2.5207552909851074,-0.20724813640117645,0.0,0.0,0.0,0.0,0.0,0.0,0.0,-0.23044160268224814,0.41334241009339995,0.09686670987644651,0.4303499665015279,-0.1630393956415645,0.12239258416141219,-0.2061584544021004,0.17299613544188044,-0.48745353272257397,-0.11147206087593442,-1.946402481429216,0.13361266650756198,2.5955510718557324,0.9452476107196676,0.1728802376190821,-0.48752024683155326,-0.11147110072896137,-1.9463801863486305,0.1336059019074957,2.595550359778934,0.9452445589611904,0.0009712495106136796,-0.0005552553198886967,-0.0003841331179088256,-0.00028086567144386496,0.0005461264090462339,3.84636946362713e-05,0.0005120712203050243,0.0,0.0,0.0,0.0,0.0,0.0,0.0,-0.00011589782279833316,-6.671410897929331e-05,9.60146973053022e-07,2.2295080585488236e-05,-6.764600066294646e-06,-7.120767984147847e-07,-3.051758477146116e-06,-0.0009712495106136796,0.0005552553198886967,0.0003841331179088256,0.00028086567144386496,-0.0005461264090462339,-3.84636946362713e-05,-0.0005120712203050243,0.24825400114059448,11.901697158813477,-1.3147919178009033,-21.741060256958008,-0.3619285225868225,-2.5207552909851074,0.20724813640117645,0
21,0.09994888305664062,-0.19667929410934448,-11.925500869750977,1.2909882068634033,21.717256546020508,0.3738303780555725,2.5207552909851074,-0.20083944499492645,0.0,0.0,0.0,0.0,0.0,0.0,0.0,-0.2254820851881496,0.4318027011122409,0.10212715043949723,0.4191242221161804,-0.16307727549064108,0.12009673093744361,-0.2059316112444881,0.1729918042198259,-0.48745378700622405,-0.11147038751708048,-1.9464008081589539,0.13361134407917655,2.595551071855757,0.9452501570300923,0.1728802376190821,-0.48752024683155326,-0.11147110072896137,-1.9463801863486305,0.1336059019074957,2.595550359778934,0.9452445589611904,3.6707574379796946e-05,0.0008928542854003842,0.0006586510994295815,-0.00033197444633804683,-0.00018880391581245837,8.921159334949978e-05,0.009143152195516726,0.0,0.0,0.0,0.0,0.0,0.0,0.0,-0.00011156660074379543,-6.645982532921257e-05,-7.132118808872434e-07,2.062181032336241e-05,-5.442171680858365e-06,-7.120768228396912e-07,-5.598068901879749e-06,-3.6707574379796946e-05,-0.0008928542854003842,-0.0006586510994295815,0.00033197444633804683,0.00018880391581245837,-8.921159334949978e-05,-0.009143152195516726,0.19667929410934448,11.925500869750977,-1.2909882068634033,-21.717256546020508,-0.3738303780555725,-2.5207552909851074,0.20083944499492645,0
22,0.10500288009643555,-0.19667929410934448,-11.925500869750977,1.2909882068634033,21.717256546020508,0.3738303780555725,2.5207552909851074,-0.20083944499492645,0.0,0.0,0.0,0.0,0.0,0.0,0.0,-0.2254820851881496,0.4318027011122409,0.10212715043949723,0.4191242221161804,-0.16307727549064108,0.12009673093744361,-0.2059316112444881,0.1729918042198259,-0.48745378700622405,-0.11147038751708048,-1.9464008081589539,0.13361134407917655,2.595551071855757,0.9452501570300923,0.1728802376190821,-0.48752024683155326,-0.11147110072896137,-1.9463801863486305,0.1336059019074957,2.595550359778934,0.9452445589611904,3.6707574379796946e-05,0.0008928542854003842,0.0006586510994295815,-0.00033197444633804683,-0.00018880391581245837,8.921159334949978e-05,0.009143152195516726,0.0,0.0,0.0,0.0,0.0,0.0,0.0,-0.00011156660074379543,-6.645982532921257e-05,-7.132118808872434e-07,2.062181032336241e-05,-5.442171680858365e-06,-7.120768228396912e-07,-5.598068901879749e-06,-3.6707574379796946e-05,-0.0008928542854003842,-0.0006586510994295815,0.00033197444633804683,0.00018880391581245837,-8.921159334949978e-05,-0.009143152195516726,0.19667929410934448,11.925500869750977,-1.2909882068634033,-21.717256546020508,-0.3738303780555725,-2.5207552909851074,0.20083944499492645,0
23,0.11000204086303711,-0.24825400114059448,-11.925500869750977,1.3147919178009033,21.717256546020508,0.3619285225868225,2.5207552909851074,-0.18710653483867645,0.0,0.0,0.0,0.0,0.0,0.0,0.0,-0.22584939550323416,0.40518239900666597,0.10055667833031816,0.43620534192388255,-0.16252473485093163,0.12243644927213095,-0.20668120957706157,0.17299613153144522,-0.48745196891644144,-0.11147205784466004,-1.9464008080499218,0.13361266650756198,2.595551071855757,0.9452453727823321,0.1728802376190821,-0.48752024683155326,-0.11147110072896137,-1.9463801863486305,0.1336059019074957,2.595550359778934,0.9452445589611904,0.0012297800606548167,0.00045355244012776716,-0.00031259769186830447,0.0004863723049535709,0.0004075314877436386,-9.202455083823636e-05,0.000229510472304067,0.0,0.0,0.0,0.0,0.0,0.0,0.0,-0.00011589391236310753,-6.827791511182513e-05,9.571156986687424e-07,2.0621701291245742e-05,-6.764600066294646e-06,-7.120768228396912e-07,-8.138211416985897e-07,-0.0012297800606548167,-0.00045355244012776716,0.00031259769186830447,-0.0004863723049535709,-0.0004075314877436386,9.202455083823636e-05,-0.000229510472304067,0.24825400114059448,11.925500869750977,-1.3147919178009033,-21.717256546020508,-0.3619285225868225,-2.5207552909851074,0.18710653483867645,0
24,0.11499881744384766,-0.24825400114059448,-11.925500869750977,1.3147919178009033,21.717256546020508,0.3619285225868225,2.5207552909851074,-0.18710653483867645,0.0,0.0,0.0,0.0,0.0,0.0,0.0,-0.22584939550323416,0.40518239900666597,0.10055667833031816,0.43620534192388255,-0.16252473485093163,0.12243644927213095,-0.20668120957706157,0.17299613153144522,-0.48745196891644144,-0.11147205784466004,-1.9464008080499218,0.13361266650756198,2.595551071855757,0.9452453727823321,0.1728802376190821,-0.48752024683155326,-0.11147110072896137,-1.9463801863486305,0.1336059019074957,2.595550359778934,0.9452445589611904,0.0012297800606548167,0.00045355244012776716,-0.00031259769186830447,0.0004863723049535709,0.0004075314877436386,-9.202455083823636e-05,0.000229510472304067,0.0,0.0,0.0,0.0,0.0,0.0,0.0,-0.00011589391236310753,-6.827791511182513e-05,9.571156986687424e-07,2.0621701291245742e-05,-6.764600066294646e-06,-7.120768228396912e-07,-8.138211416985897e-07,-0.0012297800606548167,-0.00045355244012776716,0.00031259769186830447,-0.0004863723049535709,-0.0004075314877436386,9.202455083823636e-05,-0.000229510472304067,0.24825400114059448,11.925500869750977,-1.3147919178009033,-21.717256546020508,-0.3619285225868225,-2.5207552909851074,0.18710653483867645,0
25,0.11999797821044922,-0.22445029020309448,-11.973108291625977,1.3425629138946533,21.768831253051758,0.3738303780555725,2.5143465995788574,-0.22098104655742645,0.0,0.0,0.0,0.0,0.0,0.0,0.0,-0.22417242030821236,0.4097226510485727,0.10127639074375888,0.4318038141305256,-0.16244962336705468,0.12143315264013477,-0.2072363345659751,0.17299422736567907,-0.48744830065861355,-0.11147377291876756,-1.9464044302710468,0.13361134407917655,2.5955517839325797,0.9452491361140571,0.1728802376190821,-0.48752024683155326,-0.11147110072896137,-1.9463801863486305,0.1336059019074957,2.595550359778934,0.9452445589611904,-0.00023323246421132158,0.0008376278438191241,-0.0010752994419410535,-0.0013751196172912359,-0.0001706430992946947,0.00042963029003094866,0.0008806770065334676,0.0,0.0,0.0,0.0,0.0,0.0,0.0,-0.00011398974659695971,-7.194617293970751e-05,2.67218980619377e-06,2.4243922416289365e-05,-5.442171680858365e-06,-1.4241536456793824e-06,-4.577152866724887e-06,0.00023323246421132158,-0.0008376278438191241,0.0010752994419410535,0.0013751196172912359,0.0001706430992946947,-0.00042963029003094866,-0.0008806770065334676,0.22445029020309448,11.973108291625977,-1.3425629138946533,-21.768831253051758,-0.3738303780555725,-2.5143465995788574,0.22098104655742645,0
26,0.1250007152557373,-0.22445029020309448,-11.973108291625977,1.3425629138946533,21.768831253051758,0.3738303780555725,2.5143465995788574,-0.22098104655742645,0.0,0.0,0.0,0.0,0.0,0.0,0.0,-0.22417242030821236,0.4097226510485727,0.10127639074375888,0.4318038141305256,-0.16244962336705468,0.12143315264013477,-0.2072363345659751,0.17299422736567907,-0.48744830065861355,-0.11147377291876756,-1.9464044302710468,0.13361134407917655,2.5955517839325797,0.9452491361140571,0.1728802376190821,-0.48752024683155326,-0.11147110072896137,-1.9463801863486305,0.1336059019074957,2.595550359778934,0.9452445589611904,-0.00023323246421132158,0.0008376278438191241,-0.0010752994419410535,-0.0013751196172912359,-0.0001706430992946947,0.00042963029003094866,0.0008806770065334676,0.0,0.0,0.0,0.0,0.0,0.0,0.0,-0.00011398974659695971,-7.194617293970751e-05,2.67218980619377e-06,2.4243922416289365e-05,-5.442171680858365e-06,-1.4241536456793824e-06,-4.577152866724887e-06,0.00023323246421132158,-0.0008376278438191241,0.0010752994419410535,0.0013751196172912359,0.0001706430992946947,-0.00042963029003094866,-0.0008806770065334676,0.22445029020309448,11.973108291625977,-1.3425629138946533,-21.768831253051758,-0.3738303780555725,-2.5143465995788574,0.22098104655742645,0
27,0.13001155853271484,-0.19667929410934448,-11.925500869750977,1.2671844959259033,21.693452835083008,0.3674216866493225,2.5335726737976074,-0.23471395671367645,0.0,0.0,0.0,0.0,0.0,0.0,0.0,-0.2263300619760073,0.3925930630333002,0.09999561990267065,0.4371145544572224,-0.16236303878207145,0.12298069272546536,-0.2072984670919967,0.17299251616285255,-0.48745161481949023,-0.11146871989462798,-1.9463991405575218,0.13361205615599947,2.595549647702111,0.9452506624774772,0.1728802376190821,-0.48752024683155326,-0.11147110072896137,-1.9463801863486305,0.1336059019074957,2.595550359778934,0.9452445589611904,-0.0010374553531591264,-0.0013189645922216727,0.00018212745873538757,0.0008603218725386201,0.00027842385330543914,-0.00023935408750763227,0.0015939460474271405,0.0,0.0,0.0,0.0,0.0,0.0,0.0,-0.00011227854377043878,-6.863201206303016e-05,-2.3808343333903137e-06,1.895420889130861e-05,-6.154248503781323e-06,7.120768228396912e-07,-6.1035162868261494e-06,0.0010374553531591264,0.0013189645922216727,-0.00018212745873538757,-0.0008603218725386201,-0.00027842385330543914,0.00023935408750763227,-0.0015939460474271405,0.19667929410934448,11.925500869750977,-1.2671844959259033,-21.693452835083008,-0.3674216866493225,-2.5335726737976074,0.23471395671367645,0
28,0.13500738143920898,-0.19667929410934448,-11.925500869750977,1.2671844959259033,21.693452835083008,0.3674216866493225,2.5335726737976074,-0.23471395671367645,0.0,0.0,0.0,0.0,0.0,0.0,0.0,-0.2263300619760073,0.3925930630333002,0.09999561990267065,0.4371145544572224,-0.16236303878207145,0.12298069272546536,-0.2072984670919967,0.17299251616285255,-0.48745161481949023,-0.11146871989462798,-1.9463991405575218,0.13361205615599947,2.595549647702111,0.9452506624774772,0.1728802376190821,-0.48752024683155326,-0.11147110072896137,-1.9463801863486305,0.1336059019074957,2.595550359778934,0.9452445589611904,-0.0010374553531591264,-0.0013189645922216727,0.00018212745873538757,0.0008603218725386201,0.00027842385330543914,-0.00023935408750763227,0.0015939460474271405,0.0,0.0,0.0,0.0,0.0,0.0,0.0,-0.00011227854377043878,-6.863201206303016e-05,-2.3808343333903137e-06,1.895420889130861e-05,-6.154248503781323e-06,7.120768228396912e-07,-6.1035162868261494e-06,0.0010374553531591264,0.0013189645922216727,-0.00018212745873538757,-0.0008603218725386201,-0.00027842385330543914,0.00023935408750763227,-0.0015939460474271405,0.19667929410934448,11.925500869750977,-1.2671844959259033,-21.693452835083008,-0.3674216866493225,-2.5335726737976074,0.23471395671367645,0
29,0.14000320434570312,-0.24825400114059448,-11.949304580688477,1.2909882068634033,21.693452835083008,0.3674216866493225,2.5271639823913574,-0.20724813640117645,0.0,0.0,0.0,0.0,0.0,0.0,0.0,-0.22181483691228884,0.4123355331145452,0.10445842149004222,0.4218320978555247,-0.16248425948715578,0.12133449968781339,-0.20796853389874917,0.1729961266524438,-0.487449944274468,-0.11147039044007856,-1.9463991376140826,0.13361205615599947,2.595550359778934,0.9452476107196676,0.1728802376190821,-0.48752024683155326,-0.11147110072896137,-1.9463801863486305,0.1336059019074957,2.595550359778934,0.9452445589611904,0.0006278193424566405,6.769470720940664e-05,0.00023215626219138733,0.00034956480752209733,0.00010208382437447642,-0.00012867204874263447,0.00022253004369565552,0.0,0.0,0.0,0.0,0.0,0.0,0.0,-0.00011588903336168244,-7.030255708528887e-05,-7.102888828075526e-07,1.8951265452038513e-05,-6.154248503781323e-06,0.0,-3.051758477146116e-06,-0.0006278193424566405,-6.769470720940664e-05,-0.00023215626219138733,-0.00034956480752209733,-0.00010208382437447642,0.00012867204874263447,-0.00022253004369565552,0.24825400114059448,11.949304580688477,-1.2909882068634033,-21.693452835083008,-0.3674216866493225,-2.5271639823913574,0.20724813640117645,0
30,0.14500045776367188,-0.24825400114059448,-11.949304580688477,1.2909882068634033,21.693452835083008,0.3674216866493225,2.5271639823913574,-0.20724813640117645,0.0,0.0,0.0,0.0,0.0,0.0,0.0,-0.22181483691228884,0.4123355331145452,0.10445842149004222,0.4218320978555247,-0.16248425948715578,0.12133449968781339,-0.20796853389874917,0.1729961266524438,-0.487449944274468,-0.11147039044007856,-1.9463991376140826,0.13361205615599947,2.595550359778934,0.9452476107196676,0.1728802376190821,-0.48752024683155326,-0.11147110072896137,-1.9463801863486305,0.1336059019074957,2.595550359778934,0.9452445589611904,0.0006278193424566405,6.769470720940664e-05,0.00023215626219138733,0.00034956480752209733,0.00010208382437447642,-0.00012867204874263447,0.00022253004369565552,0.0,0.0,0.0,0.0,0.0,0.0,0.0,-0.00011588903336168244,-7.030255708528887e-05,-7.102888828075526e-07,1.8951265452038513e-05,-6.154248503781323e-06,0.0,-3.051758477146116e-06,-0.0006278193424566405,-6.769470720940664e-05,-0.00023215626219138733,-0.00034956480752209733,-0.00010208382437447642,0.00012867204874263447,-0.00022253004369565552,0.24825400114059448,11.949304580688477,-1.2909882068634033,-21.693452835083008,-0.3674216866493225,-2.5271639823913574,0.20724813640117645,0
31,0.1506192684173584,-0.22445029020309448,-11.850122451782227,1.2671844959259033,21.717256546020508,0.3738303780555725,2.5207552909851074,-0.15231649577617645,0.0,0.0,0.0,0.0,0.0,0.0,0.0,-0.22861608223745705,0.4123887242274873,0.09217731606422773,0.4211846566085086,-0.16231969117838327,0.12195309359881881,-0.20822592237299775,0.1729944650059756,-0.4874572341980763,-0.11146798308377444,-1.9464015233056584,0.13361134407917655,2.595551071855757,0.9452415072040425,0.1728802376190821,-0.48752024683155326,-0.11147110072896137,-1.9463801863486305,0.1336059019074957,2.595550359778934,0.9452445589611904,-0.0004068735450111838,-0.0011329264579485628,-3.650570085581876e-05,-4.431396715713062e-05,-0.0001100051311894443,0.00011438815344540881,-0.0018146389815458027,0.0,0.0,0.0,0.0,0.0,0.0,0.0,-0.000114227386893484,-6.30126334769665e-05,-3.117645186928586e-06,2.1336957027884296e-05,-5.442171680858365e-06,-7.120768228396912e-07,3.0517571478760885e-06,0.0004068735450111838,0.0011329264579485628,3.650570085581876e-05,4.431396715713062e-05,0.0001100051311894443,-0.00011438815344540881,0.0018146389815458027,0.22445029020309448,11.850122451782227,-1.2671844959259033,-21.717256546020508,-0.3738303780555725,-2.5207552909851074,0.15231649577617645,0
32,0.15500354766845703,-0.22445029020309448,-11.850122451782227,1.2671844959259033,21.717256546020508,0.3738303780555725,2.5207552909851074,-0.15231649577617645,0.0,0.0,0.0,0.0,0.0,0.0,0.0,-0.22861608223745705,0.4123887242274873,0.09217731606422773,0.4211846566085086,-0.16231969117838327,0.12195309359881881,-0.20822592237299775,0.1729944650059756,-0.4874572341980763,-0.11146798308377444,-1.9464015233056584,0.13361134407917655,2.595551071855757,0.9452415072040425,0.1728802376190821,-0.48752024683155326,-0.11147110072896137,-1.9463801863486305,0.1336059019074957,2.595550359778934,0.9452445589611904,-0.0004068735450111838,-0.0011329264579485628,-3.650570085581876e-05,-4.431396715713062e-05,-0.0001100051311894443,0.00011438815344540881,-0.0018146389815458027,0.0,0.0,0.0,0.0,0.0,0.0,0.0,-0.000114227386893484,-6.30126334769665e-05,-3.117645186928586e-06,2.1336957027884296e-05,-5.442171680858365e-06,-7.120768228396912e-07,3.0517571478760885e-06,0.0004068735450111838,0.0011329264579485628,3.650570085581876e-05,4.431396715713062e-05,0.0001100051311894443,-0.00011438815344540881,0.0018146389815458027,0.22445029020309448,11.850122451782227,-1.2671844959259033,-21.717256546020508,-0.3738303780555725,-2.5207552909851074,0.15231649577617645,0
33,0.16000795364379883,-0.24825400114059448,-11.873926162719727,1.2671844959259033,21.717256546020508,0.3738303780555725,2.5271639823913574,-0.21457235515117645,0.0,0.0,0.0,0.0,0.0,0.0,0.0,-0.22243569733178084,0.4225856581790029,0.0986127036657988,0.421105921399742,-0.16308404472460278,0.12183233368569021,-0.20819254119120673,0.17299613544188044,-0.48745523497101695,-0.11146872000006398,-1.9464008081629751,0.13361134407917655,2.595550359778934,0.9452484245217508,0.1728802376190821,-0.48752024683155326,-0.11147110072896137,-1.9463801863486305,0.1336059019074957,2.595550359778934,0.9452445589611904,0.0002307170008090292,0.0008312307647458481,0.0003574806754343029,-2.350182402112022e-05,-0.0002682323170829931,-0.0003578010832694978,0.0006628726382445152,0.0,0.0,0.0,0.0,0.0,0.0,0.0,-0.00011589782279833316,-6.501186053631258e-05,-2.3807288973831664e-06,2.0621814344590206e-05,-5.442171680858365e-06,0.0,-3.865560560423198e-06,-0.0002307170008090292,-0.0008312307647458481,-0.0003574806754343029,2.350182402112022e-05,0.0002682323170829931,0.0003578010832694978,-0.0006628726382445152,0.24825400114059448,11.873926162719727,-1.2671844959259033,-21.717256546020508,-0.3738303780555725,-2.5271639823913574,0.21457235515117645,0
34,0.16499900817871094,-0.24825400114059448,-11.873926162719727,1.2671844959259033,21.717256546020508,0.3738303780555725,2.5271639823913574,-0.21457235515117645,0.0,0.0,0.0,0.0,0.0,0.0,0.0,-0.22243569733178084,0.4225856581790029,0.0986127036657988,0.421105921399742,-0.16308404472460278,0.12183233368569021,-0.20819254119120673,0.17299613544188044,-0.48745523497101695,-0.11146872000006398,-1.9464008081629751,0.13361134407917655,2.595550359778934,0.9452484245217508,0.1728802376190821,-0.48752024683155326,-0.11147110072896137,-1.9463801863486305,0.1336059019074957,2.595550359778934,0.9452445589611904,0.0002307170008090292,0.0008312307647458481,0.0003574806754343029,-2.350182402112022e-05,-0.0002682323170829931,-0.0003578010832694978,0.0006628726382445152,0.0,0.0,0.0,0.0,0.0,0.0,0.0,-0.00011589782279833316,-6.501186053631258e-05,-2.3807288973831664e-06,2.0621814344590206e-05,-5.442171680858365e-06,0.0,-3.865560560423198e-06,-0.0002307170008090292,-0.0008312307647458481,-0.0003574806754343029,2.350182402112022e-05,0.0002682323170829931,0.0003578010832694978,-0.0006628726382445152,0.24825400114059448,11.873926162719727,-1.2671844959259033,-21.717256546020508,-0.3738303780555725,-2.5271639823913574,0.21457235515117645,0
35,0.1699976921081543,-0.19667929410934448,-11.901697158813477,1.3147919178009033,21.717256546020508,0.3619285225868225,2.5207552909851074,-0.16604940593242645,0.0,0.0,0.0,0.0,0.0,0.0,0.0,-0.2284458932719691,0.4059422546144184,0.09342249232783296,0.4345192237919043,-0.16307901795958304,0.12344011714719562,-0.20867004654773924,0.17299251616419403,-0.48745626488786004,-0.11147205795293567,-1.9464008875227827,0.13361254803413225,2.595551071855757,0.9452430316293985,0.1728802376190821,-0.48752024683155326,-0.11147110072896137,-1.9463801863486305,0.1336059019074957,2.595550359778934,0.9452445589611904,-0.0010725219232380462,0.00047306401165949166,-0.0007154525640759103,-0.00014332347387063454,0.00024218409914355616,-3.5158677726818084e-05,-0.0012512355260155907,0.0,0.0,0.0,0.0,0.0,0.0,0.0,-0.00011227854511192126,-6.398194369322541e-05,9.572239743071975e-07,2.0701174152204516e-05,-6.646126636561389e-06,-7.120768228396912e-07,1.5273317919284324e-06,0.0010725219232380462,-0.00047306401165949166,0.0007154525640759103,0.00014332347387063454,-0.00024218409914355616,3.5158677726818084e-05,0.0012512355260155907,0.19667929410934448,11.901697158813477,-1.3147919178009033,-21.717256546020508,-0.3619285225868225,-2.5207552909851074,0.16604940593242645,0
36,0.17499852180480957,-0.19667929410934448,-11.901697158813477,1.3147919178009033,21.717256546020508,0.3619285225868225,2.5207552909851074,-0.16604940593242645,0.0,0.0,0.0,0.0,0.0,0.0,0.0,-0.2284458932719691,0.4059422546144184,0.09342249232783296,0.4345192237919043,-0.16307901795958304,0.12344011714719562,-0.20867004654773924,0.17299251616419403,-0.48745626488786004,-0.11147205795293567,-1.9464008875227827,0.13361254803413225,2.595551071855757,0.9452430316293985,0.1728802376190821,-0.48752024683155326,-0.11147110072896137,-1.9463801863486305,0.1336059019074957,2.595550359778934,0.9452445589611904,-0.0010725219232380462,0.00047306401165949166,-0.0007154525640759103,-0.00014332347387063454,0.00024218409914355616,-3.5158677726818084e-05,-0.0012512355260155907,0.0,0.0,0.0,0.0,0.0,0.0,0.0,-0.00011227854511192126,-6.398194369322541e-05,9.572239743071975e-07,2.0701174152204516e-05,-6.646126636561389e-06,-7.120768228396912e-07,1.5273317919284324e-06,0.0010725219232380462,-0.00047306401165949166,0.0007154525640759103,0.00014332347387063454,-0.00024218409914355616,3.5158677726818084e-05,0.0012512355260155907,0.19667929410934448,11.901697158813477,-1.3147919178009033,-21.717256546020508,-0.3619285225868225,-2.5207552909851074,0.16604940593242645,0
37,0.17999839782714844,-0.19667929410934448,-11.901697158813477,1.3147919178009033,21.717256546020508,0.3619285225868225,2.5207552909851074,-0.16604940593242645,0.0,0.0,0.0,0.0,0.0,0.0,0.0,-0.2284458932719691,0.4059422546144184,0.09342249232783296,0.4345192237919043,-0.16307901795958304,0.12344011714719562,-0.20867004654773924,0.17299251616419403,-0.48745626488786004,-0.11147205795293567,-1.9464008875227827,0.13361254803413225,2.595551071855757,0.9452430316293985,0.1728802376190821,-0.48752024683155326,-0.11147110072896137,-1.9463801863486305,0.1336059019074957,2.595550359778934,0.9452445589611904,-0.0010725219232380462,0.00047306401165949166,-0.0007154525640759103,-0.00014332347387063454,0.00024218409914355616,-3.5158677726818084e-05,-0.0012512355260155907,0.0,0.0,0.0,0.0,0.0,0.0,0.0,-0.00011227854511192126,-6.398194369322541e-05,9.572239743071975e-07,2.0701174152204516e-05,-6.646126636561389e-06,-7.120768228396912e-07,1.5273317919284324e-06,0.0010725219232380462,-0.00047306401165949166,0.0007154525640759103,0.00014332347387063454,-0.00024218409914355616,3.5158677726818084e-05,0.0012512355260155907,0.19667929410934448,11.901697158813477,-1.3147919178009033,-21.717256546020508,-0.3619285225868225,-2.5207552909851074,0.16604940593242645,0
38,0.1849982738494873,-0.19667929410934448,-11.901697158813477,1.3147919178009033,21.717256546020508,0.3738303780555725,2.5271639823913574,-0.18710653483867645,0.0,0.0,0.0,0.0,0.0,0.0,0.0,-0.22681617820600117,0.41414138027166114,0.09572693756711188,0.4352856204652579,-0.16379282869421394,0.1235087492625428,-0.2083983615987367,0.17299251616419403,-0.4874555458584824,-0.11147205784467104,-1.9464008080500705,0.13361134407895364,2.595550359778934,0.9452453727639356,0.1728802376190821,-0.48752024683155326,-0.11147110072896137,-1.9463801863486305,0.1336059019074957,2.595550359778934,0.9452445589611904,-0.00016198231762956276,0.000341511284752155,-0.0003904486494592204,0.00021666390808268082,-0.00013825363706778223,-5.382938973393856e-05,-0.00037461397420208574,0.0,0.0,0.0,0.0,0.0,0.0,0.0,-0.00011227854511192126,-6.470097307087475e-05,9.57115709673828e-07,2.0621701440015627e-05,-5.4421714579533376e-06,0.0,-8.138027451920493e-07,0.00016198231762956276,-0.000341511284752155,0.0003904486494592204,-0.00021666390808268082,0.00013825363706778223,5.382938973393856e-05,0.00037461397420208574,0.19667929410934448,11.901697158813477,-1.3147919178009033,-21.717256546020508,-0.3738303780555725,-2.5271639823913574,0.18710653483867645,0
39,0.1900019645690918,-0.19667929410934448,-11.901697158813477,1.3147919178009033,21.717256546020508,0.3738303780555725,2.5271639823913574,-0.18710653483867645,0.0,0.0,0.0,0.0,0.0,0.0,0.0,-0.22681617820600117,0.41414138027166114,0.09572693756711188,0.4352856204652579,-0.16379282869421394,0.1235087492625428,-0.2083983615987367,0.17299251616419403,-0.4874555458584824,-0.11147205784467104,-1.9464008080500705,0.13361134407895364,2.595550359778934,0.9452453727639356,0.1728802376190821,-0.48752024683155326,-0.11147110072896137,-1.9463801863486305,0.1336059019074957,2.595550359778934,0.9452445589611904,-0.00016198231762956276,0.000341511284752155,-0.0003904486494592204,0.00021666390808268082,-0.00013825363706778223,-5.382938973393856e-05,-0.00037461397420208574,0.0,0.0,0.0,0.0,0.0,0.0,0.0,-0.00011227854511192126,-6.470097307087475e-05,9.57115709673828e-07,2.0621701440015627e-05,-5.4421714579533376e-06,0.0,-8.138027451920493e-07,0.00016198231762956276,-0.000341511284752155,0.0003904486494592204,-0.00021666390808268082,0.00013825363706778223,5.382938973393856e-05,0.00037461397420208574,0.19667929410934448,11.901697158813477,-1.3147919178009033,-21.717256546020508,-0.3738303780555725,-2.5271639823913574,0.18710653483867645,0
40,0.1950092315673828,-0.24825400114059448,-11.949304580688477,1.3147919178009033,21.717256546020508,0.3674216866493225,2.5207552909851074,-0.17978231608867645,0.0,0.0,0.0,0.0,0.0,0.0,0.0,-0.22570232599144527,0.41862420561290614,0.09110484729045845,0.4335530580808167,-0.1634605146564648,0.12390092774955394,-0.2084849138707379,0.17299613544188044,-0.4874502180270792,-0.11147206087591734,-1.946400808049921,0.13361205615599947,2.595551071855757,0.945244558961855,0.1728802376190821,-0.48752024683155326,-0.11147110072896137,-1.9463801863486305,0.1336059019074957,2.595550359778934,0.9452445589611904,0.0011511341947527739,0.0005905484642437236,-0.000500674367787623,0.00029919022618445735,-7.955626381046049e-07,0.0001539469902478703,-0.0006557930463362106,0.0,0.0,0.0,0.0,0.0,0.0,0.0,-0.00011589782279833316,-7.00288044740427e-05,9.601469559694653e-07,2.0621701290579608e-05,-6.154248503781323e-06,-7.120768228396912e-07,-6.645795025406187e-13,-0.0011511341947527739,-0.0005905484642437236,0.000500674367787623,-0.00029919022618445735,7.955626381046049e-07,-0.0001539469902478703,0.0006557930463362106,0.24825400114059448,11.949304580688477,-1.3147919178009033,-21.717256546020508,-0.3674216866493225,-2.5207552909851074,0.17978231608867645,0
41,0.20000338554382324,-0.24825400114059448,-11.949304580688477,1.3147919178009033,21.717256546020508,0.3674216866493225,2.5207552909851074,-0.17978231608867645,0.0,0.0,0.0,0.0,0.0,0.0,0.0,-0.22570232599144527,0.41862420561290614,0.09110484729045845,0.4335530580808167,-0.1634605146564648,0.12390092774955394,-0.2084849138707379,0.17299613544188044,-0.4874502180270792,-0.11147206087591734,-1.946400808049921,0.13361205615599947,2.595551071855757,0.945244558961855,0.1728802376190821,-0.48752024683155326,-0.11147110072896137,-1.9463801863486305,0.1336059019074957,2.595550359778934,0.9452445589611904,0.0011511341947527739,0.0005905484642437236,-0.000500674367787623,0.00029919022618445735,-7.955626381046049e-07,0.0001539469902478703,-0.0006557930463362106,0.0,0.0,0.0,0.0,0.0,0.0,0.0,-0.00011589782279833316,-7.00288044740427e-05,9.601469559694653e-07,2.0621701290579608e-05,-6.154248503781323e-06,-7.120768228396912e-07,-6.645795025406187e-13,-0.0011511341947527739,-0.0005905484642437236,0.000500674367787623,-0.00029919022618445735,7.955626381046049e-07,-0.0001539469902478703,0.0006557930463362106,0.24825400114059448,11.949304580688477,-1.3147919178009033,-21.717256546020508,-0.3674216866493225,-2.5207552909851074,0.17978231608867645,0
42,0.20500397682189941,-0.24825400114059448,-11.925500869750977,1.2433807849884033,21.717256546020508,0.3738303780555725,2.5271639823913574,-0.22098104655742645,0.0,0.0,0.0,0.0,0.0,0.0,0.0,-0.22311677132506166,0.4304242707670639,0.09195004167736574,0.4262866830963817,-0.16393634782105299,0.12220153364618362,-0.20828268858655669,0.17299610907357052,-0.4874516191088574,-0.11146704956836867,-1.9464010464685002,0.13361134407917655,2.595550359778934,0.9452491409067352,0.1728802376190821,-0.48752024683155326,-0.11147110072896137,-1.9463801863486305,0.1336059019074957,2.595550359778934,0.9452445589611904,0.0006648395931538803,0.00044105372348266864,0.0011600193317000324,0.00010257723624926516,-8.433836858796136e-05,-0.00029412600724912006,0.000902179168370351,0.0,0.0,0.0,0.0,0.0,0.0,0.0,-0.00011587145448840874,-6.862772269583539e-05,-4.051160592696834e-06,2.086011986968117e-05,-5.442171680858365e-06,0.0,-4.5819455447571045e-06,-0.0006648395931538803,-0.00044105372348266864,-0.0011600193317000324,-0.00010257723624926516,8.433836858796136e-05,0.00029412600724912006,-0.000902179168370351,0.24825400114059448,11.925500869750977,-1.2433807849884033,-21.717256546020508,-0.3738303780555725,-2.5271639823913574,0.22098104655742645,0
43,0.20999836921691895,-0.24825400114059448,-11.925500869750977,1.2433807849884033,21.717256546020508,0.3738303780555725,2.5271639823913574,-0.22098104655742645,0.0,0.0,0.0,0.0,0.0,0.0,0.0,-0.22311677132506166,0.4304242707670639,0.09195004167736574,0.4262866830963817,-0.16393634782105299,0.12220153364618362,-0.20828268858655669,0.17299610907357052,-0.4874516191088574,-0.11146704956836867,-1.9464010464685002,0.13361134407917655,2.595550359778934,0.9452491409067352,0.1728802376190821,-0.48752024683155326,-0.11147110072896137,-1.9463801863486305,0.1336059019074957,2.595550359778934,0.9452445589611904,0.0006648395931538803,0.00044105372348266864,0.0011600193317000324,0.00010257723624926516,-8.433836858796136e-05,-0.00029412600724912006,0.000902179168370351,0.0,0.0,0.0,0.0,0.0,0.0,0.0,-0.00011587145448840874,-6.862772269583539e-05,-4.051160592696834e-06,2.086011986968117e-05,-5.442171680858365e-06,0.0,-4.5819455447571045e-06,-0.0006648395931538803,-0.00044105372348266864,-0.0011600193317000324,-0.00010257723624926516,8.433836858796136e-05,0.00029412600724912006,-0.000902179168370351,0.24825400114059448,11.925500869750977,-1.2433807849884033,-21.717256546020508,-0.3738303780555725,-2.5271639823913574,0.22098104655742645,0
44,0.2149968147277832,-0.19667929410934448,-11.901697158813477,1.2671844959259033,21.717256546020508,0.3674216866493225,2.5143465995788574,-0.22098104655742645,0.0,0.0,0.0,0.0,0.0,0.0,0.0,-0.2192297622012864,0.42104185740005673,0.09917467438822633,0.4303700180941169,-0.16354358669806102,0.1229181852759316,-0.20843505530295625,0.1729925161640452,-0.4874540095593065,-0.11146872000422392,-1.946400808051267,0.13361205615599947,2.5955517839325797,0.9452491235166459,0.1728802376190821,-0.48752024683155326,-0.11147110072896137,-1.9463801863486305,0.1336059019074957,2.595550359778934,0.9452445589611904,-0.0006083487031653673,-0.00026331622095984285,0.000871576010156852,-2.9026730909496968e-05,3.249408739214807e-05,0.000504061916766558,-0.0031731033745353897,0.0,0.0,0.0,0.0,0.0,0.0,0.0,-0.00011227854496309586,-6.623727224674969e-05,-2.380724737446882e-06,2.062170263639196e-05,-6.154248503781323e-06,-1.4241536456793824e-06,-4.564555455499608e-06,0.0006083487031653673,0.00026331622095984285,-0.000871576010156852,2.9026730909496968e-05,-3.249408739214807e-05,-0.000504061916766558,0.0031731033745353897,0.19667929410934448,11.901697158813477,-1.2671844959259033,-21.717256546020508,-0.3674216866493225,-2.5143465995788574,0.22098104655742645,0
45,0.22000551223754883,-0.19667929410934448,-11.901697158813477,1.2671844959259033,21.717256546020508,0.3674216866493225,2.5143465995788574,-0.22098104655742645,0.0,0.0,0.0,0.0,0.0,0.0,0.0,-0.2192297622012864,0.42104185740005673,0.09917467438822633,0.4303700180941169,-0.16354358669806102,0.1229181852759316,-0.20843505530295625,0.1729925161640452,-0.4874540095593065,-0.11146872000422392,-1.946400808051267,0.13361205615599947,2.5955517839325797,0.9452491235166459,0.1728802376190821,-0.48752024683155326,-0.11147110072896137,-1.9463801863486305,0.1336059019074957,2.595550359778934,0.9452445589611904,-0.0006083487031653673,-0.00026331622095984285,0.000871576010156852,-2.9026730909496968e-05,3.249408739214807e-05,0.000504061916766558,-0.0031731033745353897,0.0,0.0,0.0,0.0,0.0,0.0,0.0,-0.00011227854496309586,-6.623727224674969e-05,-2.380724737446882e-06,2.062170263639196e-05,-6.154248503781323e-06,-1.4241536456793824e-06,-4.564555455499608e-06,0.0006083487031653673,0.00026331622095984285,-0.000871576010156852,2.9026730909496968e-05,-3.249408739214807e-05,-0.000504061916766558,0.0031731033745353897,0.19667929410934448,11.901697158813477,-1.2671844959259033,-21.717256546020508,-0.3674216866493225,-2.5143465995788574,0.22098104655742645,0
46,0.22500967979431152,-0.19667929410934448,-11.901697158813477,1.2671844959259033,21.717256546020508,0.3674216866493225,2.5143465995788574,-0.22098104655742645,0.0,0.0,0.0,0.0,0.0,0.0,0.0,-0.2192297622012864,0.42104185740005673,0.09917467438822633,0.4303700180941169,-0.16354358669806102,0.1229181852759316,-0.20843505530295625,0.1729925161640452,-0.4874540095593065,-0.11146872000422392,-1.946400808051267,0.13361205615599947,2.5955517839325797,0.9452491235166459,0.1728802376190821,-0.48752024683155326,-0.11147110072896137,-1.9463801863486305,0.1336059019074957,2.595550359778934,0.9452445589611904,-0.0006083487031653673,-0.00026331622095984285,0.000871576010156852,-2.9026730909496968e-05,3.249408739214807e-05,0.000504061916766558,-0.0031731033745353897,0.0,0.0,0.0,0.0,0.0,0.0,0.0,-0.00011227854496309586,-6.623727224674969e-05,-2.380724737446882e-06,2.062170263639196e-05,-6.154248503781323e-06,-1.4241536456793824e-06,-4.564555455499608e-06,0.0006083487031653673,0.00026331622095984285,-0.000871576010156852,2.9026730909496968e-05,-3.249408739214807e-05,-0.000504061916766558,0.0031731033745353897,0.19667929410934448,11.901697158813477,-1.2671844959259033,-21.717256546020508,-0.3674216866493225,-2.5143465995788574,0.22098104655742645,0
47,0.2300093173980713,-0.19667929410934448,-11.901697158813477,1.2671844959259033,21.717256546020508,0.3674216866493225,2.5143465995788574,-0.22098104655742645,0.0,0.0,0.0,0.0,0.0,0.0,0.0,-0.2192297622012864,0.42104185740005673,0.09917467438822633,0.4303700180941169,-0.16354358669806102,0.1229181852759316,-0.20843505530295625,0.1729925161640452,-0.4874540095593065,-0.11146872000422392,-1.946400808051267,0.13361205615599947,2.5955517839325797,0.9452491235166459,0.1728802376190821,-0.48752024683155326,-0.11147110072896137,-1.9463801863486305,0.1336059019074957,2.595550359778934,0.9452445589611904,-0.0006083487031653673,-0.00026331622095984285,0.000871576010156852,-2.9026730909496968e-05,3.249408739214807e-05,0.000504061916766558,-0.0031731033745353897,0.0,0.0,0.0,0.0,0.0,0.0,0.0,-0.00011227854496309586,-6.623727224674969e-05,-2.380724737446882e-06,2.062170263639196e-05,-6.154248503781323e-06,-1.4241536456793824e-06,-4.564555455499608e-06,0.0006083487031653673,0.00026331622095984285,-0.000871576010156852,2.9026730909496968e-05,-3.249408739214807e-05,-0.000504061916766558,0.0031731033745353897,0.19667929410934448,11.901697158813477,-1.2671844959259033,-21.717256546020508,-0.3674216866493225,-2.5143465995788574,0.22098104655742645,0
48,0.2350013256072998,-0.19667929410934448,-11.873926162719727,1.3147919178009033,21.693452835083008,0.3793235421180725,2.5207552909851074,-0.18710653483867645,0.0,0.0,0.0,0.0,0.0,0.0,0.0,-0.21557505956007006,0.42079881195348623,0.1048690217131385,0.4317744945117457,-0.16320688498971472,0.12309163800801125,-0.20901493129809717,0.17299251616419403,-0.48745524678334046,-0.11147206087593445,-1.946399137614066,0.13361069423647082,2.595551071855757,0.9452453727638646,0.1728802376190821,-0.48752024683155326,-0.11147110072896137,-1.9463801863486305,0.1336059019074957,2.595550359778934,0.9452445589611904,-0.00014726002326725953,-0.00044266120688918055,-0.00014114713848980808,0.000903987607165488,-0.00021365354350047822,-2.4710149300637363e-05,-0.0005740642142578706,0.0,0.0,0.0,0.0,0.0,0.0,0.0,-0.00011227854511192126,-6.500004821280436e-05,9.601469730807777e-07,1.8951265435385167e-05,-4.792328975128379e-06,-7.120768228396912e-07,-8.138026741377757e-07,0.00014726002326725953,0.00044266120688918055,0.00014114713848980808,-0.000903987607165488,0.00021365354350047822,2.4710149300637363e-05,0.0005740642142578706,0.19667929410934448,11.873926162719727,-1.3147919178009033,-21.693452835083008,-0.3793235421180725,-2.5207552909851074,0.18710653483867645,0
49,0.24000072479248047,-0.19667929410934448,-11.873926162719727,1.3147919178009033,21.693452835083008,0.3793235421180725,2.5207552909851074,-0.18710653483867645,0.0,0.0,0.0,0.0,0.0,0.0,0.0,-0.21557505956007006,0.42079881195348623,0.1048690217131385,0.4317744945117457,-0.16320688498971472,0.12309163800801125,-0.20901493129809717,0.17299251616419403,-0.48745524678334046,-0.11147206087593445,-1.946399137614066,0.13361069423647082,2.595551071855757,0.9452453727638646,0.1728802376190821,-0.48752024683155326,-0.11147110072896137,-1.9463801863486305,0.1336059019074957,2.595550359778934,0.9452445589611904,-0.00014726002326725953,-0.00044266120688918055,-0.00014114713848980808,0.000903987607165488,-0.00021365354350047822,-2.4710149300637363e-05,-0.0005740642142578706,0.0,0.0,0.0,0.0,0.0,0.0,0.0,-0.00011227854511192126,-6.500004821280436e-05,9.601469730807777e-07,1.8951265435385167e-05,-4.792328975128379e-06,-7.120768228396912e-07,-8.138026741377757e-07,0.00014726002326725953,0.00044266120688918055,0.00014114713848980808,-0.000903987607165488,0.00021365354350047822,2.4710149300637363e-05,0.0005740642142578706,0.19667929410934448,11.873926162719727,-1.3147919178009033,-21.693452835083008,-0.3793235421180725,-2.5207552909851074,0.18710653483867645,0
50,0.24499750137329102,-0.24825400114059448,-11.973108291625977,1.3147919178009033,21.693452835083008,0.3738303780555725,2.5271639823913574,-0.22098104655742645,0.0,0.0,0.0,0.0,0.0,0.0,0.0,-0.22002590664899452,0.4108465752197498,0.09860889152498986,0.4353250839529829,-0.16205862697927076,0.1236853008716699,-0.2089609579506657,0.17299613544188044,-0.48744830327302857,-0.11147206087593445,-1.946399137614066,0.13361134407910225,2.595550359778934,0.9452491365985738,0.1728802376190821,-0.48752024683155326,-0.11147110072896137,-1.9463801863486305,0.1336059019074957,2.595550359778934,0.9452445589611904,0.00046566877425271264,0.0008987059498843351,1.5370188520403614e-07,0.0008766601078537976,-0.00022121332651629574,-0.00021397656216810758,0.0008506973181117431,0.0,0.0,0.0,0.0,0.0,0.0,0.0,-0.00011589782279833316,-7.19435585246897e-05,9.601469730807777e-07,1.8951265435385167e-05,-5.442171606556689e-06,0.0,-4.5776373833739115e-06,-0.00046566877425271264,-0.0008987059498843351,-1.5370188520403614e-07,-0.0008766601078537976,0.00022121332651629574,0.00021397656216810758,-0.0008506973181117431,0.24825400114059448,11.973108291625977,-1.3147919178009033,-21.693452835083008,-0.3738303780555725,-2.5271639823913574,0.22098104655742645,0
51,0.2504706382751465,-0.24825400114059448,-11.973108291625977,1.3147919178009033,21.693452835083008,0.3738303780555725,2.5271639823913574,-0.22098104655742645,0.0,0.0,0.0,0.0,0.0,0.0,0.0,-0.22002590664899452,0.4108465752197498,0.09860889152498986,0.4353250839529829,-0.16205862697927076,0.1236853008716699,-0.2089609579506657,0.17299613544188044,-0.48744830327302857,-0.11147206087593445,-1.946399137614066,0.13361134407910225,2.595550359778934,0.9452491365985738,0.1728802376190821,-0.48752024683155326,-0.11147110072896137,-1.9463801863486305,0.1336059019074957,2.595550359778934,0.9452445589611904,0.00046566877425271264,0.0008987059498843351,1.5370188520403614e-07,0.0008766601078537976,-0.00022121332651629574,-0.00021397656216810758,0.0008506973181117431,0.0,0.0,0.0,0.0,0.0,0.0,0.0,-0.00011589782279833316,-7.19435585246897e-05,9.601469730807777e-07,1.8951265435385167e-05,-5.442171606556689e-06,0.0,-4.5776373833739115e-06,-0.00046566877425271264,-0.0008987059498843351,-1.5370188520403614e-07,-0.0008766601078537976,0.00022121332651629574,0.00021397656216810758,-0.0008506973181117431,0.24825400114059448,11.973108291625977,-1.3147919178009033,-21.693452835083008,-0.3738303780555725,-2.5271639823913574,0.22098104655742645,0
52,0.2550065517425537,-0.19667929410934448,-11.949304580688477,1.2671844959259033,21.717256546020508,0.3619285225868225,2.5335726737976074,-0.15231649577617645,0.0,0.0,0.0,0.0,0.0,0.0,0.0,-0.22567142531177684,0.4077050412895836,0.09271691694817442,0.43149629255694333,-0.16212243810752267,0.12312153159633198,-0.2097414292774876,0.17299243705926426,-0.48744997080181474,-0.11146872000422392,-1.946400808049921,0.13361266650756198,2.595549647702111,0.9452415072040425,0.1728802376190821,-0.48752024683155326,-0.11147110072896137,-1.9463801863486305,0.1336059019074957,2.595550359778934,0.9452445589611904,-0.0007211588267144677,-0.0007108983175655609,-0.0001820446745101611,4.745062677514022e-06,0.0004295089089876544,-0.00039450465493659953,-0.001984490363403291,0.0,0.0,0.0,0.0,0.0,0.0,0.0,-0.000112199440182148,-7.02760297385252e-05,-2.380724737446882e-06,2.0621701290579608e-05,-6.764600066294646e-06,7.120768228396912e-07,3.0517571478760885e-06,0.0007211588267144677,0.0007108983175655609,0.0001820446745101611,-4.745062677514022e-06,-0.0004295089089876544,0.00039450465493659953,0.001984490363403291,0.19667929410934448,11.949304580688477,-1.2671844959259033,-21.717256546020508,-0.3619285225868225,-2.5335726737976074,0.15231649577617645,0
53,0.25999879837036133,-0.19667929410934448,-11.949304580688477,1.2671844959259033,21.717256546020508,0.3619285225868225,2.5335726737976074,-0.15231649577617645,0.0,0.0,0.0,0.0,0.0,0.0,0.0,-0.22567142531177684,0.4077050412895836,0.09271691694817442,0.43149629255694333,-0.16212243810752267,0.12312153159633198,-0.2097414292774876,0.17299243705926426,-0.48744997080181474,-0.11146872000422392,-1.946400808049921,0.13361266650756198,2.595549647702111,0.9452415072040425,0.1728802376190821,-0.48752024683155326,-0.11147110072896137,-1.9463801863486305,0.1336059019074957,2.595550359778934,0.9452445589611904,-0.0007211588267144677,-0.0007108983175655609,-0.0001820446745101611,4.745062677514022e-06,0.0004295089089876544,-0.00039450465493659953,-0.001984490363403291,0.0,0.0,0.0,0.0,0.0,0.0,0.0,-0.000112199440182148,-7.02760297385252e-05,-2.380724737446882e-06,2.0621701290579608e-05,-6.764600066294646e-06,7.120768228396912e-07,3.0517571478760885e-06,0.0007211588267144677,0.0007108983175655609,0.0001820446745101611,-4.745062677514022e-06,-0.0004295089089876544,0.00039450465493659953,0.001984490363403291,0.19667929410934448,11.949304580688477,-1.2671844959259033,-21.717256546020508,-0.3619285225868225,-2.5335726737976074,0.15231649577617645,0
54,0.2650179862976074,-0.22445029020309448,-11.949304580688477,1.2909882068634033,21.741060256958008,0.3738303780555725,2.5335726737976074,-0.14590780436992645,0.0,0.0,0.0,0.0,0.0,0.0,0.0,-0.22201138624897696,0.4125171981795965,0.09765813132387546,0.4259378524376847,-0.1628030155265102,0.12301787780722112,-0.20979012093668545,0.17299446207487335,-0.4874500237477763,-0.11147027644312997,-1.9464027169043556,0.13361134407917655,2.595549647702111,0.9452407951272196,0.1728802376190821,-0.48752024683155326,-0.11147110072896137,-1.9463801863486305,0.1336059019074957,2.595550359778934,0.9452445589611904,-0.00034800384545081054,0.00017982010302819678,-0.0005854289650219306,-0.00031519837190682515,7.084811185045515e-05,-0.00036073923840861826,-0.002125174657744698,0.0,0.0,0.0,0.0,0.0,0.0,0.0,-0.00011422445579123419,-7.022308377696573e-05,-8.242858313967094e-07,2.2530555725097656e-05,-5.442171680858365e-06,7.120768228396912e-07,3.763833970826802e-06,0.00034800384545081054,-0.00017982010302819678,0.0005854289650219306,0.00031519837190682515,-7.084811185045515e-05,0.00036073923840861826,0.002125174657744698,0.22445029020309448,11.949304580688477,-1.2909882068634033,-21.741060256958008,-0.3738303780555725,-2.5335726737976074,0.14590780436992645,0
55,0.2700066566467285,-0.22445029020309448,-11.949304580688477,1.2909882068634033,21.741060256958008,0.3738303780555725,2.5335726737976074,-0.14590780436992645,0.0,0.0,0.0,0.0,0.0,0.0,0.0,-0.22201138624897696,0.4125171981795965,0.09765813132387546,0.4259378524376847,-0.1628030155265102,0.12301787780722112,-0.20979012093668545,0.17299446207487335,-0.4874500237477763,-0.11147027644312997,-1.9464027169043556,0.13361134407917655,2.595549647702111,0.9452407951272196,0.1728802376190821,-0.48752024683155326,-0.11147110072896137,-1.9463801863486305,0.1336059019074957,2.595550359778934,0.9452445589611904,-0.00034800384545081054,0.00017982010302819678,-0.0005854289650219306,-0.00031519837190682515,7.084811185045515e-05,-0.00036073923840861826,-0.002125174657744698,0.0,0.0,0.0,0.0,0.0,0.0,0.0,-0.00011422445579123419,-7.022308377696573e-05,-8.242858313967094e-07,2.2530555725097656e-05,-5.442171680858365e-06,7.120768228396912e-07,3.763833970826802e-06,0.00034800384545081054,-0.00017982010302819678,0.0005854289650219306,0.00031519837190682515,-7.084811185045515e-05,0.00036073923840861826,0.002125174657744698,0.22445029020309448,11.949304580688477,-1.2909882068634033,-21.741060256958008,-0.3738303780555725,-2.5335726737976074,0.14590780436992645,0
56,0.27513575553894043,-0.24825400114059448,-11.873926162719727,1.2671844959259033,21.693452835083008,0.3619285225868225,2.5143465995788574,-0.21457235515117645,0.0,0.0,0.0,0.0,0.0,0.0,0.0,-0.223668208418636,0.42474267998808013,0.09230444286303527,0.4166440196058057,-0.16268677532670936,0.12204101602711814,-0.20943877859852467,0.17299613544187495,-0.48745557838266346,-0.11146872000400941,-1.9463993760330935,0.13361266650756198,2.5955517839325797,0.9452484245217508,0.1728802376190821,-0.48752024683155326,-0.11147110072896137,-1.9463801863486305,0.1336059019074957,2.595550359778934,0.9452445589611904,9.137133103038945e-05,-0.00028028427373845546,0.00015312979692625023,0.00044760428999988244,0.000276185691207165,0.00032986947661336737,9.147790460789322e-05,0.0,0.0,0.0,0.0,0.0,0.0,0.0,-0.00011589782279283756,-6.466844888980416e-05,-2.3807249519558482e-06,1.9189684463016832e-05,-6.764600066294646e-06,-1.4241536456793824e-06,-3.865560560423198e-06,-9.137133103038945e-05,0.00028028427373845546,-0.00015312979692625023,-0.00044760428999988244,-0.000276185691207165,-0.00032986947661336737,-9.147790460789322e-05,0.24825400114059448,11.873926162719727,-1.2671844959259033,-21.693452835083008,-0.3619285225868225,-2.5143465995788574,0.21457235515117645,0
57,0.2800025939941406,-0.24825400114059448,-11.873926162719727,1.2671844959259033,21.693452835083008,0.3619285225868225,2.5143465995788574,-0.21457235515117645,0.0,0.0,0.0,0.0,0.0,0.0,0.0,-0.223668208418636,0.42474267998808013,0.09230444286303527,0.4166440196058057,-0.16268677532670936,0.12204101602711814,-0.20943877859852467,0.17299613544187495,-0.48745557838266346,-0.11146872000400941,-1.9463993760330935,0.13361266650756198,2.5955517839325797,0.9452484245217508,0.1728802376190821,-0.48752024683155326,-0.11147110072896137,-1.9463801863486305,0.1336059019074957,2.595550359778934,0.9452445589611904,9.137133103038945e-05,-0.00028028427373845546,0.00015312979692625023,0.00044760428999988244,0.000276185691207165,0.00032986947661336737,9.147790460789322e-05,0.0,0.0,0.0,0.0,0.0,0.0,0.0,-0.00011589782279283756,-6.466844888980416e-05,-2.3807249519558482e-06,1.9189684463016832e-05,-6.764600066294646e-06,-1.4241536456793824e-06,-3.865560560423198e-06,-9.137133103038945e-05,0.00028028427373845546,-0.00015312979692625023,-0.00044760428999988244,-0.000276185691207165,-0.00032986947661336737,-9.147790460789322e-05,0.24825400114059448,11.873926162719727,-1.2671844959259033,-21.693452835083008,-0.3619285225868225,-2.5143465995788574,0.21457235515117645,0
58,0.28501009941101074,-0.22445029020309448,-11.826318740844727,1.2909882068634033,21.717256546020508,0.3738303780555725,2.5207552909851074,-0.20724813640117645,0.0,0.0,0.0,0.0,0.0,0.0,0.0,-0.22774355182090925,0.4285016681986726,0.08803076584427232,0.41883514953728274,-0.16279569672914077,0.12219551631226025,-0.21033747531753652,0.1729944650060252,-0.48745937853348287,-0.11147039044007918,-1.9464008080539588,0.13361134407917655,2.595551071855757,0.9452476063590168,0.1728802376190821,-0.48752024683155326,-0.11147110072896137,-1.9463801863486305,0.1336059019074957,2.595550359778934,0.9452445589611904,-0.0002666232806783329,-0.00014658833733300475,-0.0008950244858521851,-0.00013707742359713948,-4.6788940525307145e-05,9.316085601823635e-05,0.00010706715858731685,0.0,0.0,0.0,0.0,0.0,0.0,0.0,-0.00011422738694308321,-6.08682980703934e-05,-7.102888821830522e-07,2.0621705328238704e-05,-5.442171680858365e-06,-7.120768228396912e-07,-3.04739782641672e-06,0.0002666232806783329,0.00014658833733300475,0.0008950244858521851,0.00013707742359713948,4.6788940525307145e-05,-9.316085601823635e-05,-0.00010706715858731685,0.22445029020309448,11.826318740844727,-1.2909882068634033,-21.717256546020508,-0.3738303780555725,-2.5207552909851074,0.20724813640117645,0
59,0.2900106906890869,-0.22445029020309448,-11.826318740844727,1.2909882068634033,21.717256546020508,0.3738303780555725,2.5207552909851074,-0.20724813640117645,0.0,0.0,0.0,0.0,0.0,0.0,0.0,-0.22774355182090925,0.4285016681986726,0.08803076584427232,0.41883514953728274,-0.16279569672914077,0.12219551631226025,-0.21033747531753652,0.1729944650060252,-0.48745937853348287,-0.11147039044007918,-1.9464008080539588,0.13361134407917655,2.595551071855757,0.9452476063590168,0.1728802376190821,-0.48752024683155326,-0.11147110072896137,-1.9463801863486305,0.1336059019074957,2.595550359778934,0.9452445589611904,-0.0002666232806783329,-0.00014658833733300475,-0.0008950244858521851,-0.00013707742359713948,-4.6788940525307145e-05,9.316085601823635e-05,0.00010706715858731685,0.0,0.0,0.0,0.0,0.0,0.0,0.0,-0.00011422738694308321,-6.08682980703934e-05,-7.102888821830522e-07,2.0621705328238704e-05,-5.442171680858365e-06,-7.120768228396912e-07,-3.04739782641672e-06,0.0002666232806783329,0.00014658833733300475,0.0008950244858521851,0.00013707742359713948,4.6788940525307145e-05,-9.316085601823635e-05,-0.00010706715858731685,0.22445029020309448,11.826318740844727,-1.2909882068634033,-21.717256546020508,-0.3738303780555725,-2.5207552909851074,0.20724813640117645,0
60,0.2950131893157959,-0.17287558317184448,-11.925500869750977,1.3147919178009033,21.693452835083008,0.3674216866493225,2.5271639823913574,-0.17978231608867645,0.0,0.0,0.0,0.0,0.0,0.0,0.0,-0.22035431452552626,0.4053057933809729,0.10091611880665444,0.43843654802432447,-0.1632772251189665,0.1248113966585511,-0.21038672231298872,0.172990766623409,-0.48745410912518616,-0.11147205990160154,-1.946399137614066,0.13361205615599947,2.595550359778934,0.9452445575082965,0.1728802376190821,-0.48752024683155326,-0.11147110072896137,-1.9463801863486305,0.1336059019074957,2.595550359778934,0.9452445589611904,-0.0006106263096723427,0.0011305660384214329,0.00037571802002008784,0.0006453937898010193,3.7931374123264235e-05,-0.0004393809099382413,-0.0008254143890864964,0.0,0.0,0.0,0.0,0.0,0.0,0.0,-0.00011052900432689805,-6.613770636709759e-05,9.591726401747547e-07,1.8951265435385167e-05,-6.154248503781323e-06,0.0,1.4528939162872234e-09,0.0006106263096723427,-0.0011305660384214329,-0.00037571802002008784,-0.0006453937898010193,-3.7931374123264235e-05,0.0004393809099382413,0.0008254143890864964,0.17287558317184448,11.925500869750977,-1.3147919178009033,-21.693452835083008,-0.3674216866493225,-2.5271639823913574,0.17978231608867645,0
61,0.29999446868896484,-0.17287558317184448,-11.925500869750977,1.3147919178009033,21.693452835083008,0.3674216866493225,2.5271639823913574,-0.17978231608867645,0.0,0.0,0.0,0.0,0.0,0.0,0.0,-0.22035431452552626,0.4053057933809729,0.10091611880665444,0.43843654802432447,-0.1632772251189665,0.1248113966585511,-0.21038672231298872,0.172990766623409,-0.48745410912518616,-0.11147205990160154,-1.946399137614066,0.13361205615599947,2.595550359778934,0.9452445575082965,0.1728802376190821,-0.48752024683155326,-0.11147110072896137,-1.9463801863486305,0.1336059019074957,2.595550359778934,0.9452445589611904,-0.0006106263096723427,0.0011305660384214329,0.00037571802002008784,0.0006453937898010193,3.7931374123264235e-05,-0.0004393809099382413,-0.0008254143890864964,0.0,0.0,0.0,0.0,0.0,0.0,0.0,-0.00011052900432689805,-6.613770636709759e-05,9.591726401747547e-07,1.8951265435385167e-05,-6.154248503781323e-06,0.0,1.4528939162872234e-09,0.0006106263096723427,-0.0011305660384214329,-0.00037571802002008784,-0.0006453937898010193,-3.7931374123264235e-05,0.0004393809099382413,0.0008254143890864964,0.17287558317184448,11.925500869750977,-1.3147919178009033,-21.693452835083008,-0.3674216866493225,-2.5271639823913574,0.17978231608867645,0
62,0.3050086498260498,-0.19667929410934448,-11.925500869750977,1.2909882068634033,21.741060256958008,0.3674216866493225,2.5271639823913574,-0.22098104655742645,0.0,0.0,0.0,0.0,0.0,0.0,0.0,-0.22500943112552602,0.40911485374968243,0.09112849067116592,0.4397383078017011,-0.1630677228758676,0.12453455214864337,-0.20968571497244828,0.1729925161637475,-0.4874519428633717,-0.11147038751707498,-1.9464046242893271,0.13361205615599947,2.595550359778934,0.9452491365985656,0.1728802376190821,-0.48752024683155326,-0.11147110072896137,-1.9463801863486305,0.1336059019074957,2.595550359778934,0.9452445589611904,-0.0003535758679147365,3.870974014320086e-05,0.0005560730489167104,-0.00010939092751730803,0.00010995223101868473,-0.00024237431732286238,0.001201233570061968,0.0,0.0,0.0,0.0,0.0,0.0,0.0,-0.00011227854466538956,-6.830396818158224e-05,-7.132118863828474e-07,2.4437940696619975e-05,-6.154248503781323e-06,0.0,-4.577637375158261e-06,0.0003535758679147365,-3.870974014320086e-05,-0.0005560730489167104,0.00010939092751730803,-0.00010995223101868473,0.00024237431732286238,-0.001201233570061968,0.19667929410934448,11.925500869750977,-1.2909882068634033,-21.741060256958008,-0.3674216866493225,-2.5271639823913574,0.22098104655742645,0
63,0.3100101947784424,-0.19667929410934448,-11.925500869750977,1.2909882068634033,21.741060256958008,0.3674216866493225,2.5271639823913574,-0.22098104655742645,0.0,0.0,0.0,0.0,0.0,0.0,0.0,-0.22500943112552602,0.40911485374968243,0.09112849067116592,0.4397383078017011,-0.1630677228758676,0.12453455214864337,-0.20968571497244828,0.1729925161637475,-0.4874519428633717,-0.11147038751707498,-1.9464046242893271,0.13361205615599947,2.595550359778934,0.9452491365985656,0.1728802376190821,-0.48752024683155326,-0.11147110072896137,-1.9463801863486305,0.1336059019074957,2.595550359778934,0.9452445589611904,-0.0003535758679147365,3.870974014320086e-05,0.0005560730489167104,-0.00010939092751730803,0.00010995223101868473,-0.00024237431732286238,0.001201233570061968,0.0,0.0,0.0,0.0,0.0,0.0,0.0,-0.00011227854466538956,-6.830396818158224e-05,-7.132118863828474e-07,2.4437940696619975e-05,-6.154248503781323e-06,0.0,-4.577637375158261e-06,0.0003535758679147365,-3.870974014320086e-05,-0.0005560730489167104,0.00010939092751730803,-0.00010995223101868473,0.00024237431732286238,-0.001201233570061968,0.19667929410934448,11.925500869750977,-1.2909882068634033,-21.741060256958008,-0.3674216866493225,-2.5271639823913574,0.22098104655742645,0
64,0.3150026798248291,-0.24825400114059448,-11.973108291625977,1.3147919178009033,21.768831253051758,0.3738303780555725,2.5207552909851074,-0.16604940593242645,0.0,0.0,0.0,0.0,0.0,0.0,0.0,-0.22530092436014496,0.4231642528946744,0.09061986486607275,0.43430826000400996,-0.1631793404992098,0.12304305866055024,-0.20879768717124247,0.17299613544188044,-0.48744838863459516,-0.11147205990158505,-1.9464044273397207,0.13361134407917655,2.595551071855757,0.9452430330829488,0.1728802376190821,-0.48752024683155326,-0.11147110072896137,-1.9463801863486305,0.1336059019074957,2.595550359778934,0.9452445589611904,0.00028291026944485845,0.0012192404177120226,-0.0005187938215048586,-0.0008235073871353431,-0.00028784594175693297,5.94227766593438e-05,-0.0014069964262124794,0.0,0.0,0.0,0.0,0.0,0.0,0.0,-0.00011589782279833316,-7.18581969580967e-05,9.591726236879428e-07,2.42409910902186e-05,-5.442171680858365e-06,-7.120768228396912e-07,1.525878241648293e-06,-0.00028291026944485845,-0.0012192404177120226,0.0005187938215048586,0.0008235073871353431,0.00028784594175693297,-5.94227766593438e-05,0.0014069964262124794,0.24825400114059448,11.973108291625977,-1.3147919178009033,-21.768831253051758,-0.3738303780555725,-2.5207552909851074,0.16604940593242645,0
65,0.3200247287750244,-0.24825400114059448,-11.973108291625977,1.3147919178009033,21.768831253051758,0.3738303780555725,2.5207552909851074,-0.16604940593242645,0.0,0.0,0.0,0.0,0.0,0.0,0.0,-0.22530092436014496,0.4231642528946744,0.09061986486607275,0.43430826000400996,-0.1631793404992098,0.12304305866055024,-0.20879768717124247,0.17299613544188044,-0.48744838863459516,-0.11147205990158505,-1.9464044273397207,0.13361134407917655,2.595551071855757,0.9452430330829488,0.1728802376190821,-0.48752024683155326,-0.11147110072896137,-1.9463801863486305,0.1336059019074957,2.595550359778934,0.9452445589611904,0.00028291026944485845,0.0012192404177120226,-0.0005187938215048586,-0.0008235073871353431,-0.00028784594175693297,5.94227766593438e-05,-0.0014069964262124794,0.0,0.0,0.0,0.0,0.0,0.0,0.0,-0.00011589782279833316,-7.18581969580967e-05,9.591726236879428e-07,2.42409910902186e-05,-5.442171680858365e-06,-7.120768228396912e-07,1.525878241648293e-06,-0.00028291026944485845,-0.0012192404177120226,0.0005187938215048586,0.0008235073871353431,0.00028784594175693297,-5.94227766593438e-05,0.0014069964262124794,0.24825400114059448,11.973108291625977,-1.3147919178009033,-21.768831253051758,-0.3738303780555725,-2.5207552909851074,0.16604940593242645,0
66,0.3249998092651367,-0.24825400114059448,-11.973108291625977,1.3147919178009033,21.768831253051758,0.3738303780555725,2.5207552909851074,-0.16604940593242645,0.0,0.0,0.0,0.0,0.0,0.0,0.0,-0.22530092436014496,0.4231642528946744,0.09061986486607275,0.43430826000400996,-0.1631793404992098,0.12304305866055024,-0.20879768717124247,0.17299613544188044,-0.48744838863459516,-0.11147205990158505,-1.9464044273397207,0.13361134407917655,2.595551071855757,0.9452430330829488,0.1728802376190821,-0.48752024683155326,-0.11147110072896137,-1.9463801863486305,0.1336059019074957,2.595550359778934,0.9452445589611904,0.00028291026944485845,0.0012192404177120226,-0.0005187938215048586,-0.0008235073871353431,-0.00028784594175693297,5.94227766593438e-05,-0.0014069964262124794,0.0,0.0,0.0,0.0,0.0,0.0,0.0,-0.00011589782279833316,-7.18581969580967e-05,9.591726236879428e-07,2.42409910902186e-05,-5.442171680858365e-06,-7.120768228396912e-07,1.525878241648293e-06,-0.00028291026944485845,-0.0012192404177120226,0.0005187938215048586,0.0008235073871353431,0.00028784594175693297,-5.94227766593438e-05,0.0014069964262124794,0.24825400114059448,11.973108291625977,-1.3147919178009033,-21.768831253051758,-0.3738303780555725,-2.5207552909851074,0.16604940593242645,0
67,0.33042287826538086,-0.24825400114059448,-11.973108291625977,1.3147919178009033,21.768831253051758,0.3738303780555725,2.5207552909851074,-0.16604940593242645,0.0,0.0,0.0,0.0,0.0,0.0,0.0,-0.22530092436014496,0.4231642528946744,0.09061986486607275,0.43430826000400996,-0.1631793404992098,0.12304305866055024,-0.20879768717124247,0.17299613544188044,-0.48744838863459516,-0.11147205990158505,-1.9464044273397207,0.13361134407917655,2.595551071855757,0.9452430330829488,0.1728802376190821,-0.48752024683155326,-0.11147110072896137,-1.9463801863486305,0.1336059019074957,2.595550359778934,0.9452445589611904,0.00028291026944485845,0.0012192404177120226,-0.0005187938215048586,-0.0008235073871353431,-0.00028784594175693297,5.94227766593438e-05,-0.0014069964262124794,0.0,0.0,0.0,0.0,0.0,0.0,0.0,-0.00011589782279833316,-7.18581969580967e-05,9.591726236879428e-07,2.42409910902186e-05,-5.442171680858365e-06,-7.120768228396912e-07,1.525878241648293e-06,-0.00028291026944485845,-0.0012192404177120226,0.0005187938215048586,0.0008235073871353431,0.00028784594175693297,-5.94227766593438e-05,0.0014069964262124794,0.24825400114059448,11.973108291625977,-1.3147919178009033,-21.768831253051758,-0.3738303780555725,-2.5207552909851074,0.16604940593242645,0
68,0.33499979972839355,-0.22445029020309448,-11.901697158813477,1.3147919178009033,21.768831253051758,0.3674216866493225,2.5207552909851074,-0.17337362468242645,0.0,0.0,0.0,0.0,0.0,0.0,0.0,-0.21900864190370015,0.42293086023510595,0.10099636148325482,0.433425386646376,-0.16342563544585056,0.12274454588683369,-0.20810782935904665,0.17299438575641332,-0.48745339209178523,-0.11147206087592895,-1.9464044273276075,0.13361205615599947,2.595551071855757,0.9452438468850322,0.1728802376190821,-0.48752024683155326,-0.11147110072896137,-1.9463801863486305,0.1336059019074957,2.595550359778934,0.9452445589611904,0.0003564381892609993,-0.000666999198486728,-9.896008188427565e-05,-0.0007995641584920458,0.0002604078094148182,0.00014035127356849353,-0.0014844907416736576,0.0,0.0,0.0,0.0,0.0,0.0,0.0,-0.00011414813733121032,-6.685473976802969e-05,9.601469675851737e-07,2.4240978977019267e-05,-6.154248503781323e-06,-7.120768228396912e-07,7.120761582601887e-07,-0.0003564381892609993,0.000666999198486728,9.896008188427565e-05,0.0007995641584920458,-0.0002604078094148182,-0.00014035127356849353,0.0014844907416736576,0.22445029020309448,11.901697158813477,-1.3147919178009033,-21.768831253051758,-0.3674216866493225,-2.5207552909851074,0.17337362468242645,0
69,0.3400075435638428,-0.22445029020309448,-11.901697158813477,1.3147919178009033,21.768831253051758,0.3674216866493225,2.5207552909851074,-0.17337362468242645,0.0,0.0,0.0,0.0,0.0,0.0,0.0,-0.21900864190370015,0.42293086023510595,0.10099636148325482,0.433425386646376,-0.16342563544585056,0.12274454588683369,-0.20810782935904665,0.17299438575641332,-0.48745339209178523,-0.11147206087592895,-1.9464044273276075,0.13361205615599947,2.595551071855757,0.9452438468850322,0.1728802376190821,-0.48752024683155326,-0.11147110072896137,-1.9463801863486305,0.1336059019074957,2.595550359778934,0.9452445589611904,0.0003564381892609993,-0.000666999198486728,-9.896008188427565e-05,-0.0007995641584920458,0.0002604078094148182,0.00014035127356849353,-0.0014844907416736576,0.0,0.0,0.0,0.0,0.0,0.0,0.0,-0.00011414813733121032,-6.685473976802969e-05,9.601469675851737e-07,2.4240978977019267e-05,-6.154248503781323e-06,-7.120768228396912e-07,7.120761582601887e-07,-0.0003564381892609993,0.000666999198486728,9.896008188427565e-05,0.0007995641584920458,-0.0002604078094148182,-0.00014035127356849353,0.0014844907416736576,0.22445029020309448,11.901697158813477,-1.3147919178009033,-21.768831253051758,-0.3674216866493225,-2.5207552909851074,0.17337362468242645,0
70,0.3449985980987549,-0.22445029020309448,-11.901697158813477,1.3147919178009033,21.669649124145508,0.3619285225868225,2.5271639823913574,-0.19351522624492645,0.0,0.0,0.0,0.0,0.0,0.0,0.0,-0.22544830983534175,0.4260183123325103,0.09189884625471559,0.4289877345160682,-0.16248619617364526,0.12244645658603916,-0.20881545800397938,0.17299446500557783,-0.4874540269298108,-0.11147135058725087,-1.9463974671782107,0.13361266650756198,2.595550359778934,0.9452460848407613,0.1728802376190821,-0.48752024683155326,-0.11147110072896137,-1.9463801863486305,0.1336059019074957,2.595550359778934,0.9452445589611904,-0.00027590865987113365,-0.00034561360223995223,-0.0009290697024779988,0.0012234452910336207,0.00020359678125390617,7.484133932663471e-05,-0.00031003142646531987,0.0,0.0,0.0,0.0,0.0,0.0,0.0,-0.00011422738649571884,-6.621990174243697e-05,2.498582895027468e-07,1.7280829580190726e-05,-6.764600066294646e-06,0.0,-1.5258795709183204e-06,0.00027590865987113365,0.00034561360223995223,0.0009290697024779988,-0.0012234452910336207,-0.00020359678125390617,-7.484133932663471e-05,0.00031003142646531987,0.22445029020309448,11.901697158813477,-1.3147919178009033,-21.669649124145508,-0.3619285225868225,-2.5271639823913574,0.19351522624492645,0
71,0.3500065803527832,-0.22445029020309448,-11.901697158813477,1.3147919178009033,21.669649124145508,0.3619285225868225,2.5271639823913574,-0.19351522624492645,0.0,0.0,0.0,0.0,0.0,0.0,0.0,-0.22544830983534175,0.4260183123325103,0.09189884625471559,0.4289877345160682,-0.16248619617364526,0.12244645658603916,-0.20881545800397938,0.17299446500557783,-0.4874540269298108,-0.11147135058725087,-1.9463974671782107,0.13361266650756198,2.595550359778934,0.9452460848407613,0.1728802376190821,-0.48752024683155326,-0.11147110072896137,-1.9463801863486305,0.1336059019074957,2.595550359778934,0.9452445589611904,-0.00027590865987113365,-0.00034561360223995223,-0.0009290697024779988,0.0012234452910336207,0.00020359678125390617,7.484133932663471e-05,-0.00031003142646531987,0.0,0.0,0.0,0.0,0.0,0.0,0.0,-0.00011422738649571884,-6.621990174243697e-05,2.498582895027468e-07,1.7280829580190726e-05,-6.764600066294646e-06,0.0,-1.5258795709183204e-06,0.00027590865987113365,0.00034561360223995223,0.0009290697024779988,-0.0012234452910336207,-0.00020359678125390617,-7.484133932663471e-05,0.00031003142646531987,0.22445029020309448,11.901697158813477,-1.3147919178009033,-21.669649124145508,-0.3619285225868225,-2.5271639823913574,0.19351522624492645,0
72,0.35500288009643555,-0.24825400114059448,-11.925500869750977,1.2671844959259033,21.717256546020508,0.3619285225868225,2.5335726737976074,-0.23471395671367645,0.0,0.0,0.0,0.0,0.0,0.0,0.0,-0.22294055807826313,0.41735647314524327,0.09693383377422894,0.4297720943225605,-0.16299376720932246,0.12338527269971908,-0.20923710806322246,0.17299610028413387,-0.4874537869726751,-0.11146872000021432,-1.946400808049921,0.13361266650756198,2.595549647702111,0.94525066247748,0.1728802376190821,-0.48752024683155326,-0.11147110072896137,-1.9463801863486305,0.1336059019074957,2.595550359778934,0.9452445589611904,0.0004053596331279416,0.0003901499683247791,0.00022984733391200111,-0.0005219412852124446,0.00019983448669624006,-0.00032147406033828713,0.0012139473065290003,0.0,0.0,0.0,0.0,0.0,0.0,0.0,-0.00011586266505175802,-6.645985887815398e-05,-2.380728747045091e-06,2.0621701290579608e-05,-6.764600066294646e-06,7.120768228396912e-07,-6.103516289601707e-06,-0.0004053596331279416,-0.0003901499683247791,-0.00022984733391200111,0.0005219412852124446,-0.00019983448669624006,0.00032147406033828713,-0.0012139473065290003,0.24825400114059448,11.925500869750977,-1.2671844959259033,-21.717256546020508,-0.3619285225868225,-2.5335726737976074,0.23471395671367645,0
73,0.36000847816467285,-0.24825400114059448,-11.925500869750977,1.2671844959259033,21.717256546020508,0.3619285225868225,2.5335726737976074,-0.23471395671367645,0.0,0.0,0.0,0.0,0.0,0.0,0.0,-0.22294055807826313,0.41735647314524327,0.09693383377422894,0.4297720943225605,-0.16299376720932246,0.12338527269971908,-0.20923710806322246,0.17299610028413387,-0.4874537869726751,-0.11146872000021432,-1.946400808049921,0.13361266650756198,2.595549647702111,0.94525066247748,0.1728802376190821,-0.48752024683155326,-0.11147110072896137,-1.9463801863486305,0.1336059019074957,2.595550359778934,0.9452445589611904,0.0004053596331279416,0.0003901499683247791,0.00022984733391200111,-0.0005219412852124446,0.00019983448669624006,-0.00032147406033828713,0.0012139473065290003,0.0,0.0,0.0,0.0,0.0,0.0,0.0,-0.00011586266505175802,-6.645985887815398e-05,-2.380728747045091e-06,2.0621701290579608e-05,-6.764600066294646e-06,7.120768228396912e-07,-6.103516289601707e-06,-0.0004053596331279416,-0.0003901499683247791,-0.00022984733391200111,0.0005219412852124446,-0.00019983448669624006,0.00032147406033828713,-0.0012139473065290003,0.24825400114059448,11.925500869750977,-1.2671844959259033,-21.717256546020508,-0.3619285225868225,-2.5335726737976074,0.23471395671367645,0
74,0.3650326728820801,-0.22445029020309448,-12.000879287719727,1.2671844959259033,21.717256546020508,0.3738303780555725,2.5335726737976074,-0.16604940593242645,0.0,0.0,0.0,0.0,0.0,0.0,0.0,-0.22767542178155498,0.3936918907510688,0.0921827833438275,0.4399224700737304,-0.16325813336227882,0.12571316030963098,-0.21024192267266206,0.17299446402922267,-0.48744640742534234,-0.11146658913817317,-1.9464008169165776,0.13361134407917655,2.595549647702111,0.9452430330829488,0.1728802376190821,-0.48752024683155326,-0.11147110072896137,-1.9463801863486305,0.1336059019074957,2.595550359778934,0.9452445589611904,-0.0006777066402322995,0.0012140104959631585,0.00010339431986783906,0.0004476691685771937,-0.00024532873206789573,-0.00035137994597501124,-0.0013342457202568082,0.0,0.0,0.0,0.0,0.0,0.0,0.0,-0.00011422641014055546,-7.383940621091822e-05,-4.5115907881948525e-06,2.063056794709972e-05,-5.442171680858365e-06,7.120768228396912e-07,1.525878241648293e-06,0.0006777066402322995,-0.0012140104959631585,-0.00010339431986783906,-0.0004476691685771937,0.00024532873206789573,0.00035137994597501124,0.0013342457202568082,0.22445029020309448,12.000879287719727,-1.2671844959259033,-21.717256546020508,-0.3738303780555725,-2.5335726737976074,0.16604940593242645,0
75,0.3700125217437744,-0.22445029020309448,-12.000879287719727,1.2671844959259033,21.717256546020508,0.3738303780555725,2.5335726737976074,-0.16604940593242645,0.0,0.0,0.0,0.0,0.0,0.0,0.0,-0.22767542178155498,0.3936918907510688,0.0921827833438275,0.4399224700737304,-0.16325813336227882,0.12571316030963098,-0.21024192267266206,0.17299446402922267,-0.48744640742534234,-0.11146658913817317,-1.9464008169165776,0.13361134407917655,2.595549647702111,0.9452430330829488,0.1728802376190821,-0.48752024683155326,-0.11147110072896137,-1.9463801863486305,0.1336059019074957,2.595550359778934,0.9452445589611904,-0.0006777066402322995,0.0012140104959631585,0.00010339431986783906,0.0004476691685771937,-0.00024532873206789573,-0.00035137994597501124,-0.0013342457202568082,0.0,0.0,0.0,0.0,0.0,0.0,0.0,-0.00011422641014055546,-7.383940621091822e-05,-4.5115907881948525e-06,2.063056794709972e-05,-5.442171680858365e-06,7.120768228396912e-07,1.525878241648293e-06,0.0006777066402322995,-0.0012140104959631585,-0.00010339431986783906,-0.0004476691685771937,0.00024532873206789573,0.00035137994597501124,0.0013342457202568082,0.22445029020309448,12.000879287719727,-1.2671844959259033,-21.717256546020508,-0.3738303780555725,-2.5335726737976074,0.16604940593242645,0
76,0.3750443458557129,-0.19667929410934448,-11.901697158813477,1.2671844959259033,21.768831253051758,0.3674216866493225,2.5335726737976074,-0.20083944499492645,0.0,0.0,0.0,0.0,0.0,0.0,0.0,-0.22471895325094648,0.41746906148027685,0.0981588373547402,0.4223542420675829,-0.16457807872842758,0.12307742706260637,-0.20963547578527084,0.1729925161280217,-0.48745400054742527,-0.11146872000021432,-1.9464066525676957,0.13361205615599947,2.595549647702111,0.9452468986428446,0.1728802376190821,-0.48752024683155326,-0.11147110072896137,-1.9463801863486305,0.1336059019074957,2.595550359778934,0.9452445589611904,-0.0010234897938697816,-0.0006515460177963918,0.0004782456917643573,-0.0011370056575773547,0.00410450586747205,-0.00023058736846761355,0.0004158167568639146,0.0,0.0,0.0,0.0,0.0,0.0,0.0,-0.00011227850893957836,-6.624628412799094e-05,-2.380728747045091e-06,2.646621906521318e-05,-6.154248503781323e-06,7.120768228396912e-07,-2.3396816541954024e-06,0.0010234897938697816,0.0006515460177963918,-0.0004782456917643573,0.0011370056575773547,-0.00410450586747205,0.00023058736846761355,-0.0004158167568639146,0.19667929410934448,11.901697158813477,-1.2671844959259033,-21.768831253051758,-0.3674216866493225,-2.5335726737976074,0.20083944499492645,0
77,0.38006162643432617,-0.19667929410934448,-11.901697158813477,1.2671844959259033,21.768831253051758,0.3674216866493225,2.5335726737976074,-0.20083944499492645,0.0,0.0,0.0,0.0,0.0,0.0,0.0,-0.22471895325094648,0.41746906148027685,0.0981588373547402,0.4223542420675829,-0.16457807872842758,0.12307742706260637,-0.20963547578527084,0.1729925161280217,-0.48745400054742527,-0.11146872000021432,-1.9464066525676957,0.13361205615599947,2.595549647702111,0.9452468986428446,0.1728802376190821,-0.48752024683155326,-0.11147110072896137,-1.9463801863486305,0.1336059019074957,2.595550359778934,0.9452445589611904,-0.0010234897938697816,-0.0006515460177963918,0.0004782456917643573,-0.0011370056575773547,0.00410450586747205,-0.00023058736846761355,0.0004158167568639146,0.0,0.0,0.0,0.0,0.0,0.0,0.0,-0.00011227850893957836,-6.624628412799094e-05,-2.380728747045091e-06,2.646621906521318e-05,-6.154248503781323e-06,7.120768228396912e-07,-2.3396816541954024e-06,0.0010234897938697816,0.0006515460177963918,-0.0004782456917643573,0.0011370056575773547,-0.00410450586747205,0.00023058736846761355,-0.0004158167568639146,0.19667929410934448,11.901697158813477,-1.2671844959259033,-21.768831253051758,-0.3674216866493225,-2.5335726737976074,0.20083944499492645,0
78,0.3850698471069336,-0.19667929410934448,-11.901697158813477,1.2909882068634033,21.717256546020508,0.3619285225868225,2.5207552909851074,-0.18710653483867645,0.0,0.0,0.0,0.0,0.0,0.0,0.0,-0.2284360639881741,0.4173942955959889,0.09417173047479178,0.4218665334563733,-0.16396667493614628,0.12322020880576443,-0.2102873826634884,0.1729925150790782,-0.4874533116411695,-0.11147039044007916,-1.9464008080624826,0.13361266650756198,2.595551071855757,0.9452453727639384,0.1728802376190821,-0.48752024683155326,-0.11147110072896137,-1.9463801863486305,0.1336059019074957,2.595550359778934,0.9452445589611904,-0.0007284002538522924,-4.8070641818508475e-05,-0.0002028004548403051,4.368446827211792e-05,0.0005194856468113615,0.00015209643306684796,-0.0006317722291001317,0.0,0.0,0.0,0.0,0.0,0.0,0.0,-0.00011227745999609073,-6.69351903837545e-05,-7.102888822108078e-07,2.0621713852086998e-05,-6.764600066294646e-06,-7.120768228396912e-07,-8.138027479676069e-07,0.0007284002538522924,4.8070641818508475e-05,0.0002028004548403051,-4.368446827211792e-05,-0.0005194856468113615,-0.00015209643306684796,0.0006317722291001317,0.19667929410934448,11.901697158813477,-1.2909882068634033,-21.717256546020508,-0.3619285225868225,-2.5207552909851074,0.18710653483867645,0
79,0.3900625705718994,-0.19667929410934448,-11.901697158813477,1.2909882068634033,21.717256546020508,0.3619285225868225,2.5207552909851074,-0.18710653483867645,0.0,0.0,0.0,0.0,0.0,0.0,0.0,-0.2284360639881741,0.4173942955959889,0.09417173047479178,0.4218665334563733,-0.16396667493614628,0.12322020880576443,-0.2102873826634884,0.1729925150790782,-0.4874533116411695,-0.11147039044007916,-1.9464008080624826,0.13361266650756198,2.595551071855757,0.9452453727639384,0.1728802376190821,-0.48752024683155326,-0.11147110072896137,-1.9463801863486305,0.1336059019074957,2.595550359778934,0.9452445589611904,-0.0007284002538522924,-4.8070641818508475e-05,-0.0002028004548403051,4.368446827211792e-05,0.0005194856468113615,0.00015209643306684796,-0.0006317722291001317,0.0,0.0,0.0,0.0,0.0,0.0,0.0,-0.00011227745999609073,-6.69351903837545e-05,-7.102888822108078e-07,2.0621713852086998e-05,-6.764600066294646e-06,-7.120768228396912e-07,-8.138027479676069e-07,0.0007284002538522924,4.8070641818508475e-05,0.0002028004548403051,-4.368446827211792e-05,-0.0005194856468113615,-0.00015209643306684796,0.0006317722291001317,0.19667929410934448,11.901697158813477,-1.2909882068634033,-21.717256546020508,-0.3619285225868225,-2.5207552909851074,0.18710653483867645,0
