rezayati/contactInterpretation/dataset/franka_main/labeled_data/link3/e2_8.csv
index,time,tau_J0,tau_J1,tau_J2,tau_J3,tau_J4,tau_J5,tau_J6,tau_J_d0,tau_J_d1,tau_J_d2,tau_J_d3,tau_J_d4,tau_J_d5,tau_J_d6,tau_ext0,tau_ext1,tau_ext2,tau_ext3,tau_ext4,tau_ext5,tau_ext6,q0,q1,q2,q3,q4,q5,q6,q_d0,q_d1,q_d2,q_d3,q_d4,q_d5,q_d6,dq0,dq1,dq2,dq3,dq4,dq5,dq6,dq_d0,dq_d1,dq_d2,dq_d3,dq_d4,dq_d5,dq_d6,e0,e1,e2,e3,e4,e5,e6,de0,de1,de2,de3,de4,de5,de6,etau_J0,etau_J1,etau_J2,etau_J3,etau_J4,etau_J5,etau_J6,label
1,0.0,-0.2998287081718445,-22.696680068969727,-0.1491362750530243,14.230989456176758,0.11198955774307251,2.1517977714538574,-0.25485557317733765,0.0,0.0,0.0,0.0,0.0,0.0,0.0,-0.3235497560028769,0.08770632984205178,-0.23444886162325645,0.32155320635312334,-0.12133094162528958,-0.0373823639076775,-0.24874633399097643,1.6757864357755894,0.05232277673692034,0.029977424631011575,-2.7524130444150265,0.034252855110149555,2.7663640046874005,0.7691615274680984,1.6754973547542302,0.052104326824870026,0.029969505109285054,-2.752394845125968,0.0342448039870148,2.7663679543071322,0.7691630533470046,-0.0004595042817487955,-0.0005674812444511899,-0.00019912771982811878,-0.0008271043355839825,0.00013181238532803524,-5.0524496667999296e-05,0.0011475434148043,0.0,0.0,0.0,0.0,0.0,0.0,0.0,-0.00028908102135916103,-0.00021844991205031278,-7.919521726521689e-06,1.819928905844037e-05,-8.051123134754368e-06,3.949619731713483e-06,1.5258789062277955e-06,0.0004595042817487955,0.0005674812444511899,0.00019912771982811878,0.0008271043355839825,-0.00013181238532803524,5.0524496667999296e-05,-0.0011475434148043,0.2998287081718445,22.696680068969727,0.1491362750530243,-14.230989456176758,-0.11198955774307251,-2.1517977714538574,0.25485557317733765,0
2,0.0049626827239990234,-0.2998287081718445,-22.696680068969727,-0.1491362750530243,14.230989456176758,0.11198955774307251,2.1517977714538574,-0.25485557317733765,0.0,0.0,0.0,0.0,0.0,0.0,0.0,-0.3235497560028769,0.08770632984205178,-0.23444886162325645,0.32155320635312334,-0.12133094162528958,-0.0373823639076775,-0.24874633399097643,1.6757864357755894,0.05232277673692034,0.029977424631011575,-2.7524130444150265,0.034252855110149555,2.7663640046874005,0.7691615274680984,1.6754973547542302,0.052104326824870026,0.029969505109285054,-2.752394845125968,0.0342448039870148,2.7663679543071322,0.7691630533470046,-0.0004595042817487955,-0.0005674812444511899,-0.00019912771982811878,-0.0008271043355839825,0.00013181238532803524,-5.0524496667999296e-05,0.0011475434148043,0.0,0.0,0.0,0.0,0.0,0.0,0.0,-0.00028908102135916103,-0.00021844991205031278,-7.919521726521689e-06,1.819928905844037e-05,-8.051123134754368e-06,3.949619731713483e-06,1.5258789062277955e-06,0.0004595042817487955,0.0005674812444511899,0.00019912771982811878,0.0008271043355839825,-0.00013181238532803524,5.0524496667999296e-05,-0.0011475434148043,0.2998287081718445,22.696680068969727,0.1491362750530243,-14.230989456176758,-0.11198955774307251,-2.1517977714538574,0.25485557317733765,0
3,0.009944677352905273,-0.3752071261405945,-22.720483779907227,-0.1729399859905243,14.207185745239258,0.11748272180557251,2.1582064628601074,-0.26858848333358765,0.0,0.0,0.0,0.0,0.0,0.0,0.0,-0.3222877180193982,0.08743186319331764,-0.23771896468293155,0.322232522412512,-0.12010384230813427,-0.037106088571490885,-0.24861545070606472,1.675791725489131,0.0523244471727756,0.029979092143884643,-2.7524091612964576,0.034252244760592764,2.7663665301352105,0.7691630533470046,1.6754973547542302,0.052104326824870026,0.029969505109285054,-2.752394845125968,0.0342448039870148,2.7663679543071322,0.7691630533470046,0.0014997602968577436,-8.410546520343336e-05,0.00045361247774961146,-0.000310061837326484,-0.0001408456544451061,-0.00032379569097662665,0.0005930066921630818,0.0,0.0,0.0,0.0,0.0,0.0,0.0,-0.00029437073490079513,-0.0002201203479055766,-9.587034599588956e-06,1.4316170489525604e-05,-7.440773577963022e-06,1.4241719217267246e-06,0.0,-0.0014997602968577436,8.410546520343336e-05,-0.00045361247774961146,0.000310061837326484,0.0001408456544451061,0.00032379569097662665,-0.0005930066921630818,0.3752071261405945,22.720483779907227,0.1729399859905243,-14.207185745239258,-0.11748272180557251,-2.1582064628601074,0.26858848333358765,0
4,0.014943838119506836,-0.3752071261405945,-22.720483779907227,-0.1729399859905243,14.207185745239258,0.11748272180557251,2.1582064628601074,-0.26858848333358765,0.0,0.0,0.0,0.0,0.0,0.0,0.0,-0.3222877180193982,0.08743186319331764,-0.23771896468293155,0.322232522412512,-0.12010384230813427,-0.037106088571490885,-0.24861545070606472,1.675791725489131,0.0523244471727756,0.029979092143884643,-2.7524091612964576,0.034252244760592764,2.7663665301352105,0.7691630533470046,1.6754973547542302,0.052104326824870026,0.029969505109285054,-2.752394845125968,0.0342448039870148,2.7663679543071322,0.7691630533470046,0.0014997602968577436,-8.410546520343336e-05,0.00045361247774961146,-0.000310061837326484,-0.0001408456544451061,-0.00032379569097662665,0.0005930066921630818,0.0,0.0,0.0,0.0,0.0,0.0,0.0,-0.00029437073490079513,-0.0002201203479055766,-9.587034599588956e-06,1.4316170489525604e-05,-7.440773577963022e-06,1.4241719217267246e-06,0.0,-0.0014997602968577436,8.410546520343336e-05,-0.00045361247774961146,0.000310061837326484,0.0001408456544451061,0.00032379569097662665,-0.0005930066921630818,0.3752071261405945,22.720483779907227,0.1729399859905243,-14.207185745239258,-0.11748272180557251,-2.1582064628601074,0.26858848333358765,0
5,0.019936323165893555,-0.3514034152030945,-22.696680068969727,-0.1253325641155243,14.155611038208008,0.11748272180557251,2.1453890800476074,-0.22098104655742645,0.0,0.0,0.0,0.0,0.0,0.0,0.0,-0.32168663949311344,0.09325988847056907,-0.23393892067090924,0.3198593621830998,-0.12038040846356504,-0.03747290689297442,-0.25031854944121157,1.6757900550532756,0.05232277673692034,0.029975751272157614,-2.7524055570424504,0.03425224476059278,2.766367599640872,0.7691577636318073,1.6754973547542302,0.052104326824870026,0.029969505109285054,-2.752394845125968,0.0342448039870148,2.7663679543071322,0.7691630533470046,0.0006317046359689837,0.00030692174714426013,-0.0004767339749945732,0.0008418707633218213,-0.00016862365652274894,0.0003286933667165351,-0.0013259325532884356,0.0,0.0,0.0,0.0,0.0,0.0,0.0,-0.00029270029904537864,-0.00021844991205031278,-6.246162872560607e-06,1.071191648227554e-05,-7.4407735779769e-06,3.546662603604034e-07,5.289715197309697e-06,-0.0006317046359689837,-0.00030692174714426013,0.0004767339749945732,-0.0008418707633218213,0.00016862365652274894,-0.0003286933667165351,0.0013259325532884356,0.3514034152030945,22.696680068969727,0.1253325641155243,-14.155611038208008,-0.11748272180557251,-2.1453890800476074,0.22098104655742645,0
6,0.02494025230407715,-0.3514034152030945,-22.696680068969727,-0.1253325641155243,14.155611038208008,0.11748272180557251,2.1453890800476074,-0.22098104655742645,0.0,0.0,0.0,0.0,0.0,0.0,0.0,-0.32168663949311344,0.09325988847056907,-0.23393892067090924,0.3198593621830998,-0.12038040846356504,-0.03747290689297442,-0.25031854944121157,1.6757900550532756,0.05232277673692034,0.029975751272157614,-2.7524055570424504,0.03425224476059278,2.766367599640872,0.7691577636318073,1.6754973547542302,0.052104326824870026,0.029969505109285054,-2.752394845125968,0.0342448039870148,2.7663679543071322,0.7691630533470046,0.0006317046359689837,0.00030692174714426013,-0.0004767339749945732,0.0008418707633218213,-0.00016862365652274894,0.0003286933667165351,-0.0013259325532884356,0.0,0.0,0.0,0.0,0.0,0.0,0.0,-0.00029270029904537864,-0.00021844991205031278,-6.246162872560607e-06,1.071191648227554e-05,-7.4407735779769e-06,3.546662603604034e-07,5.289715197309697e-06,-0.0006317046359689837,-0.00030692174714426013,0.0004767339749945732,-0.0008418707633218213,0.00016862365652274894,-0.0003286933667165351,0.0013259325532884356,0.3514034152030945,22.696680068969727,0.1253325641155243,-14.155611038208008,-0.11748272180557251,-2.1453890800476074,0.22098104655742645,0
7,0.029935121536254883,-0.2998287081718445,-22.672876358032227,-0.09756157547235489,14.155611038208008,0.11748272180557251,2.1582064628601074,-0.21457235515117645,0.0,0.0,0.0,0.0,0.0,0.0,0.0,-0.320316851445159,0.08983898097621495,-0.22860883727937542,0.32151817387363546,-0.120407005524853,-0.036803958465909614,-0.24986995684614505,1.6757864357755894,0.052321106301065075,0.029973802430849322,-2.7524066008692682,0.034252205300110354,2.7663665257908336,0.7691570515549844,1.6754973547542302,0.052104326824870026,0.029969505109285054,-2.752394845125968,0.0342448039870148,2.7663679543071322,0.7691630533470046,-0.00038306274241035963,-0.0007406403831801666,-0.0009603256818782459,0.00025456770185940185,-0.00011674504568483769,-0.00023947992041370745,-0.0013981878564139887,0.0,0.0,0.0,0.0,0.0,0.0,0.0,-0.00028908102135916103,-0.00021677947619504895,-4.297321564268597e-06,1.1755743300145838e-05,-7.4013130955535855e-06,1.4285162985849809e-06,6.00179202026041e-06,0.00038306274241035963,0.0007406403831801666,0.0009603256818782459,-0.00025456770185940185,0.00011674504568483769,0.00023947992041370745,0.0013981878564139887,0.2998287081718445,22.672876358032227,0.09756157547235489,-14.155611038208008,-0.11748272180557251,-2.1582064628601074,0.21457235515117645,0
8,0.03493690490722656,-0.2998287081718445,-22.672876358032227,-0.09756157547235489,14.155611038208008,0.11748272180557251,2.1582064628601074,-0.21457235515117645,0.0,0.0,0.0,0.0,0.0,0.0,0.0,-0.320316851445159,0.08983898097621495,-0.22860883727937542,0.32151817387363546,-0.120407005524853,-0.036803958465909614,-0.24986995684614505,1.6757864357755894,0.052321106301065075,0.029973802430849322,-2.7524066008692682,0.034252205300110354,2.7663665257908336,0.7691570515549844,1.6754973547542302,0.052104326824870026,0.029969505109285054,-2.752394845125968,0.0342448039870148,2.7663679543071322,0.7691630533470046,-0.00038306274241035963,-0.0007406403831801666,-0.0009603256818782459,0.00025456770185940185,-0.00011674504568483769,-0.00023947992041370745,-0.0013981878564139887,0.0,0.0,0.0,0.0,0.0,0.0,0.0,-0.00028908102135916103,-0.00021677947619504895,-4.297321564268597e-06,1.1755743300145838e-05,-7.4013130955535855e-06,1.4285162985849809e-06,6.00179202026041e-06,0.00038306274241035963,0.0007406403831801666,0.0009603256818782459,-0.00025456770185940185,0.00011674504568483769,0.00023947992041370745,0.0013981878564139887,0.2998287081718445,22.672876358032227,0.09756157547235489,-14.155611038208008,-0.11748272180557251,-2.1582064628601074,0.21457235515117645,0
9,0.03993725776672363,-0.2720577120780945,-22.720483779907227,-0.1729399859905243,14.155611038208008,0.11198955774307251,2.1453890800476074,-0.23471395671367645,0.0,0.0,0.0,0.0,0.0,0.0,0.0,-0.32313576700396934,0.08368991587361463,-0.23199752524284867,0.3280902036708494,-0.1197071825732418,-0.03479449707176488,-0.24963460424227224,1.6757844869337581,0.0523244471727756,0.029979092143868142,-2.7524055389718987,0.03425285511148701,2.7663679543070585,0.7691592895107136,1.6754973547542302,0.052104326824870026,0.029969505109285054,-2.752394845125968,0.0342448039870148,2.7663679543071322,0.7691630533470046,-0.0007944202057218409,-0.00012365176374608,0.0003494576720825435,0.0008596092542670121,-4.071352309469668e-05,7.906506445805795e-05,-0.000861058132495701,0.0,0.0,0.0,0.0,0.0,0.0,0.0,-0.0002871321795279158,-0.0002201203479055766,-9.587034583088266e-06,1.0693845930553891e-05,-8.05112447221229e-06,7.37188088351104e-14,3.763836291081901e-06,0.0007944202057218409,0.00012365176374608,-0.0003494576720825435,-0.0008596092542670121,4.071352309469668e-05,-7.906506445805795e-05,0.000861058132495701,0.2720577120780945,22.720483779907227,0.1729399859905243,-14.155611038208008,-0.11198955774307251,-2.1453890800476074,0.23471395671367645,0
10,0.0449376106262207,-0.2720577120780945,-22.720483779907227,-0.1729399859905243,14.155611038208008,0.11198955774307251,2.1453890800476074,-0.23471395671367645,0.0,0.0,0.0,0.0,0.0,0.0,0.0,-0.32313576700396934,0.08368991587361463,-0.23199752524284867,0.3280902036708494,-0.1197071825732418,-0.03479449707176488,-0.24963460424227224,1.6757844869337581,0.0523244471727756,0.029979092143868142,-2.7524055389718987,0.03425285511148701,2.7663679543070585,0.7691592895107136,1.6754973547542302,0.052104326824870026,0.029969505109285054,-2.752394845125968,0.0342448039870148,2.7663679543071322,0.7691630533470046,-0.0007944202057218409,-0.00012365176374608,0.0003494576720825435,0.0008596092542670121,-4.071352309469668e-05,7.906506445805795e-05,-0.000861058132495701,0.0,0.0,0.0,0.0,0.0,0.0,0.0,-0.0002871321795279158,-0.0002201203479055766,-9.587034583088266e-06,1.0693845930553891e-05,-8.05112447221229e-06,7.37188088351104e-14,3.763836291081901e-06,0.0007944202057218409,0.00012365176374608,-0.0003494576720825435,-0.0008596092542670121,4.071352309469668e-05,-7.906506445805795e-05,0.000861058132495701,0.2720577120780945,22.720483779907227,0.1729399859905243,-14.155611038208008,-0.11198955774307251,-2.1453890800476074,0.23471395671367645,0
11,0.049936532974243164,-0.3236324191093445,-22.720483779907227,-0.1253325641155243,14.207185745239258,0.12389141321182251,2.1389803886413574,-0.24844686686992645,0.0,0.0,0.0,0.0,0.0,0.0,0.0,-0.3180872175792913,0.0901158780719604,-0.2314696113671831,0.3224173962186252,-0.12036857408638851,-0.03626582266553203,-0.24853916154167977,1.6757881062114446,0.0523244471727756,0.029975751272157614,-2.752409149187146,0.03425152829927181,2.76636866633012,0.7691608153896198,1.6754973547542302,0.052104326824870026,0.029969505109285054,-2.752394845125968,0.0342448039870148,2.7663679543071322,0.7691630533470046,0.000248699002213791,-0.0001007350623222686,-0.0002498821305720968,-0.0005474221834824956,-0.0004749767393544981,0.0003402749076383232,0.0005101519260577753,0.0,0.0,0.0,0.0,0.0,0.0,0.0,-0.00029075145721435547,-0.0002201203479055766,-6.246162872560607e-06,1.4304061177750071e-05,-6.724312257011533e-06,-7.120229876811379e-07,2.2379573848541057e-06,-0.000248699002213791,0.0001007350623222686,0.0002498821305720968,0.0005474221834824956,0.0004749767393544981,-0.0003402749076383232,-0.0005101519260577753,0.3236324191093445,22.720483779907227,0.1253325641155243,-14.207185745239258,-0.12389141321182251,-2.1389803886413574,0.24844686686992645,0
12,0.05493783950805664,-0.3236324191093445,-22.720483779907227,-0.1253325641155243,14.207185745239258,0.12389141321182251,2.1389803886413574,-0.24844686686992645,0.0,0.0,0.0,0.0,0.0,0.0,0.0,-0.3180872175792913,0.0901158780719604,-0.2314696113671831,0.3224173962186252,-0.12036857408638851,-0.03626582266553203,-0.24853916154167977,1.6757881062114446,0.0523244471727756,0.029975751272157614,-2.752409149187146,0.03425152829927181,2.76636866633012,0.7691608153896198,1.6754973547542302,0.052104326824870026,0.029969505109285054,-2.752394845125968,0.0342448039870148,2.7663679543071322,0.7691630533470046,0.000248699002213791,-0.0001007350623222686,-0.0002498821305720968,-0.0005474221834824956,-0.0004749767393544981,0.0003402749076383232,0.0005101519260577753,0.0,0.0,0.0,0.0,0.0,0.0,0.0,-0.00029075145721435547,-0.0002201203479055766,-6.246162872560607e-06,1.4304061177750071e-05,-6.724312257011533e-06,-7.120229876811379e-07,2.2379573848541057e-06,-0.000248699002213791,0.0001007350623222686,0.0002498821305720968,0.0005474221834824956,0.0004749767393544981,-0.0003402749076383232,-0.0005101519260577753,0.3236324191093445,22.720483779907227,0.1253325641155243,-14.207185745239258,-0.12389141321182251,-2.1389803886413574,0.24844686686992645,0
13,0.05995774269104004,-0.3236324191093445,-22.696680068969727,-0.1491362750530243,14.230989456176758,0.11198955774307251,2.1517977714538574,-0.28232139348983765,0.0,0.0,0.0,0.0,0.0,0.0,0.0,-0.31892428530309497,0.09219871139002594,-0.23302917886208033,0.3204425947016583,-0.11986042440374808,-0.037518517073293206,-0.24742953134042503,1.6757881062114446,0.05232277673692034,0.029977421708012878,-2.7524108192838246,0.03425285365063118,2.766365823565269,0.769164579225911,1.6754973547542302,0.052104326824870026,0.029969505109285054,-2.752394845125968,0.0342448039870148,2.7663679543071322,0.7691630533470046,0.00022287859515362143,-0.0001939099792893287,5.8960243025619395e-05,-0.0008282367223166043,1.1274355992068661e-05,-0.00013989878387305957,0.0010012841597128333,0.0,0.0,0.0,0.0,0.0,0.0,0.0,-0.00029075145721435547,-0.00021844991205031278,-7.916598727824437e-06,1.597415785647982e-05,-8.049663616380154e-06,2.1307418633931263e-06,-1.5258789063388178e-06,-0.00022287859515362143,0.0001939099792893287,-5.8960243025619395e-05,0.0008282367223166043,-1.1274355992068661e-05,0.00013989878387305957,-0.0010012841597128333,0.3236324191093445,22.696680068969727,0.1491362750530243,-14.230989456176758,-0.11198955774307251,-2.1517977714538574,0.28232139348983765,0
14,0.06532835960388184,-0.3236324191093445,-22.696680068969727,-0.1491362750530243,14.230989456176758,0.11198955774307251,2.1517977714538574,-0.28232139348983765,0.0,0.0,0.0,0.0,0.0,0.0,0.0,-0.31892428530309497,0.09219871139002594,-0.23302917886208033,0.3204425947016583,-0.11986042440374808,-0.037518517073293206,-0.24742953134042503,1.6757881062114446,0.05232277673692034,0.029977421708012878,-2.7524108192838246,0.03425285365063118,2.766365823565269,0.769164579225911,1.6754973547542302,0.052104326824870026,0.029969505109285054,-2.752394845125968,0.0342448039870148,2.7663679543071322,0.7691630533470046,0.00022287859515362143,-0.0001939099792893287,5.8960243025619395e-05,-0.0008282367223166043,1.1274355992068661e-05,-0.00013989878387305957,0.0010012841597128333,0.0,0.0,0.0,0.0,0.0,0.0,0.0,-0.00029075145721435547,-0.00021844991205031278,-7.916598727824437e-06,1.597415785647982e-05,-8.049663616380154e-06,2.1307418633931263e-06,-1.5258789063388178e-06,-0.00022287859515362143,0.0001939099792893287,-5.8960243025619395e-05,0.0008282367223166043,-1.1274355992068661e-05,0.00013989878387305957,-0.0010012841597128333,0.3236324191093445,22.696680068969727,0.1491362750530243,-14.230989456176758,-0.11198955774307251,-2.1517977714538574,0.28232139348983765,0
15,0.06994509696960449,-0.3514034152030945,-22.672876358032227,-0.1491362750530243,14.207185745239258,0.11198955774307251,2.1517977714538574,-0.24844686686992645,0.0,0.0,0.0,0.0,0.0,0.0,0.0,-0.3209203064289811,0.0855630224161494,-0.2337972849225734,0.322191122179251,-0.11964211723913008,-0.03708366370921878,-0.24898205310955746,1.6757900550532756,0.052321106301065075,0.029977421708012878,-2.7524116212238816,0.034252841958652885,2.7663658293714617,0.7691608153896198,1.6754973547542302,0.052104326824870026,0.029969505109285054,-2.752394845125968,0.0342448039870148,2.7663679543071322,0.7691630533470046,0.0006082830106963377,-0.001259418118935413,-2.70415577839716e-05,-0.0007373610805401308,-3.35702014541661e-05,-0.00013548525881310877,0.00016784579094186316,0.0,0.0,0.0,0.0,0.0,0.0,0.0,-0.00029270029904537864,-0.00021677947619504895,-7.916598727824437e-06,1.677609791350676e-05,-8.037971638084895e-06,2.12493567053329e-06,2.2379573848541057e-06,-0.0006082830106963377,0.001259418118935413,2.70415577839716e-05,0.0007373610805401308,3.35702014541661e-05,0.00013548525881310877,-0.00016784579094186316,0.3514034152030945,22.672876358032227,0.1491362750530243,-14.207185745239258,-0.11198955774307251,-2.1517977714538574,0.24844686686992645,0
16,0.07494187355041504,-0.3514034152030945,-22.672876358032227,-0.1491362750530243,14.207185745239258,0.11198955774307251,2.1517977714538574,-0.24844686686992645,0.0,0.0,0.0,0.0,0.0,0.0,0.0,-0.3209203064289811,0.0855630224161494,-0.2337972849225734,0.322191122179251,-0.11964211723913008,-0.03708366370921878,-0.24898205310955746,1.6757900550532756,0.052321106301065075,0.029977421708012878,-2.7524116212238816,0.034252841958652885,2.7663658293714617,0.7691608153896198,1.6754973547542302,0.052104326824870026,0.029969505109285054,-2.752394845125968,0.0342448039870148,2.7663679543071322,0.7691630533470046,0.0006082830106963377,-0.001259418118935413,-2.70415577839716e-05,-0.0007373610805401308,-3.35702014541661e-05,-0.00013548525881310877,0.00016784579094186316,0.0,0.0,0.0,0.0,0.0,0.0,0.0,-0.00029270029904537864,-0.00021677947619504895,-7.916598727824437e-06,1.677609791350676e-05,-8.037971638084895e-06,2.12493567053329e-06,2.2379573848541057e-06,-0.0006082830106963377,0.001259418118935413,2.70415577839716e-05,0.0007373610805401308,3.35702014541661e-05,0.00013548525881310877,-0.00016784579094186316,0.3514034152030945,22.672876358032227,0.1491362750530243,-14.207185745239258,-0.11198955774307251,-2.1517977714538574,0.24844686686992645,0
17,0.0799403190612793,-0.3514034152030945,-22.696680068969727,-0.2007109820842743,14.179414749145508,0.11198955774307251,2.1517977714538574,-0.26217979192733765,0.0,0.0,0.0,0.0,0.0,0.0,0.0,-0.32222855713871235,0.0869236783785316,-0.23212662957674135,0.3249149366127869,-0.11988591118764544,-0.03673518080459727,-0.2470371667542021,1.6757900550532756,0.05232277673692034,0.029981040985699283,-2.752407474741089,0.034252855112081024,2.766363901910033,0.7691623412701818,1.6754973547542302,0.052104326824870026,0.029969505109285054,-2.752394845125968,0.0342448039870148,2.7663679543071322,0.7691630533470046,0.0004636589085849429,-0.0004752917395708746,0.0011996350915428056,0.00019906930323783194,2.0068693822109325e-05,-0.00017463831449332612,0.001014267969674785,0.0,0.0,0.0,0.0,0.0,0.0,0.0,-0.00029270029904537864,-0.00021844991205031278,-1.1535876414229401e-05,1.2629615120829385e-05,-8.051125066223241e-06,4.052397099219007e-06,7.120768228396912e-07,-0.0004636589085849429,0.0004752917395708746,-0.0011996350915428056,-0.00019906930323783194,-2.0068693822109325e-05,0.00017463831449332612,-0.001014267969674785,0.3514034152030945,22.696680068969727,0.2007109820842743,-14.179414749145508,-0.11198955774307251,-2.1517977714538574,0.26217979192733765,0
18,0.08494353294372559,-0.3514034152030945,-22.696680068969727,-0.2007109820842743,14.179414749145508,0.11198955774307251,2.1517977714538574,-0.26217979192733765,0.0,0.0,0.0,0.0,0.0,0.0,0.0,-0.32222855713871235,0.0869236783785316,-0.23212662957674135,0.3249149366127869,-0.11988591118764544,-0.03673518080459727,-0.2470371667542021,1.6757900550532756,0.05232277673692034,0.029981040985699283,-2.752407474741089,0.034252855112081024,2.766363901910033,0.7691623412701818,1.6754973547542302,0.052104326824870026,0.029969505109285054,-2.752394845125968,0.0342448039870148,2.7663679543071322,0.7691630533470046,0.0004636589085849429,-0.0004752917395708746,0.0011996350915428056,0.00019906930323783194,2.0068693822109325e-05,-0.00017463831449332612,0.001014267969674785,0.0,0.0,0.0,0.0,0.0,0.0,0.0,-0.00029270029904537864,-0.00021844991205031278,-1.1535876414229401e-05,1.2629615120829385e-05,-8.051125066223241e-06,4.052397099219007e-06,7.120768228396912e-07,-0.0004636589085849429,0.0004752917395708746,-0.0011996350915428056,-0.00019906930323783194,-2.0068693822109325e-05,0.00017463831449332612,-0.001014267969674785,0.3514034152030945,22.696680068969727,0.2007109820842743,-14.179414749145508,-0.11198955774307251,-2.1517977714538574,0.26217979192733765,0
19,0.08993983268737793,-0.2998287081718445,-22.720483779907227,-0.1253325641155243,14.207185745239258,0.11198955774307251,2.1517977714538574,-0.21457235515117645,0.0,0.0,0.0,0.0,0.0,0.0,0.0,-0.3249084773642099,0.09032771946016654,-0.2314679285581021,0.3236760860420647,-0.11973982008212367,-0.036718851790409686,-0.24667706969793682,1.6757864357755894,0.0523244471727756,0.029975751272157614,-2.7524091497539493,0.03425285511215528,2.766366024943875,0.7691570515549844,1.6754973547542302,0.052104326824870026,0.029969505109285054,-2.752394845125968,0.0342448039870148,2.7663679543071322,0.7691630533470046,-0.0007296485684063955,-0.0058590211189799655,-0.0006689011921884538,-0.00021441098574983942,0.0001045844324678667,-1.8692689853853942e-05,-0.0011892653042870486,0.0,0.0,0.0,0.0,0.0,0.0,0.0,-0.00028908102135916103,-0.0002201203479055766,-6.246162872560607e-06,1.4304627981243101e-05,-8.051125140476345e-06,1.929363257158201e-06,6.00179202026041e-06,0.0007296485684063955,0.0058590211189799655,0.0006689011921884538,0.00021441098574983942,-0.0001045844324678667,1.8692689853853942e-05,0.0011892653042870486,0.2998287081718445,22.720483779907227,0.1253325641155243,-14.207185745239258,-0.11198955774307251,-2.1517977714538574,0.21457235515117645,0
20,0.09496784210205078,-0.2998287081718445,-22.720483779907227,-0.1253325641155243,14.207185745239258,0.11198955774307251,2.1517977714538574,-0.21457235515117645,0.0,0.0,0.0,0.0,0.0,0.0,0.0,-0.3249084773642099,0.09032771946016654,-0.2314679285581021,0.3236760860420647,-0.11973982008212367,-0.036718851790409686,-0.24667706969793682,1.6757864357755894,0.0523244471727756,0.029975751272157614,-2.7524091497539493,0.03425285511215528,2.766366024943875,0.7691570515549844,1.6754973547542302,0.052104326824870026,0.029969505109285054,-2.752394845125968,0.0342448039870148,2.7663679543071322,0.7691630533470046,-0.0007296485684063955,-0.0058590211189799655,-0.0006689011921884538,-0.00021441098574983942,0.0001045844324678667,-1.8692689853853942e-05,-0.0011892653042870486,0.0,0.0,0.0,0.0,0.0,0.0,0.0,-0.00028908102135916103,-0.0002201203479055766,-6.246162872560607e-06,1.4304627981243101e-05,-8.051125140476345e-06,1.929363257158201e-06,6.00179202026041e-06,0.0007296485684063955,0.0058590211189799655,0.0006689011921884538,0.00021441098574983942,-0.0001045844324678667,1.8692689853853942e-05,0.0011892653042870486,0.2998287081718445,22.720483779907227,0.1253325641155243,-14.207185745239258,-0.11198955774307251,-2.1517977714538574,0.21457235515117645,0
21,0.09993505477905273,-0.2998287081718445,-22.720483779907227,-0.1253325641155243,14.207185745239258,0.11198955774307251,2.1517977714538574,-0.21457235515117645,0.0,0.0,0.0,0.0,0.0,0.0,0.0,-0.3249084773642099,0.09032771946016654,-0.2314679285581021,0.3236760860420647,-0.11973982008212367,-0.036718851790409686,-0.24667706969793682,1.6757864357755894,0.0523244471727756,0.029975751272157614,-2.7524091497539493,0.03425285511215528,2.766366024943875,0.7691570515549844,1.6754973547542302,0.052104326824870026,0.029969505109285054,-2.752394845125968,0.0342448039870148,2.7663679543071322,0.7691630533470046,-0.0007296485684063955,-0.0058590211189799655,-0.0006689011921884538,-0.00021441098574983942,0.0001045844324678667,-1.8692689853853942e-05,-0.0011892653042870486,0.0,0.0,0.0,0.0,0.0,0.0,0.0,-0.00028908102135916103,-0.0002201203479055766,-6.246162872560607e-06,1.4304627981243101e-05,-8.051125140476345e-06,1.929363257158201e-06,6.00179202026041e-06,0.0007296485684063955,0.0058590211189799655,0.0006689011921884538,0.00021441098574983942,-0.0001045844324678667,1.8692689853853942e-05,0.0011892653042870486,0.2998287081718445,22.720483779907227,0.1253325641155243,-14.207185745239258,-0.11198955774307251,-2.1517977714538574,0.21457235515117645,0
22,0.1057579517364502,-0.2998287081718445,-22.720483779907227,-0.1253325641155243,14.207185745239258,0.11198955774307251,2.1517977714538574,-0.21457235515117645,0.0,0.0,0.0,0.0,0.0,0.0,0.0,-0.3249084773642099,0.09032771946016654,-0.2314679285581021,0.3236760860420647,-0.11973982008212367,-0.036718851790409686,-0.24667706969793682,1.6757864357755894,0.0523244471727756,0.029975751272157614,-2.7524091497539493,0.03425285511215528,2.766366024943875,0.7691570515549844,1.6754973547542302,0.052104326824870026,0.029969505109285054,-2.752394845125968,0.0342448039870148,2.7663679543071322,0.7691630533470046,-0.0007296485684063955,-0.0058590211189799655,-0.0006689011921884538,-0.00021441098574983942,0.0001045844324678667,-1.8692689853853942e-05,-0.0011892653042870486,0.0,0.0,0.0,0.0,0.0,0.0,0.0,-0.00028908102135916103,-0.0002201203479055766,-6.246162872560607e-06,1.4304627981243101e-05,-8.051125140476345e-06,1.929363257158201e-06,6.00179202026041e-06,0.0007296485684063955,0.0058590211189799655,0.0006689011921884538,0.00021441098574983942,-0.0001045844324678667,1.8692689853853942e-05,0.0011892653042870486,0.2998287081718445,22.720483779907227,0.1253325641155243,-14.207185745239258,-0.11198955774307251,-2.1517977714538574,0.21457235515117645,0
23,0.10993576049804688,-0.2998287081718445,-22.696680068969727,-0.1253325641155243,14.230989456176758,0.11198955774307251,2.1453890800476074,-0.27591270208358765,0.0,0.0,0.0,0.0,0.0,0.0,0.0,-0.32187286846371665,0.12147007816447038,-0.22954958780289642,0.30856881275518777,-0.1197399081869763,-0.03947139536235447,-0.2459545477553803,1.6757864357755894,0.05232277673692034,0.029975752246490513,-2.75241304542833,0.03425249996781349,2.7663678365626905,0.769163867149088,1.6754973547542302,0.052104326824870026,0.029969505109285054,-2.752394845125968,0.0342448039870148,2.7663679543071322,0.7691630533470046,9.895776019550209e-06,-0.0010617803966134038,-0.0002745831160839046,-0.0010279165394574167,2.924015523646099e-05,0.00015740415446712414,0.0013846189297428565,0.0,0.0,0.0,0.0,0.0,0.0,0.0,-0.00028908102135916103,-0.00021844991205031278,-6.247137205459691e-06,1.820030236210357e-05,-7.69598079868733e-06,1.1774444175216559e-07,-8.138020833881043e-07,-9.895776019550209e-06,0.0010617803966134038,0.0002745831160839046,0.0010279165394574167,-2.924015523646099e-05,-0.00015740415446712414,-0.0013846189297428565,0.2998287081718445,22.696680068969727,0.1253325641155243,-14.230989456176758,-0.11198955774307251,-2.1453890800476074,0.27591270208358765,0
24,0.11493682861328125,-0.2998287081718445,-22.696680068969727,-0.1253325641155243,14.230989456176758,0.11198955774307251,2.1453890800476074,-0.27591270208358765,0.0,0.0,0.0,0.0,0.0,0.0,0.0,-0.32187286846371665,0.12147007816447038,-0.22954958780289642,0.30856881275518777,-0.1197399081869763,-0.03947139536235447,-0.2459545477553803,1.6757864357755894,0.05232277673692034,0.029975752246490513,-2.75241304542833,0.03425249996781349,2.7663678365626905,0.769163867149088,1.6754973547542302,0.052104326824870026,0.029969505109285054,-2.752394845125968,0.0342448039870148,2.7663679543071322,0.7691630533470046,9.895776019550209e-06,-0.0010617803966134038,-0.0002745831160839046,-0.0010279165394574167,2.924015523646099e-05,0.00015740415446712414,0.0013846189297428565,0.0,0.0,0.0,0.0,0.0,0.0,0.0,-0.00028908102135916103,-0.00021844991205031278,-6.247137205459691e-06,1.820030236210357e-05,-7.69598079868733e-06,1.1774444175216559e-07,-8.138020833881043e-07,-9.895776019550209e-06,0.0010617803966134038,0.0002745831160839046,0.0010279165394574167,-2.924015523646099e-05,-0.00015740415446712414,-0.0013846189297428565,0.2998287081718445,22.696680068969727,0.1253325641155243,-14.230989456176758,-0.11198955774307251,-2.1453890800476074,0.27591270208358765,0
25,0.11995935440063477,-0.3514034152030945,-22.720483779907227,-0.1491362750530243,14.230989456176758,0.12389141321182251,2.1517977714538574,-0.28232139348983765,0.0,0.0,0.0,0.0,0.0,0.0,0.0,-0.32393026920244916,0.0815076124564233,-0.2307951866594209,0.32664853986647163,-0.11888338804842438,-0.03567444209471552,-0.2463508611812883,1.6757900550532756,0.0523244471727756,0.02997742170801471,-2.7524130475051685,0.034251519529607456,2.766366169510006,0.7691645797164842,1.6754973547542302,0.052104326824870026,0.029969505109285054,-2.752394845125968,0.0342448039870148,2.7663679543071322,0.7691630533470046,0.0005563287288121198,0.00027789212465393254,0.000463890117687827,-0.0013452687464655703,-0.00044577524612902984,-0.0001611355932869323,0.0016519777106494056,0.0,0.0,0.0,0.0,0.0,0.0,0.0,-0.00029270029904537864,-0.0002201203479055766,-7.916598729656305e-06,1.8202379200360497e-05,-6.715542592655721e-06,1.7847971260920303e-06,-1.5263694795875082e-06,-0.0005563287288121198,-0.00027789212465393254,-0.000463890117687827,0.0013452687464655703,0.00044577524612902984,0.0001611355932869323,-0.0016519777106494056,0.3514034152030945,22.720483779907227,0.1491362750530243,-14.230989456176758,-0.12389141321182251,-2.1517977714538574,0.28232139348983765,0
26,0.12496018409729004,-0.3514034152030945,-22.720483779907227,-0.1491362750530243,14.230989456176758,0.12389141321182251,2.1517977714538574,-0.28232139348983765,0.0,0.0,0.0,0.0,0.0,0.0,0.0,-0.32393026920244916,0.0815076124564233,-0.2307951866594209,0.32664853986647163,-0.11888338804842438,-0.03567444209471552,-0.2463508611812883,1.6757900550532756,0.0523244471727756,0.02997742170801471,-2.7524130475051685,0.034251519529607456,2.766366169510006,0.7691645797164842,1.6754973547542302,0.052104326824870026,0.029969505109285054,-2.752394845125968,0.0342448039870148,2.7663679543071322,0.7691630533470046,0.0005563287288121198,0.00027789212465393254,0.000463890117687827,-0.0013452687464655703,-0.00044577524612902984,-0.0001611355932869323,0.0016519777106494056,0.0,0.0,0.0,0.0,0.0,0.0,0.0,-0.00029270029904537864,-0.0002201203479055766,-7.916598729656305e-06,1.8202379200360497e-05,-6.715542592655721e-06,1.7847971260920303e-06,-1.5263694795875082e-06,-0.0005563287288121198,-0.00027789212465393254,-0.000463890117687827,0.0013452687464655703,0.00044577524612902984,0.0001611355932869323,-0.0016519777106494056,0.3514034152030945,22.720483779907227,0.1491362750530243,-14.230989456176758,-0.12389141321182251,-2.1517977714538574,0.28232139348983765,0
27,0.1299443244934082,-0.3514034152030945,-22.720483779907227,-0.09756157547235489,14.207185745239258,0.11748272180557251,2.1582064628601074,-0.26217979192733765,0.0,0.0,0.0,0.0,0.0,0.0,0.0,-0.3276677623533789,0.07995886631750333,-0.23114271094326844,0.3303696466545214,-0.11858045437357317,-0.03513947085460477,-0.24707873305214303,1.6757900550532756,0.0523244471727756,0.029973802430849322,-2.7524092311637904,0.034252244760518524,2.766366530093596,0.7691623412701846,1.6754973547542302,0.052104326824870026,0.029969505109285054,-2.752394845125968,0.0342448039870148,2.7663679543071322,0.7691630533470046,0.00010880953850304734,0.0005965987122810211,-0.001340555628244828,-8.570934396811334e-05,-0.00027626650650459884,-0.00024794858955562313,0.0004518583320994061,0.0,0.0,0.0,0.0,0.0,0.0,0.0,-0.00029270029904537864,-0.0002201203479055766,-4.297321564268597e-06,1.438603782233372e-05,-7.4407735037237965e-06,1.4242135364384012e-06,7.120768200641336e-07,-0.00010880953850304734,-0.0005965987122810211,0.001340555628244828,8.570934396811334e-05,0.00027626650650459884,0.00024794858955562313,-0.0004518583320994061,0.3514034152030945,22.720483779907227,0.09756157547235489,-14.207185745239258,-0.11748272180557251,-2.1582064628601074,0.26217979192733765,0
28,0.13494873046875,-0.3514034152030945,-22.720483779907227,-0.09756157547235489,14.207185745239258,0.11748272180557251,2.1582064628601074,-0.26217979192733765,0.0,0.0,0.0,0.0,0.0,0.0,0.0,-0.3276677623533789,0.07995886631750333,-0.23114271094326844,0.3303696466545214,-0.11858045437357317,-0.03513947085460477,-0.24707873305214303,1.6757900550532756,0.0523244471727756,0.029973802430849322,-2.7524092311637904,0.034252244760518524,2.766366530093596,0.7691623412701846,1.6754973547542302,0.052104326824870026,0.029969505109285054,-2.752394845125968,0.0342448039870148,2.7663679543071322,0.7691630533470046,0.00010880953850304734,0.0005965987122810211,-0.001340555628244828,-8.570934396811334e-05,-0.00027626650650459884,-0.00024794858955562313,0.0004518583320994061,0.0,0.0,0.0,0.0,0.0,0.0,0.0,-0.00029270029904537864,-0.0002201203479055766,-4.297321564268597e-06,1.438603782233372e-05,-7.4407735037237965e-06,1.4242135364384012e-06,7.120768200641336e-07,-0.00010880953850304734,-0.0005965987122810211,0.001340555628244828,8.570934396811334e-05,0.00027626650650459884,0.00024794858955562313,-0.0004518583320994061,0.3514034152030945,22.720483779907227,0.09756157547235489,-14.207185745239258,-0.11748272180557251,-2.1582064628601074,0.26217979192733765,0
29,0.13994121551513672,-0.3514034152030945,-22.672876358032227,-0.1729399859905243,14.131807327270508,0.11198955774307251,2.1517977714538574,-0.24844686686992645,0.0,0.0,0.0,0.0,0.0,0.0,0.0,-0.32591426674059504,0.08183650350649617,-0.22813167319400846,0.3283844811592133,-0.1193175849922017,-0.035086061008462274,-0.24715990207130778,1.6757900550532756,0.052321106301065075,0.029979092143868142,-2.752403859172575,0.03425285511215528,2.7663668873487084,0.7691611686568377,1.6754973547542302,0.052104326824870026,0.029969505109285054,-2.752394845125968,0.0342448039870148,2.7663679543071322,0.7691630533470046,0.0004761387345981508,-0.0009274796960120898,0.00036491940837207683,0.001294417987977131,5.962241771894383e-05,-5.252354756603696e-05,-0.000371506799179458,0.0,0.0,0.0,0.0,0.0,0.0,0.0,-0.00029270029904537864,-0.00021677947619504895,-9.587034583088266e-06,9.014046606914405e-06,-8.051125140476345e-06,1.0669584238343077e-06,1.8846901669311578e-06,-0.0004761387345981508,0.0009274796960120898,-0.00036491940837207683,-0.001294417987977131,-5.962241771894383e-05,5.252354756603696e-05,0.000371506799179458,0.3514034152030945,22.672876358032227,0.1729399859905243,-14.131807327270508,-0.11198955774307251,-2.1517977714538574,0.24844686686992645,0
30,0.14493942260742188,-0.3514034152030945,-22.672876358032227,-0.1729399859905243,14.131807327270508,0.11198955774307251,2.1517977714538574,-0.24844686686992645,0.0,0.0,0.0,0.0,0.0,0.0,0.0,-0.32591426674059504,0.08183650350649617,-0.22813167319400846,0.3283844811592133,-0.1193175849922017,-0.035086061008462274,-0.24715990207130778,1.6757900550532756,0.052321106301065075,0.029979092143868142,-2.752403859172575,0.03425285511215528,2.7663668873487084,0.7691611686568377,1.6754973547542302,0.052104326824870026,0.029969505109285054,-2.752394845125968,0.0342448039870148,2.7663679543071322,0.7691630533470046,0.0004761387345981508,-0.0009274796960120898,0.00036491940837207683,0.001294417987977131,5.962241771894383e-05,-5.252354756603696e-05,-0.000371506799179458,0.0,0.0,0.0,0.0,0.0,0.0,0.0,-0.00029270029904537864,-0.00021677947619504895,-9.587034583088266e-06,9.014046606914405e-06,-8.051125140476345e-06,1.0669584238343077e-06,1.8846901669311578e-06,-0.0004761387345981508,0.0009274796960120898,-0.00036491940837207683,-0.001294417987977131,-5.962241771894383e-05,5.252354756603696e-05,0.000371506799179458,0.3514034152030945,22.672876358032227,0.1729399859905243,-14.131807327270508,-0.11198955774307251,-2.1517977714538574,0.24844686686992645,0
31,0.14994001388549805,-0.3236324191093445,-22.748254776000977,-0.1491362750530243,14.207185745239258,0.10008770227432251,2.1517977714538574,-0.24844686686992645,0.0,0.0,0.0,0.0,0.0,0.0,0.0,-0.32525959779698776,0.07948824258836568,-0.23000380135592724,0.3304446816024204,-0.11953254256924686,-0.03413928019160113,-0.24966109911510295,1.6757881062114446,0.052326396014606744,0.029977421708012878,-2.7524123633097335,0.03425417754054069,2.766366888998987,0.7691608153902845,1.6754973547542302,0.052104326824870026,0.029969505109285054,-2.752394845125968,0.0342448039870148,2.7663679543071322,0.7691630533470046,-0.00011768313855556896,0.0005459840456032023,2.3388076955381084e-05,-0.0004693047649082912,0.0004969922946767761,-0.00017923164653791779,0.00010722259831553145,0.0,0.0,0.0,0.0,0.0,0.0,0.0,-0.00029075145721435547,-0.00022206918973671774,-7.916598727824437e-06,1.7518183765385942e-05,-9.373553525891809e-06,1.0653081452538515e-06,2.237956720163581e-06,0.00011768313855556896,-0.0005459840456032023,-2.3388076955381084e-05,0.0004693047649082912,-0.0004969922946767761,0.00017923164653791779,-0.00010722259831553145,0.3236324191093445,22.748254776000977,0.1491362750530243,-14.207185745239258,-0.10008770227432251,-2.1517977714538574,0.24844686686992645,0
32,0.15493464469909668,-0.3236324191093445,-22.748254776000977,-0.1491362750530243,14.207185745239258,0.10008770227432251,2.1517977714538574,-0.24844686686992645,0.0,0.0,0.0,0.0,0.0,0.0,0.0,-0.32525959779698776,0.07948824258836568,-0.23000380135592724,0.3304446816024204,-0.11953254256924686,-0.03413928019160113,-0.24966109911510295,1.6757881062114446,0.052326396014606744,0.029977421708012878,-2.7524123633097335,0.03425417754054069,2.766366888998987,0.7691608153902845,1.6754973547542302,0.052104326824870026,0.029969505109285054,-2.752394845125968,0.0342448039870148,2.7663679543071322,0.7691630533470046,-0.00011768313855556896,0.0005459840456032023,2.3388076955381084e-05,-0.0004693047649082912,0.0004969922946767761,-0.00017923164653791779,0.00010722259831553145,0.0,0.0,0.0,0.0,0.0,0.0,0.0,-0.00029075145721435547,-0.00022206918973671774,-7.916598727824437e-06,1.7518183765385942e-05,-9.373553525891809e-06,1.0653081452538515e-06,2.237956720163581e-06,0.00011768313855556896,-0.0005459840456032023,-2.3388076955381084e-05,0.0004693047649082912,-0.0004969922946767761,0.00017923164653791779,-0.00010722259831553145,0.3236324191093445,22.748254776000977,0.1491362750530243,-14.207185745239258,-0.10008770227432251,-2.1517977714538574,0.24844686686992645,0
33,0.15994524955749512,-0.3236324191093445,-22.720483779907227,-0.1729399859905243,14.207185745239258,0.11198955774307251,2.1517977714538574,-0.27591270208358765,0.0,0.0,0.0,0.0,0.0,0.0,0.0,-0.32207030477926263,0.08641605528710906,-0.22938436132170997,0.32337128908267637,-0.11992466687837376,-0.03538889283027245,-0.24985176468765044,1.6757881062114446,0.0523244471727756,0.029979092143868142,-2.7524091775818054,0.03425285511215528,2.7663626503015823,0.769163867149088,1.6754973547542302,0.052104326824870026,0.029969505109285054,-2.752394845125968,0.0342448039870148,2.7663679543071322,0.7691630533470046,0.00021724725434133226,0.00029417132717169373,0.0009767304115618854,-0.0006949207578417833,5.317009362997327e-05,0.0002414909516832815,0.0013675376496240074,0.0,0.0,0.0,0.0,0.0,0.0,0.0,-0.00029075145721435547,-0.0002201203479055766,-9.587034583088266e-06,1.4332455837262614e-05,-8.051125140476345e-06,5.304005549877644e-06,-8.138020833881043e-07,-0.00021724725434133226,-0.00029417132717169373,-0.0009767304115618854,0.0006949207578417833,-5.317009362997327e-05,-0.0002414909516832815,-0.0013675376496240074,0.3236324191093445,22.720483779907227,0.1729399859905243,-14.207185745239258,-0.11198955774307251,-2.1517977714538574,0.27591270208358765,0
34,0.16567516326904297,-0.3236324191093445,-22.720483779907227,-0.1729399859905243,14.207185745239258,0.11198955774307251,2.1517977714538574,-0.27591270208358765,0.0,0.0,0.0,0.0,0.0,0.0,0.0,-0.32207030477926263,0.08641605528710906,-0.22938436132170997,0.32337128908267637,-0.11992466687837376,-0.03538889283027245,-0.24985176468765044,1.6757881062114446,0.0523244471727756,0.029979092143868142,-2.7524091775818054,0.03425285511215528,2.7663626503015823,0.769163867149088,1.6754973547542302,0.052104326824870026,0.029969505109285054,-2.752394845125968,0.0342448039870148,2.7663679543071322,0.7691630533470046,0.00021724725434133226,0.00029417132717169373,0.0009767304115618854,-0.0006949207578417833,5.317009362997327e-05,0.0002414909516832815,0.0013675376496240074,0.0,0.0,0.0,0.0,0.0,0.0,0.0,-0.00029075145721435547,-0.0002201203479055766,-9.587034583088266e-06,1.4332455837262614e-05,-8.051125140476345e-06,5.304005549877644e-06,-8.138020833881043e-07,-0.00021724725434133226,-0.00029417132717169373,-0.0009767304115618854,0.0006949207578417833,-5.317009362997327e-05,-0.0002414909516832815,-0.0013675376496240074,0.3236324191093445,22.720483779907227,0.1729399859905243,-14.207185745239258,-0.11198955774307251,-2.1517977714538574,0.27591270208358765,0
35,0.1699378490447998,-0.3514034152030945,-22.696680068969727,-0.09756157547235489,14.179414749145508,0.11748272180557251,2.1453890800476074,-0.26217979192733765,0.0,0.0,0.0,0.0,0.0,0.0,0.0,-0.322203941257499,0.08139066220015917,-0.23085431008517038,0.32496279125760036,-0.12018266043743028,-0.03399448187961315,-0.24928980343417698,1.6757900550532756,0.05232277673692034,0.029973802430849322,-2.752407456299508,0.03425224459820396,2.766366894589246,0.7691623412701818,1.6754973547542302,0.052104326824870026,0.029969505109285054,-2.752394845125968,0.0342448039870148,2.7663679543071322,0.7691630533470046,0.0006294990760735076,-0.0004407171735467975,-0.001060346197263658,0.00024818870964312426,-0.00026109956948017264,0.00014747332035850092,0.0005937892245654801,0.0,0.0,0.0,0.0,0.0,0.0,0.0,-0.00029270029904537864,-0.00021844991205031278,-4.297321564268597e-06,1.2611173539678333e-05,-7.44061118915923e-06,1.0597178863314127e-06,7.120768228396912e-07,-0.0006294990760735076,0.0004407171735467975,0.001060346197263658,-0.00024818870964312426,0.00026109956948017264,-0.00014747332035850092,-0.0005937892245654801,0.3514034152030945,22.696680068969727,0.09756157547235489,-14.179414749145508,-0.11748272180557251,-2.1453890800476074,0.26217979192733765,0
36,0.17494773864746094,-0.3514034152030945,-22.696680068969727,-0.09756157547235489,14.179414749145508,0.11748272180557251,2.1453890800476074,-0.26217979192733765,0.0,0.0,0.0,0.0,0.0,0.0,0.0,-0.322203941257499,0.08139066220015917,-0.23085431008517038,0.32496279125760036,-0.12018266043743028,-0.03399448187961315,-0.24928980343417698,1.6757900550532756,0.05232277673692034,0.029973802430849322,-2.752407456299508,0.03425224459820396,2.766366894589246,0.7691623412701818,1.6754973547542302,0.052104326824870026,0.029969505109285054,-2.752394845125968,0.0342448039870148,2.7663679543071322,0.7691630533470046,0.0006294990760735076,-0.0004407171735467975,-0.001060346197263658,0.00024818870964312426,-0.00026109956948017264,0.00014747332035850092,0.0005937892245654801,0.0,0.0,0.0,0.0,0.0,0.0,0.0,-0.00029270029904537864,-0.00021844991205031278,-4.297321564268597e-06,1.2611173539678333e-05,-7.44061118915923e-06,1.0597178863314127e-06,7.120768228396912e-07,-0.0006294990760735076,0.0004407171735467975,0.001060346197263658,-0.00024818870964312426,0.00026109956948017264,-0.00014747332035850092,-0.0005937892245654801,0.3514034152030945,22.696680068969727,0.09756157547235489,-14.179414749145508,-0.11748272180557251,-2.1453890800476074,0.26217979192733765,0
37,0.17994260787963867,-0.3514034152030945,-22.672876358032227,-0.2007109820842743,14.179414749145508,0.11748272180557251,2.1517977714538574,-0.26217979192733765,0.0,0.0,0.0,0.0,0.0,0.0,0.0,-0.32507053913124423,0.0863097791207829,-0.23198826437280312,0.321186362620307,-0.1204012160157145,-0.03498980719851397,-0.2486056206242885,1.6757900550532756,0.052321106301065075,0.029981040985699283,-2.752408027109974,0.03425224476059186,2.7663672276349898,0.7691623412701818,1.6754973547542302,0.052104326824870026,0.029969505109285054,-2.752394845125968,0.0342448039870148,2.7663679543071322,0.7691630533470046,0.0002369558628395811,-0.0009464391682345435,0.0010307103514593267,5.930582550705981e-05,-0.00014234922834839366,-0.0002482115246157356,0.0016095954090379252,0.0,0.0,0.0,0.0,0.0,0.0,0.0,-0.00029270029904537864,-0.00021677947619504895,-1.1535876414229401e-05,1.318198400568349e-05,-7.440773577060966e-06,7.266721424592504e-07,7.120768228396912e-07,-0.0002369558628395811,0.0009464391682345435,-0.0010307103514593267,-5.930582550705981e-05,0.00014234922834839366,0.0002482115246157356,-0.0016095954090379252,0.3514034152030945,22.672876358032227,0.2007109820842743,-14.179414749145508,-0.11748272180557251,-2.1517977714538574,0.26217979192733765,0
38,0.1849517822265625,-0.3514034152030945,-22.672876358032227,-0.2007109820842743,14.179414749145508,0.11748272180557251,2.1517977714538574,-0.26217979192733765,0.0,0.0,0.0,0.0,0.0,0.0,0.0,-0.32507053913124423,0.0863097791207829,-0.23198826437280312,0.321186362620307,-0.1204012160157145,-0.03498980719851397,-0.2486056206242885,1.6757900550532756,0.052321106301065075,0.029981040985699283,-2.752408027109974,0.03425224476059186,2.7663672276349898,0.7691623412701818,1.6754973547542302,0.052104326824870026,0.029969505109285054,-2.752394845125968,0.0342448039870148,2.7663679543071322,0.7691630533470046,0.0002369558628395811,-0.0009464391682345435,0.0010307103514593267,5.930582550705981e-05,-0.00014234922834839366,-0.0002482115246157356,0.0016095954090379252,0.0,0.0,0.0,0.0,0.0,0.0,0.0,-0.00029270029904537864,-0.00021677947619504895,-1.1535876414229401e-05,1.318198400568349e-05,-7.440773577060966e-06,7.266721424592504e-07,7.120768228396912e-07,-0.0002369558628395811,0.0009464391682345435,-0.0010307103514593267,-5.930582550705981e-05,0.00014234922834839366,0.0002482115246157356,-0.0016095954090379252,0.3514034152030945,22.672876358032227,0.2007109820842743,-14.179414749145508,-0.11748272180557251,-2.1517977714538574,0.26217979192733765,0
39,0.1899580955505371,-0.3236324191093445,-22.720483779907227,-0.1491362750530243,14.207185745239258,0.11748272180557251,2.1582064628601074,-0.26858848333358765,0.0,0.0,0.0,0.0,0.0,0.0,0.0,-0.3244470915534945,0.08827940996692868,-0.23199321710710027,0.3237411099378847,-0.12035139428085696,-0.03527418967243573,-0.24770624387481377,1.6757881062114446,0.0523244471727756,0.029977421708012878,-2.7524091490787437,0.034252243299093425,2.766365117302565,0.7691630533470046,1.6754973547542302,0.052104326824870026,0.029969505109285054,-2.752394845125968,0.0342448039870148,2.7663679543071322,0.7691630533470046,-0.0003040686582198641,0.0006463148804719149,-0.0002662274540972013,-0.0003385762179206834,-0.00036611771992399683,-0.0003790004328403606,0.0004744004945174172,0.0,0.0,0.0,0.0,0.0,0.0,0.0,-0.00029075145721435547,-0.0002201203479055766,-7.916598727824437e-06,1.4303952775573947e-05,-7.439312078624805e-06,2.837004567268764e-06,0.0,0.0003040686582198641,-0.0006463148804719149,0.0002662274540972013,0.0003385762179206834,0.00036611771992399683,0.0003790004328403606,-0.0004744004945174172,0.3236324191093445,22.720483779907227,0.1491362750530243,-14.207185745239258,-0.11748272180557251,-2.1582064628601074,0.26858848333358765,0
40,0.1949470043182373,-0.3236324191093445,-22.720483779907227,-0.1491362750530243,14.207185745239258,0.11748272180557251,2.1582064628601074,-0.26858848333358765,0.0,0.0,0.0,0.0,0.0,0.0,0.0,-0.3244470915534945,0.08827940996692868,-0.23199321710710027,0.3237411099378847,-0.12035139428085696,-0.03527418967243573,-0.24770624387481377,1.6757881062114446,0.0523244471727756,0.029977421708012878,-2.7524091490787437,0.034252243299093425,2.766365117302565,0.7691630533470046,1.6754973547542302,0.052104326824870026,0.029969505109285054,-2.752394845125968,0.0342448039870148,2.7663679543071322,0.7691630533470046,-0.0003040686582198641,0.0006463148804719149,-0.0002662274540972013,-0.0003385762179206834,-0.00036611771992399683,-0.0003790004328403606,0.0004744004945174172,0.0,0.0,0.0,0.0,0.0,0.0,0.0,-0.00029075145721435547,-0.0002201203479055766,-7.916598727824437e-06,1.4303952775573947e-05,-7.439312078624805e-06,2.837004567268764e-06,0.0,0.0003040686582198641,-0.0006463148804719149,0.0002662274540972013,0.0003385762179206834,0.00036611771992399683,0.0003790004328403606,-0.0004744004945174172,0.3236324191093445,22.720483779907227,0.1491362750530243,-14.207185745239258,-0.11748272180557251,-2.1582064628601074,0.26858848333358765,0
41,0.19993233680725098,-0.3236324191093445,-22.720483779907227,-0.1491362750530243,14.207185745239258,0.11748272180557251,2.1582064628601074,-0.26858848333358765,0.0,0.0,0.0,0.0,0.0,0.0,0.0,-0.3244470915534945,0.08827940996692868,-0.23199321710710027,0.3237411099378847,-0.12035139428085696,-0.03527418967243573,-0.24770624387481377,1.6757881062114446,0.0523244471727756,0.029977421708012878,-2.7524091490787437,0.034252243299093425,2.766365117302565,0.7691630533470046,1.6754973547542302,0.052104326824870026,0.029969505109285054,-2.752394845125968,0.0342448039870148,2.7663679543071322,0.7691630533470046,-0.0003040686582198641,0.0006463148804719149,-0.0002662274540972013,-0.0003385762179206834,-0.00036611771992399683,-0.0003790004328403606,0.0004744004945174172,0.0,0.0,0.0,0.0,0.0,0.0,0.0,-0.00029075145721435547,-0.0002201203479055766,-7.916598727824437e-06,1.4303952775573947e-05,-7.439312078624805e-06,2.837004567268764e-06,0.0,0.0003040686582198641,-0.0006463148804719149,0.0002662274540972013,0.0003385762179206834,0.00036611771992399683,0.0003790004328403606,-0.0004744004945174172,0.3236324191093445,22.720483779907227,0.1491362750530243,-14.207185745239258,-0.11748272180557251,-2.1582064628601074,0.26858848333358765,0
42,0.2050158977508545,-0.3236324191093445,-22.720483779907227,-0.1491362750530243,14.207185745239258,0.11748272180557251,2.1582064628601074,-0.26858848333358765,0.0,0.0,0.0,0.0,0.0,0.0,0.0,-0.3244470915534945,0.08827940996692868,-0.23199321710710027,0.3237411099378847,-0.12035139428085696,-0.03527418967243573,-0.24770624387481377,1.6757881062114446,0.0523244471727756,0.029977421708012878,-2.7524091490787437,0.034252243299093425,2.766365117302565,0.7691630533470046,1.6754973547542302,0.052104326824870026,0.029969505109285054,-2.752394845125968,0.0342448039870148,2.7663679543071322,0.7691630533470046,-0.0003040686582198641,0.0006463148804719149,-0.0002662274540972013,-0.0003385762179206834,-0.00036611771992399683,-0.0003790004328403606,0.0004744004945174172,0.0,0.0,0.0,0.0,0.0,0.0,0.0,-0.00029075145721435547,-0.0002201203479055766,-7.916598727824437e-06,1.4303952775573947e-05,-7.439312078624805e-06,2.837004567268764e-06,0.0,0.0003040686582198641,-0.0006463148804719149,0.0002662274540972013,0.0003385762179206834,0.00036611771992399683,0.0003790004328403606,-0.0004744004945174172,0.3236324191093445,22.720483779907227,0.1491362750530243,-14.207185745239258,-0.11748272180557251,-2.1582064628601074,0.26858848333358765,0
43,0.20993590354919434,-0.3752071261405945,-22.748254776000977,-0.1491362750530243,14.207185745239258,0.11198955774307251,2.1582064628601074,-0.23471395671367645,0.0,0.0,0.0,0.0,0.0,0.0,0.0,-0.32585100433760533,0.08939612313346948,-0.23447964227031012,0.3235094846376995,-0.12030762565843854,-0.035622729953357704,-0.24922329279656327,1.675791725489131,0.052326396014606744,0.029977421708012878,-2.7524098946645994,0.034252855112147026,2.7663664124079412,0.7691592895107136,1.6754973547542302,0.052104326824870026,0.029969505109285054,-2.752394845125968,0.0342448039870148,2.7663679543071322,0.7691630533470046,0.0010748573500195242,0.0010159505467546997,-0.00019735713364338653,-0.0003266428041948622,0.00014317926544269398,-0.0003453229318141547,-0.0007317067371804837,0.0,0.0,0.0,0.0,0.0,0.0,0.0,-0.00029437073490079513,-0.00022206918973671774,-7.916598727824437e-06,1.5049538631295434e-05,-8.051125132226e-06,1.5418991909932345e-06,3.763836291081901e-06,-0.0010748573500195242,-0.0010159505467546997,0.00019735713364338653,0.0003266428041948622,-0.00014317926544269398,0.0003453229318141547,0.0007317067371804837,0.3752071261405945,22.748254776000977,0.1491362750530243,-14.207185745239258,-0.11198955774307251,-2.1582064628601074,0.23471395671367645,0
44,0.21494221687316895,-0.3752071261405945,-22.748254776000977,-0.1491362750530243,14.207185745239258,0.11198955774307251,2.1582064628601074,-0.23471395671367645,0.0,0.0,0.0,0.0,0.0,0.0,0.0,-0.32585100433760533,0.08939612313346948,-0.23447964227031012,0.3235094846376995,-0.12030762565843854,-0.035622729953357704,-0.24922329279656327,1.675791725489131,0.052326396014606744,0.029977421708012878,-2.7524098946645994,0.034252855112147026,2.7663664124079412,0.7691592895107136,1.6754973547542302,0.052104326824870026,0.029969505109285054,-2.752394845125968,0.0342448039870148,2.7663679543071322,0.7691630533470046,0.0010748573500195242,0.0010159505467546997,-0.00019735713364338653,-0.0003266428041948622,0.00014317926544269398,-0.0003453229318141547,-0.0007317067371804837,0.0,0.0,0.0,0.0,0.0,0.0,0.0,-0.00029437073490079513,-0.00022206918973671774,-7.916598727824437e-06,1.5049538631295434e-05,-8.051125132226e-06,1.5418991909932345e-06,3.763836291081901e-06,-0.0010748573500195242,-0.0010159505467546997,0.00019735713364338653,0.0003266428041948622,-0.00014317926544269398,0.0003453229318141547,0.0007317067371804837,0.3752071261405945,22.748254776000977,0.1491362750530243,-14.207185745239258,-0.11198955774307251,-2.1582064628601074,0.23471395671367645,0
45,0.21995067596435547,-0.2998287081718445,-22.720483779907227,-0.1253325641155243,14.155611038208008,0.11198955774307251,2.1517977714538574,-0.21457235515117645,0.0,0.0,0.0,0.0,0.0,0.0,0.0,-0.3221573950241382,0.0913055766160825,-0.22980130554966996,0.3233519533337864,-0.12077064950012953,-0.03604554219820917,-0.24914164303503225,1.6757864357755894,0.0523244471727756,0.029975751272157614,-2.752406280365494,0.03425285511215528,2.7663640582547484,0.7691570515549844,1.6754973547542302,0.052104326824870026,0.029969505109285054,-2.752394845125968,0.0342448039870148,2.7663679543071322,0.7691630533470046,-1.213554910882767e-06,0.00048485343393886535,-0.00027114009559837206,0.0009257114792471895,9.711155805454874e-05,-0.0002147810455795609,-0.0011852028927962013,0.0,0.0,0.0,0.0,0.0,0.0,0.0,-0.00028908102135916103,-0.0002201203479055766,-6.246162872560607e-06,1.1435239525958707e-05,-8.051125140476345e-06,3.8960523838227346e-06,6.00179202026041e-06,1.213554910882767e-06,-0.00048485343393886535,0.00027114009559837206,-0.0009257114792471895,-9.711155805454874e-05,0.0002147810455795609,0.0011852028927962013,0.2998287081718445,22.720483779907227,0.1253325641155243,-14.155611038208008,-0.11198955774307251,-2.1517977714538574,0.21457235515117645,0
46,0.22496271133422852,-0.2998287081718445,-22.720483779907227,-0.1253325641155243,14.155611038208008,0.11198955774307251,2.1517977714538574,-0.21457235515117645,0.0,0.0,0.0,0.0,0.0,0.0,0.0,-0.3221573950241382,0.0913055766160825,-0.22980130554966996,0.3233519533337864,-0.12077064950012953,-0.03604554219820917,-0.24914164303503225,1.6757864357755894,0.0523244471727756,0.029975751272157614,-2.752406280365494,0.03425285511215528,2.7663640582547484,0.7691570515549844,1.6754973547542302,0.052104326824870026,0.029969505109285054,-2.752394845125968,0.0342448039870148,2.7663679543071322,0.7691630533470046,-1.213554910882767e-06,0.00048485343393886535,-0.00027114009559837206,0.0009257114792471895,9.711155805454874e-05,-0.0002147810455795609,-0.0011852028927962013,0.0,0.0,0.0,0.0,0.0,0.0,0.0,-0.00028908102135916103,-0.0002201203479055766,-6.246162872560607e-06,1.1435239525958707e-05,-8.051125140476345e-06,3.8960523838227346e-06,6.00179202026041e-06,1.213554910882767e-06,-0.00048485343393886535,0.00027114009559837206,-0.0009257114792471895,-9.711155805454874e-05,0.0002147810455795609,0.0011852028927962013,0.2998287081718445,22.720483779907227,0.1253325641155243,-14.155611038208008,-0.11198955774307251,-2.1517977714538574,0.21457235515117645,0
47,0.229949951171875,-0.3236324191093445,-22.720483779907227,-0.1491362750530243,14.155611038208008,0.11748272180557251,2.1582064628601074,-0.25485557317733765,0.0,0.0,0.0,0.0,0.0,0.0,0.0,-0.3252002826947849,0.08969127094382,-0.233505050186388,0.3265777544451555,-0.12037633412076054,-0.036416047426976954,-0.24801083680327765,1.6757881062114446,0.0523244471727756,0.029977421708012878,-2.7524055386188313,0.03425188961625099,2.766366516892055,0.7691615274680984,1.6754973547542302,0.052104326824870026,0.029969505109285054,-2.752394845125968,0.0342448039870148,2.7663679543071322,0.7691630533470046,0.00019925981674466444,0.0003260535120668975,-4.499291876678442e-05,0.0011854821277451823,-0.00030643158325483285,-0.0003457167625562684,0.00036398284213112617,0.0,0.0,0.0,0.0,0.0,0.0,0.0,-0.00029075145721435547,-0.0002201203479055766,-7.916598727824437e-06,1.069349286320076e-05,-7.085629236187885e-06,1.4374150771878647e-06,1.5258789062277955e-06,-0.00019925981674466444,-0.0003260535120668975,4.499291876678442e-05,-0.0011854821277451823,0.00030643158325483285,0.0003457167625562684,-0.00036398284213112617,0.3236324191093445,22.720483779907227,0.1491362750530243,-14.155611038208008,-0.11748272180557251,-2.1582064628601074,0.25485557317733765,0
48,0.23494267463684082,-0.3236324191093445,-22.720483779907227,-0.1491362750530243,14.155611038208008,0.11748272180557251,2.1582064628601074,-0.25485557317733765,0.0,0.0,0.0,0.0,0.0,0.0,0.0,-0.3252002826947849,0.08969127094382,-0.233505050186388,0.3265777544451555,-0.12037633412076054,-0.036416047426976954,-0.24801083680327765,1.6757881062114446,0.0523244471727756,0.029977421708012878,-2.7524055386188313,0.03425188961625099,2.766366516892055,0.7691615274680984,1.6754973547542302,0.052104326824870026,0.029969505109285054,-2.752394845125968,0.0342448039870148,2.7663679543071322,0.7691630533470046,0.00019925981674466444,0.0003260535120668975,-4.499291876678442e-05,0.0011854821277451823,-0.00030643158325483285,-0.0003457167625562684,0.00036398284213112617,0.0,0.0,0.0,0.0,0.0,0.0,0.0,-0.00029075145721435547,-0.0002201203479055766,-7.916598727824437e-06,1.069349286320076e-05,-7.085629236187885e-06,1.4374150771878647e-06,1.5258789062277955e-06,-0.00019925981674466444,-0.0003260535120668975,4.499291876678442e-05,-0.0011854821277451823,0.00030643158325483285,0.0003457167625562684,-0.00036398284213112617,0.3236324191093445,22.720483779907227,0.1491362750530243,-14.155611038208008,-0.11748272180557251,-2.1582064628601074,0.25485557317733765,0
49,0.2399463653564453,-0.3236324191093445,-22.696680068969727,-0.1729399859905243,14.207185745239258,0.11748272180557251,2.1453890800476074,-0.28232139348983765,0.0,0.0,0.0,0.0,0.0,0.0,0.0,-0.32605752457860215,0.09743239993377728,-0.23257688678490512,0.3216345043179017,-0.12011970566791659,-0.03725666185545729,-0.24924448706316035,1.6757881062114446,0.05232277673692034,0.029979092143868142,-2.7524094052542813,0.034252121992642666,2.766364657655099,0.769164579225911,1.6754973547542302,0.052104326824870026,0.029969505109285054,-2.752394845125968,0.0342448039870148,2.7663679543071322,0.7691630533470046,-0.0002062002648024423,0.0003886316256522749,0.0002982617324630531,-0.000499656270807495,-0.00022296113178871022,-6.423999997046138e-05,0.001262704009261145,0.0,0.0,0.0,0.0,0.0,0.0,0.0,-0.00029075145721435547,-0.00021844991205031278,-9.587034583088266e-06,1.4560128313245713e-05,-7.318005627865443e-06,3.296652033135672e-06,-1.5258789063388178e-06,0.0002062002648024423,-0.0003886316256522749,-0.0002982617324630531,0.000499656270807495,0.00022296113178871022,6.423999997046138e-05,-0.001262704009261145,0.3236324191093445,22.696680068969727,0.1729399859905243,-14.207185745239258,-0.11748272180557251,-2.1453890800476074,0.28232139348983765,0
50,0.24494552612304688,-0.3236324191093445,-22.696680068969727,-0.1729399859905243,14.207185745239258,0.11748272180557251,2.1453890800476074,-0.28232139348983765,0.0,0.0,0.0,0.0,0.0,0.0,0.0,-0.32605752457860215,0.09743239993377728,-0.23257688678490512,0.3216345043179017,-0.12011970566791659,-0.03725666185545729,-0.24924448706316035,1.6757881062114446,0.05232277673692034,0.029979092143868142,-2.7524094052542813,0.034252121992642666,2.766364657655099,0.769164579225911,1.6754973547542302,0.052104326824870026,0.029969505109285054,-2.752394845125968,0.0342448039870148,2.7663679543071322,0.7691630533470046,-0.0002062002648024423,0.0003886316256522749,0.0002982617324630531,-0.000499656270807495,-0.00022296113178871022,-6.423999997046138e-05,0.001262704009261145,0.0,0.0,0.0,0.0,0.0,0.0,0.0,-0.00029075145721435547,-0.00021844991205031278,-9.587034583088266e-06,1.4560128313245713e-05,-7.318005627865443e-06,3.296652033135672e-06,-1.5258789063388178e-06,0.0002062002648024423,-0.0003886316256522749,-0.0002982617324630531,0.000499656270807495,0.00022296113178871022,6.423999997046138e-05,-0.001262704009261145,0.3236324191093445,22.696680068969727,0.1729399859905243,-14.207185745239258,-0.11748272180557251,-2.1453890800476074,0.28232139348983765,0
51,0.24994730949401855,-0.3236324191093445,-22.696680068969727,-0.1491362750530243,14.179414749145508,0.10558086633682251,2.1517977714538574,-0.26858848333358765,0.0,0.0,0.0,0.0,0.0,0.0,0.0,-0.32633620624379617,0.0930792180303512,-0.2327143475557499,0.3244196776891083,-0.11998323485439004,-0.036759006075673895,-0.25042584936658363,1.6757881062114446,0.05232277673692034,0.029977421708012878,-2.752407447482588,0.034253567188285164,2.7663668875454395,0.7691630533470046,1.6754973547542302,0.052104326824870026,0.029969505109285054,-2.752394845125968,0.0342448039870148,2.7663679543071322,0.7691630533470046,-3.653182490347027e-05,-0.00021930112609090002,-0.0007032528912523801,-8.981680297532995e-05,0.00026154555739585193,-9.230730110675458e-05,-0.004087174656524746,0.0,0.0,0.0,0.0,0.0,0.0,0.0,-0.00029075145721435547,-0.00021844991205031278,-7.916598727824437e-06,1.2602356620039501e-05,-8.763201270363397e-06,1.0667616927584334e-06,0.0,3.653182490347027e-05,0.00021930112609090002,0.0007032528912523801,8.981680297532995e-05,-0.00026154555739585193,9.230730110675458e-05,0.004087174656524746,0.3236324191093445,22.696680068969727,0.1491362750530243,-14.179414749145508,-0.10558086633682251,-2.1517977714538574,0.26858848333358765,0
52,0.2549433708190918,-0.3236324191093445,-22.696680068969727,-0.1491362750530243,14.179414749145508,0.10558086633682251,2.1517977714538574,-0.26858848333358765,0.0,0.0,0.0,0.0,0.0,0.0,0.0,-0.32633620624379617,0.0930792180303512,-0.2327143475557499,0.3244196776891083,-0.11998323485439004,-0.036759006075673895,-0.25042584936658363,1.6757881062114446,0.05232277673692034,0.029977421708012878,-2.752407447482588,0.034253567188285164,2.7663668875454395,0.7691630533470046,1.6754973547542302,0.052104326824870026,0.029969505109285054,-2.752394845125968,0.0342448039870148,2.7663679543071322,0.7691630533470046,-3.653182490347027e-05,-0.00021930112609090002,-0.0007032528912523801,-8.981680297532995e-05,0.00026154555739585193,-9.230730110675458e-05,-0.004087174656524746,0.0,0.0,0.0,0.0,0.0,0.0,0.0,-0.00029075145721435547,-0.00021844991205031278,-7.916598727824437e-06,1.2602356620039501e-05,-8.763201270363397e-06,1.0667616927584334e-06,0.0,3.653182490347027e-05,0.00021930112609090002,0.0007032528912523801,8.981680297532995e-05,-0.00026154555739585193,9.230730110675458e-05,0.004087174656524746,0.3236324191093445,22.696680068969727,0.1491362750530243,-14.179414749145508,-0.10558086633682251,-2.1517977714538574,0.26858848333358765,0
53,0.2599599361419678,-0.3236324191093445,-22.649072647094727,-0.1491362750530243,14.179414749145508,0.10008770227432251,2.1517977714538574,-0.28964561223983765,0.0,0.0,0.0,0.0,0.0,0.0,0.0,-0.3192077319467272,0.09578313975821987,-0.22909972353444438,0.32391244780589495,-0.12041872388320005,-0.036076935460353246,-0.24935844225495227,1.6757881062114446,0.05231943586520981,0.029977421708012878,-2.752407950798536,0.034254177540540685,2.7663670851910456,0.7691653930279942,1.6754973547542302,0.052104326824870026,0.029969505109285054,-2.752394845125968,0.0342448039870148,2.7663679543071322,0.7691630533470046,0.00024959564141106003,-0.0009045482639454354,0.0003184093459507759,0.00032189916805084977,0.00036245447990689955,-0.00011260794671092351,0.0013124791212151656,0.0,0.0,0.0,0.0,0.0,0.0,0.0,-0.00029075145721435547,-0.00021510904033978512,-7.916598727824437e-06,1.3105672568070048e-05,-9.37355352588487e-06,8.69116086654742e-07,-2.3396809896159e-06,-0.00024959564141106003,0.0009045482639454354,-0.0003184093459507759,-0.00032189916805084977,-0.00036245447990689955,0.00011260794671092351,-0.0013124791212151656,0.3236324191093445,22.649072647094727,0.1491362750530243,-14.179414749145508,-0.10008770227432251,-2.1517977714538574,0.28964561223983765,0
54,0.2649800777435303,-0.3236324191093445,-22.649072647094727,-0.1491362750530243,14.179414749145508,0.10008770227432251,2.1517977714538574,-0.28964561223983765,0.0,0.0,0.0,0.0,0.0,0.0,0.0,-0.3192077319467272,0.09578313975821987,-0.22909972353444438,0.32391244780589495,-0.12041872388320005,-0.036076935460353246,-0.24935844225495227,1.6757881062114446,0.05231943586520981,0.029977421708012878,-2.752407950798536,0.034254177540540685,2.7663670851910456,0.7691653930279942,1.6754973547542302,0.052104326824870026,0.029969505109285054,-2.752394845125968,0.0342448039870148,2.7663679543071322,0.7691630533470046,0.00024959564141106003,-0.0009045482639454354,0.0003184093459507759,0.00032189916805084977,0.00036245447990689955,-0.00011260794671092351,0.0013124791212151656,0.0,0.0,0.0,0.0,0.0,0.0,0.0,-0.00029075145721435547,-0.00021510904033978512,-7.916598727824437e-06,1.3105672568070048e-05,-9.37355352588487e-06,8.69116086654742e-07,-2.3396809896159e-06,-0.00024959564141106003,0.0009045482639454354,-0.0003184093459507759,-0.00032189916805084977,-0.00036245447990689955,0.00011260794671092351,-0.0013124791212151656,0.3236324191093445,22.649072647094727,0.1491362750530243,-14.179414749145508,-0.10008770227432251,-2.1517977714538574,0.28964561223983765,0
55,0.2700052261352539,-0.2998287081718445,-22.672876358032227,-0.1253325641155243,14.155611038208008,0.11198955774307251,2.1389803886413574,-0.26858848333358765,0.0,0.0,0.0,0.0,0.0,0.0,0.0,-0.31949124060164796,0.0886644956066116,-0.23168169642316463,0.32341513316333975,-0.12095658017065648,-0.03551427426329816,-0.2507516111284547,1.6757864357755894,0.052321106301065075,0.029975751272157614,-2.752407754701536,0.03425285511215528,2.7663685486454987,0.7691630533470046,1.6754973547542302,0.052104326824870026,0.029969505109285054,-2.752394845125968,0.0342448039870148,2.7663679543071322,0.7691630533470046,-7.231595269529731e-05,-0.0014115115638516744,-0.0006948303051926732,0.0008606024809554249,-0.00019588880215474675,0.0005017117973489801,0.00039814062061307613,0.0,0.0,0.0,0.0,0.0,0.0,0.0,-0.00028908102135916103,-0.00021677947619504895,-6.246162872560607e-06,1.2909575568098575e-05,-8.051125140476345e-06,-5.94338366521896e-07,0.0,7.231595269529731e-05,0.0014115115638516744,0.0006948303051926732,-0.0008606024809554249,0.00019588880215474675,-0.0005017117973489801,-0.00039814062061307613,0.2998287081718445,22.672876358032227,0.1253325641155243,-14.155611038208008,-0.11198955774307251,-2.1389803886413574,0.26858848333358765,0
56,0.2750277519226074,-0.2998287081718445,-22.672876358032227,-0.1253325641155243,14.155611038208008,0.11198955774307251,2.1389803886413574,-0.26858848333358765,0.0,0.0,0.0,0.0,0.0,0.0,0.0,-0.31949124060164796,0.0886644956066116,-0.23168169642316463,0.32341513316333975,-0.12095658017065648,-0.03551427426329816,-0.2507516111284547,1.6757864357755894,0.052321106301065075,0.029975751272157614,-2.752407754701536,0.03425285511215528,2.7663685486454987,0.7691630533470046,1.6754973547542302,0.052104326824870026,0.029969505109285054,-2.752394845125968,0.0342448039870148,2.7663679543071322,0.7691630533470046,-7.231595269529731e-05,-0.0014115115638516744,-0.0006948303051926732,0.0008606024809554249,-0.00019588880215474675,0.0005017117973489801,0.00039814062061307613,0.0,0.0,0.0,0.0,0.0,0.0,0.0,-0.00028908102135916103,-0.00021677947619504895,-6.246162872560607e-06,1.2909575568098575e-05,-8.051125140476345e-06,-5.94338366521896e-07,0.0,7.231595269529731e-05,0.0014115115638516744,0.0006948303051926732,-0.0008606024809554249,0.00019588880215474675,-0.0005017117973489801,-0.00039814062061307613,0.2998287081718445,22.672876358032227,0.1253325641155243,-14.155611038208008,-0.11198955774307251,-2.1389803886413574,0.26858848333358765,0
57,0.2799806594848633,-0.4029781222343445,-22.720483779907227,-0.1253325641155243,14.155611038208008,0.11198955774307251,2.1389803886413574,-0.24112264811992645,0.0,0.0,0.0,0.0,0.0,0.0,0.0,-0.3461567349484736,0.09420757014845615,-0.26110159249428244,0.31986147110669605,-0.11853457985767533,-0.036139795228220695,-0.250469874564031,1.675793674330962,0.0523244471727756,0.029975751272157614,-2.7524055325599277,0.03425285511215528,2.7663654831082516,0.7691600413239663,1.6754973547542302,0.052104326824870026,0.029969505109285054,-2.752394845125968,0.0342448039870148,2.7663679543071322,0.7691630533470046,0.0016726550187036071,0.0001207557290118639,0.00204558342834888,0.0009127717407886182,3.0826678305987635e-06,0.000347490412009117,-0.0001217912464211033,0.0,0.0,0.0,0.0,0.0,0.0,0.0,-0.0002963195767318183,-0.0002201203479055766,-6.246162872560607e-06,1.0687433959599701e-05,-8.051125140476345e-06,2.4711988806380702e-06,3.0120230383179347e-06,-0.0016726550187036071,-0.0001207557290118639,-0.00204558342834888,-0.0009127717407886182,-3.0826678305987635e-06,-0.000347490412009117,0.0001217912464211033,0.4029781222343445,22.720483779907227,0.1253325641155243,-14.155611038208008,-0.11198955774307251,-2.1389803886413574,0.24112264811992645,0
58,0.2849910259246826,-0.4029781222343445,-22.720483779907227,-0.1253325641155243,14.155611038208008,0.11198955774307251,2.1389803886413574,-0.24112264811992645,0.0,0.0,0.0,0.0,0.0,0.0,0.0,-0.3461567349484736,0.09420757014845615,-0.26110159249428244,0.31986147110669605,-0.11853457985767533,-0.036139795228220695,-0.250469874564031,1.675793674330962,0.0523244471727756,0.029975751272157614,-2.7524055325599277,0.03425285511215528,2.7663654831082516,0.7691600413239663,1.6754973547542302,0.052104326824870026,0.029969505109285054,-2.752394845125968,0.0342448039870148,2.7663679543071322,0.7691630533470046,0.0016726550187036071,0.0001207557290118639,0.00204558342834888,0.0009127717407886182,3.0826678305987635e-06,0.000347490412009117,-0.0001217912464211033,0.0,0.0,0.0,0.0,0.0,0.0,0.0,-0.0002963195767318183,-0.0002201203479055766,-6.246162872560607e-06,1.0687433959599701e-05,-8.051125140476345e-06,2.4711988806380702e-06,3.0120230383179347e-06,-0.0016726550187036071,-0.0001207557290118639,-0.00204558342834888,-0.0009127717407886182,-3.0826678305987635e-06,-0.000347490412009117,0.0001217912464211033,0.4029781222343445,22.720483779907227,0.1253325641155243,-14.155611038208008,-0.11198955774307251,-2.1389803886413574,0.24112264811992645,0
59,0.2899503707885742,-0.2998287081718445,-22.696680068969727,-0.1491362750530243,14.207185745239258,0.10558086633682251,2.1389803886413574,-0.25485557317733765,0.0,0.0,0.0,0.0,0.0,0.0,0.0,-0.33418124135405824,0.09182995591431047,-0.24431067078242585,0.32017188621516285,-0.11982928331208513,-0.03650083427225828,-0.24766717868680022,1.6757864357755894,0.05232277673692034,0.029977421708012878,-2.75240914873493,0.03425352772849577,2.766367604735954,0.7691615274683227,1.6754973547542302,0.052104326824870026,0.029969505109285054,-2.752394845125968,0.0342448039870148,2.7663679543071322,0.7691630533470046,-0.0013415524031411754,-0.0001257283207942448,0.00017985111517916153,-8.668607435823676e-05,0.0003851763513557266,0.00029073813310763144,0.00034175574359762186,0.0,0.0,0.0,0.0,0.0,0.0,0.0,-0.00028908102135916103,-0.00021844991205031278,-7.916598727824437e-06,1.4303608961707681e-05,-8.72374148096905e-06,3.495711782264266e-07,1.5258786819627446e-06,0.0013415524031411754,0.0001257283207942448,-0.00017985111517916153,8.668607435823676e-05,-0.0003851763513557266,-0.00029073813310763144,-0.00034175574359762186,0.2998287081718445,22.696680068969727,0.1491362750530243,-14.207185745239258,-0.10558086633682251,-2.1389803886413574,0.25485557317733765,0
60,0.2949392795562744,-0.2998287081718445,-22.696680068969727,-0.1491362750530243,14.207185745239258,0.10558086633682251,2.1389803886413574,-0.25485557317733765,0.0,0.0,0.0,0.0,0.0,0.0,0.0,-0.33418124135405824,0.09182995591431047,-0.24431067078242585,0.32017188621516285,-0.11982928331208513,-0.03650083427225828,-0.24766717868680022,1.6757864357755894,0.05232277673692034,0.029977421708012878,-2.75240914873493,0.03425352772849577,2.766367604735954,0.7691615274683227,1.6754973547542302,0.052104326824870026,0.029969505109285054,-2.752394845125968,0.0342448039870148,2.7663679543071322,0.7691630533470046,-0.0013415524031411754,-0.0001257283207942448,0.00017985111517916153,-8.668607435823676e-05,0.0003851763513557266,0.00029073813310763144,0.00034175574359762186,0.0,0.0,0.0,0.0,0.0,0.0,0.0,-0.00028908102135916103,-0.00021844991205031278,-7.916598727824437e-06,1.4303608961707681e-05,-8.72374148096905e-06,3.495711782264266e-07,1.5258786819627446e-06,0.0013415524031411754,0.0001257283207942448,-0.00017985111517916153,8.668607435823676e-05,-0.0003851763513557266,-0.00029073813310763144,-0.00034175574359762186,0.2998287081718445,22.696680068969727,0.1491362750530243,-14.207185745239258,-0.10558086633682251,-2.1389803886413574,0.25485557317733765,0
61,0.2949392795562744,-0.2998287081718445,-22.696680068969727,-0.1491362750530243,14.207185745239258,0.10558086633682251,2.1389803886413574,-0.25485557317733765,0.0,0.0,0.0,0.0,0.0,0.0,0.0,-0.33418124135405824,0.09182995591431047,-0.24431067078242585,0.32017188621516285,-0.11982928331208513,-0.03650083427225828,-0.24766717868680022,1.6757864357755894,0.05232277673692034,0.029977421708012878,-2.75240914873493,0.03425352772849577,2.766367604735954,0.7691615274683227,1.6754973547542302,0.052104326824870026,0.029969505109285054,-2.752394845125968,0.0342448039870148,2.7663679543071322,0.7691630533470046,-0.0013415524031411754,-0.0001257283207942448,0.00017985111517916153,-8.668607435823676e-05,0.0003851763513557266,0.00029073813310763144,0.00034175574359762186,0.0,0.0,0.0,0.0,0.0,0.0,0.0,-0.00028908102135916103,-0.00021844991205031278,-7.916598727824437e-06,1.4303608961707681e-05,-8.72374148096905e-06,3.495711782264266e-07,1.5258786819627446e-06,0.0013415524031411754,0.0001257283207942448,-0.00017985111517916153,8.668607435823676e-05,-0.0003851763513557266,-0.00029073813310763144,-0.00034175574359762186,0.2998287081718445,22.696680068969727,0.1491362750530243,-14.207185745239258,-0.10558086633682251,-2.1389803886413574,0.25485557317733765,0
62,0.304948091506958,-0.3236324191093445,-22.672876358032227,-0.1491362750530243,14.179414749145508,0.10558086633682251,2.1517977714538574,-0.20724813640117645,0.0,0.0,0.0,0.0,0.0,0.0,0.0,-0.31507928057113094,0.09069069255385322,-0.22217788686268974,0.32094679059725306,-0.1218974019620586,-0.037041286721811145,-0.24593967420175433,1.6757881062114446,0.052321106301065075,0.029977421708012878,-2.752408308047488,0.03425356670158899,2.766366051282148,0.7691562377529011,1.6754973547542302,0.052104326824870026,0.029969505109285054,-2.752394845125968,0.0342448039870148,2.7663679543071322,0.7691630533470046,-0.0004369573350425851,-0.0005526077038011534,0.0003288077367093181,0.000542760695464446,0.00021641841376425996,-0.00023332642263416677,-0.0018245641165400336,0.0,0.0,0.0,0.0,0.0,0.0,0.0,-0.00029075145721435547,-0.00021677947619504895,-7.916598727824437e-06,1.3462921519824533e-05,-8.76271457418698e-06,1.9030249842622027e-06,6.815594103537492e-06,0.0004369573350425851,0.0005526077038011534,-0.0003288077367093181,-0.000542760695464446,-0.00021641841376425996,0.00023332642263416677,0.0018245641165400336,0.3236324191093445,22.672876358032227,0.1491362750530243,-14.179414749145508,-0.10558086633682251,-2.1517977714538574,0.20724813640117645,0
63,0.3099329471588135,-0.3236324191093445,-22.672876358032227,-0.1491362750530243,14.179414749145508,0.10558086633682251,2.1517977714538574,-0.20724813640117645,0.0,0.0,0.0,0.0,0.0,0.0,0.0,-0.31507928057113094,0.09069069255385322,-0.22217788686268974,0.32094679059725306,-0.1218974019620586,-0.037041286721811145,-0.24593967420175433,1.6757881062114446,0.052321106301065075,0.029977421708012878,-2.752408308047488,0.03425356670158899,2.766366051282148,0.7691562377529011,1.6754973547542302,0.052104326824870026,0.029969505109285054,-2.752394845125968,0.0342448039870148,2.7663679543071322,0.7691630533470046,-0.0004369573350425851,-0.0005526077038011534,0.0003288077367093181,0.000542760695464446,0.00021641841376425996,-0.00023332642263416677,-0.0018245641165400336,0.0,0.0,0.0,0.0,0.0,0.0,0.0,-0.00029075145721435547,-0.00021677947619504895,-7.916598727824437e-06,1.3462921519824533e-05,-8.76271457418698e-06,1.9030249842622027e-06,6.815594103537492e-06,0.0004369573350425851,0.0005526077038011534,-0.0003288077367093181,-0.000542760695464446,-0.00021641841376425996,0.00023332642263416677,0.0018245641165400336,0.3236324191093445,22.672876358032227,0.1491362750530243,-14.179414749145508,-0.10558086633682251,-2.1517977714538574,0.20724813640117645,0
64,0.3149545192718506,-0.3236324191093445,-22.696680068969727,-0.1491362750530243,14.207185745239258,0.11198955774307251,2.1517977714538574,-0.22830526530742645,0.0,0.0,0.0,0.0,0.0,0.0,0.0,-0.3157380653644194,0.08956986713369328,-0.22202367352481792,0.32238835523795445,-0.12168833360444258,-0.03730078960478096,-0.24457054321363747,1.6757881062114446,0.05232277673692034,0.029977421708012878,-2.752409267786933,0.03425285072765448,2.7663637084814328,0.7691596503174966,1.6754973547542302,0.052104326824870026,0.029969505109285054,-2.752394845125968,0.0342448039870148,2.7663679543071322,0.7691630533470046,0.0007813111903552737,-0.0005942383840111187,0.00025704029413745316,-0.000512169372464863,0.00011664411434802756,-0.000127613517939977,-0.00012019888120194983,0.0,0.0,0.0,0.0,0.0,0.0,0.0,-0.00029075145721435547,-0.00021844991205031278,-7.916598727824437e-06,1.4422660965074385e-05,-8.046740639679195e-06,4.245825699467076e-06,3.4030295080755835e-06,-0.0007813111903552737,0.0005942383840111187,-0.00025704029413745316,0.000512169372464863,-0.00011664411434802756,0.000127613517939977,0.00012019888120194983,0.3236324191093445,22.696680068969727,0.1491362750530243,-14.207185745239258,-0.11198955774307251,-2.1517977714538574,0.22830526530742645,0
65,0.3199479579925537,-0.3236324191093445,-22.696680068969727,-0.1491362750530243,14.207185745239258,0.11198955774307251,2.1517977714538574,-0.22830526530742645,0.0,0.0,0.0,0.0,0.0,0.0,0.0,-0.3157380653644194,0.08956986713369328,-0.22202367352481792,0.32238835523795445,-0.12168833360444258,-0.03730078960478096,-0.24457054321363747,1.6757881062114446,0.05232277673692034,0.029977421708012878,-2.752409267786933,0.03425285072765448,2.7663637084814328,0.7691596503174966,1.6754973547542302,0.052104326824870026,0.029969505109285054,-2.752394845125968,0.0342448039870148,2.7663679543071322,0.7691630533470046,0.0007813111903552737,-0.0005942383840111187,0.00025704029413745316,-0.000512169372464863,0.00011664411434802756,-0.000127613517939977,-0.00012019888120194983,0.0,0.0,0.0,0.0,0.0,0.0,0.0,-0.00029075145721435547,-0.00021844991205031278,-7.916598727824437e-06,1.4422660965074385e-05,-8.046740639679195e-06,4.245825699467076e-06,3.4030295080755835e-06,-0.0007813111903552737,0.0005942383840111187,-0.00025704029413745316,0.000512169372464863,-0.00011664411434802756,0.000127613517939977,0.00012019888120194983,0.3236324191093445,22.696680068969727,0.1491362750530243,-14.207185745239258,-0.11198955774307251,-2.1517977714538574,0.22830526530742645,0
66,0.3249843120574951,-0.3236324191093445,-22.696680068969727,-0.1491362750530243,14.207185745239258,0.11198955774307251,2.1517977714538574,-0.22830526530742645,0.0,0.0,0.0,0.0,0.0,0.0,0.0,-0.3157380653644194,0.08956986713369328,-0.22202367352481792,0.32238835523795445,-0.12168833360444258,-0.03730078960478096,-0.24457054321363747,1.6757881062114446,0.05232277673692034,0.029977421708012878,-2.752409267786933,0.03425285072765448,2.7663637084814328,0.7691596503174966,1.6754973547542302,0.052104326824870026,0.029969505109285054,-2.752394845125968,0.0342448039870148,2.7663679543071322,0.7691630533470046,0.0007813111903552737,-0.0005942383840111187,0.00025704029413745316,-0.000512169372464863,0.00011664411434802756,-0.000127613517939977,-0.00012019888120194983,0.0,0.0,0.0,0.0,0.0,0.0,0.0,-0.00029075145721435547,-0.00021844991205031278,-7.916598727824437e-06,1.4422660965074385e-05,-8.046740639679195e-06,4.245825699467076e-06,3.4030295080755835e-06,-0.0007813111903552737,0.0005942383840111187,-0.00025704029413745316,0.000512169372464863,-0.00011664411434802756,0.000127613517939977,0.00012019888120194983,0.3236324191093445,22.696680068969727,0.1491362750530243,-14.207185745239258,-0.11198955774307251,-2.1517977714538574,0.22830526530742645,0
67,0.32994627952575684,-0.3236324191093445,-22.696680068969727,-0.1491362750530243,14.207185745239258,0.11198955774307251,2.1517977714538574,-0.22830526530742645,0.0,0.0,0.0,0.0,0.0,0.0,0.0,-0.3157380653644194,0.08956986713369328,-0.22202367352481792,0.32238835523795445,-0.12168833360444258,-0.03730078960478096,-0.24457054321363747,1.6757881062114446,0.05232277673692034,0.029977421708012878,-2.752409267786933,0.03425285072765448,2.7663637084814328,0.7691596503174966,1.6754973547542302,0.052104326824870026,0.029969505109285054,-2.752394845125968,0.0342448039870148,2.7663679543071322,0.7691630533470046,0.0007813111903552737,-0.0005942383840111187,0.00025704029413745316,-0.000512169372464863,0.00011664411434802756,-0.000127613517939977,-0.00012019888120194983,0.0,0.0,0.0,0.0,0.0,0.0,0.0,-0.00029075145721435547,-0.00021844991205031278,-7.916598727824437e-06,1.4422660965074385e-05,-8.046740639679195e-06,4.245825699467076e-06,3.4030295080755835e-06,-0.0007813111903552737,0.0005942383840111187,-0.00025704029413745316,0.000512169372464863,-0.00011664411434802756,0.000127613517939977,0.00012019888120194983,0.3236324191093445,22.696680068969727,0.1491362750530243,-14.207185745239258,-0.11198955774307251,-2.1517977714538574,0.22830526530742645,0
68,0.3349618911743164,-0.2720577120780945,-22.748254776000977,-0.1729399859905243,14.179414749145508,0.11748272180557251,2.1517977714538574,-0.20083944499492645,0.0,0.0,0.0,0.0,0.0,0.0,0.0,-0.3168800655374923,0.09285678333276014,-0.22665517199121116,0.3243919508812528,-0.12071361989098599,-0.037162823432844286,-0.24317157155854285,1.6757844869337581,0.052326396014606744,0.029979092143868142,-2.7524072854001926,0.03425224459817921,2.7663671896672115,0.7691555256821346,1.6754973547542302,0.052104326824870026,0.029969505109285054,-2.752394845125968,0.0342448039870148,2.7663679543071322,0.7691630533470046,-0.0009811710535623463,0.0009540358545755737,0.0011335089569018168,0.0002999077963893839,-0.00011060570952174504,-0.00025909698916837335,-0.00210897038498472,0.0,0.0,0.0,0.0,0.0,0.0,0.0,-0.0002871321795279158,-0.00022206918973671774,-9.587034583088266e-06,1.244027422453442e-05,-7.440611164408195e-06,7.646399207139609e-07,7.527664869999562e-06,0.0009811710535623463,-0.0009540358545755737,-0.0011335089569018168,-0.0002999077963893839,0.00011060570952174504,0.00025909698916837335,0.00210897038498472,0.2720577120780945,22.748254776000977,0.1729399859905243,-14.179414749145508,-0.11748272180557251,-2.1517977714538574,0.20083944499492645,0
69,0.3399648666381836,-0.2720577120780945,-22.748254776000977,-0.1729399859905243,14.179414749145508,0.11748272180557251,2.1517977714538574,-0.20083944499492645,0.0,0.0,0.0,0.0,0.0,0.0,0.0,-0.3168800655374923,0.09285678333276014,-0.22665517199121116,0.3243919508812528,-0.12071361989098599,-0.037162823432844286,-0.24317157155854285,1.6757844869337581,0.052326396014606744,0.029979092143868142,-2.7524072854001926,0.03425224459817921,2.7663671896672115,0.7691555256821346,1.6754973547542302,0.052104326824870026,0.029969505109285054,-2.752394845125968,0.0342448039870148,2.7663679543071322,0.7691630533470046,-0.0009811710535623463,0.0009540358545755737,0.0011335089569018168,0.0002999077963893839,-0.00011060570952174504,-0.00025909698916837335,-0.00210897038498472,0.0,0.0,0.0,0.0,0.0,0.0,0.0,-0.0002871321795279158,-0.00022206918973671774,-9.587034583088266e-06,1.244027422453442e-05,-7.440611164408195e-06,7.646399207139609e-07,7.527664869999562e-06,0.0009811710535623463,-0.0009540358545755737,-0.0011335089569018168,-0.0002999077963893839,0.00011060570952174504,0.00025909698916837335,0.00210897038498472,0.2720577120780945,22.748254776000977,0.1729399859905243,-14.179414749145508,-0.11748272180557251,-2.1517977714538574,0.20083944499492645,0
70,0.34493517875671387,-0.3236324191093445,-22.720483779907227,-0.1729399859905243,14.207185745239258,0.11198955774307251,2.1389803886413574,-0.22830526530742645,0.0,0.0,0.0,0.0,0.0,0.0,0.0,-0.31779067361996804,0.08962132555149682,-0.23014321387443756,0.32396654461384033,-0.11965801998157975,-0.03700248797422821,-0.24442810303270845,1.6757881062114446,0.0523244471727756,0.029979118450856424,-2.7524091519009044,0.03425285511215436,2.7663675935020713,0.7691585760348485,1.6754973547542302,0.052104326824870026,0.029969505109285054,-2.752394845125968,0.0342448039870148,2.7663679543071322,0.7691630533470046,0.00020026450291742506,-0.0001967544866496683,0.00017837369978500374,-0.0004965090119437865,0.0001246410868435036,0.0005165621487162136,-0.002702500375685793,0.0,0.0,0.0,0.0,0.0,0.0,0.0,-0.00029075145721435547,-0.0002201203479055766,-9.613341571370476e-06,1.430677493630128e-05,-8.051125139560411e-06,3.6080506093938425e-07,4.477312156137003e-06,-0.00020026450291742506,0.0001967544866496683,-0.00017837369978500374,0.0004965090119437865,-0.0001246410868435036,-0.0005165621487162136,0.002702500375685793,0.3236324191093445,22.720483779907227,0.1729399859905243,-14.207185745239258,-0.11198955774307251,-2.1389803886413574,0.22830526530742645,0
71,0.34993815422058105,-0.3236324191093445,-22.720483779907227,-0.1729399859905243,14.207185745239258,0.11198955774307251,2.1389803886413574,-0.22830526530742645,0.0,0.0,0.0,0.0,0.0,0.0,0.0,-0.31779067361996804,0.08962132555149682,-0.23014321387443756,0.32396654461384033,-0.11965801998157975,-0.03700248797422821,-0.24442810303270845,1.6757881062114446,0.0523244471727756,0.029979118450856424,-2.7524091519009044,0.03425285511215436,2.7663675935020713,0.7691585760348485,1.6754973547542302,0.052104326824870026,0.029969505109285054,-2.752394845125968,0.0342448039870148,2.7663679543071322,0.7691630533470046,0.00020026450291742506,-0.0001967544866496683,0.00017837369978500374,-0.0004965090119437865,0.0001246410868435036,0.0005165621487162136,-0.002702500375685793,0.0,0.0,0.0,0.0,0.0,0.0,0.0,-0.00029075145721435547,-0.0002201203479055766,-9.613341571370476e-06,1.430677493630128e-05,-8.051125139560411e-06,3.6080506093938425e-07,4.477312156137003e-06,-0.00020026450291742506,0.0001967544866496683,-0.00017837369978500374,0.0004965090119437865,-0.0001246410868435036,-0.0005165621487162136,0.002702500375685793,0.3236324191093445,22.720483779907227,0.1729399859905243,-14.207185745239258,-0.11198955774307251,-2.1389803886413574,0.22830526530742645,0
72,0.35495638847351074,-0.3236324191093445,-22.720483779907227,-0.1491362750530243,14.207185745239258,0.11748272180557251,2.1582064628601074,-0.27591270208358765,0.0,0.0,0.0,0.0,0.0,0.0,0.0,-0.31976134138612805,0.08326117051156176,-0.2356520952499877,0.32637453567023456,-0.11967664125777581,-0.03652121570868516,-0.24414199817702992,1.6757881062114446,0.0523244471727756,0.02997742170816138,-2.7524123639880744,0.034252244273426324,2.766366176288698,0.7691639732764175,1.6754973547542302,0.052104326824870026,0.029969505109285054,-2.752394845125968,0.0342448039870148,2.7663679543071322,0.7691630533470046,-0.0005939488127256147,-0.0007116663797531429,-0.0007740412007733776,-0.0002827033885943465,-0.00024207326365649435,-0.00027261121981115986,0.0006946932583234833,0.0,0.0,0.0,0.0,0.0,0.0,0.0,-0.00029075145721435547,-0.0002201203479055766,-7.916598876327174e-06,1.7518862106324917e-05,-7.440286411523889e-06,1.778018434261952e-06,-9.199294128681146e-07,0.0005939488127256147,0.0007116663797531429,0.0007740412007733776,0.0002827033885943465,0.00024207326365649435,0.00027261121981115986,-0.0006946932583234833,0.3236324191093445,22.720483779907227,0.1491362750530243,-14.207185745239258,-0.11748272180557251,-2.1582064628601074,0.27591270208358765,0
73,0.3599843978881836,-0.3236324191093445,-22.720483779907227,-0.1491362750530243,14.207185745239258,0.11748272180557251,2.1582064628601074,-0.27591270208358765,0.0,0.0,0.0,0.0,0.0,0.0,0.0,-0.31976134138612805,0.08326117051156176,-0.2356520952499877,0.32637453567023456,-0.11967664125777581,-0.03652121570868516,-0.24414199817702992,1.6757881062114446,0.0523244471727756,0.02997742170816138,-2.7524123639880744,0.034252244273426324,2.766366176288698,0.7691639732764175,1.6754973547542302,0.052104326824870026,0.029969505109285054,-2.752394845125968,0.0342448039870148,2.7663679543071322,0.7691630533470046,-0.0005939488127256147,-0.0007116663797531429,-0.0007740412007733776,-0.0002827033885943465,-0.00024207326365649435,-0.00027261121981115986,0.0006946932583234833,0.0,0.0,0.0,0.0,0.0,0.0,0.0,-0.00029075145721435547,-0.0002201203479055766,-7.916598876327174e-06,1.7518862106324917e-05,-7.440286411523889e-06,1.778018434261952e-06,-9.199294128681146e-07,0.0005939488127256147,0.0007116663797531429,0.0007740412007733776,0.0002827033885943465,0.00024207326365649435,0.00027261121981115986,-0.0006946932583234833,0.3236324191093445,22.720483779907227,0.1491362750530243,-14.207185745239258,-0.11748272180557251,-2.1582064628601074,0.27591270208358765,0
74,0.364957332611084,-0.3752071261405945,-22.720483779907227,-0.1491362750530243,14.207185745239258,0.11198955774307251,2.1517977714538574,-0.26858848333358765,0.0,0.0,0.0,0.0,0.0,0.0,0.0,-0.31964795087727893,0.08726665464202152,-0.23265723163133006,0.32156139904807163,-0.12048288269659471,-0.03674625445401612,-0.2477514079819771,1.675791725489131,0.0523244471727756,0.029977421708012878,-2.752409894903939,0.03425285511215517,2.7663671985998013,0.7691630533470268,1.6754973547542302,0.052104326824870026,0.029969505109285054,-2.752394845125968,0.0342448039870148,2.7663679543071322,0.7691630533470046,0.0012381460191114324,0.0004558719265407567,-0.00023338265824632165,-0.0005414744304529357,-5.479558824732714e-06,-5.255712520230432e-05,0.0007366740597390722,0.0,0.0,0.0,0.0,0.0,0.0,0.0,-0.00029437073490079513,-0.0002201203479055766,-7.916598727824437e-06,1.5049777970954636e-05,-8.051125140372262e-06,7.55707330934996e-07,-2.220446049250313e-14,-0.0012381460191114324,-0.0004558719265407567,0.00023338265824632165,0.0005414744304529357,5.479558824732714e-06,5.255712520230432e-05,-0.0007366740597390722,0.3752071261405945,22.720483779907227,0.1491362750530243,-14.207185745239258,-0.11198955774307251,-2.1517977714538574,0.26858848333358765,0
75,0.3699610233306885,-0.3752071261405945,-22.720483779907227,-0.1491362750530243,14.207185745239258,0.11198955774307251,2.1517977714538574,-0.26858848333358765,0.0,0.0,0.0,0.0,0.0,0.0,0.0,-0.31964795087727893,0.08726665464202152,-0.23265723163133006,0.32156139904807163,-0.12048288269659471,-0.03674625445401612,-0.2477514079819771,1.675791725489131,0.0523244471727756,0.029977421708012878,-2.752409894903939,0.03425285511215517,2.7663671985998013,0.7691630533470268,1.6754973547542302,0.052104326824870026,0.029969505109285054,-2.752394845125968,0.0342448039870148,2.7663679543071322,0.7691630533470046,0.0012381460191114324,0.0004558719265407567,-0.00023338265824632165,-0.0005414744304529357,-5.479558824732714e-06,-5.255712520230432e-05,0.0007366740597390722,0.0,0.0,0.0,0.0,0.0,0.0,0.0,-0.00029437073490079513,-0.0002201203479055766,-7.916598727824437e-06,1.5049777970954636e-05,-8.051125140372262e-06,7.55707330934996e-07,-2.220446049250313e-14,-0.0012381460191114324,-0.0004558719265407567,0.00023338265824632165,0.0005414744304529357,5.479558824732714e-06,5.255712520230432e-05,-0.0007366740597390722,0.3752071261405945,22.720483779907227,0.1491362750530243,-14.207185745239258,-0.11198955774307251,-2.1517977714538574,0.26858848333358765,0
76,0.3749384880065918,-0.2720577120780945,-22.672876358032227,-0.1253325641155243,14.179414749145508,0.10558086633682251,2.1453890800476074,-0.25485557317733765,0.0,0.0,0.0,0.0,0.0,0.0,0.0,-0.32400678562477697,0.08808662199162046,-0.2324070802311781,0.3203523023393648,-0.12089198045172019,-0.03685602731063874,-0.24974287284438262,1.6757844869337581,0.052321106301065075,0.029975751272157614,-2.752409429207306,0.03425356718897819,2.7663647361466412,0.7691615274680984,1.6754973547542302,0.052104326824870026,0.029969505109285054,-2.752394845125968,0.0342448039870148,2.7663679543071322,0.7691630533470046,-0.0014004411274683142,-0.000386664014533706,-0.0002585813838579644,0.0001872570429875685,0.00012095127658506464,0.00010947172011469907,0.000507069492639855,0.0,0.0,0.0,0.0,0.0,0.0,0.0,-0.0002871321795279158,-0.00021677947619504895,-6.246162872560607e-06,1.4584081337698507e-05,-8.763201963392364e-06,3.2181604909808925e-06,1.5258789062277955e-06,0.0014004411274683142,0.000386664014533706,0.0002585813838579644,-0.0001872570429875685,-0.00012095127658506464,-0.00010947172011469907,-0.000507069492639855,0.2720577120780945,22.672876358032227,0.1253325641155243,-14.179414749145508,-0.10558086633682251,-2.1453890800476074,0.25485557317733765,0
77,0.37995481491088867,-0.2720577120780945,-22.672876358032227,-0.1253325641155243,14.179414749145508,0.10558086633682251,2.1453890800476074,-0.25485557317733765,0.0,0.0,0.0,0.0,0.0,0.0,0.0,-0.32400678562477697,0.08808662199162046,-0.2324070802311781,0.3203523023393648,-0.12089198045172019,-0.03685602731063874,-0.24974287284438262,1.6757844869337581,0.052321106301065075,0.029975751272157614,-2.752409429207306,0.03425356718897819,2.7663647361466412,0.7691615274680984,1.6754973547542302,0.052104326824870026,0.029969505109285054,-2.752394845125968,0.0342448039870148,2.7663679543071322,0.7691630533470046,-0.0014004411274683142,-0.000386664014533706,-0.0002585813838579644,0.0001872570429875685,0.00012095127658506464,0.00010947172011469907,0.000507069492639855,0.0,0.0,0.0,0.0,0.0,0.0,0.0,-0.0002871321795279158,-0.00021677947619504895,-6.246162872560607e-06,1.4584081337698507e-05,-8.763201963392364e-06,3.2181604909808925e-06,1.5258789062277955e-06,0.0014004411274683142,0.000386664014533706,0.0002585813838579644,-0.0001872570429875685,-0.00012095127658506464,-0.00010947172011469907,-0.000507069492639855,0.2720577120780945,22.672876358032227,0.1253325641155243,-14.179414749145508,-0.10558086633682251,-2.1453890800476074,0.25485557317733765,0
78,0.38494396209716797,-0.2998287081718445,-22.696680068969727,-0.09756157547235489,14.155611038208008,0.11748272180557251,2.1517977714538574,-0.25485557317733765,0.0,0.0,0.0,0.0,0.0,0.0,0.0,-0.3223157280967103,0.08633483771648702,-0.2310528423927865,0.32498283840275227,-0.12109141670071019,-0.03608324960859911,-0.2495629967735499,1.6757864357755894,0.05232277673692034,0.029973802430849322,-2.7524062988016547,0.03425224476059278,2.7663661825740133,0.7691615274680984,1.6754973547542302,0.052104326824870026,0.029969505109285054,-2.752394845125968,0.0342448039870148,2.7663679543071322,0.7691630533470046,0.00011002231864886505,-0.00024383584516653845,-0.0011451049480532948,0.0011656418230041002,-0.0002474293835232982,1.1371116731344038e-05,-0.0006401960833733421,0.0,0.0,0.0,0.0,0.0,0.0,0.0,-0.00028908102135916103,-0.00021844991205031278,-4.297321564268597e-06,1.1453675686556863e-05,-7.4407735779769e-06,1.771733118882679e-06,1.5258789062277955e-06,-0.00011002231864886505,0.00024383584516653845,0.0011451049480532948,-0.0011656418230041002,0.0002474293835232982,-1.1371116731344038e-05,0.0006401960833733421,0.2998287081718445,22.696680068969727,0.09756157547235489,-14.155611038208008,-0.11748272180557251,-2.1517977714538574,0.25485557317733765,0
79,0.3899388313293457,-0.2998287081718445,-22.696680068969727,-0.09756157547235489,14.155611038208008,0.11748272180557251,2.1517977714538574,-0.25485557317733765,0.0,0.0,0.0,0.0,0.0,0.0,0.0,-0.3223157280967103,0.08633483771648702,-0.2310528423927865,0.32498283840275227,-0.12109141670071019,-0.03608324960859911,-0.2495629967735499,1.6757864357755894,0.05232277673692034,0.029973802430849322,-2.7524062988016547,0.03425224476059278,2.7663661825740133,0.7691615274680984,1.6754973547542302,0.052104326824870026,0.029969505109285054,-2.752394845125968,0.0342448039870148,2.7663679543071322,0.7691630533470046,0.00011002231864886505,-0.00024383584516653845,-0.0011451049480532948,0.0011656418230041002,-0.0002474293835232982,1.1371116731344038e-05,-0.0006401960833733421,0.0,0.0,0.0,0.0,0.0,0.0,0.0,-0.00028908102135916103,-0.00021844991205031278,-4.297321564268597e-06,1.1453675686556863e-05,-7.4407735779769e-06,1.771733118882679e-06,1.5258789062277955e-06,-0.00011002231864886505,0.00024383584516653845,0.0011451049480532948,-0.0011656418230041002,0.0002474293835232982,-1.1371116731344038e-05,0.0006401960833733421,0.2998287081718445,22.696680068969727,0.09756157547235489,-14.155611038208008,-0.11748272180557251,-2.1517977714538574,0.25485557317733765,0
