rezayati/contactInterpretation/dataset/franka_main/labeled_data/link3/e3_3.csv
index,time,tau_J0,tau_J1,tau_J2,tau_J3,tau_J4,tau_J5,tau_J6,tau_J_d0,tau_J_d1,tau_J_d2,tau_J_d3,tau_J_d4,tau_J_d5,tau_J_d6,tau_ext0,tau_ext1,tau_ext2,tau_ext3,tau_ext4,tau_ext5,tau_ext6,q0,q1,q2,q3,q4,q5,q6,q_d0,q_d1,q_d2,q_d3,q_d4,q_d5,q_d6,dq0,dq1,dq2,dq3,dq4,dq5,dq6,dq_d0,dq_d1,dq_d2,dq_d3,dq_d4,dq_d5,dq_d6,e0,e1,e2,e3,e4,e5,e6,de0,de1,de2,de3,de4,de5,de6,etau_J0,etau_J1,etau_J2,etau_J3,etau_J4,etau_J5,etau_J6,label
1,0.0,-0.5021602511405945,-34.01534652709961,-3.8506133556365967,19.511445999145508,0.2484031319618225,1.783755898475647,-0.10470907390117645,0.0,0.0,0.0,0.0,0.0,0.0,0.0,-0.5408574849188027,0.05566280789992406,-0.24524742924045484,0.48836923321909126,0.19459557369730363,-0.12556160326448074,-0.11240864940848898,1.0545576344498415,0.32429930072499996,-0.39249173717749747,-2.1535068512306474,0.8647493089973715,2.4659396894939083,0.544488604920826,1.0544104758940245,0.3238615046091247,-0.39250456234122666,-2.153291787532338,0.8647539153680389,2.46587817577521,0.5445020185570556,-0.0010602637824999048,-0.00020164354714758605,0.0010336469313138585,0.0006469242869332947,0.00015491491256167504,-0.0002770132407204508,-0.0005394751222621989,0.0,0.0,0.0,0.0,0.0,0.0,0.0,-0.00014715855581703963,-0.00043779611587524414,-1.2825163729190958e-05,0.00021506369830959216,4.606370667459281e-06,-6.15137186983361e-05,1.34136362296422e-05,0.0010602637824999048,0.00020164354714758605,-0.0010336469313138585,-0.0006469242869332947,-0.00015491491256167504,0.0002770132407204508,0.0005394751222621989,0.5021602511405945,34.01534652709961,3.8506133556365967,-19.511445999145508,-0.2484031319618225,-1.783755898475647,0.10470907390117645,0
2,0.0050241947174072266,-0.5021602511405945,-34.01534652709961,-3.8506133556365967,19.511445999145508,0.2484031319618225,1.783755898475647,-0.10470907390117645,0.0,0.0,0.0,0.0,0.0,0.0,0.0,-0.5408574849188027,0.05566280789992406,-0.24524742924045484,0.48836923321909126,0.19459557369730363,-0.12556160326448074,-0.11240864940848898,1.0545576344498415,0.32429930072499996,-0.39249173717749747,-2.1535068512306474,0.8647493089973715,2.4659396894939083,0.544488604920826,1.0544104758940245,0.3238615046091247,-0.39250456234122666,-2.153291787532338,0.8647539153680389,2.46587817577521,0.5445020185570556,-0.0010602637824999048,-0.00020164354714758605,0.0010336469313138585,0.0006469242869332947,0.00015491491256167504,-0.0002770132407204508,-0.0005394751222621989,0.0,0.0,0.0,0.0,0.0,0.0,0.0,-0.00014715855581703963,-0.00043779611587524414,-1.2825163729190958e-05,0.00021506369830959216,4.606370667459281e-06,-6.15137186983361e-05,1.34136362296422e-05,0.0010602637824999048,0.00020164354714758605,-0.0010336469313138585,-0.0006469242869332947,-0.00015491491256167504,0.0002770132407204508,0.0005394751222621989,0.5021602511405945,34.01534652709961,3.8506133556365967,-19.511445999145508,-0.2484031319618225,-1.783755898475647,0.10470907390117645,0
3,0.010059356689453125,-0.5021602511405945,-34.01534652709961,-3.8228423595428467,19.511445999145508,0.2429099678993225,1.777347207069397,-0.08365194499492645,0.0,0.0,0.0,0.0,0.0,0.0,0.0,-0.5283473059470851,0.058585834236574465,-0.23613364523093222,0.4866360981496953,0.1947855017916392,-0.1270370205624639,-0.11341630859244756,1.0545576344498415,0.32429930072499996,-0.3924915688808879,-2.153508253706092,0.8647499193549156,2.4659403637784902,0.5444865742002662,1.0544104758940245,0.3238615046091247,-0.39250456234122666,-2.153291787532338,0.8647539153680389,2.46587817577521,0.5445020185570556,-6.630382298882048e-05,-0.00016048545077834754,0.0006168186515331211,0.00011339303779321791,0.0002683926186658024,0.00010241089788885512,-0.0013918324702811393,0.0,0.0,0.0,0.0,0.0,0.0,0.0,-0.00014715855581703963,-0.00043779611587524414,-1.2993460338783791e-05,0.00021646617375425947,3.996013123286346e-06,-6.218800328028351e-05,1.544435678935141e-05,6.630382298882048e-05,0.00016048545077834754,-0.0006168186515331211,-0.00011339303779321791,-0.0002683926186658024,-0.00010241089788885512,0.0013918324702811393,0.5021602511405945,34.01534652709961,3.8228423595428467,-19.511445999145508,-0.2429099678993225,-1.777347207069397,0.08365194499492645,0
4,0.015002727508544922,-0.5021602511405945,-34.01534652709961,-3.8228423595428467,19.511445999145508,0.2429099678993225,1.777347207069397,-0.08365194499492645,0.0,0.0,0.0,0.0,0.0,0.0,0.0,-0.5283473059470851,0.058585834236574465,-0.23613364523093222,0.4866360981496953,0.1947855017916392,-0.1270370205624639,-0.11341630859244756,1.0545576344498415,0.32429930072499996,-0.3924915688808879,-2.153508253706092,0.8647499193549156,2.4659403637784902,0.5444865742002662,1.0544104758940245,0.3238615046091247,-0.39250456234122666,-2.153291787532338,0.8647539153680389,2.46587817577521,0.5445020185570556,-6.630382298882048e-05,-0.00016048545077834754,0.0006168186515331211,0.00011339303779321791,0.0002683926186658024,0.00010241089788885512,-0.0013918324702811393,0.0,0.0,0.0,0.0,0.0,0.0,0.0,-0.00014715855581703963,-0.00043779611587524414,-1.2993460338783791e-05,0.00021646617375425947,3.996013123286346e-06,-6.218800328028351e-05,1.544435678935141e-05,6.630382298882048e-05,0.00016048545077834754,-0.0006168186515331211,-0.00011339303779321791,-0.0002683926186658024,-0.00010241089788885512,0.0013918324702811393,0.5021602511405945,34.01534652709961,3.8228423595428467,-19.511445999145508,-0.2429099678993225,-1.777347207069397,0.08365194499492645,0
5,0.019953250885009766,-0.5299312472343445,-33.99154281616211,-3.7990386486053467,19.511445999145508,0.2603049874305725,1.783755898475647,-0.13858358561992645,0.0,0.0,0.0,0.0,0.0,0.0,0.0,-0.5281782861034239,0.05964223132100822,-0.2395352953646358,0.4856352271556438,0.19515790904956512,-0.12653042304851359,-0.11276661601303171,1.0545595832916725,0.32429834554488196,-0.3924932305562363,-2.1535068911506245,0.8647469269368383,2.465938631255346,0.5444923308036433,1.0544104758940245,0.3238615046091247,-0.39250456234122666,-2.153291787532338,0.8647539153680389,2.46587817577521,0.5445020185570556,0.0010406780366095697,-0.0007623385383803124,0.00014836848966379002,-0.0002260475761082575,-0.00027512313412844473,-0.0002761301557015424,0.0007327608565339899,0.0,0.0,0.0,0.0,0.0,0.0,0.0,-0.0001491073976480628,-0.00043684093575724336,-1.133178499035381e-05,0.0002151036182866939,6.9884312006163185e-06,-6.045548013622337e-05,9.687753412257472e-06,-0.0010406780366095697,0.0007623385383803124,-0.00014836848966379002,0.0002260475761082575,0.00027512313412844473,0.0002761301557015424,-0.0007327608565339899,0.5299312472343445,33.99154281616211,3.7990386486053467,-19.511445999145508,-0.2603049874305725,-1.783755898475647,0.13858358561992645,0
6,0.02542400360107422,-0.5299312472343445,-33.99154281616211,-3.7990386486053467,19.511445999145508,0.2603049874305725,1.783755898475647,-0.13858358561992645,0.0,0.0,0.0,0.0,0.0,0.0,0.0,-0.5281782861034239,0.05964223132100822,-0.2395352953646358,0.4856352271556438,0.19515790904956512,-0.12653042304851359,-0.11276661601303171,1.0545595832916725,0.32429834554488196,-0.3924932305562363,-2.1535068911506245,0.8647469269368383,2.465938631255346,0.5444923308036433,1.0544104758940245,0.3238615046091247,-0.39250456234122666,-2.153291787532338,0.8647539153680389,2.46587817577521,0.5445020185570556,0.0010406780366095697,-0.0007623385383803124,0.00014836848966379002,-0.0002260475761082575,-0.00027512313412844473,-0.0002761301557015424,0.0007327608565339899,0.0,0.0,0.0,0.0,0.0,0.0,0.0,-0.0001491073976480628,-0.00043684093575724336,-1.133178499035381e-05,0.0002151036182866939,6.9884312006163185e-06,-6.045548013622337e-05,9.687753412257472e-06,-0.0010406780366095697,0.0007623385383803124,-0.00014836848966379002,0.0002260475761082575,0.00027512313412844473,0.0002761301557015424,-0.0007327608565339899,0.5299312472343445,33.99154281616211,3.7990386486053467,-19.511445999145508,-0.2603049874305725,-1.783755898475647,0.13858358561992645,0
7,0.029994964599609375,-0.5021602511405945,-34.03915023803711,-3.7514312267303467,19.487642288208008,0.2548118233680725,1.770938515663147,-0.12485067546367645,0.0,0.0,0.0,0.0,0.0,0.0,0.0,-0.525859764986388,0.0533912824688247,-0.24139962095533118,0.48794816276065645,0.19571785247689957,-0.1255447291248536,-0.11234135241114694,1.0545576344498415,0.32430097999521057,-0.3924965714278974,-2.153504606824357,0.8647484791829786,2.4659379230450207,0.5444950371765783,1.0544104758940245,0.3238615046091247,-0.39250456234122666,-2.153291787532338,0.8647539153680389,2.46587817577521,0.5445020185570556,-0.00013125865990195034,0.00037258801848874697,-0.000823530771858282,0.0003474721904781356,-0.000298829809307955,0.0002443926975620783,0.000527264720853387,0.0,0.0,0.0,0.0,0.0,0.0,0.0,-0.00014715855581703963,-0.00043947538608585246,-7.99091332925883e-06,0.0002128192920189953,5.436185060325727e-06,-5.97472698107282e-05,6.98138047727781e-06,0.00013125865990195034,-0.00037258801848874697,0.000823530771858282,-0.0003474721904781356,0.000298829809307955,-0.0002443926975620783,-0.000527264720853387,0.5021602511405945,34.03915023803711,3.7514312267303467,-19.487642288208008,-0.2548118233680725,-1.770938515663147,0.12485067546367645,0
8,0.03506922721862793,-0.5021602511405945,-34.03915023803711,-3.7514312267303467,19.487642288208008,0.2548118233680725,1.770938515663147,-0.12485067546367645,0.0,0.0,0.0,0.0,0.0,0.0,0.0,-0.525859764986388,0.0533912824688247,-0.24139962095533118,0.48794816276065645,0.19571785247689957,-0.1255447291248536,-0.11234135241114694,1.0545576344498415,0.32430097999521057,-0.3924965714278974,-2.153504606824357,0.8647484791829786,2.4659379230450207,0.5444950371765783,1.0544104758940245,0.3238615046091247,-0.39250456234122666,-2.153291787532338,0.8647539153680389,2.46587817577521,0.5445020185570556,-0.00013125865990195034,0.00037258801848874697,-0.000823530771858282,0.0003474721904781356,-0.000298829809307955,0.0002443926975620783,0.000527264720853387,0.0,0.0,0.0,0.0,0.0,0.0,0.0,-0.00014715855581703963,-0.00043947538608585246,-7.99091332925883e-06,0.0002128192920189953,5.436185060325727e-06,-5.97472698107282e-05,6.98138047727781e-06,0.00013125865990195034,-0.00037258801848874697,0.000823530771858282,-0.0003474721904781356,0.000298829809307955,-0.0002443926975620783,-0.000527264720853387,0.5021602511405945,34.03915023803711,3.7514312267303467,-19.487642288208008,-0.2548118233680725,-1.770938515663147,0.12485067546367645,0
9,0.039995431900024414,-0.5021602511405945,-33.96377182006836,-3.7514312267303467,19.511445999145508,0.2603049874305725,1.783755898475647,-0.12485067546367645,0.0,0.0,0.0,0.0,0.0,0.0,0.0,-0.5199626223846411,0.06143215417496234,-0.23390246165812284,0.48400729324195607,0.19543230619240473,-0.1265315535043674,-0.11260218808259444,1.0545576344498415,0.32429568177441215,-0.3924965714278974,-2.1535060667503703,0.864747986574303,2.4659396909295133,0.5444907986479522,1.0544104758940245,0.3238615046091247,-0.39250456234122666,-2.153291787532338,0.8647539153680389,2.46587817577521,0.5445020185570556,-0.00038213939501810946,-0.0007302268145985529,-0.0006857688720721385,-0.00015034638974726456,-0.00041435713781306507,-0.0004046510033726531,0.0005749169452863502,0.0,0.0,0.0,0.0,0.0,0.0,0.0,-0.00014715855581703963,-0.00043417716528743044,-7.99091332925883e-06,0.00021427921803240935,5.92879373595423e-06,-6.151515430330434e-05,1.1219909103354908e-05,0.00038213939501810946,0.0007302268145985529,0.0006857688720721385,0.00015034638974726456,0.00041435713781306507,0.0004046510033726531,-0.0005749169452863502,0.5021602511405945,33.96377182006836,3.7514312267303467,-19.511445999145508,-0.2603049874305725,-1.783755898475647,0.12485067546367645,0
10,0.04494762420654297,-0.5021602511405945,-33.96377182006836,-3.7514312267303467,19.511445999145508,0.2603049874305725,1.783755898475647,-0.12485067546367645,0.0,0.0,0.0,0.0,0.0,0.0,0.0,-0.5199626223846411,0.06143215417496234,-0.23390246165812284,0.48400729324195607,0.19543230619240473,-0.1265315535043674,-0.11260218808259444,1.0545576344498415,0.32429568177441215,-0.3924965714278974,-2.1535060667503703,0.864747986574303,2.4659396909295133,0.5444907986479522,1.0544104758940245,0.3238615046091247,-0.39250456234122666,-2.153291787532338,0.8647539153680389,2.46587817577521,0.5445020185570556,-0.00038213939501810946,-0.0007302268145985529,-0.0006857688720721385,-0.00015034638974726456,-0.00041435713781306507,-0.0004046510033726531,0.0005749169452863502,0.0,0.0,0.0,0.0,0.0,0.0,0.0,-0.00014715855581703963,-0.00043417716528743044,-7.99091332925883e-06,0.00021427921803240935,5.92879373595423e-06,-6.151515430330434e-05,1.1219909103354908e-05,0.00038213939501810946,0.0007302268145985529,0.0006857688720721385,0.00015034638974726456,0.00041435713781306507,0.0004046510033726531,-0.0005749169452863502,0.5021602511405945,33.96377182006836,3.7514312267303467,-19.511445999145508,-0.2603049874305725,-1.783755898475647,0.12485067546367645,0
11,0.05089616775512695,-0.5537349581718445,-34.01534652709961,-3.7990386486053467,19.559053421020508,0.2484031319618225,1.777347207069397,-0.10470907390117645,0.0,0.0,0.0,0.0,0.0,0.0,0.0,-0.5295975723330449,0.0457950855144609,-0.24054512776183284,0.4942735614139804,0.19565139315453364,-0.12476157110212917,-0.11227652373224487,1.054561253727528,0.324299303668441,-0.3924932305561869,-2.153509451259701,0.8647493090033531,2.465939289604867,0.5444889159805788,1.0544104758940245,0.3238615046091247,-0.39250456234122666,-2.153291787532338,0.8647539153680389,2.46587817577521,0.5445020185570556,0.0003947364136019273,-0.00023131530744181008,-0.00018273521163142566,-0.0010701468447960392,-0.00010696298612529138,0.0001351348360388847,-0.0007269608289123429,0.0,0.0,0.0,0.0,0.0,0.0,0.0,-0.00015077783350347929,-0.0004377990593162906,-1.1331785039758735e-05,0.00021766372736298223,4.606364685799669e-06,-6.111382965690026e-05,1.31025764767978e-05,-0.0003947364136019273,0.00023131530744181008,0.00018273521163142566,0.0010701468447960392,0.00010696298612529138,-0.0001351348360388847,0.0007269608289123429,0.5537349581718445,34.01534652709961,3.7990386486053467,-19.559053421020508,-0.2484031319618225,-1.777347207069397,0.10470907390117645,0
12,0.054995059967041016,-0.5537349581718445,-34.01534652709961,-3.7990386486053467,19.559053421020508,0.2484031319618225,1.777347207069397,-0.10470907390117645,0.0,0.0,0.0,0.0,0.0,0.0,0.0,-0.5295975723330449,0.0457950855144609,-0.24054512776183284,0.4942735614139804,0.19565139315453364,-0.12476157110212917,-0.11227652373224487,1.054561253727528,0.324299303668441,-0.3924932305561869,-2.153509451259701,0.8647493090033531,2.465939289604867,0.5444889159805788,1.0544104758940245,0.3238615046091247,-0.39250456234122666,-2.153291787532338,0.8647539153680389,2.46587817577521,0.5445020185570556,0.0003947364136019273,-0.00023131530744181008,-0.00018273521163142566,-0.0010701468447960392,-0.00010696298612529138,0.0001351348360388847,-0.0007269608289123429,0.0,0.0,0.0,0.0,0.0,0.0,0.0,-0.00015077783350347929,-0.0004377990593162906,-1.1331785039758735e-05,0.00021766372736298223,4.606364685799669e-06,-6.111382965690026e-05,1.31025764767978e-05,-0.0003947364136019273,0.00023131530744181008,0.00018273521163142566,0.0010701468447960392,0.00010696298612529138,-0.0001351348360388847,0.0007269608289123429,0.5537349581718445,34.01534652709961,3.7990386486053467,-19.559053421020508,-0.2484031319618225,-1.777347207069397,0.10470907390117645,0
13,0.05999946594238281,-0.5537349581718445,-34.01534652709961,-3.8506133556365967,19.459871292114258,0.2484031319618225,1.777347207069397,-0.13858358561992645,0.0,0.0,0.0,0.0,0.0,0.0,0.0,-0.5370499591876889,0.05805851049429309,-0.24453252938665462,0.48707892901733696,0.19512556889935082,-0.12521340794801644,-0.11273263717808353,1.054561253727528,0.32429930072501656,-0.39248961127850046,-2.15350274683849,0.8647493090033531,2.465939997316046,0.5444923288655882,1.0544104758940245,0.3238615046091247,-0.39250456234122666,-2.153291787532338,0.8647539153680389,2.46587817577521,0.5445020185570556,-0.00023473919483739438,-0.00011243547508512135,0.00047646617798112435,0.0014043918867031248,7.630502855966603e-05,6.459110641185552e-05,0.0012346769299237358,0.0,0.0,0.0,0.0,0.0,0.0,0.0,-0.00015077783350347929,-0.000437796115891842,-1.4951062726198394e-05,0.00021095930615233627,4.606364685799669e-06,-6.182154083589353e-05,9.689691467418271e-06,0.00023473919483739438,0.00011243547508512135,-0.00047646617798112435,-0.0014043918867031248,-7.630502855966603e-05,-6.459110641185552e-05,-0.0012346769299237358,0.5537349581718445,34.01534652709961,3.8506133556365967,-19.459871292114258,-0.2484031319618225,-1.777347207069397,0.13858358561992645,0
14,0.06495928764343262,-0.5537349581718445,-34.01534652709961,-3.8506133556365967,19.459871292114258,0.2484031319618225,1.777347207069397,-0.13858358561992645,0.0,0.0,0.0,0.0,0.0,0.0,0.0,-0.5370499591876889,0.05805851049429309,-0.24453252938665462,0.48707892901733696,0.19512556889935082,-0.12521340794801644,-0.11273263717808353,1.054561253727528,0.32429930072501656,-0.39248961127850046,-2.15350274683849,0.8647493090033531,2.465939997316046,0.5444923288655882,1.0544104758940245,0.3238615046091247,-0.39250456234122666,-2.153291787532338,0.8647539153680389,2.46587817577521,0.5445020185570556,-0.00023473919483739438,-0.00011243547508512135,0.00047646617798112435,0.0014043918867031248,7.630502855966603e-05,6.459110641185552e-05,0.0012346769299237358,0.0,0.0,0.0,0.0,0.0,0.0,0.0,-0.00015077783350347929,-0.000437796115891842,-1.4951062726198394e-05,0.00021095930615233627,4.606364685799669e-06,-6.182154083589353e-05,9.689691467418271e-06,0.00023473919483739438,0.00011243547508512135,-0.00047646617798112435,-0.0014043918867031248,-7.630502855966603e-05,-6.459110641185552e-05,-0.0012346769299237358,0.5537349581718445,34.01534652709961,3.8506133556365967,-19.459871292114258,-0.2484031319618225,-1.777347207069397,0.13858358561992645,0
15,0.07040166854858398,-0.6053096652030945,-34.03915023803711,-3.8506133556365967,19.511445999145508,0.2484031319618225,1.777347207069397,-0.11111776530742645,0.0,0.0,0.0,0.0,0.0,0.0,0.0,-0.5362368957357861,0.05860105711247192,-0.24087221006300452,0.4875761713981487,0.194717047159494,-0.12615325203738,-0.11244384536629444,1.0545648730052142,0.3243009711608552,-0.39248961127850046,-2.153506030385198,0.8647493090033531,2.4659389900097204,0.5444897436954235,1.0544104758940245,0.3238615046091247,-0.39250456234122666,-2.153291787532338,0.8647539153680389,2.46587817577521,0.5445020185570556,0.0007115184311342908,0.0006125238030865943,0.0005526534143525937,0.0001709894845334295,-0.00010579134039837803,3.623260218146407e-05,6.143547754115966e-05,0.0,0.0,0.0,0.0,0.0,0.0,0.0,-0.0001543971111896969,-0.0004394665517304941,-1.4951062726198394e-05,0.0002142428528602025,4.606364685799669e-06,-6.081423451043122e-05,1.2274861632133316e-05,-0.0007115184311342908,-0.0006125238030865943,-0.0005526534143525937,-0.0001709894845334295,0.00010579134039837803,-3.623260218146407e-05,-6.143547754115966e-05,0.6053096652030945,34.03915023803711,3.8506133556365967,-19.511445999145508,-0.2484031319618225,-1.777347207069397,0.11111776530742645,0
16,0.07496476173400879,-0.6053096652030945,-34.03915023803711,-3.8506133556365967,19.511445999145508,0.2484031319618225,1.777347207069397,-0.11111776530742645,0.0,0.0,0.0,0.0,0.0,0.0,0.0,-0.5362368957357861,0.05860105711247192,-0.24087221006300452,0.4875761713981487,0.194717047159494,-0.12615325203738,-0.11244384536629444,1.0545648730052142,0.3243009711608552,-0.39248961127850046,-2.153506030385198,0.8647493090033531,2.4659389900097204,0.5444897436954235,1.0544104758940245,0.3238615046091247,-0.39250456234122666,-2.153291787532338,0.8647539153680389,2.46587817577521,0.5445020185570556,0.0007115184311342908,0.0006125238030865943,0.0005526534143525937,0.0001709894845334295,-0.00010579134039837803,3.623260218146407e-05,6.143547754115966e-05,0.0,0.0,0.0,0.0,0.0,0.0,0.0,-0.0001543971111896969,-0.0004394665517304941,-1.4951062726198394e-05,0.0002142428528602025,4.606364685799669e-06,-6.081423451043122e-05,1.2274861632133316e-05,-0.0007115184311342908,-0.0006125238030865943,-0.0005526534143525937,-0.0001709894845334295,0.00010579134039837803,-3.623260218146407e-05,-6.143547754115966e-05,0.6053096652030945,34.03915023803711,3.8506133556365967,-19.511445999145508,-0.2484031319618225,-1.777347207069397,0.11111776530742645,0
17,0.0800015926361084,-0.6053096652030945,-34.03915023803711,-3.8506133556365967,19.459871292114258,0.2484031319618225,1.783755898475647,-0.14590780436992645,0.0,0.0,0.0,0.0,0.0,0.0,0.0,-0.5382882681886934,0.0539864387355835,-0.2380537045472261,0.48953355860484127,0.19430688241062366,-0.12670656047412274,-0.11203913538970055,1.0545648730052142,0.3243009721420016,-0.39248961127850046,-2.1535032413358324,0.8647493090033531,2.465939336273296,0.5444931387921902,1.0544104758940245,0.3238615046091247,-0.39250456234122666,-2.153291787532338,0.8647539153680389,2.46587817577521,0.5445020185570556,0.0007616540848928486,0.00040622944823313716,0.0009277753914214757,0.0011673082530978698,0.00015667686112039931,-3.1974109473129816e-05,0.0008234567285792065,0.0,0.0,0.0,0.0,0.0,0.0,0.0,-0.0001543971111896969,-0.00043946753287688045,-1.4951062726198394e-05,0.00021145380349452125,4.606364685799669e-06,-6.116049808602142e-05,8.879764865410422e-06,-0.0007616540848928486,-0.00040622944823313716,-0.0009277753914214757,-0.0011673082530978698,-0.00015667686112039931,3.1974109473129816e-05,-0.0008234567285792065,0.6053096652030945,34.03915023803711,3.8506133556365967,-19.459871292114258,-0.2484031319618225,-1.783755898475647,0.14590780436992645,0
18,0.08501124382019043,-0.6053096652030945,-34.03915023803711,-3.8506133556365967,19.459871292114258,0.2484031319618225,1.783755898475647,-0.14590780436992645,0.0,0.0,0.0,0.0,0.0,0.0,0.0,-0.5382882681886934,0.0539864387355835,-0.2380537045472261,0.48953355860484127,0.19430688241062366,-0.12670656047412274,-0.11203913538970055,1.0545648730052142,0.3243009721420016,-0.39248961127850046,-2.1535032413358324,0.8647493090033531,2.465939336273296,0.5444931387921902,1.0544104758940245,0.3238615046091247,-0.39250456234122666,-2.153291787532338,0.8647539153680389,2.46587817577521,0.5445020185570556,0.0007616540848928486,0.00040622944823313716,0.0009277753914214757,0.0011673082530978698,0.00015667686112039931,-3.1974109473129816e-05,0.0008234567285792065,0.0,0.0,0.0,0.0,0.0,0.0,0.0,-0.0001543971111896969,-0.00043946753287688045,-1.4951062726198394e-05,0.00021145380349452125,4.606364685799669e-06,-6.116049808602142e-05,8.879764865410422e-06,-0.0007616540848928486,-0.00040622944823313716,-0.0009277753914214757,-0.0011673082530978698,-0.00015667686112039931,3.1974109473129816e-05,-0.0008234567285792065,0.6053096652030945,34.03915023803711,3.8506133556365967,-19.459871292114258,-0.2484031319618225,-1.783755898475647,0.14590780436992645,0
19,0.089996337890625,-0.5021602511405945,-34.01534652709961,-3.7990386486053467,19.487642288208008,0.2429099678993225,1.790164589881897,-0.09738485515117645,0.0,0.0,0.0,0.0,0.0,0.0,0.0,-0.5418827181615927,0.05870032221015148,-0.23713470904279063,0.4867098155476517,0.19443642049521775,-0.1261015287579767,-0.11310055023348682,1.0545576344498415,0.32429930072500546,-0.3924932305561869,-2.1535044430467565,0.8647467404405276,2.465938860915797,0.5444877469200509,1.0544104758940245,0.3238615046091247,-0.39250456234122666,-2.153291787532338,0.8647539153680389,2.46587817577521,0.5445020185570556,-0.0011879895720413257,-4.4639550682514465e-05,-0.00012439784468457329,0.00043755962540339754,0.00030373461846753446,-0.0001555901567236705,-0.0004853170275344241,0.0,0.0,0.0,0.0,0.0,0.0,0.0,-0.00014715855581703963,-0.00043779611588073974,-1.1331785039758735e-05,0.00021265551441862485,7.174927511344187e-06,-6.068514058688024e-05,1.4271637004736881e-05,0.0011879895720413257,4.4639550682514465e-05,0.00012439784468457329,-0.00043755962540339754,-0.00030373461846753446,0.0001555901567236705,0.0004853170275344241,0.5021602511405945,34.01534652709961,3.7990386486053467,-19.487642288208008,-0.2429099678993225,-1.790164589881897,0.09738485515117645,0
20,0.09494400024414062,-0.5021602511405945,-34.01534652709961,-3.7990386486053467,19.487642288208008,0.2429099678993225,1.790164589881897,-0.09738485515117645,0.0,0.0,0.0,0.0,0.0,0.0,0.0,-0.5418827181615927,0.05870032221015148,-0.23713470904279063,0.4867098155476517,0.19443642049521775,-0.1261015287579767,-0.11310055023348682,1.0545576344498415,0.32429930072500546,-0.3924932305561869,-2.1535044430467565,0.8647467404405276,2.465938860915797,0.5444877469200509,1.0544104758940245,0.3238615046091247,-0.39250456234122666,-2.153291787532338,0.8647539153680389,2.46587817577521,0.5445020185570556,-0.0011879895720413257,-4.4639550682514465e-05,-0.00012439784468457329,0.00043755962540339754,0.00030373461846753446,-0.0001555901567236705,-0.0004853170275344241,0.0,0.0,0.0,0.0,0.0,0.0,0.0,-0.00014715855581703963,-0.00043779611588073974,-1.1331785039758735e-05,0.00021265551441862485,7.174927511344187e-06,-6.068514058688024e-05,1.4271637004736881e-05,0.0011879895720413257,4.4639550682514465e-05,0.00012439784468457329,-0.00043755962540339754,-0.00030373461846753446,0.0001555901567236705,0.0004853170275344241,0.5021602511405945,34.01534652709961,3.7990386486053467,-19.487642288208008,-0.2429099678993225,-1.790164589881897,0.09738485515117645,0
21,0.10000467300415039,-0.5021602511405945,-34.03915023803711,-3.7990386486053467,19.511445999145508,0.2484031319618225,1.777347207069397,-0.08365194499492645,0.0,0.0,0.0,0.0,0.0,0.0,0.0,-0.5399229312585626,0.04918048002948542,-0.23725549297858842,0.4893658429961267,0.19442126955336433,-0.12453699774171703,-0.11221969415033492,1.0545576344498415,0.32430097126987145,-0.3924932305561869,-2.1535060544265696,0.8647493087700673,2.465940398178522,0.5444894003862117,1.0544104758940245,0.3238615046091247,-0.39250456234122666,-2.153291787532338,0.8647539153680389,2.46587817577521,0.5445020185570556,-7.800064245576159e-05,-3.5226654603360386e-05,-0.0002341715870416321,-0.00018853226978569478,1.119828636420042e-05,-0.00012652932723000577,-0.0008898177924662903,0.0,0.0,0.0,0.0,0.0,0.0,0.0,-0.00014715855581703963,-0.00043946666074673457,-1.1331785039758735e-05,0.0002142668942317627,4.606597971634763e-06,-6.222240331199558e-05,1.2618170843858856e-05,7.800064245576159e-05,3.5226654603360386e-05,0.0002341715870416321,0.00018853226978569478,-1.119828636420042e-05,0.00012652932723000577,0.0008898177924662903,0.5021602511405945,34.03915023803711,3.7990386486053467,-19.511445999145508,-0.2484031319618225,-1.777347207069397,0.08365194499492645,0
22,0.10500907897949219,-0.5021602511405945,-34.03915023803711,-3.7990386486053467,19.511445999145508,0.2484031319618225,1.777347207069397,-0.08365194499492645,0.0,0.0,0.0,0.0,0.0,0.0,0.0,-0.5399229312585626,0.04918048002948542,-0.23725549297858842,0.4893658429961267,0.19442126955336433,-0.12453699774171703,-0.11221969415033492,1.0545576344498415,0.32430097126987145,-0.3924932305561869,-2.1535060544265696,0.8647493087700673,2.465940398178522,0.5444894003862117,1.0544104758940245,0.3238615046091247,-0.39250456234122666,-2.153291787532338,0.8647539153680389,2.46587817577521,0.5445020185570556,-7.800064245576159e-05,-3.5226654603360386e-05,-0.0002341715870416321,-0.00018853226978569478,1.119828636420042e-05,-0.00012652932723000577,-0.0008898177924662903,0.0,0.0,0.0,0.0,0.0,0.0,0.0,-0.00014715855581703963,-0.00043946666074673457,-1.1331785039758735e-05,0.0002142668942317627,4.606597971634763e-06,-6.222240331199558e-05,1.2618170843858856e-05,7.800064245576159e-05,3.5226654603360386e-05,0.0002341715870416321,0.00018853226978569478,-1.119828636420042e-05,0.00012652932723000577,0.0008898177924662903,0.5021602511405945,34.03915023803711,3.7990386486053467,-19.511445999145508,-0.2484031319618225,-1.777347207069397,0.08365194499492645,0
23,0.10999631881713867,-0.4505855441093445,-34.01534652709961,-3.7752349376678467,19.511445999145508,0.2548118233680725,1.777347207069397,-0.10470907390117645,0.0,0.0,0.0,0.0,0.0,0.0,0.0,-0.5256865028578867,0.060940617614433194,-0.22697524073538264,0.48165249953933936,0.19442693377518996,-0.12660837412689938,-0.1107733372979931,1.054554015172155,0.32429930072500057,-0.39249490099204215,-2.1535060554437218,0.8647485968726937,2.465939996030259,0.5444885738220314,1.0544104758940245,0.3238615046091247,-0.39250456234122666,-2.153291787532338,0.8647539153680389,2.46587817577521,0.5445020185570556,-0.0006899694051899102,0.0001512499543970245,0.00017998295680766345,-0.00024114605120380272,-0.0002085357494816868,8.128892002369285e-05,9.243009783063744e-07,0.0,0.0,0.0,0.0,0.0,0.0,0.0,-0.00014353927813059997,-0.00043779611587585476,-9.661349184508783e-06,0.000214267911383903,5.318495345241203e-06,-6.182025504886113e-05,1.3444735024181753e-05,0.0006899694051899102,-0.0001512499543970245,-0.00017998295680766345,0.00024114605120380272,0.0002085357494816868,-8.128892002369285e-05,-9.243009783063744e-07,0.4505855441093445,34.01534652709961,3.7752349376678467,-19.511445999145508,-0.2548118233680725,-1.777347207069397,0.10470907390117645,0
24,0.11499643325805664,-0.4505855441093445,-34.01534652709961,-3.7752349376678467,19.511445999145508,0.2548118233680725,1.777347207069397,-0.10470907390117645,0.0,0.0,0.0,0.0,0.0,0.0,0.0,-0.5256865028578867,0.060940617614433194,-0.22697524073538264,0.48165249953933936,0.19442693377518996,-0.12660837412689938,-0.1107733372979931,1.054554015172155,0.32429930072500057,-0.39249490099204215,-2.1535060554437218,0.8647485968726937,2.465939996030259,0.5444885738220314,1.0544104758940245,0.3238615046091247,-0.39250456234122666,-2.153291787532338,0.8647539153680389,2.46587817577521,0.5445020185570556,-0.0006899694051899102,0.0001512499543970245,0.00017998295680766345,-0.00024114605120380272,-0.0002085357494816868,8.128892002369285e-05,9.243009783063744e-07,0.0,0.0,0.0,0.0,0.0,0.0,0.0,-0.00014353927813059997,-0.00043779611587585476,-9.661349184508783e-06,0.000214267911383903,5.318495345241203e-06,-6.182025504886113e-05,1.3444735024181753e-05,0.0006899694051899102,-0.0001512499543970245,-0.00017998295680766345,0.00024114605120380272,0.0002085357494816868,-8.128892002369285e-05,-9.243009783063744e-07,0.4505855441093445,34.01534652709961,3.7752349376678467,-19.511445999145508,-0.2548118233680725,-1.777347207069397,0.10470907390117645,0
25,0.12000036239624023,-0.4505855441093445,-34.01534652709961,-3.7752349376678467,19.511445999145508,0.2548118233680725,1.777347207069397,-0.10470907390117645,0.0,0.0,0.0,0.0,0.0,0.0,0.0,-0.5256865028578867,0.060940617614433194,-0.22697524073538264,0.48165249953933936,0.19442693377518996,-0.12660837412689938,-0.1107733372979931,1.054554015172155,0.32429930072500057,-0.39249490099204215,-2.1535060554437218,0.8647485968726937,2.465939996030259,0.5444885738220314,1.0544104758940245,0.3238615046091247,-0.39250456234122666,-2.153291787532338,0.8647539153680389,2.46587817577521,0.5445020185570556,-0.0006899694051899102,0.0001512499543970245,0.00017998295680766345,-0.00024114605120380272,-0.0002085357494816868,8.128892002369285e-05,9.243009783063744e-07,0.0,0.0,0.0,0.0,0.0,0.0,0.0,-0.00014353927813059997,-0.00043779611587585476,-9.661349184508783e-06,0.000214267911383903,5.318495345241203e-06,-6.182025504886113e-05,1.3444735024181753e-05,0.0006899694051899102,-0.0001512499543970245,-0.00017998295680766345,0.00024114605120380272,0.0002085357494816868,-8.128892002369285e-05,-9.243009783063744e-07,0.4505855441093445,34.01534652709961,3.7752349376678467,-19.511445999145508,-0.2548118233680725,-1.777347207069397,0.10470907390117645,0
26,0.12639093399047852,-0.4505855441093445,-34.01534652709961,-3.7752349376678467,19.511445999145508,0.2548118233680725,1.777347207069397,-0.10470907390117645,0.0,0.0,0.0,0.0,0.0,0.0,0.0,-0.5256865028578867,0.060940617614433194,-0.22697524073538264,0.48165249953933936,0.19442693377518996,-0.12660837412689938,-0.1107733372979931,1.054554015172155,0.32429930072500057,-0.39249490099204215,-2.1535060554437218,0.8647485968726937,2.465939996030259,0.5444885738220314,1.0544104758940245,0.3238615046091247,-0.39250456234122666,-2.153291787532338,0.8647539153680389,2.46587817577521,0.5445020185570556,-0.0006899694051899102,0.0001512499543970245,0.00017998295680766345,-0.00024114605120380272,-0.0002085357494816868,8.128892002369285e-05,9.243009783063744e-07,0.0,0.0,0.0,0.0,0.0,0.0,0.0,-0.00014353927813059997,-0.00043779611587585476,-9.661349184508783e-06,0.000214267911383903,5.318495345241203e-06,-6.182025504886113e-05,1.3444735024181753e-05,0.0006899694051899102,-0.0001512499543970245,-0.00017998295680766345,0.00024114605120380272,0.0002085357494816868,-8.128892002369285e-05,-9.243009783063744e-07,0.4505855441093445,34.01534652709961,3.7752349376678467,-19.511445999145508,-0.2548118233680725,-1.777347207069397,0.10470907390117645,0
27,0.129990816116333,-0.4783565402030945,-34.01534652709961,-3.7752349376678467,19.535249710083008,0.2429099678993225,1.783755898475647,-0.11844198405742645,0.0,0.0,0.0,0.0,0.0,0.0,0.0,-0.5279471873075646,0.05511526026583239,-0.2336478673472641,0.4847990770870439,0.1954429425314479,-0.1250529849339794,-0.11140701039759748,1.054555964013986,0.32429930105204874,-0.3924951372030418,-2.153510668785755,0.8647499193549155,2.4659386313086373,0.5444944486515155,1.0544104758940245,0.3238615046091247,-0.39250456234122666,-2.153291787532338,0.8647539153680389,2.46587817577521,0.5445020185570556,0.0001058353233191215,0.0002479262989768346,0.0006197355277440042,-0.0008174109693752095,0.0002348849609649521,-5.237984968823686e-05,0.0003924843531977108,0.0,0.0,0.0,0.0,0.0,0.0,0.0,-0.00014548811996162314,-0.0004377964429240211,-9.425138184859794e-06,0.00021888125341718023,3.996013123397368e-06,-6.045553342737264e-05,7.569905540072419e-06,-0.0001058353233191215,-0.0002479262989768346,-0.0006197355277440042,0.0008174109693752095,-0.0002348849609649521,5.237984968823686e-05,-0.0003924843531977108,0.4783565402030945,34.01534652709961,3.7752349376678467,-19.535249710083008,-0.2429099678993225,-1.783755898475647,0.11844198405742645,0
28,0.13500285148620605,-0.4783565402030945,-34.01534652709961,-3.7752349376678467,19.535249710083008,0.2429099678993225,1.783755898475647,-0.11844198405742645,0.0,0.0,0.0,0.0,0.0,0.0,0.0,-0.5279471873075646,0.05511526026583239,-0.2336478673472641,0.4847990770870439,0.1954429425314479,-0.1250529849339794,-0.11140701039759748,1.054555964013986,0.32429930105204874,-0.3924951372030418,-2.153510668785755,0.8647499193549155,2.4659386313086373,0.5444944486515155,1.0544104758940245,0.3238615046091247,-0.39250456234122666,-2.153291787532338,0.8647539153680389,2.46587817577521,0.5445020185570556,0.0001058353233191215,0.0002479262989768346,0.0006197355277440042,-0.0008174109693752095,0.0002348849609649521,-5.237984968823686e-05,0.0003924843531977108,0.0,0.0,0.0,0.0,0.0,0.0,0.0,-0.00014548811996162314,-0.0004377964429240211,-9.425138184859794e-06,0.00021888125341718023,3.996013123397368e-06,-6.045553342737264e-05,7.569905540072419e-06,-0.0001058353233191215,-0.0002479262989768346,-0.0006197355277440042,0.0008174109693752095,-0.0002348849609649521,5.237984968823686e-05,-0.0003924843531977108,0.4783565402030945,34.01534652709961,3.7752349376678467,-19.535249710083008,-0.2429099678993225,-1.783755898475647,0.11844198405742645,0
29,0.14000701904296875,-0.5021602511405945,-34.09072494506836,-3.7752349376678467,19.511445999145508,0.2548118233680725,1.777347207069397,-0.07724325358867645,0.0,0.0,0.0,0.0,0.0,0.0,0.0,-0.5148803585373625,0.04203542012304507,-0.22597551708682947,0.492287439326304,0.1950106909128923,-0.12407171224935883,-0.11212270509131633,1.0545576344498415,0.3243045992688612,-0.39249490099337553,-2.153506147184744,0.8647485969265302,2.465937223888645,0.5444855090966135,1.0544104758940245,0.3238615046091247,-0.39250456234122666,-2.153291787532338,0.8647539153680389,2.46587817577521,0.5445020185570556,0.0008682744500877882,0.0010978524627978195,0.000450707659090094,-0.00017996663356423825,-0.00018950972708192223,-7.265399459691345e-05,-0.0014367606977148278,0.0,0.0,0.0,0.0,0.0,0.0,0.0,-0.00014715855581703963,-0.0004430946597364649,-9.66134785113093e-06,0.00021435965240623744,5.318441508750382e-06,-5.904811343482308e-05,1.6509460442071244e-05,-0.0008682744500877882,-0.0010978524627978195,-0.000450707659090094,0.00017996663356423825,0.00018950972708192223,7.265399459691345e-05,0.0014367606977148278,0.5021602511405945,34.09072494506836,3.7752349376678467,-19.511445999145508,-0.2548118233680725,-1.777347207069397,0.07724325358867645,0
30,0.1450033187866211,-0.5021602511405945,-34.09072494506836,-3.7752349376678467,19.511445999145508,0.2548118233680725,1.777347207069397,-0.07724325358867645,0.0,0.0,0.0,0.0,0.0,0.0,0.0,-0.5148803585373625,0.04203542012304507,-0.22597551708682947,0.492287439326304,0.1950106909128923,-0.12407171224935883,-0.11212270509131633,1.0545576344498415,0.3243045992688612,-0.39249490099337553,-2.153506147184744,0.8647485969265302,2.465937223888645,0.5444855090966135,1.0544104758940245,0.3238615046091247,-0.39250456234122666,-2.153291787532338,0.8647539153680389,2.46587817577521,0.5445020185570556,0.0008682744500877882,0.0010978524627978195,0.000450707659090094,-0.00017996663356423825,-0.00018950972708192223,-7.265399459691345e-05,-0.0014367606977148278,0.0,0.0,0.0,0.0,0.0,0.0,0.0,-0.00014715855581703963,-0.0004430946597364649,-9.66134785113093e-06,0.00021435965240623744,5.318441508750382e-06,-5.904811343482308e-05,1.6509460442071244e-05,-0.0008682744500877882,-0.0010978524627978195,-0.000450707659090094,0.00017996663356423825,0.00018950972708192223,7.265399459691345e-05,0.0014367606977148278,0.5021602511405945,34.09072494506836,3.7752349376678467,-19.511445999145508,-0.2548118233680725,-1.777347207069397,0.07724325358867645,0
31,0.15003681182861328,-0.5299312472343445,-34.03915023803711,-3.7990386486053467,19.511445999145508,0.2603049874305725,1.777347207069397,-0.12485067546367645,0.0,0.0,0.0,0.0,0.0,0.0,0.0,-0.5121149458254837,0.0539486478041006,-0.2237148325926152,0.48351110136830183,0.195340509084534,-0.12484577970730566,-0.11220017949435851,1.0545595832916725,0.32430097119724377,-0.3924932305561869,-2.1535060554442453,0.8647479468445942,2.465940398645758,0.5444918976695181,1.0544104758940245,0.3238615046091247,-0.39250456234122666,-2.153291787532338,0.8647539153680389,2.46587817577521,0.5445020185570556,0.001002479918523517,0.0002799885598347766,0.0008636302445643607,7.214025047693026e-05,-0.0006144610309985683,-1.2235788209245584e-05,0.0007174679146014494,0.0,0.0,0.0,0.0,0.0,0.0,0.0,-0.0001491073976480628,-0.0004394665881190529,-1.1331785039758735e-05,0.00021426791190748418,5.968523444699336e-06,-6.222287054802322e-05,1.0120887537490297e-05,-0.001002479918523517,-0.0002799885598347766,-0.0008636302445643607,-7.214025047693026e-05,0.0006144610309985683,1.2235788209245584e-05,-0.0007174679146014494,0.5299312472343445,34.03915023803711,3.7990386486053467,-19.511445999145508,-0.2603049874305725,-1.777347207069397,0.12485067546367645,0
32,0.1549539566040039,-0.5299312472343445,-34.03915023803711,-3.7990386486053467,19.511445999145508,0.2603049874305725,1.777347207069397,-0.12485067546367645,0.0,0.0,0.0,0.0,0.0,0.0,0.0,-0.5121149458254837,0.0539486478041006,-0.2237148325926152,0.48351110136830183,0.195340509084534,-0.12484577970730566,-0.11220017949435851,1.0545595832916725,0.32430097119724377,-0.3924932305561869,-2.1535060554442453,0.8647479468445942,2.465940398645758,0.5444918976695181,1.0544104758940245,0.3238615046091247,-0.39250456234122666,-2.153291787532338,0.8647539153680389,2.46587817577521,0.5445020185570556,0.001002479918523517,0.0002799885598347766,0.0008636302445643607,7.214025047693026e-05,-0.0006144610309985683,-1.2235788209245584e-05,0.0007174679146014494,0.0,0.0,0.0,0.0,0.0,0.0,0.0,-0.0001491073976480628,-0.0004394665881190529,-1.1331785039758735e-05,0.00021426791190748418,5.968523444699336e-06,-6.222287054802322e-05,1.0120887537490297e-05,-0.001002479918523517,-0.0002799885598347766,-0.0008636302445643607,-7.214025047693026e-05,0.0006144610309985683,1.2235788209245584e-05,-0.0007174679146014494,0.5299312472343445,34.03915023803711,3.7990386486053467,-19.511445999145508,-0.2603049874305725,-1.777347207069397,0.12485067546367645,0
33,0.15999627113342285,-0.5537349581718445,-33.99154281616211,-3.7990386486053467,19.511445999145508,0.2667136788368225,1.777347207069397,-0.10470907390117645,0.0,0.0,0.0,0.0,0.0,0.0,0.0,-0.5260849153656093,0.05400162127064628,-0.23424621962234546,0.4833141529319332,0.19568350457435194,-0.12394254099073165,-0.11323568588714315,1.054561253727528,0.32429763127029126,-0.3924932305561869,-2.153506039201649,0.8647472701372698,2.4659404030243306,0.5444896251577972,1.0544104758940245,0.3238615046091247,-0.39250456234122666,-2.153291787532338,0.8647539153680389,2.46587817577521,0.5445020185570556,-0.0003026929959463354,-0.0002536646845289383,-0.00021403596940743581,0.00021075709011637327,-0.0006644685572094649,4.750510024087591e-06,-0.0002047428313638672,0.0,0.0,0.0,0.0,0.0,0.0,0.0,-0.00015077783350347929,-0.0004361266611665471,-1.1331785039758735e-05,0.00021425166931132722,6.645230769097843e-06,-6.222724912063882e-05,1.2393399258403548e-05,0.0003026929959463354,0.0002536646845289383,0.00021403596940743581,-0.00021075709011637327,0.0006644685572094649,-4.750510024087591e-06,0.0002047428313638672,0.5537349581718445,33.99154281616211,3.7990386486053467,-19.511445999145508,-0.2667136788368225,-1.777347207069397,0.10470907390117645,0
34,0.1649942398071289,-0.5537349581718445,-33.99154281616211,-3.7990386486053467,19.511445999145508,0.2667136788368225,1.777347207069397,-0.10470907390117645,0.0,0.0,0.0,0.0,0.0,0.0,0.0,-0.5260849153656093,0.05400162127064628,-0.23424621962234546,0.4833141529319332,0.19568350457435194,-0.12394254099073165,-0.11323568588714315,1.054561253727528,0.32429763127029126,-0.3924932305561869,-2.153506039201649,0.8647472701372698,2.4659404030243306,0.5444896251577972,1.0544104758940245,0.3238615046091247,-0.39250456234122666,-2.153291787532338,0.8647539153680389,2.46587817577521,0.5445020185570556,-0.0003026929959463354,-0.0002536646845289383,-0.00021403596940743581,0.00021075709011637327,-0.0006644685572094649,4.750510024087591e-06,-0.0002047428313638672,0.0,0.0,0.0,0.0,0.0,0.0,0.0,-0.00015077783350347929,-0.0004361266611665471,-1.1331785039758735e-05,0.00021425166931132722,6.645230769097843e-06,-6.222724912063882e-05,1.2393399258403548e-05,0.0003026929959463354,0.0002536646845289383,0.00021403596940743581,-0.00021075709011637327,0.0006644685572094649,-4.750510024087591e-06,0.0002047428313638672,0.5537349581718445,33.99154281616211,3.7990386486053467,-19.511445999145508,-0.2667136788368225,-1.777347207069397,0.10470907390117645,0
35,0.17017388343811035,-0.5815059542655945,-33.93996810913086,-3.8744170665740967,19.511445999145508,0.2548118233680725,1.777347207069397,-0.09097616374492645,0.0,0.0,0.0,0.0,0.0,0.0,0.0,-0.536558318994437,0.05427575266306498,-0.23621404058855214,0.48470570971879384,0.1956766732185345,-0.12407240323586675,-0.11274589532827786,1.054563202569359,0.32429401101146377,-0.3924879408426452,-2.15350829232826,0.8647484399430789,2.465936164471838,0.5444870363027844,1.0544104758940245,0.3238615046091247,-0.39250456234122666,-2.153291787532338,0.8647539153680389,2.46587817577521,0.5445020185570556,-0.0006155503356718651,-0.0013460697184144315,0.0005889726162366246,-0.00030771435697416377,-0.0003361374891110231,6.110604092074754e-05,-0.0007637982422783519,0.0,0.0,0.0,0.0,0.0,0.0,0.0,-0.00015272667533450246,-0.00043250640233905013,-1.6621498581448346e-05,0.00021650479592194571,5.475424959988651e-06,-5.798869662809736e-05,1.4982254271211914e-05,0.0006155503356718651,0.0013460697184144315,-0.0005889726162366246,0.00030771435697416377,0.0003361374891110231,-6.110604092074754e-05,0.0007637982422783519,0.5815059542655945,33.93996810913086,3.8744170665740967,-19.511445999145508,-0.2548118233680725,-1.777347207069397,0.09097616374492645,0
36,0.17499709129333496,-0.5815059542655945,-33.93996810913086,-3.8744170665740967,19.511445999145508,0.2548118233680725,1.777347207069397,-0.09097616374492645,0.0,0.0,0.0,0.0,0.0,0.0,0.0,-0.536558318994437,0.05427575266306498,-0.23621404058855214,0.48470570971879384,0.1956766732185345,-0.12407240323586675,-0.11274589532827786,1.054563202569359,0.32429401101146377,-0.3924879408426452,-2.15350829232826,0.8647484399430789,2.465936164471838,0.5444870363027844,1.0544104758940245,0.3238615046091247,-0.39250456234122666,-2.153291787532338,0.8647539153680389,2.46587817577521,0.5445020185570556,-0.0006155503356718651,-0.0013460697184144315,0.0005889726162366246,-0.00030771435697416377,-0.0003361374891110231,6.110604092074754e-05,-0.0007637982422783519,0.0,0.0,0.0,0.0,0.0,0.0,0.0,-0.00015272667533450246,-0.00043250640233905013,-1.6621498581448346e-05,0.00021650479592194571,5.475424959988651e-06,-5.798869662809736e-05,1.4982254271211914e-05,0.0006155503356718651,0.0013460697184144315,-0.0005889726162366246,0.00030771435697416377,0.0003361374891110231,-6.110604092074754e-05,0.0007637982422783519,0.5815059542655945,33.93996810913086,3.8744170665740967,-19.511445999145508,-0.2548118233680725,-1.777347207069397,0.09097616374492645,0
37,0.18000483512878418,-0.6291133761405945,-33.96377182006836,-3.8228423595428467,19.487642288208008,0.2365012764930725,1.777347207069397,-0.11111776530742645,0.0,0.0,0.0,0.0,0.0,0.0,0.0,-0.5376375520286057,0.05890094273065066,-0.23205980250122288,0.4883709933425631,0.1947135533496335,-0.1252925374916391,-0.11210532554146897,1.0545665434410696,0.3242956814473135,-0.3924915601203316,-2.153504614444563,0.8647506313770172,2.4659403899184764,0.5444892727451276,1.0544104758940245,0.3238615046091247,-0.39250456234122666,-2.153291787532338,0.8647539153680389,2.46587817577521,0.5445020185570556,0.00036713735808161305,-0.0006564817367032278,-0.000811020511727511,0.000490415210389549,0.0006098270833768977,0.00016080284100171435,0.00024897913718797916,0.0,0.0,0.0,0.0,0.0,0.0,0.0,-0.00015606754704511339,-0.0004341768381888045,-1.3002220895064198e-05,0.00021282691222523908,3.283991021674204e-06,-6.221414326645913e-05,1.2745811928005502e-05,-0.00036713735808161305,0.0006564817367032278,0.000811020511727511,-0.000490415210389549,-0.0006098270833768977,-0.00016080284100171435,-0.00024897913718797916,0.6291133761405945,33.96377182006836,3.8228423595428467,-19.487642288208008,-0.2365012764930725,-1.777347207069397,0.11111776530742645,0
38,0.1850268840789795,-0.6291133761405945,-33.96377182006836,-3.8228423595428467,19.487642288208008,0.2365012764930725,1.777347207069397,-0.11111776530742645,0.0,0.0,0.0,0.0,0.0,0.0,0.0,-0.5376375520286057,0.05890094273065066,-0.23205980250122288,0.4883709933425631,0.1947135533496335,-0.1252925374916391,-0.11210532554146897,1.0545665434410696,0.3242956814473135,-0.3924915601203316,-2.153504614444563,0.8647506313770172,2.4659403899184764,0.5444892727451276,1.0544104758940245,0.3238615046091247,-0.39250456234122666,-2.153291787532338,0.8647539153680389,2.46587817577521,0.5445020185570556,0.00036713735808161305,-0.0006564817367032278,-0.000811020511727511,0.000490415210389549,0.0006098270833768977,0.00016080284100171435,0.00024897913718797916,0.0,0.0,0.0,0.0,0.0,0.0,0.0,-0.00015606754704511339,-0.0004341768381888045,-1.3002220895064198e-05,0.00021282691222523908,3.283991021674204e-06,-6.221414326645913e-05,1.2745811928005502e-05,-0.00036713735808161305,0.0006564817367032278,0.000811020511727511,-0.000490415210389549,-0.0006098270833768977,-0.00016080284100171435,-0.00024897913718797916,0.6291133761405945,33.96377182006836,3.8228423595428467,-19.487642288208008,-0.2365012764930725,-1.777347207069397,0.11111776530742645,0
39,0.19004225730895996,-0.5537349581718445,-34.03915023803711,-3.8744170665740967,19.511445999145508,0.2484031319618225,1.783755898475647,-0.11844198405742645,0.0,0.0,0.0,0.0,0.0,0.0,0.0,-0.5479385310865419,0.06094116865491672,-0.23736626051243856,0.48922788168868314,0.19446008062511047,-0.12536669556972493,-0.11078912247081638,1.054561253727528,0.3243009711608552,-0.3924879408426452,-2.1535082614659298,0.8647492697574962,2.4659361573668104,0.5444901258468944,1.0544104758940245,0.3238615046091247,-0.39250456234122666,-2.153291787532338,0.8647539153680389,2.46587817577521,0.5445020185570556,-0.000811223023917715,0.0009104883170223392,0.0003290039562970228,9.149244308229342e-06,-6.929296349697301e-05,-0.0001584664705790092,0.0003028337993395701,0.0,0.0,0.0,0.0,0.0,0.0,0.0,-0.00015077783350347929,-0.0004394665517304941,-1.6621498581448346e-05,0.0002164739335919208,4.645610542697298e-06,-5.7981591600420046e-05,1.1892710161220954e-05,0.000811223023917715,-0.0009104883170223392,-0.0003290039562970228,-9.149244308229342e-06,6.929296349697301e-05,0.0001584664705790092,-0.0003028337993395701,0.5537349581718445,34.03915023803711,3.8744170665740967,-19.511445999145508,-0.2484031319618225,-1.783755898475647,0.11844198405742645,0
40,0.19502615928649902,-0.5537349581718445,-34.03915023803711,-3.8744170665740967,19.511445999145508,0.2484031319618225,1.783755898475647,-0.11844198405742645,0.0,0.0,0.0,0.0,0.0,0.0,0.0,-0.5479385310865419,0.06094116865491672,-0.23736626051243856,0.48922788168868314,0.19446008062511047,-0.12536669556972493,-0.11078912247081638,1.054561253727528,0.3243009711608552,-0.3924879408426452,-2.1535082614659298,0.8647492697574962,2.4659361573668104,0.5444901258468944,1.0544104758940245,0.3238615046091247,-0.39250456234122666,-2.153291787532338,0.8647539153680389,2.46587817577521,0.5445020185570556,-0.000811223023917715,0.0009104883170223392,0.0003290039562970228,9.149244308229342e-06,-6.929296349697301e-05,-0.0001584664705790092,0.0003028337993395701,0.0,0.0,0.0,0.0,0.0,0.0,0.0,-0.00015077783350347929,-0.0004394665517304941,-1.6621498581448346e-05,0.0002164739335919208,4.645610542697298e-06,-5.7981591600420046e-05,1.1892710161220954e-05,0.000811223023917715,-0.0009104883170223392,-0.0003290039562970228,-9.149244308229342e-06,6.929296349697301e-05,0.0001584664705790092,-0.0003028337993395701,0.5537349581718445,34.03915023803711,3.8744170665740967,-19.511445999145508,-0.2484031319618225,-1.783755898475647,0.11844198405742645,0
41,0.20018625259399414,-0.5299312472343445,-34.06295394897461,-3.8744170665740967,19.511445999145508,0.2484031319618225,1.790164589881897,-0.09097616374492645,0.0,0.0,0.0,0.0,0.0,0.0,0.0,-0.5453610617106148,0.06063157084538381,-0.2372263617501596,0.4884908254508112,0.19416423361084265,-0.12602966136661828,-0.11035355007669931,1.0545595832916725,0.32430264159671046,-0.3924879408426452,-2.1535070536091343,0.8647493085186149,2.4659388567525418,0.5444870367276787,1.0544104758940245,0.3238615046091247,-0.39250456234122666,-2.153291787532338,0.8647539153680389,2.46587817577521,0.5445020185570556,-0.0003786000185030747,0.0006982029370524935,0.001234919508024227,-0.0002820579205106279,5.528914558235222e-05,-0.00018865939534548507,-0.0002453760208685234,0.0,0.0,0.0,0.0,0.0,0.0,0.0,-0.0001491073976480628,-0.00044113698758574404,-1.6621498581448346e-05,0.00021526607679644982,4.606849424049209e-06,-6.068097733180622e-05,1.4981829376869982e-05,0.0003786000185030747,-0.0006982029370524935,-0.001234919508024227,0.0002820579205106279,-5.528914558235222e-05,0.00018865939534548507,0.0002453760208685234,0.5299312472343445,34.06295394897461,3.8744170665740967,-19.511445999145508,-0.2484031319618225,-1.790164589881897,0.09097616374492645,0
42,0.20499420166015625,-0.5299312472343445,-34.06295394897461,-3.8744170665740967,19.511445999145508,0.2484031319618225,1.790164589881897,-0.09097616374492645,0.0,0.0,0.0,0.0,0.0,0.0,0.0,-0.5453610617106148,0.06063157084538381,-0.2372263617501596,0.4884908254508112,0.19416423361084265,-0.12602966136661828,-0.11035355007669931,1.0545595832916725,0.32430264159671046,-0.3924879408426452,-2.1535070536091343,0.8647493085186149,2.4659388567525418,0.5444870367276787,1.0544104758940245,0.3238615046091247,-0.39250456234122666,-2.153291787532338,0.8647539153680389,2.46587817577521,0.5445020185570556,-0.0003786000185030747,0.0006982029370524935,0.001234919508024227,-0.0002820579205106279,5.528914558235222e-05,-0.00018865939534548507,-0.0002453760208685234,0.0,0.0,0.0,0.0,0.0,0.0,0.0,-0.0001491073976480628,-0.00044113698758574404,-1.6621498581448346e-05,0.00021526607679644982,4.606849424049209e-06,-6.068097733180622e-05,1.4981829376869982e-05,0.0003786000185030747,-0.0006982029370524935,-0.001234919508024227,0.0002820579205106279,-5.528914558235222e-05,0.00018865939534548507,0.0002453760208685234,0.5299312472343445,34.06295394897461,3.8744170665740967,-19.511445999145508,-0.2484031319618225,-1.790164589881897,0.09097616374492645,0
43,0.20999622344970703,-0.5299312472343445,-34.03915023803711,-3.7752349376678467,19.511445999145508,0.2429099678993225,1.783755898475647,-0.07724325358867645,0.0,0.0,0.0,0.0,0.0,0.0,0.0,-0.5431104214445613,0.05589963193172362,-0.240844629553424,0.48812895200000145,0.194272703620316,-0.12504767821655363,-0.11006430937763645,1.0545595832916725,0.3243009711608552,-0.39249490099204215,-2.1535060585018173,0.8647499193549129,2.4659396514856455,0.5444887052674856,1.0544104758940245,0.3238615046091247,-0.39250456234122666,-2.153291787532338,0.8647539153680389,2.46587817577521,0.5445020185570556,0.0006556032801345675,-0.00040258029459020904,-0.0002891946528337982,-7.577495722862625e-05,0.00019683359692001647,-2.9020595258639082e-05,-0.001218769118932706,0.0,0.0,0.0,0.0,0.0,0.0,0.0,-0.0001491073976480628,-0.0004394665517304941,-9.661349184508783e-06,0.00021427096947945756,3.996013126061904e-06,-6.147571043557676e-05,1.3313289569993891e-05,-0.0006556032801345675,0.00040258029459020904,0.0002891946528337982,7.577495722862625e-05,-0.00019683359692001647,2.9020595258639082e-05,0.001218769118932706,0.5299312472343445,34.03915023803711,3.7752349376678467,-19.511445999145508,-0.2429099678993225,-1.783755898475647,0.07724325358867645,0
44,0.214996337890625,-0.5299312472343445,-34.03915023803711,-3.7752349376678467,19.511445999145508,0.2429099678993225,1.783755898475647,-0.07724325358867645,0.0,0.0,0.0,0.0,0.0,0.0,0.0,-0.5431104214445613,0.05589963193172362,-0.240844629553424,0.48812895200000145,0.194272703620316,-0.12504767821655363,-0.11006430937763645,1.0545595832916725,0.3243009711608552,-0.39249490099204215,-2.1535060585018173,0.8647499193549129,2.4659396514856455,0.5444887052674856,1.0544104758940245,0.3238615046091247,-0.39250456234122666,-2.153291787532338,0.8647539153680389,2.46587817577521,0.5445020185570556,0.0006556032801345675,-0.00040258029459020904,-0.0002891946528337982,-7.577495722862625e-05,0.00019683359692001647,-2.9020595258639082e-05,-0.001218769118932706,0.0,0.0,0.0,0.0,0.0,0.0,0.0,-0.0001491073976480628,-0.0004394665517304941,-9.661349184508783e-06,0.00021427096947945756,3.996013126061904e-06,-6.147571043557676e-05,1.3313289569993891e-05,-0.0006556032801345675,0.00040258029459020904,0.0002891946528337982,7.577495722862625e-05,-0.00019683359692001647,2.9020595258639082e-05,0.001218769118932706,0.5299312472343445,34.03915023803711,3.7752349376678467,-19.511445999145508,-0.2429099678993225,-1.783755898475647,0.07724325358867645,0
45,0.21999597549438477,-0.4267818331718445,-34.03915023803711,-3.7752349376678467,19.511445999145508,0.2603049874305725,1.783755898475647,-0.12485067546367645,0.0,0.0,0.0,0.0,0.0,0.0,0.0,-0.5380049912792456,0.05342041878168805,-0.23929546638316262,0.4863053498402692,0.19463606953329657,-0.12410714924873308,-0.11098249699998737,1.0545523437551536,0.3243009711608552,-0.39249702689103916,-2.1535090214130217,0.8647479865749677,2.4659396516476177,0.5444912700768654,1.0544104758940245,0.3238615046091247,-0.39250456234122666,-2.153291787532338,0.8647539153680389,2.46587817577521,0.5445020185570556,-0.0014292098862461816,-0.0001185362341294739,0.00012754028587584897,7.550420450375878e-05,-0.0004471371593960895,-4.804928148436341e-05,0.0002683972628746581,0.0,0.0,0.0,0.0,0.0,0.0,0.0,-0.0001418678611291302,-0.0004394665517304941,-7.535450187501347e-06,0.00021723388068384253,5.928793071263705e-06,-6.147587240779018e-05,1.0748480190225784e-05,0.0014292098862461816,0.0001185362341294739,-0.00012754028587584897,-7.550420450375878e-05,0.0004471371593960895,4.804928148436341e-05,-0.0002683972628746581,0.4267818331718445,34.03915023803711,3.7752349376678467,-19.511445999145508,-0.2603049874305725,-1.783755898475647,0.12485067546367645,0
46,0.22504401206970215,-0.4267818331718445,-34.03915023803711,-3.7752349376678467,19.511445999145508,0.2603049874305725,1.783755898475647,-0.12485067546367645,0.0,0.0,0.0,0.0,0.0,0.0,0.0,-0.5380049912792456,0.05342041878168805,-0.23929546638316262,0.4863053498402692,0.19463606953329657,-0.12410714924873308,-0.11098249699998737,1.0545523437551536,0.3243009711608552,-0.39249702689103916,-2.1535090214130217,0.8647479865749677,2.4659396516476177,0.5444912700768654,1.0544104758940245,0.3238615046091247,-0.39250456234122666,-2.153291787532338,0.8647539153680389,2.46587817577521,0.5445020185570556,-0.0014292098862461816,-0.0001185362341294739,0.00012754028587584897,7.550420450375878e-05,-0.0004471371593960895,-4.804928148436341e-05,0.0002683972628746581,0.0,0.0,0.0,0.0,0.0,0.0,0.0,-0.0001418678611291302,-0.0004394665517304941,-7.535450187501347e-06,0.00021723388068384253,5.928793071263705e-06,-6.147587240779018e-05,1.0748480190225784e-05,0.0014292098862461816,0.0001185362341294739,-0.00012754028587584897,-7.550420450375878e-05,0.0004471371593960895,4.804928148436341e-05,-0.0002683972628746581,0.4267818331718445,34.03915023803711,3.7752349376678467,-19.511445999145508,-0.2603049874305725,-1.783755898475647,0.12485067546367645,0
47,0.23002862930297852,-0.5021602511405945,-34.01534652709961,-3.7514312267303467,19.511445999145508,0.2429099678993225,1.777347207069397,-0.07724325358867645,0.0,0.0,0.0,0.0,0.0,0.0,0.0,-0.5357518037074107,0.05531259504313714,-0.2402695192924068,0.48379621884213164,0.19495736379385054,-0.12355815001328622,-0.11162613271529429,1.0545576344498362,0.32429930072499996,-0.39249657143989813,-2.153506768717576,0.8647499179013654,2.4659402809259126,0.5444855612409539,1.0544104758940245,0.3238615046091247,-0.39250456234122666,-2.153291787532338,0.8647539153680389,2.46587817577521,0.5445020185570556,-4.414102446624611e-05,0.00018780742502437134,-8.3533882762472e-05,5.443337041394116e-05,0.00011002474660965739,9.524186080074753e-05,-0.0016882771193713025,0.0,0.0,0.0,0.0,0.0,0.0,0.0,-0.00014715855581171056,-0.00043779611587524414,-7.99090132852509e-06,0.0002149811852381056,3.9974666735664854e-06,-6.210515070259603e-05,1.6457316101670116e-05,4.414102446624611e-05,-0.00018780742502437134,8.3533882762472e-05,-5.443337041394116e-05,-0.00011002474660965739,-9.524186080074753e-05,0.0016882771193713025,0.5021602511405945,34.01534652709961,3.7514312267303467,-19.511445999145508,-0.2429099678993225,-1.777347207069397,0.07724325358867645,0
48,0.2349545955657959,-0.5021602511405945,-34.01534652709961,-3.7514312267303467,19.511445999145508,0.2429099678993225,1.777347207069397,-0.07724325358867645,0.0,0.0,0.0,0.0,0.0,0.0,0.0,-0.5357518037074107,0.05531259504313714,-0.2402695192924068,0.48379621884213164,0.19495736379385054,-0.12355815001328622,-0.11162613271529429,1.0545576344498362,0.32429930072499996,-0.39249657143989813,-2.153506768717576,0.8647499179013654,2.4659402809259126,0.5444855612409539,1.0544104758940245,0.3238615046091247,-0.39250456234122666,-2.153291787532338,0.8647539153680389,2.46587817577521,0.5445020185570556,-4.414102446624611e-05,0.00018780742502437134,-8.3533882762472e-05,5.443337041394116e-05,0.00011002474660965739,9.524186080074753e-05,-0.0016882771193713025,0.0,0.0,0.0,0.0,0.0,0.0,0.0,-0.00014715855581171056,-0.00043779611587524414,-7.99090132852509e-06,0.0002149811852381056,3.9974666735664854e-06,-6.210515070259603e-05,1.6457316101670116e-05,4.414102446624611e-05,-0.00018780742502437134,8.3533882762472e-05,-5.443337041394116e-05,-0.00011002474660965739,-9.524186080074753e-05,0.0016882771193713025,0.5021602511405945,34.01534652709961,3.7514312267303467,-19.511445999145508,-0.2429099678993225,-1.777347207069397,0.07724325358867645,0
49,0.23999357223510742,-0.5021602511405945,-34.01534652709961,-3.7514312267303467,19.511445999145508,0.2429099678993225,1.777347207069397,-0.07724325358867645,0.0,0.0,0.0,0.0,0.0,0.0,0.0,-0.5357518037074107,0.05531259504313714,-0.2402695192924068,0.48379621884213164,0.19495736379385054,-0.12355815001328622,-0.11162613271529429,1.0545576344498362,0.32429930072499996,-0.39249657143989813,-2.153506768717576,0.8647499179013654,2.4659402809259126,0.5444855612409539,1.0544104758940245,0.3238615046091247,-0.39250456234122666,-2.153291787532338,0.8647539153680389,2.46587817577521,0.5445020185570556,-4.414102446624611e-05,0.00018780742502437134,-8.3533882762472e-05,5.443337041394116e-05,0.00011002474660965739,9.524186080074753e-05,-0.0016882771193713025,0.0,0.0,0.0,0.0,0.0,0.0,0.0,-0.00014715855581171056,-0.00043779611587524414,-7.99090132852509e-06,0.0002149811852381056,3.9974666735664854e-06,-6.210515070259603e-05,1.6457316101670116e-05,4.414102446624611e-05,-0.00018780742502437134,8.3533882762472e-05,-5.443337041394116e-05,-0.00011002474660965739,-9.524186080074753e-05,0.0016882771193713025,0.5021602511405945,34.01534652709961,3.7514312267303467,-19.511445999145508,-0.2429099678993225,-1.777347207069397,0.07724325358867645,0
50,0.24499821662902832,-0.5021602511405945,-34.01534652709961,-3.7514312267303467,19.511445999145508,0.2429099678993225,1.777347207069397,-0.07724325358867645,0.0,0.0,0.0,0.0,0.0,0.0,0.0,-0.5357518037074107,0.05531259504313714,-0.2402695192924068,0.48379621884213164,0.19495736379385054,-0.12355815001328622,-0.11162613271529429,1.0545576344498362,0.32429930072499996,-0.39249657143989813,-2.153506768717576,0.8647499179013654,2.4659402809259126,0.5444855612409539,1.0544104758940245,0.3238615046091247,-0.39250456234122666,-2.153291787532338,0.8647539153680389,2.46587817577521,0.5445020185570556,-4.414102446624611e-05,0.00018780742502437134,-8.3533882762472e-05,5.443337041394116e-05,0.00011002474660965739,9.524186080074753e-05,-0.0016882771193713025,0.0,0.0,0.0,0.0,0.0,0.0,0.0,-0.00014715855581171056,-0.00043779611587524414,-7.99090132852509e-06,0.0002149811852381056,3.9974666735664854e-06,-6.210515070259603e-05,1.6457316101670116e-05,4.414102446624611e-05,-0.00018780742502437134,8.3533882762472e-05,-5.443337041394116e-05,-0.00011002474660965739,-9.524186080074753e-05,0.0016882771193713025,0.5021602511405945,34.01534652709961,3.7514312267303467,-19.511445999145508,-0.2429099678993225,-1.777347207069397,0.07724325358867645,0
51,0.24999690055847168,-0.4783565402030945,-33.96377182006836,-3.7990386486053467,19.511445999145508,0.2484031319618225,1.783755898475647,-0.12485067546367645,0.0,0.0,0.0,0.0,0.0,0.0,0.0,-0.5352451392268422,0.05573222491186639,-0.23986884048096843,0.48494784126103363,0.19511853907925727,-0.12334091843741432,-0.11172171086263796,1.054555964013986,0.3242956814473135,-0.39249323055618696,-2.1535067687048595,0.8647493090033449,2.4659363550490285,0.5444939819531948,1.0544104758940245,0.3238615046091247,-0.39250456234122666,-2.153291787532338,0.8647539153680389,2.46587817577521,0.5445020185570556,-0.0010032367106253726,-0.0007664072800022393,0.00034286793001610515,-0.00012234288159482853,4.497067152276964e-05,-0.00020319586059598378,0.000793541957127805,0.0,0.0,0.0,0.0,0.0,0.0,0.0,-0.00014548811996162314,-0.0004341768381888045,-1.1331785039703224e-05,0.00021498117252161109,4.606364694015319e-06,-5.8179273818570465e-05,8.036603860839264e-06,0.0010032367106253726,0.0007664072800022393,-0.00034286793001610515,0.00012234288159482853,-4.497067152276964e-05,0.00020319586059598378,-0.000793541957127805,0.4783565402030945,33.96377182006836,3.7990386486053467,-19.511445999145508,-0.2484031319618225,-1.783755898475647,0.12485067546367645,0
52,0.2550048828125,-0.4783565402030945,-33.96377182006836,-3.7990386486053467,19.511445999145508,0.2484031319618225,1.783755898475647,-0.12485067546367645,0.0,0.0,0.0,0.0,0.0,0.0,0.0,-0.5352451392268422,0.05573222491186639,-0.23986884048096843,0.48494784126103363,0.19511853907925727,-0.12334091843741432,-0.11172171086263796,1.054555964013986,0.3242956814473135,-0.39249323055618696,-2.1535067687048595,0.8647493090033449,2.4659363550490285,0.5444939819531948,1.0544104758940245,0.3238615046091247,-0.39250456234122666,-2.153291787532338,0.8647539153680389,2.46587817577521,0.5445020185570556,-0.0010032367106253726,-0.0007664072800022393,0.00034286793001610515,-0.00012234288159482853,4.497067152276964e-05,-0.00020319586059598378,0.000793541957127805,0.0,0.0,0.0,0.0,0.0,0.0,0.0,-0.00014548811996162314,-0.0004341768381888045,-1.1331785039703224e-05,0.00021498117252161109,4.606364694015319e-06,-5.8179273818570465e-05,8.036603860839264e-06,0.0010032367106253726,0.0007664072800022393,-0.00034286793001610515,0.00012234288159482853,-4.497067152276964e-05,0.00020319586059598378,-0.000793541957127805,0.4783565402030945,33.96377182006836,3.7990386486053467,-19.511445999145508,-0.2484031319618225,-1.783755898475647,0.12485067546367645,0
53,0.2599935531616211,-0.5537349581718445,-33.96377182006836,-3.7990386486053467,19.535249710083008,0.2484031319618225,1.763614296913147,-0.11844198405742645,0.0,0.0,0.0,0.0,0.0,0.0,0.0,-0.5269995708302857,0.06064951373260399,-0.23350833827625703,0.48467094012859435,0.19473236301747346,-0.1242647731914712,-0.11221375812569813,1.054561253727528,0.32429782721452544,-0.3924932306641937,-2.1535087793199237,0.8647489557906434,2.46594192888443,0.544490440262399,1.0544104758940245,0.3238615046091247,-0.39250456234122666,-2.153291787532338,0.8647539153680389,2.46587817577521,0.5445020185570556,0.0005028240503802705,-0.0005918287048801441,-0.00030386732473252617,-0.0010800118425488413,-1.301014781523903e-06,0.0006337054862681103,0.0008200470289141919,0.0,0.0,0.0,0.0,0.0,0.0,0.0,-0.00015077783350347929,-0.00043632260540071854,-1.133167703293303e-05,0.0002169917875858296,4.959577395546866e-06,-6.375310922024369e-05,1.1578294656588994e-05,-0.0005028240503802705,0.0005918287048801441,0.00030386732473252617,0.0010800118425488413,1.301014781523903e-06,-0.0006337054862681103,-0.0008200470289141919,0.5537349581718445,33.96377182006836,3.7990386486053467,-19.535249710083008,-0.2484031319618225,-1.763614296913147,0.11844198405742645,0
54,0.26503944396972656,-0.5537349581718445,-33.96377182006836,-3.7990386486053467,19.535249710083008,0.2484031319618225,1.763614296913147,-0.11844198405742645,0.0,0.0,0.0,0.0,0.0,0.0,0.0,-0.5269995708302857,0.06064951373260399,-0.23350833827625703,0.48467094012859435,0.19473236301747346,-0.1242647731914712,-0.11221375812569813,1.054561253727528,0.32429782721452544,-0.3924932306641937,-2.1535087793199237,0.8647489557906434,2.46594192888443,0.544490440262399,1.0544104758940245,0.3238615046091247,-0.39250456234122666,-2.153291787532338,0.8647539153680389,2.46587817577521,0.5445020185570556,0.0005028240503802705,-0.0005918287048801441,-0.00030386732473252617,-0.0010800118425488413,-1.301014781523903e-06,0.0006337054862681103,0.0008200470289141919,0.0,0.0,0.0,0.0,0.0,0.0,0.0,-0.00015077783350347929,-0.00043632260540071854,-1.133167703293303e-05,0.0002169917875858296,4.959577395546866e-06,-6.375310922024369e-05,1.1578294656588994e-05,-0.0005028240503802705,0.0005918287048801441,0.00030386732473252617,0.0010800118425488413,1.301014781523903e-06,-0.0006337054862681103,-0.0008200470289141919,0.5537349581718445,33.96377182006836,3.7990386486053467,-19.535249710083008,-0.2484031319618225,-1.763614296913147,0.11844198405742645,0
55,0.26999330520629883,-0.5299312472343445,-34.03915023803711,-3.8228423595428467,19.511445999145508,0.2429099678993225,1.790164589881897,-0.09738485515117645,0.0,0.0,0.0,0.0,0.0,0.0,0.0,-0.5368204993082327,0.053185122608265,-0.2446406687182518,0.49046284985974287,0.19455416731603342,-0.12386255657591617,-0.11116215187365626,1.0545595832916725,0.3243009721541145,-0.39249156012033215,-2.1535070984850293,0.8647467404385337,2.4659388611331394,0.5444888079598892,1.0544104758940245,0.3238615046091247,-0.39250456234122666,-2.153291787532338,0.8647539153680389,2.46587817577521,0.5445020185570556,-0.0006917160269401775,0.00045300147853600034,-0.0008101496465077076,0.00019027992538503988,0.00027046331144566345,-0.0005652803493094601,-0.000883471585097713,0.0,0.0,0.0,0.0,0.0,0.0,0.0,-0.0001491073976480628,-0.00043946754498980223,-1.3002220894509087e-05,0.00021531095269144984,7.174929505193717e-06,-6.068535792946861e-05,1.3210597166413152e-05,0.0006917160269401775,-0.00045300147853600034,0.0008101496465077076,-0.00019027992538503988,-0.00027046331144566345,0.0005652803493094601,0.000883471585097713,0.5299312472343445,34.03915023803711,3.8228423595428467,-19.511445999145508,-0.2429099678993225,-1.790164589881897,0.09738485515117645,0
56,0.27495551109313965,-0.5299312472343445,-34.03915023803711,-3.8228423595428467,19.511445999145508,0.2429099678993225,1.790164589881897,-0.09738485515117645,0.0,0.0,0.0,0.0,0.0,0.0,0.0,-0.5368204993082327,0.053185122608265,-0.2446406687182518,0.49046284985974287,0.19455416731603342,-0.12386255657591617,-0.11116215187365626,1.0545595832916725,0.3243009721541145,-0.39249156012033215,-2.1535070984850293,0.8647467404385337,2.4659388611331394,0.5444888079598892,1.0544104758940245,0.3238615046091247,-0.39250456234122666,-2.153291787532338,0.8647539153680389,2.46587817577521,0.5445020185570556,-0.0006917160269401775,0.00045300147853600034,-0.0008101496465077076,0.00019027992538503988,0.00027046331144566345,-0.0005652803493094601,-0.000883471585097713,0.0,0.0,0.0,0.0,0.0,0.0,0.0,-0.0001491073976480628,-0.00043946754498980223,-1.3002220894509087e-05,0.00021531095269144984,7.174929505193717e-06,-6.068535792946861e-05,1.3210597166413152e-05,0.0006917160269401775,-0.00045300147853600034,0.0008101496465077076,-0.00019027992538503988,-0.00027046331144566345,0.0005652803493094601,0.000883471585097713,0.5299312472343445,34.03915023803711,3.8228423595428467,-19.511445999145508,-0.2429099678993225,-1.790164589881897,0.09738485515117645,0
57,0.2799532413482666,-0.5815059542655945,-34.03915023803711,-3.8506133556365967,19.511445999145508,0.2365012764930725,1.790164589881897,-0.13858358561992645,0.0,0.0,0.0,0.0,0.0,0.0,0.0,-0.5410788243425668,0.057555593745851695,-0.2498081243216055,0.48910147439503415,0.19439225464148893,-0.12466377873866083,-0.11062562717755939,1.054563202569359,0.32430105074273674,-0.39248961127850046,-2.1535061105068687,0.8647506314137935,2.46593897881621,0.544492337644709,1.0544104758940245,0.3238615046091247,-0.39250456234122666,-2.153291787532338,0.8647539153680389,2.46587817577521,0.5445020185570556,-0.00044082144767737633,4.668051173276035e-05,-5.0441752113070575e-05,0.00037317205636616175,0.00031603248552559857,-0.00034342983375871183,0.001282808764753055,0.0,0.0,0.0,0.0,0.0,0.0,0.0,-0.00015272667533450246,-0.0004395461336120232,-1.4951062726198394e-05,0.00021432297453083393,3.283954245425491e-06,-6.080304099986833e-05,9.68091234665458e-06,0.00044082144767737633,-4.668051173276035e-05,5.0441752113070575e-05,-0.00037317205636616175,-0.00031603248552559857,0.00034342983375871183,-0.001282808764753055,0.5815059542655945,34.03915023803711,3.8506133556365967,-19.511445999145508,-0.2365012764930725,-1.790164589881897,0.13858358561992645,0
58,0.2850008010864258,-0.5815059542655945,-34.03915023803711,-3.8506133556365967,19.511445999145508,0.2365012764930725,1.790164589881897,-0.13858358561992645,0.0,0.0,0.0,0.0,0.0,0.0,0.0,-0.5410788243425668,0.057555593745851695,-0.2498081243216055,0.48910147439503415,0.19439225464148893,-0.12466377873866083,-0.11062562717755939,1.054563202569359,0.32430105074273674,-0.39248961127850046,-2.1535061105068687,0.8647506314137935,2.46593897881621,0.544492337644709,1.0544104758940245,0.3238615046091247,-0.39250456234122666,-2.153291787532338,0.8647539153680389,2.46587817577521,0.5445020185570556,-0.00044082144767737633,4.668051173276035e-05,-5.0441752113070575e-05,0.00037317205636616175,0.00031603248552559857,-0.00034342983375871183,0.001282808764753055,0.0,0.0,0.0,0.0,0.0,0.0,0.0,-0.00015272667533450246,-0.0004395461336120232,-1.4951062726198394e-05,0.00021432297453083393,3.283954245425491e-06,-6.080304099986833e-05,9.68091234665458e-06,0.00044082144767737633,-4.668051173276035e-05,5.0441752113070575e-05,-0.00037317205636616175,-0.00031603248552559857,0.00034342983375871183,-0.001282808764753055,0.5815059542655945,34.03915023803711,3.8506133556365967,-19.511445999145508,-0.2365012764930725,-1.790164589881897,0.13858358561992645,0
59,0.2899942398071289,-0.6053096652030945,-34.01534652709961,-3.8506133556365967,19.559053421020508,0.2484031319618225,1.783755898475647,-0.13858358561992645,0.0,0.0,0.0,0.0,0.0,0.0,0.0,-0.5574195183829681,0.05454106580407288,-0.259248432435038,0.4870235965985338,0.19363313288825873,-0.12398163104188728,-0.11038084114446499,1.0545648730052142,0.3242993272159587,-0.39248961127850046,-2.1535093958002594,0.8647491912657832,2.4659396865151013,0.5444924821563082,1.0544104758940245,0.3238615046091247,-0.39250456234122666,-2.153291787532338,0.8647539153680389,2.46587817577521,0.5445020185570556,0.0003139281606308456,-0.0006813292788780059,-0.00037348344405806346,-0.0009047675082767138,8.886581738077878e-06,-2.2487053655383335e-05,0.001236637971217315,0.0,0.0,0.0,0.0,0.0,0.0,0.0,-0.0001543971111896969,-0.0004378226068340041,-1.4951062726198394e-05,0.00021760826792149857,4.724102255715401e-06,-6.151073989135725e-05,9.53640074741191e-06,-0.0003139281606308456,0.0006813292788780059,0.00037348344405806346,0.0009047675082767138,-8.886581738077878e-06,2.2487053655383335e-05,-0.001236637971217315,0.6053096652030945,34.01534652709961,3.8506133556365967,-19.559053421020508,-0.2484031319618225,-1.783755898475647,0.13858358561992645,0
60,0.29499387741088867,-0.6053096652030945,-34.01534652709961,-3.8506133556365967,19.559053421020508,0.2484031319618225,1.783755898475647,-0.13858358561992645,0.0,0.0,0.0,0.0,0.0,0.0,0.0,-0.5574195183829681,0.05454106580407288,-0.259248432435038,0.4870235965985338,0.19363313288825873,-0.12398163104188728,-0.11038084114446499,1.0545648730052142,0.3242993272159587,-0.39248961127850046,-2.1535093958002594,0.8647491912657832,2.4659396865151013,0.5444924821563082,1.0544104758940245,0.3238615046091247,-0.39250456234122666,-2.153291787532338,0.8647539153680389,2.46587817577521,0.5445020185570556,0.0003139281606308456,-0.0006813292788780059,-0.00037348344405806346,-0.0009047675082767138,8.886581738077878e-06,-2.2487053655383335e-05,0.001236637971217315,0.0,0.0,0.0,0.0,0.0,0.0,0.0,-0.0001543971111896969,-0.0004378226068340041,-1.4951062726198394e-05,0.00021760826792149857,4.724102255715401e-06,-6.151073989135725e-05,9.53640074741191e-06,-0.0003139281606308456,0.0006813292788780059,0.00037348344405806346,0.0009047675082767138,-8.886581738077878e-06,2.2487053655383335e-05,-0.001236637971217315,0.6053096652030945,34.01534652709961,3.8506133556365967,-19.559053421020508,-0.2484031319618225,-1.783755898475647,0.13858358561992645,0
61,0.2999989986419678,-0.6053096652030945,-34.01534652709961,-3.8506133556365967,19.559053421020508,0.2484031319618225,1.783755898475647,-0.13858358561992645,0.0,0.0,0.0,0.0,0.0,0.0,0.0,-0.5574195183829681,0.05454106580407288,-0.259248432435038,0.4870235965985338,0.19363313288825873,-0.12398163104188728,-0.11038084114446499,1.0545648730052142,0.3242993272159587,-0.39248961127850046,-2.1535093958002594,0.8647491912657832,2.4659396865151013,0.5444924821563082,1.0544104758940245,0.3238615046091247,-0.39250456234122666,-2.153291787532338,0.8647539153680389,2.46587817577521,0.5445020185570556,0.0003139281606308456,-0.0006813292788780059,-0.00037348344405806346,-0.0009047675082767138,8.886581738077878e-06,-2.2487053655383335e-05,0.001236637971217315,0.0,0.0,0.0,0.0,0.0,0.0,0.0,-0.0001543971111896969,-0.0004378226068340041,-1.4951062726198394e-05,0.00021760826792149857,4.724102255715401e-06,-6.151073989135725e-05,9.53640074741191e-06,-0.0003139281606308456,0.0006813292788780059,0.00037348344405806346,0.0009047675082767138,-8.886581738077878e-06,2.2487053655383335e-05,-0.001236637971217315,0.6053096652030945,34.01534652709961,3.8506133556365967,-19.559053421020508,-0.2484031319618225,-1.783755898475647,0.13858358561992645,0
62,0.30500173568725586,-0.6053096652030945,-34.01534652709961,-3.8506133556365967,19.559053421020508,0.2484031319618225,1.783755898475647,-0.13858358561992645,0.0,0.0,0.0,0.0,0.0,0.0,0.0,-0.5574195183829681,0.05454106580407288,-0.259248432435038,0.4870235965985338,0.19363313288825873,-0.12398163104188728,-0.11038084114446499,1.0545648730052142,0.3242993272159587,-0.39248961127850046,-2.1535093958002594,0.8647491912657832,2.4659396865151013,0.5444924821563082,1.0544104758940245,0.3238615046091247,-0.39250456234122666,-2.153291787532338,0.8647539153680389,2.46587817577521,0.5445020185570556,0.0003139281606308456,-0.0006813292788780059,-0.00037348344405806346,-0.0009047675082767138,8.886581738077878e-06,-2.2487053655383335e-05,0.001236637971217315,0.0,0.0,0.0,0.0,0.0,0.0,0.0,-0.0001543971111896969,-0.0004378226068340041,-1.4951062726198394e-05,0.00021760826792149857,4.724102255715401e-06,-6.151073989135725e-05,9.53640074741191e-06,-0.0003139281606308456,0.0006813292788780059,0.00037348344405806346,0.0009047675082767138,-8.886581738077878e-06,2.2487053655383335e-05,-0.001236637971217315,0.6053096652030945,34.01534652709961,3.8506133556365967,-19.559053421020508,-0.2484031319618225,-1.783755898475647,0.13858358561992645,0
63,0.30995702743530273,-0.5537349581718445,-33.99154281616211,-3.8228423595428467,19.487642288208008,0.2429099678993225,1.796573281288147,-0.12485067546367645,0.0,0.0,0.0,0.0,0.0,0.0,0.0,-0.5339604977955285,0.06391257468862717,-0.23509365562800316,0.4825228639059352,0.19214583457441584,-0.12667218331711363,-0.11108314935548223,1.054561253727528,0.32429763028929415,-0.3924915601203316,-2.1535066123205957,0.8647499061107932,2.465935087879474,0.5444908000784656,1.0544104758940245,0.3238615046091247,-0.39250456234122666,-2.153291787532338,0.8647539153680389,2.46587817577521,0.5445020185570556,3.5727517702269596e-06,-0.0004039885594177808,0.0005454721492533545,0.00038645318386868605,0.0002556726177660338,-0.0005887191310039049,0.0005866071184139616,0.0,0.0,0.0,0.0,0.0,0.0,0.0,-0.00015077783350347929,-0.0004361256801694302,-1.3002220895064198e-05,0.00021482478825785023,4.009257245751741e-06,-5.691210426395088e-05,1.1218478589980485e-05,-3.5727517702269596e-06,0.0004039885594177808,-0.0005454721492533545,-0.00038645318386868605,-0.0002556726177660338,0.0005887191310039049,-0.0005866071184139616,0.5537349581718445,33.99154281616211,3.8228423595428467,-19.487642288208008,-0.2429099678993225,-1.796573281288147,0.12485067546367645,0
64,0.3149890899658203,-0.5537349581718445,-33.99154281616211,-3.8228423595428467,19.487642288208008,0.2429099678993225,1.796573281288147,-0.12485067546367645,0.0,0.0,0.0,0.0,0.0,0.0,0.0,-0.5339604977955285,0.06391257468862717,-0.23509365562800316,0.4825228639059352,0.19214583457441584,-0.12667218331711363,-0.11108314935548223,1.054561253727528,0.32429763028929415,-0.3924915601203316,-2.1535066123205957,0.8647499061107932,2.465935087879474,0.5444908000784656,1.0544104758940245,0.3238615046091247,-0.39250456234122666,-2.153291787532338,0.8647539153680389,2.46587817577521,0.5445020185570556,3.5727517702269596e-06,-0.0004039885594177808,0.0005454721492533545,0.00038645318386868605,0.0002556726177660338,-0.0005887191310039049,0.0005866071184139616,0.0,0.0,0.0,0.0,0.0,0.0,0.0,-0.00015077783350347929,-0.0004361256801694302,-1.3002220895064198e-05,0.00021482478825785023,4.009257245751741e-06,-5.691210426395088e-05,1.1218478589980485e-05,-3.5727517702269596e-06,0.0004039885594177808,-0.0005454721492533545,-0.00038645318386868605,-0.0002556726177660338,0.0005887191310039049,-0.0005866071184139616,0.5537349581718445,33.99154281616211,3.8228423595428467,-19.487642288208008,-0.2429099678993225,-1.796573281288147,0.12485067546367645,0
65,0.32004427909851074,-0.4783565402030945,-33.96377182006836,-3.7990386486053467,19.511445999145508,0.2484031319618225,1.777347207069397,-0.13858358561992645,0.0,0.0,0.0,0.0,0.0,0.0,0.0,-0.5357509210287629,0.057438236777241684,-0.2366986593391457,0.48474728975071324,0.19224471730446693,-0.12509789215399,-0.11201139314026452,1.054555964013986,0.3242956814473135,-0.3924932305561869,-2.1535086185055214,0.8647492653788758,2.465937184858129,0.5444958566479773,1.0544104758940245,0.3238615046091247,-0.39250456234122666,-2.153291787532338,0.8647539153680389,2.46587817577521,0.5445020185570556,-0.0005071671197137503,-0.0006053278695151984,0.0007260319891410428,-0.0003584278322242355,-4.785068472112676e-05,6.225378152637453e-05,0.0011152190525368032,0.0,0.0,0.0,0.0,0.0,0.0,0.0,-0.00014548811996162314,-0.0004341768381888045,-1.1331785039758735e-05,0.00021683097318359046,4.649989163163504e-06,-5.9009082919114775e-05,6.1619090783171515e-06,0.0005071671197137503,0.0006053278695151984,-0.0007260319891410428,0.0003584278322242355,4.785068472112676e-05,-6.225378152637453e-05,-0.0011152190525368032,0.4783565402030945,33.96377182006836,3.7990386486053467,-19.511445999145508,-0.2484031319618225,-1.777347207069397,0.13858358561992645,0
66,0.3250081539154053,-0.4783565402030945,-33.96377182006836,-3.7990386486053467,19.511445999145508,0.2484031319618225,1.777347207069397,-0.13858358561992645,0.0,0.0,0.0,0.0,0.0,0.0,0.0,-0.5357509210287629,0.057438236777241684,-0.2366986593391457,0.48474728975071324,0.19224471730446693,-0.12509789215399,-0.11201139314026452,1.054555964013986,0.3242956814473135,-0.3924932305561869,-2.1535086185055214,0.8647492653788758,2.465937184858129,0.5444958566479773,1.0544104758940245,0.3238615046091247,-0.39250456234122666,-2.153291787532338,0.8647539153680389,2.46587817577521,0.5445020185570556,-0.0005071671197137503,-0.0006053278695151984,0.0007260319891410428,-0.0003584278322242355,-4.785068472112676e-05,6.225378152637453e-05,0.0011152190525368032,0.0,0.0,0.0,0.0,0.0,0.0,0.0,-0.00014548811996162314,-0.0004341768381888045,-1.1331785039758735e-05,0.00021683097318359046,4.649989163163504e-06,-5.9009082919114775e-05,6.1619090783171515e-06,0.0005071671197137503,0.0006053278695151984,-0.0007260319891410428,0.0003584278322242355,4.785068472112676e-05,-6.225378152637453e-05,-0.0011152190525368032,0.4783565402030945,33.96377182006836,3.7990386486053467,-19.511445999145508,-0.2484031319618225,-1.777347207069397,0.13858358561992645,0
67,0.33000802993774414,-0.4505855441093445,-34.01534652709961,-3.7236602306365967,19.511445999145508,0.2603049874305725,1.770938515663147,-0.09738485515117645,0.0,0.0,0.0,0.0,0.0,0.0,0.0,-0.5334125621404902,0.05047661838881742,-0.2373392195220841,0.48826395105161313,0.19288090200834432,-0.12393956615487288,-0.112497224954452,1.054554015172155,0.32429930072499996,-0.39249852026972853,-2.1535067992775416,0.8647478673836012,2.465940055391047,0.5444877861858438,1.0544104758940245,0.3238615046091247,-0.39250456234122666,-2.153291787532338,0.8647539153680389,2.46587817577521,0.5445020185570556,-0.00048553913629121275,3.5762154114376955e-05,-0.0008891637349293818,-7.08680604934734e-05,-0.0003559987092388696,0.00030843594538853663,-0.0006271221155308072,0.0,0.0,0.0,0.0,0.0,0.0,0.0,-0.00014353927813059997,-0.00043779611587524414,-6.042071498124635e-06,0.00021501174520377475,6.0479844377070435e-06,-6.187961583714596e-05,1.4232371211786443e-05,0.00048553913629121275,-3.5762154114376955e-05,0.0008891637349293818,7.08680604934734e-05,0.0003559987092388696,-0.00030843594538853663,0.0006271221155308072,0.4505855441093445,34.01534652709961,3.7236602306365967,-19.511445999145508,-0.2603049874305725,-1.770938515663147,0.09738485515117645,0
68,0.3349642753601074,-0.4505855441093445,-34.01534652709961,-3.7236602306365967,19.511445999145508,0.2603049874305725,1.770938515663147,-0.09738485515117645,0.0,0.0,0.0,0.0,0.0,0.0,0.0,-0.5334125621404902,0.05047661838881742,-0.2373392195220841,0.48826395105161313,0.19288090200834432,-0.12393956615487288,-0.112497224954452,1.054554015172155,0.32429930072499996,-0.39249852026972853,-2.1535067992775416,0.8647478673836012,2.465940055391047,0.5444877861858438,1.0544104758940245,0.3238615046091247,-0.39250456234122666,-2.153291787532338,0.8647539153680389,2.46587817577521,0.5445020185570556,-0.00048553913629121275,3.5762154114376955e-05,-0.0008891637349293818,-7.08680604934734e-05,-0.0003559987092388696,0.00030843594538853663,-0.0006271221155308072,0.0,0.0,0.0,0.0,0.0,0.0,0.0,-0.00014353927813059997,-0.00043779611587524414,-6.042071498124635e-06,0.00021501174520377475,6.0479844377070435e-06,-6.187961583714596e-05,1.4232371211786443e-05,0.00048553913629121275,-3.5762154114376955e-05,0.0008891637349293818,7.08680604934734e-05,0.0003559987092388696,-0.00030843594538853663,0.0006271221155308072,0.4505855441093445,34.01534652709961,3.7236602306365967,-19.511445999145508,-0.2603049874305725,-1.770938515663147,0.09738485515117645,0
69,0.3399925231933594,-0.4783565402030945,-34.03915023803711,-3.7990386486053467,19.511445999145508,0.2429099678993225,1.783755898475647,-0.12485067546367645,0.0,0.0,0.0,0.0,0.0,0.0,0.0,-0.5360857878307261,0.05763916832304444,-0.2412620903572311,0.4834988408367774,0.19434091210644613,-0.12340615521862525,-0.11179273876205102,1.054555964013986,0.3243009711608552,-0.39249346676718655,-2.1535082616949413,0.864749566141533,2.4659396904570334,0.5444909168463341,1.0544104758940245,0.3238615046091247,-0.39250456234122666,-2.153291787532338,0.8647539153680389,2.46587817577521,0.5445020185570556,0.00016894381041496356,0.0005198839479201926,0.0007385578939800153,0.0002017580635897181,0.0001882978800224275,3.120927324399307e-05,0.0007449747861304055,0.0,0.0,0.0,0.0,0.0,0.0,0.0,-0.00014548811996162314,-0.0004394665517304941,-1.1095574040109746e-05,0.00021647416260339725,4.349226505939718e-06,-6.15146818234713e-05,1.1101710721495017e-05,-0.00016894381041496356,-0.0005198839479201926,-0.0007385578939800153,-0.0002017580635897181,-0.0001882978800224275,-3.120927324399307e-05,-0.0007449747861304055,0.4783565402030945,34.03915023803711,3.7990386486053467,-19.511445999145508,-0.2429099678993225,-1.783755898475647,0.12485067546367645,0
70,0.3449561595916748,-0.4783565402030945,-34.03915023803711,-3.7990386486053467,19.511445999145508,0.2429099678993225,1.783755898475647,-0.12485067546367645,0.0,0.0,0.0,0.0,0.0,0.0,0.0,-0.5360857878307261,0.05763916832304444,-0.2412620903572311,0.4834988408367774,0.19434091210644613,-0.12340615521862525,-0.11179273876205102,1.054555964013986,0.3243009711608552,-0.39249346676718655,-2.1535082616949413,0.864749566141533,2.4659396904570334,0.5444909168463341,1.0544104758940245,0.3238615046091247,-0.39250456234122666,-2.153291787532338,0.8647539153680389,2.46587817577521,0.5445020185570556,0.00016894381041496356,0.0005198839479201926,0.0007385578939800153,0.0002017580635897181,0.0001882978800224275,3.120927324399307e-05,0.0007449747861304055,0.0,0.0,0.0,0.0,0.0,0.0,0.0,-0.00014548811996162314,-0.0004394665517304941,-1.1095574040109746e-05,0.00021647416260339725,4.349226505939718e-06,-6.15146818234713e-05,1.1101710721495017e-05,-0.00016894381041496356,-0.0005198839479201926,-0.0007385578939800153,-0.0002017580635897181,-0.0001882978800224275,-3.120927324399307e-05,-0.0007449747861304055,0.4783565402030945,34.03915023803711,3.7990386486053467,-19.511445999145508,-0.2429099678993225,-1.783755898475647,0.12485067546367645,0
71,0.35001158714294434,-0.5021602511405945,-34.01534652709961,-3.7990386486053467,19.535249710083008,0.2429099678993225,1.777347207069397,-0.07724325358867645,0.0,0.0,0.0,0.0,0.0,0.0,0.0,-0.5375415374815761,0.05843492222130894,-0.24374169292011477,0.4838785555282497,0.19487902871881732,-0.12224960720136356,-0.11107329049360994,1.0545576344498415,0.32429930072499996,-0.3924932305575203,-2.1535076977416137,0.8647499019103188,2.4659400497578075,0.5444855481570077,1.0544104758940245,0.3238615046091247,-0.39250456234122666,-2.153291787532338,0.8647539153680389,2.46587817577521,0.5445020185570556,-0.0004438716990818754,-3.231174668749072e-05,-6.684221386815816e-05,-0.0003919120964987588,0.00013613266076604986,2.7698179133711165e-05,-0.0017744554803516216,0.0,0.0,0.0,0.0,0.0,0.0,0.0,-0.00014715855581703963,-0.00043779611587524414,-1.1331783706380882e-05,0.00021591020927580473,4.013457720164482e-06,-6.187398259749344e-05,1.647040004792988e-05,0.0004438716990818754,3.231174668749072e-05,6.684221386815816e-05,0.0003919120964987588,-0.00013613266076604986,-2.7698179133711165e-05,0.0017744554803516216,0.5021602511405945,34.01534652709961,3.7990386486053467,-19.535249710083008,-0.2429099678993225,-1.777347207069397,0.07724325358867645,0
72,0.35506510734558105,-0.5021602511405945,-34.01534652709961,-3.7990386486053467,19.535249710083008,0.2429099678993225,1.777347207069397,-0.07724325358867645,0.0,0.0,0.0,0.0,0.0,0.0,0.0,-0.5375415374815761,0.05843492222130894,-0.24374169292011477,0.4838785555282497,0.19487902871881732,-0.12224960720136356,-0.11107329049360994,1.0545576344498415,0.32429930072499996,-0.3924932305575203,-2.1535076977416137,0.8647499019103188,2.4659400497578075,0.5444855481570077,1.0544104758940245,0.3238615046091247,-0.39250456234122666,-2.153291787532338,0.8647539153680389,2.46587817577521,0.5445020185570556,-0.0004438716990818754,-3.231174668749072e-05,-6.684221386815816e-05,-0.0003919120964987588,0.00013613266076604986,2.7698179133711165e-05,-0.0017744554803516216,0.0,0.0,0.0,0.0,0.0,0.0,0.0,-0.00014715855581703963,-0.00043779611587524414,-1.1331783706380882e-05,0.00021591020927580473,4.013457720164482e-06,-6.187398259749344e-05,1.647040004792988e-05,0.0004438716990818754,3.231174668749072e-05,6.684221386815816e-05,0.0003919120964987588,-0.00013613266076604986,-2.7698179133711165e-05,0.0017744554803516216,0.5021602511405945,34.01534652709961,3.7990386486053467,-19.535249710083008,-0.2429099678993225,-1.777347207069397,0.07724325358867645,0
73,0.35999584197998047,-0.5537349581718445,-34.01534652709961,-3.8506133556365967,19.511445999145508,0.2484031319618225,1.790164589881897,-0.08365194499492645,0.0,0.0,0.0,0.0,0.0,0.0,0.0,-0.535688871866481,0.050594089373476946,-0.24088151437099528,0.4869119832865811,0.19396458450129248,-0.12275331762751988,-0.11198018002165386,1.054561253727528,0.32429930072499996,-0.392489611602521,-2.1535060274438824,0.8647493031891194,2.465937566019206,0.5444862345717946,1.0544104758940245,0.3238615046091247,-0.39250456234122666,-2.153291787532338,0.8647539153680389,2.46587817577521,0.5445020185570556,-0.00040440528558615454,-0.0006934421519806484,0.0005614940895244745,-0.0001463891423084069,-3.605906677678034e-05,-0.0003906964517922294,-0.0018368656372982634,0.0,0.0,0.0,0.0,0.0,0.0,0.0,-0.00015077783350347929,-0.00043779611587524414,-1.4950738705665767e-05,0.000214239911544567,4.612178919560783e-06,-5.9390243996038095e-05,1.5783985261030864e-05,0.00040440528558615454,0.0006934421519806484,-0.0005614940895244745,0.0001463891423084069,3.605906677678034e-05,0.0003906964517922294,0.0018368656372982634,0.5537349581718445,34.01534652709961,3.8506133556365967,-19.511445999145508,-0.2484031319618225,-1.790164589881897,0.08365194499492645,0
74,0.36499476432800293,-0.5537349581718445,-34.01534652709961,-3.8506133556365967,19.511445999145508,0.2484031319618225,1.790164589881897,-0.08365194499492645,0.0,0.0,0.0,0.0,0.0,0.0,0.0,-0.535688871866481,0.050594089373476946,-0.24088151437099528,0.4869119832865811,0.19396458450129248,-0.12275331762751988,-0.11198018002165386,1.054561253727528,0.32429930072499996,-0.392489611602521,-2.1535060274438824,0.8647493031891194,2.465937566019206,0.5444862345717946,1.0544104758940245,0.3238615046091247,-0.39250456234122666,-2.153291787532338,0.8647539153680389,2.46587817577521,0.5445020185570556,-0.00040440528558615454,-0.0006934421519806484,0.0005614940895244745,-0.0001463891423084069,-3.605906677678034e-05,-0.0003906964517922294,-0.0018368656372982634,0.0,0.0,0.0,0.0,0.0,0.0,0.0,-0.00015077783350347929,-0.00043779611587524414,-1.4950738705665767e-05,0.000214239911544567,4.612178919560783e-06,-5.9390243996038095e-05,1.5783985261030864e-05,0.00040440528558615454,0.0006934421519806484,-0.0005614940895244745,0.0001463891423084069,3.605906677678034e-05,0.0003906964517922294,0.0018368656372982634,0.5537349581718445,34.01534652709961,3.8506133556365967,-19.511445999145508,-0.2484031319618225,-1.790164589881897,0.08365194499492645,0
75,0.37000441551208496,-0.5815059542655945,-34.03915023803711,-3.8506133556365967,19.511445999145508,0.2429099678993225,1.777347207069397,-0.10470907390117645,0.0,0.0,0.0,0.0,0.0,0.0,0.0,-0.5378075419024545,0.048971463054272496,-0.2403903475195393,0.48737465812260544,0.19353433658979488,-0.12341129634199124,-0.1125122384373665,1.054563202569359,0.3243009715969203,-0.39248961127850224,-2.1535068522851977,0.8647467389869445,2.4659404030163796,0.5444931921639735,1.0544104758940245,0.3238615046091247,-0.39250456234122666,-2.153291787532338,0.8647539153680389,2.46587817577521,0.5445020185570556,-8.125021264435068e-06,3.1855366943626484e-06,0.00029535805562330627,-0.00014112877979996236,0.00010699969400702234,0.0001006624770115611,2.5801276375344572e-05,0.0,0.0,0.0,0.0,0.0,0.0,0.0,-0.00015272667533450246,-0.00043946698779556703,-1.4951062724422037e-05,0.00021506475285981708,7.1763810943759054e-06,-6.22272411696656e-05,8.826393082084216e-06,8.125021264435068e-06,-3.1855366943626484e-06,-0.00029535805562330627,0.00014112877979996236,-0.00010699969400702234,-0.0001006624770115611,-2.5801276375344572e-05,0.5815059542655945,34.03915023803711,3.8506133556365967,-19.511445999145508,-0.2429099678993225,-1.777347207069397,0.10470907390117645,0
76,0.3750038146972656,-0.5815059542655945,-34.03915023803711,-3.8506133556365967,19.511445999145508,0.2429099678993225,1.777347207069397,-0.10470907390117645,0.0,0.0,0.0,0.0,0.0,0.0,0.0,-0.5378075419024545,0.048971463054272496,-0.2403903475195393,0.48737465812260544,0.19353433658979488,-0.12341129634199124,-0.1125122384373665,1.054563202569359,0.3243009715969203,-0.39248961127850224,-2.1535068522851977,0.8647467389869445,2.4659404030163796,0.5444931921639735,1.0544104758940245,0.3238615046091247,-0.39250456234122666,-2.153291787532338,0.8647539153680389,2.46587817577521,0.5445020185570556,-8.125021264435068e-06,3.1855366943626484e-06,0.00029535805562330627,-0.00014112877979996236,0.00010699969400702234,0.0001006624770115611,2.5801276375344572e-05,0.0,0.0,0.0,0.0,0.0,0.0,0.0,-0.00015272667533450246,-0.00043946698779556703,-1.4951062724422037e-05,0.00021506475285981708,7.1763810943759054e-06,-6.22272411696656e-05,8.826393082084216e-06,8.125021264435068e-06,-3.1855366943626484e-06,-0.00029535805562330627,0.00014112877979996236,-0.00010699969400702234,-0.0001006624770115611,-2.5801276375344572e-05,0.5815059542655945,34.03915023803711,3.8506133556365967,-19.511445999145508,-0.2429099678993225,-1.777347207069397,0.10470907390117645,0
77,0.37999987602233887,-0.5537349581718445,-34.01534652709961,-3.8228423595428467,19.459871292114258,0.2484031319618225,1.777347207069397,-0.14590780436992645,0.0,0.0,0.0,0.0,0.0,0.0,0.0,-0.5399948037728792,0.055673404707586076,-0.2424720238916629,0.48432697959794235,0.19350371826928123,-0.12499674076465081,-0.11331440982422282,1.054561253727528,0.32429930072500734,-0.3924915601203316,-2.153502408029434,0.8647461300351053,2.4659403637784987,0.5444932561210196,1.0544104758940245,0.3238615046091247,-0.39250456234122666,-2.153291787532338,0.8647539153680389,2.46587817577521,0.5445020185570556,-0.0006207114933818828,-0.00015938143729255584,-0.00047434792565322016,0.0010657302715760477,5.946178038131226e-05,7.31509203453108e-05,0.0014437577949779708,0.0,0.0,0.0,0.0,0.0,0.0,0.0,-0.00015077783350347929,-0.0004377961158826271,-1.3002220895064198e-05,0.0002106204970959702,7.785332933663014e-06,-6.21880032887212e-05,8.762436035980592e-06,0.0006207114933818828,0.00015938143729255584,0.00047434792565322016,-0.0010657302715760477,-5.946178038131226e-05,-7.31509203453108e-05,-0.0014437577949779708,0.5537349581718445,34.01534652709961,3.8228423595428467,-19.459871292114258,-0.2484031319618225,-1.777347207069397,0.14590780436992645,0
78,0.3854358196258545,-0.5537349581718445,-34.01534652709961,-3.8228423595428467,19.459871292114258,0.2484031319618225,1.777347207069397,-0.14590780436992645,0.0,0.0,0.0,0.0,0.0,0.0,0.0,-0.5399948037728792,0.055673404707586076,-0.2424720238916629,0.48432697959794235,0.19350371826928123,-0.12499674076465081,-0.11331440982422282,1.054561253727528,0.32429930072500734,-0.3924915601203316,-2.153502408029434,0.8647461300351053,2.4659403637784987,0.5444932561210196,1.0544104758940245,0.3238615046091247,-0.39250456234122666,-2.153291787532338,0.8647539153680389,2.46587817577521,0.5445020185570556,-0.0006207114933818828,-0.00015938143729255584,-0.00047434792565322016,0.0010657302715760477,5.946178038131226e-05,7.31509203453108e-05,0.0014437577949779708,0.0,0.0,0.0,0.0,0.0,0.0,0.0,-0.00015077783350347929,-0.0004377961158826271,-1.3002220895064198e-05,0.0002106204970959702,7.785332933663014e-06,-6.21880032887212e-05,8.762436035980592e-06,0.0006207114933818828,0.00015938143729255584,0.00047434792565322016,-0.0010657302715760477,-5.946178038131226e-05,-7.31509203453108e-05,-0.0014437577949779708,0.5537349581718445,34.01534652709961,3.8228423595428467,-19.459871292114258,-0.2484031319618225,-1.777347207069397,0.14590780436992645,0
79,0.3899507522583008,-0.5537349581718445,-34.01534652709961,-3.8228423595428467,19.459871292114258,0.2484031319618225,1.777347207069397,-0.14590780436992645,0.0,0.0,0.0,0.0,0.0,0.0,0.0,-0.5399948037728792,0.055673404707586076,-0.2424720238916629,0.48432697959794235,0.19350371826928123,-0.12499674076465081,-0.11331440982422282,1.054561253727528,0.32429930072500734,-0.3924915601203316,-2.153502408029434,0.8647461300351053,2.4659403637784987,0.5444932561210196,1.0544104758940245,0.3238615046091247,-0.39250456234122666,-2.153291787532338,0.8647539153680389,2.46587817577521,0.5445020185570556,-0.0006207114933818828,-0.00015938143729255584,-0.00047434792565322016,0.0010657302715760477,5.946178038131226e-05,7.31509203453108e-05,0.0014437577949779708,0.0,0.0,0.0,0.0,0.0,0.0,0.0,-0.00015077783350347929,-0.0004377961158826271,-1.3002220895064198e-05,0.0002106204970959702,7.785332933663014e-06,-6.21880032887212e-05,8.762436035980592e-06,0.0006207114933818828,0.00015938143729255584,0.00047434792565322016,-0.0010657302715760477,-5.946178038131226e-05,-7.31509203453108e-05,-0.0014437577949779708,0.5537349581718445,34.01534652709961,3.8228423595428467,-19.459871292114258,-0.2484031319618225,-1.777347207069397,0.14590780436992645,0
80,0.3949923515319824,-0.5537349581718445,-34.01534652709961,-3.8228423595428467,19.487642288208008,0.2548118233680725,1.790164589881897,-0.09738485515117645,0.0,0.0,0.0,0.0,0.0,0.0,0.0,-0.5385731337587749,0.053063601489198246,-0.24233918553592132,0.4881336120942458,0.19389290494464886,-0.12576631634381064,-0.11353328993616636,1.054561253727528,0.32429930072499996,-0.3924915601203316,-2.1535054289474997,0.8647485969085847,2.4659389774169376,0.544487746866878,1.0544104758940245,0.3238615046091247,-0.39250456234122666,-2.153291787532338,0.8647539153680389,2.46587817577521,0.5445020185570556,-4.5737078034451005e-05,-0.0002317471352647587,0.0003903731514065131,0.0007457158238707491,-0.00021187343248461443,-0.0002558077753591032,-0.0008665986553801935,0.0,0.0,0.0,0.0,0.0,0.0,0.0,-0.00015077783350347929,-0.00043779611587524414,-1.3002220895064198e-05,0.0002136414151618915,5.318459454173308e-06,-6.080164172761471e-05,1.42716901776474e-05,4.5737078034451005e-05,0.0002317471352647587,-0.0003903731514065131,-0.0007457158238707491,0.00021187343248461443,0.0002558077753591032,0.0008665986553801935,0.5537349581718445,34.01534652709961,3.8228423595428467,-19.487642288208008,-0.2548118233680725,-1.790164589881897,0.09738485515117645,0
