rezayati/contactInterpretation/dataset/franka_main/labeled_data/link3/e3_4.csv
index,time,tau_J0,tau_J1,tau_J2,tau_J3,tau_J4,tau_J5,tau_J6,tau_J_d0,tau_J_d1,tau_J_d2,tau_J_d3,tau_J_d4,tau_J_d5,tau_J_d6,tau_ext0,tau_ext1,tau_ext2,tau_ext3,tau_ext4,tau_ext5,tau_ext6,q0,q1,q2,q3,q4,q5,q6,q_d0,q_d1,q_d2,q_d3,q_d4,q_d5,q_d6,dq0,dq1,dq2,dq3,dq4,dq5,dq6,dq_d0,dq_d1,dq_d2,dq_d3,dq_d4,dq_d5,dq_d6,e0,e1,e2,e3,e4,e5,e6,de0,de1,de2,de3,de4,de5,de6,etau_J0,etau_J1,etau_J2,etau_J3,etau_J4,etau_J5,etau_J6,label
1,0.0,-0.3236324191093445,-19.768823623657227,-0.4466826617717743,19.931978225708008,0.6832786202430725,2.4630770683288574,-0.24844686686992645,0.0,0.0,0.0,0.0,0.0,0.0,0.0,-0.32773999849795127,-0.02875837139064069,-0.22878506028097334,0.19984913809435054,0.09754252437868377,0.09141748724507393,-0.2400498704410657,1.2134431021297187,-0.22012381885142937,-0.0075203136782112864,-2.603893213434814,-0.10888789437214534,2.4681843012566427,0.8264752171609168,1.2134413937687574,-0.2202432315892585,-0.0075118285948192216,-2.6038483821997875,-0.10888392708698907,2.4681821257803174,0.826474908251239,0.0003543494636380406,0.0002284244841709698,0.0004961207817087961,0.0012501179107246203,0.0001131716163177326,-0.00011083414086270461,0.000516661755976202,0.0,0.0,0.0,0.0,0.0,0.0,0.0,-1.7083609613610662e-06,-0.00011941273782911654,8.485083392064871e-06,4.48312350265212e-05,3.9672851562672085e-06,-2.175476325305681e-06,-3.089096777264544e-07,-0.0003543494636380406,-0.0002284244841709698,-0.0004961207817087961,-0.0012501179107246203,-0.0001131716163177326,0.00011083414086270461,-0.000516661755976202,0.3236324191093445,19.768823623657227,0.4466826617717743,-19.931978225708008,-0.6832786202430725,-2.4630770683288574,0.24844686686992645,0
2,0.004996538162231445,-0.3236324191093445,-19.768823623657227,-0.4466826617717743,19.931978225708008,0.6832786202430725,2.4630770683288574,-0.24844686686992645,0.0,0.0,0.0,0.0,0.0,0.0,0.0,-0.32773999849795127,-0.02875837139064069,-0.22878506028097334,0.19984913809435054,0.09754252437868377,0.09141748724507393,-0.2400498704410657,1.2134431021297187,-0.22012381885142937,-0.0075203136782112864,-2.603893213434814,-0.10888789437214534,2.4681843012566427,0.8264752171609168,1.2134413937687574,-0.2202432315892585,-0.0075118285948192216,-2.6038483821997875,-0.10888392708698907,2.4681821257803174,0.826474908251239,0.0003543494636380406,0.0002284244841709698,0.0004961207817087961,0.0012501179107246203,0.0001131716163177326,-0.00011083414086270461,0.000516661755976202,0.0,0.0,0.0,0.0,0.0,0.0,0.0,-1.7083609613610662e-06,-0.00011941273782911654,8.485083392064871e-06,4.48312350265212e-05,3.9672851562672085e-06,-2.175476325305681e-06,-3.089096777264544e-07,-0.0003543494636380406,-0.0002284244841709698,-0.0004961207817087961,-0.0012501179107246203,-0.0001131716163177326,0.00011083414086270461,-0.000516661755976202,0.3236324191093445,19.768823623657227,0.4466826617717743,-19.931978225708008,-0.6832786202430725,-2.4630770683288574,0.24844686686992645,0
3,0.009994268417358398,-0.3236324191093445,-19.792627334594727,-0.4466826617717743,19.983552932739258,0.6777854561805725,2.4630770683288574,-0.24844686686992645,0.0,0.0,0.0,0.0,0.0,0.0,0.0,-0.3294203494547997,-0.007842965356642296,-0.23453094406885514,0.15940662408690334,0.09746597119866515,0.08504373382047935,-0.23932170216802717,1.2134431021297187,-0.22012143743574764,-0.0075203136782112864,-2.6038968328174787,-0.10888728402058283,2.4681853217029723,0.826474654480817,1.2134413937687574,-0.2202432315892585,-0.0075118285948192216,-2.6038483821997875,-0.10888392708698907,2.4681821257803174,0.826474908251239,-8.387736518341793e-05,9.86536109664381e-05,0.0003665049972477816,0.0008540417737786403,0.0001230086502218142,7.013253690692295e-05,0.00012233967765511676,0.0,0.0,0.0,0.0,0.0,0.0,0.0,-1.7083609613610662e-06,-0.00012179415351085132,8.485083392064871e-06,4.8450617691209175e-05,3.3569335937538858e-06,-3.195922654963823e-06,2.5377042200958044e-07,8.387736518341793e-05,-9.86536109664381e-05,-0.0003665049972477816,-0.0008540417737786403,-0.0001230086502218142,-7.013253690692295e-05,-0.00012233967765511676,0.3236324191093445,19.792627334594727,0.4466826617717743,-19.983552932739258,-0.6777854561805725,-2.4630770683288574,0.24844686686992645,0
4,0.015016317367553711,-0.3236324191093445,-19.792627334594727,-0.4466826617717743,19.983552932739258,0.6777854561805725,2.4630770683288574,-0.24844686686992645,0.0,0.0,0.0,0.0,0.0,0.0,0.0,-0.3294203494547997,-0.007842965356642296,-0.23453094406885514,0.15940662408690334,0.09746597119866515,0.08504373382047935,-0.23932170216802717,1.2134431021297187,-0.22012143743574764,-0.0075203136782112864,-2.6038968328174787,-0.10888728402058283,2.4681853217029723,0.826474654480817,1.2134413937687574,-0.2202432315892585,-0.0075118285948192216,-2.6038483821997875,-0.10888392708698907,2.4681821257803174,0.826474908251239,-8.387736518341793e-05,9.86536109664381e-05,0.0003665049972477816,0.0008540417737786403,0.0001230086502218142,7.013253690692295e-05,0.00012233967765511676,0.0,0.0,0.0,0.0,0.0,0.0,0.0,-1.7083609613610662e-06,-0.00012179415351085132,8.485083392064871e-06,4.8450617691209175e-05,3.3569335937538858e-06,-3.195922654963823e-06,2.5377042200958044e-07,8.387736518341793e-05,-9.86536109664381e-05,-0.0003665049972477816,-0.0008540417737786403,-0.0001230086502218142,-7.013253690692295e-05,-0.00012233967765511676,0.3236324191093445,19.792627334594727,0.4466826617717743,-19.983552932739258,-0.6777854561805725,-2.4630770683288574,0.24844686686992645,0
5,0.02000141143798828,-0.3236324191093445,-19.768823623657227,-0.4228789508342743,19.955781936645508,0.6713767647743225,2.4694857597351074,-0.20724813640117645,0.0,0.0,0.0,0.0,0.0,0.0,0.0,-0.32853856477141585,-0.030703895433545608,-0.23503630966979924,0.2033070120463437,0.09838649169133784,0.09167077227650783,-0.23948608418271503,1.2134431021297187,-0.22012595564506204,-0.007521984114066549,-2.603894883975648,-0.10888657194375992,2.468183903152655,0.8264696787296602,1.2134413937687574,-0.2202432315892585,-0.0075118285948192216,-2.6038483821997875,-0.10888392708698907,2.4681821257803174,0.826474908251239,9.360977484458584e-05,-1.3145397469132506e-05,-0.0002994827246739013,-0.005561179065850062,0.00040045201103743234,-0.00011969159828735713,-0.0015046465986063827,0.0,0.0,0.0,0.0,0.0,0.0,0.0,-1.7083609613610662e-06,-0.00011727594419644327,1.0155519247327834e-05,4.650177586063009e-05,2.6448567708448056e-06,-1.7773723377523254e-06,5.2295215788866756e-06,-9.360977484458584e-05,1.3145397469132506e-05,0.0002994827246739013,0.005561179065850062,-0.00040045201103743234,0.00011969159828735713,0.0015046465986063827,0.3236324191093445,19.768823623657227,0.4228789508342743,-19.955781936645508,-0.6713767647743225,-2.4694857597351074,0.20724813640117645,0
6,0.024997234344482422,-0.3236324191093445,-19.768823623657227,-0.4228789508342743,19.955781936645508,0.6713767647743225,2.4694857597351074,-0.20724813640117645,0.0,0.0,0.0,0.0,0.0,0.0,0.0,-0.32853856477141585,-0.030703895433545608,-0.23503630966979924,0.2033070120463437,0.09838649169133784,0.09167077227650783,-0.23948608418271503,1.2134431021297187,-0.22012595564506204,-0.007521984114066549,-2.603894883975648,-0.10888657194375992,2.468183903152655,0.8264696787296602,1.2134413937687574,-0.2202432315892585,-0.0075118285948192216,-2.6038483821997875,-0.10888392708698907,2.4681821257803174,0.826474908251239,9.360977484458584e-05,-1.3145397469132506e-05,-0.0002994827246739013,-0.005561179065850062,0.00040045201103743234,-0.00011969159828735713,-0.0015046465986063827,0.0,0.0,0.0,0.0,0.0,0.0,0.0,-1.7083609613610662e-06,-0.00011727594419644327,1.0155519247327834e-05,4.650177586063009e-05,2.6448567708448056e-06,-1.7773723377523254e-06,5.2295215788866756e-06,-9.360977484458584e-05,1.3145397469132506e-05,0.0002994827246739013,0.005561179065850062,-0.00040045201103743234,0.00011969159828735713,0.0015046465986063827,0.3236324191093445,19.768823623657227,0.4228789508342743,-19.955781936645508,-0.6713767647743225,-2.4694857597351074,0.20724813640117645,0
7,0.029996395111083984,-0.3514034152030945,-19.768823623657227,-0.4228789508342743,20.007356643676758,0.6832786202430725,2.4566683769226074,-0.20083944499492645,0.0,0.0,0.0,0.0,0.0,0.0,0.0,-0.3306886423222271,-0.05688067403810847,-0.23651775375854042,0.24323489075868093,0.09900378639166367,0.09790626025084624,-0.2398726887962899,1.2134450509715498,-0.2201259455695624,-0.007521984114066549,-2.6038985032533346,-0.1088879075154192,2.4681849740896027,0.8264724394513034,1.2134413937687574,-0.2202432315892585,-0.0075118285948192216,-2.6038483821997875,-0.10888392708698907,2.4681821257803174,0.826474908251239,0.0003693449953901411,-0.00017454409321780004,-0.0004959357121323299,-0.0007657425141650671,-0.00022094873116876762,0.0003553440321114503,-0.0013641935069202893,0.0,0.0,0.0,0.0,0.0,0.0,0.0,-3.65720279238424e-06,-0.00011728601969610009,1.0155519247327834e-05,5.012105354706975e-05,3.98042843012536e-06,-2.848309285319317e-06,2.468799935595456e-06,-0.0003693449953901411,0.00017454409321780004,0.0004959357121323299,0.0007657425141650671,0.00022094873116876762,-0.0003553440321114503,0.0013641935069202893,0.3514034152030945,19.768823623657227,0.4228789508342743,-20.007356643676758,-0.6832786202430725,-2.4566683769226074,0.20083944499492645,0
8,0.034995317459106445,-0.3514034152030945,-19.768823623657227,-0.4228789508342743,20.007356643676758,0.6832786202430725,2.4566683769226074,-0.20083944499492645,0.0,0.0,0.0,0.0,0.0,0.0,0.0,-0.3306886423222271,-0.05688067403810847,-0.23651775375854042,0.24323489075868093,0.09900378639166367,0.09790626025084624,-0.2398726887962899,1.2134450509715498,-0.2201259455695624,-0.007521984114066549,-2.6038985032533346,-0.1088879075154192,2.4681849740896027,0.8264724394513034,1.2134413937687574,-0.2202432315892585,-0.0075118285948192216,-2.6038483821997875,-0.10888392708698907,2.4681821257803174,0.826474908251239,0.0003693449953901411,-0.00017454409321780004,-0.0004959357121323299,-0.0007657425141650671,-0.00022094873116876762,0.0003553440321114503,-0.0013641935069202893,0.0,0.0,0.0,0.0,0.0,0.0,0.0,-3.65720279238424e-06,-0.00011728601969610009,1.0155519247327834e-05,5.012105354706975e-05,3.98042843012536e-06,-2.848309285319317e-06,2.468799935595456e-06,-0.0003693449953901411,0.00017454409321780004,0.0004959357121323299,0.0007657425141650671,0.00022094873116876762,-0.0003553440321114503,0.0013641935069202893,0.3514034152030945,19.768823623657227,0.4228789508342743,-20.007356643676758,-0.6832786202430725,-2.4566683769226074,0.20083944499492645,0
9,0.039995431900024414,-0.3514034152030945,-19.768823623657227,-0.3990752398967743,19.983552932739258,0.6777854561805725,2.4694857597351074,-0.26858848333358765,0.0,0.0,0.0,0.0,0.0,0.0,0.0,-0.3285749431951579,-0.031389457553980656,-0.23454747627195754,0.20493978109921887,0.0974881740100153,0.09257085002861618,-0.2394472988783598,1.2134450509715498,-0.220125929292771,-0.007523654549921813,-2.603896832817479,-0.10888728402065702,2.4681839036311897,0.8264767472588632,1.2134413937687574,-0.2202432315892585,-0.0075118285948192216,-2.6038483821997875,-0.10888392708698907,2.4681821257803174,0.826474908251239,0.00019464853959942104,-9.851161131612702e-05,-0.0006043282947526758,-0.0001986874787029606,0.00015615348282502025,-0.0001428157145007414,0.0009828558405938683,0.0,0.0,0.0,0.0,0.0,0.0,0.0,-3.65720279238424e-06,-0.00011730229648748702,1.1825955102591663e-05,4.8450617691653264e-05,3.3569336679445394e-06,-1.7778508722976483e-06,-1.8390076241825426e-06,-0.00019464853959942104,9.851161131612702e-05,0.0006043282947526758,0.0001986874787029606,-0.00015615348282502025,0.0001428157145007414,-0.0009828558405938683,0.3514034152030945,19.768823623657227,0.3990752398967743,-19.983552932739258,-0.6777854561805725,-2.4694857597351074,0.26858848333358765,0
10,0.045000553131103516,-0.3514034152030945,-19.768823623657227,-0.3990752398967743,19.983552932739258,0.6777854561805725,2.4694857597351074,-0.26858848333358765,0.0,0.0,0.0,0.0,0.0,0.0,0.0,-0.3285749431951579,-0.031389457553980656,-0.23454747627195754,0.20493978109921887,0.0974881740100153,0.09257085002861618,-0.2394472988783598,1.2134450509715498,-0.220125929292771,-0.007523654549921813,-2.603896832817479,-0.10888728402065702,2.4681839036311897,0.8264767472588632,1.2134413937687574,-0.2202432315892585,-0.0075118285948192216,-2.6038483821997875,-0.10888392708698907,2.4681821257803174,0.826474908251239,0.00019464853959942104,-9.851161131612702e-05,-0.0006043282947526758,-0.0001986874787029606,0.00015615348282502025,-0.0001428157145007414,0.0009828558405938683,0.0,0.0,0.0,0.0,0.0,0.0,0.0,-3.65720279238424e-06,-0.00011730229648748702,1.1825955102591663e-05,4.8450617691653264e-05,3.3569336679445394e-06,-1.7778508722976483e-06,-1.8390076241825426e-06,-0.00019464853959942104,9.851161131612702e-05,0.0006043282947526758,0.0001986874787029606,-0.00015615348282502025,0.0001428157145007414,-0.0009828558405938683,0.3514034152030945,19.768823623657227,0.3990752398967743,-19.983552932739258,-0.6777854561805725,-2.4694857597351074,0.26858848333358765,0
11,0.05001354217529297,-0.2720577120780945,-19.745019912719727,-0.3990752398967743,19.955781936645508,0.6832786202430725,2.4566683769226074,-0.21457235515117645,0.0,0.0,0.0,0.0,0.0,0.0,0.0,-0.3312993429128928,-0.028813813364222552,-0.23452659697578673,0.20003701379949007,0.0969245927324057,0.09203934063690074,-0.24087254631386903,1.2134394828520323,-0.22012691285033736,-0.007523654549921813,-2.603894883975648,-0.10888793380196693,2.4681849784502563,0.8264719465656867,1.2134413937687574,-0.2202432315892585,-0.0075118285948192216,-2.6038483821997875,-0.10888392708698907,2.4681821257803174,0.826474908251239,-0.0012118701618048053,-0.0007910803132261945,-0.0011864107175427652,0.0005073028678766104,-6.024156240407793e-05,0.0003181357012189758,-0.0010282113290365337,0.0,0.0,0.0,0.0,0.0,0.0,0.0,1.910916725078593e-06,-0.00011631873892112288,1.1825955102591663e-05,4.650177586063009e-05,4.006714977855541e-06,-2.8526699389352927e-06,2.961685552360649e-06,0.0012118701618048053,0.0007910803132261945,0.0011864107175427652,-0.0005073028678766104,6.024156240407793e-05,-0.0003181357012189758,0.0010282113290365337,0.2720577120780945,19.745019912719727,0.3990752398967743,-19.955781936645508,-0.6832786202430725,-2.4566683769226074,0.21457235515117645,0
12,0.05500340461730957,-0.2720577120780945,-19.745019912719727,-0.3990752398967743,19.955781936645508,0.6832786202430725,2.4566683769226074,-0.21457235515117645,0.0,0.0,0.0,0.0,0.0,0.0,0.0,-0.3312993429128928,-0.028813813364222552,-0.23452659697578673,0.20003701379949007,0.0969245927324057,0.09203934063690074,-0.24087254631386903,1.2134394828520323,-0.22012691285033736,-0.007523654549921813,-2.603894883975648,-0.10888793380196693,2.4681849784502563,0.8264719465656867,1.2134413937687574,-0.2202432315892585,-0.0075118285948192216,-2.6038483821997875,-0.10888392708698907,2.4681821257803174,0.826474908251239,-0.0012118701618048053,-0.0007910803132261945,-0.0011864107175427652,0.0005073028678766104,-6.024156240407793e-05,0.0003181357012189758,-0.0010282113290365337,0.0,0.0,0.0,0.0,0.0,0.0,0.0,1.910916725078593e-06,-0.00011631873892112288,1.1825955102591663e-05,4.650177586063009e-05,4.006714977855541e-06,-2.8526699389352927e-06,2.961685552360649e-06,0.0012118701618048053,0.0007910803132261945,0.0011864107175427652,-0.0005073028678766104,6.024156240407793e-05,-0.0003181357012189758,0.0010282113290365337,0.2720577120780945,19.745019912719727,0.3990752398967743,-19.955781936645508,-0.6832786202430725,-2.4566683769226074,0.21457235515117645,0
13,0.06077075004577637,-0.3236324191093445,-19.768823623657227,-0.3713042438030243,19.983552932739258,0.6777854561805725,2.4758944511413574,-0.26217979192733765,0.0,0.0,0.0,0.0,0.0,0.0,0.0,-0.3278075983815624,-0.026502795615314143,-0.23355162544351563,0.1952890184371818,0.09680275156052255,0.09081637237441492,-0.24161506804708863,1.2134431021297187,-0.2201259556571116,-0.0075256034278341,-2.603896832817479,-0.1088872840208054,2.4681863701457685,0.826480061827837,1.2134413937687574,-0.2202432315892585,-0.0075118285948192216,-2.6038483821997875,-0.10888392708698907,2.4681821257803174,0.826474908251239,0.00012583767868538495,-0.000144517884128126,-0.0013717143569547795,-0.0007434220406948066,0.00013291589455596077,-0.00038264740078036296,0.0010181283600950034,0.0,0.0,0.0,0.0,0.0,0.0,0.0,-1.7083609613610662e-06,-0.00011727593214688747,1.3774833014878682e-05,4.8450617691653264e-05,3.3569338163258466e-06,-4.244365451100407e-06,-5.153576597916043e-06,-0.00012583767868538495,0.000144517884128126,0.0013717143569547795,0.0007434220406948066,-0.00013291589455596077,0.00038264740078036296,-0.0010181283600950034,0.3236324191093445,19.768823623657227,0.3713042438030243,-19.983552932739258,-0.6777854561805725,-2.4758944511413574,0.26217979192733765,0
14,0.06499624252319336,-0.3236324191093445,-19.768823623657227,-0.3713042438030243,19.983552932739258,0.6777854561805725,2.4758944511413574,-0.26217979192733765,0.0,0.0,0.0,0.0,0.0,0.0,0.0,-0.3278075983815624,-0.026502795615314143,-0.23355162544351563,0.1952890184371818,0.09680275156052255,0.09081637237441492,-0.24161506804708863,1.2134431021297187,-0.2201259556571116,-0.0075256034278341,-2.603896832817479,-0.1088872840208054,2.4681863701457685,0.826480061827837,1.2134413937687574,-0.2202432315892585,-0.0075118285948192216,-2.6038483821997875,-0.10888392708698907,2.4681821257803174,0.826474908251239,0.00012583767868538495,-0.000144517884128126,-0.0013717143569547795,-0.0007434220406948066,0.00013291589455596077,-0.00038264740078036296,0.0010181283600950034,0.0,0.0,0.0,0.0,0.0,0.0,0.0,-1.7083609613610662e-06,-0.00011727593214688747,1.3774833014878682e-05,4.8450617691653264e-05,3.3569338163258466e-06,-4.244365451100407e-06,-5.153576597916043e-06,-0.00012583767868538495,0.000144517884128126,0.0013717143569547795,0.0007434220406948066,-0.00013291589455596077,0.00038264740078036296,-0.0010181283600950034,0.3236324191093445,19.768823623657227,0.3713042438030243,-19.983552932739258,-0.6777854561805725,-2.4758944511413574,0.26217979192733765,0
15,0.06999516487121582,-0.3236324191093445,-19.768823623657227,-0.3990752398967743,19.955781936645508,0.6896873116493225,2.4566683769226074,-0.28232139348983765,0.0,0.0,0.0,0.0,0.0,0.0,0.0,-0.3282459135699379,-0.02765478237976994,-0.23517624061592715,0.1967733062078976,0.09709348528966816,0.09140777223445543,-0.24128431492126468,1.2134431021297187,-0.22012595175472158,-0.007523654549922017,-2.603894883975648,-0.10888860644896825,2.468184974107549,0.8264780783127557,1.2134413937687574,-0.2202432315892585,-0.0075118285948192216,-2.6038483821997875,-0.10888392708698907,2.4681821257803174,0.826474908251239,-0.00016826019609182563,0.00019694613960560153,-0.0005746160218271467,0.00041652358867656005,-0.0002241318775525024,0.0002969080105848047,0.001716552200012213,0.0,0.0,0.0,0.0,0.0,0.0,0.0,-1.7083609613610662e-06,-0.00011727983453690971,1.1825955102795493e-05,4.650177586063009e-05,4.679361979176289e-06,-2.8483272314083763e-06,-3.1700615166219137e-06,0.00016826019609182563,-0.00019694613960560153,0.0005746160218271467,-0.00041652358867656005,0.0002241318775525024,-0.0002969080105848047,-0.001716552200012213,0.3236324191093445,19.768823623657227,0.3990752398967743,-19.955781936645508,-0.6896873116493225,-2.4566683769226074,0.28232139348983765,0
16,0.07499456405639648,-0.3236324191093445,-19.768823623657227,-0.3990752398967743,19.955781936645508,0.6896873116493225,2.4566683769226074,-0.28232139348983765,0.0,0.0,0.0,0.0,0.0,0.0,0.0,-0.3282459135699379,-0.02765478237976994,-0.23517624061592715,0.1967733062078976,0.09709348528966816,0.09140777223445543,-0.24128431492126468,1.2134431021297187,-0.22012595175472158,-0.007523654549922017,-2.603894883975648,-0.10888860644896825,2.468184974107549,0.8264780783127557,1.2134413937687574,-0.2202432315892585,-0.0075118285948192216,-2.6038483821997875,-0.10888392708698907,2.4681821257803174,0.826474908251239,-0.00016826019609182563,0.00019694613960560153,-0.0005746160218271467,0.00041652358867656005,-0.0002241318775525024,0.0002969080105848047,0.001716552200012213,0.0,0.0,0.0,0.0,0.0,0.0,0.0,-1.7083609613610662e-06,-0.00011727983453690971,1.1825955102795493e-05,4.650177586063009e-05,4.679361979176289e-06,-2.8483272314083763e-06,-3.1700615166219137e-06,0.00016826019609182563,-0.00019694613960560153,0.0005746160218271467,-0.00041652358867656005,0.0002241318775525024,-0.0002969080105848047,-0.001716552200012213,0.3236324191093445,19.768823623657227,0.3990752398967743,-19.955781936645508,-0.6896873116493225,-2.4566683769226074,0.28232139348983765,0
17,0.08002185821533203,-0.3514034152030945,-19.745019912719727,-0.3990752398967743,19.983552932739258,0.6777854561805725,2.4694857597351074,-0.22830526530742645,0.0,0.0,0.0,0.0,0.0,0.0,0.0,-0.33311736846307916,-0.030711455488988716,-0.2363786197152943,0.1978744220878656,0.09750939381185687,0.09141634373062792,-0.24152705500823013,1.2134450509715498,-0.22012762479483233,-0.00752365357587281,-2.603896832817479,-0.10888779660826356,2.4681846139327437,0.826475210835752,1.2134413937687574,-0.2202432315892585,-0.0075118285948192216,-2.6038483821997875,-0.10888392708698907,2.4681821257803174,0.826474908251239,-2.868777324551015e-05,-0.0007233731031968297,-0.0009230080079895252,-0.00017367546524252024,0.00026448822056994323,-1.460323558112181e-05,-0.0013691028040188518,0.0,0.0,0.0,0.0,0.0,0.0,0.0,-3.65720279238424e-06,-0.00011560679442615407,1.182498105358875e-05,4.8450617691653264e-05,3.869521274485477e-06,-2.4881524263165034e-06,-3.025845130011362e-07,2.868777324551015e-05,0.0007233731031968297,0.0009230080079895252,0.00017367546524252024,-0.00026448822056994323,1.460323558112181e-05,0.0013691028040188518,0.3514034152030945,19.745019912719727,0.3990752398967743,-19.983552932739258,-0.6777854561805725,-2.4694857597351074,0.22830526530742645,0
18,0.08500480651855469,-0.3514034152030945,-19.745019912719727,-0.3990752398967743,19.983552932739258,0.6777854561805725,2.4694857597351074,-0.22830526530742645,0.0,0.0,0.0,0.0,0.0,0.0,0.0,-0.33311736846307916,-0.030711455488988716,-0.2363786197152943,0.1978744220878656,0.09750939381185687,0.09141634373062792,-0.24152705500823013,1.2134450509715498,-0.22012762479483233,-0.00752365357587281,-2.603896832817479,-0.10888779660826356,2.4681846139327437,0.826475210835752,1.2134413937687574,-0.2202432315892585,-0.0075118285948192216,-2.6038483821997875,-0.10888392708698907,2.4681821257803174,0.826474908251239,-2.868777324551015e-05,-0.0007233731031968297,-0.0009230080079895252,-0.00017367546524252024,0.00026448822056994323,-1.460323558112181e-05,-0.0013691028040188518,0.0,0.0,0.0,0.0,0.0,0.0,0.0,-3.65720279238424e-06,-0.00011560679442615407,1.182498105358875e-05,4.8450617691653264e-05,3.869521274485477e-06,-2.4881524263165034e-06,-3.025845130011362e-07,2.868777324551015e-05,0.0007233731031968297,0.0009230080079895252,0.00017367546524252024,-0.00026448822056994323,1.460323558112181e-05,0.0013691028040188518,0.3514034152030945,19.745019912719727,0.3990752398967743,-19.983552932739258,-0.6777854561805725,-2.4694857597351074,0.22830526530742645,0
19,0.08994483947753906,-0.3514034152030945,-19.768823623657227,-0.4228789508342743,19.983552932739258,0.6713767647743225,2.4566683769226074,-0.25485557317733765,0.0,0.0,0.0,0.0,0.0,0.0,0.0,-0.3287509380963068,-0.028627508540876367,-0.22690357713397968,0.19722855648447607,0.0974438556089234,0.09255486806002866,-0.2433502004914176,1.2134450509715498,-0.2201238198280261,-0.007521984114061051,-2.603896832817479,-0.10888980519202429,2.468184974093615,0.8264792462590054,1.2134413937687574,-0.2202432315892585,-0.0075118285948192216,-2.6038483821997875,-0.10888392708698907,2.4681821257803174,0.826474908251239,0.0004967764040047459,0.00021047117240339944,-0.0002387083647377122,-0.00023670737162186605,0.00041418464267110644,0.00027884965230788003,0.0006435806404511129,0.0,0.0,0.0,0.0,0.0,0.0,0.0,-3.65720279238424e-06,-0.00011941176123239639,1.0155519241829628e-05,4.8450617691653264e-05,5.878105035217462e-06,-2.848313297665328e-06,-4.33800776633575e-06,-0.0004967764040047459,-0.00021047117240339944,0.0002387083647377122,0.00023670737162186605,-0.00041418464267110644,-0.00027884965230788003,-0.0006435806404511129,0.3514034152030945,19.768823623657227,0.4228789508342743,-19.983552932739258,-0.6713767647743225,-2.4566683769226074,0.25485557317733765,0
20,0.0950005054473877,-0.3514034152030945,-19.768823623657227,-0.4228789508342743,19.983552932739258,0.6713767647743225,2.4566683769226074,-0.25485557317733765,0.0,0.0,0.0,0.0,0.0,0.0,0.0,-0.3287509380963068,-0.028627508540876367,-0.22690357713397968,0.19722855648447607,0.0974438556089234,0.09255486806002866,-0.2433502004914176,1.2134450509715498,-0.2201238198280261,-0.007521984114061051,-2.603896832817479,-0.10888980519202429,2.468184974093615,0.8264792462590054,1.2134413937687574,-0.2202432315892585,-0.0075118285948192216,-2.6038483821997875,-0.10888392708698907,2.4681821257803174,0.826474908251239,0.0004967764040047459,0.00021047117240339944,-0.0002387083647377122,-0.00023670737162186605,0.00041418464267110644,0.00027884965230788003,0.0006435806404511129,0.0,0.0,0.0,0.0,0.0,0.0,0.0,-3.65720279238424e-06,-0.00011941176123239639,1.0155519241829628e-05,4.8450617691653264e-05,5.878105035217462e-06,-2.848313297665328e-06,-4.33800776633575e-06,-0.0004967764040047459,-0.00021047117240339944,0.0002387083647377122,0.00023670737162186605,-0.00041418464267110644,-0.00027884965230788003,-0.0006435806404511129,0.3514034152030945,19.768823623657227,0.4228789508342743,-19.983552932739258,-0.6713767647743225,-2.4566683769226074,0.25485557317733765,0
21,0.09999847412109375,-0.3236324191093445,-19.717248916625977,-0.3990752398967743,19.983552932739258,0.6832786202430725,2.4630770683288574,-0.25485557317733765,0.0,0.0,0.0,0.0,0.0,0.0,0.0,-0.32752684320989056,-0.028675393152047264,-0.22893056471206405,0.1984257467131838,0.09771318480172635,0.0925643939305403,-0.2438000179482702,1.2134431021297187,-0.2201293112436681,-0.00752365357587281,-2.603896832817479,-0.10888789439039712,2.4681843012566427,0.8264794865316045,1.2134413937687574,-0.2202432315892585,-0.0075118285948192216,-2.6038483821997875,-0.10888392708698907,2.4681821257803174,0.826474908251239,7.622680193027299e-05,-0.0013819585939346428,-0.0007583111632369916,-0.0001501865894867483,4.40020927336482e-06,6.38166613974404e-05,0.0007526520220323958,0.0,0.0,0.0,0.0,0.0,0.0,0.0,-1.7083609613610662e-06,-0.00011392034559037922,1.182498105358875e-05,4.8450617691653264e-05,3.9673034080423e-06,-2.175476325305681e-06,-4.5782803654859094e-06,-7.622680193027299e-05,0.0013819585939346428,0.0007583111632369916,0.0001501865894867483,-4.40020927336482e-06,-6.38166613974404e-05,-0.0007526520220323958,0.3236324191093445,19.717248916625977,0.3990752398967743,-19.983552932739258,-0.6832786202430725,-2.4630770683288574,0.25485557317733765,0
22,0.10499691963195801,-0.3236324191093445,-19.717248916625977,-0.3990752398967743,19.983552932739258,0.6832786202430725,2.4630770683288574,-0.25485557317733765,0.0,0.0,0.0,0.0,0.0,0.0,0.0,-0.32752684320989056,-0.028675393152047264,-0.22893056471206405,0.1984257467131838,0.09771318480172635,0.0925643939305403,-0.2438000179482702,1.2134431021297187,-0.2201293112436681,-0.00752365357587281,-2.603896832817479,-0.10888789439039712,2.4681843012566427,0.8264794865316045,1.2134413937687574,-0.2202432315892585,-0.0075118285948192216,-2.6038483821997875,-0.10888392708698907,2.4681821257803174,0.826474908251239,7.622680193027299e-05,-0.0013819585939346428,-0.0007583111632369916,-0.0001501865894867483,4.40020927336482e-06,6.38166613974404e-05,0.0007526520220323958,0.0,0.0,0.0,0.0,0.0,0.0,0.0,-1.7083609613610662e-06,-0.00011392034559037922,1.182498105358875e-05,4.8450617691653264e-05,3.9673034080423e-06,-2.175476325305681e-06,-4.5782803654859094e-06,-7.622680193027299e-05,0.0013819585939346428,0.0007583111632369916,0.0001501865894867483,-4.40020927336482e-06,-6.38166613974404e-05,-0.0007526520220323958,0.3236324191093445,19.717248916625977,0.3990752398967743,-19.983552932739258,-0.6832786202430725,-2.4630770683288574,0.25485557317733765,0
23,0.10999679565429688,-0.3236324191093445,-19.717248916625977,-0.3990752398967743,19.983552932739258,0.6832786202430725,2.4630770683288574,-0.25485557317733765,0.0,0.0,0.0,0.0,0.0,0.0,0.0,-0.32752684320989056,-0.028675393152047264,-0.22893056471206405,0.1984257467131838,0.09771318480172635,0.0925643939305403,-0.2438000179482702,1.2134431021297187,-0.2201293112436681,-0.00752365357587281,-2.603896832817479,-0.10888789439039712,2.4681843012566427,0.8264794865316045,1.2134413937687574,-0.2202432315892585,-0.0075118285948192216,-2.6038483821997875,-0.10888392708698907,2.4681821257803174,0.826474908251239,7.622680193027299e-05,-0.0013819585939346428,-0.0007583111632369916,-0.0001501865894867483,4.40020927336482e-06,6.38166613974404e-05,0.0007526520220323958,0.0,0.0,0.0,0.0,0.0,0.0,0.0,-1.7083609613610662e-06,-0.00011392034559037922,1.182498105358875e-05,4.8450617691653264e-05,3.9673034080423e-06,-2.175476325305681e-06,-4.5782803654859094e-06,-7.622680193027299e-05,0.0013819585939346428,0.0007583111632369916,0.0001501865894867483,-4.40020927336482e-06,-6.38166613974404e-05,-0.0007526520220323958,0.3236324191093445,19.717248916625977,0.3990752398967743,-19.983552932739258,-0.6832786202430725,-2.4630770683288574,0.25485557317733765,0
24,0.11501216888427734,-0.3236324191093445,-19.717248916625977,-0.3990752398967743,19.983552932739258,0.6832786202430725,2.4630770683288574,-0.25485557317733765,0.0,0.0,0.0,0.0,0.0,0.0,0.0,-0.32752684320989056,-0.028675393152047264,-0.22893056471206405,0.1984257467131838,0.09771318480172635,0.0925643939305403,-0.2438000179482702,1.2134431021297187,-0.2201293112436681,-0.00752365357587281,-2.603896832817479,-0.10888789439039712,2.4681843012566427,0.8264794865316045,1.2134413937687574,-0.2202432315892585,-0.0075118285948192216,-2.6038483821997875,-0.10888392708698907,2.4681821257803174,0.826474908251239,7.622680193027299e-05,-0.0013819585939346428,-0.0007583111632369916,-0.0001501865894867483,4.40020927336482e-06,6.38166613974404e-05,0.0007526520220323958,0.0,0.0,0.0,0.0,0.0,0.0,0.0,-1.7083609613610662e-06,-0.00011392034559037922,1.182498105358875e-05,4.8450617691653264e-05,3.9673034080423e-06,-2.175476325305681e-06,-4.5782803654859094e-06,-7.622680193027299e-05,0.0013819585939346428,0.0007583111632369916,0.0001501865894867483,-4.40020927336482e-06,-6.38166613974404e-05,-0.0007526520220323958,0.3236324191093445,19.717248916625977,0.3990752398967743,-19.983552932739258,-0.6832786202430725,-2.4630770683288574,0.25485557317733765,0
25,0.11999726295471191,-0.3514034152030945,-19.792627334594727,-0.4704863727092743,20.007356643676758,0.6832786202430725,2.4630770683288574,-0.26217979192733765,0.0,0.0,0.0,0.0,0.0,0.0,0.0,-0.32837522523052753,-0.024528858950262227,-0.23201055426600087,0.19976417051254886,0.09788327423974807,0.0925964627038708,-0.24354603850709705,1.2134450509715498,-0.22012349081063762,-0.007518652010069084,-2.6038985032533346,-0.10888789437214544,2.4681842620110075,0.8264799484143792,1.2134413937687574,-0.2202432315892585,-0.0075118285948192216,-2.6038483821997875,-0.10888392708698907,2.4681821257803174,0.826474908251239,0.0006748944467185625,0.0011120005657006703,0.008129178370326758,-0.0001598434075699962,-0.00010608973680493122,1.481877555487272e-05,0.000626937131600798,0.0,0.0,0.0,0.0,0.0,0.0,0.0,-3.65720279238424e-06,-0.00011974077862086929,6.823415249862692e-06,5.012105354706975e-05,3.967285156364353e-06,-2.1362306901195893e-06,-5.040163140179743e-06,-0.0006748944467185625,-0.0011120005657006703,-0.008129178370326758,0.0001598434075699962,0.00010608973680493122,-1.481877555487272e-05,-0.000626937131600798,0.3514034152030945,19.792627334594727,0.4704863727092743,-20.007356643676758,-0.6832786202430725,-2.4630770683288574,0.26217979192733765,0
26,0.12499499320983887,-0.3514034152030945,-19.792627334594727,-0.4704863727092743,20.007356643676758,0.6832786202430725,2.4630770683288574,-0.26217979192733765,0.0,0.0,0.0,0.0,0.0,0.0,0.0,-0.32837522523052753,-0.024528858950262227,-0.23201055426600087,0.19976417051254886,0.09788327423974807,0.0925964627038708,-0.24354603850709705,1.2134450509715498,-0.22012349081063762,-0.007518652010069084,-2.6038985032533346,-0.10888789437214544,2.4681842620110075,0.8264799484143792,1.2134413937687574,-0.2202432315892585,-0.0075118285948192216,-2.6038483821997875,-0.10888392708698907,2.4681821257803174,0.826474908251239,0.0006748944467185625,0.0011120005657006703,0.008129178370326758,-0.0001598434075699962,-0.00010608973680493122,1.481877555487272e-05,0.000626937131600798,0.0,0.0,0.0,0.0,0.0,0.0,0.0,-3.65720279238424e-06,-0.00011974077862086929,6.823415249862692e-06,5.012105354706975e-05,3.967285156364353e-06,-2.1362306901195893e-06,-5.040163140179743e-06,-0.0006748944467185625,-0.0011120005657006703,-0.008129178370326758,0.0001598434075699962,0.00010608973680493122,-1.481877555487272e-05,-0.000626937131600798,0.3514034152030945,19.792627334594727,0.4704863727092743,-20.007356643676758,-0.6832786202430725,-2.4630770683288574,0.26217979192733765,0
27,0.12999320030212402,-0.3236324191093445,-19.745019912719727,-0.4228789508342743,19.955781936645508,0.6777854561805725,2.4630770683288574,-0.24112264811992645,0.0,0.0,0.0,0.0,0.0,0.0,0.0,-0.3602176857184169,-0.022547751117969618,-0.2671756834614709,0.20101464855970494,0.09861615121502648,0.0916850239515654,-0.24399421390974887,1.2134431021297187,-0.22012762608353967,-0.007521984114215031,-2.603894883975648,-0.10888728402058283,2.4681842620107863,0.8264738353616767,1.2134413937687574,-0.2202432315892585,-0.0075118285948192216,-2.6038483821997875,-0.10888392708698907,2.4681821257803174,0.826474908251239,-0.00022333055570861933,-0.0002711874338695764,-0.00012575244405355426,0.0005143788755221613,0.00015118312065035114,-3.291066762576662e-05,-0.0002885741949930396,0.0,0.0,0.0,0.0,0.0,0.0,0.0,-1.7083609613610662e-06,-0.00011560550571881878,1.0155519395809755e-05,4.650177586063009e-05,3.3569335937538858e-06,-2.136230468963163e-06,1.0728895623035584e-06,0.00022333055570861933,0.0002711874338695764,0.00012575244405355426,-0.0005143788755221613,-0.00015118312065035114,3.291066762576662e-05,0.0002885741949930396,0.3236324191093445,19.745019912719727,0.4228789508342743,-19.955781936645508,-0.6777854561805725,-2.4630770683288574,0.24112264811992645,0
28,0.1349945068359375,-0.3236324191093445,-19.745019912719727,-0.4228789508342743,19.955781936645508,0.6777854561805725,2.4630770683288574,-0.24112264811992645,0.0,0.0,0.0,0.0,0.0,0.0,0.0,-0.3602176857184169,-0.022547751117969618,-0.2671756834614709,0.20101464855970494,0.09861615121502648,0.0916850239515654,-0.24399421390974887,1.2134431021297187,-0.22012762608353967,-0.007521984114215031,-2.603894883975648,-0.10888728402058283,2.4681842620107863,0.8264738353616767,1.2134413937687574,-0.2202432315892585,-0.0075118285948192216,-2.6038483821997875,-0.10888392708698907,2.4681821257803174,0.826474908251239,-0.00022333055570861933,-0.0002711874338695764,-0.00012575244405355426,0.0005143788755221613,0.00015118312065035114,-3.291066762576662e-05,-0.0002885741949930396,0.0,0.0,0.0,0.0,0.0,0.0,0.0,-1.7083609613610662e-06,-0.00011560550571881878,1.0155519395809755e-05,4.650177586063009e-05,3.3569335937538858e-06,-2.136230468963163e-06,1.0728895623035584e-06,0.00022333055570861933,0.0002711874338695764,0.00012575244405355426,-0.0005143788755221613,-0.00015118312065035114,3.291066762576662e-05,0.0002885741949930396,0.3236324191093445,19.745019912719727,0.4228789508342743,-19.955781936645508,-0.6777854561805725,-2.4630770683288574,0.24112264811992645,0
29,0.14000344276428223,-0.3514034152030945,-19.792627334594727,-0.4228789508342743,19.983552932739258,0.6777854561805725,2.4694857597351074,-0.26858848333358765,0.0,0.0,0.0,0.0,0.0,0.0,0.0,-0.32026268380404144,-0.028174058702959602,-0.22477266465423518,0.20609429604888546,0.09660871476474495,0.09260351620801602,-0.24455180420477685,1.2134450509715498,-0.22012419331598831,-0.007521984114066549,-2.603896835869935,-0.10888728407467037,2.4681835499339635,0.8264767295816107,1.2134413937687574,-0.2202432315892585,-0.0075118285948192216,-2.6038483821997875,-0.10888392708698907,2.4681821257803174,0.826474908251239,0.0005871703666727554,0.0005339011284750512,1.5503927654771725e-05,-5.506045606929521e-05,0.0003351243116071965,-9.158474999961059e-05,0.0007816867546825168,0.0,0.0,0.0,0.0,0.0,0.0,0.0,-3.65720279238424e-06,-0.00011903827327017225,1.0155519247327834e-05,4.845367014727486e-05,3.356987681293888e-06,-1.4241536461234716e-06,-1.8213303716319018e-06,-0.0005871703666727554,-0.0005339011284750512,-1.5503927654771725e-05,5.506045606929521e-05,-0.0003351243116071965,9.158474999961059e-05,-0.0007816867546825168,0.3514034152030945,19.792627334594727,0.4228789508342743,-19.983552932739258,-0.6777854561805725,-2.4694857597351074,0.26858848333358765,0
30,0.14577221870422363,-0.3514034152030945,-19.792627334594727,-0.4228789508342743,19.983552932739258,0.6777854561805725,2.4694857597351074,-0.26858848333358765,0.0,0.0,0.0,0.0,0.0,0.0,0.0,-0.32026268380404144,-0.028174058702959602,-0.22477266465423518,0.20609429604888546,0.09660871476474495,0.09260351620801602,-0.24455180420477685,1.2134450509715498,-0.22012419331598831,-0.007521984114066549,-2.603896835869935,-0.10888728407467037,2.4681835499339635,0.8264767295816107,1.2134413937687574,-0.2202432315892585,-0.0075118285948192216,-2.6038483821997875,-0.10888392708698907,2.4681821257803174,0.826474908251239,0.0005871703666727554,0.0005339011284750512,1.5503927654771725e-05,-5.506045606929521e-05,0.0003351243116071965,-9.158474999961059e-05,0.0007816867546825168,0.0,0.0,0.0,0.0,0.0,0.0,0.0,-3.65720279238424e-06,-0.00011903827327017225,1.0155519247327834e-05,4.845367014727486e-05,3.356987681293888e-06,-1.4241536461234716e-06,-1.8213303716319018e-06,-0.0005871703666727554,-0.0005339011284750512,-1.5503927654771725e-05,5.506045606929521e-05,-0.0003351243116071965,9.158474999961059e-05,-0.0007816867546825168,0.3514034152030945,19.792627334594727,0.4228789508342743,-19.983552932739258,-0.6777854561805725,-2.4694857597351074,0.26858848333358765,0
31,0.1500086784362793,-0.2998287081718445,-19.816431045532227,-0.3990752398967743,19.983552932739258,0.6832786202430725,2.4566683769226074,-0.22098104655742645,0.0,0.0,0.0,0.0,0.0,0.0,0.0,-0.3190298359113216,-0.026511775736762902,-0.2222260010119658,0.2037209890041322,0.09673020969266298,0.09234135167542691,-0.24535214501756847,1.2134414316938635,-0.22012237747411914,-0.007523654549921813,-2.6038968328174965,-0.10888789437214565,2.468184974087609,0.8264715706869683,1.2134413937687574,-0.2202432315892585,-0.0075118285948192216,-2.6038483821997875,-0.10888392708698907,2.4681821257803174,0.826474908251239,-0.00032955508588056263,0.0008233089975263543,-0.0009003888218629356,0.00010424954531582343,-0.00016891161531180864,0.000131470514790334,-0.0008173521808567775,0.0,0.0,0.0,0.0,0.0,0.0,0.0,-3.7925106166625255e-08,-0.00012085411513934607,1.1825955102591663e-05,4.845061770897274e-05,3.96728515657252e-06,-2.848307291802854e-06,3.3375642707333952e-06,0.00032955508588056263,-0.0008233089975263543,0.0009003888218629356,-0.00010424954531582343,0.00016891161531180864,-0.000131470514790334,0.0008173521808567775,0.2998287081718445,19.816431045532227,0.3990752398967743,-19.983552932739258,-0.6832786202430725,-2.4566683769226074,0.22098104655742645,0
32,0.15500998497009277,-0.2998287081718445,-19.816431045532227,-0.3990752398967743,19.983552932739258,0.6832786202430725,2.4566683769226074,-0.22098104655742645,0.0,0.0,0.0,0.0,0.0,0.0,0.0,-0.3190298359113216,-0.026511775736762902,-0.2222260010119658,0.2037209890041322,0.09673020969266298,0.09234135167542691,-0.24535214501756847,1.2134414316938635,-0.22012237747411914,-0.007523654549921813,-2.6038968328174965,-0.10888789437214565,2.468184974087609,0.8264715706869683,1.2134413937687574,-0.2202432315892585,-0.0075118285948192216,-2.6038483821997875,-0.10888392708698907,2.4681821257803174,0.826474908251239,-0.00032955508588056263,0.0008233089975263543,-0.0009003888218629356,0.00010424954531582343,-0.00016891161531180864,0.000131470514790334,-0.0008173521808567775,0.0,0.0,0.0,0.0,0.0,0.0,0.0,-3.7925106166625255e-08,-0.00012085411513934607,1.1825955102591663e-05,4.845061770897274e-05,3.96728515657252e-06,-2.848307291802854e-06,3.3375642707333952e-06,0.00032955508588056263,-0.0008233089975263543,0.0009003888218629356,-0.00010424954531582343,0.00016891161531180864,-0.000131470514790334,0.0008173521808567775,0.2998287081718445,19.816431045532227,0.3990752398967743,-19.983552932739258,-0.6832786202430725,-2.4566683769226074,0.22098104655742645,0
33,0.15999531745910645,-0.2998287081718445,-19.745019912719727,-0.4228789508342743,20.007356643676758,0.6832786202430725,2.4566683769226074,-0.20083944499492645,0.0,0.0,0.0,0.0,0.0,0.0,0.0,-0.3204451789061032,-0.023465650883483832,-0.22669387880474084,0.2033389391722386,0.09622898148876044,0.09150483951573034,-0.2452717806686068,1.2134414316938635,-0.22012762609565348,-0.007521984114066549,-2.6038985032533346,-0.10889108818769455,2.4681849755411593,0.826473219686841,1.2134413937687574,-0.2202432315892585,-0.0075118285948192216,-2.6038483821997875,-0.10888392708698907,2.4681821257803174,0.826474908251239,-0.0006155214210946824,-0.0002920610718560988,-0.00026987835937969775,-0.0006211334231279733,-1.6564954330138703e-05,0.00018150175481596842,-0.0016954715343604234,0.0,0.0,0.0,0.0,0.0,0.0,0.0,-3.7925106166625255e-08,-0.00011560549360500882,1.0155519247327834e-05,5.012105354706975e-05,7.1611007054772635e-06,-2.849760841971971e-06,1.6885643980835141e-06,0.0006155214210946824,0.0002920610718560988,0.00026987835937969775,0.0006211334231279733,1.6564954330138703e-05,-0.00018150175481596842,0.0016954715343604234,0.2998287081718445,19.745019912719727,0.4228789508342743,-20.007356643676758,-0.6832786202430725,-2.4566683769226074,0.20083944499492645,0
34,0.16500568389892578,-0.2998287081718445,-19.745019912719727,-0.4228789508342743,20.007356643676758,0.6832786202430725,2.4566683769226074,-0.20083944499492645,0.0,0.0,0.0,0.0,0.0,0.0,0.0,-0.3204451789061032,-0.023465650883483832,-0.22669387880474084,0.2033389391722386,0.09622898148876044,0.09150483951573034,-0.2452717806686068,1.2134414316938635,-0.22012762609565348,-0.007521984114066549,-2.6038985032533346,-0.10889108818769455,2.4681849755411593,0.826473219686841,1.2134413937687574,-0.2202432315892585,-0.0075118285948192216,-2.6038483821997875,-0.10888392708698907,2.4681821257803174,0.826474908251239,-0.0006155214210946824,-0.0002920610718560988,-0.00026987835937969775,-0.0006211334231279733,-1.6564954330138703e-05,0.00018150175481596842,-0.0016954715343604234,0.0,0.0,0.0,0.0,0.0,0.0,0.0,-3.7925106166625255e-08,-0.00011560549360500882,1.0155519247327834e-05,5.012105354706975e-05,7.1611007054772635e-06,-2.849760841971971e-06,1.6885643980835141e-06,0.0006155214210946824,0.0002920610718560988,0.00026987835937969775,0.0006211334231279733,1.6564954330138703e-05,-0.00018150175481596842,0.0016954715343604234,0.2998287081718445,19.745019912719727,0.4228789508342743,-20.007356643676758,-0.6832786202430725,-2.4566683769226074,0.20083944499492645,0
35,0.17000460624694824,-0.3514034152030945,-19.768823623657227,-0.4466826617717743,19.955781936645508,0.6832786202430725,2.4630770683288574,-0.23471395671367645,0.0,0.0,0.0,0.0,0.0,0.0,0.0,-0.31768795823182594,-0.028099520268480515,-0.22702007888930908,0.20479488708129606,0.09615279048134254,0.09126523558386765,-0.2438396090490409,1.213445051952696,-0.22012595566113788,-0.0075203136782112864,-2.603894883975648,-0.10888801289598948,2.4681842620646295,0.8264730968038958,1.2134413937687574,-0.2202432315892585,-0.0075118285948192216,-2.6038483821997875,-0.10888392708698907,2.4681821257803174,0.826474908251239,0.0009971945226976936,-0.0002998167231568652,4.051165789310694e-05,0.00030231619829254526,3.460671813702048e-06,-2.210882915884252e-05,6.911769157567392e-05,0.0,0.0,0.0,0.0,0.0,0.0,0.0,-3.658183938659576e-06,-0.00011727592812060816,8.485083392064871e-06,4.650177586063009e-05,4.085809000409224e-06,-2.136284312115322e-06,1.8114473432362388e-06,-0.0009971945226976936,0.0002998167231568652,-4.051165789310694e-05,-0.00030231619829254526,-3.460671813702048e-06,2.210882915884252e-05,-6.911769157567392e-05,0.3514034152030945,19.768823623657227,0.4466826617717743,-19.955781936645508,-0.6832786202430725,-2.4630770683288574,0.23471395671367645,0
36,0.17499709129333496,-0.3514034152030945,-19.768823623657227,-0.4466826617717743,19.955781936645508,0.6832786202430725,2.4630770683288574,-0.23471395671367645,0.0,0.0,0.0,0.0,0.0,0.0,0.0,-0.31768795823182594,-0.028099520268480515,-0.22702007888930908,0.20479488708129606,0.09615279048134254,0.09126523558386765,-0.2438396090490409,1.213445051952696,-0.22012595566113788,-0.0075203136782112864,-2.603894883975648,-0.10888801289598948,2.4681842620646295,0.8264730968038958,1.2134413937687574,-0.2202432315892585,-0.0075118285948192216,-2.6038483821997875,-0.10888392708698907,2.4681821257803174,0.826474908251239,0.0009971945226976936,-0.0002998167231568652,4.051165789310694e-05,0.00030231619829254526,3.460671813702048e-06,-2.210882915884252e-05,6.911769157567392e-05,0.0,0.0,0.0,0.0,0.0,0.0,0.0,-3.658183938659576e-06,-0.00011727592812060816,8.485083392064871e-06,4.650177586063009e-05,4.085809000409224e-06,-2.136284312115322e-06,1.8114473432362388e-06,-0.0009971945226976936,0.0002998167231568652,-4.051165789310694e-05,-0.00030231619829254526,-3.460671813702048e-06,2.210882915884252e-05,-6.911769157567392e-05,0.3514034152030945,19.768823623657227,0.4466826617717743,-19.955781936645508,-0.6832786202430725,-2.4630770683288574,0.23471395671367645,0
37,0.18002057075500488,-0.3514034152030945,-19.768823623657227,-0.4228789508342743,19.983552932739258,0.6832786202430725,2.4566683769226074,-0.28232139348983765,0.0,0.0,0.0,0.0,0.0,0.0,0.0,-0.32328752829670704,-0.02884535346904391,-0.23371660369180075,0.20542201375281585,0.097115469664051,0.09081227397323953,-0.2426658562178758,1.213445050971555,-0.22012592893112276,-0.007521984114066549,-2.603896832817479,-0.1088878943728144,2.468184974087609,0.8264784169678725,1.2134413937687574,-0.2202432315892585,-0.0075118285948192216,-2.6038483821997875,-0.10888392708698907,2.4681821257803174,0.826474908251239,7.533553443214089e-06,-0.0005401976794000269,-0.00043054248171802345,-7.3175923946323255e-06,0.0001078884125315621,0.00024559638060961484,0.0014193368999904077,0.0,0.0,0.0,0.0,0.0,0.0,0.0,-3.6572027977133104e-06,-0.00011730265813572616,1.0155519247327834e-05,4.8450617691653264e-05,3.9672858253292365e-06,-2.848307291802854e-06,-3.508716633460196e-06,-7.533553443214089e-06,0.0005401976794000269,0.00043054248171802345,7.3175923946323255e-06,-0.0001078884125315621,-0.00024559638060961484,-0.0014193368999904077,0.3514034152030945,19.768823623657227,0.4228789508342743,-19.983552932739258,-0.6832786202430725,-2.4566683769226074,0.28232139348983765,0
38,0.18501710891723633,-0.3514034152030945,-19.768823623657227,-0.4228789508342743,19.983552932739258,0.6832786202430725,2.4566683769226074,-0.28232139348983765,0.0,0.0,0.0,0.0,0.0,0.0,0.0,-0.32328752829670704,-0.02884535346904391,-0.23371660369180075,0.20542201375281585,0.097115469664051,0.09081227397323953,-0.2426658562178758,1.213445050971555,-0.22012592893112276,-0.007521984114066549,-2.603896832817479,-0.1088878943728144,2.468184974087609,0.8264784169678725,1.2134413937687574,-0.2202432315892585,-0.0075118285948192216,-2.6038483821997875,-0.10888392708698907,2.4681821257803174,0.826474908251239,7.533553443214089e-06,-0.0005401976794000269,-0.00043054248171802345,-7.3175923946323255e-06,0.0001078884125315621,0.00024559638060961484,0.0014193368999904077,0.0,0.0,0.0,0.0,0.0,0.0,0.0,-3.6572027977133104e-06,-0.00011730265813572616,1.0155519247327834e-05,4.8450617691653264e-05,3.9672858253292365e-06,-2.848307291802854e-06,-3.508716633460196e-06,-7.533553443214089e-06,0.0005401976794000269,0.00043054248171802345,7.3175923946323255e-06,-0.0001078884125315621,-0.00024559638060961484,-0.0014193368999904077,0.3514034152030945,19.768823623657227,0.4228789508342743,-19.983552932739258,-0.6832786202430725,-2.4566683769226074,0.28232139348983765,0
39,0.1900324821472168,-0.3514034152030945,-19.768823623657227,-0.4466826617717743,20.007356643676758,0.6896873116493225,2.4694857597351074,-0.23471395671367645,0.0,0.0,0.0,0.0,0.0,0.0,0.0,-0.324962097457955,-0.02677138816674204,-0.2317900447538223,0.20402166651094225,0.0976443407690533,0.09070018748016664,-0.24272188678726156,1.2134450509715498,-0.22012595551630493,-0.0075203136782112864,-2.603898494750066,-0.10888860644896825,2.468183550095469,0.8264730899988926,1.2134413937687574,-0.2202432315892585,-0.0075118285948192216,-2.6038483821997875,-0.10888392708698907,2.4681821257803174,0.826474908251239,8.530606983700877e-05,2.5193247946824484e-05,0.0005482134536039265,-0.000492567414870436,-0.0002914616857670933,-0.00024974332790182177,-0.0004088140992935033,0.0,0.0,0.0,0.0,0.0,0.0,0.0,-3.65720279238424e-06,-0.00011727607295355935,8.485083392064871e-06,5.011255027831396e-05,4.679361979176289e-06,-1.4243151515991315e-06,1.8182523464638223e-06,-8.530606983700877e-05,-2.5193247946824484e-05,-0.0005482134536039265,0.000492567414870436,0.0002914616857670933,0.00024974332790182177,0.0004088140992935033,0.3514034152030945,19.768823623657227,0.4466826617717743,-20.007356643676758,-0.6896873116493225,-2.4694857597351074,0.23471395671367645,0
40,0.1949937343597412,-0.3514034152030945,-19.768823623657227,-0.4466826617717743,20.007356643676758,0.6896873116493225,2.4694857597351074,-0.23471395671367645,0.0,0.0,0.0,0.0,0.0,0.0,0.0,-0.324962097457955,-0.02677138816674204,-0.2317900447538223,0.20402166651094225,0.0976443407690533,0.09070018748016664,-0.24272188678726156,1.2134450509715498,-0.22012595551630493,-0.0075203136782112864,-2.603898494750066,-0.10888860644896825,2.468183550095469,0.8264730899988926,1.2134413937687574,-0.2202432315892585,-0.0075118285948192216,-2.6038483821997875,-0.10888392708698907,2.4681821257803174,0.826474908251239,8.530606983700877e-05,2.5193247946824484e-05,0.0005482134536039265,-0.000492567414870436,-0.0002914616857670933,-0.00024974332790182177,-0.0004088140992935033,0.0,0.0,0.0,0.0,0.0,0.0,0.0,-3.65720279238424e-06,-0.00011727607295355935,8.485083392064871e-06,5.011255027831396e-05,4.679361979176289e-06,-1.4243151515991315e-06,1.8182523464638223e-06,-8.530606983700877e-05,-2.5193247946824484e-05,-0.0005482134536039265,0.000492567414870436,0.0002914616857670933,0.00024974332790182177,0.0004088140992935033,0.3514034152030945,19.768823623657227,0.4466826617717743,-20.007356643676758,-0.6896873116493225,-2.4694857597351074,0.23471395671367645,0
41,0.20003104209899902,-0.2998287081718445,-19.745019912719727,-0.4228789508342743,19.955781936645508,0.6832786202430725,2.4630770683288574,-0.24844686686992645,0.0,0.0,0.0,0.0,0.0,0.0,0.0,-0.3255336577000216,-0.026642920444284676,-0.22882929965966237,0.2053031392518138,0.09761243164048082,0.09076256773712266,-0.2427227910148521,1.2134414316938635,-0.2201276163309516,-0.007521984114066549,-2.6038948839756,-0.1088879075154192,2.4681842621722927,0.8264755575628071,1.2134413937687574,-0.2202432315892585,-0.0075118285948192216,-2.6038483821997875,-0.10888392708698907,2.4681821257803174,0.826474908251239,-0.0009905628807012326,-0.00022586968890715885,4.484863528668366e-05,0.0008514001554906782,-6.093798753959555e-06,8.27396705615533e-05,0.0006579254454977344,0.0,0.0,0.0,0.0,0.0,0.0,0.0,-3.7925106166625255e-08,-0.00011561525830688923,1.0155519247327834e-05,4.6501775812668456e-05,3.98042843012536e-06,-2.136391975327001e-06,-6.493115680683559e-07,0.0009905628807012326,0.00022586968890715885,-4.484863528668366e-05,-0.0008514001554906782,6.093798753959555e-06,-8.27396705615533e-05,-0.0006579254454977344,0.2998287081718445,19.745019912719727,0.4228789508342743,-19.955781936645508,-0.6832786202430725,-2.4630770683288574,0.24844686686992645,0
42,0.20502471923828125,-0.2998287081718445,-19.745019912719727,-0.4228789508342743,19.955781936645508,0.6832786202430725,2.4630770683288574,-0.24844686686992645,0.0,0.0,0.0,0.0,0.0,0.0,0.0,-0.3255336577000216,-0.026642920444284676,-0.22882929965966237,0.2053031392518138,0.09761243164048082,0.09076256773712266,-0.2427227910148521,1.2134414316938635,-0.2201276163309516,-0.007521984114066549,-2.6038948839756,-0.1088879075154192,2.4681842621722927,0.8264755575628071,1.2134413937687574,-0.2202432315892585,-0.0075118285948192216,-2.6038483821997875,-0.10888392708698907,2.4681821257803174,0.826474908251239,-0.0009905628807012326,-0.00022586968890715885,4.484863528668366e-05,0.0008514001554906782,-6.093798753959555e-06,8.27396705615533e-05,0.0006579254454977344,0.0,0.0,0.0,0.0,0.0,0.0,0.0,-3.7925106166625255e-08,-0.00011561525830688923,1.0155519247327834e-05,4.6501775812668456e-05,3.98042843012536e-06,-2.136391975327001e-06,-6.493115680683559e-07,0.0009905628807012326,0.00022586968890715885,-4.484863528668366e-05,-0.0008514001554906782,6.093798753959555e-06,-8.27396705615533e-05,-0.0006579254454977344,0.2998287081718445,19.745019912719727,0.4228789508342743,-19.955781936645508,-0.6832786202430725,-2.4630770683288574,0.24844686686992645,0
43,0.21003293991088867,-0.3236324191093445,-19.768823623657227,-0.4466826617717743,19.983552932739258,0.6777854561805725,2.4493441581726074,-0.24844686686992645,0.0,0.0,0.0,0.0,0.0,0.0,0.0,-0.3307179401792012,-0.027099533144089614,-0.23180973590421247,0.20647363607051625,0.0976846444575358,0.09133436682780736,-0.24101741639767169,1.2134431021297187,-0.2201259552270365,-0.0075203136782112864,-2.603896832817479,-0.10888728418291965,2.4681857878896936,0.8264741522003758,1.2134413937687574,-0.2202432315892585,-0.0075118285948192216,-2.6038483821997875,-0.10888392708698907,2.4681821257803174,0.826474908251239,-0.0006287362740374546,0.00047909814631525745,0.0005721821611143947,5.107895427814584e-05,6.008714898588116e-05,0.0004113099399880329,0.00044873214761745366,0.0,0.0,0.0,0.0,0.0,0.0,0.0,-1.7083609613610662e-06,-0.00011727636222197413,8.485083392064871e-06,4.8450617691653264e-05,3.3570959305784243e-06,-3.662109376190159e-06,7.560508632487029e-07,0.0006287362740374546,-0.00047909814631525745,-0.0005721821611143947,-5.107895427814584e-05,-6.008714898588116e-05,-0.0004113099399880329,-0.00044873214761745366,0.3236324191093445,19.768823623657227,0.4466826617717743,-19.983552932739258,-0.6777854561805725,-2.4493441581726074,0.24844686686992645,0
44,0.2150285243988037,-0.3236324191093445,-19.768823623657227,-0.4466826617717743,19.983552932739258,0.6777854561805725,2.4493441581726074,-0.24844686686992645,0.0,0.0,0.0,0.0,0.0,0.0,0.0,-0.3307179401792012,-0.027099533144089614,-0.23180973590421247,0.20647363607051625,0.0976846444575358,0.09133436682780736,-0.24101741639767169,1.2134431021297187,-0.2201259552270365,-0.0075203136782112864,-2.603896832817479,-0.10888728418291965,2.4681857878896936,0.8264741522003758,1.2134413937687574,-0.2202432315892585,-0.0075118285948192216,-2.6038483821997875,-0.10888392708698907,2.4681821257803174,0.826474908251239,-0.0006287362740374546,0.00047909814631525745,0.0005721821611143947,5.107895427814584e-05,6.008714898588116e-05,0.0004113099399880329,0.00044873214761745366,0.0,0.0,0.0,0.0,0.0,0.0,0.0,-1.7083609613610662e-06,-0.00011727636222197413,8.485083392064871e-06,4.8450617691653264e-05,3.3570959305784243e-06,-3.662109376190159e-06,7.560508632487029e-07,0.0006287362740374546,-0.00047909814631525745,-0.0005721821611143947,-5.107895427814584e-05,-6.008714898588116e-05,-0.0004113099399880329,-0.00044873214761745366,0.3236324191093445,19.768823623657227,0.4466826617717743,-19.983552932739258,-0.6777854561805725,-2.4493441581726074,0.24844686686992645,0
45,0.2200324535369873,-0.2998287081718445,-19.745019912719727,-0.4228789508342743,19.955781936645508,0.6777854561805725,2.4630770683288574,-0.23471395671367645,0.0,0.0,0.0,0.0,0.0,0.0,0.0,-0.3331287847062229,-0.02708268324559134,-0.23220379165933389,0.20813266059242685,0.09751918034187286,0.09144694303925796,-0.24070824727312354,1.2134414316938635,-0.22012549011920415,-0.007521975347625525,-2.603894883975648,-0.1088872854809475,2.468184266371437,0.8264757916614552,1.2134413937687574,-0.2202432315892585,-0.0075118285948192216,-2.6038483821997875,-0.10888392708698907,2.4681821257803174,0.826474908251239,-0.0010546006596534022,-0.0006117832122305444,-4.3645074670041465e-05,0.0005521973046322578,0.00019374451714406068,-9.665885879405198e-05,-0.000618339522942459,0.0,0.0,0.0,0.0,0.0,0.0,0.0,-3.7925106166625255e-08,-0.00011774147005433333,1.0146752806303345e-05,4.650177586063009e-05,3.3583939584302946e-06,-2.140591119470514e-06,-8.83410216201419e-07,0.0010546006596534022,0.0006117832122305444,4.3645074670041465e-05,-0.0005521973046322578,-0.00019374451714406068,9.665885879405198e-05,0.000618339522942459,0.2998287081718445,19.745019912719727,0.4228789508342743,-19.955781936645508,-0.6777854561805725,-2.4630770683288574,0.23471395671367645,0
46,0.2250204086303711,-0.2998287081718445,-19.745019912719727,-0.4228789508342743,19.955781936645508,0.6777854561805725,2.4630770683288574,-0.23471395671367645,0.0,0.0,0.0,0.0,0.0,0.0,0.0,-0.3331287847062229,-0.02708268324559134,-0.23220379165933389,0.20813266059242685,0.09751918034187286,0.09144694303925796,-0.24070824727312354,1.2134414316938635,-0.22012549011920415,-0.007521975347625525,-2.603894883975648,-0.1088872854809475,2.468184266371437,0.8264757916614552,1.2134413937687574,-0.2202432315892585,-0.0075118285948192216,-2.6038483821997875,-0.10888392708698907,2.4681821257803174,0.826474908251239,-0.0010546006596534022,-0.0006117832122305444,-4.3645074670041465e-05,0.0005521973046322578,0.00019374451714406068,-9.665885879405198e-05,-0.000618339522942459,0.0,0.0,0.0,0.0,0.0,0.0,0.0,-3.7925106166625255e-08,-0.00011774147005433333,1.0146752806303345e-05,4.650177586063009e-05,3.3583939584302946e-06,-2.140591119470514e-06,-8.83410216201419e-07,0.0010546006596534022,0.0006117832122305444,4.3645074670041465e-05,-0.0005521973046322578,-0.00019374451714406068,9.665885879405198e-05,0.000618339522942459,0.2998287081718445,19.745019912719727,0.4228789508342743,-19.955781936645508,-0.6777854561805725,-2.4630770683288574,0.23471395671367645,0
47,0.23001956939697266,-0.3752071261405945,-19.745019912719727,-0.4228789508342743,19.983552932739258,0.6832786202430725,2.4630770683288574,-0.21457235515117645,0.0,0.0,0.0,0.0,0.0,0.0,0.0,-0.33363590463411374,-0.02143921562185083,-0.23179357740074089,0.20400645986664911,0.09756146961935207,0.09075138374592175,-0.24144621520021212,1.2134467214074052,-0.22012762316698245,-0.007521984102041253,-2.603896832817479,-0.10888789437414857,2.4681842620167678,0.8264714516569474,1.2134413937687574,-0.2202432315892585,-0.0075118285948192216,-2.6038483821997875,-0.10888392708698907,2.4681821257803174,0.826474908251239,0.0012765308385485855,-0.00032180400637660397,-0.00048273577301628844,-0.0002963785579158309,-0.00021895441188938744,-0.0001975636417385496,-0.0011560996556545472,0.0,0.0,0.0,0.0,0.0,0.0,0.0,-5.327638647800725e-06,-0.00011560842227603674,1.0155507222031276e-05,4.8450617691653264e-05,3.967287159498123e-06,-2.1362364504007303e-06,3.456594291684212e-06,-0.0012765308385485855,0.00032180400637660397,0.00048273577301628844,0.0002963785579158309,0.00021895441188938744,0.0001975636417385496,0.0011560996556545472,0.3752071261405945,19.745019912719727,0.4228789508342743,-19.983552932739258,-0.6832786202430725,-2.4630770683288574,0.21457235515117645,0
48,0.23502159118652344,-0.3752071261405945,-19.745019912719727,-0.4228789508342743,19.983552932739258,0.6832786202430725,2.4630770683288574,-0.21457235515117645,0.0,0.0,0.0,0.0,0.0,0.0,0.0,-0.33363590463411374,-0.02143921562185083,-0.23179357740074089,0.20400645986664911,0.09756146961935207,0.09075138374592175,-0.24144621520021212,1.2134467214074052,-0.22012762316698245,-0.007521984102041253,-2.603896832817479,-0.10888789437414857,2.4681842620167678,0.8264714516569474,1.2134413937687574,-0.2202432315892585,-0.0075118285948192216,-2.6038483821997875,-0.10888392708698907,2.4681821257803174,0.826474908251239,0.0012765308385485855,-0.00032180400637660397,-0.00048273577301628844,-0.0002963785579158309,-0.00021895441188938744,-0.0001975636417385496,-0.0011560996556545472,0.0,0.0,0.0,0.0,0.0,0.0,0.0,-5.327638647800725e-06,-0.00011560842227603674,1.0155507222031276e-05,4.8450617691653264e-05,3.967287159498123e-06,-2.1362364504007303e-06,3.456594291684212e-06,-0.0012765308385485855,0.00032180400637660397,0.00048273577301628844,0.0002963785579158309,0.00021895441188938744,0.0001975636417385496,0.0011560996556545472,0.3752071261405945,19.745019912719727,0.4228789508342743,-19.983552932739258,-0.6832786202430725,-2.4630770683288574,0.21457235515117645,0
49,0.24001312255859375,-0.3752071261405945,-19.745019912719727,-0.4228789508342743,19.983552932739258,0.6832786202430725,2.4630770683288574,-0.21457235515117645,0.0,0.0,0.0,0.0,0.0,0.0,0.0,-0.33363590463411374,-0.02143921562185083,-0.23179357740074089,0.20400645986664911,0.09756146961935207,0.09075138374592175,-0.24144621520021212,1.2134467214074052,-0.22012762316698245,-0.007521984102041253,-2.603896832817479,-0.10888789437414857,2.4681842620167678,0.8264714516569474,1.2134413937687574,-0.2202432315892585,-0.0075118285948192216,-2.6038483821997875,-0.10888392708698907,2.4681821257803174,0.826474908251239,0.0012765308385485855,-0.00032180400637660397,-0.00048273577301628844,-0.0002963785579158309,-0.00021895441188938744,-0.0001975636417385496,-0.0011560996556545472,0.0,0.0,0.0,0.0,0.0,0.0,0.0,-5.327638647800725e-06,-0.00011560842227603674,1.0155507222031276e-05,4.8450617691653264e-05,3.967287159498123e-06,-2.1362364504007303e-06,3.456594291684212e-06,-0.0012765308385485855,0.00032180400637660397,0.00048273577301628844,0.0002963785579158309,0.00021895441188938744,0.0001975636417385496,0.0011560996556545472,0.3752071261405945,19.745019912719727,0.4228789508342743,-19.983552932739258,-0.6832786202430725,-2.4630770683288574,0.21457235515117645,0
50,0.24502158164978027,-0.3752071261405945,-19.745019912719727,-0.4228789508342743,19.983552932739258,0.6832786202430725,2.4630770683288574,-0.21457235515117645,0.0,0.0,0.0,0.0,0.0,0.0,0.0,-0.33363590463411374,-0.02143921562185083,-0.23179357740074089,0.20400645986664911,0.09756146961935207,0.09075138374592175,-0.24144621520021212,1.2134467214074052,-0.22012762316698245,-0.007521984102041253,-2.603896832817479,-0.10888789437414857,2.4681842620167678,0.8264714516569474,1.2134413937687574,-0.2202432315892585,-0.0075118285948192216,-2.6038483821997875,-0.10888392708698907,2.4681821257803174,0.826474908251239,0.0012765308385485855,-0.00032180400637660397,-0.00048273577301628844,-0.0002963785579158309,-0.00021895441188938744,-0.0001975636417385496,-0.0011560996556545472,0.0,0.0,0.0,0.0,0.0,0.0,0.0,-5.327638647800725e-06,-0.00011560842227603674,1.0155507222031276e-05,4.8450617691653264e-05,3.967287159498123e-06,-2.1362364504007303e-06,3.456594291684212e-06,-0.0012765308385485855,0.00032180400637660397,0.00048273577301628844,0.0002963785579158309,0.00021895441188938744,0.0001975636417385496,0.0011560996556545472,0.3752071261405945,19.745019912719727,0.4228789508342743,-19.983552932739258,-0.6832786202430725,-2.4630770683288574,0.21457235515117645,0
51,0.25003576278686523,-0.3236324191093445,-19.768823623657227,-0.3990752398967743,19.983552932739258,0.6832786202430725,2.4694857597351074,-0.20724813640117645,0.0,0.0,0.0,0.0,0.0,0.0,0.0,-0.3344632472591124,-0.022904741343200984,-0.23294479000363374,0.20354127769342312,0.0975623226963275,0.09080074517917418,-0.24191380553386146,1.2134431021297187,-0.22012595562452061,-0.007523654549921812,-2.603896832817479,-0.10888793380196693,2.4681846095720927,0.8264727404127482,1.2134413937687574,-0.2202432315892585,-0.0075118285948192216,-2.6038483821997875,-0.10888392708698907,2.4681821257803174,0.826474908251239,-0.0003011510335090854,-0.000105207948363728,-0.0006577713040122467,0.00016165347686319137,-7.480532042298283e-06,-0.0003738891389103634,-0.0016853645678287937,0.0,0.0,0.0,0.0,0.0,0.0,0.0,-1.7083609613610662e-06,-0.00011727596473787294,1.1825955102590796e-05,4.8450617691653264e-05,4.006714977855541e-06,-2.483791775365063e-06,2.1678384908296877e-06,0.0003011510335090854,0.000105207948363728,0.0006577713040122467,-0.00016165347686319137,7.480532042298283e-06,0.0003738891389103634,0.0016853645678287937,0.3236324191093445,19.768823623657227,0.3990752398967743,-19.983552932739258,-0.6832786202430725,-2.4694857597351074,0.20724813640117645,0
52,0.2550222873687744,-0.3236324191093445,-19.768823623657227,-0.3990752398967743,19.983552932739258,0.6832786202430725,2.4694857597351074,-0.20724813640117645,0.0,0.0,0.0,0.0,0.0,0.0,0.0,-0.3344632472591124,-0.022904741343200984,-0.23294479000363374,0.20354127769342312,0.0975623226963275,0.09080074517917418,-0.24191380553386146,1.2134431021297187,-0.22012595562452061,-0.007523654549921812,-2.603896832817479,-0.10888793380196693,2.4681846095720927,0.8264727404127482,1.2134413937687574,-0.2202432315892585,-0.0075118285948192216,-2.6038483821997875,-0.10888392708698907,2.4681821257803174,0.826474908251239,-0.0003011510335090854,-0.000105207948363728,-0.0006577713040122467,0.00016165347686319137,-7.480532042298283e-06,-0.0003738891389103634,-0.0016853645678287937,0.0,0.0,0.0,0.0,0.0,0.0,0.0,-1.7083609613610662e-06,-0.00011727596473787294,1.1825955102590796e-05,4.8450617691653264e-05,4.006714977855541e-06,-2.483791775365063e-06,2.1678384908296877e-06,0.0003011510335090854,0.000105207948363728,0.0006577713040122467,-0.00016165347686319137,7.480532042298283e-06,0.0003738891389103634,0.0016853645678287937,0.3236324191093445,19.768823623657227,0.3990752398967743,-19.983552932739258,-0.6832786202430725,-2.4694857597351074,0.20724813640117645,0
53,0.26003146171569824,-0.3514034152030945,-19.768823623657227,-0.4228789508342743,19.955781936645508,0.6896873116493225,2.4630770683288574,-0.24112264811992645,0.0,0.0,0.0,0.0,0.0,0.0,0.0,-0.3352405011061944,-0.024329129144638553,-0.23347104772803923,0.2032811691961883,0.09766552844718411,0.09086683118678793,-0.24230860547560754,1.2134450509715498,-0.2201256392414185,-0.007521984114066549,-2.603894883975648,-0.10888860644919082,2.4681842620167678,0.8264768612756749,1.2134413937687574,-0.2202432315892585,-0.0075118285948192216,-2.6038483821997875,-0.10888392708698907,2.4681821257803174,0.826474908251239,0.0003925593624870779,-6.505316315439998e-07,-0.00022795678558714825,0.0007482845618938068,-0.00021941364823386864,-8.189862409161418e-05,0.0003034685766743127,0.0,0.0,0.0,0.0,0.0,0.0,0.0,-3.65720279238424e-06,-0.00011759234783997874,1.0155519247327834e-05,4.650177586063009e-05,4.6793622017482495e-06,-2.1362364504007303e-06,-1.953024435841222e-06,-0.0003925593624870779,6.505316315439998e-07,0.00022795678558714825,-0.0007482845618938068,0.00021941364823386864,8.189862409161418e-05,-0.0003034685766743127,0.3514034152030945,19.768823623657227,0.4228789508342743,-19.955781936645508,-0.6896873116493225,-2.4630770683288574,0.24112264811992645,0
54,0.2650284767150879,-0.3514034152030945,-19.768823623657227,-0.4228789508342743,19.955781936645508,0.6896873116493225,2.4630770683288574,-0.24112264811992645,0.0,0.0,0.0,0.0,0.0,0.0,0.0,-0.3352405011061944,-0.024329129144638553,-0.23347104772803923,0.2032811691961883,0.09766552844718411,0.09086683118678793,-0.24230860547560754,1.2134450509715498,-0.2201256392414185,-0.007521984114066549,-2.603894883975648,-0.10888860644919082,2.4681842620167678,0.8264768612756749,1.2134413937687574,-0.2202432315892585,-0.0075118285948192216,-2.6038483821997875,-0.10888392708698907,2.4681821257803174,0.826474908251239,0.0003925593624870779,-6.505316315439998e-07,-0.00022795678558714825,0.0007482845618938068,-0.00021941364823386864,-8.189862409161418e-05,0.0003034685766743127,0.0,0.0,0.0,0.0,0.0,0.0,0.0,-3.65720279238424e-06,-0.00011759234783997874,1.0155519247327834e-05,4.650177586063009e-05,4.6793622017482495e-06,-2.1362364504007303e-06,-1.953024435841222e-06,-0.0003925593624870779,6.505316315439998e-07,0.00022795678558714825,-0.0007482845618938068,0.00021941364823386864,8.189862409161418e-05,-0.0003034685766743127,0.3514034152030945,19.768823623657227,0.4228789508342743,-19.955781936645508,-0.6896873116493225,-2.4630770683288574,0.24112264811992645,0
55,0.270033597946167,-0.3752071261405945,-19.745019912719727,-0.4228789508342743,19.983552932739258,0.6777854561805725,2.4630770683288574,-0.26858848333358765,0.0,0.0,0.0,0.0,0.0,0.0,0.0,-0.2976800783239335,-0.023063061559498752,-0.1912317153861095,0.20028845029290326,0.0959275516371319,0.09134961040028505,-0.24220155353071493,1.2134467214074052,-0.22012754699027715,-0.007524114669676412,-2.603896832817479,-0.10888733659367829,2.468184432076165,0.8264767703000211,1.2134413937687574,-0.2202432315892585,-0.0075118285948192216,-2.6038483821997875,-0.10888392708698907,2.4681821257803174,0.826474908251239,0.0010060703584692538,-0.0005064273732870966,-0.0023084147789694445,-4.694633846394839e-05,0.00019785144229751255,-7.33777069567932e-05,0.001346847660753368,0.0,0.0,0.0,0.0,0.0,0.0,0.0,-5.327638647800725e-06,-0.00011568459898134154,1.2286074857190132e-05,4.8450617691653264e-05,3.409506689214248e-06,-2.3062958476316453e-06,-1.862048782053094e-06,-0.0010060703584692538,0.0005064273732870966,0.0023084147789694445,4.694633846394839e-05,-0.00019785144229751255,7.33777069567932e-05,-0.001346847660753368,0.3752071261405945,19.745019912719727,0.4228789508342743,-19.983552932739258,-0.6777854561805725,-2.4630770683288574,0.26858848333358765,0
56,0.2750093936920166,-0.3752071261405945,-19.745019912719727,-0.4228789508342743,19.983552932739258,0.6777854561805725,2.4630770683288574,-0.26858848333358765,0.0,0.0,0.0,0.0,0.0,0.0,0.0,-0.2976800783239335,-0.023063061559498752,-0.1912317153861095,0.20028845029290326,0.0959275516371319,0.09134961040028505,-0.24220155353071493,1.2134467214074052,-0.22012754699027715,-0.007524114669676412,-2.603896832817479,-0.10888733659367829,2.468184432076165,0.8264767703000211,1.2134413937687574,-0.2202432315892585,-0.0075118285948192216,-2.6038483821997875,-0.10888392708698907,2.4681821257803174,0.826474908251239,0.0010060703584692538,-0.0005064273732870966,-0.0023084147789694445,-4.694633846394839e-05,0.00019785144229751255,-7.33777069567932e-05,0.001346847660753368,0.0,0.0,0.0,0.0,0.0,0.0,0.0,-5.327638647800725e-06,-0.00011568459898134154,1.2286074857190132e-05,4.8450617691653264e-05,3.409506689214248e-06,-2.3062958476316453e-06,-1.862048782053094e-06,-0.0010060703584692538,0.0005064273732870966,0.0023084147789694445,4.694633846394839e-05,-0.00019785144229751255,7.33777069567932e-05,-0.001346847660753368,0.3752071261405945,19.745019912719727,0.4228789508342743,-19.983552932739258,-0.6777854561805725,-2.4630770683288574,0.26858848333358765,0
57,0.27999424934387207,-0.2998287081718445,-19.745019912719727,-0.4704863727092743,19.955781936645508,0.6777854561805725,2.4694857597351074,-0.24112264811992645,0.0,0.0,0.0,0.0,0.0,0.0,0.0,-0.32944573769653557,-0.022645188395585415,-0.22631423285268296,0.19862236855424473,0.09707744589721282,0.09125305334243823,-0.24104435435463814,1.2134414316938635,-0.22012762566250033,-0.00751935343958636,-2.603894883975648,-0.1088872840208796,2.468183905247206,0.8264766609930266,1.2134413937687574,-0.2202432315892585,-0.0075118285948192216,-2.6038483821997875,-0.10888392708698907,2.4681821257803174,0.826474908251239,-0.0011077966593260843,-0.0004682193012109174,0.0010968589379300488,0.00028573385061409965,0.00022377597728494495,-0.00020450614335506913,-0.00012288946689273074,0.0,0.0,0.0,0.0,0.0,0.0,0.0,-3.7925106166625255e-08,-0.00011560592675816106,7.5248447671382585e-06,4.650177586063009e-05,3.356933890530378e-06,-1.779466888507386e-06,-1.7527417875973228e-06,0.0011077966593260843,0.0004682193012109174,-0.0010968589379300488,-0.00028573385061409965,-0.00022377597728494495,0.00020450614335506913,0.00012288946689273074,0.2998287081718445,19.745019912719727,0.4704863727092743,-19.955781936645508,-0.6777854561805725,-2.4694857597351074,0.24112264811992645,0
58,0.2850196361541748,-0.2998287081718445,-19.745019912719727,-0.4704863727092743,19.955781936645508,0.6777854561805725,2.4694857597351074,-0.24112264811992645,0.0,0.0,0.0,0.0,0.0,0.0,0.0,-0.32944573769653557,-0.022645188395585415,-0.22631423285268296,0.19862236855424473,0.09707744589721282,0.09125305334243823,-0.24104435435463814,1.2134414316938635,-0.22012762566250033,-0.00751935343958636,-2.603894883975648,-0.1088872840208796,2.468183905247206,0.8264766609930266,1.2134413937687574,-0.2202432315892585,-0.0075118285948192216,-2.6038483821997875,-0.10888392708698907,2.4681821257803174,0.826474908251239,-0.0011077966593260843,-0.0004682193012109174,0.0010968589379300488,0.00028573385061409965,0.00022377597728494495,-0.00020450614335506913,-0.00012288946689273074,0.0,0.0,0.0,0.0,0.0,0.0,0.0,-3.7925106166625255e-08,-0.00011560592675816106,7.5248447671382585e-06,4.650177586063009e-05,3.356933890530378e-06,-1.779466888507386e-06,-1.7527417875973228e-06,0.0011077966593260843,0.0004682193012109174,-0.0010968589379300488,-0.00028573385061409965,-0.00022377597728494495,0.00020450614335506913,0.00012288946689273074,0.2998287081718445,19.745019912719727,0.4704863727092743,-19.955781936645508,-0.6777854561805725,-2.4694857597351074,0.24112264811992645,0
59,0.290022611618042,-0.3236324191093445,-19.745019912719727,-0.3990752398967743,19.931978225708008,0.6896873116493225,2.4758944511413574,-0.20724813640117645,0.0,0.0,0.0,0.0,0.0,0.0,0.0,-0.34440237964039266,-0.023224497279933854,-0.24445181178575306,0.20150395999627996,0.09766803573106972,0.09245223836713079,-0.2410957445109756,1.2134431021297187,-0.22012762598847913,-0.007523654553930897,-2.6038932135397928,-0.10888861959224211,2.468182837859146,0.8264695755435135,1.2134413937687574,-0.2202432315892585,-0.0075118285948192216,-2.6038483821997875,-0.10888392708698907,2.4681821257803174,0.826474908251239,-0.00016900799389635808,-0.00044363764913052264,-0.0009058868981245566,0.0014028769815681535,-0.00031844582330358415,-0.00045574966279522054,-0.0020012088240921465,0.0,0.0,0.0,0.0,0.0,0.0,0.0,-1.7083609613610662e-06,-0.00011560560077936155,1.1825959111675527e-05,4.4831340005213605e-05,4.69250525303444e-06,-7.120788287906521e-07,5.332707725513863e-06,0.00016900799389635808,0.00044363764913052264,0.0009058868981245566,-0.0014028769815681535,0.00031844582330358415,0.00045574966279522054,0.0020012088240921465,0.3236324191093445,19.745019912719727,0.3990752398967743,-19.931978225708008,-0.6896873116493225,-2.4758944511413574,0.20724813640117645,0
60,0.29501962661743164,-0.3236324191093445,-19.745019912719727,-0.3990752398967743,19.931978225708008,0.6896873116493225,2.4758944511413574,-0.20724813640117645,0.0,0.0,0.0,0.0,0.0,0.0,0.0,-0.34440237964039266,-0.023224497279933854,-0.24445181178575306,0.20150395999627996,0.09766803573106972,0.09245223836713079,-0.2410957445109756,1.2134431021297187,-0.22012762598847913,-0.007523654553930897,-2.6038932135397928,-0.10888861959224211,2.468182837859146,0.8264695755435135,1.2134413937687574,-0.2202432315892585,-0.0075118285948192216,-2.6038483821997875,-0.10888392708698907,2.4681821257803174,0.826474908251239,-0.00016900799389635808,-0.00044363764913052264,-0.0009058868981245566,0.0014028769815681535,-0.00031844582330358415,-0.00045574966279522054,-0.0020012088240921465,0.0,0.0,0.0,0.0,0.0,0.0,0.0,-1.7083609613610662e-06,-0.00011560560077936155,1.1825959111675527e-05,4.4831340005213605e-05,4.69250525303444e-06,-7.120788287906521e-07,5.332707725513863e-06,0.00016900799389635808,0.00044363764913052264,0.0009058868981245566,-0.0014028769815681535,0.00031844582330358415,0.00045574966279522054,0.0020012088240921465,0.3236324191093445,19.745019912719727,0.3990752398967743,-19.931978225708008,-0.6896873116493225,-2.4758944511413574,0.20724813640117645,0
61,0.30002355575561523,-0.3236324191093445,-19.768823623657227,-0.4228789508342743,19.983552932739258,0.6777854561805725,2.4694857597351074,-0.24844686686992645,0.0,0.0,0.0,0.0,0.0,0.0,0.0,-0.34488620573389206,-0.02809251728735009,-0.24775112413703343,0.20600957335906048,0.09765677145298321,0.09338675765064285,-0.24302453695106377,1.2134431021297187,-0.22012595566113727,-0.007521984114066572,-2.603896832817479,-0.10888728402065702,2.4681835513875137,0.8264774792074555,1.2134413937687574,-0.2202432315892585,-0.0075118285948192216,-2.6038483821997875,-0.10888392708698907,2.4681821257803174,0.826474908251239,-0.00038135624655237114,-0.000102905040947027,-0.00022404088466745467,0.0007172855684234087,0.00011602609240265668,-0.00010502856074350459,-0.00030245908443910657,0.0,0.0,0.0,0.0,0.0,0.0,0.0,-1.7083609613610662e-06,-0.00011727592812121879,1.0155519247350385e-05,4.8450617691653264e-05,3.3569336679445394e-06,-1.4256071962925887e-06,-2.570956216474407e-06,0.00038135624655237114,0.000102905040947027,0.00022404088466745467,-0.0007172855684234087,-0.00011602609240265668,0.00010502856074350459,0.00030245908443910657,0.3236324191093445,19.768823623657227,0.4228789508342743,-19.983552932739258,-0.6777854561805725,-2.4694857597351074,0.24844686686992645,0
62,0.30504560470581055,-0.3236324191093445,-19.768823623657227,-0.4228789508342743,19.983552932739258,0.6777854561805725,2.4694857597351074,-0.24844686686992645,0.0,0.0,0.0,0.0,0.0,0.0,0.0,-0.34488620573389206,-0.02809251728735009,-0.24775112413703343,0.20600957335906048,0.09765677145298321,0.09338675765064285,-0.24302453695106377,1.2134431021297187,-0.22012595566113727,-0.007521984114066572,-2.603896832817479,-0.10888728402065702,2.4681835513875137,0.8264774792074555,1.2134413937687574,-0.2202432315892585,-0.0075118285948192216,-2.6038483821997875,-0.10888392708698907,2.4681821257803174,0.826474908251239,-0.00038135624655237114,-0.000102905040947027,-0.00022404088466745467,0.0007172855684234087,0.00011602609240265668,-0.00010502856074350459,-0.00030245908443910657,0.0,0.0,0.0,0.0,0.0,0.0,0.0,-1.7083609613610662e-06,-0.00011727592812121879,1.0155519247350385e-05,4.8450617691653264e-05,3.3569336679445394e-06,-1.4256071962925887e-06,-2.570956216474407e-06,0.00038135624655237114,0.000102905040947027,0.00022404088466745467,-0.0007172855684234087,-0.00011602609240265668,0.00010502856074350459,0.00030245908443910657,0.3236324191093445,19.768823623657227,0.4228789508342743,-19.983552932739258,-0.6777854561805725,-2.4694857597351074,0.24844686686992645,0
63,0.31003451347351074,-0.3236324191093445,-19.768823623657227,-0.4228789508342743,19.983552932739258,0.6777854561805725,2.4694857597351074,-0.24844686686992645,0.0,0.0,0.0,0.0,0.0,0.0,0.0,-0.34488620573389206,-0.02809251728735009,-0.24775112413703343,0.20600957335906048,0.09765677145298321,0.09338675765064285,-0.24302453695106377,1.2134431021297187,-0.22012595566113727,-0.007521984114066572,-2.603896832817479,-0.10888728402065702,2.4681835513875137,0.8264774792074555,1.2134413937687574,-0.2202432315892585,-0.0075118285948192216,-2.6038483821997875,-0.10888392708698907,2.4681821257803174,0.826474908251239,-0.00038135624655237114,-0.000102905040947027,-0.00022404088466745467,0.0007172855684234087,0.00011602609240265668,-0.00010502856074350459,-0.00030245908443910657,0.0,0.0,0.0,0.0,0.0,0.0,0.0,-1.7083609613610662e-06,-0.00011727592812121879,1.0155519247350385e-05,4.8450617691653264e-05,3.3569336679445394e-06,-1.4256071962925887e-06,-2.570956216474407e-06,0.00038135624655237114,0.000102905040947027,0.00022404088466745467,-0.0007172855684234087,-0.00011602609240265668,0.00010502856074350459,0.00030245908443910657,0.3236324191093445,19.768823623657227,0.4228789508342743,-19.983552932739258,-0.6777854561805725,-2.4694857597351074,0.24844686686992645,0
64,0.31502270698547363,-0.3514034152030945,-19.792627334594727,-0.4228789508342743,19.983552932739258,0.6896873116493225,2.4566683769226074,-0.20724813640117645,0.0,0.0,0.0,0.0,0.0,0.0,0.0,-0.3421366429752883,-0.02475551111345018,-0.2453416390449662,0.20223479376235523,0.09700887788844767,0.09286205948061459,-0.2448889007008815,1.2134450509715498,-0.22012357291920925,-0.007521984114066549,-2.603896832817479,-0.10888860644896825,2.4681849784482677,0.8264706335127767,1.2134413937687574,-0.2202432315892585,-0.0075118285948192216,-2.6038483821997875,-0.10888392708698907,2.4681821257803174,0.826474908251239,0.00031955336437269633,0.0005453627952099013,-0.000540725732710449,-0.0001746129769876569,-0.0002869964752319577,0.0005624152674699745,-0.001026543001596849,0.0,0.0,0.0,0.0,0.0,0.0,0.0,-3.65720279238424e-06,-0.00011965867004923303,1.0155519247327834e-05,4.8450617691653264e-05,4.679361979176289e-06,-2.852667950303811e-06,4.274738462317629e-06,-0.00031955336437269633,-0.0005453627952099013,0.000540725732710449,0.0001746129769876569,0.0002869964752319577,-0.0005624152674699745,0.001026543001596849,0.3514034152030945,19.792627334594727,0.4228789508342743,-19.983552932739258,-0.6896873116493225,-2.4566683769226074,0.20724813640117645,0
65,0.32003211975097656,-0.3514034152030945,-19.792627334594727,-0.4228789508342743,19.983552932739258,0.6896873116493225,2.4566683769226074,-0.20724813640117645,0.0,0.0,0.0,0.0,0.0,0.0,0.0,-0.3421366429752883,-0.02475551111345018,-0.2453416390449662,0.20223479376235523,0.09700887788844767,0.09286205948061459,-0.2448889007008815,1.2134450509715498,-0.22012357291920925,-0.007521984114066549,-2.603896832817479,-0.10888860644896825,2.4681849784482677,0.8264706335127767,1.2134413937687574,-0.2202432315892585,-0.0075118285948192216,-2.6038483821997875,-0.10888392708698907,2.4681821257803174,0.826474908251239,0.00031955336437269633,0.0005453627952099013,-0.000540725732710449,-0.0001746129769876569,-0.0002869964752319577,0.0005624152674699745,-0.001026543001596849,0.0,0.0,0.0,0.0,0.0,0.0,0.0,-3.65720279238424e-06,-0.00011965867004923303,1.0155519247327834e-05,4.8450617691653264e-05,4.679361979176289e-06,-2.852667950303811e-06,4.274738462317629e-06,-0.00031955336437269633,-0.0005453627952099013,0.000540725732710449,0.0001746129769876569,0.0002869964752319577,-0.0005624152674699745,0.001026543001596849,0.3514034152030945,19.792627334594727,0.4228789508342743,-19.983552932739258,-0.6896873116493225,-2.4566683769226074,0.20724813640117645,0
66,0.3250768184661865,-0.3236324191093445,-19.768823623657227,-0.4228789508342743,19.955781936645508,0.6832786202430725,2.4630770683288574,-0.26858848333358765,0.0,0.0,0.0,0.0,0.0,0.0,0.0,-0.33575065494348705,-0.0264629659247764,-0.24077115773650432,0.20215937651882582,0.09663904471496779,0.09346151102644767,-0.24396559934127496,1.2134431021297187,-0.22012560990310506,-0.007521984114066549,-2.603894883975648,-0.1088889589773284,2.4681842620108108,0.826476552738092,1.2134413937687574,-0.2202432315892585,-0.0075118285948192216,-2.6038483821997875,-0.10888392708698907,2.4681821257803174,0.826474908251239,-0.000155498717021983,-0.00015989279493541116,-0.00020350111440589773,0.0004619126751917743,-7.772883397024578e-05,-8.323414030310183e-05,0.0007795429165244262,0.0,0.0,0.0,0.0,0.0,0.0,0.0,-1.7083609613610662e-06,-0.00011762168615342405,1.0155519247327834e-05,4.650177586063009e-05,5.031890339332601e-06,-2.1362304933880694e-06,-1.6444868529141843e-06,0.000155498717021983,0.00015989279493541116,0.00020350111440589773,-0.0004619126751917743,7.772883397024578e-05,8.323414030310183e-05,-0.0007795429165244262,0.3236324191093445,19.768823623657227,0.4228789508342743,-19.955781936645508,-0.6832786202430725,-2.4630770683288574,0.26858848333358765,0
67,0.33001208305358887,-0.3236324191093445,-19.768823623657227,-0.4228789508342743,19.955781936645508,0.6832786202430725,2.4630770683288574,-0.26858848333358765,0.0,0.0,0.0,0.0,0.0,0.0,0.0,-0.33575065494348705,-0.0264629659247764,-0.24077115773650432,0.20215937651882582,0.09663904471496779,0.09346151102644767,-0.24396559934127496,1.2134431021297187,-0.22012560990310506,-0.007521984114066549,-2.603894883975648,-0.1088889589773284,2.4681842620108108,0.826476552738092,1.2134413937687574,-0.2202432315892585,-0.0075118285948192216,-2.6038483821997875,-0.10888392708698907,2.4681821257803174,0.826474908251239,-0.000155498717021983,-0.00015989279493541116,-0.00020350111440589773,0.0004619126751917743,-7.772883397024578e-05,-8.323414030310183e-05,0.0007795429165244262,0.0,0.0,0.0,0.0,0.0,0.0,0.0,-1.7083609613610662e-06,-0.00011762168615342405,1.0155519247327834e-05,4.650177586063009e-05,5.031890339332601e-06,-2.1362304933880694e-06,-1.6444868529141843e-06,0.000155498717021983,0.00015989279493541116,0.00020350111440589773,-0.0004619126751917743,7.772883397024578e-05,8.323414030310183e-05,-0.0007795429165244262,0.3236324191093445,19.768823623657227,0.4228789508342743,-19.955781936645508,-0.6832786202430725,-2.4630770683288574,0.26858848333358765,0
68,0.3350212574005127,-0.3236324191093445,-19.792627334594727,-0.4228789508342743,19.983552932739258,0.6777854561805725,2.4694857597351074,-0.24844686686992645,0.0,0.0,0.0,0.0,0.0,0.0,0.0,-0.3342061019026691,-0.031589691565095876,-0.24092781045564343,0.20435760743539078,0.09716306914760386,0.0934015273731028,-0.2437834527622568,1.2134431021297187,-0.220121885707127,-0.007521984114066549,-2.603896832817479,-0.10888834863177561,2.4681839031466732,0.8264778071723714,1.2134413937687574,-0.2202432315892585,-0.0075118285948192216,-2.6038483821997875,-0.10888392708698907,2.4681821257803174,0.826474908251239,-5.4754690373638334e-05,2.9580530641582302e-05,-0.00015092639907533355,9.997938556207885e-05,0.00013974589228042116,-0.00017032807993424436,0.00015527500486448885,0.0,0.0,0.0,0.0,0.0,0.0,0.0,-1.7083609613610662e-06,-0.0001213458821314739,1.0155519247327834e-05,4.8450617691653264e-05,4.421544786539777e-06,-1.7773663558706687e-06,-2.898921132366006e-06,5.4754690373638334e-05,-2.9580530641582302e-05,0.00015092639907533355,-9.997938556207885e-05,-0.00013974589228042116,0.00017032807993424436,-0.00015527500486448885,0.3236324191093445,19.792627334594727,0.4228789508342743,-19.983552932739258,-0.6777854561805725,-2.4694857597351074,0.24844686686992645,0
69,0.34003448486328125,-0.3236324191093445,-19.792627334594727,-0.4228789508342743,19.983552932739258,0.6777854561805725,2.4694857597351074,-0.24844686686992645,0.0,0.0,0.0,0.0,0.0,0.0,0.0,-0.3342061019026691,-0.031589691565095876,-0.24092781045564343,0.20435760743539078,0.09716306914760386,0.0934015273731028,-0.2437834527622568,1.2134431021297187,-0.220121885707127,-0.007521984114066549,-2.603896832817479,-0.10888834863177561,2.4681839031466732,0.8264778071723714,1.2134413937687574,-0.2202432315892585,-0.0075118285948192216,-2.6038483821997875,-0.10888392708698907,2.4681821257803174,0.826474908251239,-5.4754690373638334e-05,2.9580530641582302e-05,-0.00015092639907533355,9.997938556207885e-05,0.00013974589228042116,-0.00017032807993424436,0.00015527500486448885,0.0,0.0,0.0,0.0,0.0,0.0,0.0,-1.7083609613610662e-06,-0.0001213458821314739,1.0155519247327834e-05,4.8450617691653264e-05,4.421544786539777e-06,-1.7773663558706687e-06,-2.898921132366006e-06,5.4754690373638334e-05,-2.9580530641582302e-05,0.00015092639907533355,-9.997938556207885e-05,-0.00013974589228042116,0.00017032807993424436,-0.00015527500486448885,0.3236324191093445,19.792627334594727,0.4228789508342743,-19.983552932739258,-0.6777854561805725,-2.4694857597351074,0.24844686686992645,0
70,0.34502458572387695,-0.3752071261405945,-19.745019912719727,-0.4228789508342743,19.983552932739258,0.6896873116493225,2.4566683769226074,-0.26217979192733765,0.0,0.0,0.0,0.0,0.0,0.0,0.0,-0.337349543119971,-0.027401349346963113,-0.24415690464546894,0.20035797376743575,0.09710800670778306,0.09250995384119358,-0.24441727457129175,1.2134467214074052,-0.22012762575791311,-0.007521984114066549,-2.603896832817479,-0.10888860791534177,2.4681849789347705,0.82647931423033,1.2134413937687574,-0.2202432315892585,-0.0075118285948192216,-2.6038483821997875,-0.10888392708698907,2.4681821257803174,0.826474908251239,0.0008862500108455289,-0.0004422202186224538,-0.0005051095062617824,-8.638280679169565e-05,-0.0005099651724986013,0.00020353656688167692,0.0012273464978572023,0.0,0.0,0.0,0.0,0.0,0.0,0.0,-5.327638647800725e-06,-0.00011560583134537228,1.0155519247327834e-05,4.8450617691653264e-05,4.680828352698896e-06,-2.8531544531418263e-06,-4.405979091015588e-06,-0.0008862500108455289,0.0004422202186224538,0.0005051095062617824,8.638280679169565e-05,0.0005099651724986013,-0.00020353656688167692,-0.0012273464978572023,0.3752071261405945,19.745019912719727,0.4228789508342743,-19.983552932739258,-0.6896873116493225,-2.4566683769226074,0.26217979192733765,0
71,0.3500363826751709,-0.3752071261405945,-19.745019912719727,-0.4228789508342743,19.983552932739258,0.6896873116493225,2.4566683769226074,-0.26217979192733765,0.0,0.0,0.0,0.0,0.0,0.0,0.0,-0.337349543119971,-0.027401349346963113,-0.24415690464546894,0.20035797376743575,0.09710800670778306,0.09250995384119358,-0.24441727457129175,1.2134467214074052,-0.22012762575791311,-0.007521984114066549,-2.603896832817479,-0.10888860791534177,2.4681849789347705,0.82647931423033,1.2134413937687574,-0.2202432315892585,-0.0075118285948192216,-2.6038483821997875,-0.10888392708698907,2.4681821257803174,0.826474908251239,0.0008862500108455289,-0.0004422202186224538,-0.0005051095062617824,-8.638280679169565e-05,-0.0005099651724986013,0.00020353656688167692,0.0012273464978572023,0.0,0.0,0.0,0.0,0.0,0.0,0.0,-5.327638647800725e-06,-0.00011560583134537228,1.0155519247327834e-05,4.8450617691653264e-05,4.680828352698896e-06,-2.8531544531418263e-06,-4.405979091015588e-06,-0.0008862500108455289,0.0004422202186224538,0.0005051095062617824,8.638280679169565e-05,0.0005099651724986013,-0.00020353656688167692,-0.0012273464978572023,0.3752071261405945,19.745019912719727,0.4228789508342743,-19.983552932739258,-0.6896873116493225,-2.4566683769226074,0.26217979192733765,0
72,0.35502171516418457,-0.3236324191093445,-19.792627334594727,-0.4228789508342743,19.983552932739258,0.6713767647743225,2.4630770683288574,-0.19351522624492645,0.0,0.0,0.0,0.0,0.0,0.0,0.0,-0.3347453067661845,-0.033060792442769465,-0.2391113930580745,0.20452651187792142,0.09677027239230618,0.09246952130143192,-0.2433856069801835,1.2134431021297187,-0.2201242852252807,-0.007521984114066549,-2.6038968327824863,-0.10888657210603082,2.468184615223523,0.8264684420711085,1.2134413937687574,-0.2202432315892585,-0.0075118285948192216,-2.6038483821997875,-0.10888392708698907,2.4681821257803174,0.826474908251239,-0.00045420719973156504,0.00048293835940273596,-0.00018008082555457243,4.554612493166444e-05,0.00045703412315027653,5.889411325125184e-05,-0.001304782807707052,0.0,0.0,0.0,0.0,0.0,0.0,0.0,-1.7083609613610662e-06,-0.00011894636397777325,1.0155519247327834e-05,4.8450582698755795e-05,2.645019041749852e-06,-2.4894432057998017e-06,6.466180130559884e-06,0.00045420719973156504,-0.00048293835940273596,0.00018008082555457243,-4.554612493166444e-05,-0.00045703412315027653,-5.889411325125184e-05,0.001304782807707052,0.3236324191093445,19.792627334594727,0.4228789508342743,-19.983552932739258,-0.6713767647743225,-2.4630770683288574,0.19351522624492645,0
73,0.3600330352783203,-0.3236324191093445,-19.792627334594727,-0.4228789508342743,19.983552932739258,0.6713767647743225,2.4630770683288574,-0.19351522624492645,0.0,0.0,0.0,0.0,0.0,0.0,0.0,-0.3347453067661845,-0.033060792442769465,-0.2391113930580745,0.20452651187792142,0.09677027239230618,0.09246952130143192,-0.2433856069801835,1.2134431021297187,-0.2201242852252807,-0.007521984114066549,-2.6038968327824863,-0.10888657210603082,2.468184615223523,0.8264684420711085,1.2134413937687574,-0.2202432315892585,-0.0075118285948192216,-2.6038483821997875,-0.10888392708698907,2.4681821257803174,0.826474908251239,-0.00045420719973156504,0.00048293835940273596,-0.00018008082555457243,4.554612493166444e-05,0.00045703412315027653,5.889411325125184e-05,-0.001304782807707052,0.0,0.0,0.0,0.0,0.0,0.0,0.0,-1.7083609613610662e-06,-0.00011894636397777325,1.0155519247327834e-05,4.8450582698755795e-05,2.645019041749852e-06,-2.4894432057998017e-06,6.466180130559884e-06,0.00045420719973156504,-0.00048293835940273596,0.00018008082555457243,-4.554612493166444e-05,-0.00045703412315027653,-5.889411325125184e-05,0.001304782807707052,0.3236324191093445,19.792627334594727,0.4228789508342743,-19.983552932739258,-0.6713767647743225,-2.4630770683288574,0.19351522624492645,0
74,0.36501264572143555,-0.3752071261405945,-19.792627334594727,-0.4228789508342743,19.955781936645508,0.6951804757118225,2.4493441581726074,-0.26858848333358765,0.0,0.0,0.0,0.0,0.0,0.0,0.0,-0.3335703206465809,-0.027806231272038743,-0.23613690466855505,0.19882628534077373,0.09636216954648853,0.09144453307836616,-0.24145362790628622,1.2134467214074052,-0.22012214646236594,-0.007521984114066549,-2.603894883975648,-0.10888921680053167,2.468185787891686,0.8264763943511932,1.2134413937687574,-0.2202432315892585,-0.0075118285948192216,-2.6038483821997875,-0.10888392708698907,2.4681821257803174,0.826474908251239,0.0010211626010173294,0.0004253256842361753,0.00028408938229097986,-1.5833899219414058e-05,-0.00037884856287937363,0.0005884630023425168,0.0007883469173090396,0.0,0.0,0.0,0.0,0.0,0.0,0.0,-5.327638647800725e-06,-0.00012108512689254503,1.0155519247327834e-05,4.650177586063009e-05,5.2897135425916675e-06,-3.6621113688184437e-06,-1.4860999542065656e-06,-0.0010211626010173294,-0.0004253256842361753,-0.00028408938229097986,1.5833899219414058e-05,0.00037884856287937363,-0.0005884630023425168,-0.0007883469173090396,0.3752071261405945,19.792627334594727,0.4228789508342743,-19.955781936645508,-0.6951804757118225,-2.4493441581726074,0.26858848333358765,0
75,0.3700084686279297,-0.3752071261405945,-19.792627334594727,-0.4228789508342743,19.955781936645508,0.6951804757118225,2.4493441581726074,-0.26858848333358765,0.0,0.0,0.0,0.0,0.0,0.0,0.0,-0.3335703206465809,-0.027806231272038743,-0.23613690466855505,0.19882628534077373,0.09636216954648853,0.09144453307836616,-0.24145362790628622,1.2134467214074052,-0.22012214646236594,-0.007521984114066549,-2.603894883975648,-0.10888921680053167,2.468185787891686,0.8264763943511932,1.2134413937687574,-0.2202432315892585,-0.0075118285948192216,-2.6038483821997875,-0.10888392708698907,2.4681821257803174,0.826474908251239,0.0010211626010173294,0.0004253256842361753,0.00028408938229097986,-1.5833899219414058e-05,-0.00037884856287937363,0.0005884630023425168,0.0007883469173090396,0.0,0.0,0.0,0.0,0.0,0.0,0.0,-5.327638647800725e-06,-0.00012108512689254503,1.0155519247327834e-05,4.650177586063009e-05,5.2897135425916675e-06,-3.6621113688184437e-06,-1.4860999542065656e-06,-0.0010211626010173294,-0.0004253256842361753,-0.00028408938229097986,1.5833899219414058e-05,0.00037884856287937363,-0.0005884630023425168,-0.0007883469173090396,0.3752071261405945,19.792627334594727,0.4228789508342743,-19.955781936645508,-0.6951804757118225,-2.4493441581726074,0.26858848333358765,0
76,0.37502121925354004,-0.3752071261405945,-19.792627334594727,-0.4228789508342743,19.955781936645508,0.6951804757118225,2.4493441581726074,-0.26858848333358765,0.0,0.0,0.0,0.0,0.0,0.0,0.0,-0.3335703206465809,-0.027806231272038743,-0.23613690466855505,0.19882628534077373,0.09636216954648853,0.09144453307836616,-0.24145362790628622,1.2134467214074052,-0.22012214646236594,-0.007521984114066549,-2.603894883975648,-0.10888921680053167,2.468185787891686,0.8264763943511932,1.2134413937687574,-0.2202432315892585,-0.0075118285948192216,-2.6038483821997875,-0.10888392708698907,2.4681821257803174,0.826474908251239,0.0010211626010173294,0.0004253256842361753,0.00028408938229097986,-1.5833899219414058e-05,-0.00037884856287937363,0.0005884630023425168,0.0007883469173090396,0.0,0.0,0.0,0.0,0.0,0.0,0.0,-5.327638647800725e-06,-0.00012108512689254503,1.0155519247327834e-05,4.650177586063009e-05,5.2897135425916675e-06,-3.6621113688184437e-06,-1.4860999542065656e-06,-0.0010211626010173294,-0.0004253256842361753,-0.00028408938229097986,1.5833899219414058e-05,0.00037884856287937363,-0.0005884630023425168,-0.0007883469173090396,0.3752071261405945,19.792627334594727,0.4228789508342743,-19.955781936645508,-0.6951804757118225,-2.4493441581726074,0.26858848333358765,0
77,0.3800473213195801,-0.3752071261405945,-19.792627334594727,-0.4228789508342743,19.955781936645508,0.6951804757118225,2.4493441581726074,-0.26858848333358765,0.0,0.0,0.0,0.0,0.0,0.0,0.0,-0.3335703206465809,-0.027806231272038743,-0.23613690466855505,0.19882628534077373,0.09636216954648853,0.09144453307836616,-0.24145362790628622,1.2134467214074052,-0.22012214646236594,-0.007521984114066549,-2.603894883975648,-0.10888921680053167,2.468185787891686,0.8264763943511932,1.2134413937687574,-0.2202432315892585,-0.0075118285948192216,-2.6038483821997875,-0.10888392708698907,2.4681821257803174,0.826474908251239,0.0010211626010173294,0.0004253256842361753,0.00028408938229097986,-1.5833899219414058e-05,-0.00037884856287937363,0.0005884630023425168,0.0007883469173090396,0.0,0.0,0.0,0.0,0.0,0.0,0.0,-5.327638647800725e-06,-0.00012108512689254503,1.0155519247327834e-05,4.650177586063009e-05,5.2897135425916675e-06,-3.6621113688184437e-06,-1.4860999542065656e-06,-0.0010211626010173294,-0.0004253256842361753,-0.00028408938229097986,1.5833899219414058e-05,0.00037884856287937363,-0.0005884630023425168,-0.0007883469173090396,0.3752071261405945,19.792627334594727,0.4228789508342743,-19.955781936645508,-0.6951804757118225,-2.4493441581726074,0.26858848333358765,0
78,0.38503336906433105,-0.3514034152030945,-19.792627334594727,-0.3990752398967743,19.955781936645508,0.6777854561805725,2.4630770683288574,-0.23471395671367645,0.0,0.0,0.0,0.0,0.0,0.0,0.0,-0.3367285729572413,-0.028507457344107073,-0.23555214300315155,0.20061941770159178,0.09677844968527208,0.0922309314385216,-0.2424241012765044,1.2134450509715498,-0.22012404786224932,-0.007523654549921813,-2.603894883975648,-0.10888728402058283,2.468184266371437,0.8264737177682892,1.2134413937687574,-0.2202432315892585,-0.0075118285948192216,-2.6038483821997875,-0.10888392708698907,2.4681821257803174,0.826474908251239,0.00029146894497960647,0.0007188367039988788,-0.0007952569047862913,0.0006041622366296834,0.00410310922177791,9.479319679092771e-05,-0.00019126157015211944,0.0,0.0,0.0,0.0,0.0,0.0,0.0,-3.65720279238424e-06,-0.00011918372700917002,1.1825955102591663e-05,4.650177586063009e-05,3.3569335937538858e-06,-2.140591119470514e-06,1.190482949886551e-06,-0.00029146894497960647,-0.0007188367039988788,0.0007952569047862913,-0.0006041622366296834,-0.00410310922177791,-9.479319679092771e-05,0.00019126157015211944,0.3514034152030945,19.792627334594727,0.3990752398967743,-19.955781936645508,-0.6777854561805725,-2.4630770683288574,0.23471395671367645,0
79,0.3900337219238281,-0.3514034152030945,-19.792627334594727,-0.3990752398967743,19.955781936645508,0.6777854561805725,2.4630770683288574,-0.23471395671367645,0.0,0.0,0.0,0.0,0.0,0.0,0.0,-0.3367285729572413,-0.028507457344107073,-0.23555214300315155,0.20061941770159178,0.09677844968527208,0.0922309314385216,-0.2424241012765044,1.2134450509715498,-0.22012404786224932,-0.007523654549921813,-2.603894883975648,-0.10888728402058283,2.468184266371437,0.8264737177682892,1.2134413937687574,-0.2202432315892585,-0.0075118285948192216,-2.6038483821997875,-0.10888392708698907,2.4681821257803174,0.826474908251239,0.00029146894497960647,0.0007188367039988788,-0.0007952569047862913,0.0006041622366296834,0.00410310922177791,9.479319679092771e-05,-0.00019126157015211944,0.0,0.0,0.0,0.0,0.0,0.0,0.0,-3.65720279238424e-06,-0.00011918372700917002,1.1825955102591663e-05,4.650177586063009e-05,3.3569335937538858e-06,-2.140591119470514e-06,1.190482949886551e-06,-0.00029146894497960647,-0.0007188367039988788,0.0007952569047862913,-0.0006041622366296834,-0.00410310922177791,-9.479319679092771e-05,0.00019126157015211944,0.3514034152030945,19.792627334594727,0.3990752398967743,-19.955781936645508,-0.6777854561805725,-2.4630770683288574,0.23471395671367645,0
