rezayati/contactInterpretation/dataset/franka_main/labeled_data/link3/e3_5.csv
index,time,tau_J0,tau_J1,tau_J2,tau_J3,tau_J4,tau_J5,tau_J6,tau_J_d0,tau_J_d1,tau_J_d2,tau_J_d3,tau_J_d4,tau_J_d5,tau_J_d6,tau_ext0,tau_ext1,tau_ext2,tau_ext3,tau_ext4,tau_ext5,tau_ext6,q0,q1,q2,q3,q4,q5,q6,q_d0,q_d1,q_d2,q_d3,q_d4,q_d5,q_d6,dq0,dq1,dq2,dq3,dq4,dq5,dq6,dq_d0,dq_d1,dq_d2,dq_d3,dq_d4,dq_d5,dq_d6,e0,e1,e2,e3,e4,e5,e6,de0,de1,de2,de3,de4,de5,de6,etau_J0,etau_J1,etau_J2,etau_J3,etau_J4,etau_J5,etau_J6,label
1,0.0,-0.8869869112968445,-46.40121078491211,-5.612087726593018,19.535249710083008,0.7308860421180725,2.4237093925476074,-0.17337362468242645,0.0,0.0,0.0,0.0,0.0,0.0,0.0,-0.8119341471467422,-0.06851165806893666,-0.4456048778299863,0.35876385579364256,0.1569295081755051,0.14878897421527237,-0.14586392188183459,0.8780841144603603,0.7553735015099506,-0.2825521300910622,-1.6690950183861784,0.14140935419003167,2.4034451173676383,1.0273453707612223,0.878092876070424,0.7554597494309409,-0.2825552651693207,-1.6690993614607135,0.1414185955172306,2.4034451173676383,1.0273381002308042,0.0019451618929214691,6.466240980843895e-05,-0.00010563336388406113,0.0006670300024049516,0.00036875355764518153,-0.00024458387516697837,0.0008277495126688133,0.0,0.0,0.0,0.0,0.0,0.0,0.0,8.761610063690028e-06,8.624792099021228e-05,-3.135078258498236e-06,-4.343074535118063e-06,9.241327198927785e-06,0.0,-7.270530418157506e-06,-0.0019451618929214691,-6.466240980843895e-05,0.00010563336388406113,-0.0006670300024049516,-0.00036875355764518153,0.00024458387516697837,-0.0008277495126688133,0.8869869112968445,46.40121078491211,5.612087726593018,-19.535249710083008,-0.7308860421180725,-2.4237093925476074,0.17337362468242645,0
2,0.005003213882446289,-0.7322627902030945,-46.42501449584961,-5.588284015655518,19.586824417114258,0.7427878975868225,2.4301180839538574,-0.14590780436992645,0.0,0.0,0.0,0.0,0.0,0.0,0.0,-0.8110370946405995,-0.07534636346058261,-0.44300562853781517,0.36227127725545133,0.15651768941566696,0.14965319359493692,-0.14693114986823474,0.8780723337517524,0.7553751719458061,-0.28255380047831646,-1.6690986465279374,0.14140802737374145,2.4034444052908155,1.0273423190034099,0.878092876070424,0.7554597494309409,-0.2825552651693207,-1.6690993614607135,0.1414185955172306,2.4034451173676383,1.0273381002308042,-0.0021521391094893702,0.0004024699087267,-0.00045607970487540573,-0.0003630155080511987,0.00015398358007031015,-0.0006440613659755875,3.042150676050152e-05,0.0,0.0,0.0,0.0,0.0,0.0,0.0,2.054231867154588e-05,8.45774851347958e-05,-1.4646910042603878e-06,-7.149327760913593e-07,1.056814348915358e-05,7.120768228396912e-07,-4.218772605701915e-06,0.0021521391094893702,-0.0004024699087267,0.00045607970487540573,0.0003630155080511987,-0.00015398358007031015,0.0006440613659755875,-3.042150676050152e-05,0.7322627902030945,46.42501449584961,5.588284015655518,-19.586824417114258,-0.7427878975868225,-2.4301180839538574,0.14590780436992645,0
3,0.009999275207519531,-0.7322627902030945,-46.42501449584961,-5.588284015655518,19.586824417114258,0.7427878975868225,2.4301180839538574,-0.14590780436992645,0.0,0.0,0.0,0.0,0.0,0.0,0.0,-0.8110370946405995,-0.07534636346058261,-0.44300562853781517,0.36227127725545133,0.15651768941566696,0.14965319359493692,-0.14693114986823474,0.8780723337517524,0.7553751719458061,-0.28255380047831646,-1.6690986465279374,0.14140802737374145,2.4034444052908155,1.0273423190034099,0.878092876070424,0.7554597494309409,-0.2825552651693207,-1.6690993614607135,0.1414185955172306,2.4034451173676383,1.0273381002308042,-0.0021521391094893702,0.0004024699087267,-0.00045607970487540573,-0.0003630155080511987,0.00015398358007031015,-0.0006440613659755875,3.042150676050152e-05,0.0,0.0,0.0,0.0,0.0,0.0,0.0,2.054231867154588e-05,8.45774851347958e-05,-1.4646910042603878e-06,-7.149327760913593e-07,1.056814348915358e-05,7.120768228396912e-07,-4.218772605701915e-06,0.0021521391094893702,-0.0004024699087267,0.00045607970487540573,0.0003630155080511987,-0.00015398358007031015,0.0006440613659755875,-3.042150676050152e-05,0.7322627902030945,46.42501449584961,5.588284015655518,-19.586824417114258,-0.7427878975868225,-2.4301180839538574,0.14590780436992645,0
4,0.014996528625488281,-0.8076412081718445,-46.40121078491211,-5.612087726593018,19.559053421020508,0.7491965889930725,2.4173007011413574,-0.13858358561992645,0.0,0.0,0.0,0.0,0.0,0.0,0.0,-0.8223052122096801,-0.07993772460048025,-0.45102833908886497,0.36217144234576676,0.15724968644208887,0.15005629766881778,-0.14767380939757282,0.878075521744866,0.7553732586762127,-0.28255213004246094,-1.6690972980387466,0.14140731529689377,2.4034458294444616,1.0273415052013264,0.878092876070424,0.7554597494309409,-0.2825552651693207,-1.6690993614607135,0.1414185955172306,2.4034451173676383,1.0273381002308042,-0.0002517758135311378,-0.0003810389618729157,-0.0004838703892899048,0.00022967915193440402,-0.0001556941963006906,-2.327556326759037e-05,-0.0002545273629577537,0.0,0.0,0.0,0.0,0.0,0.0,0.0,1.735432555793892e-05,8.649075472810797e-05,-3.1351268597878956e-06,-2.0634219668469456e-06,1.1280220336834512e-05,-7.120768232837804e-07,-3.404970522202788e-06,0.0002517758135311378,0.0003810389618729157,0.0004838703892899048,-0.00022967915193440402,0.0001556941963006906,2.327556326759037e-05,0.0002545273629577537,0.8076412081718445,46.40121078491211,5.612087726593018,-19.559053421020508,-0.7491965889930725,-2.4173007011413574,0.13858358561992645,0
5,0.01999378204345703,-0.8076412081718445,-46.40121078491211,-5.612087726593018,19.559053421020508,0.7491965889930725,2.4173007011413574,-0.13858358561992645,0.0,0.0,0.0,0.0,0.0,0.0,0.0,-0.8223052122096801,-0.07993772460048025,-0.45102833908886497,0.36217144234576676,0.15724968644208887,0.15005629766881778,-0.14767380939757282,0.878075521744866,0.7553732586762127,-0.28255213004246094,-1.6690972980387466,0.14140731529689377,2.4034458294444616,1.0273415052013264,0.878092876070424,0.7554597494309409,-0.2825552651693207,-1.6690993614607135,0.1414185955172306,2.4034451173676383,1.0273381002308042,-0.0002517758135311378,-0.0003810389618729157,-0.0004838703892899048,0.00022967915193440402,-0.0001556941963006906,-2.327556326759037e-05,-0.0002545273629577537,0.0,0.0,0.0,0.0,0.0,0.0,0.0,1.735432555793892e-05,8.649075472810797e-05,-3.1351268597878956e-06,-2.0634219668469456e-06,1.1280220336834512e-05,-7.120768232837804e-07,-3.404970522202788e-06,0.0002517758135311378,0.0003810389618729157,0.0004838703892899048,-0.00022967915193440402,0.0001556941963006906,2.327556326759037e-05,0.0002545273629577537,0.8076412081718445,46.40121078491211,5.612087726593018,-19.559053421020508,-0.7491965889930725,-2.4173007011413574,0.13858358561992645,0
6,0.024996519088745117,-0.8076412081718445,-46.40121078491211,-5.612087726593018,19.610628128051758,0.7491965889930725,2.4173007011413574,-0.13858358561992645,0.0,0.0,0.0,0.0,0.0,0.0,0.0,-0.8054935593116571,-0.08138987929745861,-0.43936267210734103,0.36422816968891125,0.15749449752849767,0.14998287457961842,-0.14762864238086126,0.8780763614133131,0.75537350150858,-0.28255213004246094,-1.669101032222969,0.14140731968479855,2.4034458294444616,1.0273415052013264,0.878092876070424,0.7554597494309409,-0.2825552651693207,-1.6690993614607135,0.1414185955172306,2.4034451173676383,1.0273381002308042,0.00024548529996686557,-0.00040344952111490487,-4.681107600253463e-05,-0.0009219840614769098,-0.00016907095700629784,0.00017765062903896467,-0.00031437417030720564,0.0,0.0,0.0,0.0,0.0,0.0,0.0,1.651465711083322e-05,8.624792236089363e-05,-3.1351268597878956e-06,1.6707622554346102e-06,1.1275832432044997e-05,-7.120768232837804e-07,-3.404970522202788e-06,-0.00024548529996686557,0.00040344952111490487,4.681107600253463e-05,0.0009219840614769098,0.00016907095700629784,-0.00017765062903896467,0.00031437417030720564,0.8076412081718445,46.40121078491211,5.612087726593018,-19.610628128051758,-0.7491965889930725,-2.4173007011413574,0.13858358561992645,0
7,0.03000164031982422,-0.8076412081718445,-46.40121078491211,-5.612087726593018,19.610628128051758,0.7491965889930725,2.4173007011413574,-0.13858358561992645,0.0,0.0,0.0,0.0,0.0,0.0,0.0,-0.8054935593116571,-0.08138987929745861,-0.43936267210734103,0.36422816968891125,0.15749449752849767,0.14998287457961842,-0.14762864238086126,0.8780763614133131,0.75537350150858,-0.28255213004246094,-1.669101032222969,0.14140731968479855,2.4034458294444616,1.0273415052013264,0.878092876070424,0.7554597494309409,-0.2825552651693207,-1.6690993614607135,0.1414185955172306,2.4034451173676383,1.0273381002308042,0.00024548529996686557,-0.00040344952111490487,-4.681107600253463e-05,-0.0009219840614769098,-0.00016907095700629784,0.00017765062903896467,-0.00031437417030720564,0.0,0.0,0.0,0.0,0.0,0.0,0.0,1.651465711083322e-05,8.624792236089363e-05,-3.1351268597878956e-06,1.6707622554346102e-06,1.1275832432044997e-05,-7.120768232837804e-07,-3.404970522202788e-06,-0.00024548529996686557,0.00040344952111490487,4.681107600253463e-05,0.0009219840614769098,0.00016907095700629784,-0.00017765062903896467,0.00031437417030720564,0.8076412081718445,46.40121078491211,5.612087726593018,-19.610628128051758,-0.7491965889930725,-2.4173007011413574,0.13858358561992645,0
8,0.03502058982849121,-0.8076412081718445,-46.40121078491211,-5.564480304718018,19.559053421020508,0.7372947335243225,2.4108920097351074,-0.12485067546367645,0.0,0.0,0.0,0.0,0.0,0.0,0.0,-0.8132381960689331,-0.06973436267170247,-0.44423630807459924,0.35663600152958647,0.15758886433500405,0.14897758963004074,-0.14681371725741277,0.8780785711650287,0.7553735015099508,-0.28255761668138335,-1.6690974129459313,0.14140864211320875,2.4034465415212845,1.0273399793224203,0.878092876070424,0.7554597494309409,-0.2825552651693207,-1.6690993614607135,0.1414185955172306,2.4034451173676383,1.0273381002308042,6.278240459189277e-05,-0.0001560386086345398,-0.0010369267480005932,-0.00023818103883015766,0.00010489803517611232,0.00018343851742091863,-0.001238550676589144,0.0,0.0,0.0,0.0,0.0,0.0,0.0,1.4304905395223777e-05,8.624792099010126e-05,2.351512062626071e-06,-1.9485147821907134e-06,9.953404021850742e-06,-1.4241536461234716e-06,-1.879091616086015e-06,-6.278240459189277e-05,0.0001560386086345398,0.0010369267480005932,0.00023818103883015766,-0.00010489803517611232,-0.00018343851742091863,0.001238550676589144,0.8076412081718445,46.40121078491211,5.564480304718018,-19.559053421020508,-0.7372947335243225,-2.4108920097351074,0.12485067546367645,0
9,0.04001212120056152,-0.8076412081718445,-46.40121078491211,-5.564480304718018,19.559053421020508,0.7372947335243225,2.4108920097351074,-0.12485067546367645,0.0,0.0,0.0,0.0,0.0,0.0,0.0,-0.8132381960689331,-0.06973436267170247,-0.44423630807459924,0.35663600152958647,0.15758886433500405,0.14897758963004074,-0.14681371725741277,0.8780785711650287,0.7553735015099508,-0.28255761668138335,-1.6690974129459313,0.14140864211320875,2.4034465415212845,1.0273399793224203,0.878092876070424,0.7554597494309409,-0.2825552651693207,-1.6690993614607135,0.1414185955172306,2.4034451173676383,1.0273381002308042,6.278240459189277e-05,-0.0001560386086345398,-0.0010369267480005932,-0.00023818103883015766,0.00010489803517611232,0.00018343851742091863,-0.001238550676589144,0.0,0.0,0.0,0.0,0.0,0.0,0.0,1.4304905395223777e-05,8.624792099010126e-05,2.351512062626071e-06,-1.9485147821907134e-06,9.953404021850742e-06,-1.4241536461234716e-06,-1.879091616086015e-06,-6.278240459189277e-05,0.0001560386086345398,0.0010369267480005932,0.00023818103883015766,-0.00010489803517611232,-0.00018343851742091863,0.001238550676589144,0.8076412081718445,46.40121078491211,5.564480304718018,-19.559053421020508,-0.7372947335243225,-2.4108920097351074,0.12485067546367645,0
10,0.04495120048522949,-0.7838374972343445,-46.37740707397461,-5.612087726593018,19.586824417114258,0.7372947335243225,2.4108920097351074,-0.20083944499492645,0.0,0.0,0.0,0.0,0.0,0.0,0.0,-0.8096539105463139,-0.08191014444914237,-0.4419647300949747,0.3616064227916098,0.1573415411512126,0.15004946278596526,-0.1462765358123182,0.8780740897046762,0.7553718310740954,-0.28255213005457386,-1.6690985640067098,0.14140864211320875,2.4034465415212845,1.0273484225190348,0.878092876070424,0.7554597494309409,-0.2825552651693207,-1.6690993614607135,0.1414185955172306,2.4034451173676383,1.0273381002308042,-0.0005737761639615894,-0.0009071927027472982,0.00012763703437809485,-0.0007295964690857648,0.00011047606437908354,0.00010630317860326286,0.0020524971779529713,0.0,0.0,0.0,0.0,0.0,0.0,0.0,1.8786365747813782e-05,8.791835684540672e-05,-3.135114746866119e-06,-7.974540037203326e-07,9.953404021850742e-06,-1.4241536461234716e-06,-1.0322288230613097e-05,0.0005737761639615894,0.0009071927027472982,-0.00012763703437809485,0.0007295964690857648,-0.00011047606437908354,-0.00010630317860326286,-0.0020524971779529713,0.7838374972343445,46.37740707397461,5.612087726593018,-19.586824417114258,-0.7372947335243225,-2.4108920097351074,0.20083944499492645,0
11,0.050295352935791016,-0.7838374972343445,-46.37740707397461,-5.612087726593018,19.586824417114258,0.7372947335243225,2.4108920097351074,-0.20083944499492645,0.0,0.0,0.0,0.0,0.0,0.0,0.0,-0.8096539105463139,-0.08191014444914237,-0.4419647300949747,0.3616064227916098,0.1573415411512126,0.15004946278596526,-0.1462765358123182,0.8780740897046762,0.7553718310740954,-0.28255213005457386,-1.6690985640067098,0.14140864211320875,2.4034465415212845,1.0273484225190348,0.878092876070424,0.7554597494309409,-0.2825552651693207,-1.6690993614607135,0.1414185955172306,2.4034451173676383,1.0273381002308042,-0.0005737761639615894,-0.0009071927027472982,0.00012763703437809485,-0.0007295964690857648,0.00011047606437908354,0.00010630317860326286,0.0020524971779529713,0.0,0.0,0.0,0.0,0.0,0.0,0.0,1.8786365747813782e-05,8.791835684540672e-05,-3.135114746866119e-06,-7.974540037203326e-07,9.953404021850742e-06,-1.4241536461234716e-06,-1.0322288230613097e-05,0.0005737761639615894,0.0009071927027472982,-0.00012763703437809485,0.0007295964690857648,-0.00011047606437908354,-0.00010630317860326286,-0.0020524971779529713,0.7838374972343445,46.37740707397461,5.612087726593018,-19.586824417114258,-0.7372947335243225,-2.4108920097351074,0.20083944499492645,0
12,0.05500960350036621,-0.8076412081718445,-46.40121078491211,-5.635891437530518,19.586824417114258,0.7372947335243225,2.4108920097351074,-0.11111776530742645,0.0,0.0,0.0,0.0,0.0,0.0,0.0,-0.8147120022400917,-0.08087711925753366,-0.4427595762986235,0.3601271681314848,0.15724214896102656,0.14966084115503864,-0.14656879766191194,0.8780785724456039,0.7553735015099508,-0.28255045960660574,-1.6690991194400941,0.14140864211320875,2.4034465415212845,1.0273384529589973,0.878092876070424,0.7554597494309409,-0.2825552651693207,-1.6690993614607135,0.1414185955172306,2.4034451173676383,1.0273381002308042,-8.886006673377511e-05,0.00014929121739743964,0.0004422084601238015,-0.0004669410613164634,0.00019129047232050708,0.0001917504337389893,-0.0015716946801148332,0.0,0.0,0.0,0.0,0.0,0.0,0.0,1.4303624820022343e-05,8.624792099010126e-05,-4.8055627149823366e-06,-2.420206193232133e-07,9.953404021850742e-06,-1.4241536461234716e-06,-3.5272819309817294e-07,8.886006673377511e-05,-0.00014929121739743964,-0.0004422084601238015,0.0004669410613164634,-0.00019129047232050708,-0.0001917504337389893,0.0015716946801148332,0.8076412081718445,46.40121078491211,5.635891437530518,-19.586824417114258,-0.7372947335243225,-2.4108920097351074,0.11111776530742645,0
13,0.060141563415527344,-0.8076412081718445,-46.40121078491211,-5.635891437530518,19.586824417114258,0.7372947335243225,2.4108920097351074,-0.11111776530742645,0.0,0.0,0.0,0.0,0.0,0.0,0.0,-0.8147120022400917,-0.08087711925753366,-0.4427595762986235,0.3601271681314848,0.15724214896102656,0.14966084115503864,-0.14656879766191194,0.8780785724456039,0.7553735015099508,-0.28255045960660574,-1.6690991194400941,0.14140864211320875,2.4034465415212845,1.0273384529589973,0.878092876070424,0.7554597494309409,-0.2825552651693207,-1.6690993614607135,0.1414185955172306,2.4034451173676383,1.0273381002308042,-8.886006673377511e-05,0.00014929121739743964,0.0004422084601238015,-0.0004669410613164634,0.00019129047232050708,0.0001917504337389893,-0.0015716946801148332,0.0,0.0,0.0,0.0,0.0,0.0,0.0,1.4303624820022343e-05,8.624792099010126e-05,-4.8055627149823366e-06,-2.420206193232133e-07,9.953404021850742e-06,-1.4241536461234716e-06,-3.5272819309817294e-07,8.886006673377511e-05,-0.00014929121739743964,-0.0004422084601238015,0.0004669410613164634,-0.00019129047232050708,-0.0001917504337389893,0.0015716946801148332,0.8076412081718445,46.40121078491211,5.635891437530518,-19.586824417114258,-0.7372947335243225,-2.4108920097351074,0.11111776530742645,0
14,0.06499910354614258,-0.8592159152030945,-46.40121078491211,-5.588284015655518,19.559053421020508,0.7427878975868225,2.4108920097351074,-0.17978231608867645,0.0,0.0,0.0,0.0,0.0,0.0,0.0,-0.8183232198462271,-0.0744642576298698,-0.4440178494082964,0.35671269483902407,0.15698246023789583,0.14874923632461512,-0.1464382659066859,0.8780821570363266,0.7553735015099508,-0.2825538004783162,-1.6690964323432285,0.14141122061014172,2.4034465415212845,1.0273460828380425,0.878092876070424,0.7554597494309409,-0.2825552651693207,-1.6690993614607135,0.1414185955172306,2.4034451173676383,1.0273381002308042,0.0008404424787409325,-6.198081946026725e-05,-0.0008700920170483338,-1.2143664538722407e-05,-0.0001047732305930956,0.0003290501516029387,0.001466935028591896,0.0,0.0,0.0,0.0,0.0,0.0,0.0,1.071903409732844e-05,8.624792099010126e-05,-1.4646910045379435e-06,-2.9291174850065715e-06,7.374907088880667e-06,-1.4241536461234716e-06,-7.982607238332662e-06,-0.0008404424787409325,6.198081946026725e-05,0.0008700920170483338,1.2143664538722407e-05,0.0001047732305930956,-0.0003290501516029387,-0.001466935028591896,0.8592159152030945,46.40121078491211,5.588284015655518,-19.559053421020508,-0.7427878975868225,-2.4108920097351074,0.17978231608867645,0
15,0.06995344161987305,-0.8592159152030945,-46.40121078491211,-5.588284015655518,19.559053421020508,0.7427878975868225,2.4108920097351074,-0.17978231608867645,0.0,0.0,0.0,0.0,0.0,0.0,0.0,-0.8183232198462271,-0.0744642576298698,-0.4440178494082964,0.35671269483902407,0.15698246023789583,0.14874923632461512,-0.1464382659066859,0.8780821570363266,0.7553735015099508,-0.2825538004783162,-1.6690964323432285,0.14141122061014172,2.4034465415212845,1.0273460828380425,0.878092876070424,0.7554597494309409,-0.2825552651693207,-1.6690993614607135,0.1414185955172306,2.4034451173676383,1.0273381002308042,0.0008404424787409325,-6.198081946026725e-05,-0.0008700920170483338,-1.2143664538722407e-05,-0.0001047732305930956,0.0003290501516029387,0.001466935028591896,0.0,0.0,0.0,0.0,0.0,0.0,0.0,1.071903409732844e-05,8.624792099010126e-05,-1.4646910045379435e-06,-2.9291174850065715e-06,7.374907088880667e-06,-1.4241536461234716e-06,-7.982607238332662e-06,-0.0008404424787409325,6.198081946026725e-05,0.0008700920170483338,1.2143664538722407e-05,0.0001047732305930956,-0.0003290501516029387,-0.001466935028591896,0.8592159152030945,46.40121078491211,5.588284015655518,-19.559053421020508,-0.7427878975868225,-2.4108920097351074,0.17978231608867645,0
16,0.07499885559082031,-0.8354122042655945,-46.40121078491211,-5.612087726593018,19.535249710083008,0.7427878975868225,2.4108920097351074,-0.14590780436992645,0.0,0.0,0.0,0.0,0.0,0.0,0.0,-0.8220309677121516,-0.07778294859964809,-0.44572573666847254,0.35959031425022087,0.15707426857956278,0.14929170362191632,-0.14623440301209156,0.8780795063253167,0.7553734985120034,-0.28255213004246094,-1.669093355229955,0.1414080317796474,2.4034465415212845,1.0273423190034099,0.878092876070424,0.7554597494309409,-0.2825552651693207,-1.6690993614607135,0.1414185955172306,2.4034451173676383,1.0273381002308042,-0.00029786025465016207,7.674808962461797e-05,0.0001304427723444713,0.0005758829178116575,-0.00010560045479945372,0.00016956429777019878,-0.00027518236956651846,0.0,0.0,0.0,0.0,0.0,0.0,0.0,1.3369745107238984e-05,8.625091893743608e-05,-3.1351268597878956e-06,-6.006230758526243e-06,1.0563737583207944e-05,-1.4241536461234716e-06,-4.218772605701915e-06,0.00029786025465016207,-7.674808962461797e-05,-0.0001304427723444713,-0.0005758829178116575,0.00010560045479945372,-0.00016956429777019878,0.00027518236956651846,0.8354122042655945,46.40121078491211,5.612087726593018,-19.535249710083008,-0.7427878975868225,-2.4108920097351074,0.14590780436992645,0
17,0.08001112937927246,-0.8354122042655945,-46.40121078491211,-5.612087726593018,19.535249710083008,0.7427878975868225,2.4108920097351074,-0.14590780436992645,0.0,0.0,0.0,0.0,0.0,0.0,0.0,-0.8220309677121516,-0.07778294859964809,-0.44572573666847254,0.35959031425022087,0.15707426857956278,0.14929170362191632,-0.14623440301209156,0.8780795063253167,0.7553734985120034,-0.28255213004246094,-1.669093355229955,0.1414080317796474,2.4034465415212845,1.0273423190034099,0.878092876070424,0.7554597494309409,-0.2825552651693207,-1.6690993614607135,0.1414185955172306,2.4034451173676383,1.0273381002308042,-0.00029786025465016207,7.674808962461797e-05,0.0001304427723444713,0.0005758829178116575,-0.00010560045479945372,0.00016956429777019878,-0.00027518236956651846,0.0,0.0,0.0,0.0,0.0,0.0,0.0,1.3369745107238984e-05,8.625091893743608e-05,-3.1351268597878956e-06,-6.006230758526243e-06,1.0563737583207944e-05,-1.4241536461234716e-06,-4.218772605701915e-06,0.00029786025465016207,-7.674808962461797e-05,-0.0001304427723444713,-0.0005758829178116575,0.00010560045479945372,-0.00016956429777019878,0.00027518236956651846,0.8354122042655945,46.40121078491211,5.612087726593018,-19.535249710083008,-0.7427878975868225,-2.4108920097351074,0.14590780436992645,0
18,0.08500528335571289,-0.8354122042655945,-46.40121078491211,-5.612087726593018,19.559053421020508,0.7427878975868225,2.4173007011413574,-0.15964071452617645,0.0,0.0,0.0,0.0,0.0,0.0,0.0,-0.8196519450161721,-0.0664992867105033,-0.43869908472489544,0.35595534281931385,0.15641703072182045,0.1483847713744331,-0.14769721043902265,0.8780773742886209,0.75537277300872,-0.2825522095153206,-1.669096450391482,0.14140803176164635,2.4034458294982968,1.027343844882316,0.878092876070424,0.7554597494309409,-0.2825552651693207,-1.6690993614607135,0.1414185955172306,2.4034451173676383,1.0273381002308042,0.0002549338111885306,0.0006846460262181448,-0.00037724678700000713,-9.607834412896539e-05,-6.228804792166551e-05,1.199349371896432e-05,0.00044477107008258367,0.0,0.0,0.0,0.0,0.0,0.0,0.0,1.5501781803095582e-05,8.697642222088575e-05,-3.0556540001058785e-06,-2.911069231448238e-06,1.0563755584253043e-05,-7.121306584423337e-07,-5.744651511818688e-06,-0.0002549338111885306,-0.0006846460262181448,0.00037724678700000713,9.607834412896539e-05,6.228804792166551e-05,-1.199349371896432e-05,-0.00044477107008258367,0.8354122042655945,46.40121078491211,5.612087726593018,-19.559053421020508,-0.7427878975868225,-2.4173007011413574,0.15964071452617645,0
19,0.08999490737915039,-0.8354122042655945,-46.40121078491211,-5.612087726593018,19.559053421020508,0.7427878975868225,2.4173007011413574,-0.15964071452617645,0.0,0.0,0.0,0.0,0.0,0.0,0.0,-0.8196519450161721,-0.0664992867105033,-0.43869908472489544,0.35595534281931385,0.15641703072182045,0.1483847713744331,-0.14769721043902265,0.8780773742886209,0.75537277300872,-0.2825522095153206,-1.669096450391482,0.14140803176164635,2.4034458294982968,1.027343844882316,0.878092876070424,0.7554597494309409,-0.2825552651693207,-1.6690993614607135,0.1414185955172306,2.4034451173676383,1.0273381002308042,0.0002549338111885306,0.0006846460262181448,-0.00037724678700000713,-9.607834412896539e-05,-6.228804792166551e-05,1.199349371896432e-05,0.00044477107008258367,0.0,0.0,0.0,0.0,0.0,0.0,0.0,1.5501781803095582e-05,8.697642222088575e-05,-3.0556540001058785e-06,-2.911069231448238e-06,1.0563755584253043e-05,-7.121306584423337e-07,-5.744651511818688e-06,-0.0002549338111885306,-0.0006846460262181448,0.00037724678700000713,9.607834412896539e-05,6.228804792166551e-05,-1.199349371896432e-05,-0.00044477107008258367,0.8354122042655945,46.40121078491211,5.612087726593018,-19.559053421020508,-0.7427878975868225,-2.4173007011413574,0.15964071452617645,0
20,0.0950009822845459,-0.8354122042655945,-46.40121078491211,-5.612087726593018,19.559053421020508,0.7427878975868225,2.4173007011413574,-0.15964071452617645,0.0,0.0,0.0,0.0,0.0,0.0,0.0,-0.8196519450161721,-0.0664992867105033,-0.43869908472489544,0.35595534281931385,0.15641703072182045,0.1483847713744331,-0.14769721043902265,0.8780773742886209,0.75537277300872,-0.2825522095153206,-1.669096450391482,0.14140803176164635,2.4034458294982968,1.027343844882316,0.878092876070424,0.7554597494309409,-0.2825552651693207,-1.6690993614607135,0.1414185955172306,2.4034451173676383,1.0273381002308042,0.0002549338111885306,0.0006846460262181448,-0.00037724678700000713,-9.607834412896539e-05,-6.228804792166551e-05,1.199349371896432e-05,0.00044477107008258367,0.0,0.0,0.0,0.0,0.0,0.0,0.0,1.5501781803095582e-05,8.697642222088575e-05,-3.0556540001058785e-06,-2.911069231448238e-06,1.0563755584253043e-05,-7.121306584423337e-07,-5.744651511818688e-06,-0.0002549338111885306,-0.0006846460262181448,0.00037724678700000713,9.607834412896539e-05,6.228804792166551e-05,-1.199349371896432e-05,-0.00044477107008258367,0.8354122042655945,46.40121078491211,5.612087726593018,-19.559053421020508,-0.7427878975868225,-2.4173007011413574,0.15964071452617645,0
21,0.0999612808227539,-0.8354122042655945,-46.40121078491211,-5.612087726593018,19.559053421020508,0.7427878975868225,2.4173007011413574,-0.15964071452617645,0.0,0.0,0.0,0.0,0.0,0.0,0.0,-0.8196519450161721,-0.0664992867105033,-0.43869908472489544,0.35595534281931385,0.15641703072182045,0.1483847713744331,-0.14769721043902265,0.8780773742886209,0.75537277300872,-0.2825522095153206,-1.669096450391482,0.14140803176164635,2.4034458294982968,1.027343844882316,0.878092876070424,0.7554597494309409,-0.2825552651693207,-1.6690993614607135,0.1414185955172306,2.4034451173676383,1.0273381002308042,0.0002549338111885306,0.0006846460262181448,-0.00037724678700000713,-9.607834412896539e-05,-6.228804792166551e-05,1.199349371896432e-05,0.00044477107008258367,0.0,0.0,0.0,0.0,0.0,0.0,0.0,1.5501781803095582e-05,8.697642222088575e-05,-3.0556540001058785e-06,-2.911069231448238e-06,1.0563755584253043e-05,-7.121306584423337e-07,-5.744651511818688e-06,-0.0002549338111885306,-0.0006846460262181448,0.00037724678700000713,9.607834412896539e-05,6.228804792166551e-05,-1.199349371896432e-05,-0.00044477107008258367,0.8354122042655945,46.40121078491211,5.612087726593018,-19.559053421020508,-0.7427878975868225,-2.4173007011413574,0.15964071452617645,0
22,0.10500884056091309,-0.8076412081718445,-46.40121078491211,-5.612087726593018,19.586824417114258,0.7427878975868225,2.4044833183288574,-0.13217489421367645,0.0,0.0,0.0,0.0,0.0,0.0,0.0,-0.8207417654390451,-0.07958201677455165,-0.4398967883150606,0.36337372350564906,0.1566408599825736,0.1501020438924216,-0.14784464100015812,0.87807849141098,0.7553735015058384,-0.2825521300429096,-1.669099279329691,0.14140803176164626,2.4034472535981073,1.0273440515117511,0.878092876070424,0.7554597494309409,-0.2825552651693207,-1.6690993614607135,0.1414185955172306,2.4034451173676383,1.0273381002308042,-0.0006392926552686564,2.7340304512844505e-05,4.157994246058973e-05,-0.0004491374509416863,-0.00012084408978376618,0.0006701734950830089,-0.0007820140954736275,0.0,0.0,0.0,0.0,0.0,0.0,0.0,1.438465944392231e-05,8.624792510247836e-05,-3.1351264111467714e-06,-8.21310224274896e-08,1.056375558433631e-05,-2.136230468963163e-06,-5.951280946936421e-06,0.0006392926552686564,-2.7340304512844505e-05,-4.157994246058973e-05,0.0004491374509416863,0.00012084408978376618,-0.0006701734950830089,0.0007820140954736275,0.8076412081718445,46.40121078491211,5.612087726593018,-19.586824417114258,-0.7427878975868225,-2.4044833183288574,0.13217489421367645,0
23,0.11020159721374512,-0.8076412081718445,-46.40121078491211,-5.612087726593018,19.586824417114258,0.7427878975868225,2.4044833183288574,-0.13217489421367645,0.0,0.0,0.0,0.0,0.0,0.0,0.0,-0.8207417654390451,-0.07958201677455165,-0.4398967883150606,0.36337372350564906,0.1566408599825736,0.1501020438924216,-0.14784464100015812,0.87807849141098,0.7553735015058384,-0.2825521300429096,-1.669099279329691,0.14140803176164626,2.4034472535981073,1.0273440515117511,0.878092876070424,0.7554597494309409,-0.2825552651693207,-1.6690993614607135,0.1414185955172306,2.4034451173676383,1.0273381002308042,-0.0006392926552686564,2.7340304512844505e-05,4.157994246058973e-05,-0.0004491374509416863,-0.00012084408978376618,0.0006701734950830089,-0.0007820140954736275,0.0,0.0,0.0,0.0,0.0,0.0,0.0,1.438465944392231e-05,8.624792510247836e-05,-3.1351264111467714e-06,-8.21310224274896e-08,1.056375558433631e-05,-2.136230468963163e-06,-5.951280946936421e-06,0.0006392926552686564,-2.7340304512844505e-05,-4.157994246058973e-05,0.0004491374509416863,0.00012084408978376618,-0.0006701734950830089,0.0007820140954736275,0.8076412081718445,46.40121078491211,5.612087726593018,-19.586824417114258,-0.7427878975868225,-2.4044833183288574,0.13217489421367645,0
24,0.11500191688537598,-0.8076412081718445,-46.40121078491211,-5.612087726593018,19.559053421020508,0.7427878975868225,2.4044833183288574,-0.12485067546367645,0.0,0.0,0.0,0.0,0.0,0.0,0.0,-0.8256473690045427,-0.06803370755005882,-0.4419133147482191,0.35966279171961385,0.1563965336417125,0.15086497771374874,-0.14759515117472616,0.8780764577634466,0.7553735015099508,-0.28255284529819824,-1.6690966711987754,0.14140803176164626,2.4034472535981073,1.027339979340814,0.878092876070424,0.7554597494309409,-0.2825552651693207,-1.6690993614607135,0.1414185955172306,2.4034451173676383,1.0273381002308042,-5.948137265293413e-06,0.0003792092219680335,-0.0001869149126402674,-0.00013649106306182316,-0.0001374367506329023,3.717367246416014e-05,-0.0012832518818694646,0.0,0.0,0.0,0.0,0.0,0.0,0.0,1.6418306977405983e-05,8.624792099010126e-05,-2.419871122483208e-06,-2.690261938109728e-06,1.056375558433631e-05,-2.136230468963163e-06,-1.8791100098169977e-06,5.948137265293413e-06,-0.0003792092219680335,0.0001869149126402674,0.00013649106306182316,0.0001374367506329023,-3.717367246416014e-05,0.0012832518818694646,0.8076412081718445,46.40121078491211,5.612087726593018,-19.559053421020508,-0.7427878975868225,-2.4044833183288574,0.12485067546367645,0
25,0.12000727653503418,-0.8076412081718445,-46.40121078491211,-5.612087726593018,19.559053421020508,0.7427878975868225,2.4044833183288574,-0.12485067546367645,0.0,0.0,0.0,0.0,0.0,0.0,0.0,-0.8256473690045427,-0.06803370755005882,-0.4419133147482191,0.35966279171961385,0.1563965336417125,0.15086497771374874,-0.14759515117472616,0.8780764577634466,0.7553735015099508,-0.28255284529819824,-1.6690966711987754,0.14140803176164626,2.4034472535981073,1.027339979340814,0.878092876070424,0.7554597494309409,-0.2825552651693207,-1.6690993614607135,0.1414185955172306,2.4034451173676383,1.0273381002308042,-5.948137265293413e-06,0.0003792092219680335,-0.0001869149126402674,-0.00013649106306182316,-0.0001374367506329023,3.717367246416014e-05,-0.0012832518818694646,0.0,0.0,0.0,0.0,0.0,0.0,0.0,1.6418306977405983e-05,8.624792099010126e-05,-2.419871122483208e-06,-2.690261938109728e-06,1.056375558433631e-05,-2.136230468963163e-06,-1.8791100098169977e-06,5.948137265293413e-06,-0.0003792092219680335,0.0001869149126402674,0.00013649106306182316,0.0001374367506329023,-3.717367246416014e-05,0.0012832518818694646,0.8076412081718445,46.40121078491211,5.612087726593018,-19.559053421020508,-0.7427878975868225,-2.4044833183288574,0.12485067546367645,0
26,0.12501096725463867,-0.7838374972343445,-46.40121078491211,-5.588284015655518,19.535249710083008,0.7308860421180725,2.4173007011413574,-0.11111776530742645,0.0,0.0,0.0,0.0,0.0,0.0,0.0,-0.815379962668112,-0.07189446954130183,-0.43601481041665846,0.358862540077087,0.15650886593327817,0.1497410419528066,-0.14697490722076187,0.8780747609708638,0.7553735015099508,-0.28255380932074686,-1.6690949477689172,0.1414093541900317,2.4034458294444616,1.0273384534435142,0.878092876070424,0.7554597494309409,-0.2825552651693207,-1.6690993614607135,0.1414185955172306,2.4034451173676383,1.0273381002308042,-0.00018584857860789439,-0.00021670883439680333,-0.0002971638707976061,0.0003231825936729346,0.0004042230919608403,6.668104919622632e-05,-0.0010462041145992622,0.0,0.0,0.0,0.0,0.0,0.0,0.0,1.811509956017865e-05,8.624792099010126e-05,-1.4558485738613847e-06,-4.413691796267827e-06,9.241327198900029e-06,-7.120768232837804e-07,-3.532127099692417e-07,0.00018584857860789439,0.00021670883439680333,0.0002971638707976061,-0.0003231825936729346,-0.0004042230919608403,-6.668104919622632e-05,0.0010462041145992622,0.7838374972343445,46.40121078491211,5.588284015655518,-19.535249710083008,-0.7308860421180725,-2.4173007011413574,0.11111776530742645,0
27,0.13007807731628418,-0.7838374972343445,-46.40121078491211,-5.588284015655518,19.535249710083008,0.7308860421180725,2.4173007011413574,-0.11111776530742645,0.0,0.0,0.0,0.0,0.0,0.0,0.0,-0.815379962668112,-0.07189446954130183,-0.43601481041665846,0.358862540077087,0.15650886593327817,0.1497410419528066,-0.14697490722076187,0.8780747609708638,0.7553735015099508,-0.28255380932074686,-1.6690949477689172,0.1414093541900317,2.4034458294444616,1.0273384534435142,0.878092876070424,0.7554597494309409,-0.2825552651693207,-1.6690993614607135,0.1414185955172306,2.4034451173676383,1.0273381002308042,-0.00018584857860789439,-0.00021670883439680333,-0.0002971638707976061,0.0003231825936729346,0.0004042230919608403,6.668104919622632e-05,-0.0010462041145992622,0.0,0.0,0.0,0.0,0.0,0.0,0.0,1.811509956017865e-05,8.624792099010126e-05,-1.4558485738613847e-06,-4.413691796267827e-06,9.241327198900029e-06,-7.120768232837804e-07,-3.532127099692417e-07,0.00018584857860789439,0.00021670883439680333,0.0002971638707976061,-0.0003231825936729346,-0.0004042230919608403,-6.668104919622632e-05,0.0010462041145992622,0.7838374972343445,46.40121078491211,5.588284015655518,-19.535249710083008,-0.7308860421180725,-2.4173007011413574,0.11111776530742645,0
28,0.13494658470153809,-0.7838374972343445,-46.40121078491211,-5.635891437530518,19.535249710083008,0.7427878975868225,2.4173007011413574,-0.11844198405742645,0.0,0.0,0.0,0.0,0.0,0.0,0.0,-0.8233666746415716,-0.06413606199728097,-0.4461580136304631,0.35222371066526786,0.15671516157731047,0.14932994143589523,-0.1464523433524551,0.8780766679825094,0.7553734205653714,-0.28255117486235964,-1.6690957147094319,0.14140803176164626,2.4034458294444616,1.0273392672455972,0.878092876070424,0.7554597494309409,-0.2825552651693207,-1.6690993614607135,0.1414185955172306,2.4034451173676383,1.0273381002308042,-0.0005808121452147918,-1.4595169779018554e-05,0.00018672403240549326,0.0010853777615683529,9.518620735108794e-05,-2.9068430376217845e-05,-0.0012598690647148169,0.0,0.0,0.0,0.0,0.0,0.0,0.0,1.620808791458206e-05,8.632886556947383e-05,-4.090306961079815e-06,-3.6467512816162895e-06,1.056375558433631e-05,-7.120768232837804e-07,-1.1670147930242791e-06,0.0005808121452147918,1.4595169779018554e-05,-0.00018672403240549326,-0.0010853777615683529,-9.518620735108794e-05,2.9068430376217845e-05,0.0012598690647148169,0.7838374972343445,46.40121078491211,5.635891437530518,-19.535249710083008,-0.7427878975868225,-2.4173007011413574,0.11844198405742645,0
29,0.13999462127685547,-0.7838374972343445,-46.40121078491211,-5.635891437530518,19.535249710083008,0.7427878975868225,2.4173007011413574,-0.11844198405742645,0.0,0.0,0.0,0.0,0.0,0.0,0.0,-0.8233666746415716,-0.06413606199728097,-0.4461580136304631,0.35222371066526786,0.15671516157731047,0.14932994143589523,-0.1464523433524551,0.8780766679825094,0.7553734205653714,-0.28255117486235964,-1.6690957147094319,0.14140803176164626,2.4034458294444616,1.0273392672455972,0.878092876070424,0.7554597494309409,-0.2825552651693207,-1.6690993614607135,0.1414185955172306,2.4034451173676383,1.0273381002308042,-0.0005808121452147918,-1.4595169779018554e-05,0.00018672403240549326,0.0010853777615683529,9.518620735108794e-05,-2.9068430376217845e-05,-0.0012598690647148169,0.0,0.0,0.0,0.0,0.0,0.0,0.0,1.620808791458206e-05,8.632886556947383e-05,-4.090306961079815e-06,-3.6467512816162895e-06,1.056375558433631e-05,-7.120768232837804e-07,-1.1670147930242791e-06,0.0005808121452147918,1.4595169779018554e-05,-0.00018672403240549326,-0.0010853777615683529,-9.518620735108794e-05,2.9068430376217845e-05,0.0012598690647148169,0.7838374972343445,46.40121078491211,5.635891437530518,-19.535249710083008,-0.7427878975868225,-2.4173007011413574,0.11844198405742645,0
30,0.1450023651123047,-0.8076412081718445,-46.37740707397461,-5.588284015655518,19.559053421020508,0.7372947335243225,2.4237093925476074,-0.19351522624492645,0.0,0.0,0.0,0.0,0.0,0.0,0.0,-0.8112821464321749,-0.06288356645335097,-0.44135777719272096,0.3550061884972035,0.15659673798858706,0.149357932545033,-0.14783248147645053,0.878078468028006,0.7553718310727247,-0.28255380059944535,-1.6690973864545073,0.14140757585234112,2.4034451178521548,1.0273476087169515,0.878092876070424,0.7554597494309409,-0.2825552651693207,-1.6690993614607135,0.1414185955172306,2.4034451173676383,1.0273381002308042,-1.4598407653678273e-05,-4.769371849023737e-05,-0.0006119057437638933,0.0006837309620133638,0.00011519555945723068,-0.0002195337656929944,0.001341722475867019,0.0,0.0,0.0,0.0,0.0,0.0,0.0,1.4408042417923816e-05,8.791835821619909e-05,-1.4645698753756875e-06,-1.975006206134111e-06,1.101966488947781e-05,-4.845164269795532e-10,-9.508486147336015e-06,1.4598407653678273e-05,4.769371849023737e-05,0.0006119057437638933,-0.0006837309620133638,-0.00011519555945723068,0.0002195337656929944,-0.001341722475867019,0.8076412081718445,46.37740707397461,5.588284015655518,-19.559053421020508,-0.7372947335243225,-2.4237093925476074,0.19351522624492645,0
31,0.14995789527893066,-0.8076412081718445,-46.37740707397461,-5.588284015655518,19.559053421020508,0.7372947335243225,2.4237093925476074,-0.19351522624492645,0.0,0.0,0.0,0.0,0.0,0.0,0.0,-0.8112821464321749,-0.06288356645335097,-0.44135777719272096,0.3550061884972035,0.15659673798858706,0.149357932545033,-0.14783248147645053,0.878078468028006,0.7553718310727247,-0.28255380059944535,-1.6690973864545073,0.14140757585234112,2.4034451178521548,1.0273476087169515,0.878092876070424,0.7554597494309409,-0.2825552651693207,-1.6690993614607135,0.1414185955172306,2.4034451173676383,1.0273381002308042,-1.4598407653678273e-05,-4.769371849023737e-05,-0.0006119057437638933,0.0006837309620133638,0.00011519555945723068,-0.0002195337656929944,0.001341722475867019,0.0,0.0,0.0,0.0,0.0,0.0,0.0,1.4408042417923816e-05,8.791835821619909e-05,-1.4645698753756875e-06,-1.975006206134111e-06,1.101966488947781e-05,-4.845164269795532e-10,-9.508486147336015e-06,1.4598407653678273e-05,4.769371849023737e-05,0.0006119057437638933,-0.0006837309620133638,-0.00011519555945723068,0.0002195337656929944,-0.001341722475867019,0.8076412081718445,46.37740707397461,5.588284015655518,-19.559053421020508,-0.7372947335243225,-2.4237093925476074,0.19351522624492645,0
32,0.1549985408782959,-0.8869869112968445,-46.34963607788086,-5.635891437530518,19.535249710083008,0.7372947335243225,2.4108920097351074,-0.15964071452617645,0.0,0.0,0.0,0.0,0.0,0.0,0.0,-0.8001745793311665,-0.07041333588936105,-0.4339050828966146,0.3599937121299537,0.1564533143298546,0.14995660375580164,-0.14999476952456256,0.8780840507025507,0.7553698822322643,-0.2825512013532969,-1.6690935966336982,0.1414086421071897,2.403446541521287,1.027343844882316,0.878092876070424,0.7554597494309409,-0.2825552651693207,-1.6690993614607135,0.1414185955172306,2.4034451173676383,1.0273381002308042,0.0019950214057067816,-0.001267600563110838,0.0008187941659324144,0.0005104866084326529,0.00016494597794038796,2.3769238850442658e-05,0.0003000664287292865,0.0,0.0,0.0,0.0,0.0,0.0,0.0,8.825367873277479e-06,8.986719867654092e-05,-4.06381602380268e-06,-5.764827015308782e-06,9.953410040897115e-06,-1.4241536487880069e-06,-5.744651511818688e-06,-0.0019950214057067816,0.001267600563110838,-0.0008187941659324144,-0.0005104866084326529,-0.00016494597794038796,-2.3769238850442658e-05,-0.0003000664287292865,0.8869869112968445,46.34963607788086,5.635891437530518,-19.535249710083008,-0.7372947335243225,-2.4108920097351074,0.15964071452617645,0
33,0.16000032424926758,-0.8869869112968445,-46.34963607788086,-5.635891437530518,19.535249710083008,0.7372947335243225,2.4108920097351074,-0.15964071452617645,0.0,0.0,0.0,0.0,0.0,0.0,0.0,-0.8001745793311665,-0.07041333588936105,-0.4339050828966146,0.3599937121299537,0.1564533143298546,0.14995660375580164,-0.14999476952456256,0.8780840507025507,0.7553698822322643,-0.2825512013532969,-1.6690935966336982,0.1414086421071897,2.403446541521287,1.027343844882316,0.878092876070424,0.7554597494309409,-0.2825552651693207,-1.6690993614607135,0.1414185955172306,2.4034451173676383,1.0273381002308042,0.0019950214057067816,-0.001267600563110838,0.0008187941659324144,0.0005104866084326529,0.00016494597794038796,2.3769238850442658e-05,0.0003000664287292865,0.0,0.0,0.0,0.0,0.0,0.0,0.0,8.825367873277479e-06,8.986719867654092e-05,-4.06381602380268e-06,-5.764827015308782e-06,9.953410040897115e-06,-1.4241536487880069e-06,-5.744651511818688e-06,-0.0019950214057067816,0.001267600563110838,-0.0008187941659324144,-0.0005104866084326529,-0.00016494597794038796,-2.3769238850442658e-05,-0.0003000664287292865,0.8869869112968445,46.34963607788086,5.635891437530518,-19.535249710083008,-0.7372947335243225,-2.4108920097351074,0.15964071452617645,0
34,0.165053129196167,-0.8592159152030945,-46.42501449584961,-5.612087726593018,19.535249710083008,0.7427878975868225,2.4108920097351074,-0.13858358561992645,0.0,0.0,0.0,0.0,0.0,0.0,0.0,-0.8160469357225055,-0.07222812683336988,-0.44251387096116285,0.3592402542328134,0.15646012089792413,0.15053556316317648,-0.15052384664268895,0.878079850598816,0.7553751719458061,-0.28255213004664814,-1.6690932788029729,0.1414080317616462,2.4034465415212845,1.0273415052013264,0.878092876070424,0.7554597494309409,-0.2825552651693207,-1.6690993614607135,0.1414185955172306,2.4034451173676383,1.0273381002308042,0.0009076781085023113,0.0011105126227056365,-0.00011004540623197503,0.00044036386825328566,-2.645602070415016e-05,0.0003296927124910559,-0.005608841641743393,0.0,0.0,0.0,0.0,0.0,0.0,0.0,1.3025471607974737e-05,8.45774851347958e-05,-3.1351226725817583e-06,-6.082657740602571e-06,1.056375558439182e-05,-1.4241536461234716e-06,-3.404970522202788e-06,-0.0009076781085023113,-0.0011105126227056365,0.00011004540623197503,-0.00044036386825328566,2.645602070415016e-05,-0.0003296927124910559,0.005608841641743393,0.8592159152030945,46.42501449584961,5.612087726593018,-19.535249710083008,-0.7427878975868225,-2.4108920097351074,0.13858358561992645,0
35,0.16994738578796387,-0.8592159152030945,-46.42501449584961,-5.612087726593018,19.535249710083008,0.7427878975868225,2.4108920097351074,-0.13858358561992645,0.0,0.0,0.0,0.0,0.0,0.0,0.0,-0.8160469357225055,-0.07222812683336988,-0.44251387096116285,0.3592402542328134,0.15646012089792413,0.15053556316317648,-0.15052384664268895,0.878079850598816,0.7553751719458061,-0.28255213004664814,-1.6690932788029729,0.1414080317616462,2.4034465415212845,1.0273415052013264,0.878092876070424,0.7554597494309409,-0.2825552651693207,-1.6690993614607135,0.1414185955172306,2.4034451173676383,1.0273381002308042,0.0009076781085023113,0.0011105126227056365,-0.00011004540623197503,0.00044036386825328566,-2.645602070415016e-05,0.0003296927124910559,-0.005608841641743393,0.0,0.0,0.0,0.0,0.0,0.0,0.0,1.3025471607974737e-05,8.45774851347958e-05,-3.1351226725817583e-06,-6.082657740602571e-06,1.056375558439182e-05,-1.4241536461234716e-06,-3.404970522202788e-06,-0.0009076781085023113,-0.0011105126227056365,0.00011004540623197503,-0.00044036386825328566,2.645602070415016e-05,-0.0003296927124910559,0.005608841641743393,0.8592159152030945,46.42501449584961,5.612087726593018,-19.535249710083008,-0.7427878975868225,-2.4108920097351074,0.13858358561992645,0
36,0.17499589920043945,-0.8076412081718445,-46.37740707397461,-5.635891437530518,19.535249710083008,0.7491965889930725,2.4173007011413574,-0.11111776530742645,0.0,0.0,0.0,0.0,0.0,0.0,0.0,-0.8183707069609767,-0.0695182690142791,-0.4414622133925758,0.35730702702025463,0.15645335442331662,0.15041603940954806,-0.1504933703041275,0.8780764653118414,0.7553718310740954,-0.2825504596066057,-1.66909359661994,0.1414073196848233,2.4034458294444616,1.027338453443514,0.878092876070424,0.7554597494309409,-0.2825552651693207,-1.6690993614607135,0.1414185955172306,2.4034451173676383,1.0273381002308042,-0.0009512278371986061,-0.00016157231975504085,0.0002085989749795445,0.0008841663284795281,-0.00013816070747497147,7.340455212940588e-05,-0.0015323775349235923,0.0,0.0,0.0,0.0,0.0,0.0,0.0,1.6410758582607876e-05,8.791835684540672e-05,-4.805562715037848e-06,-5.764840773414548e-06,1.1275832407287023e-05,-7.120768232837804e-07,-3.532127097471971e-07,0.0009512278371986061,0.00016157231975504085,-0.0002085989749795445,-0.0008841663284795281,0.00013816070747497147,-7.340455212940588e-05,0.0015323775349235923,0.8076412081718445,46.37740707397461,5.635891437530518,-19.535249710083008,-0.7491965889930725,-2.4173007011413574,0.11111776530742645,0
37,0.18000435829162598,-0.8076412081718445,-46.37740707397461,-5.635891437530518,19.535249710083008,0.7491965889930725,2.4173007011413574,-0.11111776530742645,0.0,0.0,0.0,0.0,0.0,0.0,0.0,-0.8183707069609767,-0.0695182690142791,-0.4414622133925758,0.35730702702025463,0.15645335442331662,0.15041603940954806,-0.1504933703041275,0.8780764653118414,0.7553718310740954,-0.2825504596066057,-1.66909359661994,0.1414073196848233,2.4034458294444616,1.027338453443514,0.878092876070424,0.7554597494309409,-0.2825552651693207,-1.6690993614607135,0.1414185955172306,2.4034451173676383,1.0273381002308042,-0.0009512278371986061,-0.00016157231975504085,0.0002085989749795445,0.0008841663284795281,-0.00013816070747497147,7.340455212940588e-05,-0.0015323775349235923,0.0,0.0,0.0,0.0,0.0,0.0,0.0,1.6410758582607876e-05,8.791835684540672e-05,-4.805562715037848e-06,-5.764840773414548e-06,1.1275832407287023e-05,-7.120768232837804e-07,-3.532127097471971e-07,0.0009512278371986061,0.00016157231975504085,-0.0002085989749795445,-0.0008841663284795281,0.00013816070747497147,-7.340455212940588e-05,0.0015323775349235923,0.8076412081718445,46.37740707397461,5.635891437530518,-19.535249710083008,-0.7491965889930725,-2.4173007011413574,0.11111776530742645,0
38,0.1850137710571289,-0.8354122042655945,-46.44881820678711,-5.635891437530518,19.535249710083008,0.7427878975868225,2.4173007011413574,-0.12485067546367645,0.0,0.0,0.0,0.0,0.0,0.0,0.0,-0.8272483637917554,-0.07181211023886624,-0.44625168727834263,0.35929725107873606,0.15652244083758435,0.15053875437486064,-0.1481572409357576,0.8780805121966326,0.7553768423816613,-0.2825504596066057,-1.669095027242225,0.14140803176164624,2.4034458294444616,1.0273399793224203,0.878092876070424,0.7554597494309409,-0.2825552651693207,-1.6690993614607135,0.1414185955172306,2.4034451173676383,1.0273381002308042,-0.000444396878108489,0.0010896622709677753,7.499170450935458e-05,0.0008316630599577632,-7.480962969386517e-06,-2.1476751926018546e-05,-0.000663004308260359,0.0,0.0,0.0,0.0,0.0,0.0,0.0,1.2363873791332303e-05,8.290704927960135e-05,-4.805562715037848e-06,-4.334218488555308e-06,1.0563755584364065e-05,-7.120768232837804e-07,-1.879091616086015e-06,0.000444396878108489,-0.0010896622709677753,-7.499170450935458e-05,-0.0008316630599577632,7.480962969386517e-06,2.1476751926018546e-05,0.000663004308260359,0.8354122042655945,46.44881820678711,5.635891437530518,-19.535249710083008,-0.7427878975868225,-2.4173007011413574,0.12485067546367645,0
39,0.1900181770324707,-0.8354122042655945,-46.44881820678711,-5.635891437530518,19.535249710083008,0.7427878975868225,2.4173007011413574,-0.12485067546367645,0.0,0.0,0.0,0.0,0.0,0.0,0.0,-0.8272483637917554,-0.07181211023886624,-0.44625168727834263,0.35929725107873606,0.15652244083758435,0.15053875437486064,-0.1481572409357576,0.8780805121966326,0.7553768423816613,-0.2825504596066057,-1.669095027242225,0.14140803176164624,2.4034458294444616,1.0273399793224203,0.878092876070424,0.7554597494309409,-0.2825552651693207,-1.6690993614607135,0.1414185955172306,2.4034451173676383,1.0273381002308042,-0.000444396878108489,0.0010896622709677753,7.499170450935458e-05,0.0008316630599577632,-7.480962969386517e-06,-2.1476751926018546e-05,-0.000663004308260359,0.0,0.0,0.0,0.0,0.0,0.0,0.0,1.2363873791332303e-05,8.290704927960135e-05,-4.805562715037848e-06,-4.334218488555308e-06,1.0563755584364065e-05,-7.120768232837804e-07,-1.879091616086015e-06,0.000444396878108489,-0.0010896622709677753,-7.499170450935458e-05,-0.0008316630599577632,7.480962969386517e-06,2.1476751926018546e-05,0.000663004308260359,0.8354122042655945,46.44881820678711,5.635891437530518,-19.535249710083008,-0.7427878975868225,-2.4173007011413574,0.12485067546367645,0
40,0.19576072692871094,-0.8592159152030945,-46.40121078491211,-5.612087726593018,19.559053421020508,0.7372947335243225,2.4173007011413574,-0.11844198405742645,0.0,0.0,0.0,0.0,0.0,0.0,0.0,-0.8221884941184019,-0.0747156868817176,-0.44410142024131627,0.36160649561306957,0.1566366979923826,0.15058978810573492,-0.14584305771174655,0.8780813846573593,0.7553735015099508,-0.28255213015147723,-1.6690966167597463,0.14140864211320875,2.4034458294444616,1.0273392672455972,0.878092876070424,0.7554597494309409,-0.2825552651693207,-1.6690993614607135,0.1414185955172306,2.4034451173676383,1.0273381002308042,0.00046115268456419504,-0.00030450297555051716,-0.0003739619764143641,0.0001125238883369862,0.0002534591889496856,-7.494225650052976e-05,-0.0010254770297016536,0.0,0.0,0.0,0.0,0.0,0.0,0.0,1.1491413064668166e-05,8.624792099010126e-05,-3.135017843491905e-06,-2.7447009671721645e-06,9.953404021850742e-06,-7.120768232837804e-07,-1.1670147930242791e-06,-0.00046115268456419504,0.00030450297555051716,0.0003739619764143641,-0.0001125238883369862,-0.0002534591889496856,7.494225650052976e-05,0.0010254770297016536,0.8592159152030945,46.40121078491211,5.612087726593018,-19.559053421020508,-0.7372947335243225,-2.4173007011413574,0.11844198405742645,0
41,0.20001649856567383,-0.8592159152030945,-46.40121078491211,-5.612087726593018,19.559053421020508,0.7372947335243225,2.4173007011413574,-0.11844198405742645,0.0,0.0,0.0,0.0,0.0,0.0,0.0,-0.8221884941184019,-0.0747156868817176,-0.44410142024131627,0.36160649561306957,0.1566366979923826,0.15058978810573492,-0.14584305771174655,0.8780813846573593,0.7553735015099508,-0.28255213015147723,-1.6690966167597463,0.14140864211320875,2.4034458294444616,1.0273392672455972,0.878092876070424,0.7554597494309409,-0.2825552651693207,-1.6690993614607135,0.1414185955172306,2.4034451173676383,1.0273381002308042,0.00046115268456419504,-0.00030450297555051716,-0.0003739619764143641,0.0001125238883369862,0.0002534591889496856,-7.494225650052976e-05,-0.0010254770297016536,0.0,0.0,0.0,0.0,0.0,0.0,0.0,1.1491413064668166e-05,8.624792099010126e-05,-3.135017843491905e-06,-2.7447009671721645e-06,9.953404021850742e-06,-7.120768232837804e-07,-1.1670147930242791e-06,-0.00046115268456419504,0.00030450297555051716,0.0003739619764143641,-0.0001125238883369862,-0.0002534591889496856,7.494225650052976e-05,0.0010254770297016536,0.8592159152030945,46.40121078491211,5.612087726593018,-19.559053421020508,-0.7372947335243225,-2.4173007011413574,0.11844198405742645,0
42,0.20500564575195312,-0.8354122042655945,-46.42501449584961,-5.635891437530518,19.586824417114258,0.7427878975868225,2.4173007011413574,-0.15964071452617645,0.0,0.0,0.0,0.0,0.0,0.0,0.0,-0.8203303342067981,-0.0702800717714223,-0.44088143956534026,0.3584944683756474,0.1567153743433998,0.15016147040494213,-0.14431510768808517,0.8780805212987547,0.7553751719458061,-0.28255048609755956,-1.6690983814726432,0.14140803176164624,2.4034458294444616,1.027343844882316,0.878092876070424,0.7554597494309409,-0.2825552651693207,-1.6690993614607135,0.1414185955172306,2.4034451173676383,1.0273381002308042,0.00027969204742274315,0.00032945976407799835,0.0006130835605212544,-0.0007156502498271301,-5.4049497147200994e-05,4.795278087109062e-05,0.0003121786144194623,0.0,0.0,0.0,0.0,0.0,0.0,0.0,1.2354771669276232e-05,8.45774851347958e-05,-4.7790717611628786e-06,-9.79988070248794e-07,1.0563755584364065e-05,-7.120768232837804e-07,-5.744651511818688e-06,-0.00027969204742274315,-0.00032945976407799835,-0.0006130835605212544,0.0007156502498271301,5.4049497147200994e-05,-4.795278087109062e-05,-0.0003121786144194623,0.8354122042655945,46.42501449584961,5.635891437530518,-19.586824417114258,-0.7427878975868225,-2.4173007011413574,0.15964071452617645,0
43,0.21001744270324707,-0.8354122042655945,-46.42501449584961,-5.635891437530518,19.586824417114258,0.7427878975868225,2.4173007011413574,-0.15964071452617645,0.0,0.0,0.0,0.0,0.0,0.0,0.0,-0.8203303342067981,-0.0702800717714223,-0.44088143956534026,0.3584944683756474,0.1567153743433998,0.15016147040494213,-0.14431510768808517,0.8780805212987547,0.7553751719458061,-0.28255048609755956,-1.6690983814726432,0.14140803176164624,2.4034458294444616,1.027343844882316,0.878092876070424,0.7554597494309409,-0.2825552651693207,-1.6690993614607135,0.1414185955172306,2.4034451173676383,1.0273381002308042,0.00027969204742274315,0.00032945976407799835,0.0006130835605212544,-0.0007156502498271301,-5.4049497147200994e-05,4.795278087109062e-05,0.0003121786144194623,0.0,0.0,0.0,0.0,0.0,0.0,0.0,1.2354771669276232e-05,8.45774851347958e-05,-4.7790717611628786e-06,-9.79988070248794e-07,1.0563755584364065e-05,-7.120768232837804e-07,-5.744651511818688e-06,-0.00027969204742274315,-0.00032945976407799835,-0.0006130835605212544,0.0007156502498271301,5.4049497147200994e-05,-4.795278087109062e-05,-0.0003121786144194623,0.8354122042655945,46.42501449584961,5.635891437530518,-19.586824417114258,-0.7427878975868225,-2.4173007011413574,0.15964071452617645,0
44,0.21501588821411133,-0.8354122042655945,-46.42501449584961,-5.635891437530518,19.559053421020508,0.7308860421180725,2.4173007011413574,-0.13858358561992645,0.0,0.0,0.0,0.0,0.0,0.0,0.0,-0.8191271278087071,-0.06601411143038877,-0.440268695018084,0.3542555451688171,0.15689431638082782,0.14991088130226518,-0.14335035060261664,0.8780795591822522,0.7553751449642796,-0.28255045960675523,-1.6690973246372198,0.14140923571660194,2.4034458294444616,1.0273415052013264,0.878092876070424,0.7554597494309409,-0.2825552651693207,-1.6690993614607135,0.1414185955172306,2.4034451173676383,1.0273381002308042,0.001184402078382587,0.0007185016282462418,0.0005193163938745647,-0.0003161991711136197,0.0004539020891188935,0.00010605126540483483,7.855061752105592e-05,0.0,0.0,0.0,0.0,0.0,0.0,0.0,1.3316888171743813e-05,8.460446666125332e-05,-4.805562565490806e-06,-2.036823493645201e-06,9.359800628661041e-06,-7.120768232837804e-07,-3.404970522202788e-06,-0.001184402078382587,-0.0007185016282462418,-0.0005193163938745647,0.0003161991711136197,-0.0004539020891188935,-0.00010605126540483483,-7.855061752105592e-05,0.8354122042655945,46.42501449584961,5.635891437530518,-19.559053421020508,-0.7308860421180725,-2.4173007011413574,0.13858358561992645,0
45,0.2200155258178711,-0.8354122042655945,-46.42501449584961,-5.635891437530518,19.559053421020508,0.7308860421180725,2.4173007011413574,-0.13858358561992645,0.0,0.0,0.0,0.0,0.0,0.0,0.0,-0.8191271278087071,-0.06601411143038877,-0.440268695018084,0.3542555451688171,0.15689431638082782,0.14991088130226518,-0.14335035060261664,0.8780795591822522,0.7553751449642796,-0.28255045960675523,-1.6690973246372198,0.14140923571660194,2.4034458294444616,1.0273415052013264,0.878092876070424,0.7554597494309409,-0.2825552651693207,-1.6690993614607135,0.1414185955172306,2.4034451173676383,1.0273381002308042,0.001184402078382587,0.0007185016282462418,0.0005193163938745647,-0.0003161991711136197,0.0004539020891188935,0.00010605126540483483,7.855061752105592e-05,0.0,0.0,0.0,0.0,0.0,0.0,0.0,1.3316888171743813e-05,8.460446666125332e-05,-4.805562565490806e-06,-2.036823493645201e-06,9.359800628661041e-06,-7.120768232837804e-07,-3.404970522202788e-06,-0.001184402078382587,-0.0007185016282462418,-0.0005193163938745647,0.0003161991711136197,-0.0004539020891188935,-0.00010605126540483483,-7.855061752105592e-05,0.8354122042655945,46.42501449584961,5.635891437530518,-19.559053421020508,-0.7308860421180725,-2.4173007011413574,0.13858358561992645,0
46,0.2250359058380127,-0.8354122042655945,-46.42501449584961,-5.635891437530518,19.559053421020508,0.7308860421180725,2.4173007011413574,-0.13858358561992645,0.0,0.0,0.0,0.0,0.0,0.0,0.0,-0.8191271278087071,-0.06601411143038877,-0.440268695018084,0.3542555451688171,0.15689431638082782,0.14991088130226518,-0.14335035060261664,0.8780795591822522,0.7553751449642796,-0.28255045960675523,-1.6690973246372198,0.14140923571660194,2.4034458294444616,1.0273415052013264,0.878092876070424,0.7554597494309409,-0.2825552651693207,-1.6690993614607135,0.1414185955172306,2.4034451173676383,1.0273381002308042,0.001184402078382587,0.0007185016282462418,0.0005193163938745647,-0.0003161991711136197,0.0004539020891188935,0.00010605126540483483,7.855061752105592e-05,0.0,0.0,0.0,0.0,0.0,0.0,0.0,1.3316888171743813e-05,8.460446666125332e-05,-4.805562565490806e-06,-2.036823493645201e-06,9.359800628661041e-06,-7.120768232837804e-07,-3.404970522202788e-06,-0.001184402078382587,-0.0007185016282462418,-0.0005193163938745647,0.0003161991711136197,-0.0004539020891188935,-0.00010605126540483483,-7.855061752105592e-05,0.8354122042655945,46.42501449584961,5.635891437530518,-19.559053421020508,-0.7308860421180725,-2.4173007011413574,0.13858358561992645,0
47,0.2300093173980713,-0.8354122042655945,-46.42501449584961,-5.635891437530518,19.559053421020508,0.7308860421180725,2.4173007011413574,-0.13858358561992645,0.0,0.0,0.0,0.0,0.0,0.0,0.0,-0.8191271278087071,-0.06601411143038877,-0.440268695018084,0.3542555451688171,0.15689431638082782,0.14991088130226518,-0.14335035060261664,0.8780795591822522,0.7553751449642796,-0.28255045960675523,-1.6690973246372198,0.14140923571660194,2.4034458294444616,1.0273415052013264,0.878092876070424,0.7554597494309409,-0.2825552651693207,-1.6690993614607135,0.1414185955172306,2.4034451173676383,1.0273381002308042,0.001184402078382587,0.0007185016282462418,0.0005193163938745647,-0.0003161991711136197,0.0004539020891188935,0.00010605126540483483,7.855061752105592e-05,0.0,0.0,0.0,0.0,0.0,0.0,0.0,1.3316888171743813e-05,8.460446666125332e-05,-4.805562565490806e-06,-2.036823493645201e-06,9.359800628661041e-06,-7.120768232837804e-07,-3.404970522202788e-06,-0.001184402078382587,-0.0007185016282462418,-0.0005193163938745647,0.0003161991711136197,-0.0004539020891188935,-0.00010605126540483483,-7.855061752105592e-05,0.8354122042655945,46.42501449584961,5.635891437530518,-19.559053421020508,-0.7308860421180725,-2.4173007011413574,0.13858358561992645,0
48,0.2350001335144043,-0.7838374972343445,-46.37740707397461,-5.564480304718018,19.559053421020508,0.7491965889930725,2.4173007011413574,-0.13217489421367645,0.0,0.0,0.0,0.0,0.0,0.0,0.0,-0.8211027926893538,-0.06858639303995885,-0.4464130156126946,0.3534084524853964,0.1573006908722177,0.150418317826167,-0.14261891044823838,0.8780745587404014,0.7553718310739431,-0.28255547124122027,-1.6690973324914267,0.14140731968415454,2.4034458294444616,1.0273407931245035,0.878092876070424,0.7554597494309409,-0.2825552651693207,-1.6690993614607135,0.1414185955172306,2.4034451173676383,1.0273381002308042,-0.00029279617682003713,-0.0006227356180766115,-0.0011811714188288025,-0.00013320024432841632,-0.0002453419072176822,-1.7340908135633428e-05,-0.00029173139933853375,0.0,0.0,0.0,0.0,0.0,0.0,0.0,1.8317330022554756e-05,8.791835699772932e-05,2.060718995444688e-07,-2.028969286804738e-06,1.1275833076057618e-05,-7.120768232837804e-07,-2.692893699363097e-06,0.00029279617682003713,0.0006227356180766115,0.0011811714188288025,0.00013320024432841632,0.0002453419072176822,1.7340908135633428e-05,0.00029173139933853375,0.7838374972343445,46.37740707397461,5.564480304718018,-19.559053421020508,-0.7491965889930725,-2.4173007011413574,0.13217489421367645,0
49,0.24000072479248047,-0.7838374972343445,-46.37740707397461,-5.564480304718018,19.559053421020508,0.7491965889930725,2.4173007011413574,-0.13217489421367645,0.0,0.0,0.0,0.0,0.0,0.0,0.0,-0.8211027926893538,-0.06858639303995885,-0.4464130156126946,0.3534084524853964,0.1573006908722177,0.150418317826167,-0.14261891044823838,0.8780745587404014,0.7553718310739431,-0.28255547124122027,-1.6690973324914267,0.14140731968415454,2.4034458294444616,1.0273407931245035,0.878092876070424,0.7554597494309409,-0.2825552651693207,-1.6690993614607135,0.1414185955172306,2.4034451173676383,1.0273381002308042,-0.00029279617682003713,-0.0006227356180766115,-0.0011811714188288025,-0.00013320024432841632,-0.0002453419072176822,-1.7340908135633428e-05,-0.00029173139933853375,0.0,0.0,0.0,0.0,0.0,0.0,0.0,1.8317330022554756e-05,8.791835699772932e-05,2.060718995444688e-07,-2.028969286804738e-06,1.1275833076057618e-05,-7.120768232837804e-07,-2.692893699363097e-06,0.00029279617682003713,0.0006227356180766115,0.0011811714188288025,0.00013320024432841632,0.0002453419072176822,1.7340908135633428e-05,0.00029173139933853375,0.7838374972343445,46.37740707397461,5.564480304718018,-19.559053421020508,-0.7491965889930725,-2.4173007011413574,0.13217489421367645,0
50,0.24499249458312988,-0.7838374972343445,-46.40121078491211,-5.612087726593018,19.559053421020508,0.7372947335243225,2.4044833183288574,-0.13217489421367645,0.0,0.0,0.0,0.0,0.0,0.0,0.0,-0.8282221129862902,-0.0782397609376428,-0.4547519903713415,0.3579469436282283,0.15765370795704975,0.15081178738491777,-0.14284137924447468,0.8780761970062071,0.7553735015099508,-0.28255213004246277,-1.6690966963815446,0.14140864205903708,2.4034472535981073,1.0273407931245035,0.878092876070424,0.7554597494309409,-0.2825552651693207,-1.6690993614607135,0.1414185955172306,2.4034451173676383,1.0273381002308042,-0.0010342746668975074,0.00020676894017937315,0.0003440774383724084,0.0005467994721959483,0.00017318601980016046,0.00032864268968317215,6.552312767559169e-05,0.0,0.0,0.0,0.0,0.0,0.0,0.0,1.6679064216873485e-05,8.624792099010126e-05,-3.1351268579560276e-06,-2.665079168906459e-06,9.953458193517895e-06,-2.136230468963163e-06,-2.692893699363097e-06,0.0010342746668975074,-0.00020676894017937315,-0.0003440774383724084,-0.0005467994721959483,-0.00017318601980016046,-0.00032864268968317215,-6.552312767559169e-05,0.7838374972343445,46.40121078491211,5.612087726593018,-19.559053421020508,-0.7372947335243225,-2.4044833183288574,0.13217489421367645,0
51,0.2500030994415283,-0.7838374972343445,-46.40121078491211,-5.612087726593018,19.559053421020508,0.7372947335243225,2.4044833183288574,-0.13217489421367645,0.0,0.0,0.0,0.0,0.0,0.0,0.0,-0.8282221129862902,-0.0782397609376428,-0.4547519903713415,0.3579469436282283,0.15765370795704975,0.15081178738491777,-0.14284137924447468,0.8780761970062071,0.7553735015099508,-0.28255213004246277,-1.6690966963815446,0.14140864205903708,2.4034472535981073,1.0273407931245035,0.878092876070424,0.7554597494309409,-0.2825552651693207,-1.6690993614607135,0.1414185955172306,2.4034451173676383,1.0273381002308042,-0.0010342746668975074,0.00020676894017937315,0.0003440774383724084,0.0005467994721959483,0.00017318601980016046,0.00032864268968317215,6.552312767559169e-05,0.0,0.0,0.0,0.0,0.0,0.0,0.0,1.6679064216873485e-05,8.624792099010126e-05,-3.1351268579560276e-06,-2.665079168906459e-06,9.953458193517895e-06,-2.136230468963163e-06,-2.692893699363097e-06,0.0010342746668975074,-0.00020676894017937315,-0.0003440774383724084,-0.0005467994721959483,-0.00017318601980016046,-0.00032864268968317215,-6.552312767559169e-05,0.7838374972343445,46.40121078491211,5.612087726593018,-19.559053421020508,-0.7372947335243225,-2.4044833183288574,0.13217489421367645,0
52,0.25504446029663086,-0.7560665011405945,-46.40121078491211,-5.588284015655518,19.535249710083008,0.7491965889930725,2.4173007011413574,-0.09738485515117645,0.0,0.0,0.0,0.0,0.0,0.0,0.0,-0.8129577674654126,-0.07810571978648438,-0.44146429176117225,0.3607577790640287,0.15751624634862763,0.1498518836895835,-0.14210380871352185,0.8780727687912329,0.7553735015099508,-0.2825538004783162,-1.6690928805019352,0.141407319684823,2.4034458294444616,1.0273369275646078,0.878092876070424,0.7554597494309409,-0.2825552651693207,-1.6690993614607135,0.1414185955172306,2.4034451173676383,1.0273381002308042,-0.0010735813173738521,0.00010769460841652859,-0.000605517572112442,0.0006708390798337386,-0.00037466728648906524,-9.490415394134597e-05,-0.001819950479691197,0.0,0.0,0.0,0.0,0.0,0.0,0.0,2.010727919110611e-05,8.624792099010126e-05,-1.4646910045379435e-06,-6.480958778309898e-06,1.1275832407592334e-05,-7.120768232837804e-07,1.1726661963695761e-06,0.0010735813173738521,-0.00010769460841652859,0.000605517572112442,-0.0006708390798337386,0.00037466728648906524,9.490415394134597e-05,0.001819950479691197,0.7560665011405945,46.40121078491211,5.588284015655518,-19.535249710083008,-0.7491965889930725,-2.4173007011413574,0.09738485515117645,0
53,0.25995898246765137,-0.7560665011405945,-46.40121078491211,-5.588284015655518,19.535249710083008,0.7491965889930725,2.4173007011413574,-0.09738485515117645,0.0,0.0,0.0,0.0,0.0,0.0,0.0,-0.8129577674654126,-0.07810571978648438,-0.44146429176117225,0.3607577790640287,0.15751624634862763,0.1498518836895835,-0.14210380871352185,0.8780727687912329,0.7553735015099508,-0.2825538004783162,-1.6690928805019352,0.141407319684823,2.4034458294444616,1.0273369275646078,0.878092876070424,0.7554597494309409,-0.2825552651693207,-1.6690993614607135,0.1414185955172306,2.4034451173676383,1.0273381002308042,-0.0010735813173738521,0.00010769460841652859,-0.000605517572112442,0.0006708390798337386,-0.00037466728648906524,-9.490415394134597e-05,-0.001819950479691197,0.0,0.0,0.0,0.0,0.0,0.0,0.0,2.010727919110611e-05,8.624792099010126e-05,-1.4646910045379435e-06,-6.480958778309898e-06,1.1275832407592334e-05,-7.120768232837804e-07,1.1726661963695761e-06,0.0010735813173738521,-0.00010769460841652859,0.000605517572112442,-0.0006708390798337386,0.00037466728648906524,9.490415394134597e-05,0.001819950479691197,0.7560665011405945,46.40121078491211,5.588284015655518,-19.535249710083008,-0.7491965889930725,-2.4173007011413574,0.09738485515117645,0
54,0.26499223709106445,-0.8592159152030945,-46.37740707397461,-5.635891437530518,19.535249710083008,0.7491965889930725,2.4044833183288574,-0.17978231608867645,0.0,0.0,0.0,0.0,0.0,0.0,0.0,-0.8347974715287422,-0.07970541575183371,-0.458888589342117,0.3596760574276554,0.15823489769923377,0.14983214703103045,-0.1407900203353673,0.8780797722648599,0.7553718310740954,-0.28255045964294445,-1.6690957415127734,0.14140412090222038,2.4034472535981073,1.0273460828380452,0.878092876070424,0.7554597494309409,-0.2825552651693207,-1.6690993614607135,0.1414185955172306,2.4034451173676383,1.0273381002308042,0.0006635031400776177,-0.0005886932853445819,0.00017318152909550906,0.0006779214701296219,-0.0003523509440083684,0.0002688976518619835,0.001070716009584416,0.0,0.0,0.0,0.0,0.0,0.0,0.0,1.31038055640742e-05,8.791835684540672e-05,-4.8055263762725176e-06,-3.619947940070034e-06,1.4474615010223735e-05,-2.136230468963163e-06,-7.982607240997197e-06,-0.0006635031400776177,0.0005886932853445819,-0.00017318152909550906,-0.0006779214701296219,0.0003523509440083684,-0.0002688976518619835,-0.001070716009584416,0.8592159152030945,46.37740707397461,5.635891437530518,-19.535249710083008,-0.7491965889930725,-2.4044833183288574,0.17978231608867645,0
55,0.26999616622924805,-0.8592159152030945,-46.37740707397461,-5.635891437530518,19.535249710083008,0.7491965889930725,2.4044833183288574,-0.17978231608867645,0.0,0.0,0.0,0.0,0.0,0.0,0.0,-0.8347974715287422,-0.07970541575183371,-0.458888589342117,0.3596760574276554,0.15823489769923377,0.14983214703103045,-0.1407900203353673,0.8780797722648599,0.7553718310740954,-0.28255045964294445,-1.6690957415127734,0.14140412090222038,2.4034472535981073,1.0273460828380452,0.878092876070424,0.7554597494309409,-0.2825552651693207,-1.6690993614607135,0.1414185955172306,2.4034451173676383,1.0273381002308042,0.0006635031400776177,-0.0005886932853445819,0.00017318152909550906,0.0006779214701296219,-0.0003523509440083684,0.0002688976518619835,0.001070716009584416,0.0,0.0,0.0,0.0,0.0,0.0,0.0,1.31038055640742e-05,8.791835684540672e-05,-4.8055263762725176e-06,-3.619947940070034e-06,1.4474615010223735e-05,-2.136230468963163e-06,-7.982607240997197e-06,-0.0006635031400776177,0.0005886932853445819,-0.00017318152909550906,-0.0006779214701296219,0.0003523509440083684,-0.0002688976518619835,-0.001070716009584416,0.8592159152030945,46.37740707397461,5.635891437530518,-19.535249710083008,-0.7491965889930725,-2.4044833183288574,0.17978231608867645,0
56,0.2750108242034912,-0.8354122042655945,-46.40121078491211,-5.564480304718018,19.535249710083008,0.7427878975868225,2.4108920097351074,-0.15964071452617645,0.0,0.0,0.0,0.0,0.0,0.0,0.0,-0.8128065012608992,-0.06776878235521651,-0.44141710864115924,0.35616510408898605,0.1571249025700575,0.1479269534935881,-0.14158986274920782,0.8780802843707408,0.7553735015099508,-0.2825554709141715,-1.6690957421466863,0.1414080317556272,2.403446541539229,1.0273438447208105,0.878092876070424,0.7554597494309409,-0.2825552651693207,-1.6690993614607135,0.1414185955172306,2.4034451173676383,1.0273381002308042,0.0002473963714152604,-4.0533415960087914e-05,-0.001688551329095988,0.00048771130520311587,-0.00018512445084546065,0.00011128490738260381,0.0007544822496057487,0.0,0.0,0.0,0.0,0.0,0.0,0.0,1.2591699683150992e-05,8.624792099010126e-05,2.057448507675197e-07,-3.6193140271478796e-06,1.0563761603410438e-05,-1.4241715908802632e-06,-5.744490006343028e-06,-0.0002473963714152604,4.0533415960087914e-05,0.001688551329095988,-0.00048771130520311587,0.00018512445084546065,-0.00011128490738260381,-0.0007544822496057487,0.8354122042655945,46.40121078491211,5.564480304718018,-19.535249710083008,-0.7427878975868225,-2.4108920097351074,0.15964071452617645,0
57,0.2799973487854004,-0.8354122042655945,-46.40121078491211,-5.564480304718018,19.535249710083008,0.7427878975868225,2.4108920097351074,-0.15964071452617645,0.0,0.0,0.0,0.0,0.0,0.0,0.0,-0.8128065012608992,-0.06776878235521651,-0.44141710864115924,0.35616510408898605,0.1571249025700575,0.1479269534935881,-0.14158986274920782,0.8780802843707408,0.7553735015099508,-0.2825554709141715,-1.6690957421466863,0.1414080317556272,2.403446541539229,1.0273438447208105,0.878092876070424,0.7554597494309409,-0.2825552651693207,-1.6690993614607135,0.1414185955172306,2.4034451173676383,1.0273381002308042,0.0002473963714152604,-4.0533415960087914e-05,-0.001688551329095988,0.00048771130520311587,-0.00018512445084546065,0.00011128490738260381,0.0007544822496057487,0.0,0.0,0.0,0.0,0.0,0.0,0.0,1.2591699683150992e-05,8.624792099010126e-05,2.057448507675197e-07,-3.6193140271478796e-06,1.0563761603410438e-05,-1.4241715908802632e-06,-5.744490006343028e-06,-0.0002473963714152604,4.0533415960087914e-05,0.001688551329095988,-0.00048771130520311587,0.00018512445084546065,-0.00011128490738260381,-0.0007544822496057487,0.8354122042655945,46.40121078491211,5.564480304718018,-19.535249710083008,-0.7427878975868225,-2.4108920097351074,0.15964071452617645,0
58,0.28499484062194824,-0.8354122042655945,-46.37740707397461,-5.588284015655518,19.535249710083008,0.7372947335243225,2.4301180839538574,-0.11844198405742645,0.0,0.0,0.0,0.0,0.0,0.0,0.0,-0.8210351543793107,-0.07223330938023556,-0.44904180157204804,0.35586458593605463,0.15678702728991423,0.14849393306406644,-0.14366248888002114,0.8780784035728033,0.7553718310740954,-0.28255383579958715,-1.6690957414925887,0.141408523639779,2.4034444052908155,1.0273392672455963,0.878092876070424,0.7554597494309409,-0.2825552651693207,-1.6690993614607135,0.1414185955172306,2.4034451173676383,1.0273381002308042,8.211958398447078e-05,-0.0008282041006107146,-0.000871821131037777,3.3003311402562084e-05,8.964662539963136e-05,-0.0005084066768203291,-0.00121105371395999,0.0,0.0,0.0,0.0,0.0,0.0,0.0,1.4472497620654501e-05,8.791835684540672e-05,-1.429369733574326e-06,-3.6199681248128e-06,1.0071877451611755e-05,7.120768228396912e-07,-1.1670147921361007e-06,-8.211958398447078e-05,0.0008282041006107146,0.000871821131037777,-3.3003311402562084e-05,-8.964662539963136e-05,0.0005084066768203291,0.00121105371395999,0.8354122042655945,46.37740707397461,5.588284015655518,-19.535249710083008,-0.7372947335243225,-2.4301180839538574,0.11844198405742645,0
59,0.2900204658508301,-0.8354122042655945,-46.37740707397461,-5.588284015655518,19.535249710083008,0.7372947335243225,2.4301180839538574,-0.11844198405742645,0.0,0.0,0.0,0.0,0.0,0.0,0.0,-0.8210351543793107,-0.07223330938023556,-0.44904180157204804,0.35586458593605463,0.15678702728991423,0.14849393306406644,-0.14366248888002114,0.8780784035728033,0.7553718310740954,-0.28255383579958715,-1.6690957414925887,0.141408523639779,2.4034444052908155,1.0273392672455963,0.878092876070424,0.7554597494309409,-0.2825552651693207,-1.6690993614607135,0.1414185955172306,2.4034451173676383,1.0273381002308042,8.211958398447078e-05,-0.0008282041006107146,-0.000871821131037777,3.3003311402562084e-05,8.964662539963136e-05,-0.0005084066768203291,-0.00121105371395999,0.0,0.0,0.0,0.0,0.0,0.0,0.0,1.4472497620654501e-05,8.791835684540672e-05,-1.429369733574326e-06,-3.6199681248128e-06,1.0071877451611755e-05,7.120768228396912e-07,-1.1670147921361007e-06,-8.211958398447078e-05,0.0008282041006107146,0.000871821131037777,-3.3003311402562084e-05,-8.964662539963136e-05,0.0005084066768203291,0.00121105371395999,0.8354122042655945,46.37740707397461,5.588284015655518,-19.535249710083008,-0.7372947335243225,-2.4301180839538574,0.11844198405742645,0
60,0.2950448989868164,-0.8354122042655945,-46.34963607788086,-5.635891437530518,19.559053421020508,0.7372947335243225,2.4173007011413574,-0.16604940593242645,0.0,0.0,0.0,0.0,0.0,0.0,0.0,-0.8156295890268064,-0.08322878078733807,-0.4464641431351458,0.3612589665077562,0.15668429748607307,0.15077335295288005,-0.14514972909345697,0.8780783368394138,0.7553698822322643,-0.28255045960667213,-1.669097297788411,0.14140864211298584,2.4034458294444616,1.027344556959139,0.878092876070424,0.7554597494309409,-0.2825552651693207,-1.6690993614607135,0.1414185955172306,2.4034451173676383,1.0273381002308042,-8.903604668943636e-06,-0.001548300713194761,0.0002920153220533137,0.0002827701036811476,0.00029630156866451197,-0.0001303150804782732,0.0009406771436853901,0.0,0.0,0.0,0.0,0.0,0.0,0.0,1.4539231010135545e-05,8.986719867654092e-05,-4.805562648591e-06,-2.0636723023770287e-06,9.95340424475577e-06,-7.120768232837804e-07,-6.456728334880424e-06,8.903604668943636e-06,0.001548300713194761,-0.0002920153220533137,-0.0002827701036811476,-0.00029630156866451197,0.0001303150804782732,-0.0009406771436853901,0.8354122042655945,46.34963607788086,5.635891437530518,-19.559053421020508,-0.7372947335243225,-2.4173007011413574,0.16604940593242645,0
61,0.30001139640808105,-0.8354122042655945,-46.34963607788086,-5.635891437530518,19.559053421020508,0.7372947335243225,2.4173007011413574,-0.16604940593242645,0.0,0.0,0.0,0.0,0.0,0.0,0.0,-0.8156295890268064,-0.08322878078733807,-0.4464641431351458,0.3612589665077562,0.15668429748607307,0.15077335295288005,-0.14514972909345697,0.8780783368394138,0.7553698822322643,-0.28255045960667213,-1.669097297788411,0.14140864211298584,2.4034458294444616,1.027344556959139,0.878092876070424,0.7554597494309409,-0.2825552651693207,-1.6690993614607135,0.1414185955172306,2.4034451173676383,1.0273381002308042,-8.903604668943636e-06,-0.001548300713194761,0.0002920153220533137,0.0002827701036811476,0.00029630156866451197,-0.0001303150804782732,0.0009406771436853901,0.0,0.0,0.0,0.0,0.0,0.0,0.0,1.4539231010135545e-05,8.986719867654092e-05,-4.805562648591e-06,-2.0636723023770287e-06,9.95340424475577e-06,-7.120768232837804e-07,-6.456728334880424e-06,8.903604668943636e-06,0.001548300713194761,-0.0002920153220533137,-0.0002827701036811476,-0.00029630156866451197,0.0001303150804782732,-0.0009406771436853901,0.8354122042655945,46.34963607788086,5.635891437530518,-19.559053421020508,-0.7372947335243225,-2.4173007011413574,0.16604940593242645,0
62,0.30499768257141113,-0.8354122042655945,-46.42501449584961,-5.635891437530518,19.559053421020508,0.7491965889930725,2.4108920097351074,-0.13217489421367645,0.0,0.0,0.0,0.0,0.0,0.0,0.0,-0.8175113624505577,-0.06677236534873801,-0.44288205706163936,0.35233420761842943,0.1566131767228414,0.14938794733988367,-0.14475444915164384,0.8780784113726232,0.7553751719458061,-0.28255046255004496,-1.6690974129452811,0.1414073196848233,2.4034465415212845,1.0273407931245035,0.878092876070424,0.7554597494309409,-0.2825552651693207,-1.6690993614607135,0.1414185955172306,2.4034451173676383,1.0273381002308042,0.00015193932012354299,0.0008288237481578879,0.0009000894456909525,0.00025168877012492034,-0.0003748925941633813,8.937067818072277e-05,-0.00039619123616463906,0.0,0.0,0.0,0.0,0.0,0.0,0.0,1.4464697800753434e-05,8.45774851347958e-05,-4.80261927576775e-06,-1.9485154323373166e-06,1.1275832407287023e-05,-1.4241536461234716e-06,-2.692893699363097e-06,-0.00015193932012354299,-0.0008288237481578879,-0.0009000894456909525,-0.00025168877012492034,0.0003748925941633813,-8.937067818072277e-05,0.00039619123616463906,0.8354122042655945,46.42501449584961,5.635891437530518,-19.559053421020508,-0.7491965889930725,-2.4108920097351074,0.13217489421367645,0
63,0.3099970817565918,-0.8354122042655945,-46.42501449584961,-5.635891437530518,19.559053421020508,0.7491965889930725,2.4108920097351074,-0.13217489421367645,0.0,0.0,0.0,0.0,0.0,0.0,0.0,-0.8175113624505577,-0.06677236534873801,-0.44288205706163936,0.35233420761842943,0.1566131767228414,0.14938794733988367,-0.14475444915164384,0.8780784113726232,0.7553751719458061,-0.28255046255004496,-1.6690974129452811,0.1414073196848233,2.4034465415212845,1.0273407931245035,0.878092876070424,0.7554597494309409,-0.2825552651693207,-1.6690993614607135,0.1414185955172306,2.4034451173676383,1.0273381002308042,0.00015193932012354299,0.0008288237481578879,0.0009000894456909525,0.00025168877012492034,-0.0003748925941633813,8.937067818072277e-05,-0.00039619123616463906,0.0,0.0,0.0,0.0,0.0,0.0,0.0,1.4464697800753434e-05,8.45774851347958e-05,-4.80261927576775e-06,-1.9485154323373166e-06,1.1275832407287023e-05,-1.4241536461234716e-06,-2.692893699363097e-06,-0.00015193932012354299,-0.0008288237481578879,-0.0009000894456909525,-0.00025168877012492034,0.0003748925941633813,-8.937067818072277e-05,0.00039619123616463906,0.8354122042655945,46.42501449584961,5.635891437530518,-19.559053421020508,-0.7491965889930725,-2.4108920097351074,0.13217489421367645,0
64,0.31499814987182617,-0.8354122042655945,-46.42501449584961,-5.635891437530518,19.559053421020508,0.7491965889930725,2.4108920097351074,-0.13217489421367645,0.0,0.0,0.0,0.0,0.0,0.0,0.0,-0.8175113624505577,-0.06677236534873801,-0.44288205706163936,0.35233420761842943,0.1566131767228414,0.14938794733988367,-0.14475444915164384,0.8780784113726232,0.7553751719458061,-0.28255046255004496,-1.6690974129452811,0.1414073196848233,2.4034465415212845,1.0273407931245035,0.878092876070424,0.7554597494309409,-0.2825552651693207,-1.6690993614607135,0.1414185955172306,2.4034451173676383,1.0273381002308042,0.00015193932012354299,0.0008288237481578879,0.0009000894456909525,0.00025168877012492034,-0.0003748925941633813,8.937067818072277e-05,-0.00039619123616463906,0.0,0.0,0.0,0.0,0.0,0.0,0.0,1.4464697800753434e-05,8.45774851347958e-05,-4.80261927576775e-06,-1.9485154323373166e-06,1.1275832407287023e-05,-1.4241536461234716e-06,-2.692893699363097e-06,-0.00015193932012354299,-0.0008288237481578879,-0.0009000894456909525,-0.00025168877012492034,0.0003748925941633813,-8.937067818072277e-05,0.00039619123616463906,0.8354122042655945,46.42501449584961,5.635891437530518,-19.559053421020508,-0.7491965889930725,-2.4108920097351074,0.13217489421367645,0
65,0.32001256942749023,-0.8354122042655945,-46.42501449584961,-5.635891437530518,19.559053421020508,0.7491965889930725,2.4108920097351074,-0.13217489421367645,0.0,0.0,0.0,0.0,0.0,0.0,0.0,-0.8175113624505577,-0.06677236534873801,-0.44288205706163936,0.35233420761842943,0.1566131767228414,0.14938794733988367,-0.14475444915164384,0.8780784113726232,0.7553751719458061,-0.28255046255004496,-1.6690974129452811,0.1414073196848233,2.4034465415212845,1.0273407931245035,0.878092876070424,0.7554597494309409,-0.2825552651693207,-1.6690993614607135,0.1414185955172306,2.4034451173676383,1.0273381002308042,0.00015193932012354299,0.0008288237481578879,0.0009000894456909525,0.00025168877012492034,-0.0003748925941633813,8.937067818072277e-05,-0.00039619123616463906,0.0,0.0,0.0,0.0,0.0,0.0,0.0,1.4464697800753434e-05,8.45774851347958e-05,-4.80261927576775e-06,-1.9485154323373166e-06,1.1275832407287023e-05,-1.4241536461234716e-06,-2.692893699363097e-06,-0.00015193932012354299,-0.0008288237481578879,-0.0009000894456909525,-0.00025168877012492034,0.0003748925941633813,-8.937067818072277e-05,0.00039619123616463906,0.8354122042655945,46.42501449584961,5.635891437530518,-19.559053421020508,-0.7491965889930725,-2.4108920097351074,0.13217489421367645,0
66,0.3249983787536621,-0.8354122042655945,-46.34963607788086,-5.564480304718018,19.559053421020508,0.7546897530555725,2.4237093925476074,-0.15964071452617645,0.0,0.0,0.0,0.0,0.0,0.0,0.0,-0.8302711946489656,-0.07068142166263053,-0.4508323894088705,0.3541455307665882,0.15677172236882705,0.14930119687097448,-0.144189484265757,0.8780805199797053,0.7553698822322643,-0.282555470914177,-1.6690974129459313,0.14140670933326083,2.4034451173676383,1.027343844882316,0.878092876070424,0.7554597494309409,-0.2825552651693207,-1.6690993614607135,0.1414185955172306,2.4034451173676383,1.0273381002308042,0.0003492674457791557,-0.0012496473011011306,-0.001627043491070534,0.00010451568641314763,-0.0006971052160796963,-0.00028654649962581077,0.0002683699717662349,0.0,0.0,0.0,0.0,0.0,0.0,0.0,1.2356090718701473e-05,8.986719867654092e-05,2.0574485626312367e-07,-1.9485147821907134e-06,1.188618396977259e-05,0.0,-5.744651511818688e-06,-0.0003492674457791557,0.0012496473011011306,0.001627043491070534,-0.00010451568641314763,0.0006971052160796963,0.00028654649962581077,-0.0002683699717662349,0.8354122042655945,46.34963607788086,5.564480304718018,-19.559053421020508,-0.7546897530555725,-2.4237093925476074,0.15964071452617645,0
67,0.3300328254699707,-0.8354122042655945,-46.34963607788086,-5.564480304718018,19.559053421020508,0.7546897530555725,2.4237093925476074,-0.15964071452617645,0.0,0.0,0.0,0.0,0.0,0.0,0.0,-0.8302711946489656,-0.07068142166263053,-0.4508323894088705,0.3541455307665882,0.15677172236882705,0.14930119687097448,-0.144189484265757,0.8780805199797053,0.7553698822322643,-0.282555470914177,-1.6690974129459313,0.14140670933326083,2.4034451173676383,1.027343844882316,0.878092876070424,0.7554597494309409,-0.2825552651693207,-1.6690993614607135,0.1414185955172306,2.4034451173676383,1.0273381002308042,0.0003492674457791557,-0.0012496473011011306,-0.001627043491070534,0.00010451568641314763,-0.0006971052160796963,-0.00028654649962581077,0.0002683699717662349,0.0,0.0,0.0,0.0,0.0,0.0,0.0,1.2356090718701473e-05,8.986719867654092e-05,2.0574485626312367e-07,-1.9485147821907134e-06,1.188618396977259e-05,0.0,-5.744651511818688e-06,-0.0003492674457791557,0.0012496473011011306,0.001627043491070534,-0.00010451568641314763,0.0006971052160796963,0.00028654649962581077,-0.0002683699717662349,0.8354122042655945,46.34963607788086,5.564480304718018,-19.559053421020508,-0.7546897530555725,-2.4237093925476074,0.15964071452617645,0
68,0.33504629135131836,-0.7838374972343445,-46.44881820678711,-5.588284015655518,19.586824417114258,0.7308860421180725,2.4173007011413574,-0.14590780436992645,0.0,0.0,0.0,0.0,0.0,0.0,0.0,-0.8242015302680633,-0.07691434680862438,-0.4482784024713178,0.3606196716405636,0.1573090080853471,0.14918873281828174,-0.14565743403170908,0.8780767969184563,0.7553768423816613,-0.2825538004783162,-1.669096977492955,0.14140935419003167,2.4034458294444616,1.0273423190034099,0.878092876070424,0.7554597494309409,-0.2825552651693207,-1.6690993614607135,0.1414185955172306,2.4034451173676383,1.0273381002308042,-0.0003908825298388843,0.0012691997496797097,-0.0007256292540809213,5.2357923174952275e-05,-0.001815773519396523,-0.00017227660872446514,-0.0001327251437801295,0.0,0.0,0.0,0.0,0.0,0.0,0.0,1.6079151967662852e-05,8.290704927960135e-05,-1.4646910045379435e-06,-2.3839677585346664e-06,9.241327198927785e-06,-7.120768232837804e-07,-4.218772605701915e-06,0.0003908825298388843,-0.0012691997496797097,0.0007256292540809213,-5.2357923174952275e-05,0.001815773519396523,0.00017227660872446514,0.0001327251437801295,0.7838374972343445,46.44881820678711,5.588284015655518,-19.586824417114258,-0.7308860421180725,-2.4173007011413574,0.14590780436992645,0
69,0.34001874923706055,-0.7838374972343445,-46.44881820678711,-5.588284015655518,19.586824417114258,0.7308860421180725,2.4173007011413574,-0.14590780436992645,0.0,0.0,0.0,0.0,0.0,0.0,0.0,-0.8242015302680633,-0.07691434680862438,-0.4482784024713178,0.3606196716405636,0.1573090080853471,0.14918873281828174,-0.14565743403170908,0.8780767969184563,0.7553768423816613,-0.2825538004783162,-1.669096977492955,0.14140935419003167,2.4034458294444616,1.0273423190034099,0.878092876070424,0.7554597494309409,-0.2825552651693207,-1.6690993614607135,0.1414185955172306,2.4034451173676383,1.0273381002308042,-0.0003908825298388843,0.0012691997496797097,-0.0007256292540809213,5.2357923174952275e-05,-0.001815773519396523,-0.00017227660872446514,-0.0001327251437801295,0.0,0.0,0.0,0.0,0.0,0.0,0.0,1.6079151967662852e-05,8.290704927960135e-05,-1.4646910045379435e-06,-2.3839677585346664e-06,9.241327198927785e-06,-7.120768232837804e-07,-4.218772605701915e-06,0.0003908825298388843,-0.0012691997496797097,0.0007256292540809213,-5.2357923174952275e-05,0.001815773519396523,0.00017227660872446514,0.0001327251437801295,0.7838374972343445,46.44881820678711,5.588284015655518,-19.586824417114258,-0.7308860421180725,-2.4173007011413574,0.14590780436992645,0
70,0.34501004219055176,-0.7838374972343445,-46.44881820678711,-5.588284015655518,19.586824417114258,0.7308860421180725,2.4173007011413574,-0.14590780436992645,0.0,0.0,0.0,0.0,0.0,0.0,0.0,-0.8242015302680633,-0.07691434680862438,-0.4482784024713178,0.3606196716405636,0.1573090080853471,0.14918873281828174,-0.14565743403170908,0.8780767969184563,0.7553768423816613,-0.2825538004783162,-1.669096977492955,0.14140935419003167,2.4034458294444616,1.0273423190034099,0.878092876070424,0.7554597494309409,-0.2825552651693207,-1.6690993614607135,0.1414185955172306,2.4034451173676383,1.0273381002308042,-0.0003908825298388843,0.0012691997496797097,-0.0007256292540809213,5.2357923174952275e-05,-0.001815773519396523,-0.00017227660872446514,-0.0001327251437801295,0.0,0.0,0.0,0.0,0.0,0.0,0.0,1.6079151967662852e-05,8.290704927960135e-05,-1.4646910045379435e-06,-2.3839677585346664e-06,9.241327198927785e-06,-7.120768232837804e-07,-4.218772605701915e-06,0.0003908825298388843,-0.0012691997496797097,0.0007256292540809213,-5.2357923174952275e-05,0.001815773519396523,0.00017227660872446514,0.0001327251437801295,0.7838374972343445,46.44881820678711,5.588284015655518,-19.586824417114258,-0.7308860421180725,-2.4173007011413574,0.14590780436992645,0
71,0.3499479293823242,-0.7838374972343445,-46.44881820678711,-5.588284015655518,19.586824417114258,0.7308860421180725,2.4173007011413574,-0.14590780436992645,0.0,0.0,0.0,0.0,0.0,0.0,0.0,-0.8242015302680633,-0.07691434680862438,-0.4482784024713178,0.3606196716405636,0.1573090080853471,0.14918873281828174,-0.14565743403170908,0.8780767969184563,0.7553768423816613,-0.2825538004783162,-1.669096977492955,0.14140935419003167,2.4034458294444616,1.0273423190034099,0.878092876070424,0.7554597494309409,-0.2825552651693207,-1.6690993614607135,0.1414185955172306,2.4034451173676383,1.0273381002308042,-0.0003908825298388843,0.0012691997496797097,-0.0007256292540809213,5.2357923174952275e-05,-0.001815773519396523,-0.00017227660872446514,-0.0001327251437801295,0.0,0.0,0.0,0.0,0.0,0.0,0.0,1.6079151967662852e-05,8.290704927960135e-05,-1.4646910045379435e-06,-2.3839677585346664e-06,9.241327198927785e-06,-7.120768232837804e-07,-4.218772605701915e-06,0.0003908825298388843,-0.0012691997496797097,0.0007256292540809213,-5.2357923174952275e-05,0.001815773519396523,0.00017227660872446514,0.0001327251437801295,0.7838374972343445,46.44881820678711,5.588284015655518,-19.586824417114258,-0.7308860421180725,-2.4173007011413574,0.14590780436992645,0
72,0.3549954891204834,-0.7838374972343445,-46.44881820678711,-5.588284015655518,19.586824417114258,0.7308860421180725,2.4173007011413574,-0.14590780436992645,0.0,0.0,0.0,0.0,0.0,0.0,0.0,-0.8242015302680633,-0.07691434680862438,-0.4482784024713178,0.3606196716405636,0.1573090080853471,0.14918873281828174,-0.14565743403170908,0.8780767969184563,0.7553768423816613,-0.2825538004783162,-1.669096977492955,0.14140935419003167,2.4034458294444616,1.0273423190034099,0.878092876070424,0.7554597494309409,-0.2825552651693207,-1.6690993614607135,0.1414185955172306,2.4034451173676383,1.0273381002308042,-0.0003908825298388843,0.0012691997496797097,-0.0007256292540809213,5.2357923174952275e-05,-0.001815773519396523,-0.00017227660872446514,-0.0001327251437801295,0.0,0.0,0.0,0.0,0.0,0.0,0.0,1.6079151967662852e-05,8.290704927960135e-05,-1.4646910045379435e-06,-2.3839677585346664e-06,9.241327198927785e-06,-7.120768232837804e-07,-4.218772605701915e-06,0.0003908825298388843,-0.0012691997496797097,0.0007256292540809213,-5.2357923174952275e-05,0.001815773519396523,0.00017227660872446514,0.0001327251437801295,0.7838374972343445,46.44881820678711,5.588284015655518,-19.586824417114258,-0.7308860421180725,-2.4173007011413574,0.14590780436992645,0
73,0.3599982261657715,-0.8076412081718445,-46.40121078491211,-5.612087726593018,19.535249710083008,0.7372947335243225,2.4237093925476074,-0.14590780436992645,0.0,0.0,0.0,0.0,0.0,0.0,0.0,-0.8078250901346878,-0.06790784331750423,-0.4396044006084365,0.35399774051956,0.155161483219545,0.14797027334354576,-0.14652858490858106,0.8780778665504353,0.7553735015099508,-0.28255215947690326,-1.6690954746530167,0.14140864211320875,2.4034451173676383,1.0273423190034099,0.878092876070424,0.7554597494309409,-0.2825552651693207,-1.6690993614607135,0.1414185955172306,2.4034451173676383,1.0273381002308042,0.0002698757082131144,3.727291812713664e-05,0.0003389227696050964,0.0004037857489097686,4.2648948263955804e-05,-0.00034877863551211104,-1.531964434922193e-05,0.0,0.0,0.0,0.0,0.0,0.0,0.0,1.5009519988673503e-05,8.624792099010126e-05,-3.1056924174599487e-06,-3.886807696806827e-06,9.953404021850742e-06,0.0,-4.218772605701915e-06,-0.0002698757082131144,-3.727291812713664e-05,-0.0003389227696050964,-0.0004037857489097686,-4.2648948263955804e-05,0.00034877863551211104,1.531964434922193e-05,0.8076412081718445,46.40121078491211,5.612087726593018,-19.535249710083008,-0.7372947335243225,-2.4237093925476074,0.14590780436992645,0
74,0.36501026153564453,-0.8076412081718445,-46.40121078491211,-5.612087726593018,19.535249710083008,0.7372947335243225,2.4237093925476074,-0.14590780436992645,0.0,0.0,0.0,0.0,0.0,0.0,0.0,-0.8078250901346878,-0.06790784331750423,-0.4396044006084365,0.35399774051956,0.155161483219545,0.14797027334354576,-0.14652858490858106,0.8780778665504353,0.7553735015099508,-0.28255215947690326,-1.6690954746530167,0.14140864211320875,2.4034451173676383,1.0273423190034099,0.878092876070424,0.7554597494309409,-0.2825552651693207,-1.6690993614607135,0.1414185955172306,2.4034451173676383,1.0273381002308042,0.0002698757082131144,3.727291812713664e-05,0.0003389227696050964,0.0004037857489097686,4.2648948263955804e-05,-0.00034877863551211104,-1.531964434922193e-05,0.0,0.0,0.0,0.0,0.0,0.0,0.0,1.5009519988673503e-05,8.624792099010126e-05,-3.1056924174599487e-06,-3.886807696806827e-06,9.953404021850742e-06,0.0,-4.218772605701915e-06,-0.0002698757082131144,-3.727291812713664e-05,-0.0003389227696050964,-0.0004037857489097686,-4.2648948263955804e-05,0.00034877863551211104,1.531964434922193e-05,0.8076412081718445,46.40121078491211,5.612087726593018,-19.535249710083008,-0.7372947335243225,-2.4237093925476074,0.14590780436992645,0
75,0.3699986934661865,-0.7560665011405945,-46.37740707397461,-5.588284015655518,19.535249710083008,0.7372947335243225,2.4173007011413574,-0.11844198405742645,0.0,0.0,0.0,0.0,0.0,0.0,0.0,-0.8247362579772591,-0.07974357670975428,-0.4555239831583334,0.3584853906583991,0.1554828904798822,0.14939664329716268,-0.14670468923507535,0.8780749172206956,0.7553718310740954,-0.2825538004788147,-1.6690928549916373,0.14140864211320875,2.4034461826571714,1.0273392672455972,0.878092876070424,0.7554597494309409,-0.2825552651693207,-1.6690993614607135,0.1414185955172306,2.4034451173676383,1.0273381002308042,-0.0013823096688248555,-0.00046332115690373864,-0.0011710571966721333,0.0007865050483269811,7.74653555856764e-05,-1.4441477273356048e-05,-0.0007948472929955605,0.0,0.0,0.0,0.0,0.0,0.0,0.0,1.795884972832784e-05,8.791835684540672e-05,-1.4646905060478055e-06,-6.506469076184018e-06,9.953404021850742e-06,-1.0652895330309775e-06,-1.1670147930242791e-06,0.0013823096688248555,0.00046332115690373864,0.0011710571966721333,-0.0007865050483269811,-7.74653555856764e-05,1.4441477273356048e-05,0.0007948472929955605,0.7560665011405945,46.37740707397461,5.588284015655518,-19.535249710083008,-0.7372947335243225,-2.4173007011413574,0.11844198405742645,0
76,0.37499380111694336,-0.7560665011405945,-46.37740707397461,-5.588284015655518,19.535249710083008,0.7372947335243225,2.4173007011413574,-0.11844198405742645,0.0,0.0,0.0,0.0,0.0,0.0,0.0,-0.8247362579772591,-0.07974357670975428,-0.4555239831583334,0.3584853906583991,0.1554828904798822,0.14939664329716268,-0.14670468923507535,0.8780749172206956,0.7553718310740954,-0.2825538004788147,-1.6690928549916373,0.14140864211320875,2.4034461826571714,1.0273392672455972,0.878092876070424,0.7554597494309409,-0.2825552651693207,-1.6690993614607135,0.1414185955172306,2.4034451173676383,1.0273381002308042,-0.0013823096688248555,-0.00046332115690373864,-0.0011710571966721333,0.0007865050483269811,7.74653555856764e-05,-1.4441477273356048e-05,-0.0007948472929955605,0.0,0.0,0.0,0.0,0.0,0.0,0.0,1.795884972832784e-05,8.791835684540672e-05,-1.4646905060478055e-06,-6.506469076184018e-06,9.953404021850742e-06,-1.0652895330309775e-06,-1.1670147930242791e-06,0.0013823096688248555,0.00046332115690373864,0.0011710571966721333,-0.0007865050483269811,-7.74653555856764e-05,1.4441477273356048e-05,0.0007948472929955605,0.7560665011405945,46.37740707397461,5.588284015655518,-19.535249710083008,-0.7372947335243225,-2.4173007011413574,0.11844198405742645,0
77,0.37995266914367676,-0.8076412081718445,-46.40121078491211,-5.612087726593018,19.559053421020508,0.7427878975868225,2.4108920097351074,-0.12485067546367645,0.0,0.0,0.0,0.0,0.0,0.0,0.0,-0.8256744360585432,-0.07819272364885414,-0.4579154850757871,0.35707880180307466,0.155435583013402,0.14931305323219948,-0.14595210596356303,0.8780785464610318,0.7553734655345822,-0.28255213004246094,-1.6690963768498825,0.14140803176164624,2.403446541521949,1.0273399793224203,0.878092876070424,0.7554597494309409,-0.2825552651693207,-1.6690993614607135,0.1414185955172306,2.4034451173676383,1.0273381002308042,-0.0008921578739213083,-3.780064000047699e-05,-0.00026032302074925206,0.00027468928622062457,2.3780307536603272e-05,0.00015469784919724703,-0.0010306727905759715,0.0,0.0,0.0,0.0,0.0,0.0,0.0,1.4329609392182974e-05,8.628389635867428e-05,-3.1351268597878956e-06,-2.9846108309250496e-06,1.0563755584364065e-05,-1.4241543104809296e-06,-1.879091616086015e-06,0.0008921578739213083,3.780064000047699e-05,0.00026032302074925206,-0.00027468928622062457,-2.3780307536603272e-05,-0.00015469784919724703,0.0010306727905759715,0.8076412081718445,46.40121078491211,5.612087726593018,-19.559053421020508,-0.7427878975868225,-2.4108920097351074,0.12485067546367645,0
78,0.3849916458129883,-0.8076412081718445,-46.40121078491211,-5.612087726593018,19.559053421020508,0.7427878975868225,2.4108920097351074,-0.12485067546367645,0.0,0.0,0.0,0.0,0.0,0.0,0.0,-0.8256744360585432,-0.07819272364885414,-0.4579154850757871,0.35707880180307466,0.155435583013402,0.14931305323219948,-0.14595210596356303,0.8780785464610318,0.7553734655345822,-0.28255213004246094,-1.6690963768498825,0.14140803176164624,2.403446541521949,1.0273399793224203,0.878092876070424,0.7554597494309409,-0.2825552651693207,-1.6690993614607135,0.1414185955172306,2.4034451173676383,1.0273381002308042,-0.0008921578739213083,-3.780064000047699e-05,-0.00026032302074925206,0.00027468928622062457,2.3780307536603272e-05,0.00015469784919724703,-0.0010306727905759715,0.0,0.0,0.0,0.0,0.0,0.0,0.0,1.4329609392182974e-05,8.628389635867428e-05,-3.1351268597878956e-06,-2.9846108309250496e-06,1.0563755584364065e-05,-1.4241543104809296e-06,-1.879091616086015e-06,0.0008921578739213083,3.780064000047699e-05,0.00026032302074925206,-0.00027468928622062457,-2.3780307536603272e-05,-0.00015469784919724703,0.0010306727905759715,0.8076412081718445,46.40121078491211,5.612087726593018,-19.559053421020508,-0.7427878975868225,-2.4108920097351074,0.12485067546367645,0
79,0.3899960517883301,-0.8076412081718445,-46.40121078491211,-5.564480304718018,19.559053421020508,0.7491965889930725,2.4108920097351074,-0.15964071452617645,0.0,0.0,0.0,0.0,0.0,0.0,0.0,-0.8051297428570291,-0.0671178298175125,-0.43815977241190956,0.3538644800710435,0.15528725116523978,0.1483110263855283,-0.14538719265738415,0.8780778671341511,0.7553735015097477,-0.28255547091417144,-1.6690974119589361,0.1414073196848233,2.4034476011594137,1.027343844882316,0.878092876070424,0.7554597494309409,-0.2825552651693207,-1.6690993614607135,0.1414185955172306,2.4034451173676383,1.0273381002308042,-0.00040478833551212405,0.00041070084617114786,-0.0010614982852412923,0.00013641677416523145,-0.0003485756308258147,0.0001273235243884653,0.00017799254135015917,0.0,0.0,0.0,0.0,0.0,0.0,0.0,1.5008936272820073e-05,8.624792119316105e-05,2.0574485071200854e-07,-1.949501777342988e-06,1.1275832407287023e-05,-2.483791775365063e-06,-5.744651511818688e-06,0.00040478833551212405,-0.00041070084617114786,0.0010614982852412923,-0.00013641677416523145,0.0003485756308258147,-0.0001273235243884653,-0.00017799254135015917,0.8076412081718445,46.40121078491211,5.564480304718018,-19.559053421020508,-0.7491965889930725,-2.4108920097351074,0.15964071452617645,0
80,0.39499425888061523,-0.8076412081718445,-46.40121078491211,-5.564480304718018,19.559053421020508,0.7491965889930725,2.4108920097351074,-0.15964071452617645,0.0,0.0,0.0,0.0,0.0,0.0,0.0,-0.8051297428570291,-0.0671178298175125,-0.43815977241190956,0.3538644800710435,0.15528725116523978,0.1483110263855283,-0.14538719265738415,0.8780778671341511,0.7553735015097477,-0.28255547091417144,-1.6690974119589361,0.1414073196848233,2.4034476011594137,1.027343844882316,0.878092876070424,0.7554597494309409,-0.2825552651693207,-1.6690993614607135,0.1414185955172306,2.4034451173676383,1.0273381002308042,-0.00040478833551212405,0.00041070084617114786,-0.0010614982852412923,0.00013641677416523145,-0.0003485756308258147,0.0001273235243884653,0.00017799254135015917,0.0,0.0,0.0,0.0,0.0,0.0,0.0,1.5008936272820073e-05,8.624792119316105e-05,2.0574485071200854e-07,-1.949501777342988e-06,1.1275832407287023e-05,-2.483791775365063e-06,-5.744651511818688e-06,0.00040478833551212405,-0.00041070084617114786,0.0010614982852412923,-0.00013641677416523145,0.0003485756308258147,-0.0001273235243884653,-0.00017799254135015917,0.8076412081718445,46.40121078491211,5.564480304718018,-19.559053421020508,-0.7491965889930725,-2.4108920097351074,0.15964071452617645,0
