rezayati/contactInterpretation/dataset/franka_main/labeled_data/link3/e3_6.csv
index,time,tau_J0,tau_J1,tau_J2,tau_J3,tau_J4,tau_J5,tau_J6,tau_J_d0,tau_J_d1,tau_J_d2,tau_J_d3,tau_J_d4,tau_J_d5,tau_J_d6,tau_ext0,tau_ext1,tau_ext2,tau_ext3,tau_ext4,tau_ext5,tau_ext6,q0,q1,q2,q3,q4,q5,q6,q_d0,q_d1,q_d2,q_d3,q_d4,q_d5,q_d6,dq0,dq1,dq2,dq3,dq4,dq5,dq6,dq_d0,dq_d1,dq_d2,dq_d3,dq_d4,dq_d5,dq_d6,e0,e1,e2,e3,e4,e5,e6,de0,de1,de2,de3,de4,de5,de6,etau_J0,etau_J1,etau_J2,etau_J3,etau_J4,etau_J5,etau_J6,label
1,0.0,0.10880166292190552,-18.177942276000977,1.1441986560821533,17.948335647583008,0.4983420968055725,2.2424349784851074,-0.16604940593242645,0.0,0.0,0.0,0.0,0.0,0.0,0.0,0.11425850675480673,0.54905349357957,0.33175433239161956,0.3488657061146494,0.07390325050307797,0.06034454716356499,-0.18288292405573597,-0.6093080101891568,-0.05782096696422872,-0.6666589451170805,-2.5945500997242177,-0.05562347165910193,2.5079725976772282,0.8763146125390565,-0.6090851748156966,-0.05753196718556838,-0.666603097082616,-2.5945565370258534,-0.05562143941554,2.507976027223799,0.8763108487046415,-6.532355720592825e-05,0.0012239831722762268,0.00015203198145176896,0.0005978095947119598,-3.229338162890929e-05,0.00013969566250827657,-0.0012022614911826428,0.0,0.0,0.0,0.0,0.0,0.0,0.0,0.00022283537346023952,0.0002889997786603357,5.58480344644563e-05,-6.4373016357421875e-06,2.0322435619266055e-06,3.429546570732356e-06,-3.763834415027034e-06,6.532355720592825e-05,-0.0012239831722762268,-0.00015203198145176896,-0.0005978095947119598,3.229338162890929e-05,-0.00013969566250827657,0.0012022614911826428,-0.10880166292190552,18.177942276000977,-1.1441986560821533,-17.948335647583008,-0.4983420968055725,-2.2424349784851074,0.16604940593242645,0
2,0.004996776580810547,0.13260537385940552,-18.130334854125977,1.1680023670196533,17.972139358520508,0.4983420968055725,2.2360262870788574,-0.17337362468242645,0.0,0.0,0.0,0.0,0.0,0.0,0.0,0.11802954545930561,0.5473338572387003,0.33521840507261236,0.34605321080398943,0.07370315692524983,0.06015941557470348,-0.18326945992660887,-0.609309680625012,-0.05782431075893733,-0.6666606155529357,-2.5945517701600727,-0.05562382750507033,2.5079731921607036,0.8763142489656621,-0.6090851748156966,-0.05753196718556838,-0.666603097082616,-2.5945565370258534,-0.05562143941554,2.507976027223799,0.8763108487046415,-5.495688857959985e-05,0.00030916995781208055,5.325396958171347e-05,-0.00013691930459087007,3.600029692705209e-05,0.0002810079107772798,-0.0003142486457079924,0.0,0.0,0.0,0.0,0.0,0.0,0.0,0.00022450580931543396,0.00029234357336895,5.751847031965074e-05,-4.766865780769791e-06,2.388089530333537e-06,2.835063095396606e-06,-3.400261020636286e-06,5.495688857959985e-05,-0.00030916995781208055,-5.325396958171347e-05,0.00013691930459087007,-3.600029692705209e-05,-0.0002810079107772798,0.0003142486457079924,-0.13260537385940552,18.130334854125977,-1.1680023670196533,-17.972139358520508,-0.4983420968055725,-2.2360262870788574,0.17337362468242645,0
3,0.009994983673095703,0.13260537385940552,-18.130334854125977,1.1680023670196533,17.972139358520508,0.4983420968055725,2.2360262870788574,-0.17337362468242645,0.0,0.0,0.0,0.0,0.0,0.0,0.0,0.11802954545930561,0.5473338572387003,0.33521840507261236,0.34605321080398943,0.07370315692524983,0.06015941557470348,-0.18326945992660887,-0.609309680625012,-0.05782431075893733,-0.6666606155529357,-2.5945517701600727,-0.05562382750507033,2.5079731921607036,0.8763142489656621,-0.6090851748156966,-0.05753196718556838,-0.666603097082616,-2.5945565370258534,-0.05562143941554,2.507976027223799,0.8763108487046415,-5.495688857959985e-05,0.00030916995781208055,5.325396958171347e-05,-0.00013691930459087007,3.600029692705209e-05,0.0002810079107772798,-0.0003142486457079924,0.0,0.0,0.0,0.0,0.0,0.0,0.0,0.00022450580931543396,0.00029234357336895,5.751847031965074e-05,-4.766865780769791e-06,2.388089530333537e-06,2.835063095396606e-06,-3.400261020636286e-06,5.495688857959985e-05,-0.00030916995781208055,-5.325396958171347e-05,0.00013691930459087007,-3.600029692705209e-05,-0.0002810079107772798,0.0003142486457079924,-0.13260537385940552,18.130334854125977,-1.1680023670196533,-17.972139358520508,-0.4983420968055725,-2.2360262870788574,0.17337362468242645,0
4,0.015094757080078125,0.13260537385940552,-18.078760147094727,1.1680023670196533,17.999910354614258,0.5047507882118225,2.2424349784851074,-0.13858358561992645,0.0,0.0,0.0,0.0,0.0,0.0,0.0,0.11483684775892564,0.539386330455806,0.3305591444534552,0.3471437851959872,0.07411474421883624,0.0598077903357056,-0.18295194571026718,-0.609309680625012,-0.05782792714972794,-0.6666606155529357,-2.5945537190019037,-0.0556231205971125,2.5079735658852504,0.8763115607748193,-0.6090851748156966,-0.05753196718556838,-0.666603097082616,-2.5945565370258534,-0.05562143941554,2.507976027223799,0.8763108487046415,9.295243921545357e-05,-0.001509042042411622,-0.00039155186756293406,-0.0005514876531313318,-0.00022114361868084642,-4.747980662351868e-05,-0.0020626543599948275,0.0,0.0,0.0,0.0,0.0,0.0,0.0,0.00022450580931543396,0.00029595996415955617,5.751847031965074e-05,-2.8180239497466175e-06,1.6811815725034651e-06,2.4613385485316996e-06,-7.120701778218219e-07,-9.295243921545357e-05,0.001509042042411622,0.00039155186756293406,0.0005514876531313318,0.00022114361868084642,4.747980662351868e-05,0.0020626543599948275,-0.13260537385940552,18.078760147094727,-1.1680023670196533,-17.999910354614258,-0.5047507882118225,-2.2424349784851074,0.13858358561992645,0
5,0.01999807357788086,0.13260537385940552,-18.078760147094727,1.1680023670196533,17.999910354614258,0.5047507882118225,2.2424349784851074,-0.13858358561992645,0.0,0.0,0.0,0.0,0.0,0.0,0.0,0.11483684775892564,0.539386330455806,0.3305591444534552,0.3471437851959872,0.07411474421883624,0.0598077903357056,-0.18295194571026718,-0.609309680625012,-0.05782792714972794,-0.6666606155529357,-2.5945537190019037,-0.0556231205971125,2.5079735658852504,0.8763115607748193,-0.6090851748156966,-0.05753196718556838,-0.666603097082616,-2.5945565370258534,-0.05562143941554,2.507976027223799,0.8763108487046415,9.295243921545357e-05,-0.001509042042411622,-0.00039155186756293406,-0.0005514876531313318,-0.00022114361868084642,-4.747980662351868e-05,-0.0020626543599948275,0.0,0.0,0.0,0.0,0.0,0.0,0.0,0.00022450580931543396,0.00029595996415955617,5.751847031965074e-05,-2.8180239497466175e-06,1.6811815725034651e-06,2.4613385485316996e-06,-7.120701778218219e-07,-9.295243921545357e-05,0.001509042042411622,0.00039155186756293406,0.0005514876531313318,0.00022114361868084642,4.747980662351868e-05,0.0020626543599948275,-0.13260537385940552,18.078760147094727,-1.1680023670196533,-17.999910354614258,-0.5047507882118225,-2.2424349784851074,0.13858358561992645,0
6,0.024999380111694336,0.13260537385940552,-18.130334854125977,1.1164276599884033,17.972139358520508,0.5047507882118225,2.2488436698913574,-0.21457235515117645,0.0,0.0,0.0,0.0,0.0,0.0,0.0,0.11432134493630959,0.5437065046494225,0.3311972588282174,0.34347317347107864,0.07367823983923966,0.058673043836872815,-0.18276602278064683,-0.609309680625012,-0.05782430783593884,-0.6666569962752493,-2.5945517701600727,-0.055624049380455426,2.507972989317741,0.8763195199458481,-0.6090851748156966,-0.05753196718556838,-0.666603097082616,-2.5945565370258534,-0.05562143941554,2.507976027223799,0.8763108487046415,-0.0006870123286364826,0.0008668595255569698,0.0010228677533641584,8.359261958403373e-05,-0.00021664729798066742,-0.000245621649723384,0.0006547107764676098,0.0,0.0,0.0,0.0,0.0,0.0,0.0,0.00022450580931543396,0.000292340650370454,5.38991926333221e-05,-4.766865780769791e-06,2.6099649154259774e-06,3.037906057823392e-06,-8.67124120662588e-06,0.0006870123286364826,-0.0008668595255569698,-0.0010228677533641584,-8.359261958403373e-05,0.00021664729798066742,0.000245621649723384,-0.0006547107764676098,-0.13260537385940552,18.130334854125977,-1.1164276599884033,-17.972139358520508,-0.5047507882118225,-2.2488436698913574,0.21457235515117645,0
7,0.02999567985534668,0.13260537385940552,-18.130334854125977,1.1164276599884033,17.972139358520508,0.5047507882118225,2.2488436698913574,-0.21457235515117645,0.0,0.0,0.0,0.0,0.0,0.0,0.0,0.11432134493630959,0.5437065046494225,0.3311972588282174,0.34347317347107864,0.07367823983923966,0.058673043836872815,-0.18276602278064683,-0.609309680625012,-0.05782430783593884,-0.6666569962752493,-2.5945517701600727,-0.055624049380455426,2.507972989317741,0.8763195199458481,-0.6090851748156966,-0.05753196718556838,-0.666603097082616,-2.5945565370258534,-0.05562143941554,2.507976027223799,0.8763108487046415,-0.0006870123286364826,0.0008668595255569698,0.0010228677533641584,8.359261958403373e-05,-0.00021664729798066742,-0.000245621649723384,0.0006547107764676098,0.0,0.0,0.0,0.0,0.0,0.0,0.0,0.00022450580931543396,0.000292340650370454,5.38991926333221e-05,-4.766865780769791e-06,2.6099649154259774e-06,3.037906057823392e-06,-8.67124120662588e-06,0.0006870123286364826,-0.0008668595255569698,-0.0010228677533641584,-8.359261958403373e-05,0.00021664729798066742,0.000245621649723384,-0.0006547107764676098,-0.13260537385940552,18.130334854125977,-1.1164276599884033,-17.972139358520508,-0.5047507882118225,-2.2488436698913574,0.21457235515117645,0
8,0.035009145736694336,0.10880166292190552,-18.130334854125977,1.1164276599884033,17.999910354614258,0.5047507882118225,2.2424349784851074,-0.21457235515117645,0.0,0.0,0.0,0.0,0.0,0.0,0.0,0.11723326527381008,0.5467191930778854,0.33482698667815414,0.34569973745444094,0.0736324764023345,0.05945349960667934,-0.18318363509500815,-0.6093080371706832,-0.057824544598833155,-0.6666569962752493,-2.594553715949448,-0.05562450058401359,2.50797297704279,0.8763200039753477,-0.6090851748156966,-0.05753196718556838,-0.666603097082616,-2.5945565370258534,-0.05562143941554,2.507976027223799,0.8763108487046415,0.00022041549593196827,0.0012352315570484718,0.0007649770018486543,-0.0006107371541826214,-0.00040331012579985267,2.8071813971423025e-05,0.0007925040586931184,0.0,0.0,0.0,0.0,0.0,0.0,0.0,0.00022286235498658602,0.0002925774132647718,5.38991926333221e-05,-2.821076405368217e-06,3.061168473587894e-06,3.0501810091010384e-06,-9.155270706218133e-06,-0.00022041549593196827,-0.0012352315570484718,-0.0007649770018486543,0.0006107371541826214,0.00040331012579985267,-2.8071813971423025e-05,-0.0007925040586931184,-0.10880166292190552,18.130334854125977,-1.1164276599884033,-17.999910354614258,-0.5047507882118225,-2.2424349784851074,0.21457235515117645,0
9,0.03999686241149902,0.10880166292190552,-18.130334854125977,1.1164276599884033,17.999910354614258,0.5047507882118225,2.2424349784851074,-0.21457235515117645,0.0,0.0,0.0,0.0,0.0,0.0,0.0,0.11723326527381008,0.5467191930778854,0.33482698667815414,0.34569973745444094,0.0736324764023345,0.05945349960667934,-0.18318363509500815,-0.6093080371706832,-0.057824544598833155,-0.6666569962752493,-2.594553715949448,-0.05562450058401359,2.50797297704279,0.8763200039753477,-0.6090851748156966,-0.05753196718556838,-0.666603097082616,-2.5945565370258534,-0.05562143941554,2.507976027223799,0.8763108487046415,0.00022041549593196827,0.0012352315570484718,0.0007649770018486543,-0.0006107371541826214,-0.00040331012579985267,2.8071813971423025e-05,0.0007925040586931184,0.0,0.0,0.0,0.0,0.0,0.0,0.0,0.00022286235498658602,0.0002925774132647718,5.38991926333221e-05,-2.821076405368217e-06,3.061168473587894e-06,3.0501810091010384e-06,-9.155270706218133e-06,-0.00022041549593196827,-0.0012352315570484718,-0.0007649770018486543,0.0006107371541826214,0.00040331012579985267,-2.8071813971423025e-05,-0.0007925040586931184,-0.10880166292190552,18.130334854125977,-1.1164276599884033,-17.999910354614258,-0.5047507882118225,-2.2424349784851074,0.21457235515117645,0
10,0.04499483108520508,0.10880166292190552,-18.078760147094727,1.1680023670196533,17.948335647583008,0.4983420968055725,2.2424349784851074,-0.20083944499492645,0.0,0.0,0.0,0.0,0.0,0.0,0.0,0.11714850432848185,0.5467840460845413,0.3340845979657904,0.3484019383517128,0.07346701078397462,0.06080891057654377,-0.18406474213505292,-0.6093080101892075,-0.057827935895095446,-0.6666606155529357,-2.594550099611158,-0.05562240852021805,2.5079725065710177,0.8763183603616039,-0.6090851748156966,-0.05753196718556838,-0.666603097082616,-2.5945565370258534,-0.05562143941554,2.507976027223799,0.8763108487046415,0.0002287409164529224,-0.0006622595717204072,-0.00010172475847479992,0.0009281967962892249,-0.0001116689147442307,9.959545792325697e-05,0.0006982504956834162,0.0,0.0,0.0,0.0,0.0,0.0,0.0,0.0002228353735109767,0.0002959687095270627,5.751847031965074e-05,-6.437414695525945e-06,9.6910467804745e-07,3.5206527813080868e-06,-7.511656962444491e-06,-0.0002287409164529224,0.0006622595717204072,0.00010172475847479992,-0.0009281967962892249,0.0001116689147442307,-9.959545792325697e-05,-0.0006982504956834162,-0.10880166292190552,18.078760147094727,-1.1680023670196533,-17.948335647583008,-0.4983420968055725,-2.2424349784851074,0.20083944499492645,0
11,0.05000162124633789,0.10880166292190552,-18.078760147094727,1.1680023670196533,17.948335647583008,0.4983420968055725,2.2424349784851074,-0.20083944499492645,0.0,0.0,0.0,0.0,0.0,0.0,0.0,0.11714850432848185,0.5467840460845413,0.3340845979657904,0.3484019383517128,0.07346701078397462,0.06080891057654377,-0.18406474213505292,-0.6093080101892075,-0.057827935895095446,-0.6666606155529357,-2.594550099611158,-0.05562240852021805,2.5079725065710177,0.8763183603616039,-0.6090851748156966,-0.05753196718556838,-0.666603097082616,-2.5945565370258534,-0.05562143941554,2.507976027223799,0.8763108487046415,0.0002287409164529224,-0.0006622595717204072,-0.00010172475847479992,0.0009281967962892249,-0.0001116689147442307,9.959545792325697e-05,0.0006982504956834162,0.0,0.0,0.0,0.0,0.0,0.0,0.0,0.0002228353735109767,0.0002959687095270627,5.751847031965074e-05,-6.437414695525945e-06,9.6910467804745e-07,3.5206527813080868e-06,-7.511656962444491e-06,-0.0002287409164529224,0.0006622595717204072,0.00010172475847479992,-0.0009281967962892249,0.0001116689147442307,-9.959545792325697e-05,-0.0006982504956834162,-0.10880166292190552,18.078760147094727,-1.1680023670196533,-17.948335647583008,-0.4983420968055725,-2.2424349784851074,0.20083944499492645,0
12,0.05499887466430664,0.08103066682815552,-18.078760147094727,1.1164276599884033,17.948335647583008,0.4928489327430725,2.2360262870788574,-0.20083944499492645,0.0,0.0,0.0,0.0,0.0,0.0,0.0,0.10735677522037468,0.547242617797342,0.32482441448049515,0.3467122922602928,0.07407554519780071,0.060149401865330285,-0.1835506244399151,-0.6093060613473257,-0.05782792711367461,-0.6666569962752493,-2.5945500997242172,-0.05562321617393054,2.5079732181625882,0.8763184780985093,-0.6090851748156966,-0.05753196718556838,-0.666603097082616,-2.5945565370258534,-0.05562143941554,2.507976027223799,0.8763108487046415,0.00040789823102063645,-0.0007245462440756261,0.0003333599808797103,0.000698874433269613,0.00028356464472214263,6.58443884787643e-05,0.0004971251747066187,0.0,0.0,0.0,0.0,0.0,0.0,0.0,0.00022088653162910532,0.0002959599281062292,5.38991926333221e-05,-6.437301636186277e-06,1.776758390539812e-06,2.809061210751196e-06,-7.6293938677807205e-06,-0.00040789823102063645,0.0007245462440756261,-0.0003333599808797103,-0.000698874433269613,-0.00028356464472214263,-6.58443884787643e-05,-0.0004971251747066187,-0.08103066682815552,18.078760147094727,-1.1164276599884033,-17.948335647583008,-0.4928489327430725,-2.2360262870788574,0.20083944499492645,0
13,0.06000399589538574,0.08103066682815552,-18.078760147094727,1.1164276599884033,17.948335647583008,0.4928489327430725,2.2360262870788574,-0.20083944499492645,0.0,0.0,0.0,0.0,0.0,0.0,0.0,0.10735677522037468,0.547242617797342,0.32482441448049515,0.3467122922602928,0.07407554519780071,0.060149401865330285,-0.1835506244399151,-0.6093060613473257,-0.05782792711367461,-0.6666569962752493,-2.5945500997242172,-0.05562321617393054,2.5079732181625882,0.8763184780985093,-0.6090851748156966,-0.05753196718556838,-0.666603097082616,-2.5945565370258534,-0.05562143941554,2.507976027223799,0.8763108487046415,0.00040789823102063645,-0.0007245462440756261,0.0003333599808797103,0.000698874433269613,0.00028356464472214263,6.58443884787643e-05,0.0004971251747066187,0.0,0.0,0.0,0.0,0.0,0.0,0.0,0.00022088653162910532,0.0002959599281062292,5.38991926333221e-05,-6.437301636186277e-06,1.776758390539812e-06,2.809061210751196e-06,-7.6293938677807205e-06,-0.00040789823102063645,0.0007245462440756261,-0.0003333599808797103,-0.000698874433269613,-0.00028356464472214263,-6.58443884787643e-05,-0.0004971251747066187,-0.08103066682815552,18.078760147094727,-1.1164276599884033,-17.948335647583008,-0.4928489327430725,-2.2360262870788574,0.20083944499492645,0
14,0.0650019645690918,0.05722695589065552,-18.106531143188477,1.1164276599884033,17.972139358520508,0.5047507882118225,2.2488436698913574,-0.20724813640117645,0.0,0.0,0.0,0.0,0.0,0.0,0.0,0.10323629533647692,0.5423128593854839,0.32219818678100137,0.3509502844529202,0.0742600425696394,0.06016427044767235,-0.18365900772873497,-0.6093043909114704,-0.0578259811947926,-0.6666569962752493,-2.594549544920001,-0.055624526278359974,2.507972853647069,0.8763191770940446,-0.6090851748156966,-0.05753196718556838,-0.666603097082616,-2.5945565370258534,-0.05562143941554,2.507976027223799,0.8763108487046415,0.0010490363420986078,-0.0005002872436195732,-2.8882250087540955e-06,0.0003283957978784307,-0.00027827775981102964,-0.0002722242651036267,0.0010348763527694466,0.0,0.0,0.0,0.0,0.0,0.0,0.0,0.00021921609577379986,0.00029401400922421383,5.38991926333221e-05,-6.992105852532404e-06,3.0868628199745562e-06,3.1735767298535222e-06,-8.328389403122749e-06,-0.0010490363420986078,0.0005002872436195732,2.8882250087540955e-06,-0.0003283957978784307,0.00027827775981102964,0.0002722242651036267,-0.0010348763527694466,-0.05722695589065552,18.106531143188477,-1.1164276599884033,-17.972139358520508,-0.5047507882118225,-2.2488436698913574,0.20724813640117645,0
15,0.06999540328979492,0.05722695589065552,-18.106531143188477,1.1164276599884033,17.972139358520508,0.5047507882118225,2.2488436698913574,-0.20724813640117645,0.0,0.0,0.0,0.0,0.0,0.0,0.0,0.10323629533647692,0.5423128593854839,0.32219818678100137,0.3509502844529202,0.0742600425696394,0.06016427044767235,-0.18365900772873497,-0.6093043909114704,-0.0578259811947926,-0.6666569962752493,-2.594549544920001,-0.055624526278359974,2.507972853647069,0.8763191770940446,-0.6090851748156966,-0.05753196718556838,-0.666603097082616,-2.5945565370258534,-0.05562143941554,2.507976027223799,0.8763108487046415,0.0010490363420986078,-0.0005002872436195732,-2.8882250087540955e-06,0.0003283957978784307,-0.00027827775981102964,-0.0002722242651036267,0.0010348763527694466,0.0,0.0,0.0,0.0,0.0,0.0,0.0,0.00021921609577379986,0.00029401400922421383,5.38991926333221e-05,-6.992105852532404e-06,3.0868628199745562e-06,3.1735767298535222e-06,-8.328389403122749e-06,-0.0010490363420986078,0.0005002872436195732,2.8882250087540955e-06,-0.0003283957978784307,0.00027827775981102964,0.0002722242651036267,-0.0010348763527694466,-0.05722695589065552,18.106531143188477,-1.1164276599884033,-17.972139358520508,-0.5047507882118225,-2.2488436698913574,0.20724813640117645,0
16,0.0749979019165039,0.08103066682815552,-18.130334854125977,1.1680023670196533,17.999910354614258,0.5047507882118225,2.2424349784851074,-0.20724813640117645,0.0,0.0,0.0,0.0,0.0,0.0,0.0,0.11064596857213252,0.548102333159792,0.32872650674559745,0.34761539554581683,0.0737185055818047,0.059850904651626,-0.18439467643424637,-0.6093060613473257,-0.05782430783595513,-0.6666606155529357,-2.594553717971857,-0.055624535689523545,2.5079756865135177,0.8763159720156783,-0.6090851748156966,-0.05753196718556838,-0.666603097082616,-2.5945565370258534,-0.05562143941554,2.507976027223799,0.8763108487046415,0.0008546538436586461,0.0005291355952882749,-0.0005771631151438667,-0.00011888956350839788,-0.000456964310430034,-5.260149168360728e-05,0.0012744158983085197,0.0,0.0,0.0,0.0,0.0,0.0,0.0,0.00022088653162910532,0.0002923406503867465,5.751847031965074e-05,-2.819053996461207e-06,3.096273983545228e-06,3.407102813213214e-07,-5.123311036858702e-06,-0.0008546538436586461,-0.0005291355952882749,0.0005771631151438667,0.00011888956350839788,0.000456964310430034,5.260149168360728e-05,-0.0012744158983085197,-0.08103066682815552,18.130334854125977,-1.1680023670196533,-17.999910354614258,-0.5047507882118225,-2.2424349784851074,0.20724813640117645,0
17,0.08014512062072754,0.08103066682815552,-18.130334854125977,1.1680023670196533,17.999910354614258,0.5047507882118225,2.2424349784851074,-0.20724813640117645,0.0,0.0,0.0,0.0,0.0,0.0,0.0,0.11064596857213252,0.548102333159792,0.32872650674559745,0.34761539554581683,0.0737185055818047,0.059850904651626,-0.18439467643424637,-0.6093060613473257,-0.05782430783595513,-0.6666606155529357,-2.594553717971857,-0.055624535689523545,2.5079756865135177,0.8763159720156783,-0.6090851748156966,-0.05753196718556838,-0.666603097082616,-2.5945565370258534,-0.05562143941554,2.507976027223799,0.8763108487046415,0.0008546538436586461,0.0005291355952882749,-0.0005771631151438667,-0.00011888956350839788,-0.000456964310430034,-5.260149168360728e-05,0.0012744158983085197,0.0,0.0,0.0,0.0,0.0,0.0,0.0,0.00022088653162910532,0.0002923406503867465,5.751847031965074e-05,-2.819053996461207e-06,3.096273983545228e-06,3.407102813213214e-07,-5.123311036858702e-06,-0.0008546538436586461,-0.0005291355952882749,0.0005771631151438667,0.00011888956350839788,0.000456964310430034,5.260149168360728e-05,-0.0012744158983085197,-0.08103066682815552,18.130334854125977,-1.1680023670196533,-17.999910354614258,-0.5047507882118225,-2.2424349784851074,0.20724813640117645,0
18,0.08499336242675781,0.08103066682815552,-18.106531143188477,1.1441986560821533,17.972139358520508,0.4983420968055725,2.2488436698913574,-0.15231649577617645,0.0,0.0,0.0,0.0,0.0,0.0,0.0,0.10640951403830168,0.5446323559360289,0.32358501732414546,0.3463451400211034,0.07314855224171718,0.05952920357801019,-0.18445779936284137,-0.609306088328852,-0.057825979354386006,-0.6666589451170805,-2.594551770160067,-0.055622402624725016,2.5079717547810367,0.8763130866422052,-0.6090851748156966,-0.05753196718556838,-0.666603097082616,-2.5945565370258534,-0.05562143941554,2.507976027223799,0.8763108487046415,0.0008888270711373673,-0.0004797647073616507,0.00012620073485127386,0.00023106818863513084,3.1324384373099044e-05,-0.0002283519586047611,-0.0012318535388006595,0.0,0.0,0.0,0.0,0.0,0.0,0.0,0.00022091351315545182,0.0002940121688176228,5.58480344644563e-05,-4.766865786542951e-06,9.632091850161895e-07,4.272442762243145e-06,-2.23793756370938e-06,-0.0008888270711373673,0.0004797647073616507,-0.00012620073485127386,-0.00023106818863513084,-3.1324384373099044e-05,0.0002283519586047611,0.0012318535388006595,-0.08103066682815552,18.106531143188477,-1.1441986560821533,-17.972139358520508,-0.4983420968055725,-2.2488436698913574,0.15231649577617645,0
19,0.09026575088500977,0.08103066682815552,-18.106531143188477,1.1441986560821533,17.972139358520508,0.4983420968055725,2.2488436698913574,-0.15231649577617645,0.0,0.0,0.0,0.0,0.0,0.0,0.0,0.10640951403830168,0.5446323559360289,0.32358501732414546,0.3463451400211034,0.07314855224171718,0.05952920357801019,-0.18445779936284137,-0.609306088328852,-0.057825979354386006,-0.6666589451170805,-2.594551770160067,-0.055622402624725016,2.5079717547810367,0.8763130866422052,-0.6090851748156966,-0.05753196718556838,-0.666603097082616,-2.5945565370258534,-0.05562143941554,2.507976027223799,0.8763108487046415,0.0008888270711373673,-0.0004797647073616507,0.00012620073485127386,0.00023106818863513084,3.1324384373099044e-05,-0.0002283519586047611,-0.0012318535388006595,0.0,0.0,0.0,0.0,0.0,0.0,0.0,0.00022091351315545182,0.0002940121688176228,5.58480344644563e-05,-4.766865786542951e-06,9.632091850161895e-07,4.272442762243145e-06,-2.23793756370938e-06,-0.0008888270711373673,0.0004797647073616507,-0.00012620073485127386,-0.00023106818863513084,-3.1324384373099044e-05,0.0002283519586047611,0.0012318535388006595,-0.08103066682815552,18.106531143188477,-1.1441986560821533,-17.972139358520508,-0.4983420968055725,-2.2488436698913574,0.15231649577617645,0
20,0.09499621391296387,0.08103066682815552,-18.106531143188477,1.1441986560821533,17.972139358520508,0.4983420968055725,2.2488436698913574,-0.15231649577617645,0.0,0.0,0.0,0.0,0.0,0.0,0.0,0.10640951403830168,0.5446323559360289,0.32358501732414546,0.3463451400211034,0.07314855224171718,0.05952920357801019,-0.18445779936284137,-0.609306088328852,-0.057825979354386006,-0.6666589451170805,-2.594551770160067,-0.055622402624725016,2.5079717547810367,0.8763130866422052,-0.6090851748156966,-0.05753196718556838,-0.666603097082616,-2.5945565370258534,-0.05562143941554,2.507976027223799,0.8763108487046415,0.0008888270711373673,-0.0004797647073616507,0.00012620073485127386,0.00023106818863513084,3.1324384373099044e-05,-0.0002283519586047611,-0.0012318535388006595,0.0,0.0,0.0,0.0,0.0,0.0,0.0,0.00022091351315545182,0.0002940121688176228,5.58480344644563e-05,-4.766865786542951e-06,9.632091850161895e-07,4.272442762243145e-06,-2.23793756370938e-06,-0.0008888270711373673,0.0004797647073616507,-0.00012620073485127386,-0.00023106818863513084,-3.1324384373099044e-05,0.0002283519586047611,0.0012318535388006595,-0.08103066682815552,18.106531143188477,-1.1441986560821533,-17.972139358520508,-0.4983420968055725,-2.2488436698913574,0.15231649577617645,0
21,0.09999608993530273,0.08103066682815552,-18.106531143188477,1.1441986560821533,17.972139358520508,0.4983420968055725,2.2488436698913574,-0.15231649577617645,0.0,0.0,0.0,0.0,0.0,0.0,0.0,0.10640951403830168,0.5446323559360289,0.32358501732414546,0.3463451400211034,0.07314855224171718,0.05952920357801019,-0.18445779936284137,-0.609306088328852,-0.057825979354386006,-0.6666589451170805,-2.594551770160067,-0.055622402624725016,2.5079717547810367,0.8763130866422052,-0.6090851748156966,-0.05753196718556838,-0.666603097082616,-2.5945565370258534,-0.05562143941554,2.507976027223799,0.8763108487046415,0.0008888270711373673,-0.0004797647073616507,0.00012620073485127386,0.00023106818863513084,3.1324384373099044e-05,-0.0002283519586047611,-0.0012318535388006595,0.0,0.0,0.0,0.0,0.0,0.0,0.0,0.00022091351315545182,0.0002940121688176228,5.58480344644563e-05,-4.766865786542951e-06,9.632091850161895e-07,4.272442762243145e-06,-2.23793756370938e-06,-0.0008888270711373673,0.0004797647073616507,-0.00012620073485127386,-0.00023106818863513084,-3.1324384373099044e-05,0.0002283519586047611,0.0012318535388006595,-0.08103066682815552,18.106531143188477,-1.1441986560821533,-17.972139358520508,-0.4983420968055725,-2.2488436698913574,0.15231649577617645,0
22,0.10499787330627441,0.16037636995315552,-18.078760147094727,1.1164276599884033,17.972139358520508,0.4928489327430725,2.2488436698913574,-0.13858358561992645,0.0,0.0,0.0,0.0,0.0,0.0,0.0,0.11192801735642804,0.5427023725159986,0.3273324496294786,0.3444700231335819,0.07312646067323247,0.059212391059682096,-0.18559649049707277,-0.6093118723007334,-0.05782795342061943,-0.6666569962752493,-2.594549544920001,-0.055623094963704954,2.507972108460088,0.8763115607814655,-0.6090851748156966,-0.05753196718556838,-0.666603097082616,-2.5945565370258534,-0.05562143941554,2.507976027223799,0.8763108487046415,-0.0009336268615683543,-0.000879308229353114,0.0007992506190993199,-0.0001611312276891597,0.00023799499627327086,8.31770567973652e-06,-0.0019044476982338185,0.0,0.0,0.0,0.0,0.0,0.0,0.0,0.00022669748503678644,0.00029598623505104615,5.38991926333221e-05,-6.992105852532404e-06,1.6555481649541126e-06,3.9187637108639706e-06,-7.120768240609365e-07,0.0009336268615683543,0.000879308229353114,-0.0007992506190993199,0.0001611312276891597,-0.00023799499627327086,-8.31770567973652e-06,0.0019044476982338185,-0.16037636995315552,18.078760147094727,-1.1164276599884033,-17.972139358520508,-0.4928489327430725,-2.2488436698913574,0.13858358561992645,0
23,0.10999608039855957,0.16037636995315552,-18.078760147094727,1.1164276599884033,17.972139358520508,0.4928489327430725,2.2488436698913574,-0.13858358561992645,0.0,0.0,0.0,0.0,0.0,0.0,0.0,0.11192801735642804,0.5427023725159986,0.3273324496294786,0.3444700231335819,0.07312646067323247,0.059212391059682096,-0.18559649049707277,-0.6093118723007334,-0.05782795342061943,-0.6666569962752493,-2.594549544920001,-0.055623094963704954,2.507972108460088,0.8763115607814655,-0.6090851748156966,-0.05753196718556838,-0.666603097082616,-2.5945565370258534,-0.05562143941554,2.507976027223799,0.8763108487046415,-0.0009336268615683543,-0.000879308229353114,0.0007992506190993199,-0.0001611312276891597,0.00023799499627327086,8.31770567973652e-06,-0.0019044476982338185,0.0,0.0,0.0,0.0,0.0,0.0,0.0,0.00022669748503678644,0.00029598623505104615,5.38991926333221e-05,-6.992105852532404e-06,1.6555481649541126e-06,3.9187637108639706e-06,-7.120768240609365e-07,0.0009336268615683543,0.000879308229353114,-0.0007992506190993199,0.0001611312276891597,-0.00023799499627327086,-8.31770567973652e-06,0.0019044476982338185,-0.16037636995315552,18.078760147094727,-1.1164276599884033,-17.972139358520508,-0.4928489327430725,-2.2488436698913574,0.13858358561992645,0
24,0.11501574516296387,0.13260537385940552,-18.130334854125977,1.1680023670196533,17.948335647583008,0.4928489327430725,2.2488436698913574,-0.16604940593242645,0.0,0.0,0.0,0.0,0.0,0.0,0.0,0.11233630893409839,0.5398125451857886,0.32354781607992356,0.3475207181993516,0.07344040011317444,0.06030205800149275,-0.18553898782392053,-0.6093096806263828,-0.05782430816086477,-0.6666606155529357,-2.594550099598602,-0.05562305986824082,2.5079753261378124,0.8763146123777725,-0.6090851748156966,-0.05753196718556838,-0.666603097082616,-2.5945565370258534,-0.05562143941554,2.507976027223799,0.8763108487046415,-0.00019964460870237156,0.0006251827408324957,-0.0005809543649236298,0.0007311642968968212,0.0001777012031896118,-0.00019401890629949507,-0.0009075939577961357,0.0,0.0,0.0,0.0,0.0,0.0,0.0,0.00022450581068622633,0.00029234097529638736,5.751847031965074e-05,-6.437427251260175e-06,1.6204527008220615e-06,7.010859865985708e-07,-3.7636731310408678e-06,0.00019964460870237156,-0.0006251827408324957,0.0005809543649236298,-0.0007311642968968212,-0.0001777012031896118,0.00019401890629949507,0.0009075939577961357,-0.13260537385940552,18.130334854125977,-1.1680023670196533,-17.948335647583008,-0.4928489327430725,-2.2488436698913574,0.16604940593242645,0
25,0.11999988555908203,0.13260537385940552,-18.130334854125977,1.1680023670196533,17.948335647583008,0.4928489327430725,2.2488436698913574,-0.16604940593242645,0.0,0.0,0.0,0.0,0.0,0.0,0.0,0.11233630893409839,0.5398125451857886,0.32354781607992356,0.3475207181993516,0.07344040011317444,0.06030205800149275,-0.18553898782392053,-0.6093096806263828,-0.05782430816086477,-0.6666606155529357,-2.594550099598602,-0.05562305986824082,2.5079753261378124,0.8763146123777725,-0.6090851748156966,-0.05753196718556838,-0.666603097082616,-2.5945565370258534,-0.05562143941554,2.507976027223799,0.8763108487046415,-0.00019964460870237156,0.0006251827408324957,-0.0005809543649236298,0.0007311642968968212,0.0001777012031896118,-0.00019401890629949507,-0.0009075939577961357,0.0,0.0,0.0,0.0,0.0,0.0,0.0,0.00022450581068622633,0.00029234097529638736,5.751847031965074e-05,-6.437427251260175e-06,1.6204527008220615e-06,7.010859865985708e-07,-3.7636731310408678e-06,0.00019964460870237156,-0.0006251827408324957,0.0005809543649236298,-0.0007311642968968212,-0.0001777012031896118,0.00019401890629949507,0.0009075939577961357,-0.13260537385940552,18.130334854125977,-1.1680023670196533,-17.948335647583008,-0.4928489327430725,-2.2488436698913574,0.16604940593242645,0
26,0.12500691413879395,0.13260537385940552,-18.130334854125977,1.1680023670196533,17.948335647583008,0.4928489327430725,2.2488436698913574,-0.16604940593242645,0.0,0.0,0.0,0.0,0.0,0.0,0.0,0.11233630893409839,0.5398125451857886,0.32354781607992356,0.3475207181993516,0.07344040011317444,0.06030205800149275,-0.18553898782392053,-0.6093096806263828,-0.05782430816086477,-0.6666606155529357,-2.594550099598602,-0.05562305986824082,2.5079753261378124,0.8763146123777725,-0.6090851748156966,-0.05753196718556838,-0.666603097082616,-2.5945565370258534,-0.05562143941554,2.507976027223799,0.8763108487046415,-0.00019964460870237156,0.0006251827408324957,-0.0005809543649236298,0.0007311642968968212,0.0001777012031896118,-0.00019401890629949507,-0.0009075939577961357,0.0,0.0,0.0,0.0,0.0,0.0,0.0,0.00022450581068622633,0.00029234097529638736,5.751847031965074e-05,-6.437427251260175e-06,1.6204527008220615e-06,7.010859865985708e-07,-3.7636731310408678e-06,0.00019964460870237156,-0.0006251827408324957,0.0005809543649236298,-0.0007311642968968212,-0.0001777012031896118,0.00019401890629949507,0.0009075939577961357,-0.13260537385940552,18.130334854125977,-1.1680023670196533,-17.948335647583008,-0.4928489327430725,-2.2488436698913574,0.16604940593242645,0
27,0.1300034523010254,0.13260537385940552,-18.031152725219727,1.1441986560821533,17.999910354614258,0.4983420968055725,2.2488436698913574,-0.17978231608867645,0.0,0.0,0.0,0.0,0.0,0.0,0.0,0.11653662067749633,0.5477103013964633,0.32565386221785114,0.34364941247297537,0.07342916943225129,0.059751437923510946,-0.18512202083544324,-0.609309680625012,-0.0578312709083361,-0.6666589451170805,-2.594553719001903,-0.05562063412334237,2.507971773840681,0.8763147255673442,-0.6090851748156966,-0.05753196718556838,-0.666603097082616,-2.5945565370258534,-0.05562143941554,2.507976027223799,0.8763108487046415,-0.00012781686052925018,-0.0011705571268315572,-0.00010998533877671127,-0.000639902079178785,0.00023010029019459024,-0.0004215574889930592,-0.0005501091358568252,0.0,0.0,0.0,0.0,0.0,0.0,0.0,0.00022450580931543396,0.0002993037227677145,5.58480344644563e-05,-2.818023950634796e-06,-8.052921976267613e-07,4.253383118157927e-06,-3.876862702756334e-06,0.00012781686052925018,0.0011705571268315572,0.00010998533877671127,0.000639902079178785,-0.00023010029019459024,0.0004215574889930592,0.0005501091358568252,-0.13260537385940552,18.031152725219727,-1.1441986560821533,-17.999910354614258,-0.4983420968055725,-2.2488436698913574,0.17978231608867645,0
28,0.13500285148620605,0.13260537385940552,-18.031152725219727,1.1441986560821533,17.999910354614258,0.4983420968055725,2.2488436698913574,-0.17978231608867645,0.0,0.0,0.0,0.0,0.0,0.0,0.0,0.11653662067749633,0.5477103013964633,0.32565386221785114,0.34364941247297537,0.07342916943225129,0.059751437923510946,-0.18512202083544324,-0.609309680625012,-0.0578312709083361,-0.6666589451170805,-2.594553719001903,-0.05562063412334237,2.507971773840681,0.8763147255673442,-0.6090851748156966,-0.05753196718556838,-0.666603097082616,-2.5945565370258534,-0.05562143941554,2.507976027223799,0.8763108487046415,-0.00012781686052925018,-0.0011705571268315572,-0.00010998533877671127,-0.000639902079178785,0.00023010029019459024,-0.0004215574889930592,-0.0005501091358568252,0.0,0.0,0.0,0.0,0.0,0.0,0.0,0.00022450580931543396,0.0002993037227677145,5.58480344644563e-05,-2.818023950634796e-06,-8.052921976267613e-07,4.253383118157927e-06,-3.876862702756334e-06,0.00012781686052925018,0.0011705571268315572,0.00010998533877671127,0.000639902079178785,-0.00023010029019459024,0.0004215574889930592,0.0005501091358568252,-0.13260537385940552,18.031152725219727,-1.1441986560821533,-17.999910354614258,-0.4983420968055725,-2.2488436698913574,0.17978231608867645,0
29,0.13999652862548828,0.08103066682815552,-18.106531143188477,1.1441986560821533,17.972139358520508,0.4928489327430725,2.2424349784851074,-0.22830526530742645,0.0,0.0,0.0,0.0,0.0,0.0,0.0,0.11287422968149803,0.5449791838886255,0.3224147119739947,0.3509671247607146,0.07441105405589851,0.06067913003363854,-0.18453236294958236,-0.6093060614583607,-0.05782605719277524,-0.6666589537838739,-2.594549544920001,-0.05562002375464102,2.507972506731671,0.8763215296875052,-0.6090851748156966,-0.05753196718556838,-0.666603097082616,-2.5945565370258534,-0.05562143941554,2.507976027223799,0.8763108487046415,0.0003833184136076804,1.8858045392120186e-05,0.00011741014920110084,0.00035893962811048394,0.000337094757371913,-7.465955088211506e-05,0.0014916694915270735,0.0,0.0,0.0,0.0,0.0,0.0,0.0,0.00022088664266417535,0.00029409000720685696,5.585670125785036e-05,-6.992105852532404e-06,-1.4156608989790431e-06,3.5204921280396206e-06,-1.068098286371999e-05,-0.0003833184136076804,-1.8858045392120186e-05,-0.00011741014920110084,-0.00035893962811048394,-0.000337094757371913,7.465955088211506e-05,-0.0014916694915270735,-0.08103066682815552,18.106531143188477,-1.1441986560821533,-17.972139358520508,-0.4928489327430725,-2.2424349784851074,0.22830526530742645,0
30,0.14499592781066895,0.08103066682815552,-18.106531143188477,1.1441986560821533,17.972139358520508,0.4928489327430725,2.2424349784851074,-0.22830526530742645,0.0,0.0,0.0,0.0,0.0,0.0,0.0,0.11287422968149803,0.5449791838886255,0.3224147119739947,0.3509671247607146,0.07441105405589851,0.06067913003363854,-0.18453236294958236,-0.6093060614583607,-0.05782605719277524,-0.6666589537838739,-2.594549544920001,-0.05562002375464102,2.507972506731671,0.8763215296875052,-0.6090851748156966,-0.05753196718556838,-0.666603097082616,-2.5945565370258534,-0.05562143941554,2.507976027223799,0.8763108487046415,0.0003833184136076804,1.8858045392120186e-05,0.00011741014920110084,0.00035893962811048394,0.000337094757371913,-7.465955088211506e-05,0.0014916694915270735,0.0,0.0,0.0,0.0,0.0,0.0,0.0,0.00022088664266417535,0.00029409000720685696,5.585670125785036e-05,-6.992105852532404e-06,-1.4156608989790431e-06,3.5204921280396206e-06,-1.068098286371999e-05,-0.0003833184136076804,-1.8858045392120186e-05,-0.00011741014920110084,-0.00035893962811048394,-0.000337094757371913,7.465955088211506e-05,-0.0014916694915270735,-0.08103066682815552,18.106531143188477,-1.1441986560821533,-17.972139358520508,-0.4928489327430725,-2.2424349784851074,0.22830526530742645,0
31,0.14999675750732422,0.10880166292190552,-18.130334854125977,1.1680023670196533,17.972139358520508,0.4983420968055725,2.2488436698913574,-0.20083944499492645,0.0,0.0,0.0,0.0,0.0,0.0,0.0,0.11632449665291358,0.5501024180436901,0.3285614044512358,0.34957699760681754,0.0745539950965923,0.06027565611695464,-0.18419876543595123,-0.6093080201823153,-0.05782430783638414,-0.6666606155529846,-2.594551770147511,-0.05562378708565483,2.507975998322277,0.876318478099173,-0.6090851748156966,-0.05753196718556838,-0.666603097082616,-2.5945565370258534,-0.05562143941554,2.507976027223799,0.8763108487046415,-0.0002532197439426823,-0.00013981242230291696,-0.000569762507049266,0.000196118712141993,0.00020744587544068729,-8.414202287858806e-05,0.0014995621233715947,0.0,0.0,0.0,0.0,0.0,0.0,0.0,0.00022284536661876242,0.0002923406508157575,5.7518470368611574e-05,-4.766878342277181e-06,2.347670114831446e-06,2.890152206447283e-08,-7.629394531472045e-06,0.0002532197439426823,0.00013981242230291696,0.000569762507049266,-0.000196118712141993,-0.00020744587544068729,8.414202287858806e-05,-0.0014995621233715947,-0.10880166292190552,18.130334854125977,-1.1680023670196533,-17.972139358520508,-0.4983420968055725,-2.2488436698913574,0.20083944499492645,0
32,0.15499567985534668,0.10880166292190552,-18.130334854125977,1.1680023670196533,17.972139358520508,0.4983420968055725,2.2488436698913574,-0.20083944499492645,0.0,0.0,0.0,0.0,0.0,0.0,0.0,0.11632449665291358,0.5501024180436901,0.3285614044512358,0.34957699760681754,0.0745539950965923,0.06027565611695464,-0.18419876543595123,-0.6093080201823153,-0.05782430783638414,-0.6666606155529846,-2.594551770147511,-0.05562378708565483,2.507975998322277,0.876318478099173,-0.6090851748156966,-0.05753196718556838,-0.666603097082616,-2.5945565370258534,-0.05562143941554,2.507976027223799,0.8763108487046415,-0.0002532197439426823,-0.00013981242230291696,-0.000569762507049266,0.000196118712141993,0.00020744587544068729,-8.414202287858806e-05,0.0014995621233715947,0.0,0.0,0.0,0.0,0.0,0.0,0.0,0.00022284536661876242,0.0002923406508157575,5.7518470368611574e-05,-4.766878342277181e-06,2.347670114831446e-06,2.890152206447283e-08,-7.629394531472045e-06,0.0002532197439426823,0.00013981242230291696,0.000569762507049266,-0.000196118712141993,-0.00020744587544068729,8.414202287858806e-05,-0.0014995621233715947,-0.10880166292190552,18.130334854125977,-1.1680023670196533,-17.972139358520508,-0.4983420968055725,-2.2488436698913574,0.20083944499492645,0
33,0.15999364852905273,0.08103066682815552,-18.106531143188477,1.1441986560821533,17.999910354614258,0.4928489327430725,2.2488436698913574,-0.15231649577617645,0.0,0.0,0.0,0.0,0.0,0.0,0.0,0.110272538302618,0.5529196143277447,0.326358069470669,0.3450442422794741,0.07511236278662915,0.05987368040635889,-0.1836142471935049,-0.6093060613473821,-0.0578259782717939,-0.6666589451170805,-2.5945537190019037,-0.05562215298280573,2.5079729501434707,0.8763130866065366,-0.6090851748156966,-0.05753196718556838,-0.666603097082616,-2.5945565370258534,-0.05562143941554,2.507976027223799,0.8763108487046415,0.00027340868715186947,-0.0003844322526319656,7.711062020174715e-05,-0.0005152087956597467,0.0003646652140009217,-0.00015882215121887434,-0.0006640844422610034,0.0,0.0,0.0,0.0,0.0,0.0,0.0,0.00022088653168550465,0.0002940110862255166,5.58480344644563e-05,-2.8180239497466175e-06,7.135672657268555e-07,3.0770803283175496e-06,-2.2379018951301788e-06,-0.00027340868715186947,0.0003844322526319656,-7.711062020174715e-05,0.0005152087956597467,-0.0003646652140009217,0.00015882215121887434,0.0006640844422610034,-0.08103066682815552,18.106531143188477,-1.1441986560821533,-17.999910354614258,-0.4928489327430725,-2.2488436698913574,0.15231649577617645,0
34,0.16508936882019043,0.08103066682815552,-18.106531143188477,1.1441986560821533,17.999910354614258,0.4928489327430725,2.2488436698913574,-0.15231649577617645,0.0,0.0,0.0,0.0,0.0,0.0,0.0,0.110272538302618,0.5529196143277447,0.326358069470669,0.3450442422794741,0.07511236278662915,0.05987368040635889,-0.1836142471935049,-0.6093060613473821,-0.0578259782717939,-0.6666589451170805,-2.5945537190019037,-0.05562215298280573,2.5079729501434707,0.8763130866065366,-0.6090851748156966,-0.05753196718556838,-0.666603097082616,-2.5945565370258534,-0.05562143941554,2.507976027223799,0.8763108487046415,0.00027340868715186947,-0.0003844322526319656,7.711062020174715e-05,-0.0005152087956597467,0.0003646652140009217,-0.00015882215121887434,-0.0006640844422610034,0.0,0.0,0.0,0.0,0.0,0.0,0.0,0.00022088653168550465,0.0002940110862255166,5.58480344644563e-05,-2.8180239497466175e-06,7.135672657268555e-07,3.0770803283175496e-06,-2.2379018951301788e-06,-0.00027340868715186947,0.0003844322526319656,-7.711062020174715e-05,0.0005152087956597467,-0.0003646652140009217,0.00015882215121887434,0.0006640844422610034,-0.08103066682815552,18.106531143188477,-1.1441986560821533,-17.999910354614258,-0.4928489327430725,-2.2488436698913574,0.15231649577617645,0
35,0.1700279712677002,0.08103066682815552,-18.130334854125977,1.1164276599884033,17.972139358520508,0.5047507882118225,2.2488436698913574,-0.17978231608867645,0.0,0.0,0.0,0.0,0.0,0.0,0.0,0.10801297450110121,0.546616386257453,0.3249650695248123,0.344735669741792,0.07519391348873938,0.05999921470518957,-0.18285710508326714,-0.6093060613473257,-0.057824307835938636,-0.6666569962752493,-2.5945517701600727,-0.05562452546104503,2.5079721211181067,0.8763161253362318,-0.6090851748156966,-0.05753196718556838,-0.666603097082616,-2.5945565370258534,-0.05562143941554,2.507976027223799,0.8763108487046415,0.0007627419420955289,4.511786031867821e-05,0.000238657193340457,0.00014486320322412266,-9.653601829187688e-05,-4.050560721973609e-05,-0.00012484010353301512,0.0,0.0,0.0,0.0,0.0,0.0,0.0,0.00022088653162910532,0.00029234065037025275,5.38991926333221e-05,-4.766865780769791e-06,3.0860455050296665e-06,3.90610569223071e-06,-5.276631590334091e-06,-0.0007627419420955289,-4.511786031867821e-05,-0.000238657193340457,-0.00014486320322412266,9.653601829187688e-05,4.050560721973609e-05,0.00012484010353301512,-0.08103066682815552,18.130334854125977,-1.1164276599884033,-17.972139358520508,-0.5047507882118225,-2.2488436698913574,0.17978231608867645,0
36,0.17501449584960938,0.08103066682815552,-18.130334854125977,1.1164276599884033,17.972139358520508,0.5047507882118225,2.2488436698913574,-0.17978231608867645,0.0,0.0,0.0,0.0,0.0,0.0,0.0,0.10801297450110121,0.546616386257453,0.3249650695248123,0.344735669741792,0.07519391348873938,0.05999921470518957,-0.18285710508326714,-0.6093060613473257,-0.057824307835938636,-0.6666569962752493,-2.5945517701600727,-0.05562452546104503,2.5079721211181067,0.8763161253362318,-0.6090851748156966,-0.05753196718556838,-0.666603097082616,-2.5945565370258534,-0.05562143941554,2.507976027223799,0.8763108487046415,0.0007627419420955289,4.511786031867821e-05,0.000238657193340457,0.00014486320322412266,-9.653601829187688e-05,-4.050560721973609e-05,-0.00012484010353301512,0.0,0.0,0.0,0.0,0.0,0.0,0.0,0.00022088653162910532,0.00029234065037025275,5.38991926333221e-05,-4.766865780769791e-06,3.0860455050296665e-06,3.90610569223071e-06,-5.276631590334091e-06,-0.0007627419420955289,-4.511786031867821e-05,-0.000238657193340457,-0.00014486320322412266,9.653601829187688e-05,4.050560721973609e-05,0.00012484010353301512,-0.08103066682815552,18.130334854125977,-1.1164276599884033,-17.972139358520508,-0.5047507882118225,-2.2488436698913574,0.17978231608867645,0
37,0.1800522804260254,0.13260537385940552,-18.078760147094727,1.0926239490509033,17.972139358520508,0.5047507882118225,2.2360262870788574,-0.16604940593242645,0.0,0.0,0.0,0.0,0.0,0.0,0.0,0.10763304531769913,0.5462618441939152,0.32357117172414346,0.3450551855577595,0.07505317967920411,0.06024767288458892,-0.18227972721441923,-0.609309680625012,-0.05782792808795794,-0.666655325839394,-2.594549544920001,-0.05562130228188548,2.5079743577478246,0.8763146125392042,-0.6090851748156966,-0.05753196718556838,-0.666603097082616,-2.5945565370258534,-0.05562143941554,2.507976027223799,0.8763108487046415,-0.000700047133093651,-0.0006779659519940485,0.0012470545277715054,3.7432034431070784e-05,-0.00032525675476906946,0.00022910048688381813,-0.0014334255669344305,0.0,0.0,0.0,0.0,0.0,0.0,0.0,0.00022450580931543396,0.0002959609023895568,5.222875677801664e-05,-6.992105852532404e-06,-1.371336545222257e-07,1.669475974352963e-06,-3.7638345626866965e-06,0.000700047133093651,0.0006779659519940485,-0.0012470545277715054,-3.7432034431070784e-05,0.00032525675476906946,-0.00022910048688381813,0.0014334255669344305,-0.13260537385940552,18.078760147094727,-1.0926239490509033,-17.972139358520508,-0.5047507882118225,-2.2360262870788574,0.16604940593242645,0
38,0.18500328063964844,0.13260537385940552,-18.078760147094727,1.0926239490509033,17.972139358520508,0.5047507882118225,2.2360262870788574,-0.16604940593242645,0.0,0.0,0.0,0.0,0.0,0.0,0.0,0.10763304531769913,0.5462618441939152,0.32357117172414346,0.3450551855577595,0.07505317967920411,0.06024767288458892,-0.18227972721441923,-0.609309680625012,-0.05782792808795794,-0.666655325839394,-2.594549544920001,-0.05562130228188548,2.5079743577478246,0.8763146125392042,-0.6090851748156966,-0.05753196718556838,-0.666603097082616,-2.5945565370258534,-0.05562143941554,2.507976027223799,0.8763108487046415,-0.000700047133093651,-0.0006779659519940485,0.0012470545277715054,3.7432034431070784e-05,-0.00032525675476906946,0.00022910048688381813,-0.0014334255669344305,0.0,0.0,0.0,0.0,0.0,0.0,0.0,0.00022450580931543396,0.0002959609023895568,5.222875677801664e-05,-6.992105852532404e-06,-1.371336545222257e-07,1.669475974352963e-06,-3.7638345626866965e-06,0.000700047133093651,0.0006779659519940485,-0.0012470545277715054,-3.7432034431070784e-05,0.00032525675476906946,-0.00022910048688381813,0.0014334255669344305,-0.13260537385940552,18.078760147094727,-1.0926239490509033,-17.972139358520508,-0.5047507882118225,-2.2360262870788574,0.16604940593242645,0
39,0.1899549961090088,0.16037636995315552,-18.130334854125977,1.1164276599884033,17.972139358520508,0.4983420968055725,2.2424349784851074,-0.19351522624492645,0.0,0.0,0.0,0.0,0.0,0.0,0.0,0.10654572192521398,0.5459879675789856,0.3223833651912693,0.34921560648260586,0.07509442904316058,0.060480047326671726,-0.182824704784616,-0.6093116294668431,-0.0578250181246277,-0.6666569962752493,-2.594551770147511,-0.05562335465547058,2.507975647268112,0.876317625051234,-0.6090851748156966,-0.05753196718556838,-0.666603097082616,-2.5945565370258534,-0.05562143941554,2.507976027223799,0.8763108487046415,-0.0014096329496530802,0.0009450856718984224,0.0005080441703000535,0.00036933045380539795,0.00019936807120189278,-6.581480155339129e-05,0.00018021113456215948,0.0,0.0,0.0,0.0,0.0,0.0,0.0,0.00022645465114656815,0.00029305093905931945,5.38991926333221e-05,-4.766878342277181e-06,1.9152399305805146e-06,3.799556869132914e-07,-6.776346592518578e-06,0.0014096329496530802,-0.0009450856718984224,-0.0005080441703000535,-0.00036933045380539795,-0.00019936807120189278,6.581480155339129e-05,-0.00018021113456215948,-0.16037636995315552,18.130334854125977,-1.1164276599884033,-17.972139358520508,-0.4983420968055725,-2.2424349784851074,0.19351522624492645,0
40,0.19499731063842773,0.16037636995315552,-18.130334854125977,1.1164276599884033,17.972139358520508,0.4983420968055725,2.2424349784851074,-0.19351522624492645,0.0,0.0,0.0,0.0,0.0,0.0,0.0,0.10654572192521398,0.5459879675789856,0.3223833651912693,0.34921560648260586,0.07509442904316058,0.060480047326671726,-0.182824704784616,-0.6093116294668431,-0.0578250181246277,-0.6666569962752493,-2.594551770147511,-0.05562335465547058,2.507975647268112,0.876317625051234,-0.6090851748156966,-0.05753196718556838,-0.666603097082616,-2.5945565370258534,-0.05562143941554,2.507976027223799,0.8763108487046415,-0.0014096329496530802,0.0009450856718984224,0.0005080441703000535,0.00036933045380539795,0.00019936807120189278,-6.581480155339129e-05,0.00018021113456215948,0.0,0.0,0.0,0.0,0.0,0.0,0.0,0.00022645465114656815,0.00029305093905931945,5.38991926333221e-05,-4.766878342277181e-06,1.9152399305805146e-06,3.799556869132914e-07,-6.776346592518578e-06,0.0014096329496530802,-0.0009450856718984224,-0.0005080441703000535,-0.00036933045380539795,-0.00019936807120189278,6.581480155339129e-05,-0.00018021113456215948,-0.16037636995315552,18.130334854125977,-1.1164276599884033,-17.972139358520508,-0.4983420968055725,-2.2424349784851074,0.19351522624492645,0
41,0.19999933242797852,0.08103066682815552,-18.106531143188477,1.1441986560821533,17.972139358520508,0.4983420968055725,2.2360262870788574,-0.20083944499492645,0.0,0.0,0.0,0.0,0.0,0.0,0.0,0.10935368224234167,0.546370624650255,0.32374512273888734,0.3517198409784798,0.07538739675919655,0.060026787308089816,-0.18304453271692206,-0.6093060613473257,-0.05782668856448707,-0.6666589451170805,-2.5945517701600727,-0.05562378850728862,2.5079732356229205,0.8763184780989524,-0.6090851748156966,-0.05753196718556838,-0.666603097082616,-2.5945565370258534,-0.05562143941554,2.507976027223799,0.8763108487046415,0.001084567208227246,-4.7732612957557225e-05,-0.00010715667397310259,0.0005034477108811282,8.695966457488119e-05,0.00023762709653277547,0.0008493959782367655,0.0,0.0,0.0,0.0,0.0,0.0,0.0,0.00022088653162910532,0.0002947213789186859,5.58480344644563e-05,-4.766865780769791e-06,2.3490917486213014e-06,2.7916008784600876e-06,-7.62939431087073e-06,-0.001084567208227246,4.7732612957557225e-05,0.00010715667397310259,-0.0005034477108811282,-8.695966457488119e-05,-0.00023762709653277547,-0.0008493959782367655,-0.08103066682815552,18.106531143188477,-1.1441986560821533,-17.972139358520508,-0.4983420968055725,-2.2360262870788574,0.20083944499492645,0
42,0.20499897003173828,0.08103066682815552,-18.106531143188477,1.1441986560821533,17.972139358520508,0.4983420968055725,2.2360262870788574,-0.20083944499492645,0.0,0.0,0.0,0.0,0.0,0.0,0.0,0.10935368224234167,0.546370624650255,0.32374512273888734,0.3517198409784798,0.07538739675919655,0.060026787308089816,-0.18304453271692206,-0.6093060613473257,-0.05782668856448707,-0.6666589451170805,-2.5945517701600727,-0.05562378850728862,2.5079732356229205,0.8763184780989524,-0.6090851748156966,-0.05753196718556838,-0.666603097082616,-2.5945565370258534,-0.05562143941554,2.507976027223799,0.8763108487046415,0.001084567208227246,-4.7732612957557225e-05,-0.00010715667397310259,0.0005034477108811282,8.695966457488119e-05,0.00023762709653277547,0.0008493959782367655,0.0,0.0,0.0,0.0,0.0,0.0,0.0,0.00022088653162910532,0.0002947213789186859,5.58480344644563e-05,-4.766865780769791e-06,2.3490917486213014e-06,2.7916008784600876e-06,-7.62939431087073e-06,-0.001084567208227246,4.7732612957557225e-05,0.00010715667397310259,-0.0005034477108811282,-8.695966457488119e-05,-0.00023762709653277547,-0.0008493959782367655,-0.08103066682815552,18.106531143188477,-1.1441986560821533,-17.972139358520508,-0.4983420968055725,-2.2360262870788574,0.20083944499492645,0
43,0.20999646186828613,0.13260537385940552,-18.106531143188477,1.1918060779571533,17.972139358520508,0.4983420968055725,2.2488436698913574,-0.19351522624492645,0.0,0.0,0.0,0.0,0.0,0.0,0.0,0.10668205304813992,0.5493001773378109,0.31893070066599916,0.35279680950347186,0.07560014844142916,0.059585199125595414,-0.18254508638114375,-0.609309680625012,-0.05782669733348319,-0.666662285988791,-2.5945517701600727,-0.05562365567072286,2.5079728150473333,0.8763176642970906,-0.6090851748156966,-0.05753196718556838,-0.666603097082616,-2.5945565370258534,-0.05562143941554,2.507976027223799,0.8763108487046415,-0.0011333550661038877,-0.0001947556708862234,-0.0008906065865823124,0.0007989442975615793,3.333976503463803e-05,-0.00019827771071688136,0.0008574149646603041,0.0,0.0,0.0,0.0,0.0,0.0,0.0,0.00022450580931543396,0.0002947301479148054,5.91889061749562e-05,-4.766865780769791e-06,2.2162551828602828e-06,3.2121764657055962e-06,-6.815592449083141e-06,0.0011333550661038877,0.0001947556708862234,0.0008906065865823124,-0.0007989442975615793,-3.333976503463803e-05,0.00019827771071688136,-0.0008574149646603041,-0.13260537385940552,18.106531143188477,-1.1918060779571533,-17.972139358520508,-0.4983420968055725,-2.2488436698913574,0.19351522624492645,0
44,0.2149960994720459,0.13260537385940552,-18.106531143188477,1.1918060779571533,17.972139358520508,0.4983420968055725,2.2488436698913574,-0.19351522624492645,0.0,0.0,0.0,0.0,0.0,0.0,0.0,0.10668205304813992,0.5493001773378109,0.31893070066599916,0.35279680950347186,0.07560014844142916,0.059585199125595414,-0.18254508638114375,-0.609309680625012,-0.05782669733348319,-0.666662285988791,-2.5945517701600727,-0.05562365567072286,2.5079728150473333,0.8763176642970906,-0.6090851748156966,-0.05753196718556838,-0.666603097082616,-2.5945565370258534,-0.05562143941554,2.507976027223799,0.8763108487046415,-0.0011333550661038877,-0.0001947556708862234,-0.0008906065865823124,0.0007989442975615793,3.333976503463803e-05,-0.00019827771071688136,0.0008574149646603041,0.0,0.0,0.0,0.0,0.0,0.0,0.0,0.00022450580931543396,0.0002947301479148054,5.91889061749562e-05,-4.766865780769791e-06,2.2162551828602828e-06,3.2121764657055962e-06,-6.815592449083141e-06,0.0011333550661038877,0.0001947556708862234,0.0008906065865823124,-0.0007989442975615793,-3.333976503463803e-05,0.00019827771071688136,-0.0008574149646603041,-0.13260537385940552,18.106531143188477,-1.1918060779571533,-17.972139358520508,-0.4983420968055725,-2.2488436698913574,0.19351522624492645,0
45,0.2201066017150879,0.13260537385940552,-18.130334854125977,1.1680023670196533,17.972139358520508,0.5102439522743225,2.2424349784851074,-0.16604940593242645,0.0,0.0,0.0,0.0,0.0,0.0,0.0,0.10996627634014709,0.5510083281591713,0.32598469935862295,0.3496470890482887,0.07497761665948781,0.05903218624574141,-0.18155199156726623,-0.609309680625012,-0.05782430783999776,-0.6666606155529357,-2.5945517701600727,-0.05562193859458014,2.5079767186416446,0.8763146123777725,-0.6090851748156966,-0.05753196718556838,-0.666603097082616,-2.5945565370258534,-0.05562143941554,2.507976027223799,0.8763108487046415,4.559217376362435e-05,0.0003053093366144497,-0.0003407775898475756,0.0001311055276963603,-0.0005498205803802227,0.0001516539676794658,-0.0007753180775096076,0.0,0.0,0.0,0.0,0.0,0.0,0.0,0.00022450580931543396,0.00029234065442937385,5.751847031965074e-05,-4.766865780769791e-06,4.991790401379093e-07,-6.914178456440823e-07,-3.7636731310408678e-06,-4.559217376362435e-05,-0.0003053093366144497,0.0003407775898475756,-0.0001311055276963603,0.0005498205803802227,-0.0001516539676794658,0.0007753180775096076,-0.13260537385940552,18.130334854125977,-1.1680023670196533,-17.972139358520508,-0.5102439522743225,-2.2424349784851074,0.16604940593242645,0
46,0.22499632835388184,0.13260537385940552,-18.130334854125977,1.1680023670196533,17.972139358520508,0.5102439522743225,2.2424349784851074,-0.16604940593242645,0.0,0.0,0.0,0.0,0.0,0.0,0.0,0.10996627634014709,0.5510083281591713,0.32598469935862295,0.3496470890482887,0.07497761665948781,0.05903218624574141,-0.18155199156726623,-0.609309680625012,-0.05782430783999776,-0.6666606155529357,-2.5945517701600727,-0.05562193859458014,2.5079767186416446,0.8763146123777725,-0.6090851748156966,-0.05753196718556838,-0.666603097082616,-2.5945565370258534,-0.05562143941554,2.507976027223799,0.8763108487046415,4.559217376362435e-05,0.0003053093366144497,-0.0003407775898475756,0.0001311055276963603,-0.0005498205803802227,0.0001516539676794658,-0.0007753180775096076,0.0,0.0,0.0,0.0,0.0,0.0,0.0,0.00022450580931543396,0.00029234065442937385,5.751847031965074e-05,-4.766865780769791e-06,4.991790401379093e-07,-6.914178456440823e-07,-3.7636731310408678e-06,-4.559217376362435e-05,-0.0003053093366144497,0.0003407775898475756,-0.0001311055276963603,0.0005498205803802227,-0.0001516539676794658,0.0007753180775096076,-0.13260537385940552,18.130334854125977,-1.1680023670196533,-17.972139358520508,-0.5102439522743225,-2.2424349784851074,0.16604940593242645,0
47,0.22999930381774902,0.13260537385940552,-18.130334854125977,1.1680023670196533,17.972139358520508,0.5102439522743225,2.2424349784851074,-0.16604940593242645,0.0,0.0,0.0,0.0,0.0,0.0,0.0,0.10996627634014709,0.5510083281591713,0.32598469935862295,0.3496470890482887,0.07497761665948781,0.05903218624574141,-0.18155199156726623,-0.609309680625012,-0.05782430783999776,-0.6666606155529357,-2.5945517701600727,-0.05562193859458014,2.5079767186416446,0.8763146123777725,-0.6090851748156966,-0.05753196718556838,-0.666603097082616,-2.5945565370258534,-0.05562143941554,2.507976027223799,0.8763108487046415,4.559217376362435e-05,0.0003053093366144497,-0.0003407775898475756,0.0001311055276963603,-0.0005498205803802227,0.0001516539676794658,-0.0007753180775096076,0.0,0.0,0.0,0.0,0.0,0.0,0.0,0.00022450580931543396,0.00029234065442937385,5.751847031965074e-05,-4.766865780769791e-06,4.991790401379093e-07,-6.914178456440823e-07,-3.7636731310408678e-06,-4.559217376362435e-05,-0.0003053093366144497,0.0003407775898475756,-0.0001311055276963603,0.0005498205803802227,-0.0001516539676794658,0.0007753180775096076,-0.13260537385940552,18.130334854125977,-1.1680023670196533,-17.972139358520508,-0.5102439522743225,-2.2424349784851074,0.16604940593242645,0
48,0.23499679565429688,0.13260537385940552,-18.130334854125977,1.1680023670196533,17.972139358520508,0.5102439522743225,2.2424349784851074,-0.16604940593242645,0.0,0.0,0.0,0.0,0.0,0.0,0.0,0.10996627634014709,0.5510083281591713,0.32598469935862295,0.3496470890482887,0.07497761665948781,0.05903218624574141,-0.18155199156726623,-0.609309680625012,-0.05782430783999776,-0.6666606155529357,-2.5945517701600727,-0.05562193859458014,2.5079767186416446,0.8763146123777725,-0.6090851748156966,-0.05753196718556838,-0.666603097082616,-2.5945565370258534,-0.05562143941554,2.507976027223799,0.8763108487046415,4.559217376362435e-05,0.0003053093366144497,-0.0003407775898475756,0.0001311055276963603,-0.0005498205803802227,0.0001516539676794658,-0.0007753180775096076,0.0,0.0,0.0,0.0,0.0,0.0,0.0,0.00022450580931543396,0.00029234065442937385,5.751847031965074e-05,-4.766865780769791e-06,4.991790401379093e-07,-6.914178456440823e-07,-3.7636731310408678e-06,-4.559217376362435e-05,-0.0003053093366144497,0.0003407775898475756,-0.0001311055276963603,0.0005498205803802227,-0.0001516539676794658,0.0007753180775096076,-0.13260537385940552,18.130334854125977,-1.1680023670196533,-17.972139358520508,-0.5102439522743225,-2.2424349784851074,0.16604940593242645,0
49,0.24001407623291016,0.10880166292190552,-18.130334854125977,1.1680023670196533,18.023714065551758,0.4983420968055725,2.2360262870788574,-0.16604940593242645,0.0,0.0,0.0,0.0,0.0,0.0,0.0,0.10872951523021711,0.548188733348814,0.32545957580485296,0.3472469175919276,0.07457547220663574,0.0586444188770169,-0.18171664206721014,-0.6093080101891568,-0.05782643870198938,-0.6666606155529357,-2.594555389437759,-0.055623695028548956,2.507973296731914,0.8763145994034898,-0.6090851748156966,-0.05753196718556838,-0.666603097082616,-2.5945565370258534,-0.05562143941554,2.507976027223799,0.8763108487046415,6.36492313558766e-05,-1.293449780071403e-05,-0.00013669990973743735,-0.0015057037405025564,0.0001267063121016494,0.0004468299291911947,-0.0005066607947165119,0.0,0.0,0.0,0.0,0.0,0.0,0.0,0.00022283537346023952,0.0002944715164209938,5.751847031965074e-05,-1.147588094330132e-06,2.2556130089557147e-06,2.7304918850390436e-06,-3.7506988482816084e-06,-6.36492313558766e-05,1.293449780071403e-05,0.00013669990973743735,0.0015057037405025564,-0.0001267063121016494,-0.0004468299291911947,0.0005066607947165119,-0.10880166292190552,18.130334854125977,-1.1680023670196533,-18.023714065551758,-0.4983420968055725,-2.2360262870788574,0.16604940593242645,0
50,0.24500608444213867,0.10880166292190552,-18.130334854125977,1.1680023670196533,18.023714065551758,0.4983420968055725,2.2360262870788574,-0.16604940593242645,0.0,0.0,0.0,0.0,0.0,0.0,0.0,0.10872951523021711,0.548188733348814,0.32545957580485296,0.3472469175919276,0.07457547220663574,0.0586444188770169,-0.18171664206721014,-0.6093080101891568,-0.05782643870198938,-0.6666606155529357,-2.594555389437759,-0.055623695028548956,2.507973296731914,0.8763145994034898,-0.6090851748156966,-0.05753196718556838,-0.666603097082616,-2.5945565370258534,-0.05562143941554,2.507976027223799,0.8763108487046415,6.36492313558766e-05,-1.293449780071403e-05,-0.00013669990973743735,-0.0015057037405025564,0.0001267063121016494,0.0004468299291911947,-0.0005066607947165119,0.0,0.0,0.0,0.0,0.0,0.0,0.0,0.00022283537346023952,0.0002944715164209938,5.751847031965074e-05,-1.147588094330132e-06,2.2556130089557147e-06,2.7304918850390436e-06,-3.7506988482816084e-06,-6.36492313558766e-05,1.293449780071403e-05,0.00013669990973743735,0.0015057037405025564,-0.0001267063121016494,-0.0004468299291911947,0.0005066607947165119,-0.10880166292190552,18.130334854125977,-1.1680023670196533,-18.023714065551758,-0.4983420968055725,-2.2360262870788574,0.16604940593242645,0
51,0.25000500679016113,0.10880166292190552,-18.130334854125977,1.1680023670196533,17.999910354614258,0.5047507882118225,2.2488436698913574,-0.17337362468242645,0.0,0.0,0.0,0.0,0.0,0.0,0.0,0.11010300062440458,0.5450223703774435,0.32818672794377757,0.35281906759786835,0.07447067655111252,0.05979785716246242,-0.18159824569150607,-0.6093080101891568,-0.05782431087922534,-0.6666606155529357,-2.5945537190019037,-0.05562453990767946,2.507972814401656,0.8763154263412873,-0.6090851748156966,-0.05753196718556838,-0.666603097082616,-2.5945565370258534,-0.05562143941554,2.507976027223799,0.8763108487046415,8.398088229594631e-05,0.0005031019509675219,-0.00035359900155222044,-1.3308712399653976e-05,-0.0002514399681576435,-0.0004550570538275638,-5.193871914418905e-05,0.0,0.0,0.0,0.0,0.0,0.0,0.0,0.00022283537346023952,0.0002923436936569587,5.751847031965074e-05,-2.8180239497466175e-06,3.100492139460065e-06,3.212822142995009e-06,-4.577636645852756e-06,-8.398088229594631e-05,-0.0005031019509675219,0.00035359900155222044,1.3308712399653976e-05,0.0002514399681576435,0.0004550570538275638,5.193871914418905e-05,-0.10880166292190552,18.130334854125977,-1.1680023670196533,-17.999910354614258,-0.5047507882118225,-2.2488436698913574,0.17337362468242645,0
52,0.2551078796386719,0.10880166292190552,-18.130334854125977,1.1680023670196533,17.999910354614258,0.5047507882118225,2.2488436698913574,-0.17337362468242645,0.0,0.0,0.0,0.0,0.0,0.0,0.0,0.11010300062440458,0.5450223703774435,0.32818672794377757,0.35281906759786835,0.07447067655111252,0.05979785716246242,-0.18159824569150607,-0.6093080101891568,-0.05782431087922534,-0.6666606155529357,-2.5945537190019037,-0.05562453990767946,2.507972814401656,0.8763154263412873,-0.6090851748156966,-0.05753196718556838,-0.666603097082616,-2.5945565370258534,-0.05562143941554,2.507976027223799,0.8763108487046415,8.398088229594631e-05,0.0005031019509675219,-0.00035359900155222044,-1.3308712399653976e-05,-0.0002514399681576435,-0.0004550570538275638,-5.193871914418905e-05,0.0,0.0,0.0,0.0,0.0,0.0,0.0,0.00022283537346023952,0.0002923436936569587,5.751847031965074e-05,-2.8180239497466175e-06,3.100492139460065e-06,3.212822142995009e-06,-4.577636645852756e-06,-8.398088229594631e-05,-0.0005031019509675219,0.00035359900155222044,1.3308712399653976e-05,0.0002514399681576435,0.0004550570538275638,5.193871914418905e-05,-0.10880166292190552,18.130334854125977,-1.1680023670196533,-17.999910354614258,-0.5047507882118225,-2.2488436698913574,0.17337362468242645,0
53,0.25999975204467773,0.10880166292190552,-18.106531143188477,1.0688202381134033,17.948335647583008,0.4983420968055725,2.2296175956726074,-0.18710653483867645,0.0,0.0,0.0,0.0,0.0,0.0,0.0,0.10805640791120655,0.5457765204879064,0.3306398886115269,0.3487316894649544,0.0746140870924383,0.0583697521976546,-0.18119321419789206,-0.609308010522262,-0.057825978271811074,-0.6666536553672,-2.5945500997242177,-0.05562369650704266,2.507977109697908,0.8763169522202676,-0.6090851748156966,-0.05753196718556838,-0.666603097082616,-2.5945565370258534,-0.05562143941554,2.507976027223799,0.8763108487046415,-0.00017662101208138273,-0.00018513422904987083,0.002039908557984619,0.0008239606415213605,-5.499031201813657e-06,0.0004925541229095204,8.567710985653275e-05,0.0,0.0,0.0,0.0,0.0,0.0,0.0,0.0002228357065654496,0.00029401108624269034,5.0558284584001356e-05,-6.4373016357421875e-06,2.2570915026581817e-06,-1.0824741090154077e-06,-6.1035156261324275e-06,0.00017662101208138273,0.00018513422904987083,-0.002039908557984619,-0.0008239606415213605,5.499031201813657e-06,-0.0004925541229095204,-8.567710985653275e-05,-0.10880166292190552,18.106531143188477,-1.0688202381134033,-17.948335647583008,-0.4983420968055725,-2.2296175956726074,0.18710653483867645,0
54,0.2649979591369629,0.10880166292190552,-18.106531143188477,1.0688202381134033,17.948335647583008,0.4983420968055725,2.2296175956726074,-0.18710653483867645,0.0,0.0,0.0,0.0,0.0,0.0,0.0,0.10805640791120655,0.5457765204879064,0.3306398886115269,0.3487316894649544,0.0746140870924383,0.0583697521976546,-0.18119321419789206,-0.609308010522262,-0.057825978271811074,-0.6666536553672,-2.5945500997242177,-0.05562369650704266,2.507977109697908,0.8763169522202676,-0.6090851748156966,-0.05753196718556838,-0.666603097082616,-2.5945565370258534,-0.05562143941554,2.507976027223799,0.8763108487046415,-0.00017662101208138273,-0.00018513422904987083,0.002039908557984619,0.0008239606415213605,-5.499031201813657e-06,0.0004925541229095204,8.567710985653275e-05,0.0,0.0,0.0,0.0,0.0,0.0,0.0,0.0002228357065654496,0.00029401108624269034,5.0558284584001356e-05,-6.4373016357421875e-06,2.2570915026581817e-06,-1.0824741090154077e-06,-6.1035156261324275e-06,0.00017662101208138273,0.00018513422904987083,-0.002039908557984619,-0.0008239606415213605,5.499031201813657e-06,-0.0004925541229095204,-8.567710985653275e-05,-0.10880166292190552,18.106531143188477,-1.0688202381134033,-17.948335647583008,-0.4983420968055725,-2.2296175956726074,0.18710653483867645,0
55,0.26999759674072266,0.08103066682815552,-18.130334854125977,1.1441986560821533,17.972139358520508,0.4928489327430725,2.2360262870788574,-0.15231649577617645,0.0,0.0,0.0,0.0,0.0,0.0,0.0,0.10334394200715871,0.5457172971173584,0.3270979268412333,0.3457686516468106,0.07505832102508778,0.05769327852656336,-0.1811474744844502,-0.6093060613473426,-0.057824307835938636,-0.6666589451170786,-2.5945517701600727,-0.055621798162049624,2.50797427796402,0.8763130852068216,-0.6090851748156966,-0.05753196718556838,-0.666603097082616,-2.5945565370258534,-0.05562143941554,2.507976027223799,0.8763108487046415,0.0008032540236785212,0.0007569073969232809,-0.000591006601121773,-3.2207370571055496e-06,0.0002494489774214892,0.00012047596077476374,-0.0009267669590728313,0.0,0.0,0.0,0.0,0.0,0.0,0.0,0.0002208865316459807,0.00029234065037025275,5.584803446256892e-05,-4.766865780769791e-06,3.58746509623864e-07,1.7492597788049125e-06,-2.236502180119615e-06,-0.0008032540236785212,-0.0007569073969232809,0.000591006601121773,3.2207370571055496e-06,-0.0002494489774214892,-0.00012047596077476374,0.0009267669590728313,-0.08103066682815552,18.130334854125977,-1.1441986560821533,-17.972139358520508,-0.4928489327430725,-2.2360262870788574,0.15231649577617645,0
56,0.2749967575073242,0.08103066682815552,-18.130334854125977,1.1441986560821533,17.972139358520508,0.4928489327430725,2.2360262870788574,-0.15231649577617645,0.0,0.0,0.0,0.0,0.0,0.0,0.0,0.10334394200715871,0.5457172971173584,0.3270979268412333,0.3457686516468106,0.07505832102508778,0.05769327852656336,-0.1811474744844502,-0.6093060613473426,-0.057824307835938636,-0.6666589451170786,-2.5945517701600727,-0.055621798162049624,2.50797427796402,0.8763130852068216,-0.6090851748156966,-0.05753196718556838,-0.666603097082616,-2.5945565370258534,-0.05562143941554,2.507976027223799,0.8763108487046415,0.0008032540236785212,0.0007569073969232809,-0.000591006601121773,-3.2207370571055496e-06,0.0002494489774214892,0.00012047596077476374,-0.0009267669590728313,0.0,0.0,0.0,0.0,0.0,0.0,0.0,0.0002208865316459807,0.00029234065037025275,5.584803446256892e-05,-4.766865780769791e-06,3.58746509623864e-07,1.7492597788049125e-06,-2.236502180119615e-06,-0.0008032540236785212,-0.0007569073969232809,0.000591006601121773,3.2207370571055496e-06,-0.0002494489774214892,-0.00012047596077476374,0.0009267669590728313,-0.08103066682815552,18.130334854125977,-1.1441986560821533,-17.972139358520508,-0.4928489327430725,-2.2360262870788574,0.15231649577617645,0
57,0.2799966335296631,0.10880166292190552,-18.130334854125977,1.1680023670196533,17.999910354614258,0.4983420968055725,2.2360262870788574,-0.20724813640117645,0.0,0.0,0.0,0.0,0.0,0.0,0.0,0.10350565205286734,0.5433319203924918,0.32459211752248185,0.34815090053789016,0.07507444137582701,0.05820474118201027,-0.18085880134877041,-0.6093080101891568,-0.057824544598833155,-0.6666606155529357,-2.5945537190019037,-0.05562378807696348,2.5079731789187307,0.8763191896914798,-0.6090851748156966,-0.05753196718556838,-0.666603097082616,-2.5945565370258534,-0.05562143941554,2.507976027223799,0.8763108487046415,-0.00016975465062663478,0.0003663725013662983,-0.0011443352171874128,-0.0005205203676698324,0.0001357167025602936,0.0001616859164172597,0.0006149092948877023,0.0,0.0,0.0,0.0,0.0,0.0,0.0,0.00022283537346023952,0.0002925774132647718,5.751847031965074e-05,-2.8180239497466175e-06,2.348661423477727e-06,2.8483050682481803e-06,-8.340986838328845e-06,0.00016975465062663478,-0.0003663725013662983,0.0011443352171874128,0.0005205203676698324,-0.0001357167025602936,-0.0001616859164172597,-0.0006149092948877023,-0.10880166292190552,18.130334854125977,-1.1680023670196533,-17.999910354614258,-0.4983420968055725,-2.2360262870788574,0.20724813640117645,0
58,0.28499579429626465,0.10880166292190552,-18.130334854125977,1.1680023670196533,17.999910354614258,0.4983420968055725,2.2360262870788574,-0.20724813640117645,0.0,0.0,0.0,0.0,0.0,0.0,0.0,0.10350565205286734,0.5433319203924918,0.32459211752248185,0.34815090053789016,0.07507444137582701,0.05820474118201027,-0.18085880134877041,-0.6093080101891568,-0.057824544598833155,-0.6666606155529357,-2.5945537190019037,-0.05562378807696348,2.5079731789187307,0.8763191896914798,-0.6090851748156966,-0.05753196718556838,-0.666603097082616,-2.5945565370258534,-0.05562143941554,2.507976027223799,0.8763108487046415,-0.00016975465062663478,0.0003663725013662983,-0.0011443352171874128,-0.0005205203676698324,0.0001357167025602936,0.0001616859164172597,0.0006149092948877023,0.0,0.0,0.0,0.0,0.0,0.0,0.0,0.00022283537346023952,0.0002925774132647718,5.751847031965074e-05,-2.8180239497466175e-06,2.348661423477727e-06,2.8483050682481803e-06,-8.340986838328845e-06,0.00016975465062663478,-0.0003663725013662983,0.0011443352171874128,0.0005205203676698324,-0.0001357167025602936,-0.0001616859164172597,-0.0006149092948877023,-0.10880166292190552,18.130334854125977,-1.1680023670196533,-17.999910354614258,-0.4983420968055725,-2.2360262870788574,0.20724813640117645,0
59,0.2899949550628662,0.10880166292190552,-18.078760147094727,1.1918060779571533,17.948335647583008,0.4928489327430725,2.2488436698913574,-0.16604940593242645,0.0,0.0,0.0,0.0,0.0,0.0,0.0,0.10460309899024477,0.5442422246442499,0.32456091874143966,0.34648387908436035,0.0750968239084227,0.05774800350339915,-0.18198399793135353,-0.6093080101891568,-0.057828638377978046,-0.666662285988791,-2.5945500997242177,-0.05561990553706794,2.507972239333445,0.8763145602114665,-0.6090851748156966,-0.05753196718556838,-0.666603097082616,-2.5945565370258534,-0.05562143941554,2.507976027223799,0.8763108487046415,-0.0004492002760294206,-0.0009569876817856521,-0.0011555511822338835,0.0005248877880973809,0.00029851189616162554,-0.000290820781763347,-0.0002607893042498908,0.0,0.0,0.0,0.0,0.0,0.0,0.0,0.00022283537346023952,0.00029667119240966294,5.91889061749562e-05,-6.4373016357421875e-06,-1.5338784720569931e-06,3.787890353823542e-06,-3.71150682498822e-06,0.0004492002760294206,0.0009569876817856521,0.0011555511822338835,-0.0005248877880973809,-0.00029851189616162554,0.000290820781763347,0.0002607893042498908,-0.10880166292190552,18.078760147094727,-1.1918060779571533,-17.948335647583008,-0.4928489327430725,-2.2488436698913574,0.16604940593242645,0
60,0.2951023578643799,0.10880166292190552,-18.078760147094727,1.1918060779571533,17.948335647583008,0.4928489327430725,2.2488436698913574,-0.16604940593242645,0.0,0.0,0.0,0.0,0.0,0.0,0.0,0.10460309899024477,0.5442422246442499,0.32456091874143966,0.34648387908436035,0.0750968239084227,0.05774800350339915,-0.18198399793135353,-0.6093080101891568,-0.057828638377978046,-0.666662285988791,-2.5945500997242177,-0.05561990553706794,2.507972239333445,0.8763145602114665,-0.6090851748156966,-0.05753196718556838,-0.666603097082616,-2.5945565370258534,-0.05562143941554,2.507976027223799,0.8763108487046415,-0.0004492002760294206,-0.0009569876817856521,-0.0011555511822338835,0.0005248877880973809,0.00029851189616162554,-0.000290820781763347,-0.0002607893042498908,0.0,0.0,0.0,0.0,0.0,0.0,0.0,0.00022283537346023952,0.00029667119240966294,5.91889061749562e-05,-6.4373016357421875e-06,-1.5338784720569931e-06,3.787890353823542e-06,-3.71150682498822e-06,0.0004492002760294206,0.0009569876817856521,0.0011555511822338835,-0.0005248877880973809,-0.00029851189616162554,0.000290820781763347,0.0002607893042498908,-0.10880166292190552,18.078760147094727,-1.1918060779571533,-17.948335647583008,-0.4928489327430725,-2.2488436698913574,0.16604940593242645,0
61,0.3001983165740967,0.10880166292190552,-18.106531143188477,1.1680023670196533,17.972139358520508,0.4983420968055725,2.2488436698913574,-0.14590780436992645,0.0,0.0,0.0,0.0,0.0,0.0,0.0,0.10342159534198772,0.5460043739348482,0.3232919806197196,0.3464608522899985,0.07490687063111247,0.05812694497493068,-0.18362423087661742,-0.6093080101891568,-0.05782810914185973,-0.6666606155529357,-2.5945517701600727,-0.055622763153639586,2.5079718768638175,0.8763123745832535,-0.6090851748156966,-0.05753196718556838,-0.666603097082616,-2.5945565370258534,-0.05562143941554,2.507976027223799,0.8763108487046415,0.00021693184102056877,9.277251126978797e-05,-0.000711663339751014,0.0002792721853522049,3.206386173133196e-05,-0.0002119360934622169,-0.0009481117811366855,0.0,0.0,0.0,0.0,0.0,0.0,0.0,0.00022283537346023952,0.0002961419562913445,5.751847031965074e-05,-4.766865780769791e-06,1.3237380995859138e-06,4.15035998146962e-06,-1.525878612018694e-06,-0.00021693184102056877,-9.277251126978797e-05,0.000711663339751014,-0.0002792721853522049,-3.206386173133196e-05,0.0002119360934622169,0.0009481117811366855,-0.10880166292190552,18.106531143188477,-1.1680023670196533,-17.972139358520508,-0.4983420968055725,-2.2488436698913574,0.14590780436992645,0
62,0.3050248622894287,0.10880166292190552,-18.106531143188477,1.1680023670196533,17.972139358520508,0.4983420968055725,2.2488436698913574,-0.14590780436992645,0.0,0.0,0.0,0.0,0.0,0.0,0.0,0.10342159534198772,0.5460043739348482,0.3232919806197196,0.3464608522899985,0.07490687063111247,0.05812694497493068,-0.18362423087661742,-0.6093080101891568,-0.05782810914185973,-0.6666606155529357,-2.5945517701600727,-0.055622763153639586,2.5079718768638175,0.8763123745832535,-0.6090851748156966,-0.05753196718556838,-0.666603097082616,-2.5945565370258534,-0.05562143941554,2.507976027223799,0.8763108487046415,0.00021693184102056877,9.277251126978797e-05,-0.000711663339751014,0.0002792721853522049,3.206386173133196e-05,-0.0002119360934622169,-0.0009481117811366855,0.0,0.0,0.0,0.0,0.0,0.0,0.0,0.00022283537346023952,0.0002961419562913445,5.751847031965074e-05,-4.766865780769791e-06,1.3237380995859138e-06,4.15035998146962e-06,-1.525878612018694e-06,-0.00021693184102056877,-9.277251126978797e-05,0.000711663339751014,-0.0002792721853522049,-3.206386173133196e-05,0.0002119360934622169,0.0009481117811366855,-0.10880166292190552,18.106531143188477,-1.1680023670196533,-17.972139358520508,-0.4983420968055725,-2.2488436698913574,0.14590780436992645,0
63,0.3100407123565674,0.13260537385940552,-18.106531143188477,1.1918060779571533,17.999910354614258,0.4983420968055725,2.2360262870788574,-0.16604940593242645,0.0,0.0,0.0,0.0,0.0,0.0,0.0,0.11020390282770386,0.5422648700767144,0.32917622840321076,0.3509480966079154,0.07414818518646975,0.059273697982313696,-0.18345913148207554,-0.609309680625012,-0.05782597859657214,-0.666662285988791,-2.5945537190019037,-0.055622750083114375,2.5079742385732464,0.8763135529011487,-0.6090851748156966,-0.05753196718556838,-0.666603097082616,-2.5945565370258534,-0.05562143941554,2.507976027223799,0.8763108487046415,-0.00024223257951245096,-0.00040832425711487947,-0.0004700095862777571,-0.00017088820625022557,2.1949637442382434e-05,0.00028509190861414764,-0.00038148912927433445,0.0,0.0,0.0,0.0,0.0,0.0,0.0,0.00022450580931543396,0.0002940114110037556,5.91889061749562e-05,-2.8180239497466175e-06,1.3106675743751461e-06,1.7886505525588348e-06,-2.704196507163914e-06,0.00024223257951245096,0.00040832425711487947,0.0004700095862777571,0.00017088820625022557,-2.1949637442382434e-05,-0.00028509190861414764,0.00038148912927433445,-0.13260537385940552,18.106531143188477,-1.1918060779571533,-17.999910354614258,-0.4983420968055725,-2.2360262870788574,0.16604940593242645,0
64,0.31502723693847656,0.13260537385940552,-18.106531143188477,1.1918060779571533,17.999910354614258,0.4983420968055725,2.2360262870788574,-0.16604940593242645,0.0,0.0,0.0,0.0,0.0,0.0,0.0,0.11020390282770386,0.5422648700767144,0.32917622840321076,0.3509480966079154,0.07414818518646975,0.059273697982313696,-0.18345913148207554,-0.609309680625012,-0.05782597859657214,-0.666662285988791,-2.5945537190019037,-0.055622750083114375,2.5079742385732464,0.8763135529011487,-0.6090851748156966,-0.05753196718556838,-0.666603097082616,-2.5945565370258534,-0.05562143941554,2.507976027223799,0.8763108487046415,-0.00024223257951245096,-0.00040832425711487947,-0.0004700095862777571,-0.00017088820625022557,2.1949637442382434e-05,0.00028509190861414764,-0.00038148912927433445,0.0,0.0,0.0,0.0,0.0,0.0,0.0,0.00022450580931543396,0.0002940114110037556,5.91889061749562e-05,-2.8180239497466175e-06,1.3106675743751461e-06,1.7886505525588348e-06,-2.704196507163914e-06,0.00024223257951245096,0.00040832425711487947,0.0004700095862777571,0.00017088820625022557,-2.1949637442382434e-05,-0.00028509190861414764,0.00038148912927433445,-0.13260537385940552,18.106531143188477,-1.1918060779571533,-17.999910354614258,-0.4983420968055725,-2.2360262870788574,0.16604940593242645,0
65,0.32001304626464844,0.13260537385940552,-18.106531143188477,1.0926239490509033,17.948335647583008,0.5047507882118225,2.2360262870788574,-0.19351522624492645,0.0,0.0,0.0,0.0,0.0,0.0,0.0,0.10625412646737058,0.5409380056554983,0.327246843972863,0.3471965203664828,0.07440602622717907,0.058794984629520326,-0.18247878175511742,-0.609309680625012,-0.05782597838005331,-0.666655325839394,-2.5945500997242177,-0.055620280134833,2.5079731791325126,0.8763176642425908,-0.6090851748156966,-0.05753196718556838,-0.666603097082616,-2.5945565370258534,-0.05562143941554,2.507976027223799,0.8763108487046415,-0.00021804718253819316,-0.0004200645694552324,0.0014238130925648513,0.00046401426833913954,-0.00022407751184692966,0.0002042642622350537,0.0004012974878276216,0.0,0.0,0.0,0.0,0.0,0.0,0.0,0.00022450580931543396,0.00029401119448492496,5.222875677801664e-05,-6.4373016357421875e-06,-1.1592807069998878e-06,2.8480912863670937e-06,-6.815537949345085e-06,0.00021804718253819316,0.0004200645694552324,-0.0014238130925648513,-0.00046401426833913954,0.00022407751184692966,-0.0002042642622350537,-0.0004012974878276216,-0.13260537385940552,18.106531143188477,-1.0926239490509033,-17.948335647583008,-0.5047507882118225,-2.2360262870788574,0.19351522624492645,0
66,0.32501888275146484,0.13260537385940552,-18.106531143188477,1.0926239490509033,17.948335647583008,0.5047507882118225,2.2360262870788574,-0.19351522624492645,0.0,0.0,0.0,0.0,0.0,0.0,0.0,0.10625412646737058,0.5409380056554983,0.327246843972863,0.3471965203664828,0.07440602622717907,0.058794984629520326,-0.18247878175511742,-0.609309680625012,-0.05782597838005331,-0.666655325839394,-2.5945500997242177,-0.055620280134833,2.5079731791325126,0.8763176642425908,-0.6090851748156966,-0.05753196718556838,-0.666603097082616,-2.5945565370258534,-0.05562143941554,2.507976027223799,0.8763108487046415,-0.00021804718253819316,-0.0004200645694552324,0.0014238130925648513,0.00046401426833913954,-0.00022407751184692966,0.0002042642622350537,0.0004012974878276216,0.0,0.0,0.0,0.0,0.0,0.0,0.0,0.00022450580931543396,0.00029401119448492496,5.222875677801664e-05,-6.4373016357421875e-06,-1.1592807069998878e-06,2.8480912863670937e-06,-6.815537949345085e-06,0.00021804718253819316,0.0004200645694552324,-0.0014238130925648513,-0.00046401426833913954,0.00022407751184692966,-0.0002042642622350537,-0.0004012974878276216,-0.13260537385940552,18.106531143188477,-1.0926239490509033,-17.948335647583008,-0.5047507882118225,-2.2360262870788574,0.19351522624492645,0
67,0.3300149440765381,0.13260537385940552,-18.154138565063477,1.1441986560821533,17.948335647583008,0.5047507882118225,2.2360262870788574,-0.20083944499492645,0.0,0.0,0.0,0.0,0.0,0.0,0.0,0.11330574041397411,0.5439207185349695,0.33110650622091475,0.3421687390082581,0.07416332593810523,0.058259203974893536,-0.1815571409915556,-0.609309680625012,-0.05782264032308268,-0.6666589451170805,-2.5945500997242177,-0.05562453853219392,2.507973179562531,0.8763151420398534,-0.6090851748156966,-0.05753196718556838,-0.666603097082616,-2.5945565370258534,-0.05562143941554,2.507976027223799,0.8763108487046415,-0.00022947388775599865,0.0011817248026147502,0.00026167273510580333,0.0002578530355133582,-0.00018099264621444347,0.0003076452419691526,0.0009618463901162014,0.0,0.0,0.0,0.0,0.0,0.0,0.0,0.00022450580931543396,0.0002906731375142968,5.58480344644563e-05,-6.4373016357421875e-06,3.099116653922096e-06,2.8476612681238578e-06,-4.293335211902338e-06,0.00022947388775599865,-0.0011817248026147502,-0.00026167273510580333,-0.0002578530355133582,0.00018099264621444347,-0.0003076452419691526,-0.0009618463901162014,-0.13260537385940552,18.154138565063477,-1.1441986560821533,-17.948335647583008,-0.5047507882118225,-2.2360262870788574,0.20083944499492645,0
68,0.3349931240081787,0.13260537385940552,-18.154138565063477,1.1441986560821533,17.948335647583008,0.5047507882118225,2.2360262870788574,-0.20083944499492645,0.0,0.0,0.0,0.0,0.0,0.0,0.0,0.11330574041397411,0.5439207185349695,0.33110650622091475,0.3421687390082581,0.07416332593810523,0.058259203974893536,-0.1815571409915556,-0.609309680625012,-0.05782264032308268,-0.6666589451170805,-2.5945500997242177,-0.05562453853219392,2.507973179562531,0.8763151420398534,-0.6090851748156966,-0.05753196718556838,-0.666603097082616,-2.5945565370258534,-0.05562143941554,2.507976027223799,0.8763108487046415,-0.00022947388775599865,0.0011817248026147502,0.00026167273510580333,0.0002578530355133582,-0.00018099264621444347,0.0003076452419691526,0.0009618463901162014,0.0,0.0,0.0,0.0,0.0,0.0,0.0,0.00022450580931543396,0.0002906731375142968,5.58480344644563e-05,-6.4373016357421875e-06,3.099116653922096e-06,2.8476612681238578e-06,-4.293335211902338e-06,0.00022947388775599865,-0.0011817248026147502,-0.00026167273510580333,-0.0002578530355133582,0.00018099264621444347,-0.0003076452419691526,-0.0009618463901162014,-0.13260537385940552,18.154138565063477,-1.1441986560821533,-17.948335647583008,-0.5047507882118225,-2.2360262870788574,0.20083944499492645,0
69,0.3399953842163086,0.13260537385940552,-18.154138565063477,1.1441986560821533,17.948335647583008,0.5047507882118225,2.2360262870788574,-0.20083944499492645,0.0,0.0,0.0,0.0,0.0,0.0,0.0,0.11330574041397411,0.5439207185349695,0.33110650622091475,0.3421687390082581,0.07416332593810523,0.058259203974893536,-0.1815571409915556,-0.609309680625012,-0.05782264032308268,-0.6666589451170805,-2.5945500997242177,-0.05562453853219392,2.507973179562531,0.8763151420398534,-0.6090851748156966,-0.05753196718556838,-0.666603097082616,-2.5945565370258534,-0.05562143941554,2.507976027223799,0.8763108487046415,-0.00022947388775599865,0.0011817248026147502,0.00026167273510580333,0.0002578530355133582,-0.00018099264621444347,0.0003076452419691526,0.0009618463901162014,0.0,0.0,0.0,0.0,0.0,0.0,0.0,0.00022450580931543396,0.0002906731375142968,5.58480344644563e-05,-6.4373016357421875e-06,3.099116653922096e-06,2.8476612681238578e-06,-4.293335211902338e-06,0.00022947388775599865,-0.0011817248026147502,-0.00026167273510580333,-0.0002578530355133582,0.00018099264621444347,-0.0003076452419691526,-0.0009618463901162014,-0.13260537385940552,18.154138565063477,-1.1441986560821533,-17.948335647583008,-0.5047507882118225,-2.2360262870788574,0.20083944499492645,0
70,0.3450002670288086,0.13260537385940552,-18.154138565063477,1.1441986560821533,17.948335647583008,0.5047507882118225,2.2360262870788574,-0.20083944499492645,0.0,0.0,0.0,0.0,0.0,0.0,0.0,0.11330574041397411,0.5439207185349695,0.33110650622091475,0.3421687390082581,0.07416332593810523,0.058259203974893536,-0.1815571409915556,-0.609309680625012,-0.05782264032308268,-0.6666589451170805,-2.5945500997242177,-0.05562453853219392,2.507973179562531,0.8763151420398534,-0.6090851748156966,-0.05753196718556838,-0.666603097082616,-2.5945565370258534,-0.05562143941554,2.507976027223799,0.8763108487046415,-0.00022947388775599865,0.0011817248026147502,0.00026167273510580333,0.0002578530355133582,-0.00018099264621444347,0.0003076452419691526,0.0009618463901162014,0.0,0.0,0.0,0.0,0.0,0.0,0.0,0.00022450580931543396,0.0002906731375142968,5.58480344644563e-05,-6.4373016357421875e-06,3.099116653922096e-06,2.8476612681238578e-06,-4.293335211902338e-06,0.00022947388775599865,-0.0011817248026147502,-0.00026167273510580333,-0.0002578530355133582,0.00018099264621444347,-0.0003076452419691526,-0.0009618463901162014,-0.13260537385940552,18.154138565063477,-1.1441986560821533,-17.948335647583008,-0.5047507882118225,-2.2360262870788574,0.20083944499492645,0
71,0.350006103515625,0.08103066682815552,-18.130334854125977,1.1164276599884033,17.948335647583008,0.5047507882118225,2.2296175956726074,-0.17978231608867645,0.0,0.0,0.0,0.0,0.0,0.0,0.0,0.11003707197176676,0.5404531105873894,0.32648259373478317,0.34616884088536237,0.07487788042647295,0.059239405136196736,-0.18188366574248818,-0.6093063041810636,-0.05782430783595513,-0.6666569962752493,-2.594550099686533,-0.05562024075976636,2.507974950631463,0.8763161383993522,-0.6090851748156966,-0.05753196718556838,-0.666603097082616,-2.5945565370258534,-0.05562143941554,2.507976027223799,0.8763108487046415,4.479709338323493e-05,0.00037119061942911475,0.0011122784601345244,0.0007791834490153273,-0.0001927494412927499,0.0006687518186539682,-7.349349559923125e-05,0.0,0.0,0.0,0.0,0.0,0.0,0.0,0.000221129365367001,0.0002923406503867465,5.38991926333221e-05,-6.437339320264357e-06,-1.1986557736376469e-06,1.0765923361688579e-06,-5.28969471069729e-06,-4.479709338323493e-05,-0.00037119061942911475,-0.0011122784601345244,-0.0007791834490153273,0.0001927494412927499,-0.0006687518186539682,7.349349559923125e-05,-0.08103066682815552,18.130334854125977,-1.1164276599884033,-17.948335647583008,-0.5047507882118225,-2.2296175956726074,0.17978231608867645,0
72,0.35500240325927734,0.08103066682815552,-18.130334854125977,1.1164276599884033,17.948335647583008,0.5047507882118225,2.2296175956726074,-0.17978231608867645,0.0,0.0,0.0,0.0,0.0,0.0,0.0,0.11003707197176676,0.5404531105873894,0.32648259373478317,0.34616884088536237,0.07487788042647295,0.059239405136196736,-0.18188366574248818,-0.6093063041810636,-0.05782430783595513,-0.6666569962752493,-2.594550099686533,-0.05562024075976636,2.507974950631463,0.8763161383993522,-0.6090851748156966,-0.05753196718556838,-0.666603097082616,-2.5945565370258534,-0.05562143941554,2.507976027223799,0.8763108487046415,4.479709338323493e-05,0.00037119061942911475,0.0011122784601345244,0.0007791834490153273,-0.0001927494412927499,0.0006687518186539682,-7.349349559923125e-05,0.0,0.0,0.0,0.0,0.0,0.0,0.0,0.000221129365367001,0.0002923406503867465,5.38991926333221e-05,-6.437339320264357e-06,-1.1986557736376469e-06,1.0765923361688579e-06,-5.28969471069729e-06,-4.479709338323493e-05,-0.00037119061942911475,-0.0011122784601345244,-0.0007791834490153273,0.0001927494412927499,-0.0006687518186539682,7.349349559923125e-05,-0.08103066682815552,18.130334854125977,-1.1164276599884033,-17.948335647583008,-0.5047507882118225,-2.2296175956726074,0.17978231608867645,0
73,0.360004186630249,0.08103066682815552,-18.130334854125977,1.1441986560821533,18.023714065551758,0.5047507882118225,2.2424349784851074,-0.19351522624492645,0.0,0.0,0.0,0.0,0.0,0.0,0.0,0.10733088044153011,0.542508074836837,0.3258911730243029,0.3439079287075639,0.07492623076163984,0.05860884850794778,-0.18375360386267245,-0.6093060613477825,-0.05782431075893733,-0.6666589451170805,-2.594555389437759,-0.05562453984625259,2.5079735264798075,0.8763176637946288,-0.6090851748156966,-0.05753196718556838,-0.666603097082616,-2.5945565370258534,-0.05562143941554,2.507976027223799,0.8763108487046415,0.00034394633536477195,0.0002460319009481934,-0.00020182184256612435,-0.0013866792799077155,-0.00010383389982196536,-3.5510163297203687e-06,0.00048628077456817594,0.0,0.0,0.0,0.0,0.0,0.0,0.0,0.0002208865320859621,0.00029234357336895,5.58480344644563e-05,-1.147588094330132e-06,3.1004307125895303e-06,2.5007439914404017e-06,-6.815089987344258e-06,-0.00034394633536477195,-0.0002460319009481934,0.00020182184256612435,0.0013866792799077155,0.00010383389982196536,3.5510163297203687e-06,-0.00048628077456817594,-0.08103066682815552,18.130334854125977,-1.1441986560821533,-18.023714065551758,-0.5047507882118225,-2.2424349784851074,0.19351522624492645,0
74,0.3650040626525879,0.08103066682815552,-18.130334854125977,1.1441986560821533,18.023714065551758,0.5047507882118225,2.2424349784851074,-0.19351522624492645,0.0,0.0,0.0,0.0,0.0,0.0,0.0,0.10733088044153011,0.542508074836837,0.3258911730243029,0.3439079287075639,0.07492623076163984,0.05860884850794778,-0.18375360386267245,-0.6093060613477825,-0.05782431075893733,-0.6666589451170805,-2.594555389437759,-0.05562453984625259,2.5079735264798075,0.8763176637946288,-0.6090851748156966,-0.05753196718556838,-0.666603097082616,-2.5945565370258534,-0.05562143941554,2.507976027223799,0.8763108487046415,0.00034394633536477195,0.0002460319009481934,-0.00020182184256612435,-0.0013866792799077155,-0.00010383389982196536,-3.5510163297203687e-06,0.00048628077456817594,0.0,0.0,0.0,0.0,0.0,0.0,0.0,0.0002208865320859621,0.00029234357336895,5.58480344644563e-05,-1.147588094330132e-06,3.1004307125895303e-06,2.5007439914404017e-06,-6.815089987344258e-06,-0.00034394633536477195,-0.0002460319009481934,0.00020182184256612435,0.0013866792799077155,0.00010383389982196536,3.5510163297203687e-06,-0.00048628077456817594,-0.08103066682815552,18.130334854125977,-1.1441986560821533,-18.023714065551758,-0.5047507882118225,-2.2424349784851074,0.19351522624492645,0
75,0.37044644355773926,0.08103066682815552,-18.130334854125977,1.1441986560821533,17.948335647583008,0.4983420968055725,2.2360262870788574,-0.16604940593242645,0.0,0.0,0.0,0.0,0.0,0.0,0.0,0.10700030598348038,0.5446285967425887,0.32328691267964654,0.3428364378445687,0.07493870417877124,0.05876497627123097,-0.1836984053602338,-0.6093060613473257,-0.05782430783595513,-0.6666589451170805,-2.5945500997242177,-0.05562382799386851,2.507976412264258,0.8763146125392752,-0.6090851748156966,-0.05753196718556838,-0.666603097082616,-2.5945565370258534,-0.05562143941554,2.507976027223799,0.8763108487046415,0.000342246538359003,0.00026549810973734744,-0.00010475822561739018,0.000574427120920693,0.00020821130200123362,0.000179856354617178,-0.0005505550894054267,0.0,0.0,0.0,0.0,0.0,0.0,0.0,0.00022088653162910532,0.0002923406503867465,5.58480344644563e-05,-6.4373016357421875e-06,2.3885783285090834e-06,-3.850404590721723e-07,-3.76383463374097e-06,-0.000342246538359003,-0.00026549810973734744,0.00010475822561739018,-0.000574427120920693,-0.00020821130200123362,-0.000179856354617178,0.0005505550894054267,-0.08103066682815552,18.130334854125977,-1.1441986560821533,-17.948335647583008,-0.4983420968055725,-2.2360262870788574,0.16604940593242645,0
76,0.3749980926513672,0.08103066682815552,-18.130334854125977,1.1441986560821533,17.948335647583008,0.4983420968055725,2.2360262870788574,-0.16604940593242645,0.0,0.0,0.0,0.0,0.0,0.0,0.0,0.10700030598348038,0.5446285967425887,0.32328691267964654,0.3428364378445687,0.07493870417877124,0.05876497627123097,-0.1836984053602338,-0.6093060613473257,-0.05782430783595513,-0.6666589451170805,-2.5945500997242177,-0.05562382799386851,2.507976412264258,0.8763146125392752,-0.6090851748156966,-0.05753196718556838,-0.666603097082616,-2.5945565370258534,-0.05562143941554,2.507976027223799,0.8763108487046415,0.000342246538359003,0.00026549810973734744,-0.00010475822561739018,0.000574427120920693,0.00020821130200123362,0.000179856354617178,-0.0005505550894054267,0.0,0.0,0.0,0.0,0.0,0.0,0.0,0.00022088653162910532,0.0002923406503867465,5.58480344644563e-05,-6.4373016357421875e-06,2.3885783285090834e-06,-3.850404590721723e-07,-3.76383463374097e-06,-0.000342246538359003,-0.00026549810973734744,0.00010475822561739018,-0.000574427120920693,-0.00020821130200123362,-0.000179856354617178,0.0005505550894054267,-0.08103066682815552,18.130334854125977,-1.1441986560821533,-17.948335647583008,-0.4983420968055725,-2.2360262870788574,0.16604940593242645,0
77,0.37999749183654785,0.10880166292190552,-18.154138565063477,1.1441986560821533,17.972139358520508,0.4928489327430725,2.2360262870788574,-0.19351522624492645,0.0,0.0,0.0,0.0,0.0,0.0,0.0,0.10362609096261455,0.5407442810095532,0.3192309119898534,0.34341733606962227,0.07520459694724753,0.05908304632084515,-0.18390090918602808,-0.6093080101891568,-0.05782263740008337,-0.6666589451170805,-2.5945515229111757,-0.05562319990159194,2.5079764033937217,0.8763176512151384,-0.6090851748156966,-0.05753196718556838,-0.666603097082616,-2.5945565370258534,-0.05562143941554,2.507976027223799,0.8763108487046415,-0.00025060164846256124,0.0006325651945477186,-0.0004895684520325815,0.00022000114945642553,0.00014527741416814487,0.00024900915649729783,0.0006584775628745818,0.0,0.0,0.0,0.0,0.0,0.0,0.0,0.00022283537346023952,0.0002906702145149889,5.58480344644563e-05,-5.014114677681647e-06,1.760486051938237e-06,-3.7616992276667816e-07,-6.8025104968949535e-06,0.00025060164846256124,-0.0006325651945477186,0.0004895684520325815,-0.00022000114945642553,-0.00014527741416814487,-0.00024900915649729783,-0.0006584775628745818,-0.10880166292190552,18.154138565063477,-1.1441986560821533,-17.972139358520508,-0.4928489327430725,-2.2360262870788574,0.19351522624492645,0
78,0.3849976062774658,0.10880166292190552,-18.154138565063477,1.1441986560821533,17.972139358520508,0.4928489327430725,2.2360262870788574,-0.19351522624492645,0.0,0.0,0.0,0.0,0.0,0.0,0.0,0.10362609096261455,0.5407442810095532,0.3192309119898534,0.34341733606962227,0.07520459694724753,0.05908304632084515,-0.18390090918602808,-0.6093080101891568,-0.05782263740008337,-0.6666589451170805,-2.5945515229111757,-0.05562319990159194,2.5079764033937217,0.8763176512151384,-0.6090851748156966,-0.05753196718556838,-0.666603097082616,-2.5945565370258534,-0.05562143941554,2.507976027223799,0.8763108487046415,-0.00025060164846256124,0.0006325651945477186,-0.0004895684520325815,0.00022000114945642553,0.00014527741416814487,0.00024900915649729783,0.0006584775628745818,0.0,0.0,0.0,0.0,0.0,0.0,0.0,0.00022283537346023952,0.0002906702145149889,5.58480344644563e-05,-5.014114677681647e-06,1.760486051938237e-06,-3.7616992276667816e-07,-6.8025104968949535e-06,0.00025060164846256124,-0.0006325651945477186,0.0004895684520325815,-0.00022000114945642553,-0.00014527741416814487,-0.00024900915649729783,-0.0006584775628745818,-0.10880166292190552,18.154138565063477,-1.1441986560821533,-17.972139358520508,-0.4928489327430725,-2.2360262870788574,0.19351522624492645,0
79,0.3900010585784912,0.16037636995315552,-18.154138565063477,1.2156097888946533,17.972139358520508,0.4983420968055725,2.2488436698913574,-0.17978231608867645,0.0,0.0,0.0,0.0,0.0,0.0,0.0,0.10743149019866802,0.5375965224044756,0.3225473731908623,0.34424885844905606,0.07463227840411439,0.058691273744246354,-0.18481216373953005,-0.6093116294668431,-0.05782263740008337,-0.6666639564246463,-2.5945517701596073,-0.05562377477169037,2.507971754840709,0.8763161369646094,-0.6090851748156966,-0.05753196718556838,-0.666603097082616,-2.5945565370258534,-0.05562143941554,2.507976027223799,0.8763108487046415,-0.0014065389470471693,0.000620144952168452,-0.0013007097539765994,0.00025344133481601647,4.629341309151166e-05,-7.527501343867345e-05,-1.4535634779164564e-05,0.0,0.0,0.0,0.0,0.0,0.0,0.0,0.00022645465114656815,0.0002906702145149889,6.0859342030261665e-05,-4.766866246175283e-06,2.3353561503722253e-06,4.272383089976017e-06,-5.288259967928255e-06,0.0014065389470471693,-0.000620144952168452,0.0013007097539765994,-0.00025344133481601647,-4.629341309151166e-05,7.527501343867345e-05,1.4535634779164564e-05,-0.16037636995315552,18.154138565063477,-1.2156097888946533,-17.972139358520508,-0.4983420968055725,-2.2488436698913574,0.17978231608867645,0
