rezayati/contactInterpretation/dataset/franka_main/labeled_data/link3/e3_7.csv
index,time,tau_J0,tau_J1,tau_J2,tau_J3,tau_J4,tau_J5,tau_J6,tau_J_d0,tau_J_d1,tau_J_d2,tau_J_d3,tau_J_d4,tau_J_d5,tau_J_d6,tau_ext0,tau_ext1,tau_ext2,tau_ext3,tau_ext4,tau_ext5,tau_ext6,q0,q1,q2,q3,q4,q5,q6,q_d0,q_d1,q_d2,q_d3,q_d4,q_d5,q_d6,dq0,dq1,dq2,dq3,dq4,dq5,dq6,dq_d0,dq_d1,dq_d2,dq_d3,dq_d4,dq_d5,dq_d6,e0,e1,e2,e3,e4,e5,e6,de0,de1,de2,de3,de4,de5,de6,etau_J0,etau_J1,etau_J2,etau_J3,etau_J4,etau_J5,etau_J6,label
1,0.0,-0.14510458707809448,-11.826318740844727,1.2909882068634033,21.717256546020508,0.3619285225868225,2.5207552909851074,-0.18710653483867645,0.0,0.0,0.0,0.0,0.0,0.0,0.0,-0.15992110372261623,0.4989363877858771,0.10235045566675031,0.4206160329837766,-0.16304955216642947,0.1253272433054097,-0.2110914338648395,0.17307518951098125,-0.4875448525830319,-0.11147039044007918,-1.946400808049921,0.13361266650756198,2.595551071855757,0.9452453727639384,0.1728802376190821,-0.48752024683155326,-0.11147110072896137,-1.9463801863486305,0.1336059019074957,2.595550359778934,0.9452445589611904,-0.0006308183553262666,2.319983360800854e-05,0.00010816406742581896,-5.2066418774237075e-05,0.0002514215144764925,5.339757185528643e-05,-0.0007165454830195201,0.0,0.0,0.0,0.0,0.0,0.0,0.0,-0.00019495189189913664,2.4605751478612437e-05,-7.102888821830522e-07,2.0621701290579608e-05,-6.764600066294646e-06,-7.120768228396912e-07,-8.138027479676069e-07,0.0006308183553262666,-2.319983360800854e-05,-0.00010816406742581896,5.2066418774237075e-05,-0.0002514215144764925,-5.339757185528643e-05,0.0007165454830195201,0.14510458707809448,11.826318740844727,-1.2909882068634033,-21.717256546020508,-0.3619285225868225,-2.5207552909851074,0.18710653483867645,0
2,0.004996299743652344,-0.14510458707809448,-11.826318740844727,1.2909882068634033,21.717256546020508,0.3619285225868225,2.5207552909851074,-0.18710653483867645,0.0,0.0,0.0,0.0,0.0,0.0,0.0,-0.15992110372261623,0.4989363877858771,0.10235045566675031,0.4206160329837766,-0.16304955216642947,0.1253272433054097,-0.2110914338648395,0.17307518951098125,-0.4875448525830319,-0.11147039044007918,-1.946400808049921,0.13361266650756198,2.595551071855757,0.9452453727639384,0.1728802376190821,-0.48752024683155326,-0.11147110072896137,-1.9463801863486305,0.1336059019074957,2.595550359778934,0.9452445589611904,-0.0006308183553262666,2.319983360800854e-05,0.00010816406742581896,-5.2066418774237075e-05,0.0002514215144764925,5.339757185528643e-05,-0.0007165454830195201,0.0,0.0,0.0,0.0,0.0,0.0,0.0,-0.00019495189189913664,2.4605751478612437e-05,-7.102888821830522e-07,2.0621701290579608e-05,-6.764600066294646e-06,-7.120768228396912e-07,-8.138027479676069e-07,0.0006308183553262666,-2.319983360800854e-05,-0.00010816406742581896,5.2066418774237075e-05,-0.0002514215144764925,-5.339757185528643e-05,0.0007165454830195201,0.14510458707809448,11.826318740844727,-1.2909882068634033,-21.717256546020508,-0.3619285225868225,-2.5207552909851074,0.18710653483867645,0
3,0.009996891021728516,-0.17287558317184448,-11.850122451782227,1.2909882068634033,21.693452835083008,0.3738303780555725,2.5399813652038574,-0.17978231608867645,0.0,0.0,0.0,0.0,0.0,0.0,0.0,-0.16318270755286776,0.4769822950866142,0.10285341809756354,0.432928231687505,-0.16370499136315345,0.12602602395494883,-0.21109885496835862,0.17307713835281238,-0.48754318214717657,-0.1114703641330909,-1.9463991670484584,0.13361134407917655,2.5955489356252883,0.945244558961855,0.1728802376190821,-0.48752024683155326,-0.11147110072896137,-1.9463801863486305,0.1336059019074957,2.595550359778934,0.9452445589611904,-3.240722951122928e-05,-0.0002386699231558194,-0.0001887194292313361,0.0008422115772884448,-0.0005721220949933652,-0.0003781826012137681,-0.0007299833939453946,0.0,0.0,0.0,0.0,0.0,0.0,0.0,-0.00019690073373027084,2.2935315623306973e-05,-7.36595870465262e-07,1.89806998278641e-05,-5.442171680858365e-06,1.4241536456793824e-06,-6.645795025406187e-13,3.240722951122928e-05,0.0002386699231558194,0.0001887194292313361,-0.0008422115772884448,0.0005721220949933652,0.0003781826012137681,0.0007299833939453946,0.17287558317184448,11.850122451782227,-1.2909882068634033,-21.693452835083008,-0.3738303780555725,-2.5399813652038574,0.17978231608867645,0
4,0.015286445617675781,-0.17287558317184448,-11.850122451782227,1.2909882068634033,21.693452835083008,0.3738303780555725,2.5399813652038574,-0.17978231608867645,0.0,0.0,0.0,0.0,0.0,0.0,0.0,-0.16318270755286776,0.4769822950866142,0.10285341809756354,0.432928231687505,-0.16370499136315345,0.12602602395494883,-0.21109885496835862,0.17307713835281238,-0.48754318214717657,-0.1114703641330909,-1.9463991670484584,0.13361134407917655,2.5955489356252883,0.945244558961855,0.1728802376190821,-0.48752024683155326,-0.11147110072896137,-1.9463801863486305,0.1336059019074957,2.595550359778934,0.9452445589611904,-3.240722951122928e-05,-0.0002386699231558194,-0.0001887194292313361,0.0008422115772884448,-0.0005721220949933652,-0.0003781826012137681,-0.0007299833939453946,0.0,0.0,0.0,0.0,0.0,0.0,0.0,-0.00019690073373027084,2.2935315623306973e-05,-7.36595870465262e-07,1.89806998278641e-05,-5.442171680858365e-06,1.4241536456793824e-06,-6.645795025406187e-13,3.240722951122928e-05,0.0002386699231558194,0.0001887194292313361,-0.0008422115772884448,0.0005721220949933652,0.0003781826012137681,0.0007299833939453946,0.17287558317184448,11.850122451782227,-1.2909882068634033,-21.693452835083008,-0.3738303780555725,-2.5399813652038574,0.17978231608867645,0
5,0.020013809204101562,-0.12130087614059448,-11.873926162719727,1.3147919178009033,21.741060256958008,0.3619285225868225,2.5271639823913574,-0.22098104655742645,0.0,0.0,0.0,0.0,0.0,0.0,0.0,-0.16414270713183654,0.48714107531938544,0.10511604370738521,0.4273697056262266,-0.16478676574186873,0.12630345104535318,-0.2111699695075037,0.17307351907512597,-0.4875415117113213,-0.11147206087578594,-1.9464025579588025,0.13361266650756198,2.5955500065662243,0.9452491365985738,0.1728802376190821,-0.48752024683155326,-0.11147110072896137,-1.9463801863486305,0.1336059019074957,2.595550359778934,0.9452445589611904,-0.0011668690921968312,0.00038112216218812644,-0.0006340915474708337,-0.00022066747039020283,0.00014213964847741473,0.00019951476821336727,0.007177414741856894,0.0,0.0,0.0,0.0,0.0,0.0,0.0,-0.00019328145604385893,2.126487976805702e-05,9.601468245745703e-07,2.237161017193401e-05,-6.764600066294646e-06,3.532127097471971e-07,-4.5776373833739115e-06,0.0011668690921968312,-0.00038112216218812644,0.0006340915474708337,0.00022066747039020283,-0.00014213964847741473,-0.00019951476821336727,-0.007177414741856894,0.12130087614059448,11.873926162719727,-1.3147919178009033,-21.741060256958008,-0.3619285225868225,-2.5271639823913574,0.22098104655742645,0
6,0.0250089168548584,-0.12130087614059448,-11.873926162719727,1.3147919178009033,21.741060256958008,0.3619285225868225,2.5271639823913574,-0.22098104655742645,0.0,0.0,0.0,0.0,0.0,0.0,0.0,-0.16414270713183654,0.48714107531938544,0.10511604370738521,0.4273697056262266,-0.16478676574186873,0.12630345104535318,-0.2111699695075037,0.17307351907512597,-0.4875415117113213,-0.11147206087578594,-1.9464025579588025,0.13361266650756198,2.5955500065662243,0.9452491365985738,0.1728802376190821,-0.48752024683155326,-0.11147110072896137,-1.9463801863486305,0.1336059019074957,2.595550359778934,0.9452445589611904,-0.0011668690921968312,0.00038112216218812644,-0.0006340915474708337,-0.00022066747039020283,0.00014213964847741473,0.00019951476821336727,0.007177414741856894,0.0,0.0,0.0,0.0,0.0,0.0,0.0,-0.00019328145604385893,2.126487976805702e-05,9.601468245745703e-07,2.237161017193401e-05,-6.764600066294646e-06,3.532127097471971e-07,-4.5776373833739115e-06,0.0011668690921968312,-0.00038112216218812644,0.0006340915474708337,0.00022066747039020283,-0.00014213964847741473,-0.00019951476821336727,-0.007177414741856894,0.12130087614059448,11.873926162719727,-1.3147919178009033,-21.741060256958008,-0.3619285225868225,-2.5271639823913574,0.22098104655742645,0
7,0.030013322830200195,-0.12130087614059448,-11.774744033813477,1.3147919178009033,21.717256546020508,0.3674216866493225,2.5207552909851074,-0.21457235515117645,0.0,0.0,0.0,0.0,0.0,0.0,0.0,-0.1561314242410338,0.49773488560193363,0.1162956343898573,0.4209655863817866,-0.1662720725902683,0.12572977819663964,-0.21215376171118208,0.17307351907512597,-0.48754847186071826,-0.11147206055115681,-1.9464008080503696,0.13361205615599947,2.595551071853763,0.9452484245217508,0.1728802376190821,-0.48752024683155326,-0.11147110072896137,-1.9463801863486305,0.1336059019074957,2.595550359778934,0.9452445589611904,-3.614023847517167e-05,-0.0013573733714471034,0.0008467967927127492,0.00020488250416162744,5.082366736781738e-05,0.00010538764016424763,0.0008668000613807869,0.0,0.0,0.0,0.0,0.0,0.0,0.0,-0.00019328145604385893,2.8225029164996585e-05,9.598221954454367e-07,2.062170173910971e-05,-6.154248503781323e-06,-7.12074828879139e-07,-3.865560560423198e-06,3.614023847517167e-05,0.0013573733714471034,-0.0008467967927127492,-0.00020488250416162744,-5.082366736781738e-05,-0.00010538764016424763,-0.0008668000613807869,0.12130087614059448,11.774744033813477,-1.3147919178009033,-21.717256546020508,-0.3674216866493225,-2.5207552909851074,0.21457235515117645,0
8,0.03499960899353027,-0.12130087614059448,-11.774744033813477,1.3147919178009033,21.717256546020508,0.3674216866493225,2.5207552909851074,-0.21457235515117645,0.0,0.0,0.0,0.0,0.0,0.0,0.0,-0.1561314242410338,0.49773488560193363,0.1162956343898573,0.4209655863817866,-0.1662720725902683,0.12572977819663964,-0.21215376171118208,0.17307351907512597,-0.48754847186071826,-0.11147206055115681,-1.9464008080503696,0.13361205615599947,2.595551071853763,0.9452484245217508,0.1728802376190821,-0.48752024683155326,-0.11147110072896137,-1.9463801863486305,0.1336059019074957,2.595550359778934,0.9452445589611904,-3.614023847517167e-05,-0.0013573733714471034,0.0008467967927127492,0.00020488250416162744,5.082366736781738e-05,0.00010538764016424763,0.0008668000613807869,0.0,0.0,0.0,0.0,0.0,0.0,0.0,-0.00019328145604385893,2.8225029164996585e-05,9.598221954454367e-07,2.062170173910971e-05,-6.154248503781323e-06,-7.12074828879139e-07,-3.865560560423198e-06,3.614023847517167e-05,0.0013573733714471034,-0.0008467967927127492,-0.00020488250416162744,-5.082366736781738e-05,-0.00010538764016424763,-0.0008668000613807869,0.12130087614059448,11.774744033813477,-1.3147919178009033,-21.717256546020508,-0.3674216866493225,-2.5207552909851074,0.21457235515117645,0
9,0.03999900817871094,-0.17287558317184448,-11.774744033813477,1.3147919178009033,21.717256546020508,0.3674216866493225,2.5335726737976074,-0.19351522624492645,0.0,0.0,0.0,0.0,0.0,0.0,0.0,-0.16447019353215767,0.49342121013979473,0.09819834102002163,0.425089999123383,-0.16472388685971817,0.1257884050185137,-0.21281109289058303,0.17307713835281238,-0.48754847186071826,-0.11147206087593262,-1.946400808049921,0.13361205615599947,2.595549647702111,0.9452460848407613,0.1728802376190821,-0.48752024683155326,-0.11147110072896137,-1.9463801863486305,0.1336059019074957,2.595550359778934,0.9452445589611904,0.00040286985074258975,-0.0007741562648025911,-0.00034710076719657995,-9.073980516940962e-05,0.00014037244992969893,-0.0005402183827698293,-0.0029038566001606207,0.0,0.0,0.0,0.0,0.0,0.0,0.0,-0.00019690073373027084,2.8225029164996585e-05,9.601469712489097e-07,2.0621701290579608e-05,-6.154248503781323e-06,7.120768228396912e-07,-1.5258795709183204e-06,-0.00040286985074258975,0.0007741562648025911,0.00034710076719657995,9.073980516940962e-05,-0.00014037244992969893,0.0005402183827698293,0.0029038566001606207,0.17287558317184448,11.774744033813477,-1.3147919178009033,-21.717256546020508,-0.3674216866493225,-2.5335726737976074,0.19351522624492645,0
10,0.04499983787536621,-0.17287558317184448,-11.774744033813477,1.3147919178009033,21.717256546020508,0.3674216866493225,2.5335726737976074,-0.19351522624492645,0.0,0.0,0.0,0.0,0.0,0.0,0.0,-0.16447019353215767,0.49342121013979473,0.09819834102002163,0.425089999123383,-0.16472388685971817,0.1257884050185137,-0.21281109289058303,0.17307713835281238,-0.48754847186071826,-0.11147206087593262,-1.946400808049921,0.13361205615599947,2.595549647702111,0.9452460848407613,0.1728802376190821,-0.48752024683155326,-0.11147110072896137,-1.9463801863486305,0.1336059019074957,2.595550359778934,0.9452445589611904,0.00040286985074258975,-0.0007741562648025911,-0.00034710076719657995,-9.073980516940962e-05,0.00014037244992969893,-0.0005402183827698293,-0.0029038566001606207,0.0,0.0,0.0,0.0,0.0,0.0,0.0,-0.00019690073373027084,2.8225029164996585e-05,9.601469712489097e-07,2.0621701290579608e-05,-6.154248503781323e-06,7.120768228396912e-07,-1.5258795709183204e-06,-0.00040286985074258975,0.0007741562648025911,0.00034710076719657995,9.073980516940962e-05,-0.00014037244992969893,0.0005402183827698293,0.0029038566001606207,0.17287558317184448,11.774744033813477,-1.3147919178009033,-21.717256546020508,-0.3674216866493225,-2.5335726737976074,0.19351522624492645,0
11,0.049999237060546875,-0.12130087614059448,-11.802515029907227,1.2671844959259033,21.693452835083008,0.3738303780555725,2.5271639823913574,-0.16604940593242645,0.0,0.0,0.0,0.0,0.0,0.0,0.0,-0.15702493183109875,0.5068989300751091,0.10939561069257842,0.4231865287591782,-0.16517881365225465,0.12432970581159662,-0.21448265395210073,0.17307351907512597,-0.4875465230188871,-0.11146871989596471,-1.9463991415386517,0.13361027781830892,2.595550359778934,0.9452430330829488,0.1728802376190821,-0.48752024683155326,-0.11147110072896137,-1.9463801863486305,0.1336059019074957,2.595550359778934,0.9452445589611904,-0.0008631445289487956,0.0006107011652841547,0.0006633241494677025,0.00017106109676865087,-2.3184408838670574e-05,-0.0001273508316186328,-0.0016695077479657447,0.0,0.0,0.0,0.0,0.0,0.0,0.0,-0.00019328145604385893,2.627618733386239e-05,-2.3808329966540365e-06,1.8955190021152646e-05,-4.3759108132312985e-06,0.0,1.525878241648293e-06,0.0008631445289487956,-0.0006107011652841547,-0.0006633241494677025,-0.00017106109676865087,2.3184408838670574e-05,0.0001273508316186328,0.0016695077479657447,0.12130087614059448,11.802515029907227,-1.2671844959259033,-21.693452835083008,-0.3738303780555725,-2.5271639823913574,0.16604940593242645,0
12,0.05499553680419922,-0.12130087614059448,-11.802515029907227,1.2671844959259033,21.693452835083008,0.3738303780555725,2.5271639823913574,-0.16604940593242645,0.0,0.0,0.0,0.0,0.0,0.0,0.0,-0.15702493183109875,0.5068989300751091,0.10939561069257842,0.4231865287591782,-0.16517881365225465,0.12432970581159662,-0.21448265395210073,0.17307351907512597,-0.4875465230188871,-0.11146871989596471,-1.9463991415386517,0.13361027781830892,2.595550359778934,0.9452430330829488,0.1728802376190821,-0.48752024683155326,-0.11147110072896137,-1.9463801863486305,0.1336059019074957,2.595550359778934,0.9452445589611904,-0.0008631445289487956,0.0006107011652841547,0.0006633241494677025,0.00017106109676865087,-2.3184408838670574e-05,-0.0001273508316186328,-0.0016695077479657447,0.0,0.0,0.0,0.0,0.0,0.0,0.0,-0.00019328145604385893,2.627618733386239e-05,-2.3808329966540365e-06,1.8955190021152646e-05,-4.3759108132312985e-06,0.0,1.525878241648293e-06,0.0008631445289487956,-0.0006107011652841547,-0.0006633241494677025,-0.00017106109676865087,2.3184408838670574e-05,0.0001273508316186328,0.0016695077479657447,0.12130087614059448,11.802515029907227,-1.2671844959259033,-21.693452835083008,-0.3738303780555725,-2.5271639823913574,0.16604940593242645,0
13,0.059996843338012695,-0.17287558317184448,-11.826318740844727,1.2671844959259033,21.717256546020508,0.3619285225868225,2.5271639823913574,-0.15231649577617645,0.0,0.0,0.0,0.0,0.0,0.0,0.0,-0.1567356167543002,0.501136447543468,0.1085358502465536,0.42898824754160486,-0.16472137112965002,0.12521114283447451,-0.21437049366936886,0.17307713835281238,-0.4875448525830319,-0.11146871123522599,-1.9464008080499875,0.1336126664895048,2.595550359778934,0.9452415072040425,0.1728802376190821,-0.48752024683155326,-0.11147110072896137,-1.9463801863486305,0.1336059019074957,2.595550359778934,0.9452445589611904,0.00034187835005838635,0.0007398237645044734,0.0003064156500562812,-0.00030651495695926853,0.0002643568483419708,-0.0001391755289042148,-0.002424435300314028,0.0,0.0,0.0,0.0,0.0,0.0,0.0,-0.00019690073373027084,2.4605751478612437e-05,-2.389493735377446e-06,2.0621701356970945e-05,-6.7645820091000175e-06,0.0,3.0517571478760885e-06,-0.00034187835005838635,-0.0007398237645044734,-0.0003064156500562812,0.00030651495695926853,-0.0002643568483419708,0.0001391755289042148,0.002424435300314028,0.17287558317184448,11.826318740844727,-1.2671844959259033,-21.717256546020508,-0.3619285225868225,-2.5271639823913574,0.15231649577617645,0
14,0.0654134750366211,-0.17287558317184448,-11.826318740844727,1.2671844959259033,21.717256546020508,0.3619285225868225,2.5271639823913574,-0.15231649577617645,0.0,0.0,0.0,0.0,0.0,0.0,0.0,-0.1567356167543002,0.501136447543468,0.1085358502465536,0.42898824754160486,-0.16472137112965002,0.12521114283447451,-0.21437049366936886,0.17307713835281238,-0.4875448525830319,-0.11146871123522599,-1.9464008080499875,0.1336126664895048,2.595550359778934,0.9452415072040425,0.1728802376190821,-0.48752024683155326,-0.11147110072896137,-1.9463801863486305,0.1336059019074957,2.595550359778934,0.9452445589611904,0.00034187835005838635,0.0007398237645044734,0.0003064156500562812,-0.00030651495695926853,0.0002643568483419708,-0.0001391755289042148,-0.002424435300314028,0.0,0.0,0.0,0.0,0.0,0.0,0.0,-0.00019690073373027084,2.4605751478612437e-05,-2.389493735377446e-06,2.0621701356970945e-05,-6.7645820091000175e-06,0.0,3.0517571478760885e-06,-0.00034187835005838635,-0.0007398237645044734,-0.0003064156500562812,0.00030651495695926853,-0.0002643568483419708,0.0001391755289042148,0.002424435300314028,0.17287558317184448,11.826318740844727,-1.2671844959259033,-21.717256546020508,-0.3619285225868225,-2.5271639823913574,0.15231649577617645,0
15,0.06999588012695312,-0.17287558317184448,-11.826318740844727,1.2671844959259033,21.717256546020508,0.3619285225868225,2.5271639823913574,-0.15231649577617645,0.0,0.0,0.0,0.0,0.0,0.0,0.0,-0.1567356167543002,0.501136447543468,0.1085358502465536,0.42898824754160486,-0.16472137112965002,0.12521114283447451,-0.21437049366936886,0.17307713835281238,-0.4875448525830319,-0.11146871123522599,-1.9464008080499875,0.1336126664895048,2.595550359778934,0.9452415072040425,0.1728802376190821,-0.48752024683155326,-0.11147110072896137,-1.9463801863486305,0.1336059019074957,2.595550359778934,0.9452445589611904,0.00034187835005838635,0.0007398237645044734,0.0003064156500562812,-0.00030651495695926853,0.0002643568483419708,-0.0001391755289042148,-0.002424435300314028,0.0,0.0,0.0,0.0,0.0,0.0,0.0,-0.00019690073373027084,2.4605751478612437e-05,-2.389493735377446e-06,2.0621701356970945e-05,-6.7645820091000175e-06,0.0,3.0517571478760885e-06,-0.00034187835005838635,-0.0007398237645044734,-0.0003064156500562812,0.00030651495695926853,-0.0002643568483419708,0.0001391755289042148,0.002424435300314028,0.17287558317184448,11.826318740844727,-1.2671844959259033,-21.717256546020508,-0.3619285225868225,-2.5271639823913574,0.15231649577617645,0
16,0.07541537284851074,-0.17287558317184448,-11.826318740844727,1.2671844959259033,21.717256546020508,0.3619285225868225,2.5271639823913574,-0.15231649577617645,0.0,0.0,0.0,0.0,0.0,0.0,0.0,-0.1567356167543002,0.501136447543468,0.1085358502465536,0.42898824754160486,-0.16472137112965002,0.12521114283447451,-0.21437049366936886,0.17307713835281238,-0.4875448525830319,-0.11146871123522599,-1.9464008080499875,0.1336126664895048,2.595550359778934,0.9452415072040425,0.1728802376190821,-0.48752024683155326,-0.11147110072896137,-1.9463801863486305,0.1336059019074957,2.595550359778934,0.9452445589611904,0.00034187835005838635,0.0007398237645044734,0.0003064156500562812,-0.00030651495695926853,0.0002643568483419708,-0.0001391755289042148,-0.002424435300314028,0.0,0.0,0.0,0.0,0.0,0.0,0.0,-0.00019690073373027084,2.4605751478612437e-05,-2.389493735377446e-06,2.0621701356970945e-05,-6.7645820091000175e-06,0.0,3.0517571478760885e-06,-0.00034187835005838635,-0.0007398237645044734,-0.0003064156500562812,0.00030651495695926853,-0.0002643568483419708,0.0001391755289042148,0.002424435300314028,0.17287558317184448,11.826318740844727,-1.2671844959259033,-21.717256546020508,-0.3619285225868225,-2.5271639823913574,0.15231649577617645,0
17,0.08000326156616211,-0.14510458707809448,-11.802515029907227,1.2671844959259033,21.717256546020508,0.3793235421180725,2.5271639823913574,-0.15964071452617645,0.0,0.0,0.0,0.0,0.0,0.0,0.0,-0.15874726593650687,0.4972645848894918,0.1040954580917624,0.43245010218561347,-0.16420829206991402,0.126354228673489,-0.213766007063873,0.17307518951098125,-0.4875465230188871,-0.11146871708121972,-1.9464008345408743,0.13361073372761406,2.595550359778934,0.9452419677934161,0.1728802376190821,-0.48752024683155326,-0.11147110072896137,-1.9463801863486305,0.1336059019074957,2.595550359778934,0.9452445589611904,-0.0009541603927811815,-0.0009819259535356869,0.0006701079417688478,0.00012495222375006766,-0.0003683101990081222,-3.841225775292632e-05,-0.0016771353136102222,0.0,0.0,0.0,0.0,0.0,0.0,0.0,-0.00019495189189913664,2.627618733386239e-05,-2.3836477416466773e-06,2.0648192243788444e-05,-4.831820118372798e-06,0.0,2.5911677743462036e-06,0.0009541603927811815,0.0009819259535356869,-0.0006701079417688478,-0.00012495222375006766,0.0003683101990081222,3.841225775292632e-05,0.0016771353136102222,0.14510458707809448,11.802515029907227,-1.2671844959259033,-21.717256546020508,-0.3793235421180725,-2.5271639823913574,0.15964071452617645,0
18,0.08500194549560547,-0.14510458707809448,-11.802515029907227,1.2671844959259033,21.717256546020508,0.3793235421180725,2.5271639823913574,-0.15964071452617645,0.0,0.0,0.0,0.0,0.0,0.0,0.0,-0.15874726593650687,0.4972645848894918,0.1040954580917624,0.43245010218561347,-0.16420829206991402,0.126354228673489,-0.213766007063873,0.17307518951098125,-0.4875465230188871,-0.11146871708121972,-1.9464008345408743,0.13361073372761406,2.595550359778934,0.9452419677934161,0.1728802376190821,-0.48752024683155326,-0.11147110072896137,-1.9463801863486305,0.1336059019074957,2.595550359778934,0.9452445589611904,-0.0009541603927811815,-0.0009819259535356869,0.0006701079417688478,0.00012495222375006766,-0.0003683101990081222,-3.841225775292632e-05,-0.0016771353136102222,0.0,0.0,0.0,0.0,0.0,0.0,0.0,-0.00019495189189913664,2.627618733386239e-05,-2.3836477416466773e-06,2.0648192243788444e-05,-4.831820118372798e-06,0.0,2.5911677743462036e-06,0.0009541603927811815,0.0009819259535356869,-0.0006701079417688478,-0.00012495222375006766,0.0003683101990081222,3.841225775292632e-05,0.0016771353136102222,0.14510458707809448,11.802515029907227,-1.2671844959259033,-21.717256546020508,-0.3793235421180725,-2.5271639823913574,0.15964071452617645,0
19,0.09000349044799805,-0.12130087614059448,-11.850122451782227,1.2909882068634033,21.717256546020508,0.3738303780555725,2.5271639823913574,-0.20724813640117645,0.0,0.0,0.0,0.0,0.0,0.0,0.0,-0.15368662983910172,0.5024544473234885,0.11132446336292223,0.4283039589539798,-0.16408567292648532,0.12626234871109027,-0.21290083234260773,0.17307351907512597,-0.48754318214717657,-0.11147039044006268,-1.946400816916727,0.13361134391666157,2.595550359778934,0.9452476107176737,0.1728802376190821,-0.48752024683155326,-0.11147110072896137,-1.9463801863486305,0.1336059019074957,2.595550359778934,0.9452445589611904,-0.0006825721121264317,-0.00013602159108127884,0.0005709429623769523,0.00015380901005143888,-0.00014389648632542163,-0.00022346879523651777,-5.756710354080989e-05,0.0,0.0,0.0,0.0,0.0,0.0,0.0,-0.00019328145604385893,2.2935315623306973e-05,-7.102888986837419e-07,2.063056809653574e-05,-5.442009165884665e-06,0.0,-3.051756483296586e-06,0.0006825721121264317,0.00013602159108127884,-0.0005709429623769523,-0.00015380901005143888,0.00014389648632542163,0.00022346879523651777,5.756710354080989e-05,0.12130087614059448,11.850122451782227,-1.2909882068634033,-21.717256546020508,-0.3738303780555725,-2.5271639823913574,0.20724813640117645,0
20,0.09500336647033691,-0.12130087614059448,-11.850122451782227,1.2909882068634033,21.717256546020508,0.3738303780555725,2.5271639823913574,-0.20724813640117645,0.0,0.0,0.0,0.0,0.0,0.0,0.0,-0.15368662983910172,0.5024544473234885,0.11132446336292223,0.4283039589539798,-0.16408567292648532,0.12626234871109027,-0.21290083234260773,0.17307351907512597,-0.48754318214717657,-0.11147039044006268,-1.946400816916727,0.13361134391666157,2.595550359778934,0.9452476107176737,0.1728802376190821,-0.48752024683155326,-0.11147110072896137,-1.9463801863486305,0.1336059019074957,2.595550359778934,0.9452445589611904,-0.0006825721121264317,-0.00013602159108127884,0.0005709429623769523,0.00015380901005143888,-0.00014389648632542163,-0.00022346879523651777,-5.756710354080989e-05,0.0,0.0,0.0,0.0,0.0,0.0,0.0,-0.00019328145604385893,2.2935315623306973e-05,-7.102888986837419e-07,2.063056809653574e-05,-5.442009165884665e-06,0.0,-3.051756483296586e-06,0.0006825721121264317,0.00013602159108127884,-0.0005709429623769523,-0.00015380901005143888,0.00014389648632542163,0.00022346879523651777,5.756710354080989e-05,0.12130087614059448,11.850122451782227,-1.2909882068634033,-21.717256546020508,-0.3738303780555725,-2.5271639823913574,0.20724813640117645,0
21,0.09999990463256836,-0.19667929410934448,-11.850122451782227,1.3147919178009033,21.717256546020508,0.3738303780555725,2.5207552909851074,-0.20724813640117645,0.0,0.0,0.0,0.0,0.0,0.0,0.0,-0.1542981041914466,0.5126547009904833,0.10580662444026052,0.4213147488408209,-0.16387374793125054,0.12492182334629973,-0.21236509982370597,0.17307880878866763,-0.48754318214717657,-0.11147206087593445,-1.946402953817183,0.13361134407917563,2.595551071855757,0.9452476107196676,0.1728802376190821,-0.48752024683155326,-0.11147110072896137,-1.9463801863486305,0.1336059019074957,2.595550359778934,0.9452445589611904,0.0012172934012254003,0.0006924503758394664,0.00011883248791280745,7.907467574988036e-06,-0.0002052616911942288,0.0002403105331104569,0.0008460416068654778,0.0,0.0,0.0,0.0,0.0,0.0,0.0,-0.0001985711695855208,2.2935315623306973e-05,9.601469730807777e-07,2.2767468552453707e-05,-5.442171679942431e-06,-7.120768228396912e-07,-3.051758477146116e-06,-0.0012172934012254003,-0.0006924503758394664,-0.00011883248791280745,-7.907467574988036e-06,0.0002052616911942288,-0.0002403105331104569,-0.0008460416068654778,0.19667929410934448,11.850122451782227,-1.3147919178009033,-21.717256546020508,-0.3738303780555725,-2.5207552909851074,0.20724813640117645,0
22,0.10500049591064453,-0.19667929410934448,-11.850122451782227,1.3147919178009033,21.717256546020508,0.3738303780555725,2.5207552909851074,-0.20724813640117645,0.0,0.0,0.0,0.0,0.0,0.0,0.0,-0.1542981041914466,0.5126547009904833,0.10580662444026052,0.4213147488408209,-0.16387374793125054,0.12492182334629973,-0.21236509982370597,0.17307880878866763,-0.48754318214717657,-0.11147206087593445,-1.946402953817183,0.13361134407917563,2.595551071855757,0.9452476107196676,0.1728802376190821,-0.48752024683155326,-0.11147110072896137,-1.9463801863486305,0.1336059019074957,2.595550359778934,0.9452445589611904,0.0012172934012254003,0.0006924503758394664,0.00011883248791280745,7.907467574988036e-06,-0.0002052616911942288,0.0002403105331104569,0.0008460416068654778,0.0,0.0,0.0,0.0,0.0,0.0,0.0,-0.0001985711695855208,2.2935315623306973e-05,9.601469730807777e-07,2.2767468552453707e-05,-5.442171679942431e-06,-7.120768228396912e-07,-3.051758477146116e-06,-0.0012172934012254003,-0.0006924503758394664,-0.00011883248791280745,-7.907467574988036e-06,0.0002052616911942288,-0.0002403105331104569,-0.0008460416068654778,0.19667929410934448,11.850122451782227,-1.3147919178009033,-21.717256546020508,-0.3738303780555725,-2.5207552909851074,0.20724813640117645,0
23,0.11143374443054199,-0.22445029020309448,-11.802515029907227,1.2909882068634033,21.768831253051758,0.3738303780555725,2.5271639823913574,-0.20724813640117645,0.0,0.0,0.0,0.0,0.0,0.0,0.0,-0.1607550660122919,0.49460470076822494,0.09908561053040041,0.43069312989808284,-0.1638575947705115,0.1267455734560345,-0.21000837341748763,0.1730807576304988,-0.4875465230188871,-0.11147038946574628,-1.9464044538670124,0.13361134407917655,2.595550359778934,0.9452476107196676,0.1728802376190821,-0.48752024683155326,-0.11147110072896137,-1.9463801863486305,0.1336059019074957,2.595550359778934,0.9452445589611904,0.001402802651921585,-0.0010720017355142115,-0.00012704870518599537,-0.0012377918204880978,-0.00012557494843367582,-2.7850223323367067e-06,0.0007005426285065462,0.0,0.0,0.0,0.0,0.0,0.0,0.0,-0.00020052001141668274,2.627618733386239e-05,-7.112632150890752e-07,2.426751838191521e-05,-5.442171680858365e-06,0.0,-3.051758477146116e-06,-0.001402802651921585,0.0010720017355142115,0.00012704870518599537,0.0012377918204880978,0.00012557494843367582,2.7850223323367067e-06,-0.0007005426285065462,0.22445029020309448,11.802515029907227,-1.2909882068634033,-21.768831253051758,-0.3738303780555725,-2.5271639823913574,0.20724813640117645,0
24,0.11499333381652832,-0.22445029020309448,-11.802515029907227,1.2909882068634033,21.768831253051758,0.3738303780555725,2.5271639823913574,-0.20724813640117645,0.0,0.0,0.0,0.0,0.0,0.0,0.0,-0.1607550660122919,0.49460470076822494,0.09908561053040041,0.43069312989808284,-0.1638575947705115,0.1267455734560345,-0.21000837341748763,0.1730807576304988,-0.4875465230188871,-0.11147038946574628,-1.9464044538670124,0.13361134407917655,2.595550359778934,0.9452476107196676,0.1728802376190821,-0.48752024683155326,-0.11147110072896137,-1.9463801863486305,0.1336059019074957,2.595550359778934,0.9452445589611904,0.001402802651921585,-0.0010720017355142115,-0.00012704870518599537,-0.0012377918204880978,-0.00012557494843367582,-2.7850223323367067e-06,0.0007005426285065462,0.0,0.0,0.0,0.0,0.0,0.0,0.0,-0.00020052001141668274,2.627618733386239e-05,-7.112632150890752e-07,2.426751838191521e-05,-5.442171680858365e-06,0.0,-3.051758477146116e-06,-0.001402802651921585,0.0010720017355142115,0.00012704870518599537,0.0012377918204880978,0.00012557494843367582,2.7850223323367067e-06,-0.0007005426285065462,0.22445029020309448,11.802515029907227,-1.2909882068634033,-21.768831253051758,-0.3738303780555725,-2.5271639823913574,0.20724813640117645,0
25,0.11999678611755371,-0.17287558317184448,-11.826318740844727,1.2909882068634033,21.768831253051758,0.3674216866493225,2.5271639823913574,-0.17337362468242645,0.0,0.0,0.0,0.0,0.0,0.0,0.0,-0.15602318454475844,0.4966581615920879,0.11262094525554772,0.4290238260831972,-0.16424258832205688,0.12679379550762002,-0.20856604797621164,0.17307713835281238,-0.4875448525830319,-0.11147039044007735,-1.9464044315792919,0.13361205615599947,2.595550359778934,0.9452438468850322,0.1728802376190821,-0.48752024683155326,-0.11147110072896137,-1.9463801863486305,0.1336059019074957,2.595550359778934,0.9452445589611904,0.00036859568637964734,-0.00042868050544375507,0.00031500867459071356,-0.0012753560758076382,8.823146843375496e-05,2.9255309863664872e-05,-0.000785034934621504,0.0,0.0,0.0,0.0,0.0,0.0,0.0,-0.00019690073373027084,2.4605751478612437e-05,-7.102888840149202e-07,2.4245230661357198e-05,-6.154248503781323e-06,0.0,7.120761582601887e-07,-0.00036859568637964734,0.00042868050544375507,-0.00031500867459071356,0.0012753560758076382,-8.823146843375496e-05,-2.9255309863664872e-05,0.000785034934621504,0.17287558317184448,11.826318740844727,-1.2909882068634033,-21.768831253051758,-0.3674216866493225,-2.5271639823913574,0.17337362468242645,0
26,0.12499856948852539,-0.17287558317184448,-11.826318740844727,1.2909882068634033,21.768831253051758,0.3674216866493225,2.5271639823913574,-0.17337362468242645,0.0,0.0,0.0,0.0,0.0,0.0,0.0,-0.15602318454475844,0.4966581615920879,0.11262094525554772,0.4290238260831972,-0.16424258832205688,0.12679379550762002,-0.20856604797621164,0.17307713835281238,-0.4875448525830319,-0.11147039044007735,-1.9464044315792919,0.13361205615599947,2.595550359778934,0.9452438468850322,0.1728802376190821,-0.48752024683155326,-0.11147110072896137,-1.9463801863486305,0.1336059019074957,2.595550359778934,0.9452445589611904,0.00036859568637964734,-0.00042868050544375507,0.00031500867459071356,-0.0012753560758076382,8.823146843375496e-05,2.9255309863664872e-05,-0.000785034934621504,0.0,0.0,0.0,0.0,0.0,0.0,0.0,-0.00019690073373027084,2.4605751478612437e-05,-7.102888840149202e-07,2.4245230661357198e-05,-6.154248503781323e-06,0.0,7.120761582601887e-07,-0.00036859568637964734,0.00042868050544375507,-0.00031500867459071356,0.0012753560758076382,-8.823146843375496e-05,-2.9255309863664872e-05,0.000785034934621504,0.17287558317184448,11.826318740844727,-1.2909882068634033,-21.768831253051758,-0.3674216866493225,-2.5271639823913574,0.17337362468242645,0
27,0.12999439239501953,-0.12130087614059448,-11.873926162719727,1.3147919178009033,21.693452835083008,0.3738303780555725,2.5271639823913574,-0.22098104655742645,0.0,0.0,0.0,0.0,0.0,0.0,0.0,-0.1580155104835109,0.49920970940763504,0.1103976027446789,0.4266418180188547,-0.16424558422484717,0.1261411486076792,-0.20812918936509206,0.17307351907512597,-0.4875415117113213,-0.1114719819549696,-1.9463992170869495,0.13361134407917655,2.595550359778934,0.9452491365985738,0.1728802376190821,-0.48752024683155326,-0.11147110072896137,-1.9463801863486305,0.1336059019074957,2.595550359778934,0.9452445589611904,-0.000520222594387344,0.0011609742397492722,2.1504739495345438e-05,0.0007174183357703043,-0.00014393358362594437,3.090397825568098e-05,-0.005366372229615462,0.0,0.0,0.0,0.0,0.0,0.0,0.0,-0.00019328145604385893,2.126487976805702e-05,8.812260082341483e-07,1.903073831899249e-05,-5.442171680858365e-06,0.0,-4.5776373833739115e-06,0.000520222594387344,-0.0011609742397492722,-2.1504739495345438e-05,-0.0007174183357703043,0.00014393358362594437,-3.090397825568098e-05,0.005366372229615462,0.12130087614059448,11.873926162719727,-1.3147919178009033,-21.693452835083008,-0.3738303780555725,-2.5271639823913574,0.22098104655742645,0
28,0.1349961757659912,-0.12130087614059448,-11.873926162719727,1.3147919178009033,21.693452835083008,0.3738303780555725,2.5271639823913574,-0.22098104655742645,0.0,0.0,0.0,0.0,0.0,0.0,0.0,-0.1580155104835109,0.49920970940763504,0.1103976027446789,0.4266418180188547,-0.16424558422484717,0.1261411486076792,-0.20812918936509206,0.17307351907512597,-0.4875415117113213,-0.1114719819549696,-1.9463992170869495,0.13361134407917655,2.595550359778934,0.9452491365985738,0.1728802376190821,-0.48752024683155326,-0.11147110072896137,-1.9463801863486305,0.1336059019074957,2.595550359778934,0.9452445589611904,-0.000520222594387344,0.0011609742397492722,2.1504739495345438e-05,0.0007174183357703043,-0.00014393358362594437,3.090397825568098e-05,-0.005366372229615462,0.0,0.0,0.0,0.0,0.0,0.0,0.0,-0.00019328145604385893,2.126487976805702e-05,8.812260082341483e-07,1.903073831899249e-05,-5.442171680858365e-06,0.0,-4.5776373833739115e-06,0.000520222594387344,-0.0011609742397492722,-2.1504739495345438e-05,-0.0007174183357703043,0.00014393358362594437,-3.090397825568098e-05,0.005366372229615462,0.12130087614059448,11.873926162719727,-1.3147919178009033,-21.693452835083008,-0.3738303780555725,-2.5271639823913574,0.22098104655742645,0
29,0.14032936096191406,-0.12130087614059448,-11.774744033813477,1.2909882068634033,21.717256546020508,0.3674216866493225,2.5335726737976074,-0.22098104655742645,0.0,0.0,0.0,0.0,0.0,0.0,0.0,-0.1556711043003822,0.5022887056152584,0.11204022550397859,0.4241475048363004,-0.1643583209282314,0.12620140973260438,-0.20697678434644537,0.17307351907512597,-0.48754847186071826,-0.11147039033137446,-1.9464008090678548,0.13361205615599947,2.595549647702111,0.9452480769604444,0.1728802376190821,-0.48752024683155326,-0.11147110072896137,-1.9463801863486305,0.1336059019074957,2.595550359778934,0.9452445589611904,-0.0005064494658338714,-0.0010403376651296592,0.00080415850388202,-1.3618834308901104e-06,0.00010110751044186174,-0.0002815479139951629,0.001094184522935626,0.0,0.0,0.0,0.0,0.0,0.0,0.0,-0.00019328145604385893,2.8225029164996585e-05,-7.103975869088286e-07,2.062271922431691e-05,-6.154248503781323e-06,7.120768228396912e-07,-3.517999254021298e-06,0.0005064494658338714,0.0010403376651296592,-0.00080415850388202,1.3618834308901104e-06,-0.00010110751044186174,0.0002815479139951629,-0.001094184522935626,0.12130087614059448,11.774744033813477,-1.2909882068634033,-21.717256546020508,-0.3674216866493225,-2.5335726737976074,0.22098104655742645,0
30,0.14499759674072266,-0.12130087614059448,-11.774744033813477,1.2909882068634033,21.717256546020508,0.3674216866493225,2.5335726737976074,-0.22098104655742645,0.0,0.0,0.0,0.0,0.0,0.0,0.0,-0.1556711043003822,0.5022887056152584,0.11204022550397859,0.4241475048363004,-0.1643583209282314,0.12620140973260438,-0.20697678434644537,0.17307351907512597,-0.48754847186071826,-0.11147039033137446,-1.9464008090678548,0.13361205615599947,2.595549647702111,0.9452480769604444,0.1728802376190821,-0.48752024683155326,-0.11147110072896137,-1.9463801863486305,0.1336059019074957,2.595550359778934,0.9452445589611904,-0.0005064494658338714,-0.0010403376651296592,0.00080415850388202,-1.3618834308901104e-06,0.00010110751044186174,-0.0002815479139951629,0.001094184522935626,0.0,0.0,0.0,0.0,0.0,0.0,0.0,-0.00019328145604385893,2.8225029164996585e-05,-7.103975869088286e-07,2.062271922431691e-05,-6.154248503781323e-06,7.120768228396912e-07,-3.517999254021298e-06,0.0005064494658338714,0.0010403376651296592,-0.00080415850388202,1.3618834308901104e-06,-0.00010110751044186174,0.0002815479139951629,-0.001094184522935626,0.12130087614059448,11.774744033813477,-1.2909882068634033,-21.717256546020508,-0.3674216866493225,-2.5335726737976074,0.22098104655742645,0
31,0.1500086784362793,-0.17287558317184448,-11.802515029907227,1.2671844959259033,21.717256546020508,0.3738303780555725,2.5207552909851074,-0.15964071452617645,0.0,0.0,0.0,0.0,0.0,0.0,0.0,-0.15878914882246034,0.49666779926257,0.10553453883207634,0.4255009757358698,-0.16432082571074955,0.12696932098670585,-0.20649492933420316,0.17307713835281238,-0.4875465230188871,-0.11146872000422331,-1.9464008080862656,0.13361134407917655,2.595551071855757,0.9452423210001442,0.1728802376190821,-0.48752024683155326,-0.11147110072896137,-1.9463801863486305,0.1336059019074957,2.595550359778934,0.9452445589611904,0.0004715135714225485,-0.00040169231879273585,0.0005115519787904039,-0.0003204638566087733,-0.00038585359789833487,-6.65852680142152e-05,-0.001401891145614785,0.0,0.0,0.0,0.0,0.0,0.0,0.0,-0.00019690073373027084,2.627618733386239e-05,-2.3807247380575047e-06,2.0621737635062587e-05,-5.442171680858365e-06,-7.120768228396912e-07,2.2379610462586186e-06,-0.0004715135714225485,0.00040169231879273585,-0.0005115519787904039,0.0003204638566087733,0.00038585359789833487,6.65852680142152e-05,0.001401891145614785,0.17287558317184448,11.802515029907227,-1.2671844959259033,-21.717256546020508,-0.3738303780555725,-2.5207552909851074,0.15964071452617645,0
32,0.15502381324768066,-0.17287558317184448,-11.802515029907227,1.2671844959259033,21.717256546020508,0.3738303780555725,2.5207552909851074,-0.15964071452617645,0.0,0.0,0.0,0.0,0.0,0.0,0.0,-0.15878914882246034,0.49666779926257,0.10553453883207634,0.4255009757358698,-0.16432082571074955,0.12696932098670585,-0.20649492933420316,0.17307713835281238,-0.4875465230188871,-0.11146872000422331,-1.9464008080862656,0.13361134407917655,2.595551071855757,0.9452423210001442,0.1728802376190821,-0.48752024683155326,-0.11147110072896137,-1.9463801863486305,0.1336059019074957,2.595550359778934,0.9452445589611904,0.0004715135714225485,-0.00040169231879273585,0.0005115519787904039,-0.0003204638566087733,-0.00038585359789833487,-6.65852680142152e-05,-0.001401891145614785,0.0,0.0,0.0,0.0,0.0,0.0,0.0,-0.00019690073373027084,2.627618733386239e-05,-2.3807247380575047e-06,2.0621737635062587e-05,-5.442171680858365e-06,-7.120768228396912e-07,2.2379610462586186e-06,-0.0004715135714225485,0.00040169231879273585,-0.0005115519787904039,0.0003204638566087733,0.00038585359789833487,6.65852680142152e-05,0.001401891145614785,0.17287558317184448,11.802515029907227,-1.2671844959259033,-21.717256546020508,-0.3738303780555725,-2.5207552909851074,0.15964071452617645,0
33,0.16002702713012695,-0.19667929410934448,-11.774744033813477,1.2671844959259033,21.741060256958008,0.3674216866493225,2.5207552909851074,-0.20724813640117645,0.0,0.0,0.0,0.0,0.0,0.0,0.0,-0.1628784740793651,0.5053725213311283,0.09976640941776854,0.42441220605015295,-0.16468412267790367,0.12552524432709822,-0.20536904588585805,0.17307880878866763,-0.48754847186071826,-0.11146800874120745,-1.9464024876915949,0.13361205615599947,2.595551071855757,0.9452476107196676,0.1728802376190821,-0.48752024683155326,-0.11147110072896137,-1.9463801863486305,0.1336059019074957,2.595550359778934,0.9452445589611904,-0.0002219730994651255,-0.0002754936932351678,3.5972117827297954e-05,-0.00028397040176111253,-1.8893555662260752e-06,1.8406166407554382e-05,0.0007391267430775951,0.0,0.0,0.0,0.0,0.0,0.0,0.0,-0.0001985711695855208,2.8225029164996585e-05,-3.091987753917058e-06,2.2301342964325954e-05,-6.154248503781323e-06,-7.120768228396912e-07,-3.051758477146116e-06,0.0002219730994651255,0.0002754936932351678,-3.5972117827297954e-05,0.00028397040176111253,1.8893555662260752e-06,-1.8406166407554382e-05,-0.0007391267430775951,0.19667929410934448,11.774744033813477,-1.2671844959259033,-21.741060256958008,-0.3674216866493225,-2.5207552909851074,0.20724813640117645,0
34,0.16500067710876465,-0.19667929410934448,-11.774744033813477,1.2671844959259033,21.741060256958008,0.3674216866493225,2.5207552909851074,-0.20724813640117645,0.0,0.0,0.0,0.0,0.0,0.0,0.0,-0.1628784740793651,0.5053725213311283,0.09976640941776854,0.42441220605015295,-0.16468412267790367,0.12552524432709822,-0.20536904588585805,0.17307880878866763,-0.48754847186071826,-0.11146800874120745,-1.9464024876915949,0.13361205615599947,2.595551071855757,0.9452476107196676,0.1728802376190821,-0.48752024683155326,-0.11147110072896137,-1.9463801863486305,0.1336059019074957,2.595550359778934,0.9452445589611904,-0.0002219730994651255,-0.0002754936932351678,3.5972117827297954e-05,-0.00028397040176111253,-1.8893555662260752e-06,1.8406166407554382e-05,0.0007391267430775951,0.0,0.0,0.0,0.0,0.0,0.0,0.0,-0.0001985711695855208,2.8225029164996585e-05,-3.091987753917058e-06,2.2301342964325954e-05,-6.154248503781323e-06,-7.120768228396912e-07,-3.051758477146116e-06,0.0002219730994651255,0.0002754936932351678,-3.5972117827297954e-05,0.00028397040176111253,1.8893555662260752e-06,-1.8406166407554382e-05,-0.0007391267430775951,0.19667929410934448,11.774744033813477,-1.2671844959259033,-21.741060256958008,-0.3674216866493225,-2.5207552909851074,0.20724813640117645,0
35,0.17025351524353027,-0.19667929410934448,-11.774744033813477,1.2671844959259033,21.741060256958008,0.3674216866493225,2.5207552909851074,-0.20724813640117645,0.0,0.0,0.0,0.0,0.0,0.0,0.0,-0.1628784740793651,0.5053725213311283,0.09976640941776854,0.42441220605015295,-0.16468412267790367,0.12552524432709822,-0.20536904588585805,0.17307880878866763,-0.48754847186071826,-0.11146800874120745,-1.9464024876915949,0.13361205615599947,2.595551071855757,0.9452476107196676,0.1728802376190821,-0.48752024683155326,-0.11147110072896137,-1.9463801863486305,0.1336059019074957,2.595550359778934,0.9452445589611904,-0.0002219730994651255,-0.0002754936932351678,3.5972117827297954e-05,-0.00028397040176111253,-1.8893555662260752e-06,1.8406166407554382e-05,0.0007391267430775951,0.0,0.0,0.0,0.0,0.0,0.0,0.0,-0.0001985711695855208,2.8225029164996585e-05,-3.091987753917058e-06,2.2301342964325954e-05,-6.154248503781323e-06,-7.120768228396912e-07,-3.051758477146116e-06,0.0002219730994651255,0.0002754936932351678,-3.5972117827297954e-05,0.00028397040176111253,1.8893555662260752e-06,-1.8406166407554382e-05,-0.0007391267430775951,0.19667929410934448,11.774744033813477,-1.2671844959259033,-21.741060256958008,-0.3674216866493225,-2.5207552909851074,0.20724813640117645,0
36,0.17500019073486328,-0.19667929410934448,-11.774744033813477,1.2671844959259033,21.741060256958008,0.3674216866493225,2.5207552909851074,-0.20724813640117645,0.0,0.0,0.0,0.0,0.0,0.0,0.0,-0.1628784740793651,0.5053725213311283,0.09976640941776854,0.42441220605015295,-0.16468412267790367,0.12552524432709822,-0.20536904588585805,0.17307880878866763,-0.48754847186071826,-0.11146800874120745,-1.9464024876915949,0.13361205615599947,2.595551071855757,0.9452476107196676,0.1728802376190821,-0.48752024683155326,-0.11147110072896137,-1.9463801863486305,0.1336059019074957,2.595550359778934,0.9452445589611904,-0.0002219730994651255,-0.0002754936932351678,3.5972117827297954e-05,-0.00028397040176111253,-1.8893555662260752e-06,1.8406166407554382e-05,0.0007391267430775951,0.0,0.0,0.0,0.0,0.0,0.0,0.0,-0.0001985711695855208,2.8225029164996585e-05,-3.091987753917058e-06,2.2301342964325954e-05,-6.154248503781323e-06,-7.120768228396912e-07,-3.051758477146116e-06,0.0002219730994651255,0.0002754936932351678,-3.5972117827297954e-05,0.00028397040176111253,1.8893555662260752e-06,-1.8406166407554382e-05,-0.0007391267430775951,0.19667929410934448,11.774744033813477,-1.2671844959259033,-21.741060256958008,-0.3674216866493225,-2.5207552909851074,0.20724813640117645,0
37,0.17999935150146484,-0.19667929410934448,-11.802515029907227,1.2433807849884033,21.717256546020508,0.3738303780555725,2.5207552909851074,-0.19351522624492645,0.0,0.0,0.0,0.0,0.0,0.0,0.0,-0.1686452703052307,0.5060268609218939,0.10173911157640653,0.428078144321629,-0.16454892644486943,0.12460342509431697,-0.205640603214785,0.17307880878866763,-0.4875465230188871,-0.11146491577530415,-1.9464008109934123,0.13361134407917655,2.595550718643047,0.9452471709698439,0.1728802376190821,-0.48752024683155326,-0.11147110072896137,-1.9463801863486305,0.1336059019074957,2.595550359778934,0.9452445589611904,1.7174756305716955e-05,0.0003187671544230314,0.00014529315979143573,-6.953577369013142e-05,-0.00011581718255437603,0.00024201751715442405,0.0002880301656113155,0.0,0.0,0.0,0.0,0.0,0.0,0.0,-0.0001985711695855208,2.627618733386239e-05,-6.184953657215053e-06,2.0624644781808144e-05,-5.442171680858365e-06,-3.588641130924941e-07,-2.6120086534797693e-06,-1.7174756305716955e-05,-0.0003187671544230314,-0.00014529315979143573,6.953577369013142e-05,0.00011581718255437603,-0.00024201751715442405,-0.0002880301656113155,0.19667929410934448,11.802515029907227,-1.2433807849884033,-21.717256546020508,-0.3738303780555725,-2.5207552909851074,0.19351522624492645,0
38,0.18500900268554688,-0.19667929410934448,-11.802515029907227,1.2433807849884033,21.717256546020508,0.3738303780555725,2.5207552909851074,-0.19351522624492645,0.0,0.0,0.0,0.0,0.0,0.0,0.0,-0.1686452703052307,0.5060268609218939,0.10173911157640653,0.428078144321629,-0.16454892644486943,0.12460342509431697,-0.205640603214785,0.17307880878866763,-0.4875465230188871,-0.11146491577530415,-1.9464008109934123,0.13361134407917655,2.595550718643047,0.9452471709698439,0.1728802376190821,-0.48752024683155326,-0.11147110072896137,-1.9463801863486305,0.1336059019074957,2.595550359778934,0.9452445589611904,1.7174756305716955e-05,0.0003187671544230314,0.00014529315979143573,-6.953577369013142e-05,-0.00011581718255437603,0.00024201751715442405,0.0002880301656113155,0.0,0.0,0.0,0.0,0.0,0.0,0.0,-0.0001985711695855208,2.627618733386239e-05,-6.184953657215053e-06,2.0624644781808144e-05,-5.442171680858365e-06,-3.588641130924941e-07,-2.6120086534797693e-06,-1.7174756305716955e-05,-0.0003187671544230314,-0.00014529315979143573,6.953577369013142e-05,0.00011581718255437603,-0.00024201751715442405,-0.0002880301656113155,0.19667929410934448,11.802515029907227,-1.2433807849884033,-21.717256546020508,-0.3738303780555725,-2.5207552909851074,0.19351522624492645,0
39,0.18999814987182617,-0.12130087614059448,-11.826318740844727,1.3147919178009033,21.741060256958008,0.3738303780555725,2.5271639823913574,-0.20724813640117645,0.0,0.0,0.0,0.0,0.0,0.0,0.0,-0.15926715246027628,0.5072950115057147,0.11828988636757362,0.4297111841980082,-0.1647171886049678,0.12436677141924904,-0.20554646667022977,0.17307351907512597,-0.4875448525830319,-0.11147206086388912,-1.9464025049767464,0.1336081452965736,2.59555035977694,0.9452476107257988,0.1728802376190821,-0.48752024683155326,-0.11147110072896137,-1.9463801863486305,0.1336059019074957,2.595550359778934,0.9452445589611904,-0.0002053051505517318,0.0004331339602962785,3.533890597421758e-05,-0.0007749412140098426,-0.00025538078641976783,-3.2872799716790226e-05,0.00025612744092555446,0.0,0.0,0.0,0.0,0.0,0.0,0.0,-0.00019328145604385893,2.4605751478612437e-05,9.601349277577054e-07,2.2318628115858274e-05,-2.2433890779216537e-06,1.993960552226781e-12,-3.0517646083527694e-06,0.0002053051505517318,-0.0004331339602962785,-3.533890597421758e-05,0.0007749412140098426,0.00025538078641976783,3.2872799716790226e-05,-0.00025612744092555446,0.12130087614059448,11.826318740844727,-1.3147919178009033,-21.741060256958008,-0.3738303780555725,-2.5271639823913574,0.20724813640117645,0
40,0.1950063705444336,-0.12130087614059448,-11.826318740844727,1.3147919178009033,21.741060256958008,0.3738303780555725,2.5271639823913574,-0.20724813640117645,0.0,0.0,0.0,0.0,0.0,0.0,0.0,-0.15926715246027628,0.5072950115057147,0.11828988636757362,0.4297111841980082,-0.1647171886049678,0.12436677141924904,-0.20554646667022977,0.17307351907512597,-0.4875448525830319,-0.11147206086388912,-1.9464025049767464,0.1336081452965736,2.59555035977694,0.9452476107257988,0.1728802376190821,-0.48752024683155326,-0.11147110072896137,-1.9463801863486305,0.1336059019074957,2.595550359778934,0.9452445589611904,-0.0002053051505517318,0.0004331339602962785,3.533890597421758e-05,-0.0007749412140098426,-0.00025538078641976783,-3.2872799716790226e-05,0.00025612744092555446,0.0,0.0,0.0,0.0,0.0,0.0,0.0,-0.00019328145604385893,2.4605751478612437e-05,9.601349277577054e-07,2.2318628115858274e-05,-2.2433890779216537e-06,1.993960552226781e-12,-3.0517646083527694e-06,0.0002053051505517318,-0.0004331339602962785,-3.533890597421758e-05,0.0007749412140098426,0.00025538078641976783,3.2872799716790226e-05,-0.00025612744092555446,0.12130087614059448,11.826318740844727,-1.3147919178009033,-21.741060256958008,-0.3738303780555725,-2.5271639823913574,0.20724813640117645,0
41,0.1999955177307129,-0.12130087614059448,-11.850122451782227,1.3425629138946533,21.717256546020508,0.3555198311805725,2.5271639823913574,-0.20083944499492645,0.0,0.0,0.0,0.0,0.0,0.0,0.0,-0.16043582248358185,0.4992665929896605,0.10510707291600839,0.4317044606922347,-0.16406079922549907,0.12547030210719717,-0.205369983957362,0.17307351907512597,-0.48754318214717657,-0.11147400971776553,-1.9464008080500705,0.13361337856632768,2.595550359778934,0.9452468986428446,0.1728802376190821,-0.48752024683155326,-0.11147110072896137,-1.9463801863486305,0.1336059019074957,2.595550359778934,0.9452445589611904,0.00015083328085760598,-0.00019999803756576122,-0.0001953888918200647,9.567238871506625e-05,0.00043501335269746443,-0.00011880426297802337,6.248470981745226e-05,0.0,0.0,0.0,0.0,0.0,0.0,0.0,-0.00019328145604385893,2.2935315623306973e-05,2.9089888041594625e-06,2.0621701440015627e-05,-7.47665883199522e-06,0.0,-2.3396816541954024e-06,-0.00015083328085760598,0.00019999803756576122,0.0001953888918200647,-9.567238871506625e-05,-0.00043501335269746443,0.00011880426297802337,-6.248470981745226e-05,0.12130087614059448,11.850122451782227,-1.3425629138946533,-21.717256546020508,-0.3555198311805725,-2.5271639823913574,0.20083944499492645,0
42,0.20499420166015625,-0.12130087614059448,-11.850122451782227,1.3425629138946533,21.717256546020508,0.3555198311805725,2.5271639823913574,-0.20083944499492645,0.0,0.0,0.0,0.0,0.0,0.0,0.0,-0.16043582248358185,0.4992665929896605,0.10510707291600839,0.4317044606922347,-0.16406079922549907,0.12547030210719717,-0.205369983957362,0.17307351907512597,-0.48754318214717657,-0.11147400971776553,-1.9464008080500705,0.13361337856632768,2.595550359778934,0.9452468986428446,0.1728802376190821,-0.48752024683155326,-0.11147110072896137,-1.9463801863486305,0.1336059019074957,2.595550359778934,0.9452445589611904,0.00015083328085760598,-0.00019999803756576122,-0.0001953888918200647,9.567238871506625e-05,0.00043501335269746443,-0.00011880426297802337,6.248470981745226e-05,0.0,0.0,0.0,0.0,0.0,0.0,0.0,-0.00019328145604385893,2.2935315623306973e-05,2.9089888041594625e-06,2.0621701440015627e-05,-7.47665883199522e-06,0.0,-2.3396816541954024e-06,-0.00015083328085760598,0.00019999803756576122,0.0001953888918200647,-9.567238871506625e-05,-0.00043501335269746443,0.00011880426297802337,-6.248470981745226e-05,0.12130087614059448,11.850122451782227,-1.3425629138946533,-21.717256546020508,-0.3555198311805725,-2.5271639823913574,0.20083944499492645,0
43,0.20999765396118164,-0.09352988004684448,-11.850122451782227,1.3425629138946533,21.717256546020508,0.3738303780555725,2.5271639823913574,-0.19351522624492645,0.0,0.0,0.0,0.0,0.0,0.0,0.0,-0.1569705983504241,0.4968955678134117,0.10285735037254237,0.42847351212495827,-0.16448358029913127,0.1254560646923599,-0.20623201239394298,0.17307157023329484,-0.48754318214717657,-0.1114740097177656,-1.946400914013734,0.13361134407917646,2.595550359778934,0.9452460848407613,0.1728802376190821,-0.48752024683155326,-0.11147110072896137,-1.9463801863486305,0.1336059019074957,2.595550359778934,0.9452445589611904,-0.0011481575878611846,-0.00031793230758888285,-0.0003670389782914711,7.069695599660485e-05,-0.00017909176038461095,-0.00013170003377524408,4.178528821371918e-05,0.0,0.0,0.0,0.0,0.0,0.0,0.0,-0.00019133261421272474,2.2935315623306973e-05,2.9089888042288514e-06,2.072766510341495e-05,-5.442171680775099e-06,0.0,-1.5258795709183204e-06,0.0011481575878611846,0.00031793230758888285,0.0003670389782914711,-7.069695599660485e-05,0.00017909176038461095,0.00013170003377524408,-4.178528821371918e-05,0.09352988004684448,11.850122451782227,-1.3425629138946533,-21.717256546020508,-0.3738303780555725,-2.5271639823913574,0.19351522624492645,0
44,0.21500587463378906,-0.09352988004684448,-11.850122451782227,1.3425629138946533,21.717256546020508,0.3738303780555725,2.5271639823913574,-0.19351522624492645,0.0,0.0,0.0,0.0,0.0,0.0,0.0,-0.1569705983504241,0.4968955678134117,0.10285735037254237,0.42847351212495827,-0.16448358029913127,0.1254560646923599,-0.20623201239394298,0.17307157023329484,-0.48754318214717657,-0.1114740097177656,-1.946400914013734,0.13361134407917646,2.595550359778934,0.9452460848407613,0.1728802376190821,-0.48752024683155326,-0.11147110072896137,-1.9463801863486305,0.1336059019074957,2.595550359778934,0.9452445589611904,-0.0011481575878611846,-0.00031793230758888285,-0.0003670389782914711,7.069695599660485e-05,-0.00017909176038461095,-0.00013170003377524408,4.178528821371918e-05,0.0,0.0,0.0,0.0,0.0,0.0,0.0,-0.00019133261421272474,2.2935315623306973e-05,2.9089888042288514e-06,2.072766510341495e-05,-5.442171680775099e-06,0.0,-1.5258795709183204e-06,0.0011481575878611846,0.00031793230758888285,0.0003670389782914711,-7.069695599660485e-05,0.00017909176038461095,0.00013170003377524408,-4.178528821371918e-05,0.09352988004684448,11.850122451782227,-1.3425629138946533,-21.717256546020508,-0.3738303780555725,-2.5271639823913574,0.19351522624492645,0
45,0.22000503540039062,-0.17287558317184448,-11.826318740844727,1.2433807849884033,21.717256546020508,0.3738303780555725,2.5335726737976074,-0.22098104655742645,0.0,0.0,0.0,0.0,0.0,0.0,0.0,-0.1605603727904324,0.5077615814717875,0.09792273779909741,0.41958941725772897,-0.16411232666786205,0.1238575469002289,-0.20753954923031376,0.17307713835281238,-0.4875448525830319,-0.11146704956836867,-1.9464008080505193,0.13361134359163157,2.595549647702111,0.9452491768255769,0.1728802376190821,-0.48752024683155326,-0.11147110072896137,-1.9463801863486305,0.1336059019074957,2.595550359778934,0.9452445589611904,-4.929831450149727e-05,1.4382175802508241e-05,0.0010934821529879355,-3.725020565866953e-05,-0.00012221340982146282,-0.00034888850727553034,0.0009814481796345366,0.0,0.0,0.0,0.0,0.0,0.0,0.0,-0.00019690073373027084,2.4605751478612437e-05,-4.051160592696834e-06,2.0621701888767774e-05,-5.4416841358817525e-06,7.120768228396912e-07,-4.617864386435855e-06,4.929831450149727e-05,-1.4382175802508241e-05,-0.0010934821529879355,3.725020565866953e-05,0.00012221340982146282,0.00034888850727553034,-0.0009814481796345366,0.17287558317184448,11.826318740844727,-1.2433807849884033,-21.717256546020508,-0.3738303780555725,-2.5335726737976074,0.22098104655742645,0
46,0.2250046730041504,-0.17287558317184448,-11.826318740844727,1.2433807849884033,21.717256546020508,0.3738303780555725,2.5335726737976074,-0.22098104655742645,0.0,0.0,0.0,0.0,0.0,0.0,0.0,-0.1605603727904324,0.5077615814717875,0.09792273779909741,0.41958941725772897,-0.16411232666786205,0.1238575469002289,-0.20753954923031376,0.17307713835281238,-0.4875448525830319,-0.11146704956836867,-1.9464008080505193,0.13361134359163157,2.595549647702111,0.9452491768255769,0.1728802376190821,-0.48752024683155326,-0.11147110072896137,-1.9463801863486305,0.1336059019074957,2.595550359778934,0.9452445589611904,-4.929831450149727e-05,1.4382175802508241e-05,0.0010934821529879355,-3.725020565866953e-05,-0.00012221340982146282,-0.00034888850727553034,0.0009814481796345366,0.0,0.0,0.0,0.0,0.0,0.0,0.0,-0.00019690073373027084,2.4605751478612437e-05,-4.051160592696834e-06,2.0621701888767774e-05,-5.4416841358817525e-06,7.120768228396912e-07,-4.617864386435855e-06,4.929831450149727e-05,-1.4382175802508241e-05,-0.0010934821529879355,3.725020565866953e-05,0.00012221340982146282,0.00034888850727553034,-0.0009814481796345366,0.17287558317184448,11.826318740844727,-1.2433807849884033,-21.717256546020508,-0.3738303780555725,-2.5335726737976074,0.22098104655742645,0
47,0.23000288009643555,-0.17287558317184448,-11.802515029907227,1.2909882068634033,21.717256546020508,0.3738303780555725,2.5271639823913574,-0.21457235515117645,0.0,0.0,0.0,0.0,0.0,0.0,0.0,-0.15109828853010557,0.49088253338872284,0.11495148724564608,0.4272954290389974,-0.16488315855633692,0.12501432151321507,-0.20875563615188533,0.17307713835281238,-0.4875465230188871,-0.11147039044007918,-1.9464008090310676,0.1336113440791738,2.595550359778934,0.9452484245219779,0.1728802376190821,-0.48752024683155326,-0.11147110072896137,-1.9463801863486305,0.1336059019074957,2.595550359778934,0.9452445589611904,0.00032572299020359416,-0.0008501438247131278,0.0002885441703131524,-2.2750653923559813e-05,-0.00012124230190464334,2.5832823199775046e-05,0.0002603132122027543,0.0,0.0,0.0,0.0,0.0,0.0,0.0,-0.00019690073373027084,2.627618733386239e-05,-7.102888821830522e-07,2.062268243707699e-05,-5.442171678110563e-06,0.0,-3.8655607874638065e-06,-0.00032572299020359416,0.0008501438247131278,-0.0002885441703131524,2.2750653923559813e-05,0.00012124230190464334,-2.5832823199775046e-05,-0.0002603132122027543,0.17287558317184448,11.802515029907227,-1.2909882068634033,-21.717256546020508,-0.3738303780555725,-2.5271639823913574,0.21457235515117645,0
48,0.23495936393737793,-0.17287558317184448,-11.802515029907227,1.2909882068634033,21.717256546020508,0.3738303780555725,2.5271639823913574,-0.21457235515117645,0.0,0.0,0.0,0.0,0.0,0.0,0.0,-0.15109828853010557,0.49088253338872284,0.11495148724564608,0.4272954290389974,-0.16488315855633692,0.12501432151321507,-0.20875563615188533,0.17307713835281238,-0.4875465230188871,-0.11147039044007918,-1.9464008090310676,0.1336113440791738,2.595550359778934,0.9452484245219779,0.1728802376190821,-0.48752024683155326,-0.11147110072896137,-1.9463801863486305,0.1336059019074957,2.595550359778934,0.9452445589611904,0.00032572299020359416,-0.0008501438247131278,0.0002885441703131524,-2.2750653923559813e-05,-0.00012124230190464334,2.5832823199775046e-05,0.0002603132122027543,0.0,0.0,0.0,0.0,0.0,0.0,0.0,-0.00019690073373027084,2.627618733386239e-05,-7.102888821830522e-07,2.062268243707699e-05,-5.442171678110563e-06,0.0,-3.8655607874638065e-06,-0.00032572299020359416,0.0008501438247131278,-0.0002885441703131524,2.2750653923559813e-05,0.00012124230190464334,-2.5832823199775046e-05,-0.0002603132122027543,0.17287558317184448,11.802515029907227,-1.2909882068634033,-21.717256546020508,-0.3738303780555725,-2.5271639823913574,0.21457235515117645,0
49,0.2400062084197998,-0.12130087614059448,-11.850122451782227,1.2671844959259033,21.693452835083008,0.3793235421180725,2.5207552909851074,-0.17337362468242645,0.0,0.0,0.0,0.0,0.0,0.0,0.0,-0.1497431201652611,0.49026028490272733,0.11657579324294806,0.42860106000833964,-0.16480771908617983,0.125327456979228,-0.21013286332711642,0.17307351907512597,-0.48754318214717657,-0.11146871708122522,-1.9463994555055102,0.13361073372761406,2.595551071855757,0.9452438464005154,0.1728802376190821,-0.48752024683155326,-0.11147110072896137,-1.9463801863486305,0.1336059019074957,2.595550359778934,0.9452445589611904,-0.0001391785152782561,0.0003842369322564586,0.0009378056714566152,0.0005102115852113532,-0.00048295362151959647,7.526193665422536e-05,-0.00122189881345903,0.0,0.0,0.0,0.0,0.0,0.0,0.0,-0.00019328145604385893,2.2935315623306973e-05,-2.3836477361510733e-06,1.926915687966435e-05,-4.831820118372798e-06,-7.120768228396912e-07,7.125606750202351e-07,0.0001391785152782561,-0.0003842369322564586,-0.0009378056714566152,-0.0005102115852113532,0.00048295362151959647,-7.526193665422536e-05,0.00122189881345903,0.12130087614059448,11.850122451782227,-1.2671844959259033,-21.693452835083008,-0.3793235421180725,-2.5207552909851074,0.17337362468242645,0
50,0.24499821662902832,-0.12130087614059448,-11.850122451782227,1.2671844959259033,21.693452835083008,0.3793235421180725,2.5207552909851074,-0.17337362468242645,0.0,0.0,0.0,0.0,0.0,0.0,0.0,-0.1497431201652611,0.49026028490272733,0.11657579324294806,0.42860106000833964,-0.16480771908617983,0.125327456979228,-0.21013286332711642,0.17307351907512597,-0.48754318214717657,-0.11146871708122522,-1.9463994555055102,0.13361073372761406,2.595551071855757,0.9452438464005154,0.1728802376190821,-0.48752024683155326,-0.11147110072896137,-1.9463801863486305,0.1336059019074957,2.595550359778934,0.9452445589611904,-0.0001391785152782561,0.0003842369322564586,0.0009378056714566152,0.0005102115852113532,-0.00048295362151959647,7.526193665422536e-05,-0.00122189881345903,0.0,0.0,0.0,0.0,0.0,0.0,0.0,-0.00019328145604385893,2.2935315623306973e-05,-2.3836477361510733e-06,1.926915687966435e-05,-4.831820118372798e-06,-7.120768228396912e-07,7.125606750202351e-07,0.0001391785152782561,-0.0003842369322564586,-0.0009378056714566152,-0.0005102115852113532,0.00048295362151959647,-7.526193665422536e-05,0.00122189881345903,0.12130087614059448,11.850122451782227,-1.2671844959259033,-21.693452835083008,-0.3793235421180725,-2.5207552909851074,0.17337362468242645,0
51,0.25000500679016113,-0.12130087614059448,-11.826318740844727,1.3147919178009033,21.717256546020508,0.3555198311805725,2.5271639823913574,-0.17337362468242645,0.0,0.0,0.0,0.0,0.0,0.0,0.0,-0.1481657541323595,0.4998612109990883,0.11128654189504332,0.42480860944609483,-0.16458799394448126,0.12398907686621574,-0.21118284090277406,0.17307351907512597,-0.4875448525830319,-0.11147206087591795,-1.9464008168820333,0.13361337858438488,2.595550359778934,0.9452438468850294,0.1728802376190821,-0.48752024683155326,-0.11147110072896137,-1.9463801863486305,0.1336059019074957,2.595550359778934,0.9452445589611904,0.0001908503006352418,0.000273913544531471,-6.420552504385949e-05,6.319317619317164e-05,0.00038025383175503463,-0.0002444036147067764,-0.0012538237265838073,0.0,0.0,0.0,0.0,0.0,0.0,0.0,-0.00019328145604385893,2.4605751478612437e-05,9.60146956580088e-07,2.0630533402732354e-05,-7.476676889189848e-06,0.0,7.120761610357462e-07,-0.0001908503006352418,-0.000273913544531471,6.420552504385949e-05,-6.319317619317164e-05,-0.00038025383175503463,0.0002444036147067764,0.0012538237265838073,0.12130087614059448,11.826318740844727,-1.3147919178009033,-21.717256546020508,-0.3555198311805725,-2.5271639823913574,0.17337362468242645,0
52,0.25499415397644043,-0.12130087614059448,-11.826318740844727,1.3147919178009033,21.717256546020508,0.3555198311805725,2.5271639823913574,-0.17337362468242645,0.0,0.0,0.0,0.0,0.0,0.0,0.0,-0.1481657541323595,0.4998612109990883,0.11128654189504332,0.42480860944609483,-0.16458799394448126,0.12398907686621574,-0.21118284090277406,0.17307351907512597,-0.4875448525830319,-0.11147206087591795,-1.9464008168820333,0.13361337858438488,2.595550359778934,0.9452438468850294,0.1728802376190821,-0.48752024683155326,-0.11147110072896137,-1.9463801863486305,0.1336059019074957,2.595550359778934,0.9452445589611904,0.0001908503006352418,0.000273913544531471,-6.420552504385949e-05,6.319317619317164e-05,0.00038025383175503463,-0.0002444036147067764,-0.0012538237265838073,0.0,0.0,0.0,0.0,0.0,0.0,0.0,-0.00019328145604385893,2.4605751478612437e-05,9.60146956580088e-07,2.0630533402732354e-05,-7.476676889189848e-06,0.0,7.120761610357462e-07,-0.0001908503006352418,-0.000273913544531471,6.420552504385949e-05,-6.319317619317164e-05,-0.00038025383175503463,0.0002444036147067764,0.0012538237265838073,0.12130087614059448,11.826318740844727,-1.3147919178009033,-21.717256546020508,-0.3555198311805725,-2.5271639823913574,0.17337362468242645,0
53,0.260418176651001,-0.17287558317184448,-11.850122451782227,1.2909882068634033,21.669649124145508,0.3738303780555725,2.5399813652038574,-0.21457235515117645,0.0,0.0,0.0,0.0,0.0,0.0,0.0,-0.15375594260487066,0.4863113788922706,0.0957117169998266,0.43131676885520137,-0.16432194900225655,0.12510848659879495,-0.2117306968277598,0.17307713835281238,-0.48754318214717657,-0.11147039040399279,-1.9463974672145994,0.13361134407917655,2.5955489356252883,0.9452484245217508,0.1728802376190821,-0.48752024683155326,-0.11147110072896137,-1.9463801863486305,0.1336059019074957,2.595550359778934,0.9452445589611904,0.0002939600827422595,0.00024499976224987946,-0.0002011696896865781,0.0010843210162221142,-0.00016442300779251047,-0.0002835328816048765,0.0006676030344127928,0.0,0.0,0.0,0.0,0.0,0.0,0.0,-0.00019690073373027084,2.2935315623306973e-05,-7.103249685808111e-07,1.728086596886058e-05,-5.442171680858365e-06,1.4241536456793824e-06,-3.865560560423198e-06,-0.0002939600827422595,-0.00024499976224987946,0.0002011696896865781,-0.0010843210162221142,0.00016442300779251047,0.0002835328816048765,-0.0006676030344127928,0.17287558317184448,11.850122451782227,-1.2909882068634033,-21.669649124145508,-0.3738303780555725,-2.5399813652038574,0.21457235515117645,0
54,0.2649986743927002,-0.17287558317184448,-11.850122451782227,1.2909882068634033,21.669649124145508,0.3738303780555725,2.5399813652038574,-0.21457235515117645,0.0,0.0,0.0,0.0,0.0,0.0,0.0,-0.15375594260487066,0.4863113788922706,0.0957117169998266,0.43131676885520137,-0.16432194900225655,0.12510848659879495,-0.2117306968277598,0.17307713835281238,-0.48754318214717657,-0.11147039040399279,-1.9463974672145994,0.13361134407917655,2.5955489356252883,0.9452484245217508,0.1728802376190821,-0.48752024683155326,-0.11147110072896137,-1.9463801863486305,0.1336059019074957,2.595550359778934,0.9452445589611904,0.0002939600827422595,0.00024499976224987946,-0.0002011696896865781,0.0010843210162221142,-0.00016442300779251047,-0.0002835328816048765,0.0006676030344127928,0.0,0.0,0.0,0.0,0.0,0.0,0.0,-0.00019690073373027084,2.2935315623306973e-05,-7.103249685808111e-07,1.728086596886058e-05,-5.442171680858365e-06,1.4241536456793824e-06,-3.865560560423198e-06,-0.0002939600827422595,-0.00024499976224987946,0.0002011696896865781,-0.0010843210162221142,0.00016442300779251047,0.0002835328816048765,-0.0006676030344127928,0.17287558317184448,11.850122451782227,-1.2909882068634033,-21.669649124145508,-0.3738303780555725,-2.5399813652038574,0.21457235515117645,0
55,0.270282506942749,-0.22445029020309448,-11.850122451782227,1.2909882068634033,21.669649124145508,0.3619285225868225,2.5399813652038574,-0.20724813640117645,0.0,0.0,0.0,0.0,0.0,0.0,0.0,-0.15358857685212238,0.5004265361776642,0.09776725310586024,0.4229837085108719,-0.16443097907393212,0.12496446869818094,-0.2122603636290872,0.1730807576304988,-0.48754318214717657,-0.11147038946574608,-1.9463977057058064,0.13361266650756198,2.5955489356252883,0.9452476107196676,0.1728802376190821,-0.48752024683155326,-0.11147110072896137,-1.9463801863486305,0.1336059019074957,2.595550359778934,0.9452445589611904,0.0008187355409956756,0.0010130412771499665,-0.0005108012449989747,0.0011046412778900055,0.0002992281996927887,-0.0005481033031483958,1.0825970091801682e-05,0.0,0.0,0.0,0.0,0.0,0.0,0.0,-0.00020052001141668274,2.2935315623306973e-05,-7.112632152833642e-07,1.7519357175865835e-05,-6.764600066294646e-06,1.4241536456793824e-06,-3.051758477146116e-06,-0.0008187355409956756,-0.0010130412771499665,0.0005108012449989747,-0.0011046412778900055,-0.0002992281996927887,0.0005481033031483958,-1.0825970091801682e-05,0.22445029020309448,11.850122451782227,-1.2909882068634033,-21.669649124145508,-0.3619285225868225,-2.5399813652038574,0.20724813640117645,0
56,0.2749974727630615,-0.22445029020309448,-11.850122451782227,1.2909882068634033,21.669649124145508,0.3619285225868225,2.5399813652038574,-0.20724813640117645,0.0,0.0,0.0,0.0,0.0,0.0,0.0,-0.15358857685212238,0.5004265361776642,0.09776725310586024,0.4229837085108719,-0.16443097907393212,0.12496446869818094,-0.2122603636290872,0.1730807576304988,-0.48754318214717657,-0.11147038946574608,-1.9463977057058064,0.13361266650756198,2.5955489356252883,0.9452476107196676,0.1728802376190821,-0.48752024683155326,-0.11147110072896137,-1.9463801863486305,0.1336059019074957,2.595550359778934,0.9452445589611904,0.0008187355409956756,0.0010130412771499665,-0.0005108012449989747,0.0011046412778900055,0.0002992281996927887,-0.0005481033031483958,1.0825970091801682e-05,0.0,0.0,0.0,0.0,0.0,0.0,0.0,-0.00020052001141668274,2.2935315623306973e-05,-7.112632152833642e-07,1.7519357175865835e-05,-6.764600066294646e-06,1.4241536456793824e-06,-3.051758477146116e-06,-0.0008187355409956756,-0.0010130412771499665,0.0005108012449989747,-0.0011046412778900055,-0.0002992281996927887,0.0005481033031483958,-1.0825970091801682e-05,0.22445029020309448,11.850122451782227,-1.2909882068634033,-21.669649124145508,-0.3619285225868225,-2.5399813652038574,0.20724813640117645,0
57,0.2799954414367676,-0.14510458707809448,-11.826318740844727,1.3147919178009033,21.741060256958008,0.3674216866493225,2.5271639823913574,-0.22830526530742645,0.0,0.0,0.0,0.0,0.0,0.0,0.0,-0.15336641266121032,0.49678219791300504,0.10559853120329982,0.4267067630119685,-0.16470322500312748,0.1259578361340165,-0.21223257262373327,0.17307518951098125,-0.4875448525830319,-0.11147205988957092,-1.9464024784862253,0.13361205615599947,2.595550359778934,0.9452499504006571,0.1728802376190821,-0.48752024683155326,-0.11147110072896137,-1.9463801863486305,0.1336059019074957,2.595550359778934,0.9452445589611904,-0.0005997538313838308,0.0004294613621214643,-0.0006990694029977531,-0.00042933351684959427,0.00011957529170532727,1.9605478028370173e-06,0.0015556152493077318,0.0,0.0,0.0,0.0,0.0,0.0,0.0,-0.00019495189189913664,2.4605751478612437e-05,9.591606095482597e-07,2.229213759474824e-05,-6.154248503781323e-06,0.0,-5.3914394666509935e-06,0.0005997538313838308,-0.0004294613621214643,0.0006990694029977531,0.00042933351684959427,-0.00011957529170532727,-1.9605478028370173e-06,-0.0015556152493077318,0.14510458707809448,11.826318740844727,-1.3147919178009033,-21.741060256958008,-0.3674216866493225,-2.5271639823913574,0.22830526530742645,0
58,0.2850041389465332,-0.14510458707809448,-11.826318740844727,1.3147919178009033,21.741060256958008,0.3674216866493225,2.5271639823913574,-0.22830526530742645,0.0,0.0,0.0,0.0,0.0,0.0,0.0,-0.15336641266121032,0.49678219791300504,0.10559853120329982,0.4267067630119685,-0.16470322500312748,0.1259578361340165,-0.21223257262373327,0.17307518951098125,-0.4875448525830319,-0.11147205988957092,-1.9464024784862253,0.13361205615599947,2.595550359778934,0.9452499504006571,0.1728802376190821,-0.48752024683155326,-0.11147110072896137,-1.9463801863486305,0.1336059019074957,2.595550359778934,0.9452445589611904,-0.0005997538313838308,0.0004294613621214643,-0.0006990694029977531,-0.00042933351684959427,0.00011957529170532727,1.9605478028370173e-06,0.0015556152493077318,0.0,0.0,0.0,0.0,0.0,0.0,0.0,-0.00019495189189913664,2.4605751478612437e-05,9.591606095482597e-07,2.229213759474824e-05,-6.154248503781323e-06,0.0,-5.3914394666509935e-06,0.0005997538313838308,-0.0004294613621214643,0.0006990694029977531,0.00042933351684959427,-0.00011957529170532727,-1.9605478028370173e-06,-0.0015556152493077318,0.14510458707809448,11.826318740844727,-1.3147919178009033,-21.741060256958008,-0.3674216866493225,-2.5271639823913574,0.22830526530742645,0
59,0.2900097370147705,-0.12130087614059448,-11.850122451782227,1.3425629138946533,21.693452835083008,0.3738303780555725,2.5335726737976074,-0.22830526530742645,0.0,0.0,0.0,0.0,0.0,0.0,0.0,-0.15685694885991686,0.49602303152768284,0.10220456989096768,0.42718844927875094,-0.16454843547347883,0.12590965643370902,-0.21187490829801406,0.17307351907512597,-0.48754318214717657,-0.11147164205272837,-1.9463991464443837,0.13361134407917655,2.595549647702111,0.9452499504006571,0.1728802376190821,-0.48752024683155326,-0.11147110072896137,-1.9463801863486305,0.1336059019074957,2.595550359778934,0.9452445589611904,-0.0007169399626790944,0.0004503655385477866,-0.0007093562874754027,0.0002086371090163146,-0.0002554950166842015,-0.00034511634386905017,0.0012681933300913164,0.0,0.0,0.0,0.0,0.0,0.0,0.0,-0.00019328145604385893,2.2935315623306973e-05,5.413237670059967e-07,1.896009575319546e-05,-5.442171680858365e-06,7.120768228396912e-07,-5.3914394666509935e-06,0.0007169399626790944,-0.0004503655385477866,0.0007093562874754027,-0.0002086371090163146,0.0002554950166842015,0.00034511634386905017,-0.0012681933300913164,0.12130087614059448,11.850122451782227,-1.3425629138946533,-21.693452835083008,-0.3738303780555725,-2.5335726737976074,0.22830526530742645,0
60,0.29500699043273926,-0.12130087614059448,-11.850122451782227,1.3425629138946533,21.693452835083008,0.3738303780555725,2.5335726737976074,-0.22830526530742645,0.0,0.0,0.0,0.0,0.0,0.0,0.0,-0.15685694885991686,0.49602303152768284,0.10220456989096768,0.42718844927875094,-0.16454843547347883,0.12590965643370902,-0.21187490829801406,0.17307351907512597,-0.48754318214717657,-0.11147164205272837,-1.9463991464443837,0.13361134407917655,2.595549647702111,0.9452499504006571,0.1728802376190821,-0.48752024683155326,-0.11147110072896137,-1.9463801863486305,0.1336059019074957,2.595550359778934,0.9452445589611904,-0.0007169399626790944,0.0004503655385477866,-0.0007093562874754027,0.0002086371090163146,-0.0002554950166842015,-0.00034511634386905017,0.0012681933300913164,0.0,0.0,0.0,0.0,0.0,0.0,0.0,-0.00019328145604385893,2.2935315623306973e-05,5.413237670059967e-07,1.896009575319546e-05,-5.442171680858365e-06,7.120768228396912e-07,-5.3914394666509935e-06,0.0007169399626790944,-0.0004503655385477866,0.0007093562874754027,-0.0002086371090163146,0.0002554950166842015,0.00034511634386905017,-0.0012681933300913164,0.12130087614059448,11.850122451782227,-1.3425629138946533,-21.693452835083008,-0.3738303780555725,-2.5335726737976074,0.22830526530742645,0
61,0.30002808570861816,-0.12130087614059448,-11.850122451782227,1.3425629138946533,21.693452835083008,0.3738303780555725,2.5335726737976074,-0.22830526530742645,0.0,0.0,0.0,0.0,0.0,0.0,0.0,-0.15685694885991686,0.49602303152768284,0.10220456989096768,0.42718844927875094,-0.16454843547347883,0.12590965643370902,-0.21187490829801406,0.17307351907512597,-0.48754318214717657,-0.11147164205272837,-1.9463991464443837,0.13361134407917655,2.595549647702111,0.9452499504006571,0.1728802376190821,-0.48752024683155326,-0.11147110072896137,-1.9463801863486305,0.1336059019074957,2.595550359778934,0.9452445589611904,-0.0007169399626790944,0.0004503655385477866,-0.0007093562874754027,0.0002086371090163146,-0.0002554950166842015,-0.00034511634386905017,0.0012681933300913164,0.0,0.0,0.0,0.0,0.0,0.0,0.0,-0.00019328145604385893,2.2935315623306973e-05,5.413237670059967e-07,1.896009575319546e-05,-5.442171680858365e-06,7.120768228396912e-07,-5.3914394666509935e-06,0.0007169399626790944,-0.0004503655385477866,0.0007093562874754027,-0.0002086371090163146,0.0002554950166842015,0.00034511634386905017,-0.0012681933300913164,0.12130087614059448,11.850122451782227,-1.3425629138946533,-21.693452835083008,-0.3738303780555725,-2.5335726737976074,0.22830526530742645,0
62,0.3050105571746826,-0.12130087614059448,-11.850122451782227,1.3425629138946533,21.693452835083008,0.3738303780555725,2.5335726737976074,-0.22830526530742645,0.0,0.0,0.0,0.0,0.0,0.0,0.0,-0.15685694885991686,0.49602303152768284,0.10220456989096768,0.42718844927875094,-0.16454843547347883,0.12590965643370902,-0.21187490829801406,0.17307351907512597,-0.48754318214717657,-0.11147164205272837,-1.9463991464443837,0.13361134407917655,2.595549647702111,0.9452499504006571,0.1728802376190821,-0.48752024683155326,-0.11147110072896137,-1.9463801863486305,0.1336059019074957,2.595550359778934,0.9452445589611904,-0.0007169399626790944,0.0004503655385477866,-0.0007093562874754027,0.0002086371090163146,-0.0002554950166842015,-0.00034511634386905017,0.0012681933300913164,0.0,0.0,0.0,0.0,0.0,0.0,0.0,-0.00019328145604385893,2.2935315623306973e-05,5.413237670059967e-07,1.896009575319546e-05,-5.442171680858365e-06,7.120768228396912e-07,-5.3914394666509935e-06,0.0007169399626790944,-0.0004503655385477866,0.0007093562874754027,-0.0002086371090163146,0.0002554950166842015,0.00034511634386905017,-0.0012681933300913164,0.12130087614059448,11.850122451782227,-1.3425629138946533,-21.693452835083008,-0.3738303780555725,-2.5335726737976074,0.22830526530742645,0
63,0.3099949359893799,-0.14510458707809448,-11.826318740844727,1.3147919178009033,21.717256546020508,0.3674216866493225,2.5335726737976074,-0.22098104655742645,0.0,0.0,0.0,0.0,0.0,0.0,0.0,-0.15521431322986376,0.492587125466287,0.10481129563417199,0.4300345976222538,-0.16434041825847032,0.12639003248910075,-0.21140512643207954,0.17307518951098125,-0.4875448525830319,-0.11147205988823601,-1.9464001196122358,0.13361205615599947,2.595549647702111,0.9452491365985738,0.1728802376190821,-0.48752024683155326,-0.11147110072896137,-1.9463801863486305,0.1336059019074957,2.595550359778934,0.9452445589611904,0.00010130922956756334,-0.00012174167490564488,0.00023446354173973228,0.0003068297488228755,0.0001706700303623046,-0.000548131922717574,-0.00878972842635211,0.0,0.0,0.0,0.0,0.0,0.0,0.0,-0.00019495189189913664,2.4605751478612437e-05,9.591592746438504e-07,1.9933263605276252e-05,-6.154248503781323e-06,7.120768228396912e-07,-4.5776373833739115e-06,-0.00010130922956756334,0.00012174167490564488,-0.00023446354173973228,-0.0003068297488228755,-0.0001706700303623046,0.000548131922717574,0.00878972842635211,0.14510458707809448,11.826318740844727,-1.3147919178009033,-21.717256546020508,-0.3674216866493225,-2.5335726737976074,0.22098104655742645,0
64,0.31499648094177246,-0.14510458707809448,-11.826318740844727,1.3147919178009033,21.717256546020508,0.3674216866493225,2.5335726737976074,-0.22098104655742645,0.0,0.0,0.0,0.0,0.0,0.0,0.0,-0.15521431322986376,0.492587125466287,0.10481129563417199,0.4300345976222538,-0.16434041825847032,0.12639003248910075,-0.21140512643207954,0.17307518951098125,-0.4875448525830319,-0.11147205988823601,-1.9464001196122358,0.13361205615599947,2.595549647702111,0.9452491365985738,0.1728802376190821,-0.48752024683155326,-0.11147110072896137,-1.9463801863486305,0.1336059019074957,2.595550359778934,0.9452445589611904,0.00010130922956756334,-0.00012174167490564488,0.00023446354173973228,0.0003068297488228755,0.0001706700303623046,-0.000548131922717574,-0.00878972842635211,0.0,0.0,0.0,0.0,0.0,0.0,0.0,-0.00019495189189913664,2.4605751478612437e-05,9.591592746438504e-07,1.9933263605276252e-05,-6.154248503781323e-06,7.120768228396912e-07,-4.5776373833739115e-06,-0.00010130922956756334,0.00012174167490564488,-0.00023446354173973228,-0.0003068297488228755,-0.0001706700303623046,0.000548131922717574,0.00878972842635211,0.14510458707809448,11.826318740844727,-1.3147919178009033,-21.717256546020508,-0.3674216866493225,-2.5335726737976074,0.22098104655742645,0
65,0.3199944496154785,-0.14510458707809448,-11.826318740844727,1.3147919178009033,21.717256546020508,0.3674216866493225,2.5335726737976074,-0.22098104655742645,0.0,0.0,0.0,0.0,0.0,0.0,0.0,-0.15521431322986376,0.492587125466287,0.10481129563417199,0.4300345976222538,-0.16434041825847032,0.12639003248910075,-0.21140512643207954,0.17307518951098125,-0.4875448525830319,-0.11147205988823601,-1.9464001196122358,0.13361205615599947,2.595549647702111,0.9452491365985738,0.1728802376190821,-0.48752024683155326,-0.11147110072896137,-1.9463801863486305,0.1336059019074957,2.595550359778934,0.9452445589611904,0.00010130922956756334,-0.00012174167490564488,0.00023446354173973228,0.0003068297488228755,0.0001706700303623046,-0.000548131922717574,-0.00878972842635211,0.0,0.0,0.0,0.0,0.0,0.0,0.0,-0.00019495189189913664,2.4605751478612437e-05,9.591592746438504e-07,1.9933263605276252e-05,-6.154248503781323e-06,7.120768228396912e-07,-4.5776373833739115e-06,-0.00010130922956756334,0.00012174167490564488,-0.00023446354173973228,-0.0003068297488228755,-0.0001706700303623046,0.000548131922717574,0.00878972842635211,0.14510458707809448,11.826318740844727,-1.3147919178009033,-21.717256546020508,-0.3674216866493225,-2.5335726737976074,0.22098104655742645,0
66,0.324995756149292,-0.17287558317184448,-11.873926162719727,1.2909882068634033,21.741060256958008,0.3674216866493225,2.5399813652038574,-0.17978231608867645,0.0,0.0,0.0,0.0,0.0,0.0,0.0,-0.15645837054212527,0.4804574394842232,0.1070504481042644,0.4338254016521033,-0.16407715691470395,0.1264527762187384,-0.21110904873931471,0.17307713835281238,-0.4875415117113213,-0.1114703904400736,-1.94640255795475,0.13361205615599947,2.5955489356252883,0.945244558961855,0.1728802376190821,-0.48752024683155326,-0.11147110072896137,-1.9463801863486305,0.1336059019074957,2.595550359778934,0.9452445589611904,0.000698027774808658,-8.295043669153266e-05,0.0009743317302464484,-0.0003032089817043277,3.303731877865274e-05,-0.0006540223006917546,-0.0010730946472073673,0.0,0.0,0.0,0.0,0.0,0.0,0.0,-0.00019690073373027084,2.126487976805702e-05,-7.102888877619229e-07,2.2371606119397924e-05,-6.154248503781323e-06,1.4241536456793824e-06,-6.645795025406187e-13,-0.000698027774808658,8.295043669153266e-05,-0.0009743317302464484,0.0003032089817043277,-3.303731877865274e-05,0.0006540223006917546,0.0010730946472073673,0.17287558317184448,11.873926162719727,-1.2909882068634033,-21.741060256958008,-0.3674216866493225,-2.5399813652038574,0.17978231608867645,0
67,0.3300015926361084,-0.17287558317184448,-11.873926162719727,1.2909882068634033,21.741060256958008,0.3674216866493225,2.5399813652038574,-0.17978231608867645,0.0,0.0,0.0,0.0,0.0,0.0,0.0,-0.15645837054212527,0.4804574394842232,0.1070504481042644,0.4338254016521033,-0.16407715691470395,0.1264527762187384,-0.21110904873931471,0.17307713835281238,-0.4875415117113213,-0.1114703904400736,-1.94640255795475,0.13361205615599947,2.5955489356252883,0.945244558961855,0.1728802376190821,-0.48752024683155326,-0.11147110072896137,-1.9463801863486305,0.1336059019074957,2.595550359778934,0.9452445589611904,0.000698027774808658,-8.295043669153266e-05,0.0009743317302464484,-0.0003032089817043277,3.303731877865274e-05,-0.0006540223006917546,-0.0010730946472073673,0.0,0.0,0.0,0.0,0.0,0.0,0.0,-0.00019690073373027084,2.126487976805702e-05,-7.102888877619229e-07,2.2371606119397924e-05,-6.154248503781323e-06,1.4241536456793824e-06,-6.645795025406187e-13,-0.000698027774808658,8.295043669153266e-05,-0.0009743317302464484,0.0003032089817043277,-3.303731877865274e-05,0.0006540223006917546,0.0010730946472073673,0.17287558317184448,11.873926162719727,-1.2909882068634033,-21.741060256958008,-0.3674216866493225,-2.5399813652038574,0.17978231608867645,0
68,0.33499789237976074,-0.19667929410934448,-11.850122451782227,1.2671844959259033,21.717256546020508,0.3738303780555725,2.5143465995788574,-0.22830526530742645,0.0,0.0,0.0,0.0,0.0,0.0,0.0,-0.1636739642021688,0.49527122858762984,0.09814824214558515,0.42254734403967986,-0.1635593268725107,0.12501709190254007,-0.20936490338528685,0.17307880878866763,-0.48754318214717657,-0.11146871999219513,-1.9464008348680726,0.13361134407917655,2.5955517839325797,0.9452499504006571,0.1728802376190821,-0.48752024683155326,-0.11147110072896137,-1.9463801863486305,0.1336059019074957,2.595550359778934,0.9452445589611904,0.00047587279257844614,-0.00019111111136320603,0.00027715376315845915,7.75857122478608e-05,-0.00018223184401112443,0.0007440400140796672,0.0015066057837434179,0.0,0.0,0.0,0.0,0.0,0.0,0.0,-0.0001985711695855208,2.2935315623306973e-05,-2.380736766241509e-06,2.0648519442056923e-05,-5.442171680858365e-06,-1.4241536456793824e-06,-5.3914394666509935e-06,-0.00047587279257844614,0.00019111111136320603,-0.00027715376315845915,-7.75857122478608e-05,0.00018223184401112443,-0.0007440400140796672,-0.0015066057837434179,0.19667929410934448,11.850122451782227,-1.2671844959259033,-21.717256546020508,-0.3738303780555725,-2.5143465995788574,0.22830526530742645,0
69,0.34000372886657715,-0.19667929410934448,-11.850122451782227,1.2671844959259033,21.717256546020508,0.3738303780555725,2.5143465995788574,-0.22830526530742645,0.0,0.0,0.0,0.0,0.0,0.0,0.0,-0.1636739642021688,0.49527122858762984,0.09814824214558515,0.42254734403967986,-0.1635593268725107,0.12501709190254007,-0.20936490338528685,0.17307880878866763,-0.48754318214717657,-0.11146871999219513,-1.9464008348680726,0.13361134407917655,2.5955517839325797,0.9452499504006571,0.1728802376190821,-0.48752024683155326,-0.11147110072896137,-1.9463801863486305,0.1336059019074957,2.595550359778934,0.9452445589611904,0.00047587279257844614,-0.00019111111136320603,0.00027715376315845915,7.75857122478608e-05,-0.00018223184401112443,0.0007440400140796672,0.0015066057837434179,0.0,0.0,0.0,0.0,0.0,0.0,0.0,-0.0001985711695855208,2.2935315623306973e-05,-2.380736766241509e-06,2.0648519442056923e-05,-5.442171680858365e-06,-1.4241536456793824e-06,-5.3914394666509935e-06,-0.00047587279257844614,0.00019111111136320603,-0.00027715376315845915,-7.75857122478608e-05,0.00018223184401112443,-0.0007440400140796672,-0.0015066057837434179,0.19667929410934448,11.850122451782227,-1.2671844959259033,-21.717256546020508,-0.3738303780555725,-2.5143465995788574,0.22830526530742645,0
70,0.3449993133544922,-0.17287558317184448,-11.802515029907227,1.3147919178009033,21.717256546020508,0.3674216866493225,2.5271639823913574,-0.15231649577617645,0.0,0.0,0.0,0.0,0.0,0.0,0.0,-0.153904503294608,0.49540589544882774,0.11189568145790169,0.42099194210436325,-0.1646257414293735,0.12450108875442963,-0.2081166603292052,0.17307713835281238,-0.4875465230188871,-0.11147206087593442,-1.946400837484364,0.13361205615599947,2.595550359778934,0.9452415072040425,0.1728802376190821,-0.48752024683155326,-0.11147110072896137,-1.9463801863486305,0.1336059019074957,2.595550359778934,0.9452445589611904,0.00042896316238055836,-0.0007192051904360012,-0.0007428321099996302,-7.480576671068362e-05,-1.5053875223893585e-05,-0.00018996961239481916,-0.0019040584094464686,0.0,0.0,0.0,0.0,0.0,0.0,0.0,-0.00019690073373027084,2.627618733386239e-05,9.60146973053022e-07,2.0651135733462667e-05,-6.154248503781323e-06,0.0,3.0517571478760885e-06,-0.00042896316238055836,0.0007192051904360012,0.0007428321099996302,7.480576671068362e-05,1.5053875223893585e-05,0.00018996961239481916,0.0019040584094464686,0.17287558317184448,11.802515029907227,-1.3147919178009033,-21.717256546020508,-0.3674216866493225,-2.5271639823913574,0.15231649577617645,0
71,0.35034632682800293,-0.14510458707809448,-11.826318740844727,1.2671844959259033,21.717256546020508,0.3674216866493225,2.5207552909851074,-0.17337362468242645,0.0,0.0,0.0,0.0,0.0,0.0,0.0,-0.15289372198447893,0.4903487402728121,0.11312125670815654,0.4242145338047625,-0.1652310218855415,0.12425705792265676,-0.20570409952748175,0.17307518951098125,-0.4875448525830319,-0.11146872000422392,-1.9464008080864261,0.13361205615599947,2.595551071855757,0.9452438468850322,0.1728802376190821,-0.48752024683155326,-0.11147110072896137,-1.9463801863486305,0.1336059019074957,2.595550359778934,0.9452445589611904,-0.00016362419721383567,0.00023964757529050488,0.0012831717004260048,-0.0001448180097696876,9.773710641944386e-05,-0.00015486022017723516,-0.0002546472491351624,0.0,0.0,0.0,0.0,0.0,0.0,0.0,-0.00019495189189913664,2.4605751478612437e-05,-2.380724737446882e-06,2.0621737795600836e-05,-6.154248503781323e-06,-7.120768228396912e-07,7.120761582601887e-07,0.00016362419721383567,-0.00023964757529050488,-0.0012831717004260048,0.0001448180097696876,-9.773710641944386e-05,0.00015486022017723516,0.0002546472491351624,0.14510458707809448,11.826318740844727,-1.2671844959259033,-21.717256546020508,-0.3674216866493225,-2.5207552909851074,0.17337362468242645,0
72,0.35500621795654297,-0.14510458707809448,-11.826318740844727,1.2671844959259033,21.717256546020508,0.3674216866493225,2.5207552909851074,-0.17337362468242645,0.0,0.0,0.0,0.0,0.0,0.0,0.0,-0.15289372198447893,0.4903487402728121,0.11312125670815654,0.4242145338047625,-0.1652310218855415,0.12425705792265676,-0.20570409952748175,0.17307518951098125,-0.4875448525830319,-0.11146872000422392,-1.9464008080864261,0.13361205615599947,2.595551071855757,0.9452438468850322,0.1728802376190821,-0.48752024683155326,-0.11147110072896137,-1.9463801863486305,0.1336059019074957,2.595550359778934,0.9452445589611904,-0.00016362419721383567,0.00023964757529050488,0.0012831717004260048,-0.0001448180097696876,9.773710641944386e-05,-0.00015486022017723516,-0.0002546472491351624,0.0,0.0,0.0,0.0,0.0,0.0,0.0,-0.00019495189189913664,2.4605751478612437e-05,-2.380724737446882e-06,2.0621737795600836e-05,-6.154248503781323e-06,-7.120768228396912e-07,7.120761582601887e-07,0.00016362419721383567,-0.00023964757529050488,-0.0012831717004260048,0.0001448180097696876,-9.773710641944386e-05,0.00015486022017723516,0.0002546472491351624,0.14510458707809448,11.826318740844727,-1.2671844959259033,-21.717256546020508,-0.3674216866493225,-2.5207552909851074,0.17337362468242645,0
73,0.360004186630249,-0.14510458707809448,-11.826318740844727,1.2671844959259033,21.717256546020508,0.3674216866493225,2.5207552909851074,-0.17337362468242645,0.0,0.0,0.0,0.0,0.0,0.0,0.0,-0.15289372198447893,0.4903487402728121,0.11312125670815654,0.4242145338047625,-0.1652310218855415,0.12425705792265676,-0.20570409952748175,0.17307518951098125,-0.4875448525830319,-0.11146872000422392,-1.9464008080864261,0.13361205615599947,2.595551071855757,0.9452438468850322,0.1728802376190821,-0.48752024683155326,-0.11147110072896137,-1.9463801863486305,0.1336059019074957,2.595550359778934,0.9452445589611904,-0.00016362419721383567,0.00023964757529050488,0.0012831717004260048,-0.0001448180097696876,9.773710641944386e-05,-0.00015486022017723516,-0.0002546472491351624,0.0,0.0,0.0,0.0,0.0,0.0,0.0,-0.00019495189189913664,2.4605751478612437e-05,-2.380724737446882e-06,2.0621737795600836e-05,-6.154248503781323e-06,-7.120768228396912e-07,7.120761582601887e-07,0.00016362419721383567,-0.00023964757529050488,-0.0012831717004260048,0.0001448180097696876,-9.773710641944386e-05,0.00015486022017723516,0.0002546472491351624,0.14510458707809448,11.826318740844727,-1.2671844959259033,-21.717256546020508,-0.3674216866493225,-2.5207552909851074,0.17337362468242645,0
74,0.3650045394897461,-0.14510458707809448,-11.826318740844727,1.2671844959259033,21.669649124145508,0.3674216866493225,2.5207552909851074,-0.22830526530742645,0.0,0.0,0.0,0.0,0.0,0.0,0.0,-0.1579533122336598,0.48288736209424465,0.10699459122813379,0.4279886047656871,-0.16488099452624905,0.12427491965488707,-0.20401017750130984,0.17307518951098125,-0.4875448525830319,-0.11146872000422392,-1.9463974702306663,0.13361204299228507,2.595551071855757,0.9452499504006571,0.1728802376190821,-0.48752024683155326,-0.11147110072896137,-1.9463801863486305,0.1336059019074957,2.595550359778934,0.9452445589611904,-0.00014389604516166563,-3.86444932294695e-05,0.0008947822901209987,0.0009880062178263314,-5.344832290185353e-05,3.1343999731178655e-05,0.0014919861994609394,0.0,0.0,0.0,0.0,0.0,0.0,0.0,-0.00019495189189913664,2.4605751478612437e-05,-2.380724737446882e-06,1.7283882035812326e-05,-6.141084789385021e-06,-7.120768228396912e-07,-5.3914394666509935e-06,0.00014389604516166563,3.86444932294695e-05,-0.0008947822901209987,-0.0009880062178263314,5.344832290185353e-05,-3.1343999731178655e-05,-0.0014919861994609394,0.14510458707809448,11.826318740844727,-1.2671844959259033,-21.669649124145508,-0.3674216866493225,-2.5207552909851074,0.22830526530742645,0
75,0.37000107765197754,-0.14510458707809448,-11.826318740844727,1.2671844959259033,21.669649124145508,0.3674216866493225,2.5207552909851074,-0.22830526530742645,0.0,0.0,0.0,0.0,0.0,0.0,0.0,-0.1579533122336598,0.48288736209424465,0.10699459122813379,0.4279886047656871,-0.16488099452624905,0.12427491965488707,-0.20401017750130984,0.17307518951098125,-0.4875448525830319,-0.11146872000422392,-1.9463974702306663,0.13361204299228507,2.595551071855757,0.9452499504006571,0.1728802376190821,-0.48752024683155326,-0.11147110072896137,-1.9463801863486305,0.1336059019074957,2.595550359778934,0.9452445589611904,-0.00014389604516166563,-3.86444932294695e-05,0.0008947822901209987,0.0009880062178263314,-5.344832290185353e-05,3.1343999731178655e-05,0.0014919861994609394,0.0,0.0,0.0,0.0,0.0,0.0,0.0,-0.00019495189189913664,2.4605751478612437e-05,-2.380724737446882e-06,1.7283882035812326e-05,-6.141084789385021e-06,-7.120768228396912e-07,-5.3914394666509935e-06,0.00014389604516166563,3.86444932294695e-05,-0.0008947822901209987,-0.0009880062178263314,5.344832290185353e-05,-3.1343999731178655e-05,-0.0014919861994609394,0.14510458707809448,11.826318740844727,-1.2671844959259033,-21.669649124145508,-0.3674216866493225,-2.5207552909851074,0.22830526530742645,0
76,0.37499547004699707,-0.12130087614059448,-11.850122451782227,1.2909882068634033,21.741060256958008,0.3674216866493225,2.5271639823913574,-0.15964071452617645,0.0,0.0,0.0,0.0,0.0,0.0,0.0,-0.16304382676559262,0.4799399761368797,0.09788624914629473,0.4282474955588106,-0.16379354752256153,0.1247719119873672,-0.2046201838770167,0.17307351907512597,-0.48754318214717657,-0.11147015367718466,-1.9464032035529837,0.1336120561559747,2.595550359778934,0.9452422032685559,0.1728802376190821,-0.48752024683155326,-0.11147110072896137,-1.9463801863486305,0.1336059019074957,2.595550359778934,0.9452445589611904,-0.0013877325980883788,0.0004172160349132591,-3.782219033249852e-05,-0.0008143999266150041,-0.00025116888794309564,-0.00016591115349786603,-0.001800155255765007,0.0,0.0,0.0,0.0,0.0,0.0,0.0,-0.00019328145604385893,2.2935315623306973e-05,-9.470517767090625e-07,2.301720435315957e-05,-6.15424847902335e-06,0.0,2.355692634514739e-06,0.0013877325980883788,-0.0004172160349132591,3.782219033249852e-05,0.0008143999266150041,0.00025116888794309564,0.00016591115349786603,0.001800155255765007,0.12130087614059448,11.850122451782227,-1.2909882068634033,-21.741060256958008,-0.3674216866493225,-2.5271639823913574,0.15964071452617645,0
77,0.37999987602233887,-0.12130087614059448,-11.850122451782227,1.2909882068634033,21.741060256958008,0.3674216866493225,2.5271639823913574,-0.15964071452617645,0.0,0.0,0.0,0.0,0.0,0.0,0.0,-0.16304382676559262,0.4799399761368797,0.09788624914629473,0.4282474955588106,-0.16379354752256153,0.1247719119873672,-0.2046201838770167,0.17307351907512597,-0.48754318214717657,-0.11147015367718466,-1.9464032035529837,0.1336120561559747,2.595550359778934,0.9452422032685559,0.1728802376190821,-0.48752024683155326,-0.11147110072896137,-1.9463801863486305,0.1336059019074957,2.595550359778934,0.9452445589611904,-0.0013877325980883788,0.0004172160349132591,-3.782219033249852e-05,-0.0008143999266150041,-0.00025116888794309564,-0.00016591115349786603,-0.001800155255765007,0.0,0.0,0.0,0.0,0.0,0.0,0.0,-0.00019328145604385893,2.2935315623306973e-05,-9.470517767090625e-07,2.301720435315957e-05,-6.15424847902335e-06,0.0,2.355692634514739e-06,0.0013877325980883788,-0.0004172160349132591,3.782219033249852e-05,0.0008143999266150041,0.00025116888794309564,0.00016591115349786603,0.001800155255765007,0.12130087614059448,11.850122451782227,-1.2909882068634033,-21.741060256958008,-0.3674216866493225,-2.5271639823913574,0.15964071452617645,0
78,0.38500046730041504,-0.12130087614059448,-11.850122451782227,1.2909882068634033,21.741060256958008,0.3674216866493225,2.5271639823913574,-0.15964071452617645,0.0,0.0,0.0,0.0,0.0,0.0,0.0,-0.16304382676559262,0.4799399761368797,0.09788624914629473,0.4282474955588106,-0.16379354752256153,0.1247719119873672,-0.2046201838770167,0.17307351907512597,-0.48754318214717657,-0.11147015367718466,-1.9464032035529837,0.1336120561559747,2.595550359778934,0.9452422032685559,0.1728802376190821,-0.48752024683155326,-0.11147110072896137,-1.9463801863486305,0.1336059019074957,2.595550359778934,0.9452445589611904,-0.0013877325980883788,0.0004172160349132591,-3.782219033249852e-05,-0.0008143999266150041,-0.00025116888794309564,-0.00016591115349786603,-0.001800155255765007,0.0,0.0,0.0,0.0,0.0,0.0,0.0,-0.00019328145604385893,2.2935315623306973e-05,-9.470517767090625e-07,2.301720435315957e-05,-6.15424847902335e-06,0.0,2.355692634514739e-06,0.0013877325980883788,-0.0004172160349132591,3.782219033249852e-05,0.0008143999266150041,0.00025116888794309564,0.00016591115349786603,0.001800155255765007,0.12130087614059448,11.850122451782227,-1.2909882068634033,-21.741060256958008,-0.3674216866493225,-2.5271639823913574,0.15964071452617645,0
79,0.3900105953216553,-0.12130087614059448,-11.850122451782227,1.2909882068634033,21.741060256958008,0.3674216866493225,2.5271639823913574,-0.15964071452617645,0.0,0.0,0.0,0.0,0.0,0.0,0.0,-0.16304382676559262,0.4799399761368797,0.09788624914629473,0.4282474955588106,-0.16379354752256153,0.1247719119873672,-0.2046201838770167,0.17307351907512597,-0.48754318214717657,-0.11147015367718466,-1.9464032035529837,0.1336120561559747,2.595550359778934,0.9452422032685559,0.1728802376190821,-0.48752024683155326,-0.11147110072896137,-1.9463801863486305,0.1336059019074957,2.595550359778934,0.9452445589611904,-0.0013877325980883788,0.0004172160349132591,-3.782219033249852e-05,-0.0008143999266150041,-0.00025116888794309564,-0.00016591115349786603,-0.001800155255765007,0.0,0.0,0.0,0.0,0.0,0.0,0.0,-0.00019328145604385893,2.2935315623306973e-05,-9.470517767090625e-07,2.301720435315957e-05,-6.15424847902335e-06,0.0,2.355692634514739e-06,0.0013877325980883788,-0.0004172160349132591,3.782219033249852e-05,0.0008143999266150041,0.00025116888794309564,0.00016591115349786603,0.001800155255765007,0.12130087614059448,11.850122451782227,-1.2909882068634033,-21.741060256958008,-0.3674216866493225,-2.5271639823913574,0.15964071452617645,0
