rezayati/contactInterpretation/dataset/franka_main/labeled_data/link3/e3_8.csv
index,time,tau_J0,tau_J1,tau_J2,tau_J3,tau_J4,tau_J5,tau_J6,tau_J_d0,tau_J_d1,tau_J_d2,tau_J_d3,tau_J_d4,tau_J_d5,tau_J_d6,tau_ext0,tau_ext1,tau_ext2,tau_ext3,tau_ext4,tau_ext5,tau_ext6,q0,q1,q2,q3,q4,q5,q6,q_d0,q_d1,q_d2,q_d3,q_d4,q_d5,q_d6,dq0,dq1,dq2,dq3,dq4,dq5,dq6,dq_d0,dq_d1,dq_d2,dq_d3,dq_d4,dq_d5,dq_d6,e0,e1,e2,e3,e4,e5,e6,de0,de1,de2,de3,de4,de5,de6,etau_J0,etau_J1,etau_J2,etau_J3,etau_J4,etau_J5,etau_J6,label
1,0.0,-0.24825400114059448,-22.672876358032227,-0.1253325641155243,14.207185745239258,0.10558086633682251,2.1517977714538574,-0.21457235515117645,0.0,0.0,0.0,0.0,0.0,0.0,0.0,-0.32603332486800285,0.15763937672105646,-0.23008537405013532,0.32481597515848604,-0.12414749098135627,-0.03423891394875801,-0.25063151561438624,1.6757850549820996,0.05208778740239711,0.029975751272157614,-2.7524091487349125,0.03425356700854526,2.7663636708513692,0.7691570515549844,1.6754973547542302,0.052104326824870026,0.029969505109285054,-2.752394845125968,0.0342448039870148,2.7663679543071322,0.7691630533470046,-0.0010958783164954078,0.0008315711821061915,-2.1134120072250465e-06,-8.978839871509203e-05,-3.4231666600881026e-05,0.00019592599295885628,-0.0015146885366074244,0.0,0.0,0.0,0.0,0.0,0.0,0.0,-0.00028770022786939187,1.6539422472913734e-05,-6.246162872560607e-06,1.4303608944388202e-05,-8.76302153045988e-06,4.283455762976729e-06,6.00179202026041e-06,0.0010958783164954078,-0.0008315711821061915,2.1134120072250465e-06,8.978839871509203e-05,3.4231666600881026e-05,-0.00019592599295885628,0.0015146885366074244,0.24825400114059448,22.672876358032227,0.1253325641155243,-14.207185745239258,-0.10558086633682251,-2.1517977714538574,0.21457235515117645,0
2,0.004997730255126953,-0.24825400114059448,-22.672876358032227,-0.1253325641155243,14.207185745239258,0.10558086633682251,2.1517977714538574,-0.21457235515117645,0.0,0.0,0.0,0.0,0.0,0.0,0.0,-0.32603332486800285,0.15763937672105646,-0.23008537405013532,0.32481597515848604,-0.12414749098135627,-0.03423891394875801,-0.25063151561438624,1.6757850549820996,0.05208778740239711,0.029975751272157614,-2.7524091487349125,0.03425356700854526,2.7663636708513692,0.7691570515549844,1.6754973547542302,0.052104326824870026,0.029969505109285054,-2.752394845125968,0.0342448039870148,2.7663679543071322,0.7691630533470046,-0.0010958783164954078,0.0008315711821061915,-2.1134120072250465e-06,-8.978839871509203e-05,-3.4231666600881026e-05,0.00019592599295885628,-0.0015146885366074244,0.0,0.0,0.0,0.0,0.0,0.0,0.0,-0.00028770022786939187,1.6539422472913734e-05,-6.246162872560607e-06,1.4303608944388202e-05,-8.76302153045988e-06,4.283455762976729e-06,6.00179202026041e-06,0.0010958783164954078,-0.0008315711821061915,2.1134120072250465e-06,8.978839871509203e-05,3.4231666600881026e-05,-0.00019592599295885628,0.0015146885366074244,0.24825400114059448,22.672876358032227,0.1253325641155243,-14.207185745239258,-0.10558086633682251,-2.1517977714538574,0.21457235515117645,0
3,0.009998321533203125,-0.24825400114059448,-22.672876358032227,-0.1253325641155243,14.207185745239258,0.10558086633682251,2.1517977714538574,-0.21457235515117645,0.0,0.0,0.0,0.0,0.0,0.0,0.0,-0.32603332486800285,0.15763937672105646,-0.23008537405013532,0.32481597515848604,-0.12414749098135627,-0.03423891394875801,-0.25063151561438624,1.6757850549820996,0.05208778740239711,0.029975751272157614,-2.7524091487349125,0.03425356700854526,2.7663636708513692,0.7691570515549844,1.6754973547542302,0.052104326824870026,0.029969505109285054,-2.752394845125968,0.0342448039870148,2.7663679543071322,0.7691630533470046,-0.0010958783164954078,0.0008315711821061915,-2.1134120072250465e-06,-8.978839871509203e-05,-3.4231666600881026e-05,0.00019592599295885628,-0.0015146885366074244,0.0,0.0,0.0,0.0,0.0,0.0,0.0,-0.00028770022786939187,1.6539422472913734e-05,-6.246162872560607e-06,1.4303608944388202e-05,-8.76302153045988e-06,4.283455762976729e-06,6.00179202026041e-06,0.0010958783164954078,-0.0008315711821061915,2.1134120072250465e-06,8.978839871509203e-05,3.4231666600881026e-05,-0.00019592599295885628,0.0015146885366074244,0.24825400114059448,22.672876358032227,0.1253325641155243,-14.207185745239258,-0.10558086633682251,-2.1517977714538574,0.21457235515117645,0
4,0.015002965927124023,-0.24825400114059448,-22.672876358032227,-0.1253325641155243,14.207185745239258,0.10558086633682251,2.1517977714538574,-0.21457235515117645,0.0,0.0,0.0,0.0,0.0,0.0,0.0,-0.32603332486800285,0.15763937672105646,-0.23008537405013532,0.32481597515848604,-0.12414749098135627,-0.03423891394875801,-0.25063151561438624,1.6757850549820996,0.05208778740239711,0.029975751272157614,-2.7524091487349125,0.03425356700854526,2.7663636708513692,0.7691570515549844,1.6754973547542302,0.052104326824870026,0.029969505109285054,-2.752394845125968,0.0342448039870148,2.7663679543071322,0.7691630533470046,-0.0010958783164954078,0.0008315711821061915,-2.1134120072250465e-06,-8.978839871509203e-05,-3.4231666600881026e-05,0.00019592599295885628,-0.0015146885366074244,0.0,0.0,0.0,0.0,0.0,0.0,0.0,-0.00028770022786939187,1.6539422472913734e-05,-6.246162872560607e-06,1.4303608944388202e-05,-8.76302153045988e-06,4.283455762976729e-06,6.00179202026041e-06,0.0010958783164954078,-0.0008315711821061915,2.1134120072250465e-06,8.978839871509203e-05,3.4231666600881026e-05,-0.00019592599295885628,0.0015146885366074244,0.24825400114059448,22.672876358032227,0.1253325641155243,-14.207185745239258,-0.10558086633682251,-2.1517977714538574,0.21457235515117645,0
5,0.020029306411743164,-0.2998287081718445,-22.672876358032227,-0.1729399859905243,14.230989456176758,0.11198955774307251,2.1655306816101074,-0.24112264811992645,0.0,0.0,0.0,0.0,0.0,0.0,0.0,-0.32498469982709016,0.1490150439789537,-0.23349017867805885,0.32920353950164594,-0.1243010883554244,-0.03333137364816172,-0.2504936653082858,1.675787507672516,0.05208781372126562,0.029979092143868142,-2.752410819170768,0.034252499967812475,2.766364604203799,0.7691600015875365,1.6754973547542302,0.052104326824870026,0.029969505109285054,-2.752394845125968,0.0342448039870148,2.7663679543071322,0.7691630533470046,-3.270749707653428e-05,-0.0005271365405815981,0.0008098072708377604,-0.0006270731261127174,-0.00027493457117841317,-0.0004925960410513789,0.0003653329460291079,0.0,0.0,0.0,0.0,0.0,0.0,0.0,-0.0002901529182857132,1.6513103604405555e-05,-9.587034583088266e-06,1.5974044799804688e-05,-7.695980797674251e-06,3.350103333410459e-06,3.0517594681311877e-06,3.270749707653428e-05,0.0005271365405815981,-0.0008098072708377604,0.0006270731261127174,0.00027493457117841317,0.0004925960410513789,-0.0003653329460291079,0.2998287081718445,22.672876358032227,0.1729399859905243,-14.230989456176758,-0.11198955774307251,-2.1655306816101074,0.24112264811992645,0
6,0.025010347366333008,-0.2998287081718445,-22.672876358032227,-0.1729399859905243,14.230989456176758,0.11198955774307251,2.1655306816101074,-0.24112264811992645,0.0,0.0,0.0,0.0,0.0,0.0,0.0,-0.32498469982709016,0.1490150439789537,-0.23349017867805885,0.32920353950164594,-0.1243010883554244,-0.03333137364816172,-0.2504936653082858,1.675787507672516,0.05208781372126562,0.029979092143868142,-2.752410819170768,0.034252499967812475,2.766364604203799,0.7691600015875365,1.6754973547542302,0.052104326824870026,0.029969505109285054,-2.752394845125968,0.0342448039870148,2.7663679543071322,0.7691630533470046,-3.270749707653428e-05,-0.0005271365405815981,0.0008098072708377604,-0.0006270731261127174,-0.00027493457117841317,-0.0004925960410513789,0.0003653329460291079,0.0,0.0,0.0,0.0,0.0,0.0,0.0,-0.0002901529182857132,1.6513103604405555e-05,-9.587034583088266e-06,1.5974044799804688e-05,-7.695980797674251e-06,3.350103333410459e-06,3.0517594681311877e-06,3.270749707653428e-05,0.0005271365405815981,-0.0008098072708377604,0.0006270731261127174,0.00027493457117841317,0.0004925960410513789,-0.0003653329460291079,0.2998287081718445,22.672876358032227,0.1729399859905243,-14.230989456176758,-0.11198955774307251,-2.1655306816101074,0.24112264811992645,0
7,0.030001401901245117,-0.3514034152030945,-22.720483779907227,-0.1729399859905243,14.155611038208008,0.10558086633682251,2.1517977714538574,-0.26858848333358765,0.0,0.0,0.0,0.0,0.0,0.0,0.0,-0.3208250483912618,0.15170054881714737,-0.23572268079837755,0.3224278504556125,-0.12383761079785266,-0.03466863104606571,-0.24886689003679371,1.6757932735789247,0.052090443330108246,0.029979092143868142,-2.752405529457226,0.03425356718830993,2.766367242228217,0.7691630533470046,1.6754973547542302,0.052104326824870026,0.029969505109285054,-2.752394845125968,0.0342448039870148,2.7663679543071322,0.7691630533470046,0.0004549888125028962,0.0011464184744368591,0.00013370374164969456,0.0008040431044440744,0.00012809841328732298,-9.922300756002821e-05,0.000580856694582676,0.0,0.0,0.0,0.0,0.0,0.0,0.0,-0.0002959188246944855,1.3883494761779414e-05,-9.587034583088266e-06,1.0684331257948543e-05,-8.763201295128309e-06,7.12078915388048e-07,0.0,-0.0004549888125028962,-0.0011464184744368591,-0.00013370374164969456,-0.0008040431044440744,-0.00012809841328732298,9.922300756002821e-05,-0.000580856694582676,0.3514034152030945,22.720483779907227,0.1729399859905243,-14.155611038208008,-0.10558086633682251,-2.1517977714538574,0.26858848333358765,0
8,0.034996986389160156,-0.3514034152030945,-22.720483779907227,-0.1729399859905243,14.155611038208008,0.10558086633682251,2.1517977714538574,-0.26858848333358765,0.0,0.0,0.0,0.0,0.0,0.0,0.0,-0.3208250483912618,0.15170054881714737,-0.23572268079837755,0.3224278504556125,-0.12383761079785266,-0.03466863104606571,-0.24886689003679371,1.6757932735789247,0.052090443330108246,0.029979092143868142,-2.752405529457226,0.03425356718830993,2.766367242228217,0.7691630533470046,1.6754973547542302,0.052104326824870026,0.029969505109285054,-2.752394845125968,0.0342448039870148,2.7663679543071322,0.7691630533470046,0.0004549888125028962,0.0011464184744368591,0.00013370374164969456,0.0008040431044440744,0.00012809841328732298,-9.922300756002821e-05,0.000580856694582676,0.0,0.0,0.0,0.0,0.0,0.0,0.0,-0.0002959188246944855,1.3883494761779414e-05,-9.587034583088266e-06,1.0684331257948543e-05,-8.763201295128309e-06,7.12078915388048e-07,0.0,-0.0004549888125028962,-0.0011464184744368591,-0.00013370374164969456,-0.0008040431044440744,-0.00012809841328732298,9.922300756002821e-05,-0.000580856694582676,0.3514034152030945,22.720483779907227,0.1729399859905243,-14.155611038208008,-0.10558086633682251,-2.1517977714538574,0.26858848333358765,0
9,0.03999781608581543,-0.3236324191093445,-22.649072647094727,-0.1491362750530243,14.179414749145508,0.11198955774307251,2.1517977714538574,-0.26858848333358765,0.0,0.0,0.0,0.0,0.0,0.0,0.0,-0.32129163656585785,0.14785800082253114,-0.23679628561142593,0.32316091714940653,-0.12366617168643795,-0.03463253686424195,-0.24965120838266794,1.675791321918766,0.052086142960335785,0.029977421708012878,-2.7524071998930815,0.03425285511215497,2.7663660125268,0.7691630533470046,1.6754973547542302,0.052104326824870026,0.029969505109285054,-2.752394845125968,0.0342448039870148,2.7663679543071322,0.7691630533470046,-0.0008639641697469005,-4.785506698179565e-05,-0.0005489865841589762,0.00033081135692688825,-0.0001480907175093611,0.00011098837857273272,0.0003276367385092854,0.0,0.0,0.0,0.0,0.0,0.0,0.0,-0.00029396716453566896,1.8183864534240812e-05,-7.916598727824437e-06,1.2354767113365028e-05,-8.051125140171034e-06,1.9417803320820326e-06,0.0,0.0008639641697469005,4.785506698179565e-05,0.0005489865841589762,-0.00033081135692688825,0.0001480907175093611,-0.00011098837857273272,-0.0003276367385092854,0.3236324191093445,22.649072647094727,0.1491362750530243,-14.179414749145508,-0.11198955774307251,-2.1517977714538574,0.26858848333358765,0
10,0.0449984073638916,-0.3236324191093445,-22.649072647094727,-0.1491362750530243,14.179414749145508,0.11198955774307251,2.1517977714538574,-0.26858848333358765,0.0,0.0,0.0,0.0,0.0,0.0,0.0,-0.32129163656585785,0.14785800082253114,-0.23679628561142593,0.32316091714940653,-0.12366617168643795,-0.03463253686424195,-0.24965120838266794,1.675791321918766,0.052086142960335785,0.029977421708012878,-2.7524071998930815,0.03425285511215497,2.7663660125268,0.7691630533470046,1.6754973547542302,0.052104326824870026,0.029969505109285054,-2.752394845125968,0.0342448039870148,2.7663679543071322,0.7691630533470046,-0.0008639641697469005,-4.785506698179565e-05,-0.0005489865841589762,0.00033081135692688825,-0.0001480907175093611,0.00011098837857273272,0.0003276367385092854,0.0,0.0,0.0,0.0,0.0,0.0,0.0,-0.00029396716453566896,1.8183864534240812e-05,-7.916598727824437e-06,1.2354767113365028e-05,-8.051125140171034e-06,1.9417803320820326e-06,0.0,0.0008639641697469005,4.785506698179565e-05,0.0005489865841589762,-0.00033081135692688825,0.0001480907175093611,-0.00011098837857273272,-0.0003276367385092854,0.3236324191093445,22.649072647094727,0.1491362750530243,-14.179414749145508,-0.11198955774307251,-2.1517977714538574,0.26858848333358765,0
11,0.04999661445617676,-0.3514034152030945,-22.649072647094727,-0.1491362750530243,14.179414749145508,0.11748272180557251,2.1453890800476074,-0.26217979192733765,0.0,0.0,0.0,0.0,0.0,0.0,0.0,-0.33035799966355356,0.12256414042924148,-0.2379945937562293,0.3685065060689687,-0.12326079383574193,-0.028446259810535644,-0.24957886320562994,1.6757932737040928,0.05208614328422233,0.029977421708012878,-2.7524071998930815,0.03425224459619916,2.766367936864272,0.7691623412701818,1.6754973547542302,0.052104326824870026,0.029969505109285054,-2.752394845125968,0.0342448039870148,2.7663679543071322,0.7691630533470046,-0.00035424213045171806,0.0008690673638605304,-0.0011164943897332496,-0.0018276599929086521,-0.00036134160462166355,0.00022067601624846416,0.0004681229571222617,0.0,0.0,0.0,0.0,0.0,0.0,0.0,-0.0002959189498625836,1.8183540647698226e-05,-7.916598727824437e-06,1.2354767113365028e-05,-7.440609184360125e-06,1.7442860045235875e-08,7.120768228396912e-07,0.00035424213045171806,-0.0008690673638605304,0.0011164943897332496,0.0018276599929086521,0.00036134160462166355,-0.00022067601624846416,-0.0004681229571222617,0.3514034152030945,22.649072647094727,0.1491362750530243,-14.179414749145508,-0.11748272180557251,-2.1453890800476074,0.26217979192733765,0
12,0.05499529838562012,-0.3514034152030945,-22.649072647094727,-0.1491362750530243,14.179414749145508,0.11748272180557251,2.1453890800476074,-0.26217979192733765,0.0,0.0,0.0,0.0,0.0,0.0,0.0,-0.33035799966355356,0.12256414042924148,-0.2379945937562293,0.3685065060689687,-0.12326079383574193,-0.028446259810535644,-0.24957886320562994,1.6757932737040928,0.05208614328422233,0.029977421708012878,-2.7524071998930815,0.03425224459619916,2.766367936864272,0.7691623412701818,1.6754973547542302,0.052104326824870026,0.029969505109285054,-2.752394845125968,0.0342448039870148,2.7663679543071322,0.7691630533470046,-0.00035424213045171806,0.0008690673638605304,-0.0011164943897332496,-0.0018276599929086521,-0.00036134160462166355,0.00022067601624846416,0.0004681229571222617,0.0,0.0,0.0,0.0,0.0,0.0,0.0,-0.0002959189498625836,1.8183540647698226e-05,-7.916598727824437e-06,1.2354767113365028e-05,-7.440609184360125e-06,1.7442860045235875e-08,7.120768228396912e-07,0.00035424213045171806,-0.0008690673638605304,0.0011164943897332496,0.0018276599929086521,0.00036134160462166355,-0.00022067601624846416,-0.0004681229571222617,0.3514034152030945,22.649072647094727,0.1491362750530243,-14.179414749145508,-0.11748272180557251,-2.1453890800476074,0.26217979192733765,0
13,0.05999469757080078,-0.3236324191093445,-22.597497940063477,-0.1491362750530243,14.207185745239258,0.11198955774307251,2.1582064628601074,-0.22830526530742645,0.0,0.0,0.0,0.0,0.0,0.0,0.0,-0.3293345043322454,0.1466825593663962,-0.23389947607241027,0.3344442427321012,-0.12462901372042735,-0.03362710289387925,-0.25060156070958084,1.6757913248622625,0.05208252108487382,0.029977421708012878,-2.7524091487349125,0.03425273667657748,2.766363338157048,0.7691585774338906,1.6754973547542302,0.052104326824870026,0.029969505109285054,-2.752394845125968,0.0342448039870148,2.7663679543071322,0.7691630533470046,-7.85708494529037e-05,-0.0005047146526087242,-0.00012326311664503733,-0.0005483823146720218,-0.0001866365793707848,-0.00012273115313173416,-0.001304942283862092,0.0,0.0,0.0,0.0,0.0,0.0,0.0,-0.00029397010803222656,2.1805739996202944e-05,-7.916598727824437e-06,1.4303608944388202e-05,-7.932689562679951e-06,4.616150084402193e-06,4.475913114032615e-06,7.85708494529037e-05,0.0005047146526087242,0.00012326311664503733,0.0005483823146720218,0.0001866365793707848,0.00012273115313173416,0.001304942283862092,0.3236324191093445,22.597497940063477,0.1491362750530243,-14.207185745239258,-0.11198955774307251,-2.1582064628601074,0.22830526530742645,0
14,0.06629157066345215,-0.3236324191093445,-22.597497940063477,-0.1491362750530243,14.207185745239258,0.11198955774307251,2.1582064628601074,-0.22830526530742645,0.0,0.0,0.0,0.0,0.0,0.0,0.0,-0.3293345043322454,0.1466825593663962,-0.23389947607241027,0.3344442427321012,-0.12462901372042735,-0.03362710289387925,-0.25060156070958084,1.6757913248622625,0.05208252108487382,0.029977421708012878,-2.7524091487349125,0.03425273667657748,2.766363338157048,0.7691585774338906,1.6754973547542302,0.052104326824870026,0.029969505109285054,-2.752394845125968,0.0342448039870148,2.7663679543071322,0.7691630533470046,-7.85708494529037e-05,-0.0005047146526087242,-0.00012326311664503733,-0.0005483823146720218,-0.0001866365793707848,-0.00012273115313173416,-0.001304942283862092,0.0,0.0,0.0,0.0,0.0,0.0,0.0,-0.00029397010803222656,2.1805739996202944e-05,-7.916598727824437e-06,1.4303608944388202e-05,-7.932689562679951e-06,4.616150084402193e-06,4.475913114032615e-06,7.85708494529037e-05,0.0005047146526087242,0.00012326311664503733,0.0005483823146720218,0.0001866365793707848,0.00012273115313173416,0.001304942283862092,0.3236324191093445,22.597497940063477,0.1491362750530243,-14.207185745239258,-0.11198955774307251,-2.1582064628601074,0.22830526530742645,0
15,0.06999540328979492,-0.2998287081718445,-22.649072647094727,-0.1253325641155243,14.179414749145508,0.10558086633682251,2.1517977714538574,-0.23471395671367645,0.0,0.0,0.0,0.0,0.0,0.0,0.0,-0.3297563716566205,0.16409062290224308,-0.23586636416436074,0.31240373969231927,-0.12473133733277149,-0.035669345378249145,-0.25089862578376676,1.6757896189961201,0.05208613448045993,0.029975751272157614,-2.7524071998930815,0.03425356664701357,2.7663637100851926,0.7691592900012868,1.6754973547542302,0.052104326824870026,0.029969505109285054,-2.752394845125968,0.0342448039870148,2.7663679543071322,0.7691630533470046,0.00035100809736951445,0.0004914569261148677,-0.0008287456353212725,0.0002830373010824158,0.00010800603845564871,2.8069007355712778e-05,-0.00020223556680871904,0.0,0.0,0.0,0.0,0.0,0.0,0.0,-0.00029226424188988354,1.819234441009787e-05,-6.246162872560607e-06,1.2354767113365028e-05,-8.762659998766409e-06,4.244221939675441e-06,3.763345717833211e-06,-0.00035100809736951445,-0.0004914569261148677,0.0008287456353212725,-0.0002830373010824158,-0.00010800603845564871,-2.8069007355712778e-05,0.00020223556680871904,0.2998287081718445,22.649072647094727,0.1253325641155243,-14.179414749145508,-0.10558086633682251,-2.1517977714538574,0.23471395671367645,0
16,0.07500553131103516,-0.2998287081718445,-22.649072647094727,-0.1253325641155243,14.179414749145508,0.10558086633682251,2.1517977714538574,-0.23471395671367645,0.0,0.0,0.0,0.0,0.0,0.0,0.0,-0.3297563716566205,0.16409062290224308,-0.23586636416436074,0.31240373969231927,-0.12473133733277149,-0.035669345378249145,-0.25089862578376676,1.6757896189961201,0.05208613448045993,0.029975751272157614,-2.7524071998930815,0.03425356664701357,2.7663637100851926,0.7691592900012868,1.6754973547542302,0.052104326824870026,0.029969505109285054,-2.752394845125968,0.0342448039870148,2.7663679543071322,0.7691630533470046,0.00035100809736951445,0.0004914569261148677,-0.0008287456353212725,0.0002830373010824158,0.00010800603845564871,2.8069007355712778e-05,-0.00020223556680871904,0.0,0.0,0.0,0.0,0.0,0.0,0.0,-0.00029226424188988354,1.819234441009787e-05,-6.246162872560607e-06,1.2354767113365028e-05,-8.762659998766409e-06,4.244221939675441e-06,3.763345717833211e-06,-0.00035100809736951445,-0.0004914569261148677,0.0008287456353212725,-0.0002830373010824158,-0.00010800603845564871,-2.8069007355712778e-05,0.00020223556680871904,0.2998287081718445,22.649072647094727,0.1253325641155243,-14.179414749145508,-0.10558086633682251,-2.1517977714538574,0.23471395671367645,0
17,0.08001375198364258,-0.2998287081718445,-22.672876358032227,-0.1253325641155243,14.179414749145508,0.11748272180557251,2.1582064628601074,-0.26217979192733765,0.0,0.0,0.0,0.0,0.0,0.0,0.0,-0.3307306418698989,0.16341323523392595,-0.24463584783449094,0.314294904151454,-0.12397511510040114,-0.03508090523606806,-0.2500981336577616,1.6757875085501124,0.05208781367328242,0.029975751272157614,-2.752407199905643,0.03425224476059176,2.7663664118709184,0.7691623412701827,1.6754973547542302,0.052104326824870026,0.029969505109285054,-2.752394845125968,0.0342448039870148,2.7663679543071322,0.7691630533470046,-0.0007964032778923064,0.00038676401152026315,-0.0009533452485551687,0.0004368127927000035,-0.0006074671641845124,-0.00014946540963387393,0.0004069084834917976,0.0,0.0,0.0,0.0,0.0,0.0,0.0,-0.0002901537958821532,1.65131515876063e-05,-6.246162872560607e-06,1.2354779674872418e-05,-7.440773576956883e-06,1.5424362138638514e-06,7.120768219515128e-07,0.0007964032778923064,-0.00038676401152026315,0.0009533452485551687,-0.0004368127927000035,0.0006074671641845124,0.00014946540963387393,-0.0004069084834917976,0.2998287081718445,22.672876358032227,0.1253325641155243,-14.179414749145508,-0.11748272180557251,-2.1582064628601074,0.26217979192733765,0
18,0.08500075340270996,-0.2998287081718445,-22.672876358032227,-0.1253325641155243,14.179414749145508,0.11748272180557251,2.1582064628601074,-0.26217979192733765,0.0,0.0,0.0,0.0,0.0,0.0,0.0,-0.3307306418698989,0.16341323523392595,-0.24463584783449094,0.314294904151454,-0.12397511510040114,-0.03508090523606806,-0.2500981336577616,1.6757875085501124,0.05208781367328242,0.029975751272157614,-2.752407199905643,0.03425224476059176,2.7663664118709184,0.7691623412701827,1.6754973547542302,0.052104326824870026,0.029969505109285054,-2.752394845125968,0.0342448039870148,2.7663679543071322,0.7691630533470046,-0.0007964032778923064,0.00038676401152026315,-0.0009533452485551687,0.0004368127927000035,-0.0006074671641845124,-0.00014946540963387393,0.0004069084834917976,0.0,0.0,0.0,0.0,0.0,0.0,0.0,-0.0002901537958821532,1.65131515876063e-05,-6.246162872560607e-06,1.2354779674872418e-05,-7.440773576956883e-06,1.5424362138638514e-06,7.120768219515128e-07,0.0007964032778923064,-0.00038676401152026315,0.0009533452485551687,-0.0004368127927000035,0.0006074671641845124,0.00014946540963387393,-0.0004069084834917976,0.2998287081718445,22.672876358032227,0.1253325641155243,-14.179414749145508,-0.11748272180557251,-2.1582064628601074,0.26217979192733765,0
19,0.09000086784362793,-0.3236324191093445,-22.672876358032227,-0.1729399859905243,14.179414749145508,0.11198955774307251,2.1582064628601074,-0.20083944499492645,0.0,0.0,0.0,0.0,0.0,0.0,0.0,-0.3261893478266923,0.1571529028026804,-0.2392419754724674,0.3157112368730136,-0.12474327444023069,-0.034804973634368234,-0.2490346071514494,1.6757913245231002,0.052087813577068307,0.029979092143868142,-2.7524071998930815,0.034252853650655925,2.7663633381564785,0.7691555256760781,1.6754973547542302,0.052104326824870026,0.029969505109285054,-2.752394845125968,0.0342448039870148,2.7663679543071322,0.7691630533470046,-0.0002594279584213053,-0.00012727038357007508,0.0006469516932471696,-7.297033050839206e-06,-0.00018255783096342,-0.00016305439194492523,-0.0017597862670507382,0.0,0.0,0.0,0.0,0.0,0.0,0.0,-0.0002939697688699727,1.6513247801719366e-05,-9.587034583088266e-06,1.2354767113365028e-05,-8.04966364112425e-06,4.61615065372456e-06,7.527670926488206e-06,0.0002594279584213053,0.00012727038357007508,-0.0006469516932471696,7.297033050839206e-06,0.00018255783096342,0.00016305439194492523,0.0017597862670507382,0.3236324191093445,22.672876358032227,0.1729399859905243,-14.179414749145508,-0.11198955774307251,-2.1582064628601074,0.20083944499492645,0
20,0.09500265121459961,-0.3236324191093445,-22.672876358032227,-0.1729399859905243,14.179414749145508,0.11198955774307251,2.1582064628601074,-0.20083944499492645,0.0,0.0,0.0,0.0,0.0,0.0,0.0,-0.3261893478266923,0.1571529028026804,-0.2392419754724674,0.3157112368730136,-0.12474327444023069,-0.034804973634368234,-0.2490346071514494,1.6757913245231002,0.052087813577068307,0.029979092143868142,-2.7524071998930815,0.034252853650655925,2.7663633381564785,0.7691555256760781,1.6754973547542302,0.052104326824870026,0.029969505109285054,-2.752394845125968,0.0342448039870148,2.7663679543071322,0.7691630533470046,-0.0002594279584213053,-0.00012727038357007508,0.0006469516932471696,-7.297033050839206e-06,-0.00018255783096342,-0.00016305439194492523,-0.0017597862670507382,0.0,0.0,0.0,0.0,0.0,0.0,0.0,-0.0002939697688699727,1.6513247801719366e-05,-9.587034583088266e-06,1.2354767113365028e-05,-8.04966364112425e-06,4.61615065372456e-06,7.527670926488206e-06,0.0002594279584213053,0.00012727038357007508,-0.0006469516932471696,7.297033050839206e-06,0.00018255783096342,0.00016305439194492523,0.0017597862670507382,0.3236324191093445,22.672876358032227,0.1729399859905243,-14.179414749145508,-0.11198955774307251,-2.1582064628601074,0.20083944499492645,0
21,0.1000070571899414,-0.2998287081718445,-22.649072647094727,-0.1729399859905243,14.179414749145508,0.10008770227432251,2.1517977714538574,-0.22098104655742645,0.0,0.0,0.0,0.0,0.0,0.0,0.0,-0.32799175255567087,0.15466336901958597,-0.23801799598822027,0.3168902252760246,-0.125032534822691,-0.03497746643585075,-0.2466015443027182,1.67578893619089,0.052086061441594576,0.029979092143868142,-2.7524071998930815,0.03425405915908518,2.7663672242851707,0.7691577636318073,1.6754973547542302,0.052104326824870026,0.029969505109285054,-2.752394845125968,0.0342448039870148,2.7663679543071322,0.7691630533470046,-0.0007170067672355142,0.00013280225809902632,0.00012684476362353784,0.0004151128148188101,0.00040009146406274075,4.97479008713745e-05,-0.0013987226971346831,0.0,0.0,0.0,0.0,0.0,0.0,0.0,-0.0002915814366597491,1.826538327544952e-05,-9.587034583088266e-06,1.2354767113365028e-05,-9.255172070378459e-06,7.30021961548033e-07,5.289715197309697e-06,0.0007170067672355142,-0.00013280225809902632,-0.00012684476362353784,-0.0004151128148188101,-0.00040009146406274075,-4.97479008713745e-05,0.0013987226971346831,0.2998287081718445,22.649072647094727,0.1729399859905243,-14.179414749145508,-0.10008770227432251,-2.1517977714538574,0.22098104655742645,0
22,0.1049959659576416,-0.2998287081718445,-22.649072647094727,-0.1729399859905243,14.179414749145508,0.10008770227432251,2.1517977714538574,-0.22098104655742645,0.0,0.0,0.0,0.0,0.0,0.0,0.0,-0.32799175255567087,0.15466336901958597,-0.23801799598822027,0.3168902252760246,-0.125032534822691,-0.03497746643585075,-0.2466015443027182,1.67578893619089,0.052086061441594576,0.029979092143868142,-2.7524071998930815,0.03425405915908518,2.7663672242851707,0.7691577636318073,1.6754973547542302,0.052104326824870026,0.029969505109285054,-2.752394845125968,0.0342448039870148,2.7663679543071322,0.7691630533470046,-0.0007170067672355142,0.00013280225809902632,0.00012684476362353784,0.0004151128148188101,0.00040009146406274075,4.97479008713745e-05,-0.0013987226971346831,0.0,0.0,0.0,0.0,0.0,0.0,0.0,-0.0002915814366597491,1.826538327544952e-05,-9.587034583088266e-06,1.2354767113365028e-05,-9.255172070378459e-06,7.30021961548033e-07,5.289715197309697e-06,0.0007170067672355142,-0.00013280225809902632,-0.00012684476362353784,-0.0004151128148188101,-0.00040009146406274075,-4.97479008713745e-05,0.0013987226971346831,0.2998287081718445,22.649072647094727,0.1729399859905243,-14.179414749145508,-0.10008770227432251,-2.1517977714538574,0.22098104655742645,0
23,0.10999369621276855,-0.2998287081718445,-22.621301651000977,-0.09756157547235489,14.179414749145508,0.11198955774307251,2.1453890800476074,-0.23471395671367645,0.0,0.0,0.0,0.0,0.0,0.0,0.0,-0.32301739392931306,0.1484021390894612,-0.2339823077574434,0.3201453281205807,-0.12488404111416929,-0.03504622182385919,-0.24646997929270184,1.6757896544250557,0.05208206357752307,0.029973802430849322,-2.7524071998930815,0.0342528156514501,2.7663678322088776,0.7691592895107136,1.6754973547542302,0.052104326824870026,0.029969505109285054,-2.752394845125968,0.0342448039870148,2.7663679543071322,0.7691630533470046,-0.00014613501266921215,-0.0009452569017805337,-0.001166321284986089,0.0007421300421443457,-0.0001465045021483473,9.550050519366961e-06,-0.00022677887213664477,0.0,0.0,0.0,0.0,0.0,0.0,0.0,-0.0002922996708254466,2.226324734695695e-05,-4.297321564268597e-06,1.2354767113365028e-05,-8.011664435300658e-06,1.2209825461795276e-07,3.763836291081901e-06,0.00014613501266921215,0.0009452569017805337,0.001166321284986089,-0.0007421300421443457,0.0001465045021483473,-9.550050519366961e-06,0.00022677887213664477,0.2998287081718445,22.621301651000977,0.09756157547235489,-14.179414749145508,-0.11198955774307251,-2.1453890800476074,0.23471395671367645,0
24,0.11499547958374023,-0.2998287081718445,-22.621301651000977,-0.09756157547235489,14.179414749145508,0.11198955774307251,2.1453890800476074,-0.23471395671367645,0.0,0.0,0.0,0.0,0.0,0.0,0.0,-0.32301739392931306,0.1484021390894612,-0.2339823077574434,0.3201453281205807,-0.12488404111416929,-0.03504622182385919,-0.24646997929270184,1.6757896544250557,0.05208206357752307,0.029973802430849322,-2.7524071998930815,0.0342528156514501,2.7663678322088776,0.7691592895107136,1.6754973547542302,0.052104326824870026,0.029969505109285054,-2.752394845125968,0.0342448039870148,2.7663679543071322,0.7691630533470046,-0.00014613501266921215,-0.0009452569017805337,-0.001166321284986089,0.0007421300421443457,-0.0001465045021483473,9.550050519366961e-06,-0.00022677887213664477,0.0,0.0,0.0,0.0,0.0,0.0,0.0,-0.0002922996708254466,2.226324734695695e-05,-4.297321564268597e-06,1.2354767113365028e-05,-8.011664435300658e-06,1.2209825461795276e-07,3.763836291081901e-06,0.00014613501266921215,0.0009452569017805337,0.001166321284986089,-0.0007421300421443457,0.0001465045021483473,-9.550050519366961e-06,0.00022677887213664477,0.2998287081718445,22.621301651000977,0.09756157547235489,-14.179414749145508,-0.11198955774307251,-2.1453890800476074,0.23471395671367645,0
25,0.1199960708618164,-0.3236324191093445,-22.672876358032227,-0.1253325641155243,14.207185745239258,0.11748272180557251,2.1517977714538574,-0.24112264811992645,0.0,0.0,0.0,0.0,0.0,0.0,0.0,-0.32335504402178394,0.15221169504081777,-0.23609716622131446,0.31876713301773063,-0.12417993054859244,-0.03529612175678197,-0.2461511012594261,1.6757913248622625,0.05208781046160906,0.02997575419515631,-2.7524091487349125,0.03425224476037002,2.766366045473251,0.7691600015875365,1.6754973547542302,0.052104326824870026,0.029969505109285054,-2.752394845125968,0.0342448039870148,2.7663679543071322,0.7691630533470046,0.0001255056328344387,0.0008948707935666395,-0.0003176029569260129,-0.00038139006660083905,-0.00036513327188092035,0.00010203263377205277,-5.280320500435488e-05,0.0,0.0,0.0,0.0,0.0,0.0,0.0,-0.00029397010803222656,1.6516363260964118e-05,-6.249085871257859e-06,1.4303608944388202e-05,-7.440773355217589e-06,1.9088338811812378e-06,3.0517594681311877e-06,-0.0001255056328344387,-0.0008948707935666395,0.0003176029569260129,0.00038139006660083905,0.00036513327188092035,-0.00010203263377205277,5.280320500435488e-05,0.3236324191093445,22.672876358032227,0.1253325641155243,-14.207185745239258,-0.11748272180557251,-2.1517977714538574,0.24112264811992645,0
26,0.12499237060546875,-0.3236324191093445,-22.672876358032227,-0.1253325641155243,14.207185745239258,0.11748272180557251,2.1517977714538574,-0.24112264811992645,0.0,0.0,0.0,0.0,0.0,0.0,0.0,-0.32335504402178394,0.15221169504081777,-0.23609716622131446,0.31876713301773063,-0.12417993054859244,-0.03529612175678197,-0.2461511012594261,1.6757913248622625,0.05208781046160906,0.02997575419515631,-2.7524091487349125,0.03425224476037002,2.766366045473251,0.7691600015875365,1.6754973547542302,0.052104326824870026,0.029969505109285054,-2.752394845125968,0.0342448039870148,2.7663679543071322,0.7691630533470046,0.0001255056328344387,0.0008948707935666395,-0.0003176029569260129,-0.00038139006660083905,-0.00036513327188092035,0.00010203263377205277,-5.280320500435488e-05,0.0,0.0,0.0,0.0,0.0,0.0,0.0,-0.00029397010803222656,1.6516363260964118e-05,-6.249085871257859e-06,1.4303608944388202e-05,-7.440773355217589e-06,1.9088338811812378e-06,3.0517594681311877e-06,-0.0001255056328344387,-0.0008948707935666395,0.0003176029569260129,0.00038139006660083905,0.00036513327188092035,-0.00010203263377205277,5.280320500435488e-05,0.3236324191093445,22.672876358032227,0.1253325641155243,-14.207185745239258,-0.11748272180557251,-2.1517977714538574,0.24112264811992645,0
27,0.12999653816223145,-0.3236324191093445,-22.672876358032227,-0.1253325641155243,14.207185745239258,0.11748272180557251,2.1517977714538574,-0.24112264811992645,0.0,0.0,0.0,0.0,0.0,0.0,0.0,-0.32335504402178394,0.15221169504081777,-0.23609716622131446,0.31876713301773063,-0.12417993054859244,-0.03529612175678197,-0.2461511012594261,1.6757913248622625,0.05208781046160906,0.02997575419515631,-2.7524091487349125,0.03425224476037002,2.766366045473251,0.7691600015875365,1.6754973547542302,0.052104326824870026,0.029969505109285054,-2.752394845125968,0.0342448039870148,2.7663679543071322,0.7691630533470046,0.0001255056328344387,0.0008948707935666395,-0.0003176029569260129,-0.00038139006660083905,-0.00036513327188092035,0.00010203263377205277,-5.280320500435488e-05,0.0,0.0,0.0,0.0,0.0,0.0,0.0,-0.00029397010803222656,1.6516363260964118e-05,-6.249085871257859e-06,1.4303608944388202e-05,-7.440773355217589e-06,1.9088338811812378e-06,3.0517594681311877e-06,-0.0001255056328344387,-0.0008948707935666395,0.0003176029569260129,0.00038139006660083905,0.00036513327188092035,-0.00010203263377205277,5.280320500435488e-05,0.3236324191093445,22.672876358032227,0.1253325641155243,-14.207185745239258,-0.11748272180557251,-2.1517977714538574,0.24112264811992645,0
28,0.13502120971679688,-0.3236324191093445,-22.672876358032227,-0.1253325641155243,14.207185745239258,0.11748272180557251,2.1517977714538574,-0.24112264811992645,0.0,0.0,0.0,0.0,0.0,0.0,0.0,-0.32335504402178394,0.15221169504081777,-0.23609716622131446,0.31876713301773063,-0.12417993054859244,-0.03529612175678197,-0.2461511012594261,1.6757913248622625,0.05208781046160906,0.02997575419515631,-2.7524091487349125,0.03425224476037002,2.766366045473251,0.7691600015875365,1.6754973547542302,0.052104326824870026,0.029969505109285054,-2.752394845125968,0.0342448039870148,2.7663679543071322,0.7691630533470046,0.0001255056328344387,0.0008948707935666395,-0.0003176029569260129,-0.00038139006660083905,-0.00036513327188092035,0.00010203263377205277,-5.280320500435488e-05,0.0,0.0,0.0,0.0,0.0,0.0,0.0,-0.00029397010803222656,1.6516363260964118e-05,-6.249085871257859e-06,1.4303608944388202e-05,-7.440773355217589e-06,1.9088338811812378e-06,3.0517594681311877e-06,-0.0001255056328344387,-0.0008948707935666395,0.0003176029569260129,0.00038139006660083905,0.00036513327188092035,-0.00010203263377205277,5.280320500435488e-05,0.3236324191093445,22.672876358032227,0.1253325641155243,-14.207185745239258,-0.11748272180557251,-2.1517977714538574,0.24112264811992645,0
29,0.14001035690307617,-0.3752071261405945,-22.672876358032227,-0.2007109820842743,14.179414749145508,0.11198955774307251,2.1517977714538574,-0.22830526530742645,0.0,0.0,0.0,0.0,0.0,0.0,0.0,-0.3265106417052715,0.14781728139422695,-0.2383828904812417,0.3249450446810657,-0.12343160158781583,-0.03379207615402534,-0.24639278887454014,1.6757927185728285,0.05208781372135899,0.029981040985748785,-2.7524071998930815,0.0342524824298213,2.7663672378493915,0.7691585774338906,1.6754973547542302,0.052104326824870026,0.029969505109285054,-2.752394845125968,0.0342448039870148,2.7663679543071322,0.7691630533470046,0.0009883632326428437,0.0004936870218653219,0.000901988544954567,0.0005624189029411631,-0.00013670444424492475,8.871194871531972e-05,-0.0007478245848154886,0.0,0.0,0.0,0.0,0.0,0.0,0.0,-0.0002953638185982932,1.6513103511035798e-05,-1.153587646373147e-05,1.2354767113365028e-05,-7.678442806496877e-06,7.164577406904016e-07,4.475913114032615e-06,-0.0009883632326428437,-0.0004936870218653219,-0.000901988544954567,-0.0005624189029411631,0.00013670444424492475,-8.871194871531972e-05,0.0007478245848154886,0.3752071261405945,22.672876358032227,0.2007109820842743,-14.179414749145508,-0.11198955774307251,-2.1517977714538574,0.22830526530742645,0
30,0.14500141143798828,-0.3752071261405945,-22.672876358032227,-0.2007109820842743,14.179414749145508,0.11198955774307251,2.1517977714538574,-0.22830526530742645,0.0,0.0,0.0,0.0,0.0,0.0,0.0,-0.3265106417052715,0.14781728139422695,-0.2383828904812417,0.3249450446810657,-0.12343160158781583,-0.03379207615402534,-0.24639278887454014,1.6757927185728285,0.05208781372135899,0.029981040985748785,-2.7524071998930815,0.0342524824298213,2.7663672378493915,0.7691585774338906,1.6754973547542302,0.052104326824870026,0.029969505109285054,-2.752394845125968,0.0342448039870148,2.7663679543071322,0.7691630533470046,0.0009883632326428437,0.0004936870218653219,0.000901988544954567,0.0005624189029411631,-0.00013670444424492475,8.871194871531972e-05,-0.0007478245848154886,0.0,0.0,0.0,0.0,0.0,0.0,0.0,-0.0002953638185982932,1.6513103511035798e-05,-1.153587646373147e-05,1.2354767113365028e-05,-7.678442806496877e-06,7.164577406904016e-07,4.475913114032615e-06,-0.0009883632326428437,-0.0004936870218653219,-0.000901988544954567,-0.0005624189029411631,0.00013670444424492475,-8.871194871531972e-05,0.0007478245848154886,0.3752071261405945,22.672876358032227,0.2007109820842743,-14.179414749145508,-0.11198955774307251,-2.1517977714538574,0.22830526530742645,0
31,0.14996051788330078,-0.3514034152030945,-22.649072647094727,-0.1491362750530243,14.179414749145508,0.11748272180557251,2.1582064628601074,-0.27591270208358765,0.0,0.0,0.0,0.0,0.0,0.0,0.0,-0.32970415879892445,0.15351435087408308,-0.23868088512197413,0.3203130317138454,-0.12404064281501911,-0.03489041313754681,-0.24724721692964272,1.6757932736915302,0.05208606403981646,0.029977421708012878,-2.7524071998930815,0.034252244758488974,2.7663664904230885,0.769163867149088,1.6754973547542302,0.052104326824870026,0.029969505109285054,-2.752394845125968,0.0342448039870148,2.7663679543071322,0.7691630533470046,-0.0005263752715697761,1.6777945519027188e-05,-0.00036087435687183597,0.0003935597896557577,-0.000510869420241329,-0.00015172279067590392,0.0014259906634780015,0.0,0.0,0.0,0.0,0.0,0.0,0.0,-0.000295918937299966,1.826278505356882e-05,-7.916598727824437e-06,1.2354767113365028e-05,-7.4407714741736575e-06,1.463884043761965e-06,-8.138020833881043e-07,0.0005263752715697761,-1.6777945519027188e-05,0.00036087435687183597,-0.0003935597896557577,0.000510869420241329,0.00015172279067590392,-0.0014259906634780015,0.3514034152030945,22.649072647094727,0.1491362750530243,-14.179414749145508,-0.11748272180557251,-2.1582064628601074,0.27591270208358765,0
32,0.1549980640411377,-0.3514034152030945,-22.649072647094727,-0.1491362750530243,14.179414749145508,0.11748272180557251,2.1582064628601074,-0.27591270208358765,0.0,0.0,0.0,0.0,0.0,0.0,0.0,-0.32970415879892445,0.15351435087408308,-0.23868088512197413,0.3203130317138454,-0.12404064281501911,-0.03489041313754681,-0.24724721692964272,1.6757932736915302,0.05208606403981646,0.029977421708012878,-2.7524071998930815,0.034252244758488974,2.7663664904230885,0.769163867149088,1.6754973547542302,0.052104326824870026,0.029969505109285054,-2.752394845125968,0.0342448039870148,2.7663679543071322,0.7691630533470046,-0.0005263752715697761,1.6777945519027188e-05,-0.00036087435687183597,0.0003935597896557577,-0.000510869420241329,-0.00015172279067590392,0.0014259906634780015,0.0,0.0,0.0,0.0,0.0,0.0,0.0,-0.000295918937299966,1.826278505356882e-05,-7.916598727824437e-06,1.2354767113365028e-05,-7.4407714741736575e-06,1.463884043761965e-06,-8.138020833881043e-07,0.0005263752715697761,-1.6777945519027188e-05,0.00036087435687183597,-0.0003935597896557577,0.000510869420241329,0.00015172279067590392,-0.0014259906634780015,0.3514034152030945,22.649072647094727,0.1491362750530243,-14.179414749145508,-0.11748272180557251,-2.1582064628601074,0.27591270208358765,0
33,0.1606752872467041,-0.3236324191093445,-22.649072647094727,-0.2007109820842743,14.179414749145508,0.10558086633682251,2.1517977714538574,-0.26217979192733765,0.0,0.0,0.0,0.0,0.0,0.0,0.0,-0.33149575596835806,0.1461025072943038,-0.23603306161646131,0.3255267461503038,-0.12466052534179183,-0.03354068406933541,-0.24704960860748923,1.675791297063114,0.05208590652221706,0.029981040985699283,-2.752407227365181,0.03425356670181173,2.7663672024458763,0.7691623412701818,1.6754973547542302,0.052104326824870026,0.029969505109285054,-2.752394845125968,0.0342448039870148,2.7663679543071322,0.7691630533470046,-0.0005306023752889333,-0.00024379846411461242,0.0009821749757077918,0.0005848747597856258,0.00017760379330973434,0.00010033813089204587,0.000583089642384396,0.0,0.0,0.0,0.0,0.0,0.0,0.0,-0.0002939423088836879,1.842030265296335e-05,-1.1535876414229401e-05,1.2382239213071244e-05,-8.762714796932414e-06,7.518612559209714e-07,7.120768228396912e-07,0.0005306023752889333,0.00024379846411461242,-0.0009821749757077918,-0.0005848747597856258,-0.00017760379330973434,-0.00010033813089204587,-0.000583089642384396,0.3236324191093445,22.649072647094727,0.2007109820842743,-14.179414749145508,-0.10558086633682251,-2.1517977714538574,0.26217979192733765,0
34,0.1649935245513916,-0.3236324191093445,-22.649072647094727,-0.2007109820842743,14.179414749145508,0.10558086633682251,2.1517977714538574,-0.26217979192733765,0.0,0.0,0.0,0.0,0.0,0.0,0.0,-0.33149575596835806,0.1461025072943038,-0.23603306161646131,0.3255267461503038,-0.12466052534179183,-0.03354068406933541,-0.24704960860748923,1.675791297063114,0.05208590652221706,0.029981040985699283,-2.752407227365181,0.03425356670181173,2.7663672024458763,0.7691623412701818,1.6754973547542302,0.052104326824870026,0.029969505109285054,-2.752394845125968,0.0342448039870148,2.7663679543071322,0.7691630533470046,-0.0005306023752889333,-0.00024379846411461242,0.0009821749757077918,0.0005848747597856258,0.00017760379330973434,0.00010033813089204587,0.000583089642384396,0.0,0.0,0.0,0.0,0.0,0.0,0.0,-0.0002939423088836879,1.842030265296335e-05,-1.1535876414229401e-05,1.2382239213071244e-05,-8.762714796932414e-06,7.518612559209714e-07,7.120768228396912e-07,0.0005306023752889333,0.00024379846411461242,-0.0009821749757077918,-0.0005848747597856258,-0.00017760379330973434,-0.00010033813089204587,-0.000583089642384396,0.3236324191093445,22.649072647094727,0.2007109820842743,-14.179414749145508,-0.10558086633682251,-2.1517977714538574,0.26217979192733765,0
35,0.16999483108520508,-0.2720577120780945,-22.672876358032227,-0.1253325641155243,14.155611038208008,0.11198955774307251,2.1582064628601074,-0.26217979192733765,0.0,0.0,0.0,0.0,0.0,0.0,0.0,-0.3267687321933238,0.1429554848641754,-0.2306619766819155,0.3263233118975933,-0.12496578764591955,-0.033574994781266874,-0.24754154759742042,1.675785533326254,0.052087813720077654,0.029975751272157614,-2.752405529457381,0.03425285072765448,2.766366176940552,0.7691623412701818,1.6754973547542302,0.052104326824870026,0.029969505109285054,-2.752394845125968,0.0342448039870148,2.7663679543071322,0.7691630533470046,-0.0003819250868969787,0.00022768317613901256,0.00012753612464805783,0.0009853843633539283,-0.0001774565135922873,-0.000170979386455974,0.00018455075172399077,0.0,0.0,0.0,0.0,0.0,0.0,0.0,-0.00028817857202367847,1.6513104792371947e-05,-6.246162872560607e-06,1.0684331412935677e-05,-8.046740639679195e-06,1.7773665801357197e-06,7.120768228396912e-07,0.0003819250868969787,-0.00022768317613901256,-0.00012753612464805783,-0.0009853843633539283,0.0001774565135922873,0.000170979386455974,-0.00018455075172399077,0.2720577120780945,22.672876358032227,0.1253325641155243,-14.155611038208008,-0.11198955774307251,-2.1582064628601074,0.26217979192733765,0
36,0.17499232292175293,-0.2720577120780945,-22.672876358032227,-0.1253325641155243,14.155611038208008,0.11198955774307251,2.1582064628601074,-0.26217979192733765,0.0,0.0,0.0,0.0,0.0,0.0,0.0,-0.3267687321933238,0.1429554848641754,-0.2306619766819155,0.3263233118975933,-0.12496578764591955,-0.033574994781266874,-0.24754154759742042,1.675785533326254,0.052087813720077654,0.029975751272157614,-2.752405529457381,0.03425285072765448,2.766366176940552,0.7691623412701818,1.6754973547542302,0.052104326824870026,0.029969505109285054,-2.752394845125968,0.0342448039870148,2.7663679543071322,0.7691630533470046,-0.0003819250868969787,0.00022768317613901256,0.00012753612464805783,0.0009853843633539283,-0.0001774565135922873,-0.000170979386455974,0.00018455075172399077,0.0,0.0,0.0,0.0,0.0,0.0,0.0,-0.00028817857202367847,1.6513104792371947e-05,-6.246162872560607e-06,1.0684331412935677e-05,-8.046740639679195e-06,1.7773665801357197e-06,7.120768228396912e-07,0.0003819250868969787,-0.00022768317613901256,-0.00012753612464805783,-0.0009853843633539283,0.0001774565135922873,0.000170979386455974,-0.00018455075172399077,0.2720577120780945,22.672876358032227,0.1253325641155243,-14.155611038208008,-0.11198955774307251,-2.1582064628601074,0.26217979192733765,0
37,0.1800236701965332,-0.2720577120780945,-22.621301651000977,-0.1253325641155243,14.179414749145508,0.10558086633682251,2.1517977714538574,-0.26858848333358765,0.0,0.0,0.0,0.0,0.0,0.0,0.0,-0.32716167478251923,0.14992376361708215,-0.23415522143887965,0.32024662251322095,-0.12448140167304847,-0.03455806630934818,-0.2490391036243355,1.6757869903165763,0.05208206256725777,0.029975751272157614,-2.7524071998930815,0.03425356718895344,2.766366182051834,0.7691630533470046,1.6754973547542302,0.052104326824870026,0.029969505109285054,-2.752394845125968,0.0342448039870148,2.7663679543071322,0.7691630533470046,-0.0005951537378372775,-0.0005391865437339219,-8.862280518160933e-05,-0.00018619388938612353,0.000107933005852581,0.0001571256837196335,0.0011597945843473806,0.0,0.0,0.0,0.0,0.0,0.0,0.0,-0.0002896355623460689,2.226425761225892e-05,-6.246162872560607e-06,1.2354767113365028e-05,-8.76320193864133e-06,1.7722552980714568e-06,0.0,0.0005951537378372775,0.0005391865437339219,8.862280518160933e-05,0.00018619388938612353,-0.000107933005852581,-0.0001571256837196335,-0.0011597945843473806,0.2720577120780945,22.621301651000977,0.1253325641155243,-14.179414749145508,-0.10558086633682251,-2.1517977714538574,0.26858848333358765,0
38,0.18502569198608398,-0.2720577120780945,-22.621301651000977,-0.1253325641155243,14.179414749145508,0.10558086633682251,2.1517977714538574,-0.26858848333358765,0.0,0.0,0.0,0.0,0.0,0.0,0.0,-0.32716167478251923,0.14992376361708215,-0.23415522143887965,0.32024662251322095,-0.12448140167304847,-0.03455806630934818,-0.2490391036243355,1.6757869903165763,0.05208206256725777,0.029975751272157614,-2.7524071998930815,0.03425356718895344,2.766366182051834,0.7691630533470046,1.6754973547542302,0.052104326824870026,0.029969505109285054,-2.752394845125968,0.0342448039870148,2.7663679543071322,0.7691630533470046,-0.0005951537378372775,-0.0005391865437339219,-8.862280518160933e-05,-0.00018619388938612353,0.000107933005852581,0.0001571256837196335,0.0011597945843473806,0.0,0.0,0.0,0.0,0.0,0.0,0.0,-0.0002896355623460689,2.226425761225892e-05,-6.246162872560607e-06,1.2354767113365028e-05,-8.76320193864133e-06,1.7722552980714568e-06,0.0,0.0005951537378372775,0.0005391865437339219,8.862280518160933e-05,0.00018619388938612353,-0.000107933005852581,-0.0001571256837196335,-0.0011597945843473806,0.2720577120780945,22.621301651000977,0.1253325641155243,-14.179414749145508,-0.10558086633682251,-2.1517977714538574,0.26858848333358765,0
39,0.18999528884887695,-0.2720577120780945,-22.621301651000977,-0.1253325641155243,14.179414749145508,0.10558086633682251,2.1517977714538574,-0.26858848333358765,0.0,0.0,0.0,0.0,0.0,0.0,0.0,-0.32716167478251923,0.14992376361708215,-0.23415522143887965,0.32024662251322095,-0.12448140167304847,-0.03455806630934818,-0.2490391036243355,1.6757869903165763,0.05208206256725777,0.029975751272157614,-2.7524071998930815,0.03425356718895344,2.766366182051834,0.7691630533470046,1.6754973547542302,0.052104326824870026,0.029969505109285054,-2.752394845125968,0.0342448039870148,2.7663679543071322,0.7691630533470046,-0.0005951537378372775,-0.0005391865437339219,-8.862280518160933e-05,-0.00018619388938612353,0.000107933005852581,0.0001571256837196335,0.0011597945843473806,0.0,0.0,0.0,0.0,0.0,0.0,0.0,-0.0002896355623460689,2.226425761225892e-05,-6.246162872560607e-06,1.2354767113365028e-05,-8.76320193864133e-06,1.7722552980714568e-06,0.0,0.0005951537378372775,0.0005391865437339219,8.862280518160933e-05,0.00018619388938612353,-0.000107933005852581,-0.0001571256837196335,-0.0011597945843473806,0.2720577120780945,22.621301651000977,0.1253325641155243,-14.179414749145508,-0.10558086633682251,-2.1517977714538574,0.26858848333358765,0
40,0.19500255584716797,-0.3236324191093445,-22.597497940063477,-0.1491362750530243,14.155611038208008,0.10558086633682251,2.1453890800476074,-0.25485557317733765,0.0,0.0,0.0,0.0,0.0,0.0,0.0,-0.32614969953272677,0.1458338671536634,-0.2380694308711239,0.3271467808101891,-0.12378607646535189,-0.03278482351771879,-0.24793192778580114,1.675791316027907,0.0520822872329435,0.029977421708012878,-2.752405529457226,0.03425352772849577,2.7663676010884375,0.7691615274680984,1.6754973547542302,0.052104326824870026,0.029969505109285054,-2.752394845125968,0.0342448039870148,2.7663679543071322,0.7691630533470046,0.00020501014658208107,-0.001145796871007065,-0.0005199575880318346,0.0010526239517951758,0.00015709424289865107,0.0004342902970443656,0.000665539993927177,0.0,0.0,0.0,0.0,0.0,0.0,0.0,-0.0002939612736767572,2.203959192652316e-05,-7.916598727824437e-06,1.0684331257948543e-05,-8.72374148096905e-06,3.5321869473747824e-07,1.5258789062277955e-06,-0.00020501014658208107,0.001145796871007065,0.0005199575880318346,-0.0010526239517951758,-0.00015709424289865107,-0.0004342902970443656,-0.000665539993927177,0.3236324191093445,22.597497940063477,0.1491362750530243,-14.155611038208008,-0.10558086633682251,-2.1453890800476074,0.25485557317733765,0
41,0.20000076293945312,-0.3236324191093445,-22.597497940063477,-0.1491362750530243,14.155611038208008,0.10558086633682251,2.1453890800476074,-0.25485557317733765,0.0,0.0,0.0,0.0,0.0,0.0,0.0,-0.32614969953272677,0.1458338671536634,-0.2380694308711239,0.3271467808101891,-0.12378607646535189,-0.03278482351771879,-0.24793192778580114,1.675791316027907,0.0520822872329435,0.029977421708012878,-2.752405529457226,0.03425352772849577,2.7663676010884375,0.7691615274680984,1.6754973547542302,0.052104326824870026,0.029969505109285054,-2.752394845125968,0.0342448039870148,2.7663679543071322,0.7691630533470046,0.00020501014658208107,-0.001145796871007065,-0.0005199575880318346,0.0010526239517951758,0.00015709424289865107,0.0004342902970443656,0.000665539993927177,0.0,0.0,0.0,0.0,0.0,0.0,0.0,-0.0002939612736767572,2.203959192652316e-05,-7.916598727824437e-06,1.0684331257948543e-05,-8.72374148096905e-06,3.5321869473747824e-07,1.5258789062277955e-06,-0.00020501014658208107,0.001145796871007065,0.0005199575880318346,-0.0010526239517951758,-0.00015709424289865107,-0.0004342902970443656,-0.000665539993927177,0.3236324191093445,22.597497940063477,0.1491362750530243,-14.155611038208008,-0.10558086633682251,-2.1453890800476074,0.25485557317733765,0
42,0.20501995086669922,-0.3236324191093445,-22.573694229125977,-0.2007109820842743,14.207185745239258,0.10008770227432251,2.1517977714538574,-0.24112264811992645,0.0,0.0,0.0,0.0,0.0,0.0,0.0,-0.3240734235309315,0.1511590565210431,-0.2372843590303776,0.32321064844158426,-0.12428846366708253,-0.033241862689460645,-0.2471931693074677,1.6757889396953085,0.05208061680867721,0.029981040985699283,-2.7524091487349125,0.03425311208939788,2.766364058416254,0.7691600015875365,1.6754973547542302,0.052104326824870026,0.029969505109285054,-2.752394845125968,0.0342448039870148,2.7663679543071322,0.7691630533470046,-0.0009972172863923915,-0.0013328783282148312,0.0010705760380006523,-0.0006052408228348036,0.00031367369293347074,-6.103890086561042e-05,-0.0007819228992879213,0.0,0.0,0.0,0.0,0.0,0.0,0.0,-0.00029158494107828226,2.3710016192814154e-05,-1.1535876414229401e-05,1.4303608944388202e-05,-8.308102383079718e-06,3.895890878347075e-06,3.0517594681311877e-06,0.0009972172863923915,0.0013328783282148312,-0.0010705760380006523,0.0006052408228348036,-0.00031367369293347074,6.103890086561042e-05,0.0007819228992879213,0.3236324191093445,22.573694229125977,0.2007109820842743,-14.207185745239258,-0.10008770227432251,-2.1517977714538574,0.24112264811992645,0
43,0.20501995086669922,-0.3236324191093445,-22.573694229125977,-0.2007109820842743,14.207185745239258,0.10008770227432251,2.1517977714538574,-0.24112264811992645,0.0,0.0,0.0,0.0,0.0,0.0,0.0,-0.3240734235309315,0.1511590565210431,-0.2372843590303776,0.32321064844158426,-0.12428846366708253,-0.033241862689460645,-0.2471931693074677,1.6757889396953085,0.05208061680867721,0.029981040985699283,-2.7524091487349125,0.03425311208939788,2.766364058416254,0.7691600015875365,1.6754973547542302,0.052104326824870026,0.029969505109285054,-2.752394845125968,0.0342448039870148,2.7663679543071322,0.7691630533470046,-0.0009972172863923915,-0.0013328783282148312,0.0010705760380006523,-0.0006052408228348036,0.00031367369293347074,-6.103890086561042e-05,-0.0007819228992879213,0.0,0.0,0.0,0.0,0.0,0.0,0.0,-0.00029158494107828226,2.3710016192814154e-05,-1.1535876414229401e-05,1.4303608944388202e-05,-8.308102383079718e-06,3.895890878347075e-06,3.0517594681311877e-06,0.0009972172863923915,0.0013328783282148312,-0.0010705760380006523,0.0006052408228348036,-0.00031367369293347074,6.103890086561042e-05,0.0007819228992879213,0.3236324191093445,22.573694229125977,0.2007109820842743,-14.207185745239258,-0.10008770227432251,-2.1517977714538574,0.24112264811992645,0
44,0.21497726440429688,-0.3752071261405945,-22.649072647094727,-0.1729399859905243,14.155611038208008,0.11748272180557251,2.1453890800476074,-0.20083944499492645,0.0,0.0,0.0,0.0,0.0,0.0,0.0,-0.3289433446754989,0.15510520571894282,-0.23535318852549453,0.32247704358906054,-0.12520671985860993,-0.03380367821566151,-0.24841144739732238,1.675794943763097,0.05208614328422239,0.029979092143868142,-2.752405529457226,0.03425224020769141,2.7663679528356093,0.7691555256760781,1.6754973547542302,0.052104326824870026,0.029969505109285054,-2.752394845125968,0.0342448039870148,2.7663679543071322,0.7691630533470046,0.0003202851455820314,0.0007562525910429961,-2.8506908559806106e-05,0.0008033547148450533,-0.0002979173123215781,0.0001862462998981551,-0.0020405519304169755,0.0,0.0,0.0,0.0,0.0,0.0,0.0,-0.0002975890088667832,1.8183540647635776e-05,-9.587034583088266e-06,1.0684331257948543e-05,-7.436220676608485e-06,1.4715229035289212e-09,7.527670926488206e-06,-0.0003202851455820314,-0.0007562525910429961,2.8506908559806106e-05,-0.0008033547148450533,0.0002979173123215781,-0.0001862462998981551,0.0020405519304169755,0.3752071261405945,22.649072647094727,0.1729399859905243,-14.155611038208008,-0.11748272180557251,-2.1453890800476074,0.20083944499492645,0
45,0.21999287605285645,-0.3752071261405945,-22.649072647094727,-0.1729399859905243,14.155611038208008,0.11748272180557251,2.1453890800476074,-0.20083944499492645,0.0,0.0,0.0,0.0,0.0,0.0,0.0,-0.3289433446754989,0.15510520571894282,-0.23535318852549453,0.32247704358906054,-0.12520671985860993,-0.03380367821566151,-0.24841144739732238,1.675794943763097,0.05208614328422239,0.029979092143868142,-2.752405529457226,0.03425224020769141,2.7663679528356093,0.7691555256760781,1.6754973547542302,0.052104326824870026,0.029969505109285054,-2.752394845125968,0.0342448039870148,2.7663679543071322,0.7691630533470046,0.0003202851455820314,0.0007562525910429961,-2.8506908559806106e-05,0.0008033547148450533,-0.0002979173123215781,0.0001862462998981551,-0.0020405519304169755,0.0,0.0,0.0,0.0,0.0,0.0,0.0,-0.0002975890088667832,1.8183540647635776e-05,-9.587034583088266e-06,1.0684331257948543e-05,-7.436220676608485e-06,1.4715229035289212e-09,7.527670926488206e-06,-0.0003202851455820314,-0.0007562525910429961,2.8506908559806106e-05,-0.0008033547148450533,0.0002979173123215781,-0.0001862462998981551,0.0020405519304169755,0.3752071261405945,22.649072647094727,0.1729399859905243,-14.155611038208008,-0.11748272180557251,-2.1453890800476074,0.20083944499492645,0
46,0.22499537467956543,-0.2998287081718445,-22.649072647094727,-0.1491362750530243,14.230989456176758,0.10558086633682251,2.1582064628601074,-0.22830526530742645,0.0,0.0,0.0,0.0,0.0,0.0,0.0,-0.32921368838645887,0.1499890343902344,-0.23372498317853535,0.32629513153388034,-0.12534006394201694,-0.033803889311012865,-0.2474740434593187,1.6757875085501728,0.052086142960781276,0.029977421708012878,-2.752410819170768,0.03425356572740174,2.766366529991956,0.7691585774338906,1.6754973547542302,0.052104326824870026,0.029969505109285054,-2.752394845125968,0.0342448039870148,2.7663679543071322,0.7691630533470046,-0.0007801721263841589,-7.411448638378148e-05,-0.0002404980418028734,-0.0007488761740790501,-7.734512504453585e-05,-0.0004630949640314279,-0.00114125973230706,0.0,0.0,0.0,0.0,0.0,0.0,0.0,-0.0002901537959425493,1.8183864088749946e-05,-7.916598727824437e-06,1.5974044799804688e-05,-8.761740386942218e-06,1.424315176024038e-06,4.475913114032615e-06,0.0007801721263841589,7.411448638378148e-05,0.0002404980418028734,0.0007488761740790501,7.734512504453585e-05,0.0004630949640314279,0.00114125973230706,0.2998287081718445,22.649072647094727,0.1491362750530243,-14.230989456176758,-0.10558086633682251,-2.1582064628601074,0.22830526530742645,0
47,0.2299959659576416,-0.2998287081718445,-22.649072647094727,-0.1491362750530243,14.230989456176758,0.10558086633682251,2.1582064628601074,-0.22830526530742645,0.0,0.0,0.0,0.0,0.0,0.0,0.0,-0.32921368838645887,0.1499890343902344,-0.23372498317853535,0.32629513153388034,-0.12534006394201694,-0.033803889311012865,-0.2474740434593187,1.6757875085501728,0.052086142960781276,0.029977421708012878,-2.752410819170768,0.03425356572740174,2.766366529991956,0.7691585774338906,1.6754973547542302,0.052104326824870026,0.029969505109285054,-2.752394845125968,0.0342448039870148,2.7663679543071322,0.7691630533470046,-0.0007801721263841589,-7.411448638378148e-05,-0.0002404980418028734,-0.0007488761740790501,-7.734512504453585e-05,-0.0004630949640314279,-0.00114125973230706,0.0,0.0,0.0,0.0,0.0,0.0,0.0,-0.0002901537959425493,1.8183864088749946e-05,-7.916598727824437e-06,1.5974044799804688e-05,-8.761740386942218e-06,1.424315176024038e-06,4.475913114032615e-06,0.0007801721263841589,7.411448638378148e-05,0.0002404980418028734,0.0007488761740790501,7.734512504453585e-05,0.0004630949640314279,0.00114125973230706,0.2998287081718445,22.649072647094727,0.1491362750530243,-14.230989456176758,-0.10558086633682251,-2.1582064628601074,0.22830526530742645,0
48,0.23499178886413574,-0.2720577120780945,-22.672876358032227,-0.1729399859905243,14.155611038208008,0.12389141321182251,2.1655306816101074,-0.26217979192733765,0.0,0.0,0.0,0.0,0.0,0.0,0.0,-0.33058185834149706,0.1546096037368819,-0.23574785795590913,0.3207605858733948,-0.1257187156595328,-0.035075413030352366,-0.24787064210751744,1.6757877055805381,0.052087734764362334,0.029979092143868142,-2.7524077546972974,0.034251532683767114,2.7663614239636907,0.7691623456853407,1.6754973547542302,0.052104326824870026,0.029969505109285054,-2.752394845125968,0.0342448039870148,2.7663679543071322,0.7691630533470046,-0.001092147932060324,0.0005192261697620162,0.0010308512505892314,0.0009361845839037713,-0.0006388719316901968,-0.0006117719820747698,0.00043525904287582915,0.0,0.0,0.0,0.0,0.0,0.0,0.0,-0.00029035082630790576,1.6592060507691908e-05,-9.587034583088266e-06,1.2909571329267067e-05,-6.728696752313079e-06,6.530343441557562e-06,7.076616639345445e-07,0.001092147932060324,-0.0005192261697620162,-0.0010308512505892314,-0.0009361845839037713,0.0006388719316901968,0.0006117719820747698,-0.00043525904287582915,0.2720577120780945,22.672876358032227,0.1729399859905243,-14.155611038208008,-0.12389141321182251,-2.1655306816101074,0.26217979192733765,0
49,0.2400047779083252,-0.2720577120780945,-22.672876358032227,-0.1729399859905243,14.155611038208008,0.12389141321182251,2.1655306816101074,-0.26217979192733765,0.0,0.0,0.0,0.0,0.0,0.0,0.0,-0.33058185834149706,0.1546096037368819,-0.23574785795590913,0.3207605858733948,-0.1257187156595328,-0.035075413030352366,-0.24787064210751744,1.6757877055805381,0.052087734764362334,0.029979092143868142,-2.7524077546972974,0.034251532683767114,2.7663614239636907,0.7691623456853407,1.6754973547542302,0.052104326824870026,0.029969505109285054,-2.752394845125968,0.0342448039870148,2.7663679543071322,0.7691630533470046,-0.001092147932060324,0.0005192261697620162,0.0010308512505892314,0.0009361845839037713,-0.0006388719316901968,-0.0006117719820747698,0.00043525904287582915,0.0,0.0,0.0,0.0,0.0,0.0,0.0,-0.00029035082630790576,1.6592060507691908e-05,-9.587034583088266e-06,1.2909571329267067e-05,-6.728696752313079e-06,6.530343441557562e-06,7.076616639345445e-07,0.001092147932060324,-0.0005192261697620162,-0.0010308512505892314,-0.0009361845839037713,0.0006388719316901968,0.0006117719820747698,-0.00043525904287582915,0.2720577120780945,22.672876358032227,0.1729399859905243,-14.155611038208008,-0.12389141321182251,-2.1655306816101074,0.26217979192733765,0
50,0.2449946403503418,-0.2998287081718445,-22.672876358032227,-0.1253325641155243,14.207185745239258,0.10558086633682251,2.1517977714538574,-0.25485557317733765,0.0,0.0,0.0,0.0,0.0,0.0,0.0,-0.3284174344887299,0.15307112586171268,-0.23678741350915933,0.3186946896524451,-0.1250174501747209,-0.03454201869537448,-0.24873045225557966,1.6757896534452608,0.052087813720968476,0.029975751272157614,-2.752409148747474,0.03425356718897819,2.7663668846327183,0.7691615274681233,1.6754973547542302,0.052104326824870026,0.029969505109285054,-2.752394845125968,0.0342448039870148,2.7663679543071322,0.7691630533470046,-5.56114459238747e-05,0.0007487959061483518,-0.0003397520219082314,-0.0006446370838311392,0.00013130091451116246,5.8345523055078306e-05,0.0008646452425022309,0.0,0.0,0.0,0.0,0.0,0.0,0.0,-0.00029229869103053474,1.6513103901549808e-05,-6.246162872560607e-06,1.4303621505895592e-05,-8.763201963392364e-06,1.0696744139337966e-06,1.5258788813587998e-06,5.56114459238747e-05,-0.0007487959061483518,0.0003397520219082314,0.0006446370838311392,-0.00013130091451116246,-5.8345523055078306e-05,-0.0008646452425022309,0.2998287081718445,22.672876358032227,0.1253325641155243,-14.207185745239258,-0.10558086633682251,-2.1517977714538574,0.25485557317733765,0
51,0.24999070167541504,-0.2998287081718445,-22.672876358032227,-0.1253325641155243,14.207185745239258,0.10558086633682251,2.1517977714538574,-0.25485557317733765,0.0,0.0,0.0,0.0,0.0,0.0,0.0,-0.3284174344887299,0.15307112586171268,-0.23678741350915933,0.3186946896524451,-0.1250174501747209,-0.03454201869537448,-0.24873045225557966,1.6757896534452608,0.052087813720968476,0.029975751272157614,-2.752409148747474,0.03425356718897819,2.7663668846327183,0.7691615274681233,1.6754973547542302,0.052104326824870026,0.029969505109285054,-2.752394845125968,0.0342448039870148,2.7663679543071322,0.7691630533470046,-5.56114459238747e-05,0.0007487959061483518,-0.0003397520219082314,-0.0006446370838311392,0.00013130091451116246,5.8345523055078306e-05,0.0008646452425022309,0.0,0.0,0.0,0.0,0.0,0.0,0.0,-0.00029229869103053474,1.6513103901549808e-05,-6.246162872560607e-06,1.4303621505895592e-05,-8.763201963392364e-06,1.0696744139337966e-06,1.5258788813587998e-06,5.56114459238747e-05,-0.0007487959061483518,0.0003397520219082314,0.0006446370838311392,-0.00013130091451116246,-5.8345523055078306e-05,-0.0008646452425022309,0.2998287081718445,22.672876358032227,0.1253325641155243,-14.207185745239258,-0.10558086633682251,-2.1517977714538574,0.25485557317733765,0
52,0.2549920082092285,-0.3752071261405945,-22.621301651000977,-0.1729399859905243,14.179414749145508,0.10558086633682251,2.1453890800476074,-0.23471395671367645,0.0,0.0,0.0,0.0,0.0,0.0,0.0,-0.33017129660224603,0.14847726272977121,-0.24003254783157957,0.31824147362309557,-0.12418147392264212,-0.033728441480218876,-0.2472916147127631,1.6757947052852882,0.052083957680833265,0.029979092143868142,-2.7524071998930815,0.03425356718897819,2.766367835109956,0.7691592895107136,1.6754973547542302,0.052104326824870026,0.029969505109285054,-2.752394845125968,0.0342448039870148,2.7663679543071322,0.7691630533470046,0.0004644600211365315,-0.0008369240702070232,0.0005781058224390345,-7.575330013136752e-05,0.00029521449293791057,0.0002340294715376577,-0.0003019013847713783,0.0,0.0,0.0,0.0,0.0,0.0,0.0,-0.0002973505310579494,2.0369144036760933e-05,-9.587034583088266e-06,1.2354767113365028e-05,-8.763201963392364e-06,1.1919717612940417e-07,3.763836291081901e-06,-0.0004644600211365315,0.0008369240702070232,-0.0005781058224390345,7.575330013136752e-05,-0.00029521449293791057,-0.0002340294715376577,0.0003019013847713783,0.3752071261405945,22.621301651000977,0.1729399859905243,-14.179414749145508,-0.10558086633682251,-2.1453890800476074,0.23471395671367645,0
53,0.2599983215332031,-0.3752071261405945,-22.621301651000977,-0.1729399859905243,14.179414749145508,0.10558086633682251,2.1453890800476074,-0.23471395671367645,0.0,0.0,0.0,0.0,0.0,0.0,0.0,-0.33017129660224603,0.14847726272977121,-0.24003254783157957,0.31824147362309557,-0.12418147392264212,-0.033728441480218876,-0.2472916147127631,1.6757947052852882,0.052083957680833265,0.029979092143868142,-2.7524071998930815,0.03425356718897819,2.766367835109956,0.7691592895107136,1.6754973547542302,0.052104326824870026,0.029969505109285054,-2.752394845125968,0.0342448039870148,2.7663679543071322,0.7691630533470046,0.0004644600211365315,-0.0008369240702070232,0.0005781058224390345,-7.575330013136752e-05,0.00029521449293791057,0.0002340294715376577,-0.0003019013847713783,0.0,0.0,0.0,0.0,0.0,0.0,0.0,-0.0002973505310579494,2.0369144036760933e-05,-9.587034583088266e-06,1.2354767113365028e-05,-8.763201963392364e-06,1.1919717612940417e-07,3.763836291081901e-06,-0.0004644600211365315,0.0008369240702070232,-0.0005781058224390345,7.575330013136752e-05,-0.00029521449293791057,-0.0002340294715376577,0.0003019013847713783,0.3752071261405945,22.621301651000977,0.1729399859905243,-14.179414749145508,-0.10558086633682251,-2.1453890800476074,0.23471395671367645,0
54,0.2650144100189209,-0.3752071261405945,-22.621301651000977,-0.1729399859905243,14.179414749145508,0.10558086633682251,2.1453890800476074,-0.23471395671367645,0.0,0.0,0.0,0.0,0.0,0.0,0.0,-0.33017129660224603,0.14847726272977121,-0.24003254783157957,0.31824147362309557,-0.12418147392264212,-0.033728441480218876,-0.2472916147127631,1.6757947052852882,0.052083957680833265,0.029979092143868142,-2.7524071998930815,0.03425356718897819,2.766367835109956,0.7691592895107136,1.6754973547542302,0.052104326824870026,0.029969505109285054,-2.752394845125968,0.0342448039870148,2.7663679543071322,0.7691630533470046,0.0004644600211365315,-0.0008369240702070232,0.0005781058224390345,-7.575330013136752e-05,0.00029521449293791057,0.0002340294715376577,-0.0003019013847713783,0.0,0.0,0.0,0.0,0.0,0.0,0.0,-0.0002973505310579494,2.0369144036760933e-05,-9.587034583088266e-06,1.2354767113365028e-05,-8.763201963392364e-06,1.1919717612940417e-07,3.763836291081901e-06,-0.0004644600211365315,0.0008369240702070232,-0.0005781058224390345,7.575330013136752e-05,-0.00029521449293791057,-0.0002340294715376577,0.0003019013847713783,0.3752071261405945,22.621301651000977,0.1729399859905243,-14.179414749145508,-0.10558086633682251,-2.1453890800476074,0.23471395671367645,0
55,0.2700035572052002,-0.3752071261405945,-22.621301651000977,-0.1729399859905243,14.179414749145508,0.10558086633682251,2.1453890800476074,-0.23471395671367645,0.0,0.0,0.0,0.0,0.0,0.0,0.0,-0.33017129660224603,0.14847726272977121,-0.24003254783157957,0.31824147362309557,-0.12418147392264212,-0.033728441480218876,-0.2472916147127631,1.6757947052852882,0.052083957680833265,0.029979092143868142,-2.7524071998930815,0.03425356718897819,2.766367835109956,0.7691592895107136,1.6754973547542302,0.052104326824870026,0.029969505109285054,-2.752394845125968,0.0342448039870148,2.7663679543071322,0.7691630533470046,0.0004644600211365315,-0.0008369240702070232,0.0005781058224390345,-7.575330013136752e-05,0.00029521449293791057,0.0002340294715376577,-0.0003019013847713783,0.0,0.0,0.0,0.0,0.0,0.0,0.0,-0.0002973505310579494,2.0369144036760933e-05,-9.587034583088266e-06,1.2354767113365028e-05,-8.763201963392364e-06,1.1919717612940417e-07,3.763836291081901e-06,-0.0004644600211365315,0.0008369240702070232,-0.0005781058224390345,7.575330013136752e-05,-0.00029521449293791057,-0.0002340294715376577,0.0003019013847713783,0.3752071261405945,22.621301651000977,0.1729399859905243,-14.179414749145508,-0.10558086633682251,-2.1453890800476074,0.23471395671367645,0
56,0.2750372886657715,-0.3514034152030945,-22.621301651000977,-0.1729399859905243,14.254793167114258,0.10558086633682251,2.1517977714538574,-0.26217979192733765,0.0,0.0,0.0,0.0,0.0,0.0,0.0,-0.329675137699147,0.15231821330311657,-0.2345134162132257,0.3192983930389665,-0.12439463479515446,-0.033726765187046114,-0.24754120525412274,1.6757925465642345,0.05208206357634054,0.029979092143868142,-2.752412489606623,0.03425352328986812,2.7663640500717905,0.7691623427419014,1.6754973547542302,0.052104326824870026,0.029969505109285054,-2.752394845125968,0.0342448039870148,2.7663679543071322,0.7691630533470046,-3.559280841321357e-05,5.2277165705854286e-05,0.0001953756902803803,-0.0013337675565263404,-1.5149968594965344e-05,4.8462376208628755e-05,0.00039744232227615023,0.0,0.0,0.0,0.0,0.0,0.0,0.0,-0.0002951918100042583,2.2263248529483248e-05,-9.587034583088266e-06,1.7644480654777084e-05,-8.719302853316124e-06,3.904235341689599e-06,7.106051032046423e-07,3.559280841321357e-05,-5.2277165705854286e-05,-0.0001953756902803803,0.0013337675565263404,1.5149968594965344e-05,-4.8462376208628755e-05,-0.00039744232227615023,0.3514034152030945,22.621301651000977,0.1729399859905243,-14.254793167114258,-0.10558086633682251,-2.1517977714538574,0.26217979192733765,0
57,0.27999281883239746,-0.3514034152030945,-22.621301651000977,-0.1729399859905243,14.254793167114258,0.10558086633682251,2.1517977714538574,-0.26217979192733765,0.0,0.0,0.0,0.0,0.0,0.0,0.0,-0.329675137699147,0.15231821330311657,-0.2345134162132257,0.3192983930389665,-0.12439463479515446,-0.033726765187046114,-0.24754120525412274,1.6757925465642345,0.05208206357634054,0.029979092143868142,-2.752412489606623,0.03425352328986812,2.7663640500717905,0.7691623427419014,1.6754973547542302,0.052104326824870026,0.029969505109285054,-2.752394845125968,0.0342448039870148,2.7663679543071322,0.7691630533470046,-3.559280841321357e-05,5.2277165705854286e-05,0.0001953756902803803,-0.0013337675565263404,-1.5149968594965344e-05,4.8462376208628755e-05,0.00039744232227615023,0.0,0.0,0.0,0.0,0.0,0.0,0.0,-0.0002951918100042583,2.2263248529483248e-05,-9.587034583088266e-06,1.7644480654777084e-05,-8.719302853316124e-06,3.904235341689599e-06,7.106051032046423e-07,3.559280841321357e-05,-5.2277165705854286e-05,-0.0001953756902803803,0.0013337675565263404,1.5149968594965344e-05,-4.8462376208628755e-05,-0.00039744232227615023,0.3514034152030945,22.621301651000977,0.1729399859905243,-14.254793167114258,-0.10558086633682251,-2.1517977714538574,0.26217979192733765,0
58,0.28504228591918945,-0.2720577120780945,-22.597497940063477,-0.1253325641155243,14.155611038208008,0.10008770227432251,2.1453890800476074,-0.24844686686992645,0.0,0.0,0.0,0.0,0.0,0.0,0.0,-0.32645793638287895,0.15424411718179978,-0.22882880050428914,0.3182638632083193,-0.12546535472256623,-0.033550193903455074,-0.24860556638028444,1.675787705256159,0.052082284317969706,0.029975751380416825,-2.752405529457226,0.03425417754045809,2.7663646445672154,0.7691608110289718,1.6754973547542302,0.052104326824870026,0.029969505109285054,-2.752394845125968,0.0342448039870148,2.7663679543071322,0.7691630533470046,-0.0011457343310130354,-0.0008381033411390989,-0.00014957465955280135,0.0008035715585263364,0.00026004647609584845,0.0003575450031062999,-0.0013586166531148463,0.0,0.0,0.0,0.0,0.0,0.0,0.0,-0.0002903505019287156,2.2042506900320225e-05,-6.2462711317712305e-06,1.0684331257948543e-05,-9.373553443291216e-06,3.309739916801391e-06,2.242318032807944e-06,0.0011457343310130354,0.0008381033411390989,0.00014957465955280135,-0.0008035715585263364,-0.00026004647609584845,-0.0003575450031062999,0.0013586166531148463,0.2720577120780945,22.597497940063477,0.1253325641155243,-14.155611038208008,-0.10008770227432251,-2.1453890800476074,0.24844686686992645,0
59,0.28999781608581543,-0.2720577120780945,-22.597497940063477,-0.1253325641155243,14.155611038208008,0.10008770227432251,2.1453890800476074,-0.24844686686992645,0.0,0.0,0.0,0.0,0.0,0.0,0.0,-0.32645793638287895,0.15424411718179978,-0.22882880050428914,0.3182638632083193,-0.12546535472256623,-0.033550193903455074,-0.24860556638028444,1.675787705256159,0.052082284317969706,0.029975751380416825,-2.752405529457226,0.03425417754045809,2.7663646445672154,0.7691608110289718,1.6754973547542302,0.052104326824870026,0.029969505109285054,-2.752394845125968,0.0342448039870148,2.7663679543071322,0.7691630533470046,-0.0011457343310130354,-0.0008381033411390989,-0.00014957465955280135,0.0008035715585263364,0.00026004647609584845,0.0003575450031062999,-0.0013586166531148463,0.0,0.0,0.0,0.0,0.0,0.0,0.0,-0.0002903505019287156,2.2042506900320225e-05,-6.2462711317712305e-06,1.0684331257948543e-05,-9.373553443291216e-06,3.309739916801391e-06,2.242318032807944e-06,0.0011457343310130354,0.0008381033411390989,0.00014957465955280135,-0.0008035715585263364,-0.00026004647609584845,-0.0003575450031062999,0.0013586166531148463,0.2720577120780945,22.597497940063477,0.1253325641155243,-14.155611038208008,-0.10008770227432251,-2.1453890800476074,0.24844686686992645,0
60,0.29502177238464355,-0.3514034152030945,-22.649072647094727,-0.1491362750530243,14.179414749145508,0.11748272180557251,2.1582064628601074,-0.24844686686992645,0.0,0.0,0.0,0.0,0.0,0.0,0.0,-0.3252970538429376,0.15160471476772383,-0.22815719523941427,0.31963558968654604,-0.12554410218711345,-0.03339865516806792,-0.24709951122897397,1.675793270651636,0.05208589742753762,0.02997742170801349,-2.7524071998930815,0.03425224476059278,2.7663665126922,0.7691608153895951,1.6754973547542302,0.052104326824870026,0.029969505109285054,-2.752394845125968,0.0342448039870148,2.7663679543071322,0.7691630533470046,0.0014189842311223646,-0.0002572744639110025,0.0008799956697321622,-0.00016954023850955475,-0.00040631162405332553,-0.00029947394123826053,-0.00011189331116587522,0.0,0.0,0.0,0.0,0.0,0.0,0.0,-0.0002959158974058518,1.8429397332403452e-05,-7.91659872843506e-06,1.2354767113365028e-05,-7.4407735779769e-06,1.4416149323182026e-06,2.237957409501057e-06,-0.0014189842311223646,0.0002572744639110025,-0.0008799956697321622,0.00016954023850955475,0.00040631162405332553,0.00029947394123826053,0.00011189331116587522,0.3514034152030945,22.649072647094727,0.1491362750530243,-14.179414749145508,-0.11748272180557251,-2.1582064628601074,0.24844686686992645,0
61,0.3000149726867676,-0.3514034152030945,-22.649072647094727,-0.1491362750530243,14.179414749145508,0.11748272180557251,2.1582064628601074,-0.24844686686992645,0.0,0.0,0.0,0.0,0.0,0.0,0.0,-0.3252970538429376,0.15160471476772383,-0.22815719523941427,0.31963558968654604,-0.12554410218711345,-0.03339865516806792,-0.24709951122897397,1.675793270651636,0.05208589742753762,0.02997742170801349,-2.7524071998930815,0.03425224476059278,2.7663665126922,0.7691608153895951,1.6754973547542302,0.052104326824870026,0.029969505109285054,-2.752394845125968,0.0342448039870148,2.7663679543071322,0.7691630533470046,0.0014189842311223646,-0.0002572744639110025,0.0008799956697321622,-0.00016954023850955475,-0.00040631162405332553,-0.00029947394123826053,-0.00011189331116587522,0.0,0.0,0.0,0.0,0.0,0.0,0.0,-0.0002959158974058518,1.8429397332403452e-05,-7.91659872843506e-06,1.2354767113365028e-05,-7.4407735779769e-06,1.4416149323182026e-06,2.237957409501057e-06,-0.0014189842311223646,0.0002572744639110025,-0.0008799956697321622,0.00016954023850955475,0.00040631162405332553,0.00029947394123826053,0.00011189331116587522,0.3514034152030945,22.649072647094727,0.1491362750530243,-14.179414749145508,-0.11748272180557251,-2.1582064628601074,0.24844686686992645,0
62,0.3049933910369873,-0.3514034152030945,-22.672876358032227,-0.1491362750530243,14.179414749145508,0.10008770227432251,2.1517977714538574,-0.23471395671367645,0.0,0.0,0.0,0.0,0.0,0.0,0.0,-0.32370652080600815,0.15279752529007798,-0.2314537975995048,0.31810537193589544,-0.12487436086050248,-0.033328560851247135,-0.24743771286702274,1.6757932735829586,0.052087804951955474,0.029977421708012878,-2.7524071998930815,0.03425417752249749,2.7663640633158884,0.7691592895107136,1.6754973547542302,0.052104326824870026,0.029969505109285054,-2.752394845125968,0.0342448039870148,2.7663679543071322,0.7691630533470046,0.0010195512970521184,0.0003627358871586838,0.0003576129057570272,0.0001777724781696343,0.0003812193537816727,6.179449308131211e-05,-0.0005547706594050312,0.0,0.0,0.0,0.0,0.0,0.0,0.0,-0.00029591882872836983,1.652187291455165e-05,-7.916598727824437e-06,1.2354767113365028e-05,-9.37353548269293e-06,3.890991243871156e-06,3.763836291081901e-06,-0.0010195512970521184,-0.0003627358871586838,-0.0003576129057570272,-0.0001777724781696343,-0.0003812193537816727,-6.179449308131211e-05,0.0005547706594050312,0.3514034152030945,22.672876358032227,0.1491362750530243,-14.179414749145508,-0.10008770227432251,-2.1517977714538574,0.23471395671367645,0
63,0.31000685691833496,-0.3514034152030945,-22.672876358032227,-0.1491362750530243,14.179414749145508,0.10008770227432251,2.1517977714538574,-0.23471395671367645,0.0,0.0,0.0,0.0,0.0,0.0,0.0,-0.32370652080600815,0.15279752529007798,-0.2314537975995048,0.31810537193589544,-0.12487436086050248,-0.033328560851247135,-0.24743771286702274,1.6757932735829586,0.052087804951955474,0.029977421708012878,-2.7524071998930815,0.03425417752249749,2.7663640633158884,0.7691592895107136,1.6754973547542302,0.052104326824870026,0.029969505109285054,-2.752394845125968,0.0342448039870148,2.7663679543071322,0.7691630533470046,0.0010195512970521184,0.0003627358871586838,0.0003576129057570272,0.0001777724781696343,0.0003812193537816727,6.179449308131211e-05,-0.0005547706594050312,0.0,0.0,0.0,0.0,0.0,0.0,0.0,-0.00029591882872836983,1.652187291455165e-05,-7.916598727824437e-06,1.2354767113365028e-05,-9.37353548269293e-06,3.890991243871156e-06,3.763836291081901e-06,-0.0010195512970521184,-0.0003627358871586838,-0.0003576129057570272,-0.0001777724781696343,-0.0003812193537816727,-6.179449308131211e-05,0.0005547706594050312,0.3514034152030945,22.672876358032227,0.1491362750530243,-14.179414749145508,-0.10008770227432251,-2.1517977714538574,0.23471395671367645,0
64,0.315004825592041,-0.3752071261405945,-22.649072647094727,-0.1491362750530243,14.207185745239258,0.11198955774307251,2.1582064628601074,-0.23471395671367645,0.0,0.0,0.0,0.0,0.0,0.0,0.0,-0.3262128307601675,0.15012406968900865,-0.2370941245427545,0.3183815100316744,-0.12442676949532926,-0.03294299144355941,-0.24815810365387175,1.6757947057213678,0.052086143177151205,0.029977421708012878,-2.7524091487349125,0.03425285511215497,2.7663664118775646,0.7691592895107136,1.6754973547542302,0.052104326824870026,0.029969505109285054,-2.752394845125968,0.0342448039870148,2.7663679543071322,0.7691630533470046,0.00033978359637222566,-0.00032961292819428344,-0.0007225649489384519,-0.00018266258205917434,-0.0001479279512382101,-0.00015080393228366392,-0.0004747340995626567,0.0,0.0,0.0,0.0,0.0,0.0,0.0,-0.00029735096713756626,1.8183647718821028e-05,-7.916598727824437e-06,1.4303608944388202e-05,-8.051125140171034e-06,1.5424295676247368e-06,3.763836291081901e-06,-0.00033978359637222566,0.00032961292819428344,0.0007225649489384519,0.00018266258205917434,0.0001479279512382101,0.00015080393228366392,0.0004747340995626567,0.3752071261405945,22.649072647094727,0.1491362750530243,-14.207185745239258,-0.11198955774307251,-2.1582064628601074,0.23471395671367645,0
65,0.3199934959411621,-0.3752071261405945,-22.649072647094727,-0.1491362750530243,14.207185745239258,0.11198955774307251,2.1582064628601074,-0.23471395671367645,0.0,0.0,0.0,0.0,0.0,0.0,0.0,-0.3262128307601675,0.15012406968900865,-0.2370941245427545,0.3183815100316744,-0.12442676949532926,-0.03294299144355941,-0.24815810365387175,1.6757947057213678,0.052086143177151205,0.029977421708012878,-2.7524091487349125,0.03425285511215497,2.7663664118775646,0.7691592895107136,1.6754973547542302,0.052104326824870026,0.029969505109285054,-2.752394845125968,0.0342448039870148,2.7663679543071322,0.7691630533470046,0.00033978359637222566,-0.00032961292819428344,-0.0007225649489384519,-0.00018266258205917434,-0.0001479279512382101,-0.00015080393228366392,-0.0004747340995626567,0.0,0.0,0.0,0.0,0.0,0.0,0.0,-0.00029735096713756626,1.8183647718821028e-05,-7.916598727824437e-06,1.4303608944388202e-05,-8.051125140171034e-06,1.5424295676247368e-06,3.763836291081901e-06,-0.00033978359637222566,0.00032961292819428344,0.0007225649489384519,0.00018266258205917434,0.0001479279512382101,0.00015080393228366392,0.0004747340995626567,0.3752071261405945,22.649072647094727,0.1491362750530243,-14.207185745239258,-0.11198955774307251,-2.1582064628601074,0.23471395671367645,0
66,0.3250432014465332,-0.3236324191093445,-22.649072647094727,-0.2007109820842743,14.207185745239258,0.11198955774307251,2.1453890800476074,-0.26217979192733765,0.0,0.0,0.0,0.0,0.0,0.0,0.0,-0.3262353217373781,0.14974779543585515,-0.23229178862781638,0.3191719937199777,-0.1247600828421417,-0.03381114921596008,-0.2502794193817464,1.675791245388954,0.05208614327352992,0.029981040985699283,-2.7524091487349125,0.03425285511215528,2.766367914397086,0.7691623412701818,1.6754973547542302,0.052104326824870026,0.029969505109285054,-2.752394845125968,0.0342448039870148,2.7663679543071322,0.7691630533470046,-0.0008394733193019992,-0.0001036075294228624,0.0009255327880468472,-2.7263969625055506e-05,-1.1447259329289612e-06,0.00027602511587134377,0.00027834852258412597,0.0,0.0,0.0,0.0,0.0,0.0,0.0,-0.0002938906347238479,1.818355134010352e-05,-1.1535876414229401e-05,1.4303608944388202e-05,-8.051125140476345e-06,3.991004637882156e-08,7.120768228396912e-07,0.0008394733193019992,0.0001036075294228624,-0.0009255327880468472,2.7263969625055506e-05,1.1447259329289612e-06,-0.00027602511587134377,-0.00027834852258412597,0.3236324191093445,22.649072647094727,0.2007109820842743,-14.207185745239258,-0.11198955774307251,-2.1453890800476074,0.26217979192733765,0
67,0.3300211429595947,-0.3236324191093445,-22.649072647094727,-0.2007109820842743,14.207185745239258,0.11198955774307251,2.1453890800476074,-0.26217979192733765,0.0,0.0,0.0,0.0,0.0,0.0,0.0,-0.3262353217373781,0.14974779543585515,-0.23229178862781638,0.3191719937199777,-0.1247600828421417,-0.03381114921596008,-0.2502794193817464,1.675791245388954,0.05208614327352992,0.029981040985699283,-2.7524091487349125,0.03425285511215528,2.766367914397086,0.7691623412701818,1.6754973547542302,0.052104326824870026,0.029969505109285054,-2.752394845125968,0.0342448039870148,2.7663679543071322,0.7691630533470046,-0.0008394733193019992,-0.0001036075294228624,0.0009255327880468472,-2.7263969625055506e-05,-1.1447259329289612e-06,0.00027602511587134377,0.00027834852258412597,0.0,0.0,0.0,0.0,0.0,0.0,0.0,-0.0002938906347238479,1.818355134010352e-05,-1.1535876414229401e-05,1.4303608944388202e-05,-8.051125140476345e-06,3.991004637882156e-08,7.120768228396912e-07,0.0008394733193019992,0.0001036075294228624,-0.0009255327880468472,2.7263969625055506e-05,1.1447259329289612e-06,-0.00027602511587134377,-0.00027834852258412597,0.3236324191093445,22.649072647094727,0.2007109820842743,-14.207185745239258,-0.11198955774307251,-2.1453890800476074,0.26217979192733765,0
68,0.3350086212158203,-0.3514034152030945,-22.597497940063477,-0.1253325641155243,14.179414749145508,0.10008770227432251,2.1517977714538574,-0.24112264811992645,0.0,0.0,0.0,0.0,0.0,0.0,0.0,-0.32488871028357025,0.15267569502835782,-0.23082480545093687,0.318093347496882,-0.12476593754192268,-0.03459886266926648,-0.2512010339129634,1.6757925319206155,0.052082524007872465,0.029975751272157614,-2.7524071998930815,0.03425378293571649,2.766367229148132,0.7691600020781098,1.6754973547542302,0.052104326824870026,0.029969505109285054,-2.752394845125968,0.0342448039870148,2.7663679543071322,0.7691630533470046,0.000806002794761872,-0.0007015291749496038,-0.00032542173227953996,0.00030412763750603983,0.0003667350790321021,0.00013479994973902523,-7.553461143797704e-06,0.0,0.0,0.0,0.0,0.0,0.0,0.0,-0.00029517716638527425,2.1802816997561203e-05,-6.246162872560607e-06,1.2354767113365028e-05,-8.978948701686418e-06,7.251590004031527e-07,3.0512688948824973e-06,-0.000806002794761872,0.0007015291749496038,0.00032542173227953996,-0.00030412763750603983,-0.0003667350790321021,-0.00013479994973902523,7.553461143797704e-06,0.3514034152030945,22.597497940063477,0.1253325641155243,-14.179414749145508,-0.10008770227432251,-2.1517977714538574,0.24112264811992645,0
69,0.34001851081848145,-0.3514034152030945,-22.597497940063477,-0.1253325641155243,14.179414749145508,0.10008770227432251,2.1517977714538574,-0.24112264811992645,0.0,0.0,0.0,0.0,0.0,0.0,0.0,-0.32488871028357025,0.15267569502835782,-0.23082480545093687,0.318093347496882,-0.12476593754192268,-0.03459886266926648,-0.2512010339129634,1.6757925319206155,0.052082524007872465,0.029975751272157614,-2.7524071998930815,0.03425378293571649,2.766367229148132,0.7691600020781098,1.6754973547542302,0.052104326824870026,0.029969505109285054,-2.752394845125968,0.0342448039870148,2.7663679543071322,0.7691630533470046,0.000806002794761872,-0.0007015291749496038,-0.00032542173227953996,0.00030412763750603983,0.0003667350790321021,0.00013479994973902523,-7.553461143797704e-06,0.0,0.0,0.0,0.0,0.0,0.0,0.0,-0.00029517716638527425,2.1802816997561203e-05,-6.246162872560607e-06,1.2354767113365028e-05,-8.978948701686418e-06,7.251590004031527e-07,3.0512688948824973e-06,-0.000806002794761872,0.0007015291749496038,0.00032542173227953996,-0.00030412763750603983,-0.0003667350790321021,-0.00013479994973902523,7.553461143797704e-06,0.3514034152030945,22.597497940063477,0.1253325641155243,-14.179414749145508,-0.10008770227432251,-2.1517977714538574,0.24112264811992645,0
70,0.34500575065612793,-0.24825400114059448,-22.621301651000977,-0.1253325641155243,14.179414749145508,0.11748272180557251,2.1453890800476074,-0.23471395671367645,0.0,0.0,0.0,0.0,0.0,0.0,0.0,-0.324634814010426,0.17852884498298519,-0.23280956754448534,0.2694939872708202,-0.12597557213366778,-0.041490095904552875,-0.24967507579939027,1.6757860263142157,0.05208395667041396,0.029975751272157614,-2.7524071998930815,0.03425224475836522,2.766367953607201,0.7691592895107163,1.6754973547542302,0.052104326824870026,0.029969505109285054,-2.752394845125968,0.0342448039870148,2.7663679543071322,0.7691630533470046,-0.0010974518984255765,-0.0004189276444908418,-0.00038974016465021606,0.0013892671511390707,-0.0003278294286684491,3.661418070710637e-05,-0.0012540216856956835,0.0,0.0,0.0,0.0,0.0,0.0,0.0,-0.000288671559985465,2.0370154456064715e-05,-6.246162872560607e-06,1.2354767113365028e-05,-7.440771350418485e-06,6.999312240907329e-10,3.7638362883063436e-06,0.0010974518984255765,0.0004189276444908418,0.00038974016465021606,-0.0013892671511390707,0.0003278294286684491,-3.661418070710637e-05,0.0012540216856956835,0.24825400114059448,22.621301651000977,0.1253325641155243,-14.179414749145508,-0.11748272180557251,-2.1453890800476074,0.23471395671367645,0
71,0.3499889373779297,-0.24825400114059448,-22.621301651000977,-0.1253325641155243,14.179414749145508,0.11748272180557251,2.1453890800476074,-0.23471395671367645,0.0,0.0,0.0,0.0,0.0,0.0,0.0,-0.324634814010426,0.17852884498298519,-0.23280956754448534,0.2694939872708202,-0.12597557213366778,-0.041490095904552875,-0.24967507579939027,1.6757860263142157,0.05208395667041396,0.029975751272157614,-2.7524071998930815,0.03425224475836522,2.766367953607201,0.7691592895107163,1.6754973547542302,0.052104326824870026,0.029969505109285054,-2.752394845125968,0.0342448039870148,2.7663679543071322,0.7691630533470046,-0.0010974518984255765,-0.0004189276444908418,-0.00038974016465021606,0.0013892671511390707,-0.0003278294286684491,3.661418070710637e-05,-0.0012540216856956835,0.0,0.0,0.0,0.0,0.0,0.0,0.0,-0.000288671559985465,2.0370154456064715e-05,-6.246162872560607e-06,1.2354767113365028e-05,-7.440771350418485e-06,6.999312240907329e-10,3.7638362883063436e-06,0.0010974518984255765,0.0004189276444908418,0.00038974016465021606,-0.0013892671511390707,0.0003278294286684491,-3.661418070710637e-05,0.0012540216856956835,0.24825400114059448,22.621301651000977,0.1253325641155243,-14.179414749145508,-0.11748272180557251,-2.1453890800476074,0.23471395671367645,0
72,0.35499119758605957,-0.3236324191093445,-22.672876358032227,-0.1729399859905243,14.179414749145508,0.10008770227432251,2.1517977714538574,-0.26217979192733765,0.0,0.0,0.0,0.0,0.0,0.0,0.0,-0.3198168003958033,0.1559828592589053,-0.2319789771488114,0.31541753663554084,-0.12492957656203693,-0.0348540113956351,-0.2508482895557738,1.6757913219186735,0.05208773382208974,0.029979092143868142,-2.7524071998930815,0.034254138080058234,2.7663672233341443,0.7691623412701818,1.6754973547542302,0.052104326824870026,0.029969505109285054,-2.752394845125968,0.0342448039870148,2.7663679543071322,0.7691630533470046,0.0010580383343210859,0.0007048535940757818,0.0013393156718841026,0.0003726223551535566,0.0002920726583129366,3.0279618660672946e-05,0.0003486655657907917,0.0,0.0,0.0,0.0,0.0,0.0,0.0,-0.0002939671644432984,1.6593002780285193e-05,-9.587034583088266e-06,1.2354767113365028e-05,-9.3340930434338e-06,7.309729879168003e-07,7.120768228396912e-07,-0.0010580383343210859,-0.0007048535940757818,-0.0013393156718841026,-0.0003726223551535566,-0.0002920726583129366,-3.0279618660672946e-05,-0.0003486655657907917,0.3236324191093445,22.672876358032227,0.1729399859905243,-14.179414749145508,-0.10008770227432251,-2.1517977714538574,0.26217979192733765,0
73,0.35999250411987305,-0.3236324191093445,-22.672876358032227,-0.1729399859905243,14.179414749145508,0.10008770227432251,2.1517977714538574,-0.26217979192733765,0.0,0.0,0.0,0.0,0.0,0.0,0.0,-0.3198168003958033,0.1559828592589053,-0.2319789771488114,0.31541753663554084,-0.12492957656203693,-0.0348540113956351,-0.2508482895557738,1.6757913219186735,0.05208773382208974,0.029979092143868142,-2.7524071998930815,0.034254138080058234,2.7663672233341443,0.7691623412701818,1.6754973547542302,0.052104326824870026,0.029969505109285054,-2.752394845125968,0.0342448039870148,2.7663679543071322,0.7691630533470046,0.0010580383343210859,0.0007048535940757818,0.0013393156718841026,0.0003726223551535566,0.0002920726583129366,3.0279618660672946e-05,0.0003486655657907917,0.0,0.0,0.0,0.0,0.0,0.0,0.0,-0.0002939671644432984,1.6593002780285193e-05,-9.587034583088266e-06,1.2354767113365028e-05,-9.3340930434338e-06,7.309729879168003e-07,7.120768228396912e-07,-0.0010580383343210859,-0.0007048535940757818,-0.0013393156718841026,-0.0003726223551535566,-0.0002920726583129366,-3.0279618660672946e-05,-0.0003486655657907917,0.3236324191093445,22.672876358032227,0.1729399859905243,-14.179414749145508,-0.10008770227432251,-2.1517977714538574,0.26217979192733765,0
74,0.36499834060668945,-0.3236324191093445,-22.696680068969727,-0.1253325641155243,14.207185745239258,0.10558086633682251,2.1582064628601074,-0.22098104655742645,0.0,0.0,0.0,0.0,0.0,0.0,0.0,-0.3288934675797781,0.14918783040814554,-0.2444094234713263,0.3326047601655597,-0.12339926534651995,-0.03185244977697005,-0.2492155450132901,1.6757913248259182,0.052088746587114355,0.029975751272157614,-2.7524091487349125,0.034253514412538565,2.766365470353816,0.7691577636318073,1.6754973547542302,0.052104326824870026,0.029969505109285054,-2.752394845125968,0.0342448039870148,2.7663679543071322,0.7691630533470046,-0.0005515506173586404,0.0012021191799976363,-0.0014435344420391833,5.302630599524733e-05,0.00014754315460545754,-0.00018210628400529814,-0.0006752806555038164,0.0,0.0,0.0,0.0,0.0,0.0,0.0,-0.00029397007168796563,1.5580237755670467e-05,-6.246162872560607e-06,1.4303608944388202e-05,-8.71042552376411e-06,2.4839533163678595e-06,5.289715197309697e-06,0.0005515506173586404,-0.0012021191799976363,0.0014435344420391833,-5.302630599524733e-05,-0.00014754315460545754,0.00018210628400529814,0.0006752806555038164,0.3236324191093445,22.696680068969727,0.1253325641155243,-14.207185745239258,-0.10558086633682251,-2.1582064628601074,0.22098104655742645,0
75,0.37000536918640137,-0.3236324191093445,-22.696680068969727,-0.1253325641155243,14.207185745239258,0.10558086633682251,2.1582064628601074,-0.22098104655742645,0.0,0.0,0.0,0.0,0.0,0.0,0.0,-0.3288934675797781,0.14918783040814554,-0.2444094234713263,0.3326047601655597,-0.12339926534651995,-0.03185244977697005,-0.2492155450132901,1.6757913248259182,0.052088746587114355,0.029975751272157614,-2.7524091487349125,0.034253514412538565,2.766365470353816,0.7691577636318073,1.6754973547542302,0.052104326824870026,0.029969505109285054,-2.752394845125968,0.0342448039870148,2.7663679543071322,0.7691630533470046,-0.0005515506173586404,0.0012021191799976363,-0.0014435344420391833,5.302630599524733e-05,0.00014754315460545754,-0.00018210628400529814,-0.0006752806555038164,0.0,0.0,0.0,0.0,0.0,0.0,0.0,-0.00029397007168796563,1.5580237755670467e-05,-6.246162872560607e-06,1.4303608944388202e-05,-8.71042552376411e-06,2.4839533163678595e-06,5.289715197309697e-06,0.0005515506173586404,-0.0012021191799976363,0.0014435344420391833,-5.302630599524733e-05,-0.00014754315460545754,0.00018210628400529814,0.0006752806555038164,0.3236324191093445,22.696680068969727,0.1253325641155243,-14.207185745239258,-0.10558086633682251,-2.1582064628601074,0.22098104655742645,0
76,0.3750114440917969,-0.4029781222343445,-22.649072647094727,-0.2007109820842743,14.179414749145508,0.10558086633682251,2.1655306816101074,-0.25485557317733765,0.0,0.0,0.0,0.0,0.0,0.0,0.0,-0.3225074445907206,0.14964124161973566,-0.23599754118658417,0.324331926200339,-0.1249011759425067,-0.03278847719715683,-0.24773789918832614,1.6757960982531828,0.052086142307062426,0.029981040985699283,-2.7524071998930815,0.03425356718868027,2.7663653498892526,0.7691615274680984,1.6754973547542302,0.052104326824870026,0.029969505109285054,-2.752394845125968,0.0342448039870148,2.7663679543071322,0.7691630533470046,0.001145602555006863,-0.00024001471204161454,0.0010285654283108752,-0.00012318454136675435,0.00010765226324457171,-0.0004628633915433295,3.8824751094339535e-05,0.0,0.0,0.0,0.0,0.0,0.0,0.0,-0.00029874349895253616,1.818451780759983e-05,-1.1535876414229401e-05,1.2354767113365028e-05,-8.763201665470954e-06,2.6044178795814332e-06,1.5258789062277955e-06,-0.001145602555006863,0.00024001471204161454,-0.0010285654283108752,0.00012318454136675435,-0.00010765226324457171,0.0004628633915433295,-3.8824751094339535e-05,0.4029781222343445,22.649072647094727,0.2007109820842743,-14.179414749145508,-0.10558086633682251,-2.1655306816101074,0.25485557317733765,0
77,0.37999939918518066,-0.4029781222343445,-22.649072647094727,-0.2007109820842743,14.179414749145508,0.10558086633682251,2.1655306816101074,-0.25485557317733765,0.0,0.0,0.0,0.0,0.0,0.0,0.0,-0.3225074445907206,0.14964124161973566,-0.23599754118658417,0.324331926200339,-0.1249011759425067,-0.03278847719715683,-0.24773789918832614,1.6757960982531828,0.052086142307062426,0.029981040985699283,-2.7524071998930815,0.03425356718868027,2.7663653498892526,0.7691615274680984,1.6754973547542302,0.052104326824870026,0.029969505109285054,-2.752394845125968,0.0342448039870148,2.7663679543071322,0.7691630533470046,0.001145602555006863,-0.00024001471204161454,0.0010285654283108752,-0.00012318454136675435,0.00010765226324457171,-0.0004628633915433295,3.8824751094339535e-05,0.0,0.0,0.0,0.0,0.0,0.0,0.0,-0.00029874349895253616,1.818451780759983e-05,-1.1535876414229401e-05,1.2354767113365028e-05,-8.763201665470954e-06,2.6044178795814332e-06,1.5258789062277955e-06,-0.001145602555006863,0.00024001471204161454,-0.0010285654283108752,0.00012318454136675435,-0.00010765226324457171,0.0004628633915433295,-3.8824751094339535e-05,0.4029781222343445,22.649072647094727,0.2007109820842743,-14.179414749145508,-0.10558086633682251,-2.1655306816101074,0.25485557317733765,0
78,0.3849954605102539,-0.4029781222343445,-22.649072647094727,-0.2007109820842743,14.179414749145508,0.10558086633682251,2.1655306816101074,-0.25485557317733765,0.0,0.0,0.0,0.0,0.0,0.0,0.0,-0.3225074445907206,0.14964124161973566,-0.23599754118658417,0.324331926200339,-0.1249011759425067,-0.03278847719715683,-0.24773789918832614,1.6757960982531828,0.052086142307062426,0.029981040985699283,-2.7524071998930815,0.03425356718868027,2.7663653498892526,0.7691615274680984,1.6754973547542302,0.052104326824870026,0.029969505109285054,-2.752394845125968,0.0342448039870148,2.7663679543071322,0.7691630533470046,0.001145602555006863,-0.00024001471204161454,0.0010285654283108752,-0.00012318454136675435,0.00010765226324457171,-0.0004628633915433295,3.8824751094339535e-05,0.0,0.0,0.0,0.0,0.0,0.0,0.0,-0.00029874349895253616,1.818451780759983e-05,-1.1535876414229401e-05,1.2354767113365028e-05,-8.763201665470954e-06,2.6044178795814332e-06,1.5258789062277955e-06,-0.001145602555006863,0.00024001471204161454,-0.0010285654283108752,0.00012318454136675435,-0.00010765226324457171,0.0004628633915433295,-3.8824751094339535e-05,0.4029781222343445,22.649072647094727,0.2007109820842743,-14.179414749145508,-0.10558086633682251,-2.1655306816101074,0.25485557317733765,0
79,0.38999342918395996,-0.4029781222343445,-22.649072647094727,-0.2007109820842743,14.179414749145508,0.10558086633682251,2.1655306816101074,-0.25485557317733765,0.0,0.0,0.0,0.0,0.0,0.0,0.0,-0.3225074445907206,0.14964124161973566,-0.23599754118658417,0.324331926200339,-0.1249011759425067,-0.03278847719715683,-0.24773789918832614,1.6757960982531828,0.052086142307062426,0.029981040985699283,-2.7524071998930815,0.03425356718868027,2.7663653498892526,0.7691615274680984,1.6754973547542302,0.052104326824870026,0.029969505109285054,-2.752394845125968,0.0342448039870148,2.7663679543071322,0.7691630533470046,0.001145602555006863,-0.00024001471204161454,0.0010285654283108752,-0.00012318454136675435,0.00010765226324457171,-0.0004628633915433295,3.8824751094339535e-05,0.0,0.0,0.0,0.0,0.0,0.0,0.0,-0.00029874349895253616,1.818451780759983e-05,-1.1535876414229401e-05,1.2354767113365028e-05,-8.763201665470954e-06,2.6044178795814332e-06,1.5258789062277955e-06,-0.001145602555006863,0.00024001471204161454,-0.0010285654283108752,0.00012318454136675435,-0.00010765226324457171,0.0004628633915433295,-3.8824751094339535e-05,0.4029781222343445,22.649072647094727,0.2007109820842743,-14.179414749145508,-0.10558086633682251,-2.1655306816101074,0.25485557317733765,0
