rezayati/contactInterpretation/dataset/franka_main/labeled_data/link3/e4_3.csv
index,time,tau_J0,tau_J1,tau_J2,tau_J3,tau_J4,tau_J5,tau_J6,tau_J_d0,tau_J_d1,tau_J_d2,tau_J_d3,tau_J_d4,tau_J_d5,tau_J_d6,tau_ext0,tau_ext1,tau_ext2,tau_ext3,tau_ext4,tau_ext5,tau_ext6,q0,q1,q2,q3,q4,q5,q6,q_d0,q_d1,q_d2,q_d3,q_d4,q_d5,q_d6,dq0,dq1,dq2,dq3,dq4,dq5,dq6,dq_d0,dq_d1,dq_d2,dq_d3,dq_d4,dq_d5,dq_d6,e0,e1,e2,e3,e4,e5,e6,de0,de1,de2,de3,de4,de5,de6,etau_J0,etau_J1,etau_J2,etau_J3,etau_J4,etau_J5,etau_J6,label
1,0.0,-0.4267818331718445,-34.11452865600586,-4.124355792999268,19.213899612426758,0.1714988350868225,1.777347207069397,-0.13217489421367645,0.0,0.0,0.0,0.0,0.0,0.0,0.0,-0.4270992089474026,-0.007744467915665571,-0.5285703353714113,0.2072793386855159,0.11873380817130816,-0.1281846524399366,-0.1564564562515418,1.0545434305488366,0.3238503449460613,-0.39249597167550465,-2.1532934579681933,0.8647530855536459,2.46587817577521,0.5444963812881892,1.0544104758940245,0.3238615046091247,-0.39250456234122666,-2.153291787532338,0.8647539153680389,2.46587817577521,0.5445020185570556,0.00034317706590566196,0.0009397518466631193,0.00042517660356540293,0.0004004994660103321,0.0001429469098010646,-8.031892070271422e-05,-0.001089563730626746,0.0,0.0,0.0,0.0,0.0,0.0,0.0,-0.00013295465481211188,1.1159663063420311e-05,-8.590665722008062e-06,1.6704358554164855e-06,8.298143929774682e-07,0.0,5.637268866376388e-06,-0.00034317706590566196,-0.0009397518466631193,-0.00042517660356540293,-0.0004004994660103321,-0.0001429469098010646,8.031892070271422e-05,0.001089563730626746,0.4267818331718445,34.11452865600586,4.124355792999268,-19.213899612426758,-0.1714988350868225,-1.777347207069397,0.13217489421367645,0
2,0.005023479461669922,-0.4267818331718445,-34.11452865600586,-4.124355792999268,19.213899612426758,0.1714988350868225,1.777347207069397,-0.13217489421367645,0.0,0.0,0.0,0.0,0.0,0.0,0.0,-0.4270992089474026,-0.007744467915665571,-0.5285703353714113,0.2072793386855159,0.11873380817130816,-0.1281846524399366,-0.1564564562515418,1.0545434305488366,0.3238503449460613,-0.39249597167550465,-2.1532934579681933,0.8647530855536459,2.46587817577521,0.5444963812881892,1.0544104758940245,0.3238615046091247,-0.39250456234122666,-2.153291787532338,0.8647539153680389,2.46587817577521,0.5445020185570556,0.00034317706590566196,0.0009397518466631193,0.00042517660356540293,0.0004004994660103321,0.0001429469098010646,-8.031892070271422e-05,-0.001089563730626746,0.0,0.0,0.0,0.0,0.0,0.0,0.0,-0.00013295465481211188,1.1159663063420311e-05,-8.590665722008062e-06,1.6704358554164855e-06,8.298143929774682e-07,0.0,5.637268866376388e-06,-0.00034317706590566196,-0.0009397518466631193,-0.00042517660356540293,-0.0004004994660103321,-0.0001429469098010646,8.031892070271422e-05,0.001089563730626746,0.4267818331718445,34.11452865600586,4.124355792999268,-19.213899612426758,-0.1714988350868225,-1.777347207069397,0.13217489421367645,0
3,0.009976387023925781,-0.4029781222343445,-34.06295394897461,-4.048977375030518,19.190095901489258,0.1834006905555725,1.783755898475647,-0.13217489421367645,0.0,0.0,0.0,0.0,0.0,0.0,0.0,-0.42808021105559546,-0.022645210084545495,-0.5365953574651742,0.218247846925455,0.11914294893423355,-0.1263844779699994,-0.15541589243575252,1.0545413483942203,0.3238488714239225,-0.39250126138904634,-2.153291787532338,0.8647517631252606,2.465877463698387,0.5444963807976935,1.0544104758940245,0.3238615046091247,-0.39250456234122666,-2.153291787532338,0.8647539153680389,2.46587817577521,0.5445020185570556,-0.0004850829431519493,-0.00026394092779452306,-0.0014162473365866711,0.0012382960575563699,-0.00041660291809982324,-0.00010610387521522375,-0.0007827153826563101,0.0,0.0,0.0,0.0,0.0,0.0,0.0,-0.0001308725001958333,1.263318520222656e-05,-3.3009521803184505e-06,0.0,2.152242778330482e-06,7.120768228396912e-07,5.637759362131511e-06,0.0004850829431519493,0.00026394092779452306,0.0014162473365866711,-0.0012382960575563699,0.00041660291809982324,0.00010610387521522375,0.0007827153826563101,0.4029781222343445,34.06295394897461,4.048977375030518,-19.190095901489258,-0.1834006905555725,-1.783755898475647,0.13217489421367645,0
4,0.015372753143310547,-0.4029781222343445,-34.06295394897461,-4.048977375030518,19.190095901489258,0.1834006905555725,1.783755898475647,-0.13217489421367645,0.0,0.0,0.0,0.0,0.0,0.0,0.0,-0.42808021105559546,-0.022645210084545495,-0.5365953574651742,0.218247846925455,0.11914294893423355,-0.1263844779699994,-0.15541589243575252,1.0545413483942203,0.3238488714239225,-0.39250126138904634,-2.153291787532338,0.8647517631252606,2.465877463698387,0.5444963807976935,1.0544104758940245,0.3238615046091247,-0.39250456234122666,-2.153291787532338,0.8647539153680389,2.46587817577521,0.5445020185570556,-0.0004850829431519493,-0.00026394092779452306,-0.0014162473365866711,0.0012382960575563699,-0.00041660291809982324,-0.00010610387521522375,-0.0007827153826563101,0.0,0.0,0.0,0.0,0.0,0.0,0.0,-0.0001308725001958333,1.263318520222656e-05,-3.3009521803184505e-06,0.0,2.152242778330482e-06,7.120768228396912e-07,5.637759362131511e-06,0.0004850829431519493,0.00026394092779452306,0.0014162473365866711,-0.0012382960575563699,0.00041660291809982324,0.00010610387521522375,0.0007827153826563101,0.4029781222343445,34.06295394897461,4.048977375030518,-19.190095901489258,-0.1834006905555725,-1.783755898475647,0.13217489421367645,0
5,0.019978046417236328,-0.4267818331718445,-34.06295394897461,-4.096584796905518,19.190095901489258,0.1714988350868225,1.770938515663147,-0.17337362468242645,0.0,0.0,0.0,0.0,0.0,0.0,0.0,-0.4319169376084084,-0.018729022240268036,-0.5407939491085599,0.21473577277684724,0.11930961472252628,-0.12590307569511014,-0.1545296063424666,1.0545428030832105,0.32384815607128176,-0.3924978942716692,-2.153291787532338,0.8647530855536459,2.465878887852033,0.5445009584344096,1.0544104758940245,0.3238615046091247,-0.39250456234122666,-2.153291787532338,0.8647539153680389,2.46587817577521,0.5445020185570556,-0.0003517048387119108,-0.00030741725424861705,-0.0005956702380488448,0.0012227310048794442,9.804997004718782e-06,0.00023519970283816986,7.757198303449419e-05,0.0,0.0,0.0,0.0,0.0,0.0,0.0,-0.00013232718918598785,1.3348537842960972e-05,-6.668069557458356e-06,0.0,8.298143929774682e-07,-7.120768228396912e-07,1.0601226460016377e-06,0.0003517048387119108,0.00030741725424861705,0.0005956702380488448,-0.0012227310048794442,-9.804997004718782e-06,-0.00023519970283816986,-7.757198303449419e-05,0.4267818331718445,34.06295394897461,4.096584796905518,-19.190095901489258,-0.1714988350868225,-1.770938515663147,0.17337362468242645,0
6,0.02498936653137207,-0.4267818331718445,-34.06295394897461,-4.096584796905518,19.190095901489258,0.1714988350868225,1.770938515663147,-0.17337362468242645,0.0,0.0,0.0,0.0,0.0,0.0,0.0,-0.4319169376084084,-0.018729022240268036,-0.5407939491085599,0.21473577277684724,0.11930961472252628,-0.12590307569511014,-0.1545296063424666,1.0545428030832105,0.32384815607128176,-0.3924978942716692,-2.153291787532338,0.8647530855536459,2.465878887852033,0.5445009584344096,1.0544104758940245,0.3238615046091247,-0.39250456234122666,-2.153291787532338,0.8647539153680389,2.46587817577521,0.5445020185570556,-0.0003517048387119108,-0.00030741725424861705,-0.0005956702380488448,0.0012227310048794442,9.804997004718782e-06,0.00023519970283816986,7.757198303449419e-05,0.0,0.0,0.0,0.0,0.0,0.0,0.0,-0.00013232718918598785,1.3348537842960972e-05,-6.668069557458356e-06,0.0,8.298143929774682e-07,-7.120768228396912e-07,1.0601226460016377e-06,0.0003517048387119108,0.00030741725424861705,0.0005956702380488448,-0.0012227310048794442,-9.804997004718782e-06,-0.00023519970283816986,-7.757198303449419e-05,0.4267818331718445,34.06295394897461,4.096584796905518,-19.190095901489258,-0.1714988350868225,-1.770938515663147,0.17337362468242645,0
7,0.029985666275024414,-0.3752071261405945,-34.09072494506836,-4.124355792999268,19.237703323364258,0.1714988350868225,1.770938515663147,-0.17337362468242645,0.0,0.0,0.0,0.0,0.0,0.0,0.0,-0.41373443764917467,-0.02022920530801823,-0.5243736903233388,0.21399602082685865,0.11821137640766961,-0.12743034366971132,-0.1557104094351765,1.0545391522622658,0.3238508202738283,-0.39249597167535655,-2.1532951284040482,0.8647530855536459,2.465878887852033,0.5445041373487977,1.0544104758940245,0.3238615046091247,-0.39250456234122666,-2.153291787532338,0.8647539153680389,2.46587817577521,0.5445020185570556,-0.000809495700571034,-0.00014759524596971818,0.0011689778141882664,3.841916068937812e-05,8.17571446376673e-06,0.000287373815002935,0.0004557189281015817,0.0,0.0,0.0,0.0,0.0,0.0,0.0,-0.00012867636824132056,1.0684335296440306e-05,-8.590665870111813e-06,3.340871710388882e-06,8.298143929774682e-07,-7.120768228396912e-07,-2.118791742056203e-06,0.000809495700571034,0.00014759524596971818,-0.0011689778141882664,-3.841916068937812e-05,-8.17571446376673e-06,-0.000287373815002935,-0.0004557189281015817,0.3752071261405945,34.09072494506836,4.124355792999268,-19.237703323364258,-0.1714988350868225,-1.770938515663147,0.17337362468242645,0
8,0.034984588623046875,-0.3752071261405945,-34.09072494506836,-4.124355792999268,19.237703323364258,0.1714988350868225,1.770938515663147,-0.17337362468242645,0.0,0.0,0.0,0.0,0.0,0.0,0.0,-0.41373443764917467,-0.02022920530801823,-0.5243736903233388,0.21399602082685865,0.11821137640766961,-0.12743034366971132,-0.1557104094351765,1.0545391522622658,0.3238508202738283,-0.39249597167535655,-2.1532951284040482,0.8647530855536459,2.465878887852033,0.5445041373487977,1.0544104758940245,0.3238615046091247,-0.39250456234122666,-2.153291787532338,0.8647539153680389,2.46587817577521,0.5445020185570556,-0.000809495700571034,-0.00014759524596971818,0.0011689778141882664,3.841916068937812e-05,8.17571446376673e-06,0.000287373815002935,0.0004557189281015817,0.0,0.0,0.0,0.0,0.0,0.0,0.0,-0.00012867636824132056,1.0684335296440306e-05,-8.590665870111813e-06,3.340871710388882e-06,8.298143929774682e-07,-7.120768228396912e-07,-2.118791742056203e-06,0.000809495700571034,0.00014759524596971818,-0.0011689778141882664,-3.841916068937812e-05,-8.17571446376673e-06,-0.000287373815002935,-0.0004557189281015817,0.3752071261405945,34.09072494506836,4.124355792999268,-19.237703323364258,-0.1714988350868225,-1.770938515663147,0.17337362468242645,0
9,0.039983272552490234,-0.4505855441093445,-34.09072494506836,-4.124355792999268,19.237703323364258,0.1595969796180725,1.770938515663147,-0.12485067546367645,0.0,0.0,0.0,0.0,0.0,0.0,0.0,-0.43042911997177413,-0.014788001569324971,-0.5388847487354306,0.20829556631310517,0.11876651924423863,-0.12633551783175584,-0.15500200268828995,1.0545443603883924,0.3238508202778665,-0.3924959687593195,-2.1532951284417328,0.8647544123426822,2.465878887852033,0.5444959202262624,1.0544104758940245,0.3238615046091247,-0.39250456234122666,-2.153291787532338,0.8647539153680389,2.46587817577521,0.5445020185570556,0.0007485565563961587,0.000385690769654888,0.00028238559454310666,-0.00012553600873216553,0.0006380079788516201,0.00017967035214429817,-0.0015245685812391337,0.0,0.0,0.0,0.0,0.0,0.0,0.0,-0.0001338844943679085,1.0684331258226099e-05,-8.593581907134773e-06,3.3409093949110513e-06,-4.969746433269862e-07,-7.120768228396912e-07,6.098330793236073e-06,-0.0007485565563961587,-0.000385690769654888,-0.00028238559454310666,0.00012553600873216553,-0.0006380079788516201,-0.00017967035214429817,0.0015245685812391337,0.4505855441093445,34.09072494506836,4.124355792999268,-19.237703323364258,-0.1595969796180725,-1.770938515663147,0.12485067546367645,0
10,0.04498171806335449,-0.4505855441093445,-34.09072494506836,-4.124355792999268,19.237703323364258,0.1595969796180725,1.770938515663147,-0.12485067546367645,0.0,0.0,0.0,0.0,0.0,0.0,0.0,-0.43042911997177413,-0.014788001569324971,-0.5388847487354306,0.20829556631310517,0.11876651924423863,-0.12633551783175584,-0.15500200268828995,1.0545443603883924,0.3238508202778665,-0.3924959687593195,-2.1532951284417328,0.8647544123426822,2.465878887852033,0.5444959202262624,1.0544104758940245,0.3238615046091247,-0.39250456234122666,-2.153291787532338,0.8647539153680389,2.46587817577521,0.5445020185570556,0.0007485565563961587,0.000385690769654888,0.00028238559454310666,-0.00012553600873216553,0.0006380079788516201,0.00017967035214429817,-0.0015245685812391337,0.0,0.0,0.0,0.0,0.0,0.0,0.0,-0.0001338844943679085,1.0684331258226099e-05,-8.593581907134773e-06,3.3409093949110513e-06,-4.969746433269862e-07,-7.120768228396912e-07,6.098330793236073e-06,-0.0007485565563961587,-0.000385690769654888,-0.00028238559454310666,0.00012553600873216553,-0.0006380079788516201,-0.00017967035214429817,0.0015245685812391337,0.4505855441093445,34.09072494506836,4.124355792999268,-19.237703323364258,-0.1595969796180725,-1.770938515663147,0.12485067546367645,0
11,0.04997849464416504,-0.4029781222343445,-34.03915023803711,-4.096584796905518,19.237703323364258,0.1714988350868225,1.770938515663147,-0.18710653483867645,0.0,0.0,0.0,0.0,0.0,0.0,0.0,-0.4277147538634076,-0.018245700552605375,-0.5374355559975176,0.20794438540409402,0.11859571927789947,-0.12702883451020383,-0.15473446592811418,1.0545412781458783,0.3238443399772309,-0.39249792051731935,-2.153295375652945,0.8647530855536706,2.465878887852033,0.544502484369145,1.0544104758940245,0.3238615046091247,-0.39250456234122666,-2.153291787532338,0.8647539153680389,2.46587817577521,0.5445020185570556,-0.001053535749602512,-0.0012409208393384004,8.305215601143465e-05,-0.00032135251275056787,-0.00021898331110567433,8.991553690193254e-05,0.0010978683701559615,0.0,0.0,0.0,0.0,0.0,0.0,0.0,-0.000130802251853801,1.7164631893828997e-05,-6.641823907305167e-06,3.5881206073007377e-06,8.29814368330517e-07,-7.120768228396912e-07,-4.658120893452633e-07,0.001053535749602512,0.0012409208393384004,-8.305215601143465e-05,0.00032135251275056787,0.00021898331110567433,-8.991553690193254e-05,-0.0010978683701559615,0.4029781222343445,34.03915023803711,4.096584796905518,-19.237703323364258,-0.1714988350868225,-1.770938515663147,0.18710653483867645,0
12,0.054930925369262695,-0.4029781222343445,-34.03915023803711,-4.096584796905518,19.237703323364258,0.1714988350868225,1.770938515663147,-0.18710653483867645,0.0,0.0,0.0,0.0,0.0,0.0,0.0,-0.4277147538634076,-0.018245700552605375,-0.5374355559975176,0.20794438540409402,0.11859571927789947,-0.12702883451020383,-0.15473446592811418,1.0545412781458783,0.3238443399772309,-0.39249792051731935,-2.153295375652945,0.8647530855536706,2.465878887852033,0.544502484369145,1.0544104758940245,0.3238615046091247,-0.39250456234122666,-2.153291787532338,0.8647539153680389,2.46587817577521,0.5445020185570556,-0.001053535749602512,-0.0012409208393384004,8.305215601143465e-05,-0.00032135251275056787,-0.00021898331110567433,8.991553690193254e-05,0.0010978683701559615,0.0,0.0,0.0,0.0,0.0,0.0,0.0,-0.000130802251853801,1.7164631893828997e-05,-6.641823907305167e-06,3.5881206073007377e-06,8.29814368330517e-07,-7.120768228396912e-07,-4.658120893452633e-07,0.001053535749602512,0.0012409208393384004,-8.305215601143465e-05,0.00032135251275056787,0.00021898331110567433,-8.991553690193254e-05,-0.0010978683701559615,0.4029781222343445,34.03915023803711,4.096584796905518,-19.237703323364258,-0.1714988350868225,-1.770938515663147,0.18710653483867645,0
13,0.05997729301452637,-0.4505855441093445,-34.11452865600586,-4.124355792999268,19.213899612426758,0.1714988350868225,1.796573281288147,-0.18710653483867645,0.0,0.0,0.0,0.0,0.0,0.0,0.0,-0.4215918315136759,-0.01884869330958913,-0.5307160192730082,0.2087383438126064,0.11772480323223783,-0.12765134721973537,-0.15467348934122044,1.0545466699676789,0.32385249069757127,-0.39249597167550465,-2.1532934579695886,0.8647530856074812,2.4658760395447414,0.5445029552635958,1.0544104758940245,0.3238615046091247,-0.39250456234122666,-2.153291787532338,0.8647539153680389,2.46587817577521,0.5445020185570556,0.0009594788633887097,0.0007113099773118344,0.0005180229622350909,0.0008151564505668647,-0.00014134378085389914,-0.0007292505434146727,0.0016977237232498896,0.0,0.0,0.0,0.0,0.0,0.0,0.0,-0.0001361940736543943,9.013911553445997e-06,-8.590665722008062e-06,1.6704372507447829e-06,8.297605577078926e-07,2.1362304685190736e-06,-9.367065402221542e-07,-0.0009594788633887097,-0.0007113099773118344,-0.0005180229622350909,-0.0008151564505668647,0.00014134378085389914,0.0007292505434146727,-0.0016977237232498896,0.4505855441093445,34.11452865600586,4.124355792999268,-19.213899612426758,-0.1714988350868225,-1.796573281288147,0.18710653483867645,0
14,0.06499314308166504,-0.4505855441093445,-34.11452865600586,-4.124355792999268,19.213899612426758,0.1714988350868225,1.796573281288147,-0.18710653483867645,0.0,0.0,0.0,0.0,0.0,0.0,0.0,-0.4215918315136759,-0.01884869330958913,-0.5307160192730082,0.2087383438126064,0.11772480323223783,-0.12765134721973537,-0.15467348934122044,1.0545466699676789,0.32385249069757127,-0.39249597167550465,-2.1532934579695886,0.8647530856074812,2.4658760395447414,0.5445029552635958,1.0544104758940245,0.3238615046091247,-0.39250456234122666,-2.153291787532338,0.8647539153680389,2.46587817577521,0.5445020185570556,0.0009594788633887097,0.0007113099773118344,0.0005180229622350909,0.0008151564505668647,-0.00014134378085389914,-0.0007292505434146727,0.0016977237232498896,0.0,0.0,0.0,0.0,0.0,0.0,0.0,-0.0001361940736543943,9.013911553445997e-06,-8.590665722008062e-06,1.6704372507447829e-06,8.297605577078926e-07,2.1362304685190736e-06,-9.367065402221542e-07,-0.0009594788633887097,-0.0007113099773118344,-0.0005180229622350909,-0.0008151564505668647,0.00014134378085389914,0.0007292505434146727,-0.0016977237232498896,0.4505855441093445,34.11452865600586,4.124355792999268,-19.213899612426758,-0.1714988350868225,-1.796573281288147,0.18710653483867645,0
15,0.06998443603515625,-0.4267818331718445,-34.06295394897461,-4.072781085968018,19.261507034301758,0.1834006905555725,1.777347207069397,-0.13858358561992645,0.0,0.0,0.0,0.0,0.0,0.0,0.0,-0.41763387861236856,-0.008087845263342545,-0.5253552929845766,0.20467628712588118,0.11750626523169325,-0.12936130005853907,-0.15456653527611242,1.0545449510345786,0.3238488709999703,-0.3924995909531911,-2.1532967988399037,0.8647517631252607,2.46587817577521,0.5444970928753998,1.0544104758940245,0.3238615046091247,-0.39250456234122666,-2.153291787532338,0.8647539153680389,2.46587817577521,0.5445020185570556,-0.00018949939313131527,6.231382139151981e-05,-0.00011281994134397142,-0.0006314640241637592,-0.0004630814888887644,1.4709305374947096e-05,-0.0007664722121241581,0.0,0.0,0.0,0.0,0.0,0.0,0.0,-0.00013447514055409115,1.2633609154433234e-05,-4.971388035568403e-06,5.011307565805367e-06,2.1522427782194598e-06,0.0,4.925681655776337e-06,0.00018949939313131527,-6.231382139151981e-05,0.00011281994134397142,0.0006314640241637592,0.0004630814888887644,-1.4709305374947096e-05,0.0007664722121241581,0.4267818331718445,34.06295394897461,4.072781085968018,-19.261507034301758,-0.1834006905555725,-1.777347207069397,0.13858358561992645,0
16,0.07499003410339355,-0.4267818331718445,-34.06295394897461,-4.072781085968018,19.261507034301758,0.1834006905555725,1.777347207069397,-0.13858358561992645,0.0,0.0,0.0,0.0,0.0,0.0,0.0,-0.41763387861236856,-0.008087845263342545,-0.5253552929845766,0.20467628712588118,0.11750626523169325,-0.12936130005853907,-0.15456653527611242,1.0545449510345786,0.3238488709999703,-0.3924995909531911,-2.1532967988399037,0.8647517631252607,2.46587817577521,0.5444970928753998,1.0544104758940245,0.3238615046091247,-0.39250456234122666,-2.153291787532338,0.8647539153680389,2.46587817577521,0.5445020185570556,-0.00018949939313131527,6.231382139151981e-05,-0.00011281994134397142,-0.0006314640241637592,-0.0004630814888887644,1.4709305374947096e-05,-0.0007664722121241581,0.0,0.0,0.0,0.0,0.0,0.0,0.0,-0.00013447514055409115,1.2633609154433234e-05,-4.971388035568403e-06,5.011307565805367e-06,2.1522427782194598e-06,0.0,4.925681655776337e-06,0.00018949939313131527,-6.231382139151981e-05,0.00011281994134397142,0.0006314640241637592,0.0004630814888887644,-1.4709305374947096e-05,0.0007664722121241581,0.4267818331718445,34.06295394897461,4.072781085968018,-19.261507034301758,-0.1834006905555725,-1.777347207069397,0.13858358561992645,0
17,0.07998800277709961,-0.4029781222343445,-34.09072494506836,-4.096584796905518,19.213899612426758,0.1650901436805725,1.763614296913147,-0.18710653483867645,0.0,0.0,0.0,0.0,0.0,0.0,0.0,-0.43063089630646445,-0.021844833586727445,-0.5359936854561315,0.2138432401989822,0.11841240941800879,-0.12752542508528092,-0.1553909919026806,1.054541764667293,0.32385010196967123,-0.39249768430633614,-2.1532941997148836,0.864753797630469,2.4658797016541163,0.544502484367151,1.0544104758940245,0.3238615046091247,-0.39250456234122666,-2.153291787532338,0.8647539153680389,2.46587817577521,0.5445020185570556,-0.0006560905301267117,-6.414935818330081e-05,-0.00019961790663085491,0.0006386030046035481,0.00020173752124427722,0.0004438340737207398,0.0007580499978886234,0.0,0.0,0.0,0.0,0.0,0.0,0.0,-0.00013128877326851196,1.1402639453483854e-05,-6.878034890522855e-06,2.4121825457079638e-06,1.1773756991573237e-07,-1.5258789063388178e-06,-4.658100953847111e-07,0.0006560905301267117,6.414935818330081e-05,0.00019961790663085491,-0.0006386030046035481,-0.00020173752124427722,-0.0004438340737207398,-0.0007580499978886234,0.4029781222343445,34.09072494506836,4.096584796905518,-19.213899612426758,-0.1650901436805725,-1.763614296913147,0.18710653483867645,0
18,0.0849757194519043,-0.4029781222343445,-34.09072494506836,-4.096584796905518,19.213899612426758,0.1650901436805725,1.763614296913147,-0.18710653483867645,0.0,0.0,0.0,0.0,0.0,0.0,0.0,-0.43063089630646445,-0.021844833586727445,-0.5359936854561315,0.2138432401989822,0.11841240941800879,-0.12752542508528092,-0.1553909919026806,1.054541764667293,0.32385010196967123,-0.39249768430633614,-2.1532941997148836,0.864753797630469,2.4658797016541163,0.544502484367151,1.0544104758940245,0.3238615046091247,-0.39250456234122666,-2.153291787532338,0.8647539153680389,2.46587817577521,0.5445020185570556,-0.0006560905301267117,-6.414935818330081e-05,-0.00019961790663085491,0.0006386030046035481,0.00020173752124427722,0.0004438340737207398,0.0007580499978886234,0.0,0.0,0.0,0.0,0.0,0.0,0.0,-0.00013128877326851196,1.1402639453483854e-05,-6.878034890522855e-06,2.4121825457079638e-06,1.1773756991573237e-07,-1.5258789063388178e-06,-4.658100953847111e-07,0.0006560905301267117,6.414935818330081e-05,0.00019961790663085491,-0.0006386030046035481,-0.00020173752124427722,-0.0004438340737207398,-0.0007580499978886234,0.4029781222343445,34.09072494506836,4.096584796905518,-19.213899612426758,-0.1650901436805725,-1.763614296913147,0.18710653483867645,0
19,0.09002375602722168,-0.4029781222343445,-34.09072494506836,-4.096584796905518,19.213899612426758,0.1834006905555725,1.763614296913147,-0.13217489421367645,0.0,0.0,0.0,0.0,0.0,0.0,0.0,-0.42782444028108024,-0.015880712937419227,-0.5311910587005927,0.21225969099033618,0.11824344774889795,-0.1282663510522906,-0.15609889911424438,1.0545410498942442,0.3238507368763663,-0.39249789427033577,-2.15329345797238,0.8647517631790959,2.4658797016541163,0.5444995611656294,1.0544104758940245,0.3238615046091247,-0.39250456234122666,-2.153291787532338,0.8647539153680389,2.46587817577521,0.5445020185570556,-0.0008448916728693774,7.729822832223234e-05,0.0001999018273382172,0.0009963844283286758,-0.0003834280282611455,0.0004044166178792712,-0.0012007254946642192,0.0,0.0,0.0,0.0,0.0,0.0,0.0,-0.00013057400021976306,1.0767732758432125e-05,-6.66807089089172e-06,1.670440042289556e-06,2.1521889430609065e-06,-1.5258789063388178e-06,2.457391426236022e-06,0.0008448916728693774,-7.729822832223234e-05,-0.0001999018273382172,-0.0009963844283286758,0.0003834280282611455,-0.0004044166178792712,0.0012007254946642192,0.4029781222343445,34.09072494506836,4.096584796905518,-19.213899612426758,-0.1834006905555725,-1.763614296913147,0.13217489421367645,0
20,0.09500241279602051,-0.4029781222343445,-34.09072494506836,-4.096584796905518,19.213899612426758,0.1834006905555725,1.763614296913147,-0.13217489421367645,0.0,0.0,0.0,0.0,0.0,0.0,0.0,-0.42782444028108024,-0.015880712937419227,-0.5311910587005927,0.21225969099033618,0.11824344774889795,-0.1282663510522906,-0.15609889911424438,1.0545410498942442,0.3238507368763663,-0.39249789427033577,-2.15329345797238,0.8647517631790959,2.4658797016541163,0.5444995611656294,1.0544104758940245,0.3238615046091247,-0.39250456234122666,-2.153291787532338,0.8647539153680389,2.46587817577521,0.5445020185570556,-0.0008448916728693774,7.729822832223234e-05,0.0001999018273382172,0.0009963844283286758,-0.0003834280282611455,0.0004044166178792712,-0.0012007254946642192,0.0,0.0,0.0,0.0,0.0,0.0,0.0,-0.00013057400021976306,1.0767732758432125e-05,-6.66807089089172e-06,1.670440042289556e-06,2.1521889430609065e-06,-1.5258789063388178e-06,2.457391426236022e-06,0.0008448916728693774,-7.729822832223234e-05,-0.0001999018273382172,-0.0009963844283286758,0.0003834280282611455,-0.0004044166178792712,0.0012007254946642192,0.4029781222343445,34.09072494506836,4.096584796905518,-19.213899612426758,-0.1834006905555725,-1.763614296913147,0.13217489421367645,0
21,0.09999370574951172,-0.4505855441093445,-34.09072494506836,-4.096584796905518,19.213899612426758,0.1834006905555725,1.763614296913147,-0.20083944499492645,0.0,0.0,0.0,0.0,0.0,0.0,0.0,-0.4305520642069355,-0.007609543284969981,-0.53140252072492,0.20391913489087068,0.11833410534163745,-0.1290679207807576,-0.15609741416820175,1.0545474117130809,0.3238508202773957,-0.3924979205171876,-2.1532934579681933,0.8647517631252609,2.4658797016541163,0.5445040102640105,1.0544104758940245,0.3238615046091247,-0.39250456234122666,-2.153291787532338,0.8647539153680389,2.46587817577521,0.5445020185570556,0.0005011311311629404,0.0005941308003632229,3.439076993679793e-05,4.408926345518768e-05,-0.00038634054878507017,0.0006067384210105171,0.0020057863302732014,0.0,0.0,0.0,0.0,0.0,0.0,0.0,-0.00013693581905638297,1.0684331729016172e-05,-6.6418240390331285e-06,1.6704358554164855e-06,2.152242777997415e-06,-1.5258789063388178e-06,-1.9917069549180155e-06,-0.0005011311311629404,-0.0005941308003632229,-3.439076993679793e-05,-4.408926345518768e-05,0.00038634054878507017,-0.0006067384210105171,-0.0020057863302732014,0.4505855441093445,34.09072494506836,4.096584796905518,-19.213899612426758,-0.1834006905555725,-1.763614296913147,0.20083944499492645,0
22,0.10498809814453125,-0.4505855441093445,-34.09072494506836,-4.096584796905518,19.213899612426758,0.1834006905555725,1.763614296913147,-0.20083944499492645,0.0,0.0,0.0,0.0,0.0,0.0,0.0,-0.4305520642069355,-0.007609543284969981,-0.53140252072492,0.20391913489087068,0.11833410534163745,-0.1290679207807576,-0.15609741416820175,1.0545474117130809,0.3238508202773957,-0.3924979205171876,-2.1532934579681933,0.8647517631252609,2.4658797016541163,0.5445040102640105,1.0544104758940245,0.3238615046091247,-0.39250456234122666,-2.153291787532338,0.8647539153680389,2.46587817577521,0.5445020185570556,0.0005011311311629404,0.0005941308003632229,3.439076993679793e-05,4.408926345518768e-05,-0.00038634054878507017,0.0006067384210105171,0.0020057863302732014,0.0,0.0,0.0,0.0,0.0,0.0,0.0,-0.00013693581905638297,1.0684331729016172e-05,-6.6418240390331285e-06,1.6704358554164855e-06,2.152242777997415e-06,-1.5258789063388178e-06,-1.9917069549180155e-06,-0.0005011311311629404,-0.0005941308003632229,-3.439076993679793e-05,-4.408926345518768e-05,0.00038634054878507017,-0.0006067384210105171,-0.0020057863302732014,0.4505855441093445,34.09072494506836,4.096584796905518,-19.213899612426758,-0.1834006905555725,-1.763614296913147,0.20083944499492645,0
23,0.10998678207397461,-0.4505855441093445,-34.09072494506836,-4.096584796905518,19.213899612426758,0.1834006905555725,1.763614296913147,-0.20083944499492645,0.0,0.0,0.0,0.0,0.0,0.0,0.0,-0.4305520642069355,-0.007609543284969981,-0.53140252072492,0.20391913489087068,0.11833410534163745,-0.1290679207807576,-0.15609741416820175,1.0545474117130809,0.3238508202773957,-0.3924979205171876,-2.1532934579681933,0.8647517631252609,2.4658797016541163,0.5445040102640105,1.0544104758940245,0.3238615046091247,-0.39250456234122666,-2.153291787532338,0.8647539153680389,2.46587817577521,0.5445020185570556,0.0005011311311629404,0.0005941308003632229,3.439076993679793e-05,4.408926345518768e-05,-0.00038634054878507017,0.0006067384210105171,0.0020057863302732014,0.0,0.0,0.0,0.0,0.0,0.0,0.0,-0.00013693581905638297,1.0684331729016172e-05,-6.6418240390331285e-06,1.6704358554164855e-06,2.152242777997415e-06,-1.5258789063388178e-06,-1.9917069549180155e-06,-0.0005011311311629404,-0.0005941308003632229,-3.439076993679793e-05,-4.408926345518768e-05,0.00038634054878507017,-0.0006067384210105171,-0.0020057863302732014,0.4505855441093445,34.09072494506836,4.096584796905518,-19.213899612426758,-0.1834006905555725,-1.763614296913147,0.20083944499492645,0
24,0.11501336097717285,-0.4505855441093445,-34.09072494506836,-4.096584796905518,19.213899612426758,0.1834006905555725,1.763614296913147,-0.20083944499492645,0.0,0.0,0.0,0.0,0.0,0.0,0.0,-0.4305520642069355,-0.007609543284969981,-0.53140252072492,0.20391913489087068,0.11833410534163745,-0.1290679207807576,-0.15609741416820175,1.0545474117130809,0.3238508202773957,-0.3924979205171876,-2.1532934579681933,0.8647517631252609,2.4658797016541163,0.5445040102640105,1.0544104758940245,0.3238615046091247,-0.39250456234122666,-2.153291787532338,0.8647539153680389,2.46587817577521,0.5445020185570556,0.0005011311311629404,0.0005941308003632229,3.439076993679793e-05,4.408926345518768e-05,-0.00038634054878507017,0.0006067384210105171,0.0020057863302732014,0.0,0.0,0.0,0.0,0.0,0.0,0.0,-0.00013693581905638297,1.0684331729016172e-05,-6.6418240390331285e-06,1.6704358554164855e-06,2.152242777997415e-06,-1.5258789063388178e-06,-1.9917069549180155e-06,-0.0005011311311629404,-0.0005941308003632229,-3.439076993679793e-05,-4.408926345518768e-05,0.00038634054878507017,-0.0006067384210105171,-0.0020057863302732014,0.4505855441093445,34.09072494506836,4.096584796905518,-19.213899612426758,-0.1834006905555725,-1.763614296913147,0.20083944499492645,0
25,0.11998105049133301,-0.4029781222343445,-34.11452865600586,-4.124355792999268,19.289278030395508,0.1650901436805725,1.783755898475647,-0.19351522624492645,0.0,0.0,0.0,0.0,0.0,0.0,0.0,-0.4330825817331629,-0.02270805268490503,-0.5352771580259785,0.21294142680797468,0.11855393523250102,-0.1274502300635704,-0.15663606641644517,1.0545410280124892,0.3238521639556265,-0.39249597167550465,-2.1532988300980334,0.8647537971338393,2.465877463698387,0.5445032007507898,1.0544104758940245,0.3238615046091247,-0.39250456234122666,-2.153291787532338,0.8647539153680389,2.46587817577521,0.5445020185570556,-0.0005966579157439087,0.0005973100180550518,0.0007276270617538438,-0.0010420098407350974,0.00037598610950195235,-0.00032818895847692666,0.0015861156435666986,0.0,0.0,0.0,0.0,0.0,0.0,0.0,-0.0001305521184646885,9.340653498224327e-06,-8.590665722008062e-06,7.0425656955031e-06,1.182341996530667e-07,7.120768228396912e-07,-1.182193734239334e-06,0.0005966579157439087,-0.0005973100180550518,-0.0007276270617538438,0.0010420098407350974,-0.00037598610950195235,0.00032818895847692666,-0.0015861156435666986,0.4029781222343445,34.11452865600586,4.124355792999268,-19.289278030395508,-0.1650901436805725,-1.783755898475647,0.19351522624492645,0
26,0.12499642372131348,-0.4029781222343445,-34.11452865600586,-4.124355792999268,19.289278030395508,0.1650901436805725,1.783755898475647,-0.19351522624492645,0.0,0.0,0.0,0.0,0.0,0.0,0.0,-0.4330825817331629,-0.02270805268490503,-0.5352771580259785,0.21294142680797468,0.11855393523250102,-0.1274502300635704,-0.15663606641644517,1.0545410280124892,0.3238521639556265,-0.39249597167550465,-2.1532988300980334,0.8647537971338393,2.465877463698387,0.5445032007507898,1.0544104758940245,0.3238615046091247,-0.39250456234122666,-2.153291787532338,0.8647539153680389,2.46587817577521,0.5445020185570556,-0.0005966579157439087,0.0005973100180550518,0.0007276270617538438,-0.0010420098407350974,0.00037598610950195235,-0.00032818895847692666,0.0015861156435666986,0.0,0.0,0.0,0.0,0.0,0.0,0.0,-0.0001305521184646885,9.340653498224327e-06,-8.590665722008062e-06,7.0425656955031e-06,1.182341996530667e-07,7.120768228396912e-07,-1.182193734239334e-06,0.0005966579157439087,-0.0005973100180550518,-0.0007276270617538438,0.0010420098407350974,-0.00037598610950195235,0.00032818895847692666,-0.0015861156435666986,0.4029781222343445,34.11452865600586,4.124355792999268,-19.289278030395508,-0.1650901436805725,-1.783755898475647,0.19351522624492645,0
27,0.13001275062561035,-0.4267818331718445,-34.13833236694336,-4.096584796905518,19.261507034301758,0.1714988350868225,1.777347207069397,-0.13858358561992645,0.0,0.0,0.0,0.0,0.0,0.0,0.0,-0.4279874243430201,-0.016822203830601398,-0.5315523020120396,0.2087603981620376,0.11826099766909846,-0.1281235660281986,-0.15704037191384504,1.0545434621103165,0.3238541610387162,-0.3924979205173358,-2.1532967988403686,0.8647530855536432,2.46587817577521,0.5444970928745383,1.0544104758940245,0.3238615046091247,-0.39250456234122666,-2.153291787532338,0.8647539153680389,2.46587817577521,0.5445020185570556,-0.00010502300869510598,0.0009653015084334185,0.00031191826828523,-0.0006533515388144837,-3.9153776807305535e-05,3.051340651923748e-06,-0.0008563380738818867,0.0,0.0,0.0,0.0,0.0,0.0,0.0,-0.00013298621629198593,7.343570408491207e-06,-6.641823890873866e-06,5.01130803076677e-06,8.298143957530257e-07,0.0,4.925682517309404e-06,0.00010502300869510598,-0.0009653015084334185,-0.00031191826828523,0.0006533515388144837,3.9153776807305535e-05,-3.051340651923748e-06,0.0008563380738818867,0.4267818331718445,34.13833236694336,4.096584796905518,-19.261507034301758,-0.1714988350868225,-1.777347207069397,0.13858358561992645,0
28,0.13504672050476074,-0.4267818331718445,-34.13833236694336,-4.096584796905518,19.261507034301758,0.1714988350868225,1.777347207069397,-0.13858358561992645,0.0,0.0,0.0,0.0,0.0,0.0,0.0,-0.4279874243430201,-0.016822203830601398,-0.5315523020120396,0.2087603981620376,0.11826099766909846,-0.1281235660281986,-0.15704037191384504,1.0545434621103165,0.3238541610387162,-0.3924979205173358,-2.1532967988403686,0.8647530855536432,2.46587817577521,0.5444970928745383,1.0544104758940245,0.3238615046091247,-0.39250456234122666,-2.153291787532338,0.8647539153680389,2.46587817577521,0.5445020185570556,-0.00010502300869510598,0.0009653015084334185,0.00031191826828523,-0.0006533515388144837,-3.9153776807305535e-05,3.051340651923748e-06,-0.0008563380738818867,0.0,0.0,0.0,0.0,0.0,0.0,0.0,-0.00013298621629198593,7.343570408491207e-06,-6.641823890873866e-06,5.01130803076677e-06,8.298143957530257e-07,0.0,4.925682517309404e-06,0.00010502300869510598,-0.0009653015084334185,-0.00031191826828523,0.0006533515388144837,3.9153776807305535e-05,-3.051340651923748e-06,0.0008563380738818867,0.4267818331718445,34.13833236694336,4.096584796905518,-19.261507034301758,-0.1714988350868225,-1.777347207069397,0.13858358561992645,0
29,0.1400010585784912,-0.4505855441093445,-34.09072494506836,-4.072781085968018,19.237703323364258,0.1714988350868225,1.770938515663147,-0.17337362468242645,0.0,0.0,0.0,0.0,0.0,0.0,0.0,-0.43445280256697344,-0.017456575755682033,-0.5365036350535841,0.2057393860096175,0.11788552168200953,-0.12796482003325413,-0.1573308340624526,1.0545466131015517,0.3238508202778663,-0.3924995909531911,-2.153295210820347,0.8647530860381627,2.465878887852033,0.5445009715163618,1.0544104758940245,0.3238615046091247,-0.39250456234122666,-2.153291787532338,0.8647539153680389,2.46587817577521,0.5445020185570556,0.0002846263381501092,-3.788164859790698e-05,-0.0004803850640691232,-7.11406616633334e-05,0.00011522999083601902,0.0003002137293166674,0.0005443744550084986,0.0,0.0,0.0,0.0,0.0,0.0,0.0,-0.00013613720752725378,1.0684331258392632e-05,-4.971388035568403e-06,3.423288009063441e-06,8.293298762174217e-07,-7.120768228396912e-07,1.0470406938134502e-06,-0.0002846263381501092,3.788164859790698e-05,0.0004803850640691232,7.11406616633334e-05,-0.00011522999083601902,-0.0003002137293166674,-0.0005443744550084986,0.4505855441093445,34.09072494506836,4.072781085968018,-19.237703323364258,-0.1714988350868225,-1.770938515663147,0.17337362468242645,0
30,0.14497852325439453,-0.4505855441093445,-34.09072494506836,-4.072781085968018,19.237703323364258,0.1714988350868225,1.770938515663147,-0.17337362468242645,0.0,0.0,0.0,0.0,0.0,0.0,0.0,-0.43445280256697344,-0.017456575755682033,-0.5365036350535841,0.2057393860096175,0.11788552168200953,-0.12796482003325413,-0.1573308340624526,1.0545466131015517,0.3238508202778663,-0.3924995909531911,-2.153295210820347,0.8647530860381627,2.465878887852033,0.5445009715163618,1.0544104758940245,0.3238615046091247,-0.39250456234122666,-2.153291787532338,0.8647539153680389,2.46587817577521,0.5445020185570556,0.0002846263381501092,-3.788164859790698e-05,-0.0004803850640691232,-7.11406616633334e-05,0.00011522999083601902,0.0003002137293166674,0.0005443744550084986,0.0,0.0,0.0,0.0,0.0,0.0,0.0,-0.00013613720752725378,1.0684331258392632e-05,-4.971388035568403e-06,3.423288009063441e-06,8.293298762174217e-07,-7.120768228396912e-07,1.0470406938134502e-06,-0.0002846263381501092,3.788164859790698e-05,0.0004803850640691232,7.11406616633334e-05,-0.00011522999083601902,-0.0003002137293166674,-0.0005443744550084986,0.4505855441093445,34.09072494506836,4.072781085968018,-19.237703323364258,-0.1714988350868225,-1.770938515663147,0.17337362468242645,0
31,0.1499795913696289,-0.4029781222343445,-34.09072494506836,-4.072781085968018,19.213899612426758,0.1714988350868225,1.783755898475647,-0.18710653483867645,0.0,0.0,0.0,0.0,0.0,0.0,0.0,-0.42615348763114674,-0.018673284167472253,-0.5263407355150084,0.2070190424451733,0.11766483949484044,-0.12837369243334568,-0.15818241265695704,1.0545411049854543,0.3238500961918115,-0.3924974650541941,-2.1532934579695886,0.8647530855536542,2.465877463698387,0.5445024843135373,1.0544104758940245,0.3238615046091247,-0.39250456234122666,-2.153291787532338,0.8647539153680389,2.46587817577521,0.5445020185570556,-0.0003846033693493195,-0.00018270592810605487,-0.0004579839154772252,0.000593372338299261,0.00014537387651024716,-7.839773796678294e-05,0.00130160898530337,0.0,0.0,0.0,0.0,0.0,0.0,0.0,-0.0001306290914298014,1.1408417313230057e-05,-7.097287032575839e-06,1.6704372507447829e-06,8.298143847618178e-07,7.120768228396912e-07,-4.657564817156512e-07,0.0003846033693493195,0.00018270592810605487,0.0004579839154772252,-0.000593372338299261,-0.00014537387651024716,7.839773796678294e-05,-0.00130160898530337,0.4029781222343445,34.09072494506836,4.072781085968018,-19.213899612426758,-0.1714988350868225,-1.783755898475647,0.18710653483867645,0
32,0.15498137474060059,-0.4029781222343445,-34.09072494506836,-4.072781085968018,19.213899612426758,0.1714988350868225,1.783755898475647,-0.18710653483867645,0.0,0.0,0.0,0.0,0.0,0.0,0.0,-0.42615348763114674,-0.018673284167472253,-0.5263407355150084,0.2070190424451733,0.11766483949484044,-0.12837369243334568,-0.15818241265695704,1.0545411049854543,0.3238500961918115,-0.3924974650541941,-2.1532934579695886,0.8647530855536542,2.465877463698387,0.5445024843135373,1.0544104758940245,0.3238615046091247,-0.39250456234122666,-2.153291787532338,0.8647539153680389,2.46587817577521,0.5445020185570556,-0.0003846033693493195,-0.00018270592810605487,-0.0004579839154772252,0.000593372338299261,0.00014537387651024716,-7.839773796678294e-05,0.00130160898530337,0.0,0.0,0.0,0.0,0.0,0.0,0.0,-0.0001306290914298014,1.1408417313230057e-05,-7.097287032575839e-06,1.6704372507447829e-06,8.298143847618178e-07,7.120768228396912e-07,-4.657564817156512e-07,0.0003846033693493195,0.00018270592810605487,0.0004579839154772252,-0.000593372338299261,-0.00014537387651024716,7.839773796678294e-05,-0.00130160898530337,0.4029781222343445,34.09072494506836,4.072781085968018,-19.213899612426758,-0.1714988350868225,-1.783755898475647,0.18710653483867645,0
33,0.15998315811157227,-0.3752071261405945,-34.09072494506836,-4.096584796905518,19.237703323364258,0.1595969796180725,1.777347207069397,-0.17337362468242645,0.0,0.0,0.0,0.0,0.0,0.0,0.0,-0.4331149427975685,-0.016299430337868,-0.5317894113771242,0.20450093547611908,0.11900716218128365,-0.12795926508838354,-0.15794158967764665,1.0545399215182585,0.32385078495523306,-0.39249792051333554,-2.1532951284040482,0.8647544079820315,2.46587817577521,0.5445041504307498,1.0544104758940245,0.3238615046091247,-0.39250456234122666,-2.153291787532338,0.8647539153680389,2.46587817577521,0.5445020185570556,-0.0010938139761820236,0.00027832737991875903,6.062432236142496e-05,0.0003039618657115922,-0.0018101574376815019,-1.06440955229772e-05,0.0007100851026141866,0.0,0.0,0.0,0.0,0.0,0.0,0.0,-0.00012944562423400363,1.0719653891655412e-05,-6.641827891118446e-06,3.340871710388882e-06,-4.926139925975903e-07,0.0,-2.1318736942443905e-06,0.0010938139761820236,-0.00027832737991875903,-6.062432236142496e-05,-0.0003039618657115922,0.0018101574376815019,1.06440955229772e-05,-0.0007100851026141866,0.3752071261405945,34.09072494506836,4.096584796905518,-19.237703323364258,-0.1595969796180725,-1.777347207069397,0.17337362468242645,0
34,0.1649789810180664,-0.3752071261405945,-34.09072494506836,-4.096584796905518,19.237703323364258,0.1595969796180725,1.777347207069397,-0.17337362468242645,0.0,0.0,0.0,0.0,0.0,0.0,0.0,-0.4331149427975685,-0.016299430337868,-0.5317894113771242,0.20450093547611908,0.11900716218128365,-0.12795926508838354,-0.15794158967764665,1.0545399215182585,0.32385078495523306,-0.39249792051333554,-2.1532951284040482,0.8647544079820315,2.46587817577521,0.5445041504307498,1.0544104758940245,0.3238615046091247,-0.39250456234122666,-2.153291787532338,0.8647539153680389,2.46587817577521,0.5445020185570556,-0.0010938139761820236,0.00027832737991875903,6.062432236142496e-05,0.0003039618657115922,-0.0018101574376815019,-1.06440955229772e-05,0.0007100851026141866,0.0,0.0,0.0,0.0,0.0,0.0,0.0,-0.00012944562423400363,1.0719653891655412e-05,-6.641827891118446e-06,3.340871710388882e-06,-4.926139925975903e-07,0.0,-2.1318736942443905e-06,0.0010938139761820236,-0.00027832737991875903,-6.062432236142496e-05,-0.0003039618657115922,0.0018101574376815019,1.06440955229772e-05,-0.0007100851026141866,0.3752071261405945,34.09072494506836,4.096584796905518,-19.237703323364258,-0.1595969796180725,-1.777347207069397,0.17337362468242645,0
35,0.16998004913330078,-0.4505855441093445,-34.03915023803711,-4.096584796905518,19.213899612426758,0.1769919991493225,1.777347207069397,-0.14590780436992645,0.0,0.0,0.0,0.0,0.0,0.0,0.0,-0.4311898262521383,-0.014623715722502942,-0.5301210341993376,0.20517665513212083,0.11759770650412993,-0.12771813298528253,-0.15620289526075004,1.054546679125182,0.32384624732579725,-0.3924979205173358,-2.1532934579681933,0.8647524752020835,2.46587817577521,0.5444982598953131,1.0544104758940245,0.3238615046091247,-0.39250456234122666,-2.153291787532338,0.8647539153680389,2.46587817577521,0.5445020185570556,0.000474241375949197,-0.0011740209531943462,0.00038315111586578114,0.0005211343049350617,-0.0002627348496632505,8.78487796173877e-05,-6.634834964120471e-05,0.0,0.0,0.0,0.0,0.0,0.0,0.0,-0.00013620323115759447,1.5257283327463345e-05,-6.641823890873866e-06,1.6704358554164855e-06,1.4401659553797685e-06,0.0,3.758661742514491e-06,-0.000474241375949197,0.0011740209531943462,-0.00038315111586578114,-0.0005211343049350617,0.0002627348496632505,-8.78487796173877e-05,6.634834964120471e-05,0.4505855441093445,34.03915023803711,4.096584796905518,-19.213899612426758,-0.1769919991493225,-1.777347207069397,0.14590780436992645,0
36,0.17497968673706055,-0.4505855441093445,-34.03915023803711,-4.096584796905518,19.213899612426758,0.1769919991493225,1.777347207069397,-0.14590780436992645,0.0,0.0,0.0,0.0,0.0,0.0,0.0,-0.4311898262521383,-0.014623715722502942,-0.5301210341993376,0.20517665513212083,0.11759770650412993,-0.12771813298528253,-0.15620289526075004,1.054546679125182,0.32384624732579725,-0.3924979205173358,-2.1532934579681933,0.8647524752020835,2.46587817577521,0.5444982598953131,1.0544104758940245,0.3238615046091247,-0.39250456234122666,-2.153291787532338,0.8647539153680389,2.46587817577521,0.5445020185570556,0.000474241375949197,-0.0011740209531943462,0.00038315111586578114,0.0005211343049350617,-0.0002627348496632505,8.78487796173877e-05,-6.634834964120471e-05,0.0,0.0,0.0,0.0,0.0,0.0,0.0,-0.00013620323115759447,1.5257283327463345e-05,-6.641823890873866e-06,1.6704358554164855e-06,1.4401659553797685e-06,0.0,3.758661742514491e-06,-0.000474241375949197,0.0011740209531943462,-0.00038315111586578114,-0.0005211343049350617,0.0002627348496632505,-8.78487796173877e-05,6.634834964120471e-05,0.4505855441093445,34.03915023803711,4.096584796905518,-19.213899612426758,-0.1769919991493225,-1.777347207069397,0.14590780436992645,0
37,0.1799933910369873,-0.4267818331718445,-34.06295394897461,-4.072781085968018,19.213899612426758,0.1714988350868225,1.783755898475647,-0.13217489421367645,0.0,0.0,0.0,0.0,0.0,0.0,0.0,-0.433382237788424,-0.007905293657014154,-0.5302851396578259,0.20171112602473026,0.11772126522001794,-0.12763244751084094,-0.15421996190382323,1.054545683368858,0.32384887044950544,-0.3924995909531911,-2.1532934579681933,0.8647530870071962,2.465877463698387,0.5444963807996847,1.0544104758940245,0.3238615046091247,-0.39250456234122666,-2.153291787532338,0.8647539153680389,2.46587817577521,0.5445020185570556,-0.0005371423153383733,-0.00010688878804510507,-0.00037086139261926707,0.00019607962719851848,-0.00019730177091407613,-0.00033443592454506855,-0.0010369989334982187,0.0,0.0,0.0,0.0,0.0,0.0,0.0,-0.0001352074748335319,1.263415961927361e-05,-4.971388035568403e-06,1.6704358554164855e-06,8.283608426973288e-07,7.120768228396912e-07,5.637757370946517e-06,0.0005371423153383733,0.00010688878804510507,0.00037086139261926707,-0.00019607962719851848,0.00019730177091407613,0.00033443592454506855,0.0010369989334982187,0.4267818331718445,34.06295394897461,4.072781085968018,-19.213899612426758,-0.1714988350868225,-1.783755898475647,0.13217489421367645,0
38,0.18498945236206055,-0.4267818331718445,-34.06295394897461,-4.072781085968018,19.213899612426758,0.1714988350868225,1.783755898475647,-0.13217489421367645,0.0,0.0,0.0,0.0,0.0,0.0,0.0,-0.433382237788424,-0.007905293657014154,-0.5302851396578259,0.20171112602473026,0.11772126522001794,-0.12763244751084094,-0.15421996190382323,1.054545683368858,0.32384887044950544,-0.3924995909531911,-2.1532934579681933,0.8647530870071962,2.465877463698387,0.5444963807996847,1.0544104758940245,0.3238615046091247,-0.39250456234122666,-2.153291787532338,0.8647539153680389,2.46587817577521,0.5445020185570556,-0.0005371423153383733,-0.00010688878804510507,-0.00037086139261926707,0.00019607962719851848,-0.00019730177091407613,-0.00033443592454506855,-0.0010369989334982187,0.0,0.0,0.0,0.0,0.0,0.0,0.0,-0.0001352074748335319,1.263415961927361e-05,-4.971388035568403e-06,1.6704358554164855e-06,8.283608426973288e-07,7.120768228396912e-07,5.637757370946517e-06,0.0005371423153383733,0.00010688878804510507,0.00037086139261926707,-0.00019607962719851848,0.00019730177091407613,0.00033443592454506855,0.0010369989334982187,0.4267818331718445,34.06295394897461,4.072781085968018,-19.213899612426758,-0.1714988350868225,-1.783755898475647,0.13217489421367645,0
39,0.18999052047729492,-0.4267818331718445,-34.06295394897461,-4.072781085968018,19.213899612426758,0.1714988350868225,1.783755898475647,-0.13217489421367645,0.0,0.0,0.0,0.0,0.0,0.0,0.0,-0.433382237788424,-0.007905293657014154,-0.5302851396578259,0.20171112602473026,0.11772126522001794,-0.12763244751084094,-0.15421996190382323,1.054545683368858,0.32384887044950544,-0.3924995909531911,-2.1532934579681933,0.8647530870071962,2.465877463698387,0.5444963807996847,1.0544104758940245,0.3238615046091247,-0.39250456234122666,-2.153291787532338,0.8647539153680389,2.46587817577521,0.5445020185570556,-0.0005371423153383733,-0.00010688878804510507,-0.00037086139261926707,0.00019607962719851848,-0.00019730177091407613,-0.00033443592454506855,-0.0010369989334982187,0.0,0.0,0.0,0.0,0.0,0.0,0.0,-0.0001352074748335319,1.263415961927361e-05,-4.971388035568403e-06,1.6704358554164855e-06,8.283608426973288e-07,7.120768228396912e-07,5.637757370946517e-06,0.0005371423153383733,0.00010688878804510507,0.00037086139261926707,-0.00019607962719851848,0.00019730177091407613,0.00033443592454506855,0.0010369989334982187,0.4267818331718445,34.06295394897461,4.072781085968018,-19.213899612426758,-0.1714988350868225,-1.783755898475647,0.13217489421367645,0
40,0.19501447677612305,-0.4267818331718445,-34.06295394897461,-4.072781085968018,19.213899612426758,0.1714988350868225,1.783755898475647,-0.13217489421367645,0.0,0.0,0.0,0.0,0.0,0.0,0.0,-0.433382237788424,-0.007905293657014154,-0.5302851396578259,0.20171112602473026,0.11772126522001794,-0.12763244751084094,-0.15421996190382323,1.054545683368858,0.32384887044950544,-0.3924995909531911,-2.1532934579681933,0.8647530870071962,2.465877463698387,0.5444963807996847,1.0544104758940245,0.3238615046091247,-0.39250456234122666,-2.153291787532338,0.8647539153680389,2.46587817577521,0.5445020185570556,-0.0005371423153383733,-0.00010688878804510507,-0.00037086139261926707,0.00019607962719851848,-0.00019730177091407613,-0.00033443592454506855,-0.0010369989334982187,0.0,0.0,0.0,0.0,0.0,0.0,0.0,-0.0001352074748335319,1.263415961927361e-05,-4.971388035568403e-06,1.6704358554164855e-06,8.283608426973288e-07,7.120768228396912e-07,5.637757370946517e-06,0.0005371423153383733,0.00010688878804510507,0.00037086139261926707,-0.00019607962719851848,0.00019730177091407613,0.00033443592454506855,0.0010369989334982187,0.4267818331718445,34.06295394897461,4.072781085968018,-19.213899612426758,-0.1714988350868225,-1.783755898475647,0.13217489421367645,0
41,0.19999361038208008,-0.4029781222343445,-34.03915023803711,-4.096584796905518,19.213899612426758,0.1769919991493225,1.777347207069397,-0.12485067546367645,0.0,0.0,0.0,0.0,0.0,0.0,0.0,-0.4275393135762033,-0.015359778565019199,-0.5252845384654561,0.20779590203504836,0.11728131103112213,-0.12737177643388722,-0.15385514484388477,1.0545432477879617,0.32384497576010296,-0.3924979205173358,-2.1532934579681933,0.8647524752020916,2.46587817577521,0.5444966266337369,1.0544104758940245,0.3238615046091247,-0.39250456234122666,-2.153291787532338,0.8647539153680389,2.46587817577521,0.5445020185570556,-0.00069212333019275,-0.0008838942869588343,9.320571150220742e-05,0.0004892239161721468,-7.693002552867615e-05,-6.3103946541665005e-06,-0.0016329081800526904,0.0,0.0,0.0,0.0,0.0,0.0,0.0,-0.00013277189393723354,1.652884902175744e-05,-6.641823890873866e-06,1.6704358554164855e-06,1.4401659472751405e-06,0.0,5.391923318720515e-06,0.00069212333019275,0.0008838942869588343,-9.320571150220742e-05,-0.0004892239161721468,7.693002552867615e-05,6.3103946541665005e-06,0.0016329081800526904,0.4029781222343445,34.03915023803711,4.096584796905518,-19.213899612426758,-0.1769919991493225,-1.777347207069397,0.12485067546367645,0
42,0.20501184463500977,-0.4029781222343445,-34.03915023803711,-4.096584796905518,19.213899612426758,0.1769919991493225,1.777347207069397,-0.12485067546367645,0.0,0.0,0.0,0.0,0.0,0.0,0.0,-0.4275393135762033,-0.015359778565019199,-0.5252845384654561,0.20779590203504836,0.11728131103112213,-0.12737177643388722,-0.15385514484388477,1.0545432477879617,0.32384497576010296,-0.3924979205173358,-2.1532934579681933,0.8647524752020916,2.46587817577521,0.5444966266337369,1.0544104758940245,0.3238615046091247,-0.39250456234122666,-2.153291787532338,0.8647539153680389,2.46587817577521,0.5445020185570556,-0.00069212333019275,-0.0008838942869588343,9.320571150220742e-05,0.0004892239161721468,-7.693002552867615e-05,-6.3103946541665005e-06,-0.0016329081800526904,0.0,0.0,0.0,0.0,0.0,0.0,0.0,-0.00013277189393723354,1.652884902175744e-05,-6.641823890873866e-06,1.6704358554164855e-06,1.4401659472751405e-06,0.0,5.391923318720515e-06,0.00069212333019275,0.0008838942869588343,-9.320571150220742e-05,-0.0004892239161721468,7.693002552867615e-05,6.3103946541665005e-06,0.0016329081800526904,0.4029781222343445,34.03915023803711,4.096584796905518,-19.213899612426758,-0.1769919991493225,-1.777347207069397,0.12485067546367645,0
43,0.20999836921691895,-0.4267818331718445,-34.06295394897461,-4.072781085968018,19.261507034301758,0.1650901436805725,1.770938515663147,-0.15964071452617645,0.0,0.0,0.0,0.0,0.0,0.0,0.0,-0.42746725288333126,-0.01130605731919629,-0.5261186371991078,0.20510421829590836,0.11780711030961302,-0.12757543993657053,-0.1540946608155502,1.054545170446938,0.32384886848840894,-0.39249959091718883,-2.1532967988049108,0.864753797630469,2.465878887852033,0.5444994325574971,1.0544104758940245,0.3238615046091247,-0.39250456234122666,-2.153291787532338,0.8647539153680389,2.46587817577521,0.5445020185570556,-0.0003395671365437551,-0.0005824350300927257,-0.0006239336952213591,-0.0006559440621278124,0.00028949601985134245,0.00025127472329224273,0.0006047715435989995,0.0,0.0,0.0,0.0,0.0,0.0,0.0,-0.00013469455291348353,1.2636120715781018e-05,-4.971424037825134e-06,5.011272572907899e-06,1.1773756991573237e-07,-7.120768228396912e-07,2.5859995584909257e-06,0.0003395671365437551,0.0005824350300927257,0.0006239336952213591,0.0006559440621278124,-0.00028949601985134245,-0.00025127472329224273,-0.0006047715435989995,0.4267818331718445,34.06295394897461,4.072781085968018,-19.261507034301758,-0.1650901436805725,-1.770938515663147,0.15964071452617645,0
44,0.2150099277496338,-0.4267818331718445,-34.06295394897461,-4.072781085968018,19.261507034301758,0.1650901436805725,1.770938515663147,-0.15964071452617645,0.0,0.0,0.0,0.0,0.0,0.0,0.0,-0.42746725288333126,-0.01130605731919629,-0.5261186371991078,0.20510421829590836,0.11780711030961302,-0.12757543993657053,-0.1540946608155502,1.054545170446938,0.32384886848840894,-0.39249959091718883,-2.1532967988049108,0.864753797630469,2.465878887852033,0.5444994325574971,1.0544104758940245,0.3238615046091247,-0.39250456234122666,-2.153291787532338,0.8647539153680389,2.46587817577521,0.5445020185570556,-0.0003395671365437551,-0.0005824350300927257,-0.0006239336952213591,-0.0006559440621278124,0.00028949601985134245,0.00025127472329224273,0.0006047715435989995,0.0,0.0,0.0,0.0,0.0,0.0,0.0,-0.00013469455291348353,1.2636120715781018e-05,-4.971424037825134e-06,5.011272572907899e-06,1.1773756991573237e-07,-7.120768228396912e-07,2.5859995584909257e-06,0.0003395671365437551,0.0005824350300927257,0.0006239336952213591,0.0006559440621278124,-0.00028949601985134245,-0.00025127472329224273,-0.0006047715435989995,0.4267818331718445,34.06295394897461,4.072781085968018,-19.261507034301758,-0.1650901436805725,-1.770938515663147,0.15964071452617645,0
45,0.22002744674682617,-0.4029781222343445,-34.06295394897461,-4.072781085968018,19.237703323364258,0.1769919991493225,1.770938515663147,-0.11844198405742645,0.0,0.0,0.0,0.0,0.0,0.0,0.0,-0.42561751634202744,-0.010787620698685925,-0.523322326691645,0.20305469035588591,0.11846978981489345,-0.12821999700982278,-0.15354210636010643,1.0545417611261758,0.32384887143601876,-0.3924995909531909,-2.153295128404048,0.8647524752020835,2.465878887852033,0.5444948549187846,1.0544104758940245,0.3238615046091247,-0.39250456234122666,-2.153291787532338,0.8647539153680389,2.46587817577521,0.5445020185570556,-0.0003924748537190019,-0.0006957288871511636,-0.0006526593441988494,-9.80609633269982e-05,-4.4673672522197956e-05,0.00022171132018135843,-0.0013453758684734104,0.0,0.0,0.0,0.0,0.0,0.0,0.0,-0.0001312852321513347,1.2633173105958129e-05,-4.971388035734936e-06,3.3408717099447927e-06,1.4401659553797685e-06,-7.120768228396912e-07,7.163638271023842e-06,0.0003924748537190019,0.0006957288871511636,0.0006526593441988494,9.80609633269982e-05,4.4673672522197956e-05,-0.00022171132018135843,0.0013453758684734104,0.4029781222343445,34.06295394897461,4.072781085968018,-19.237703323364258,-0.1769919991493225,-1.770938515663147,0.11844198405742645,0
46,0.22501182556152344,-0.4029781222343445,-34.06295394897461,-4.072781085968018,19.237703323364258,0.1769919991493225,1.770938515663147,-0.11844198405742645,0.0,0.0,0.0,0.0,0.0,0.0,0.0,-0.42561751634202744,-0.010787620698685925,-0.523322326691645,0.20305469035588591,0.11846978981489345,-0.12821999700982278,-0.15354210636010643,1.0545417611261758,0.32384887143601876,-0.3924995909531909,-2.153295128404048,0.8647524752020835,2.465878887852033,0.5444948549187846,1.0544104758940245,0.3238615046091247,-0.39250456234122666,-2.153291787532338,0.8647539153680389,2.46587817577521,0.5445020185570556,-0.0003924748537190019,-0.0006957288871511636,-0.0006526593441988494,-9.80609633269982e-05,-4.4673672522197956e-05,0.00022171132018135843,-0.0013453758684734104,0.0,0.0,0.0,0.0,0.0,0.0,0.0,-0.0001312852321513347,1.2633173105958129e-05,-4.971388035734936e-06,3.3408717099447927e-06,1.4401659553797685e-06,-7.120768228396912e-07,7.163638271023842e-06,0.0003924748537190019,0.0006957288871511636,0.0006526593441988494,9.80609633269982e-05,4.4673672522197956e-05,-0.00022171132018135843,0.0013453758684734104,0.4029781222343445,34.06295394897461,4.072781085968018,-19.237703323364258,-0.1769919991493225,-1.770938515663147,0.11844198405742645,0
47,0.22998929023742676,-0.3752071261405945,-34.09072494506836,-4.148159503936768,19.289278030395508,0.1650901436805725,1.790164589881897,-0.16604940593242645,0.0,0.0,0.0,0.0,0.0,0.0,0.0,-0.4320883536043228,-0.01747224871809744,-0.5303761239618194,0.2072298940361676,0.11899491403326153,-0.12749273934655247,-0.1534561848863541,1.0545420639692147,0.3238508173344273,-0.3924943012396494,-2.1532987476817342,0.864753797630469,2.4658767516215643,0.5445001446861614,1.0544104758940245,0.3238615046091247,-0.39250456234122666,-2.153291787532338,0.8647539153680389,2.46587817577521,0.5445020185570556,-0.0013339637809328404,8.943576742985954e-05,0.001527777574349242,-0.0007319794284693768,0.0002615635837915219,-0.0003785819272366185,0.0006446780343958795,0.0,0.0,0.0,0.0,0.0,0.0,0.0,-0.0001315880751902032,1.0687274697440685e-05,-1.0261101577258014e-05,6.960149396384452e-06,1.1773756991573237e-07,1.4241536456793824e-06,1.8738708942311888e-06,0.0013339637809328404,-8.943576742985954e-05,-0.001527777574349242,0.0007319794284693768,-0.0002615635837915219,0.0003785819272366185,-0.0006446780343958795,0.3752071261405945,34.09072494506836,4.148159503936768,-19.289278030395508,-0.1650901436805725,-1.790164589881897,0.16604940593242645,0
48,0.23498272895812988,-0.3752071261405945,-34.09072494506836,-4.148159503936768,19.289278030395508,0.1650901436805725,1.790164589881897,-0.16604940593242645,0.0,0.0,0.0,0.0,0.0,0.0,0.0,-0.4320883536043228,-0.01747224871809744,-0.5303761239618194,0.2072298940361676,0.11899491403326153,-0.12749273934655247,-0.1534561848863541,1.0545420639692147,0.3238508173344273,-0.3924943012396494,-2.1532987476817342,0.864753797630469,2.4658767516215643,0.5445001446861614,1.0544104758940245,0.3238615046091247,-0.39250456234122666,-2.153291787532338,0.8647539153680389,2.46587817577521,0.5445020185570556,-0.0013339637809328404,8.943576742985954e-05,0.001527777574349242,-0.0007319794284693768,0.0002615635837915219,-0.0003785819272366185,0.0006446780343958795,0.0,0.0,0.0,0.0,0.0,0.0,0.0,-0.0001315880751902032,1.0687274697440685e-05,-1.0261101577258014e-05,6.960149396384452e-06,1.1773756991573237e-07,1.4241536456793824e-06,1.8738708942311888e-06,0.0013339637809328404,-8.943576742985954e-05,-0.001527777574349242,0.0007319794284693768,-0.0002615635837915219,0.0003785819272366185,-0.0006446780343958795,0.3752071261405945,34.09072494506836,4.148159503936768,-19.289278030395508,-0.1650901436805725,-1.790164589881897,0.16604940593242645,0
49,0.23998808860778809,-0.4267818331718445,-34.06295394897461,-4.096584796905518,19.237703323364258,0.1650901436805725,1.770938515663147,-0.11111776530742645,0.0,0.0,0.0,0.0,0.0,0.0,0.0,-0.4263340033709492,-0.013929645041774406,-0.5252186541994698,0.20601507070458053,0.11855429332565656,-0.12799570919497144,-0.15373333178641532,1.0545427269376018,0.32384884483604925,-0.3924979205173358,-2.1532951284417328,0.864753797630469,2.465878887852033,0.5444940541986536,1.0544104758940245,0.3238615046091247,-0.39250456234122666,-2.153291787532338,0.8647539153680389,2.46587817577521,0.5445020185570556,5.6620615143694605e-05,-0.0007157160059884284,0.00035996244266214855,-8.113366974358412e-05,0.0003358437362099329,0.0002716998452570972,-0.001653025815462023,0.0,0.0,0.0,0.0,0.0,0.0,0.0,-0.00013225104357728057,1.2659773075462954e-05,-6.641823890873866e-06,3.3409093949110513e-06,1.1773756991573237e-07,-7.120768228396912e-07,7.964358402001714e-06,-5.6620615143694605e-05,0.0007157160059884284,-0.00035996244266214855,8.113366974358412e-05,-0.0003358437362099329,-0.0002716998452570972,0.001653025815462023,0.4267818331718445,34.06295394897461,4.096584796905518,-19.237703323364258,-0.1650901436805725,-1.770938515663147,0.11111776530742645,0
50,0.24499177932739258,-0.4267818331718445,-34.06295394897461,-4.096584796905518,19.237703323364258,0.1650901436805725,1.770938515663147,-0.11111776530742645,0.0,0.0,0.0,0.0,0.0,0.0,0.0,-0.4263340033709492,-0.013929645041774406,-0.5252186541994698,0.20601507070458053,0.11855429332565656,-0.12799570919497144,-0.15373333178641532,1.0545427269376018,0.32384884483604925,-0.3924979205173358,-2.1532951284417328,0.864753797630469,2.465878887852033,0.5444940541986536,1.0544104758940245,0.3238615046091247,-0.39250456234122666,-2.153291787532338,0.8647539153680389,2.46587817577521,0.5445020185570556,5.6620615143694605e-05,-0.0007157160059884284,0.00035996244266214855,-8.113366974358412e-05,0.0003358437362099329,0.0002716998452570972,-0.001653025815462023,0.0,0.0,0.0,0.0,0.0,0.0,0.0,-0.00013225104357728057,1.2659773075462954e-05,-6.641823890873866e-06,3.3409093949110513e-06,1.1773756991573237e-07,-7.120768228396912e-07,7.964358402001714e-06,-5.6620615143694605e-05,0.0007157160059884284,-0.00035996244266214855,8.113366974358412e-05,-0.0003358437362099329,-0.0002716998452570972,0.001653025815462023,0.4267818331718445,34.06295394897461,4.096584796905518,-19.237703323364258,-0.1650901436805725,-1.770938515663147,0.11111776530742645,0
51,0.24997830390930176,-0.3752071261405945,-34.09072494506836,-4.096584796905518,19.237703323364258,0.1650901436805725,1.777347207069397,-0.13217489421367645,0.0,0.0,0.0,0.0,0.0,0.0,0.0,-0.4220980168294548,-0.011217494601231209,-0.522093166412876,0.20759987597756716,0.11776136721160393,-0.1284338364855514,-0.1542079146936369,1.0545391010484158,0.3238508201687001,-0.39249792048133353,-2.1532951284040482,0.864753797630469,2.46587817577521,0.5444963807977646,1.0544104758940245,0.3238615046091247,-0.39250456234122666,-2.153291787532338,0.8647539153680389,2.46587817577521,0.5445020185570556,-0.0011061186639695021,0.000612293042843401,0.0004583033543209934,0.000420247174129674,0.0010557795146952298,-1.2673290607925165e-06,-0.0011155259837331635,0.0,0.0,0.0,0.0,0.0,0.0,0.0,-0.00012862515439127087,1.0684440424624242e-05,-6.641859893130597e-06,3.340871710388882e-06,1.1773756991573237e-07,0.0,5.6377592909662155e-06,0.0011061186639695021,-0.000612293042843401,-0.0004583033543209934,-0.000420247174129674,-0.0010557795146952298,1.2673290607925165e-06,0.0011155259837331635,0.3752071261405945,34.09072494506836,4.096584796905518,-19.237703323364258,-0.1650901436805725,-1.777347207069397,0.13217489421367645,0
52,0.255021333694458,-0.3752071261405945,-34.09072494506836,-4.096584796905518,19.237703323364258,0.1650901436805725,1.777347207069397,-0.13217489421367645,0.0,0.0,0.0,0.0,0.0,0.0,0.0,-0.4220980168294548,-0.011217494601231209,-0.522093166412876,0.20759987597756716,0.11776136721160393,-0.1284338364855514,-0.1542079146936369,1.0545391010484158,0.3238508201687001,-0.39249792048133353,-2.1532951284040482,0.864753797630469,2.46587817577521,0.5444963807977646,1.0544104758940245,0.3238615046091247,-0.39250456234122666,-2.153291787532338,0.8647539153680389,2.46587817577521,0.5445020185570556,-0.0011061186639695021,0.000612293042843401,0.0004583033543209934,0.000420247174129674,0.0010557795146952298,-1.2673290607925165e-06,-0.0011155259837331635,0.0,0.0,0.0,0.0,0.0,0.0,0.0,-0.00012862515439127087,1.0684440424624242e-05,-6.641859893130597e-06,3.340871710388882e-06,1.1773756991573237e-07,0.0,5.6377592909662155e-06,0.0011061186639695021,-0.000612293042843401,-0.0004583033543209934,-0.000420247174129674,-0.0010557795146952298,1.2673290607925165e-06,0.0011155259837331635,0.3752071261405945,34.09072494506836,4.096584796905518,-19.237703323364258,-0.1650901436805725,-1.777347207069397,0.13217489421367645,0
53,0.26002955436706543,-0.4267818331718445,-34.11452865600586,-4.096584796905518,19.237703323364258,0.1650901436805725,1.770938515663147,-0.12485067546367645,0.0,0.0,0.0,0.0,0.0,0.0,0.0,-0.4237651633125886,-0.01644894414214027,-0.5233802843608195,0.20944763790645074,0.11873160753384018,-0.12870695104915794,-0.1544663870326568,1.0545437616656115,0.3238524907137212,-0.3924979117687801,-2.1532951558761475,0.864753797630469,2.465878887852033,0.5444955684491577,1.0544104758940245,0.3238615046091247,-0.39250456234122666,-2.153291787532338,0.8647539153680389,2.46587817577521,0.5445020185570556,0.000530390376088164,0.0007818242546477893,0.0003508200301343067,-0.0001308437409635756,0.0002705112495601823,0.00019465857913866593,-0.001242464892261077,0.0,0.0,0.0,0.0,0.0,0.0,0.0,-0.0001332857715869995,9.013895403531258e-06,-6.650572446587066e-06,3.3683438096510088e-06,1.1773756991573237e-07,-7.120768228396912e-07,6.450107897904012e-06,-0.000530390376088164,-0.0007818242546477893,-0.0003508200301343067,0.0001308437409635756,-0.0002705112495601823,-0.00019465857913866593,0.001242464892261077,0.4267818331718445,34.11452865600586,4.096584796905518,-19.237703323364258,-0.1650901436805725,-1.770938515663147,0.12485067546367645,0
54,0.26499366760253906,-0.4267818331718445,-34.11452865600586,-4.096584796905518,19.237703323364258,0.1650901436805725,1.770938515663147,-0.12485067546367645,0.0,0.0,0.0,0.0,0.0,0.0,0.0,-0.4237651633125886,-0.01644894414214027,-0.5233802843608195,0.20944763790645074,0.11873160753384018,-0.12870695104915794,-0.1544663870326568,1.0545437616656115,0.3238524907137212,-0.3924979117687801,-2.1532951558761475,0.864753797630469,2.465878887852033,0.5444955684491577,1.0544104758940245,0.3238615046091247,-0.39250456234122666,-2.153291787532338,0.8647539153680389,2.46587817577521,0.5445020185570556,0.000530390376088164,0.0007818242546477893,0.0003508200301343067,-0.0001308437409635756,0.0002705112495601823,0.00019465857913866593,-0.001242464892261077,0.0,0.0,0.0,0.0,0.0,0.0,0.0,-0.0001332857715869995,9.013895403531258e-06,-6.650572446587066e-06,3.3683438096510088e-06,1.1773756991573237e-07,-7.120768228396912e-07,6.450107897904012e-06,-0.000530390376088164,-0.0007818242546477893,-0.0003508200301343067,0.0001308437409635756,-0.0002705112495601823,-0.00019465857913866593,0.001242464892261077,0.4267818331718445,34.11452865600586,4.096584796905518,-19.237703323364258,-0.1650901436805725,-1.770938515663147,0.12485067546367645,0
55,0.2699756622314453,-0.4505855441093445,-34.06295394897461,-4.048977375030518,19.213899612426758,0.1769919991493225,1.777347207069397,-0.11111776530742645,0.0,0.0,0.0,0.0,0.0,0.0,0.0,-0.4295681917528663,-0.018052919938495653,-0.5281017978980338,0.21107613992028107,0.1187781607097321,-0.12832716964514743,-0.15451566654801643,1.0545447175312772,0.32384863301745626,-0.392501261388997,-2.1532934579683483,0.8647524752020835,2.46587817577521,0.5444940411167093,1.0544104758940245,0.3238615046091247,-0.39250456234122666,-2.153291787532338,0.8647539153680389,2.46587817577521,0.5445020185570556,0.0006569480789896594,-0.00041594348577952105,-0.0009842290347846447,0.0007539444673797155,-0.00027713876122517953,-0.00017195736581781336,-0.0015807288564862836,0.0,0.0,0.0,0.0,0.0,0.0,0.0,-0.00013424163725272997,1.2871591668461857e-05,-3.300952229667864e-06,1.6704360104036198e-06,1.4401659553797685e-06,0.0,7.977440346307318e-06,-0.0006569480789896594,0.00041594348577952105,0.0009842290347846447,-0.0007539444673797155,0.00027713876122517953,0.00017195736581781336,0.0015807288564862836,0.4505855441093445,34.06295394897461,4.048977375030518,-19.213899612426758,-0.1769919991493225,-1.777347207069397,0.11111776530742645,0
56,0.27496790885925293,-0.4505855441093445,-34.06295394897461,-4.048977375030518,19.213899612426758,0.1769919991493225,1.777347207069397,-0.11111776530742645,0.0,0.0,0.0,0.0,0.0,0.0,0.0,-0.4295681917528663,-0.018052919938495653,-0.5281017978980338,0.21107613992028107,0.1187781607097321,-0.12832716964514743,-0.15451566654801643,1.0545447175312772,0.32384863301745626,-0.392501261388997,-2.1532934579683483,0.8647524752020835,2.46587817577521,0.5444940411167093,1.0544104758940245,0.3238615046091247,-0.39250456234122666,-2.153291787532338,0.8647539153680389,2.46587817577521,0.5445020185570556,0.0006569480789896594,-0.00041594348577952105,-0.0009842290347846447,0.0007539444673797155,-0.00027713876122517953,-0.00017195736581781336,-0.0015807288564862836,0.0,0.0,0.0,0.0,0.0,0.0,0.0,-0.00013424163725272997,1.2871591668461857e-05,-3.300952229667864e-06,1.6704360104036198e-06,1.4401659553797685e-06,0.0,7.977440346307318e-06,-0.0006569480789896594,0.00041594348577952105,0.0009842290347846447,-0.0007539444673797155,0.00027713876122517953,0.00017195736581781336,0.0015807288564862836,0.4505855441093445,34.06295394897461,4.048977375030518,-19.213899612426758,-0.1769919991493225,-1.777347207069397,0.11111776530742645,0
57,0.27997899055480957,-0.4267818331718445,-34.01534652709961,-4.096584796905518,19.213899612426758,0.1714988350868225,1.777347207069397,-0.13217489421367645,0.0,0.0,0.0,0.0,0.0,0.0,0.0,-0.42089007013676033,-0.016058980508041356,-0.5195690553780365,0.2111945554537982,0.1184924214694353,-0.12939461536625407,-0.15414087296051854,1.0545427165971304,0.323845530562979,-0.3924979205173358,-2.1532934579681933,0.864753085553646,2.46587817577521,0.5444974404358202,1.0544104758940245,0.3238615046091247,-0.39250456234122666,-2.153291787532338,0.8647539153680389,2.46587817577521,0.5445020185570556,0.00033336142953336564,-0.0020249576456693942,0.00016399411208174722,0.0008664193172462416,0.00013921851510726956,9.575086941367267e-05,-0.001056596383642308,0.0,0.0,0.0,0.0,0.0,0.0,0.0,-0.00013224070310591252,1.597404614572806e-05,-6.641823890873866e-06,1.6704358554164855e-06,8.298143928664459e-07,0.0,4.578121235443433e-06,-0.00033336142953336564,0.0020249576456693942,-0.00016399411208174722,-0.0008664193172462416,-0.00013921851510726956,-9.575086941367267e-05,0.001056596383642308,0.4267818331718445,34.01534652709961,4.096584796905518,-19.213899612426758,-0.1714988350868225,-1.777347207069397,0.13217489421367645,0
58,0.28497815132141113,-0.4267818331718445,-34.01534652709961,-4.096584796905518,19.213899612426758,0.1714988350868225,1.777347207069397,-0.13217489421367645,0.0,0.0,0.0,0.0,0.0,0.0,0.0,-0.42089007013676033,-0.016058980508041356,-0.5195690553780365,0.2111945554537982,0.1184924214694353,-0.12939461536625407,-0.15414087296051854,1.0545427165971304,0.323845530562979,-0.3924979205173358,-2.1532934579681933,0.864753085553646,2.46587817577521,0.5444974404358202,1.0544104758940245,0.3238615046091247,-0.39250456234122666,-2.153291787532338,0.8647539153680389,2.46587817577521,0.5445020185570556,0.00033336142953336564,-0.0020249576456693942,0.00016399411208174722,0.0008664193172462416,0.00013921851510726956,9.575086941367267e-05,-0.001056596383642308,0.0,0.0,0.0,0.0,0.0,0.0,0.0,-0.00013224070310591252,1.597404614572806e-05,-6.641823890873866e-06,1.6704358554164855e-06,8.298143928664459e-07,0.0,4.578121235443433e-06,-0.00033336142953336564,0.0020249576456693942,-0.00016399411208174722,-0.0008664193172462416,-0.00013921851510726956,-9.575086941367267e-05,0.001056596383642308,0.4267818331718445,34.01534652709961,4.096584796905518,-19.213899612426758,-0.1714988350868225,-1.777347207069397,0.13217489421367645,0
59,0.2899937629699707,-0.4783565402030945,-34.09072494506836,-4.096584796905518,19.190095901489258,0.1714988350868225,1.770938515663147,-0.13217489421367645,0.0,0.0,0.0,0.0,0.0,0.0,0.0,-0.42738085195891584,-0.01810097385487941,-0.5263987634065633,0.20882415823926648,0.1191015007577644,-0.12834905571310792,-0.15459819677802622,1.054546665312039,0.3238508199508177,-0.3924979205173358,-2.1532918699486365,0.864753085553646,2.465878887905868,0.5444967340163822,1.0544104758940245,0.3238615046091247,-0.39250456234122666,-2.153291787532338,0.8647539153680389,2.46587817577521,0.5445020185570556,0.0013203334472438224,-0.00041685682340250005,0.00015049794004208669,0.0012028544474291232,-0.000111410012578671,0.00037987877145632606,-0.001001545415255418,0.0,0.0,0.0,0.0,0.0,0.0,0.0,-0.00013618941801452067,1.0684658307003048e-05,-6.641823890873866e-06,8.241629867455913e-08,8.298143928664459e-07,-7.121306579982445e-07,5.2845406733892375e-06,-0.0013203334472438224,0.00041685682340250005,-0.00015049794004208669,-0.0012028544474291232,0.000111410012578671,-0.00037987877145632606,0.001001545415255418,0.4783565402030945,34.09072494506836,4.096584796905518,-19.190095901489258,-0.1714988350868225,-1.770938515663147,0.13217489421367645,0
60,0.2949841022491455,-0.4783565402030945,-34.09072494506836,-4.096584796905518,19.190095901489258,0.1714988350868225,1.770938515663147,-0.13217489421367645,0.0,0.0,0.0,0.0,0.0,0.0,0.0,-0.42738085195891584,-0.01810097385487941,-0.5263987634065633,0.20882415823926648,0.1191015007577644,-0.12834905571310792,-0.15459819677802622,1.054546665312039,0.3238508199508177,-0.3924979205173358,-2.1532918699486365,0.864753085553646,2.465878887905868,0.5444967340163822,1.0544104758940245,0.3238615046091247,-0.39250456234122666,-2.153291787532338,0.8647539153680389,2.46587817577521,0.5445020185570556,0.0013203334472438224,-0.00041685682340250005,0.00015049794004208669,0.0012028544474291232,-0.000111410012578671,0.00037987877145632606,-0.001001545415255418,0.0,0.0,0.0,0.0,0.0,0.0,0.0,-0.00013618941801452067,1.0684658307003048e-05,-6.641823890873866e-06,8.241629867455913e-08,8.298143928664459e-07,-7.121306579982445e-07,5.2845406733892375e-06,-0.0013203334472438224,0.00041685682340250005,-0.00015049794004208669,-0.0012028544474291232,0.000111410012578671,-0.00037987877145632606,0.001001545415255418,0.4783565402030945,34.09072494506836,4.096584796905518,-19.190095901489258,-0.1714988350868225,-1.770938515663147,0.13217489421367645,0
61,0.30002570152282715,-0.4267818331718445,-34.09072494506836,-4.072781085968018,19.237703323364258,0.1650901436805725,1.763614296913147,-0.11111776530742645,0.0,0.0,0.0,0.0,0.0,0.0,0.0,-0.42961336881119366,-0.018811131983648807,-0.528590200292126,0.20887490627378405,0.11859925510032342,-0.12709119966334773,-0.15511664510775117,1.0545437612152346,0.32384867451065275,-0.3924995909531911,-2.153295128404513,0.8647548572685984,2.4658797016541163,0.544494041118695,1.0544104758940245,0.3238615046091247,-0.39250456234122666,-2.153291787532338,0.8647539153680389,2.46587817577521,0.5445020185570556,-0.00023252504243762617,-0.000123526127703458,-0.0007969428030038779,5.57739115294262e-05,0.00034433744938451675,0.0005458630119570238,-0.0015339675494538396,0.0,0.0,0.0,0.0,0.0,0.0,0.0,-0.00013328532121015257,1.2830098471972029e-05,-4.971388035568403e-06,3.3408721753502846e-06,-9.419005594368812e-07,-1.5258789063388178e-06,7.977438360562417e-06,0.00023252504243762617,0.000123526127703458,0.0007969428030038779,-5.57739115294262e-05,-0.00034433744938451675,-0.0005458630119570238,0.0015339675494538396,0.4267818331718445,34.09072494506836,4.072781085968018,-19.237703323364258,-0.1650901436805725,-1.763614296913147,0.11111776530742645,0
62,0.30498242378234863,-0.4267818331718445,-34.09072494506836,-4.072781085968018,19.237703323364258,0.1650901436805725,1.763614296913147,-0.11111776530742645,0.0,0.0,0.0,0.0,0.0,0.0,0.0,-0.42961336881119366,-0.018811131983648807,-0.528590200292126,0.20887490627378405,0.11859925510032342,-0.12709119966334773,-0.15511664510775117,1.0545437612152346,0.32384867451065275,-0.3924995909531911,-2.153295128404513,0.8647548572685984,2.4658797016541163,0.544494041118695,1.0544104758940245,0.3238615046091247,-0.39250456234122666,-2.153291787532338,0.8647539153680389,2.46587817577521,0.5445020185570556,-0.00023252504243762617,-0.000123526127703458,-0.0007969428030038779,5.57739115294262e-05,0.00034433744938451675,0.0005458630119570238,-0.0015339675494538396,0.0,0.0,0.0,0.0,0.0,0.0,0.0,-0.00013328532121015257,1.2830098471972029e-05,-4.971388035568403e-06,3.3408721753502846e-06,-9.419005594368812e-07,-1.5258789063388178e-06,7.977438360562417e-06,0.00023252504243762617,0.000123526127703458,0.0007969428030038779,-5.57739115294262e-05,-0.00034433744938451675,-0.0005458630119570238,0.0015339675494538396,0.4267818331718445,34.09072494506836,4.072781085968018,-19.237703323364258,-0.1650901436805725,-1.763614296913147,0.11111776530742645,0
63,0.30999135971069336,-0.4267818331718445,-34.09072494506836,-4.072781085968018,19.237703323364258,0.1650901436805725,1.763614296913147,-0.11111776530742645,0.0,0.0,0.0,0.0,0.0,0.0,0.0,-0.42961336881119366,-0.018811131983648807,-0.528590200292126,0.20887490627378405,0.11859925510032342,-0.12709119966334773,-0.15511664510775117,1.0545437612152346,0.32384867451065275,-0.3924995909531911,-2.153295128404513,0.8647548572685984,2.4658797016541163,0.544494041118695,1.0544104758940245,0.3238615046091247,-0.39250456234122666,-2.153291787532338,0.8647539153680389,2.46587817577521,0.5445020185570556,-0.00023252504243762617,-0.000123526127703458,-0.0007969428030038779,5.57739115294262e-05,0.00034433744938451675,0.0005458630119570238,-0.0015339675494538396,0.0,0.0,0.0,0.0,0.0,0.0,0.0,-0.00013328532121015257,1.2830098471972029e-05,-4.971388035568403e-06,3.3408721753502846e-06,-9.419005594368812e-07,-1.5258789063388178e-06,7.977438360562417e-06,0.00023252504243762617,0.000123526127703458,0.0007969428030038779,-5.57739115294262e-05,-0.00034433744938451675,-0.0005458630119570238,0.0015339675494538396,0.4267818331718445,34.09072494506836,4.072781085968018,-19.237703323364258,-0.1650901436805725,-1.763614296913147,0.11111776530742645,0
64,0.31499361991882324,-0.4029781222343445,-34.06295394897461,-4.072781085968018,19.213899612426758,0.1714988350868225,1.770938515663147,-0.11111776530742645,0.0,0.0,0.0,0.0,0.0,0.0,0.0,-0.423720715877746,-0.01587641056751982,-0.5240577434876809,0.20844132490033196,0.11797526571876854,-0.12784885185559536,-0.15545921038414992,1.0545412761169553,0.3238488714239225,-0.3924995909531911,-2.1532934579681933,0.8647530855596277,2.465878887852033,0.5444941590157767,1.0544104758940245,0.3238615046091247,-0.39250456234122666,-2.153291787532338,0.8647539153680389,2.46587817577521,0.5445020185570556,-0.0006610010310668489,-0.0006872676395339042,-0.0004726105035807643,0.0009168446449669684,-0.0001223678654122862,0.00041136214111901927,-0.0015859904779065915,0.0,0.0,0.0,0.0,0.0,0.0,0.0,-0.00013080022293077143,1.263318520222656e-05,-4.971388035568403e-06,1.6704358554164855e-06,8.298084112068338e-07,-7.120768228396912e-07,7.859541278909532e-06,0.0006610010310668489,0.0006872676395339042,0.0004726105035807643,-0.0009168446449669684,0.0001223678654122862,-0.00041136214111901927,0.0015859904779065915,0.4029781222343445,34.06295394897461,4.072781085968018,-19.213899612426758,-0.1714988350868225,-1.770938515663147,0.11111776530742645,0
65,0.3199453353881836,-0.4029781222343445,-34.06295394897461,-4.072781085968018,19.213899612426758,0.1714988350868225,1.770938515663147,-0.11111776530742645,0.0,0.0,0.0,0.0,0.0,0.0,0.0,-0.423720715877746,-0.01587641056751982,-0.5240577434876809,0.20844132490033196,0.11797526571876854,-0.12784885185559536,-0.15545921038414992,1.0545412761169553,0.3238488714239225,-0.3924995909531911,-2.1532934579681933,0.8647530855596277,2.465878887852033,0.5444941590157767,1.0544104758940245,0.3238615046091247,-0.39250456234122666,-2.153291787532338,0.8647539153680389,2.46587817577521,0.5445020185570556,-0.0006610010310668489,-0.0006872676395339042,-0.0004726105035807643,0.0009168446449669684,-0.0001223678654122862,0.00041136214111901927,-0.0015859904779065915,0.0,0.0,0.0,0.0,0.0,0.0,0.0,-0.00013080022293077143,1.263318520222656e-05,-4.971388035568403e-06,1.6704358554164855e-06,8.298084112068338e-07,-7.120768228396912e-07,7.859541278909532e-06,0.0006610010310668489,0.0006872676395339042,0.0004726105035807643,-0.0009168446449669684,0.0001223678654122862,-0.00041136214111901927,0.0015859904779065915,0.4029781222343445,34.06295394897461,4.072781085968018,-19.213899612426758,-0.1714988350868225,-1.770938515663147,0.11111776530742645,0
66,0.32499122619628906,-0.4029781222343445,-34.06295394897461,-4.072781085968018,19.213899612426758,0.1714988350868225,1.770938515663147,-0.11111776530742645,0.0,0.0,0.0,0.0,0.0,0.0,0.0,-0.423720715877746,-0.01587641056751982,-0.5240577434876809,0.20844132490033196,0.11797526571876854,-0.12784885185559536,-0.15545921038414992,1.0545412761169553,0.3238488714239225,-0.3924995909531911,-2.1532934579681933,0.8647530855596277,2.465878887852033,0.5444941590157767,1.0544104758940245,0.3238615046091247,-0.39250456234122666,-2.153291787532338,0.8647539153680389,2.46587817577521,0.5445020185570556,-0.0006610010310668489,-0.0006872676395339042,-0.0004726105035807643,0.0009168446449669684,-0.0001223678654122862,0.00041136214111901927,-0.0015859904779065915,0.0,0.0,0.0,0.0,0.0,0.0,0.0,-0.00013080022293077143,1.263318520222656e-05,-4.971388035568403e-06,1.6704358554164855e-06,8.298084112068338e-07,-7.120768228396912e-07,7.859541278909532e-06,0.0006610010310668489,0.0006872676395339042,0.0004726105035807643,-0.0009168446449669684,0.0001223678654122862,-0.00041136214111901927,0.0015859904779065915,0.4029781222343445,34.06295394897461,4.072781085968018,-19.213899612426758,-0.1714988350868225,-1.770938515663147,0.11111776530742645,0
67,0.32998061180114746,-0.4029781222343445,-34.06295394897461,-4.072781085968018,19.213899612426758,0.1714988350868225,1.770938515663147,-0.11111776530742645,0.0,0.0,0.0,0.0,0.0,0.0,0.0,-0.423720715877746,-0.01587641056751982,-0.5240577434876809,0.20844132490033196,0.11797526571876854,-0.12784885185559536,-0.15545921038414992,1.0545412761169553,0.3238488714239225,-0.3924995909531911,-2.1532934579681933,0.8647530855596277,2.465878887852033,0.5444941590157767,1.0544104758940245,0.3238615046091247,-0.39250456234122666,-2.153291787532338,0.8647539153680389,2.46587817577521,0.5445020185570556,-0.0006610010310668489,-0.0006872676395339042,-0.0004726105035807643,0.0009168446449669684,-0.0001223678654122862,0.00041136214111901927,-0.0015859904779065915,0.0,0.0,0.0,0.0,0.0,0.0,0.0,-0.00013080022293077143,1.263318520222656e-05,-4.971388035568403e-06,1.6704358554164855e-06,8.298084112068338e-07,-7.120768228396912e-07,7.859541278909532e-06,0.0006610010310668489,0.0006872676395339042,0.0004726105035807643,-0.0009168446449669684,0.0001223678654122862,-0.00041136214111901927,0.0015859904779065915,0.4029781222343445,34.06295394897461,4.072781085968018,-19.213899612426758,-0.1714988350868225,-1.770938515663147,0.11111776530742645,0
68,0.3349897861480713,-0.4267818331718445,-34.06295394897461,-4.048977375030518,19.289278030395508,0.1769919991493225,1.770938515663147,-0.12485067546367645,0.0,0.0,0.0,0.0,0.0,0.0,0.0,-0.4277596858901885,-0.010049524278488904,-0.5266290035070658,0.20664743432876112,0.11754744537196826,-0.1277079313046328,-0.15482771163885403,1.054542717614048,0.323848606526503,-0.39250126138904634,-2.1532987476817347,0.8647524752020835,2.465878887852033,0.544495566996273,1.0544104758940245,0.3238615046091247,-0.39250456234122666,-2.153291787532338,0.8647539153680389,2.46587817577521,0.5445020185570556,-0.0002156978488043897,0.0001641551969191829,-0.0006787541060527692,-0.001359867732570453,-0.0002955334473518553,0.00031965059424465326,-0.0010671457448066472,0.0,0.0,0.0,0.0,0.0,0.0,0.0,-0.0001322417200235737,1.2898082621726203e-05,-3.3009521803184505e-06,6.960149396828541e-06,1.4401659553797685e-06,-7.120768228396912e-07,6.451560782605448e-06,0.0002156978488043897,-0.0001641551969191829,0.0006787541060527692,0.001359867732570453,0.0002955334473518553,-0.00031965059424465326,0.0010671457448066472,0.4267818331718445,34.06295394897461,4.048977375030518,-19.289278030395508,-0.1769919991493225,-1.770938515663147,0.12485067546367645,0
69,0.340010404586792,-0.4267818331718445,-34.06295394897461,-4.048977375030518,19.289278030395508,0.1769919991493225,1.770938515663147,-0.12485067546367645,0.0,0.0,0.0,0.0,0.0,0.0,0.0,-0.4277596858901885,-0.010049524278488904,-0.5266290035070658,0.20664743432876112,0.11754744537196826,-0.1277079313046328,-0.15482771163885403,1.054542717614048,0.323848606526503,-0.39250126138904634,-2.1532987476817347,0.8647524752020835,2.465878887852033,0.544495566996273,1.0544104758940245,0.3238615046091247,-0.39250456234122666,-2.153291787532338,0.8647539153680389,2.46587817577521,0.5445020185570556,-0.0002156978488043897,0.0001641551969191829,-0.0006787541060527692,-0.001359867732570453,-0.0002955334473518553,0.00031965059424465326,-0.0010671457448066472,0.0,0.0,0.0,0.0,0.0,0.0,0.0,-0.0001322417200235737,1.2898082621726203e-05,-3.3009521803184505e-06,6.960149396828541e-06,1.4401659553797685e-06,-7.120768228396912e-07,6.451560782605448e-06,0.0002156978488043897,-0.0001641551969191829,0.0006787541060527692,0.001359867732570453,0.0002955334473518553,-0.00031965059424465326,0.0010671457448066472,0.4267818331718445,34.06295394897461,4.048977375030518,-19.289278030395508,-0.1769919991493225,-1.770938515663147,0.12485067546367645,0
70,0.3450298309326172,-0.4029781222343445,-34.06295394897461,-4.048977375030518,19.237703323364258,0.1595969796180725,1.790164589881897,-0.14590780436992645,0.0,0.0,0.0,0.0,0.0,0.0,0.0,-0.42621243144596044,-0.014046089803302745,-0.5242801515549058,0.21022667382940038,0.11739664928983075,-0.12801391255529185,-0.1544792298725273,1.0545420941691424,0.32384887139820123,-0.39250125264049085,-2.1532951284040482,0.8647544079820315,2.4658767516215643,0.5444979459224536,1.0544104758940245,0.3238615046091247,-0.39250456234122666,-2.153291787532338,0.8647539153680389,2.46587817577521,0.5445020185570556,-0.00040613968294549787,-0.0008282469694249929,-0.0007977727921813101,2.9302021940114894e-05,0.0003928517073786552,-0.0008337016289550338,-0.0005007445319494512,0.0,0.0,0.0,0.0,0.0,0.0,0.0,-0.00013161827511787294,1.2633210923485017e-05,-3.3097007358096064e-06,3.340871710388882e-06,-4.926139925975903e-07,1.4241536456793824e-06,4.0726346020036885e-06,0.00040613968294549787,0.0008282469694249929,0.0007977727921813101,-2.9302021940114894e-05,-0.0003928517073786552,0.0008337016289550338,0.0005007445319494512,0.4029781222343445,34.06295394897461,4.048977375030518,-19.237703323364258,-0.1595969796180725,-1.790164589881897,0.14590780436992645,0
71,0.34999918937683105,-0.4029781222343445,-34.06295394897461,-4.048977375030518,19.237703323364258,0.1595969796180725,1.790164589881897,-0.14590780436992645,0.0,0.0,0.0,0.0,0.0,0.0,0.0,-0.42621243144596044,-0.014046089803302745,-0.5242801515549058,0.21022667382940038,0.11739664928983075,-0.12801391255529185,-0.1544792298725273,1.0545420941691424,0.32384887139820123,-0.39250125264049085,-2.1532951284040482,0.8647544079820315,2.4658767516215643,0.5444979459224536,1.0544104758940245,0.3238615046091247,-0.39250456234122666,-2.153291787532338,0.8647539153680389,2.46587817577521,0.5445020185570556,-0.00040613968294549787,-0.0008282469694249929,-0.0007977727921813101,2.9302021940114894e-05,0.0003928517073786552,-0.0008337016289550338,-0.0005007445319494512,0.0,0.0,0.0,0.0,0.0,0.0,0.0,-0.00013161827511787294,1.2633210923485017e-05,-3.3097007358096064e-06,3.340871710388882e-06,-4.926139925975903e-07,1.4241536456793824e-06,4.0726346020036885e-06,0.00040613968294549787,0.0008282469694249929,0.0007977727921813101,-2.9302021940114894e-05,-0.0003928517073786552,0.0008337016289550338,0.0005007445319494512,0.4029781222343445,34.06295394897461,4.048977375030518,-19.237703323364258,-0.1595969796180725,-1.790164589881897,0.14590780436992645,0
72,0.3549809455871582,-0.4267818331718445,-34.13833236694336,-4.096584796905518,19.261507034301758,0.1714988350868225,1.777347207069397,-0.13217489421367645,0.0,0.0,0.0,0.0,0.0,0.0,0.0,-0.4324401659748248,-0.015073713690731072,-0.5320608226770652,0.21189489353923885,0.11732449803190939,-0.1278790315499709,-0.15399588346706142,1.0545429364156627,0.3238539227309978,-0.39249792051728644,-2.1532967988399037,0.864753085553646,2.46587817577521,0.5444963807979123,1.0544104758940245,0.3238615046091247,-0.39250456234122666,-2.153291787532338,0.8647539153680389,2.46587817577521,0.5445020185570556,0.00018415239774132716,0.0009053435998771022,-0.00019264408495226352,-0.000370256278721988,8.463839779373845e-06,-5.4610783309294415e-05,-0.0008226364065644469,0.0,0.0,0.0,0.0,0.0,0.0,0.0,-0.000132460521638178,7.581878126938779e-06,-6.641823940223279e-06,5.011307565805367e-06,8.298143928664459e-07,0.0,5.637759143306553e-06,-0.00018415239774132716,-0.0009053435998771022,0.00019264408495226352,0.000370256278721988,-8.463839779373845e-06,5.4610783309294415e-05,0.0008226364065644469,0.4267818331718445,34.13833236694336,4.096584796905518,-19.261507034301758,-0.1714988350868225,-1.777347207069397,0.13217489421367645,0
73,0.35997676849365234,-0.4267818331718445,-34.13833236694336,-4.096584796905518,19.261507034301758,0.1714988350868225,1.777347207069397,-0.13217489421367645,0.0,0.0,0.0,0.0,0.0,0.0,0.0,-0.4324401659748248,-0.015073713690731072,-0.5320608226770652,0.21189489353923885,0.11732449803190939,-0.1278790315499709,-0.15399588346706142,1.0545429364156627,0.3238539227309978,-0.39249792051728644,-2.1532967988399037,0.864753085553646,2.46587817577521,0.5444963807979123,1.0544104758940245,0.3238615046091247,-0.39250456234122666,-2.153291787532338,0.8647539153680389,2.46587817577521,0.5445020185570556,0.00018415239774132716,0.0009053435998771022,-0.00019264408495226352,-0.000370256278721988,8.463839779373845e-06,-5.4610783309294415e-05,-0.0008226364065644469,0.0,0.0,0.0,0.0,0.0,0.0,0.0,-0.000132460521638178,7.581878126938779e-06,-6.641823940223279e-06,5.011307565805367e-06,8.298143928664459e-07,0.0,5.637759143306553e-06,-0.00018415239774132716,-0.0009053435998771022,0.00019264408495226352,0.000370256278721988,-8.463839779373845e-06,5.4610783309294415e-05,0.0008226364065644469,0.4267818331718445,34.13833236694336,4.096584796905518,-19.261507034301758,-0.1714988350868225,-1.777347207069397,0.13217489421367645,0
74,0.36497974395751953,-0.4505855441093445,-34.11452865600586,-4.096584796905518,19.213899612426758,0.1650901436805725,1.777347207069397,-0.13858358561992645,0.0,0.0,0.0,0.0,0.0,0.0,0.0,-0.43094351381992824,-0.015538594721875305,-0.5313164262382113,0.21103760700540938,0.11739697332017911,-0.12828481482197057,-0.15404308579960682,1.054547419138174,0.3238524906033597,-0.3924979205173358,-2.1532934579681933,0.864753797630469,2.46587817577521,0.5444971059564659,1.0544104758940245,0.3238615046091247,-0.39250456234122666,-2.153291787532338,0.8647539153680389,2.46587817577521,0.5445020185570556,0.00033240280637643506,0.0004639484406058744,0.00020728100812463434,0.001151102609477319,0.00024499716424668396,-0.00010443192762166179,-0.00050953811719262,0.0,0.0,0.0,0.0,0.0,0.0,0.0,-0.00013694324414958992,9.014005765028976e-06,-6.641823890873866e-06,1.6704358554164855e-06,1.1773756991573237e-07,0.0,4.912600589657146e-06,-0.00033240280637643506,-0.0004639484406058744,-0.00020728100812463434,-0.001151102609477319,-0.00024499716424668396,0.00010443192762166179,0.00050953811719262,0.4505855441093445,34.11452865600586,4.096584796905518,-19.213899612426758,-0.1650901436805725,-1.777347207069397,0.13858358561992645,0
75,0.36998677253723145,-0.4505855441093445,-34.11452865600586,-4.096584796905518,19.213899612426758,0.1650901436805725,1.777347207069397,-0.13858358561992645,0.0,0.0,0.0,0.0,0.0,0.0,0.0,-0.43094351381992824,-0.015538594721875305,-0.5313164262382113,0.21103760700540938,0.11739697332017911,-0.12828481482197057,-0.15404308579960682,1.054547419138174,0.3238524906033597,-0.3924979205173358,-2.1532934579681933,0.864753797630469,2.46587817577521,0.5444971059564659,1.0544104758940245,0.3238615046091247,-0.39250456234122666,-2.153291787532338,0.8647539153680389,2.46587817577521,0.5445020185570556,0.00033240280637643506,0.0004639484406058744,0.00020728100812463434,0.001151102609477319,0.00024499716424668396,-0.00010443192762166179,-0.00050953811719262,0.0,0.0,0.0,0.0,0.0,0.0,0.0,-0.00013694324414958992,9.014005765028976e-06,-6.641823890873866e-06,1.6704358554164855e-06,1.1773756991573237e-07,0.0,4.912600589657146e-06,-0.00033240280637643506,-0.0004639484406058744,-0.00020728100812463434,-0.001151102609477319,-0.00024499716424668396,0.00010443192762166179,0.00050953811719262,0.4505855441093445,34.11452865600586,4.096584796905518,-19.213899612426758,-0.1650901436805725,-1.777347207069397,0.13858358561992645,0
76,0.37499380111694336,-0.4267818331718445,-34.06295394897461,-4.072781085968018,19.261507034301758,0.1650901436805725,1.770938515663147,-0.13217489421367645,0.0,0.0,0.0,0.0,0.0,0.0,0.0,-0.43287285059800945,-0.018368944916829097,-0.5318236518707358,0.21028462550307897,0.1173944258341205,-0.1287091340836255,-0.15547341623986055,1.0545427804878391,0.3238467168385051,-0.3924995909531911,-2.1532967988399037,0.864753797630469,2.465878887852033,0.5444963822513148,1.0544104758940245,0.3238615046091247,-0.39250456234122666,-2.153291787532338,0.8647539153680389,2.46587817577521,0.5445020185570556,-0.0002853741647858409,-0.0009429724033685429,-0.0007342910377814318,-0.0004891514753480884,0.00012450856984349033,0.00011085944630225653,-0.0009191355118468588,0.0,0.0,0.0,0.0,0.0,0.0,0.0,-0.0001323045938146361,1.4787770619639762e-05,-4.971388035568403e-06,5.011307565805367e-06,1.1773756991573237e-07,-7.120768228396912e-07,5.6363057407970985e-06,0.0002853741647858409,0.0009429724033685429,0.0007342910377814318,0.0004891514753480884,-0.00012450856984349033,-0.00011085944630225653,0.0009191355118468588,0.4267818331718445,34.06295394897461,4.072781085968018,-19.261507034301758,-0.1650901436805725,-1.770938515663147,0.13217489421367645,0
77,0.3799936771392822,-0.4267818331718445,-34.06295394897461,-4.072781085968018,19.261507034301758,0.1650901436805725,1.770938515663147,-0.13217489421367645,0.0,0.0,0.0,0.0,0.0,0.0,0.0,-0.43287285059800945,-0.018368944916829097,-0.5318236518707358,0.21028462550307897,0.1173944258341205,-0.1287091340836255,-0.15547341623986055,1.0545427804878391,0.3238467168385051,-0.3924995909531911,-2.1532967988399037,0.864753797630469,2.465878887852033,0.5444963822513148,1.0544104758940245,0.3238615046091247,-0.39250456234122666,-2.153291787532338,0.8647539153680389,2.46587817577521,0.5445020185570556,-0.0002853741647858409,-0.0009429724033685429,-0.0007342910377814318,-0.0004891514753480884,0.00012450856984349033,0.00011085944630225653,-0.0009191355118468588,0.0,0.0,0.0,0.0,0.0,0.0,0.0,-0.0001323045938146361,1.4787770619639762e-05,-4.971388035568403e-06,5.011307565805367e-06,1.1773756991573237e-07,-7.120768228396912e-07,5.6363057407970985e-06,0.0002853741647858409,0.0009429724033685429,0.0007342910377814318,0.0004891514753480884,-0.00012450856984349033,-0.00011085944630225653,0.0009191355118468588,0.4267818331718445,34.06295394897461,4.072781085968018,-19.261507034301758,-0.1650901436805725,-1.770938515663147,0.13217489421367645,0
78,0.3850281238555908,-0.4505855441093445,-34.09072494506836,-4.124355792999268,19.261507034301758,0.1769919991493225,1.777347207069397,-0.18710653483867645,0.0,0.0,0.0,0.0,0.0,0.0,0.0,-0.42721192038875005,-0.022688463752620975,-0.5272208157861392,0.21418646904860447,0.11714634321651458,-0.12886825793693313,-0.15632603685131063,1.054546584510192,0.3238507378211746,-0.39249597167550465,-2.153297540586594,0.8647524752020835,2.46587817577521,0.5445024843133185,1.0544104758940245,0.3238615046091247,-0.39250456234122666,-2.153291787532338,0.8647539153680389,2.46587817577521,0.5445020185570556,0.0005918061936295256,-0.00019938978914591798,0.0007138419041589559,-0.00028323372930292,-6.399097597382285e-05,7.348918605698707e-06,0.0016982538801333825,0.0,0.0,0.0,0.0,0.0,0.0,0.0,-0.00013610861616752956,1.0766787950144963e-05,-8.590665722008062e-06,5.753054256096846e-06,1.4401659553797685e-06,0.0,-4.6575626289069305e-07,-0.0005918061936295256,0.00019938978914591798,-0.0007138419041589559,0.00028323372930292,6.399097597382285e-05,-7.348918605698707e-06,-0.0016982538801333825,0.4505855441093445,34.09072494506836,4.124355792999268,-19.261507034301758,-0.1769919991493225,-1.777347207069397,0.18710653483867645,0
79,0.3900306224822998,-0.4505855441093445,-34.09072494506836,-4.124355792999268,19.261507034301758,0.1769919991493225,1.777347207069397,-0.18710653483867645,0.0,0.0,0.0,0.0,0.0,0.0,0.0,-0.42721192038875005,-0.022688463752620975,-0.5272208157861392,0.21418646904860447,0.11714634321651458,-0.12886825793693313,-0.15632603685131063,1.054546584510192,0.3238507378211746,-0.39249597167550465,-2.153297540586594,0.8647524752020835,2.46587817577521,0.5445024843133185,1.0544104758940245,0.3238615046091247,-0.39250456234122666,-2.153291787532338,0.8647539153680389,2.46587817577521,0.5445020185570556,0.0005918061936295256,-0.00019938978914591798,0.0007138419041589559,-0.00028323372930292,-6.399097597382285e-05,7.348918605698707e-06,0.0016982538801333825,0.0,0.0,0.0,0.0,0.0,0.0,0.0,-0.00013610861616752956,1.0766787950144963e-05,-8.590665722008062e-06,5.753054256096846e-06,1.4401659553797685e-06,0.0,-4.6575626289069305e-07,-0.0005918061936295256,0.00019938978914591798,-0.0007138419041589559,0.00028323372930292,6.399097597382285e-05,-7.348918605698707e-06,-0.0016982538801333825,0.4505855441093445,34.09072494506836,4.124355792999268,-19.261507034301758,-0.1769919991493225,-1.777347207069397,0.18710653483867645,0
80,0.39497947692871094,-0.4505855441093445,-34.11452865600586,-4.096584796905518,19.237703323364258,0.1769919991493225,1.777347207069397,-0.14590780436992645,0.0,0.0,0.0,0.0,0.0,0.0,0.0,-0.43645886185401916,-0.020907223524836396,-0.5359893741554406,0.2123176154059741,0.11813431582438041,-0.12840638180936637,-0.1558322544621897,1.0545466712977365,0.32385249071325634,-0.3924979205173358,-2.153295128408235,0.8647524752020835,2.46587817577521,0.544497906676597,1.0544104758940245,0.3238615046091247,-0.39250456234122666,-2.153291787532338,0.8647539153680389,2.46587817577521,0.5445020185570556,0.000138498786294645,0.0004458142629431867,-0.00022764118806144893,-2.791417053303201e-05,-0.00010679771780312049,-8.220335375221398e-05,-0.00030779641154954975,0.0,0.0,0.0,0.0,0.0,0.0,0.0,-0.00013619540371201388,9.013895868381638e-06,-6.641823890873866e-06,3.3408758972619523e-06,1.4401659553797685e-06,0.0,4.111880458568251e-06,-0.000138498786294645,-0.0004458142629431867,0.00022764118806144893,2.791417053303201e-05,0.00010679771780312049,8.220335375221398e-05,0.00030779641154954975,0.4505855441093445,34.11452865600586,4.096584796905518,-19.237703323364258,-0.1769919991493225,-1.777347207069397,0.14590780436992645,0
81,0.3999919891357422,-0.4505855441093445,-34.11452865600586,-4.096584796905518,19.237703323364258,0.1769919991493225,1.777347207069397,-0.14590780436992645,0.0,0.0,0.0,0.0,0.0,0.0,0.0,-0.43645886185401916,-0.020907223524836396,-0.5359893741554406,0.2123176154059741,0.11813431582438041,-0.12840638180936637,-0.1558322544621897,1.0545466712977365,0.32385249071325634,-0.3924979205173358,-2.153295128408235,0.8647524752020835,2.46587817577521,0.544497906676597,1.0544104758940245,0.3238615046091247,-0.39250456234122666,-2.153291787532338,0.8647539153680389,2.46587817577521,0.5445020185570556,0.000138498786294645,0.0004458142629431867,-0.00022764118806144893,-2.791417053303201e-05,-0.00010679771780312049,-8.220335375221398e-05,-0.00030779641154954975,0.0,0.0,0.0,0.0,0.0,0.0,0.0,-0.00013619540371201388,9.013895868381638e-06,-6.641823890873866e-06,3.3408758972619523e-06,1.4401659553797685e-06,0.0,4.111880458568251e-06,-0.000138498786294645,-0.0004458142629431867,0.00022764118806144893,2.791417053303201e-05,0.00010679771780312049,8.220335375221398e-05,0.00030779641154954975,0.4505855441093445,34.11452865600586,4.096584796905518,-19.237703323364258,-0.1769919991493225,-1.777347207069397,0.14590780436992645,0
