rezayati/contactInterpretation/dataset/franka_main/labeled_data/link3/e4_4.csv
index,time,tau_J0,tau_J1,tau_J2,tau_J3,tau_J4,tau_J5,tau_J6,tau_J_d0,tau_J_d1,tau_J_d2,tau_J_d3,tau_J_d4,tau_J_d5,tau_J_d6,tau_ext0,tau_ext1,tau_ext2,tau_ext3,tau_ext4,tau_ext5,tau_ext6,q0,q1,q2,q3,q4,q5,q6,q_d0,q_d1,q_d2,q_d3,q_d4,q_d5,q_d6,dq0,dq1,dq2,dq3,dq4,dq5,dq6,dq_d0,dq_d1,dq_d2,dq_d3,dq_d4,dq_d5,dq_d6,e0,e1,e2,e3,e4,e5,e6,de0,de1,de2,de3,de4,de5,de6,etau_J0,etau_J1,etau_J2,etau_J3,etau_J4,etau_J5,etau_J6,label
1,0.0,-0.3514034152030945,-19.768823623657227,-0.4982573688030243,19.955781936645508,0.6832786202430725,2.4694857597351074,-0.21457235515117645,0.0,0.0,0.0,0.0,0.0,0.0,0.0,-0.3355596221990086,-0.031165550537154658,-0.30889261397589535,0.17801322371963657,0.09517117755034736,0.09439808274763568,-0.24303220456400615,1.2134440179297843,-0.2201227519114812,-0.007484736532038241,-2.603894883975648,-0.10888824924053979,2.4681835499519083,0.8264715650397827,1.2134413937687574,-0.2202432315892585,-0.0075118285948192216,-2.6038483821997875,-0.10888392708698907,2.4681821257803174,0.826474908251239,0.0004521123867111971,-3.9426806495743866e-06,-0.0005079266792529192,-0.0001407505054736621,-0.00014467495717137305,-9.270508461726575e-05,-0.0015509271592909987,0.0,0.0,0.0,0.0,0.0,0.0,0.0,-2.624161026920646e-06,-0.00012047967777728541,-2.709206278098033e-05,4.650177586063009e-05,4.322153550714858e-06,-1.4241715908802632e-06,3.3432114563414217e-06,-0.0004521123867111971,3.9426806495743866e-06,0.0005079266792529192,0.0001407505054736621,0.00014467495717137305,9.270508461726575e-05,0.0015509271592909987,0.3514034152030945,19.768823623657227,0.4982573688030243,-19.955781936645508,-0.6832786202430725,-2.4694857597351074,0.21457235515117645,0
2,0.005004405975341797,-0.3236324191093445,-19.745019912719727,-0.5220611095428467,19.884370803833008,0.6777854561805725,2.4566683769226074,-0.25485557317733765,0.0,0.0,0.0,0.0,0.0,0.0,0.0,-0.33488132943820076,-0.03011096371011236,-0.30790617614448,0.1746907652211335,0.0947984967843833,0.09438463176935498,-0.2438492387324511,1.2134400116230386,-0.22012442234733645,-0.007483066094091587,-2.6038898726680824,-0.10888728402258606,2.4681849755411593,0.8264762779359305,1.2134413937687574,-0.2202432315892585,-0.0075118285948192216,-2.6038483821997875,-0.10888392708698907,2.4681821257803174,0.826474908251239,-0.00013190865481835736,-0.0005815820998374487,0.0005924078134131826,0.0012010881055175245,0.00012175614948146002,0.00033537666494396656,0.000547681853368453,0.0,0.0,0.0,0.0,0.0,0.0,0.0,1.3821457187646047e-06,-0.00011880924192203546,-2.8762500727634588e-05,4.149046829482472e-05,3.3569355969848003e-06,-2.849760841971971e-06,-1.3696846914434957e-06,0.00013190865481835736,0.0005815820998374487,-0.0005924078134131826,-0.0012010881055175245,-0.00012175614948146002,-0.00033537666494396656,-0.000547681853368453,0.3236324191093445,19.745019912719727,0.5220611095428467,-19.884370803833008,-0.6777854561805725,-2.4566683769226074,0.25485557317733765,0
3,0.009998083114624023,-0.3236324191093445,-19.745019912719727,-0.5220611095428467,19.884370803833008,0.6777854561805725,2.4566683769226074,-0.25485557317733765,0.0,0.0,0.0,0.0,0.0,0.0,0.0,-0.33488132943820076,-0.03011096371011236,-0.30790617614448,0.1746907652211335,0.0947984967843833,0.09438463176935498,-0.2438492387324511,1.2134400116230386,-0.22012442234733645,-0.007483066094091587,-2.6038898726680824,-0.10888728402258606,2.4681849755411593,0.8264762779359305,1.2134413937687574,-0.2202432315892585,-0.0075118285948192216,-2.6038483821997875,-0.10888392708698907,2.4681821257803174,0.826474908251239,-0.00013190865481835736,-0.0005815820998374487,0.0005924078134131826,0.0012010881055175245,0.00012175614948146002,0.00033537666494396656,0.000547681853368453,0.0,0.0,0.0,0.0,0.0,0.0,0.0,1.3821457187646047e-06,-0.00011880924192203546,-2.8762500727634588e-05,4.149046829482472e-05,3.3569355969848003e-06,-2.849760841971971e-06,-1.3696846914434957e-06,0.00013190865481835736,0.0005815820998374487,-0.0005924078134131826,-0.0012010881055175245,-0.00012175614948146002,-0.00033537666494396656,-0.000547681853368453,0.3236324191093445,19.745019912719727,0.5220611095428467,-19.884370803833008,-0.6777854561805725,-2.4566683769226074,0.25485557317733765,0
4,0.014998197555541992,-0.3514034152030945,-19.768823623657227,-0.5696685314178467,19.931978225708008,0.6832786202430725,2.4630770683288574,-0.22098104655742645,0.0,0.0,0.0,0.0,0.0,0.0,0.0,-0.33915702857509805,-0.03215092484770344,-0.3108347622553692,0.17535898312003706,0.0947976301732379,0.0951321756334461,-0.24329076641537062,1.2134440219535834,-0.2201227519114812,-0.00747972522238106,-2.6038932135397928,-0.10888789437214534,2.4681842620107943,0.8264753273128903,1.2134413937687574,-0.2202432315892585,-0.0075118285948192216,-2.6038483821997875,-0.10888392708698907,2.4681821257803174,0.826474908251239,2.8411026455095235e-05,1.208848803977996e-05,0.0017578994703583704,0.0003603157699852579,-0.00019554821772094347,0.0001494465132060346,-0.001199841596457556,0.0,0.0,0.0,0.0,0.0,0.0,0.0,-2.6281848259923635e-06,-0.00012047967777728541,-3.210337243816138e-05,4.4831340005213605e-05,3.9672851562672085e-06,-2.1362304769567686e-06,-4.1906165126892603e-07,-2.8411026455095235e-05,-1.208848803977996e-05,-0.0017578994703583704,-0.0003603157699852579,0.00019554821772094347,-0.0001494465132060346,0.001199841596457556,0.3514034152030945,19.768823623657227,0.5696685314178467,-19.931978225708008,-0.6832786202430725,-2.4630770683288574,0.22098104655742645,0
5,0.01999950408935547,-0.3514034152030945,-19.768823623657227,-0.5696685314178467,19.931978225708008,0.6832786202430725,2.4630770683288574,-0.22098104655742645,0.0,0.0,0.0,0.0,0.0,0.0,0.0,-0.33915702857509805,-0.03215092484770344,-0.3108347622553692,0.17535898312003706,0.0947976301732379,0.0951321756334461,-0.24329076641537062,1.2134440219535834,-0.2201227519114812,-0.00747972522238106,-2.6038932135397928,-0.10888789437214534,2.4681842620107943,0.8264753273128903,1.2134413937687574,-0.2202432315892585,-0.0075118285948192216,-2.6038483821997875,-0.10888392708698907,2.4681821257803174,0.826474908251239,2.8411026455095235e-05,1.208848803977996e-05,0.0017578994703583704,0.0003603157699852579,-0.00019554821772094347,0.0001494465132060346,-0.001199841596457556,0.0,0.0,0.0,0.0,0.0,0.0,0.0,-2.6281848259923635e-06,-0.00012047967777728541,-3.210337243816138e-05,4.4831340005213605e-05,3.9672851562672085e-06,-2.1362304769567686e-06,-4.1906165126892603e-07,-2.8411026455095235e-05,-1.208848803977996e-05,-0.0017578994703583704,-0.0003603157699852579,0.00019554821772094347,-0.0001494465132060346,0.001199841596457556,0.3514034152030945,19.768823623657227,0.5696685314178467,-19.931978225708008,-0.6832786202430725,-2.4630770683288574,0.22098104655742645,0
6,0.025027990341186523,-0.4029781222343445,-19.745019912719727,-0.4982573688030243,19.955781936645508,0.6832786202430725,2.4566683769226074,-0.27591270208358765,0.0,0.0,0.0,0.0,0.0,0.0,0.0,-0.3396307583788319,-0.03149366954639013,-0.3120284117598668,0.17261994229976924,0.09497567323832593,0.09469070268480569,-0.2434404632826822,1.2134456561670206,-0.22012442234733645,-0.007484736532038241,-2.603894883975648,-0.10888789437214534,2.468184974087609,0.8264819527244252,1.2134413937687574,-0.2202432315892585,-0.0075118285948192216,-2.6038483821997875,-0.10888392708698907,2.4681821257803174,0.826474908251239,0.00119345224986478,-0.0008444748278684683,-0.0001825278744034386,-0.0003342931432985574,-7.229357728060827e-05,0.00023132466499799673,0.001361939555587508,0.0,0.0,0.0,0.0,0.0,0.0,0.0,-4.262398263232825e-06,-0.00011880924192203546,-2.709206278098033e-05,4.650177586063009e-05,3.9672851562672085e-06,-2.848307291802854e-06,-7.0444731861130094e-06,-0.00119345224986478,0.0008444748278684683,0.0001825278744034386,0.0003342931432985574,7.229357728060827e-05,-0.00023132466499799673,-0.001361939555587508,0.4029781222343445,19.745019912719727,0.4982573688030243,-19.955781936645508,-0.6832786202430725,-2.4566683769226074,0.27591270208358765,0
7,0.030031681060791016,-0.4029781222343445,-19.745019912719727,-0.4982573688030243,19.955781936645508,0.6832786202430725,2.4566683769226074,-0.27591270208358765,0.0,0.0,0.0,0.0,0.0,0.0,0.0,-0.3396307583788319,-0.03149366954639013,-0.3120284117598668,0.17261994229976924,0.09497567323832593,0.09469070268480569,-0.2434404632826822,1.2134456561670206,-0.22012442234733645,-0.007484736532038241,-2.603894883975648,-0.10888789437214534,2.468184974087609,0.8264819527244252,1.2134413937687574,-0.2202432315892585,-0.0075118285948192216,-2.6038483821997875,-0.10888392708698907,2.4681821257803174,0.826474908251239,0.00119345224986478,-0.0008444748278684683,-0.0001825278744034386,-0.0003342931432985574,-7.229357728060827e-05,0.00023132466499799673,0.001361939555587508,0.0,0.0,0.0,0.0,0.0,0.0,0.0,-4.262398263232825e-06,-0.00011880924192203546,-2.709206278098033e-05,4.650177586063009e-05,3.9672851562672085e-06,-2.848307291802854e-06,-7.0444731861130094e-06,-0.00119345224986478,0.0008444748278684683,0.0001825278744034386,0.0003342931432985574,7.229357728060827e-05,-0.00023132466499799673,-0.001361939555587508,0.4029781222343445,19.745019912719727,0.4982573688030243,-19.955781936645508,-0.6832786202430725,-2.4566683769226074,0.27591270208358765,0
8,0.034998178482055664,-0.3514034152030945,-19.717248916625977,-0.4982573688030243,19.931978225708008,0.6896873116493225,2.4630770683288574,-0.23471395671367645,0.0,0.0,0.0,0.0,0.0,0.0,0.0,-0.3413162304252628,-0.025107519075874312,-0.30919111610861366,0.17286810961203294,0.0951474818866123,0.09424769857584811,-0.24376030070219362,1.2134442600105522,-0.22012637118916759,-0.007484736532038241,-2.6038932135397928,-0.10888967105415132,2.468184266371437,0.8264729674401343,1.2134413937687574,-0.2202432315892585,-0.0075118285948192216,-2.6038483821997875,-0.10888392708698907,2.4681821257803174,0.826474908251239,0.00014328403510203885,-0.0007291186941918718,0.0002073080648762542,0.0006648583785795246,-0.00044963697621725564,0.0002603407866895694,-0.0011725399123020414,0.0,0.0,0.0,0.0,0.0,0.0,0.0,-2.8662417947966645e-06,-0.00011686040009090126,-2.709206278098033e-05,4.4831340005213605e-05,5.743967162241681e-06,-2.140591119470514e-06,1.9408111047169996e-06,-0.00014328403510203885,0.0007291186941918718,-0.0002073080648762542,-0.0006648583785795246,0.00044963697621725564,-0.0002603407866895694,0.0011725399123020414,0.3514034152030945,19.717248916625977,0.4982573688030243,-19.931978225708008,-0.6896873116493225,-2.4630770683288574,0.23471395671367645,0
9,0.04001450538635254,-0.3514034152030945,-19.717248916625977,-0.4982573688030243,19.931978225708008,0.6896873116493225,2.4630770683288574,-0.23471395671367645,0.0,0.0,0.0,0.0,0.0,0.0,0.0,-0.3413162304252628,-0.025107519075874312,-0.30919111610861366,0.17286810961203294,0.0951474818866123,0.09424769857584811,-0.24376030070219362,1.2134442600105522,-0.22012637118916759,-0.007484736532038241,-2.6038932135397928,-0.10888967105415132,2.468184266371437,0.8264729674401343,1.2134413937687574,-0.2202432315892585,-0.0075118285948192216,-2.6038483821997875,-0.10888392708698907,2.4681821257803174,0.826474908251239,0.00014328403510203885,-0.0007291186941918718,0.0002073080648762542,0.0006648583785795246,-0.00044963697621725564,0.0002603407866895694,-0.0011725399123020414,0.0,0.0,0.0,0.0,0.0,0.0,0.0,-2.8662417947966645e-06,-0.00011686040009090126,-2.709206278098033e-05,4.4831340005213605e-05,5.743967162241681e-06,-2.140591119470514e-06,1.9408111047169996e-06,-0.00014328403510203885,0.0007291186941918718,-0.0002073080648762542,-0.0006648583785795246,0.00044963697621725564,-0.0002603407866895694,0.0011725399123020414,0.3514034152030945,19.717248916625977,0.4982573688030243,-19.931978225708008,-0.6896873116493225,-2.4630770683288574,0.23471395671367645,0
10,0.04497408866882324,-0.3514034152030945,-19.792627334594727,-0.5220611095428467,19.983552932739258,0.6777854561805725,2.4566683769226074,-0.26858848333358765,0.0,0.0,0.0,0.0,0.0,0.0,0.0,-0.3474992821571065,-0.02690484515175096,-0.31374135792985675,0.17618257987914912,0.0955811249249341,0.09466433772184851,-0.24512525937718285,1.2134419633006592,-0.22012108147562592,-0.007483066094091587,-2.603896832817479,-0.10888728402659255,2.4681881530020218,0.826480750802491,1.2134413937687574,-0.2202432315892585,-0.0075118285948192216,-2.6038483821997875,-0.10888392708698907,2.4681821257803174,0.826474908251239,6.728693828583348e-05,0.0008603314415914087,-0.00031536383050489823,-0.0005967641495418641,0.00020205144433541763,0.0003438925325870759,0.0008686669993917293,0.0,0.0,0.0,0.0,0.0,0.0,0.0,-5.695319018617084e-07,-0.00012215011363256312,-2.8762500727634588e-05,4.8450617691653264e-05,3.356939603474385e-06,-6.027221704396624e-06,-5.842551251911132e-06,-6.728693828583348e-05,-0.0008603314415914087,0.00031536383050489823,0.0005967641495418641,-0.00020205144433541763,-0.0003438925325870759,-0.0008686669993917293,0.3514034152030945,19.792627334594727,0.5220611095428467,-19.983552932739258,-0.6777854561805725,-2.4566683769226074,0.26858848333358765,0
11,0.04999661445617676,-0.3514034152030945,-19.792627334594727,-0.5220611095428467,19.983552932739258,0.6777854561805725,2.4566683769226074,-0.26858848333358765,0.0,0.0,0.0,0.0,0.0,0.0,0.0,-0.3474992821571065,-0.02690484515175096,-0.31374135792985675,0.17618257987914912,0.0955811249249341,0.09466433772184851,-0.24512525937718285,1.2134419633006592,-0.22012108147562592,-0.007483066094091587,-2.603896832817479,-0.10888728402659255,2.4681881530020218,0.826480750802491,1.2134413937687574,-0.2202432315892585,-0.0075118285948192216,-2.6038483821997875,-0.10888392708698907,2.4681821257803174,0.826474908251239,6.728693828583348e-05,0.0008603314415914087,-0.00031536383050489823,-0.0005967641495418641,0.00020205144433541763,0.0003438925325870759,0.0008686669993917293,0.0,0.0,0.0,0.0,0.0,0.0,0.0,-5.695319018617084e-07,-0.00012215011363256312,-2.8762500727634588e-05,4.8450617691653264e-05,3.356939603474385e-06,-6.027221704396624e-06,-5.842551251911132e-06,-6.728693828583348e-05,-0.0008603314415914087,0.00031536383050489823,0.0005967641495418641,-0.00020205144433541763,-0.0003438925325870759,-0.0008686669993917293,0.3514034152030945,19.792627334594727,0.5220611095428467,-19.983552932739258,-0.6777854561805725,-2.4566683769226074,0.26858848333358765,0
12,0.055008888244628906,-0.3514034152030945,-19.792627334594727,-0.4982573688030243,19.955781936645508,0.6896873116493225,2.4694857597351074,-0.22830526530742645,0.0,0.0,0.0,0.0,0.0,0.0,0.0,-0.34031306541066925,-0.02111395277476695,-0.31119316828838445,0.17488642415616418,0.09549214350686373,0.09393592269725329,-0.24538587486128813,1.2134440464836056,-0.22012108147562592,-0.007484736532038241,-2.603894883975648,-0.10888860661123091,2.4681835499519083,0.8264730139528432,1.2134413937687574,-0.2202432315892585,-0.0075118285948192216,-2.6038483821997875,-0.10888392708698907,2.4681821257803174,0.826474908251239,0.00024156739897207327,0.0006633556905345797,-0.0002177560335246865,-0.00026208778531583974,-0.000354201219920644,-6.177439463106678e-05,-0.0008389010077339732,0.0,0.0,0.0,0.0,0.0,0.0,0.0,-2.652714848228044e-06,-0.00012215011363256312,-2.709206278098033e-05,4.650177586063009e-05,4.679524241837929e-06,-1.4241715908802632e-06,1.8942983958103454e-06,-0.00024156739897207327,-0.0006633556905345797,0.0002177560335246865,0.00026208778531583974,0.000354201219920644,6.177439463106678e-05,0.0008389010077339732,0.3514034152030945,19.792627334594727,0.4982573688030243,-19.955781936645508,-0.6896873116493225,-2.4694857597351074,0.22830526530742645,0
13,0.06002163887023926,-0.3514034152030945,-19.792627334594727,-0.4982573688030243,19.955781936645508,0.6896873116493225,2.4694857597351074,-0.22830526530742645,0.0,0.0,0.0,0.0,0.0,0.0,0.0,-0.34031306541066925,-0.02111395277476695,-0.31119316828838445,0.17488642415616418,0.09549214350686373,0.09393592269725329,-0.24538587486128813,1.2134440464836056,-0.22012108147562592,-0.007484736532038241,-2.603894883975648,-0.10888860661123091,2.4681835499519083,0.8264730139528432,1.2134413937687574,-0.2202432315892585,-0.0075118285948192216,-2.6038483821997875,-0.10888392708698907,2.4681821257803174,0.826474908251239,0.00024156739897207327,0.0006633556905345797,-0.0002177560335246865,-0.00026208778531583974,-0.000354201219920644,-6.177439463106678e-05,-0.0008389010077339732,0.0,0.0,0.0,0.0,0.0,0.0,0.0,-2.652714848228044e-06,-0.00012215011363256312,-2.709206278098033e-05,4.650177586063009e-05,4.679524241837929e-06,-1.4241715908802632e-06,1.8942983958103454e-06,-0.00024156739897207327,-0.0006633556905345797,0.0002177560335246865,0.00026208778531583974,0.000354201219920644,6.177439463106678e-05,0.0008389010077339732,0.3514034152030945,19.792627334594727,0.4982573688030243,-19.955781936645508,-0.6896873116493225,-2.4694857597351074,0.22830526530742645,0
14,0.0650324821472168,-0.3514034152030945,-19.768823623657227,-0.5220611095428467,19.983552932739258,0.6896873116493225,2.4694857597351074,-0.25485557317733765,0.0,0.0,0.0,0.0,0.0,0.0,0.0,-0.341985482380923,-0.025175612464992243,-0.3134051037497268,0.17835794046359815,0.09537114197874501,0.09411722236545912,-0.2459485067999025,1.2134420283862037,-0.2201227519114812,-0.007483066094091587,-2.603896832817479,-0.10888860644896917,2.4681839031466732,0.8264749028769633,1.2134413937687574,-0.2202432315892585,-0.0075118285948192216,-2.6038483821997875,-0.10888392708698907,2.4681821257803174,0.826474908251239,0.00015308581859264204,-0.0002033761363298837,0.00045217174867898623,-0.0007067324715469236,-0.00042468762276887025,-0.00013214899752980722,0.0002997251742412661,0.0,0.0,0.0,0.0,0.0,0.0,0.0,-6.346174463711662e-07,-0.00012047967777728541,-2.8762500727634588e-05,4.8450617691653264e-05,4.679361980092223e-06,-1.7773663558706687e-06,5.374275691139019e-09,-0.00015308581859264204,0.0002033761363298837,-0.00045217174867898623,0.0007067324715469236,0.00042468762276887025,0.00013214899752980722,-0.0002997251742412661,0.3514034152030945,19.768823623657227,0.5220611095428467,-19.983552932739258,-0.6896873116493225,-2.4694857597351074,0.25485557317733765,0
15,0.07002139091491699,-0.3514034152030945,-19.768823623657227,-0.5220611095428467,19.983552932739258,0.6896873116493225,2.4694857597351074,-0.25485557317733765,0.0,0.0,0.0,0.0,0.0,0.0,0.0,-0.341985482380923,-0.025175612464992243,-0.3134051037497268,0.17835794046359815,0.09537114197874501,0.09411722236545912,-0.2459485067999025,1.2134420283862037,-0.2201227519114812,-0.007483066094091587,-2.603896832817479,-0.10888860644896917,2.4681839031466732,0.8264749028769633,1.2134413937687574,-0.2202432315892585,-0.0075118285948192216,-2.6038483821997875,-0.10888392708698907,2.4681821257803174,0.826474908251239,0.00015308581859264204,-0.0002033761363298837,0.00045217174867898623,-0.0007067324715469236,-0.00042468762276887025,-0.00013214899752980722,0.0002997251742412661,0.0,0.0,0.0,0.0,0.0,0.0,0.0,-6.346174463711662e-07,-0.00012047967777728541,-2.8762500727634588e-05,4.8450617691653264e-05,4.679361980092223e-06,-1.7773663558706687e-06,5.374275691139019e-09,-0.00015308581859264204,0.0002033761363298837,-0.00045217174867898623,0.0007067324715469236,0.00042468762276887025,0.00013214899752980722,-0.0002997251742412661,0.3514034152030945,19.768823623657227,0.5220611095428467,-19.983552932739258,-0.6896873116493225,-2.4694857597351074,0.25485557317733765,0
16,0.07502555847167969,-0.3236324191093445,-19.768823623657227,-0.4982573688030243,19.931978225708008,0.6713767647743225,2.4566683769226074,-0.22098104655742645,0.0,0.0,0.0,0.0,0.0,0.0,0.0,-0.34175177174812077,-0.03196816065586818,-0.3103932132497351,0.18074800982397007,0.09494828986683927,0.09396679578590367,-0.2463520147252335,1.2134400140263162,-0.2201227519114812,-0.007484736532038241,-2.6038932135397928,-0.10888657194375992,2.4681849740896027,0.8264753688120628,1.2134413937687574,-0.2202432315892585,-0.0075118285948192216,-2.6038483821997875,-0.10888392708698907,2.4681821257803174,0.826474908251239,-0.0002805494562830507,-0.00047632363040949583,-3.764609696237651e-05,0.0005508353709519814,0.00016160946834806557,0.0003935817777540016,-0.0009125838982071113,0.0,0.0,0.0,0.0,0.0,0.0,0.0,1.379742441187659e-06,-0.00012047967777728541,-2.709206278098033e-05,4.4831340005213605e-05,2.6448567708448056e-06,-2.848309285319317e-06,-4.605608238117398e-07,0.0002805494562830507,0.00047632363040949583,3.764609696237651e-05,-0.0005508353709519814,-0.00016160946834806557,-0.0003935817777540016,0.0009125838982071113,0.3236324191093445,19.768823623657227,0.4982573688030243,-19.931978225708008,-0.6713767647743225,-2.4566683769226074,0.22098104655742645,0
17,0.08003425598144531,-0.3236324191093445,-19.768823623657227,-0.4982573688030243,19.931978225708008,0.6713767647743225,2.4566683769226074,-0.22098104655742645,0.0,0.0,0.0,0.0,0.0,0.0,0.0,-0.34175177174812077,-0.03196816065586818,-0.3103932132497351,0.18074800982397007,0.09494828986683927,0.09396679578590367,-0.2463520147252335,1.2134400140263162,-0.2201227519114812,-0.007484736532038241,-2.6038932135397928,-0.10888657194375992,2.4681849740896027,0.8264753688120628,1.2134413937687574,-0.2202432315892585,-0.0075118285948192216,-2.6038483821997875,-0.10888392708698907,2.4681821257803174,0.826474908251239,-0.0002805494562830507,-0.00047632363040949583,-3.764609696237651e-05,0.0005508353709519814,0.00016160946834806557,0.0003935817777540016,-0.0009125838982071113,0.0,0.0,0.0,0.0,0.0,0.0,0.0,1.379742441187659e-06,-0.00012047967777728541,-2.709206278098033e-05,4.4831340005213605e-05,2.6448567708448056e-06,-2.848309285319317e-06,-4.605608238117398e-07,0.0002805494562830507,0.00047632363040949583,3.764609696237651e-05,-0.0005508353709519814,-0.00016160946834806557,-0.0003935817777540016,0.0009125838982071113,0.3236324191093445,19.768823623657227,0.4982573688030243,-19.931978225708008,-0.6713767647743225,-2.4566683769226074,0.22098104655742645,0
18,0.08503437042236328,-0.3236324191093445,-19.768823623657227,-0.4982573688030243,19.931978225708008,0.6777854561805725,2.4694857597351074,-0.28232139348983765,0.0,0.0,0.0,0.0,0.0,0.0,0.0,-0.3442312753433036,-0.027394733319116252,-0.31056920950575784,0.17671249229723066,0.09455074502604335,0.09331205188016277,-0.2457972770635849,1.21344209858658,-0.2201227519114812,-0.007484736532038241,-2.6038932135397928,-0.10888728402058283,2.468183550095469,0.8264794851872369,1.2134413937687574,-0.2202432315892585,-0.0075118285948192216,-2.6038483821997875,-0.10888392708698907,2.4681821257803174,0.826474908251239,-0.0004362989694064948,-0.00010786573864621037,-0.0005045358892538102,0.0005517514233973193,0.00022577396798445035,-0.00014502664553569573,0.001940341043771389,0.0,0.0,0.0,0.0,0.0,0.0,0.0,-7.048178225499413e-07,-0.00012047967777728541,-2.709206278098033e-05,4.4831340005213605e-05,3.3569335937538858e-06,-1.4243151515991315e-06,-4.576935997868681e-06,0.0004362989694064948,0.00010786573864621037,0.0005045358892538102,-0.0005517514233973193,-0.00022577396798445035,0.00014502664553569573,-0.001940341043771389,0.3236324191093445,19.768823623657227,0.4982573688030243,-19.931978225708008,-0.6777854561805725,-2.4694857597351074,0.28232139348983765,0
19,0.09003567695617676,-0.3236324191093445,-19.768823623657227,-0.4982573688030243,19.931978225708008,0.6777854561805725,2.4694857597351074,-0.28232139348983765,0.0,0.0,0.0,0.0,0.0,0.0,0.0,-0.3442312753433036,-0.027394733319116252,-0.31056920950575784,0.17671249229723066,0.09455074502604335,0.09331205188016277,-0.2457972770635849,1.21344209858658,-0.2201227519114812,-0.007484736532038241,-2.6038932135397928,-0.10888728402058283,2.468183550095469,0.8264794851872369,1.2134413937687574,-0.2202432315892585,-0.0075118285948192216,-2.6038483821997875,-0.10888392708698907,2.4681821257803174,0.826474908251239,-0.0004362989694064948,-0.00010786573864621037,-0.0005045358892538102,0.0005517514233973193,0.00022577396798445035,-0.00014502664553569573,0.001940341043771389,0.0,0.0,0.0,0.0,0.0,0.0,0.0,-7.048178225499413e-07,-0.00012047967777728541,-2.709206278098033e-05,4.4831340005213605e-05,3.3569335937538858e-06,-1.4243151515991315e-06,-4.576935997868681e-06,0.0004362989694064948,0.00010786573864621037,0.0005045358892538102,-0.0005517514233973193,-0.00022577396798445035,0.00014502664553569573,-0.001940341043771389,0.3236324191093445,19.768823623657227,0.4982573688030243,-19.931978225708008,-0.6777854561805725,-2.4694857597351074,0.28232139348983765,0
20,0.09503650665283203,-0.3514034152030945,-19.792627334594727,-0.4982573688030243,19.908174514770508,0.6832786202430725,2.4566683769226074,-0.21457235515117645,0.0,0.0,0.0,0.0,0.0,0.0,0.0,-0.3391898166362377,-0.02758383710699496,-0.3053347456748535,0.1750771273457035,0.09424456373262165,0.09340104727452153,-0.24505950578686608,1.2134426412514445,-0.22012108147562592,-0.007484736532038241,-2.6038915431039373,-0.10888789437214534,2.46818532730032,0.8264735942524853,1.2134413937687574,-0.2202432315892585,-0.0075118285948192216,-2.6038483821997875,-0.10888392708698907,2.4681821257803174,0.826474908251239,0.0004046604908243256,0.0007364289223107696,5.056576286701193e-05,0.0006105968014638212,-0.00015236971863130818,0.0003719901257794561,-0.0006929275388228458,0.0,0.0,0.0,0.0,0.0,0.0,0.0,-1.2474826871500255e-06,-0.00012215011363256312,-2.709206278098033e-05,4.316090414979712e-05,3.9672851562672085e-06,-3.2015200024382295e-06,1.313998753693646e-06,-0.0004046604908243256,-0.0007364289223107696,-5.056576286701193e-05,-0.0006105968014638212,0.00015236971863130818,-0.0003719901257794561,0.0006929275388228458,0.3514034152030945,19.792627334594727,0.4982573688030243,-19.908174514770508,-0.6832786202430725,-2.4566683769226074,0.21457235515117645,0
21,0.10003423690795898,-0.3514034152030945,-19.792627334594727,-0.4982573688030243,19.908174514770508,0.6832786202430725,2.4566683769226074,-0.21457235515117645,0.0,0.0,0.0,0.0,0.0,0.0,0.0,-0.3391898166362377,-0.02758383710699496,-0.3053347456748535,0.1750771273457035,0.09424456373262165,0.09340104727452153,-0.24505950578686608,1.2134426412514445,-0.22012108147562592,-0.007484736532038241,-2.6038915431039373,-0.10888789437214534,2.46818532730032,0.8264735942524853,1.2134413937687574,-0.2202432315892585,-0.0075118285948192216,-2.6038483821997875,-0.10888392708698907,2.4681821257803174,0.826474908251239,0.0004046604908243256,0.0007364289223107696,5.056576286701193e-05,0.0006105968014638212,-0.00015236971863130818,0.0003719901257794561,-0.0006929275388228458,0.0,0.0,0.0,0.0,0.0,0.0,0.0,-1.2474826871500255e-06,-0.00012215011363256312,-2.709206278098033e-05,4.316090414979712e-05,3.9672851562672085e-06,-3.2015200024382295e-06,1.313998753693646e-06,-0.0004046604908243256,-0.0007364289223107696,-5.056576286701193e-05,-0.0006105968014638212,0.00015236971863130818,-0.0003719901257794561,0.0006929275388228458,0.3514034152030945,19.792627334594727,0.4982573688030243,-19.908174514770508,-0.6832786202430725,-2.4566683769226074,0.21457235515117645,0
22,0.10503387451171875,-0.3514034152030945,-19.792627334594727,-0.4982573688030243,19.908174514770508,0.6832786202430725,2.4566683769226074,-0.21457235515117645,0.0,0.0,0.0,0.0,0.0,0.0,0.0,-0.3391898166362377,-0.02758383710699496,-0.3053347456748535,0.1750771273457035,0.09424456373262165,0.09340104727452153,-0.24505950578686608,1.2134426412514445,-0.22012108147562592,-0.007484736532038241,-2.6038915431039373,-0.10888789437214534,2.46818532730032,0.8264735942524853,1.2134413937687574,-0.2202432315892585,-0.0075118285948192216,-2.6038483821997875,-0.10888392708698907,2.4681821257803174,0.826474908251239,0.0004046604908243256,0.0007364289223107696,5.056576286701193e-05,0.0006105968014638212,-0.00015236971863130818,0.0003719901257794561,-0.0006929275388228458,0.0,0.0,0.0,0.0,0.0,0.0,0.0,-1.2474826871500255e-06,-0.00012215011363256312,-2.709206278098033e-05,4.316090414979712e-05,3.9672851562672085e-06,-3.2015200024382295e-06,1.313998753693646e-06,-0.0004046604908243256,-0.0007364289223107696,-5.056576286701193e-05,-0.0006105968014638212,0.00015236971863130818,-0.0003719901257794561,0.0006929275388228458,0.3514034152030945,19.792627334594727,0.4982573688030243,-19.908174514770508,-0.6832786202430725,-2.4566683769226074,0.21457235515117645,0
23,0.11003613471984863,-0.3514034152030945,-19.792627334594727,-0.4982573688030243,19.908174514770508,0.6832786202430725,2.4566683769226074,-0.21457235515117645,0.0,0.0,0.0,0.0,0.0,0.0,0.0,-0.3391898166362377,-0.02758383710699496,-0.3053347456748535,0.1750771273457035,0.09424456373262165,0.09340104727452153,-0.24505950578686608,1.2134426412514445,-0.22012108147562592,-0.007484736532038241,-2.6038915431039373,-0.10888789437214534,2.46818532730032,0.8264735942524853,1.2134413937687574,-0.2202432315892585,-0.0075118285948192216,-2.6038483821997875,-0.10888392708698907,2.4681821257803174,0.826474908251239,0.0004046604908243256,0.0007364289223107696,5.056576286701193e-05,0.0006105968014638212,-0.00015236971863130818,0.0003719901257794561,-0.0006929275388228458,0.0,0.0,0.0,0.0,0.0,0.0,0.0,-1.2474826871500255e-06,-0.00012215011363256312,-2.709206278098033e-05,4.316090414979712e-05,3.9672851562672085e-06,-3.2015200024382295e-06,1.313998753693646e-06,-0.0004046604908243256,-0.0007364289223107696,-5.056576286701193e-05,-0.0006105968014638212,0.00015236971863130818,-0.0003719901257794561,0.0006929275388228458,0.3514034152030945,19.792627334594727,0.4982573688030243,-19.908174514770508,-0.6832786202430725,-2.4566683769226074,0.21457235515117645,0
24,0.11504149436950684,-0.3236324191093445,-19.768823623657227,-0.5220611095428467,19.931978225708008,0.6832786202430725,2.4630770683288574,-0.24844686686992645,0.0,0.0,0.0,0.0,0.0,0.0,0.0,-0.3448235880114242,-0.0313683358169844,-0.31010372128918623,0.1812181497498704,0.09461421184787196,0.09452445063389363,-0.24459285372018386,1.2134400121401605,-0.2201227519114812,-0.007483066094091587,-2.6038932135397928,-0.10888789437214534,2.46818426201278,0.8264744921797919,1.2134413937687574,-0.2202432315892585,-0.0075118285948192216,-2.6038483821997875,-0.10888392708698907,2.4681821257803174,0.826474908251239,-0.0005396487948418972,-0.00025793058360245067,0.00018263382973281555,0.0007116904126738662,-0.00018231876148502754,0.0001994366551287118,0.0004968022358220462,0.0,0.0,0.0,0.0,0.0,0.0,0.0,1.3816285968637487e-06,-0.00012047967777728541,-2.8762500727634588e-05,4.4831340005213605e-05,3.9672851562672085e-06,-2.136232462479626e-06,4.16071447184585e-07,0.0005396487948418972,0.00025793058360245067,-0.00018263382973281555,-0.0007116904126738662,0.00018231876148502754,-0.0001994366551287118,-0.0004968022358220462,0.3236324191093445,19.768823623657227,0.5220611095428467,-19.931978225708008,-0.6832786202430725,-2.4630770683288574,0.24844686686992645,0
25,0.12003564834594727,-0.3236324191093445,-19.768823623657227,-0.5220611095428467,19.931978225708008,0.6832786202430725,2.4630770683288574,-0.24844686686992645,0.0,0.0,0.0,0.0,0.0,0.0,0.0,-0.3448235880114242,-0.0313683358169844,-0.31010372128918623,0.1812181497498704,0.09461421184787196,0.09452445063389363,-0.24459285372018386,1.2134400121401605,-0.2201227519114812,-0.007483066094091587,-2.6038932135397928,-0.10888789437214534,2.46818426201278,0.8264744921797919,1.2134413937687574,-0.2202432315892585,-0.0075118285948192216,-2.6038483821997875,-0.10888392708698907,2.4681821257803174,0.826474908251239,-0.0005396487948418972,-0.00025793058360245067,0.00018263382973281555,0.0007116904126738662,-0.00018231876148502754,0.0001994366551287118,0.0004968022358220462,0.0,0.0,0.0,0.0,0.0,0.0,0.0,1.3816285968637487e-06,-0.00012047967777728541,-2.8762500727634588e-05,4.4831340005213605e-05,3.9672851562672085e-06,-2.136232462479626e-06,4.16071447184585e-07,0.0005396487948418972,0.00025793058360245067,-0.00018263382973281555,-0.0007116904126738662,0.00018231876148502754,-0.0001994366551287118,-0.0004968022358220462,0.3236324191093445,19.768823623657227,0.5220611095428467,-19.931978225708008,-0.6832786202430725,-2.4630770683288574,0.24844686686992645,0
26,0.12501025199890137,-0.3236324191093445,-19.792627334594727,-0.5220611095428467,19.931978225708008,0.6832786202430725,2.4630770683288574,-0.21457235515117645,0.0,0.0,0.0,0.0,0.0,0.0,0.0,-0.34595592270371767,-0.022555267783124906,-0.3122621295764782,0.17441457087927054,0.09482350037658907,0.09347283897449728,-0.24463208744452303,1.2134407257810393,-0.22012108147562592,-0.007483066094091587,-2.6038932135397928,-0.10888789437214534,2.4681842620107863,0.8264737236115185,1.2134413937687574,-0.2202432315892585,-0.0075118285948192216,-2.6038483821997875,-0.10888392708698907,2.4681821257803174,0.826474908251239,-0.0010050504056234209,0.0008109296718316787,6.808152457939505e-05,0.0003791435154528859,-1.7515854126919092e-05,0.0002970176333524409,-0.0010659853543460952,0.0,0.0,0.0,0.0,0.0,0.0,0.0,6.67987718028229e-07,-0.00012215011363256312,-2.8762500727634588e-05,4.4831340005213605e-05,3.9672851562672085e-06,-2.136230468963163e-06,1.1846397205417247e-06,0.0010050504056234209,-0.0008109296718316787,-6.808152457939505e-05,-0.0003791435154528859,1.7515854126919092e-05,-0.0002970176333524409,0.0010659853543460952,0.3236324191093445,19.792627334594727,0.5220611095428467,-19.931978225708008,-0.6832786202430725,-2.4630770683288574,0.21457235515117645,0
27,0.13002252578735352,-0.3236324191093445,-19.792627334594727,-0.5220611095428467,19.931978225708008,0.6832786202430725,2.4630770683288574,-0.21457235515117645,0.0,0.0,0.0,0.0,0.0,0.0,0.0,-0.34595592270371767,-0.022555267783124906,-0.3122621295764782,0.17441457087927054,0.09482350037658907,0.09347283897449728,-0.24463208744452303,1.2134407257810393,-0.22012108147562592,-0.007483066094091587,-2.6038932135397928,-0.10888789437214534,2.4681842620107863,0.8264737236115185,1.2134413937687574,-0.2202432315892585,-0.0075118285948192216,-2.6038483821997875,-0.10888392708698907,2.4681821257803174,0.826474908251239,-0.0010050504056234209,0.0008109296718316787,6.808152457939505e-05,0.0003791435154528859,-1.7515854126919092e-05,0.0002970176333524409,-0.0010659853543460952,0.0,0.0,0.0,0.0,0.0,0.0,0.0,6.67987718028229e-07,-0.00012215011363256312,-2.8762500727634588e-05,4.4831340005213605e-05,3.9672851562672085e-06,-2.136230468963163e-06,1.1846397205417247e-06,0.0010050504056234209,-0.0008109296718316787,-6.808152457939505e-05,-0.0003791435154528859,1.7515854126919092e-05,-0.0002970176333524409,0.0010659853543460952,0.3236324191093445,19.792627334594727,0.5220611095428467,-19.931978225708008,-0.6832786202430725,-2.4630770683288574,0.21457235515117645,0
28,0.1350116729736328,-0.3236324191093445,-19.792627334594727,-0.4704863727092743,19.955781936645508,0.6777854561805725,2.4694857597351074,-0.20083944499492645,0.0,0.0,0.0,0.0,0.0,0.0,0.0,-0.3438542677423334,-0.025867452915719215,-0.3121605749264274,0.17578951428571635,0.09550956171217828,0.09424435585458403,-0.24402070505447793,1.2134423354305484,-0.22012108147562592,-0.0074867116770250585,-2.603894883975648,-0.10888728402058283,2.4681836676715334,0.826472500233453,1.2134413937687574,-0.2202432315892585,-0.0075118285948192216,-2.6038483821997875,-0.10888392708698907,2.4681821257803174,0.826474908251239,-0.0008106850554415564,0.0006290368514542401,-0.00086224165941138,-0.0002584645052098558,8.095552124452207e-05,-0.0004272914403928873,-0.0017301782701119033,0.0,0.0,0.0,0.0,0.0,0.0,0.0,-9.416617909874248e-07,-0.00012215011363256312,-2.5116917794163092e-05,4.650177586063009e-05,3.3569335937538858e-06,-1.541891216039204e-06,2.408017786059702e-06,0.0008106850554415564,-0.0006290368514542401,0.00086224165941138,0.0002584645052098558,-8.095552124452207e-05,0.0004272914403928873,0.0017301782701119033,0.3236324191093445,19.792627334594727,0.4704863727092743,-19.955781936645508,-0.6777854561805725,-2.4694857597351074,0.20083944499492645,0
29,0.14003229141235352,-0.3236324191093445,-19.792627334594727,-0.4704863727092743,19.955781936645508,0.6777854561805725,2.4694857597351074,-0.20083944499492645,0.0,0.0,0.0,0.0,0.0,0.0,0.0,-0.3438542677423334,-0.025867452915719215,-0.3121605749264274,0.17578951428571635,0.09550956171217828,0.09424435585458403,-0.24402070505447793,1.2134423354305484,-0.22012108147562592,-0.0074867116770250585,-2.603894883975648,-0.10888728402058283,2.4681836676715334,0.826472500233453,1.2134413937687574,-0.2202432315892585,-0.0075118285948192216,-2.6038483821997875,-0.10888392708698907,2.4681821257803174,0.826474908251239,-0.0008106850554415564,0.0006290368514542401,-0.00086224165941138,-0.0002584645052098558,8.095552124452207e-05,-0.0004272914403928873,-0.0017301782701119033,0.0,0.0,0.0,0.0,0.0,0.0,0.0,-9.416617909874248e-07,-0.00012215011363256312,-2.5116917794163092e-05,4.650177586063009e-05,3.3569335937538858e-06,-1.541891216039204e-06,2.408017786059702e-06,0.0008106850554415564,-0.0006290368514542401,0.00086224165941138,0.0002584645052098558,-8.095552124452207e-05,0.0004272914403928873,0.0017301782701119033,0.3236324191093445,19.792627334594727,0.4704863727092743,-19.955781936645508,-0.6777854561805725,-2.4694857597351074,0.20083944499492645,0
30,0.1450200080871582,-0.3236324191093445,-19.745019912719727,-0.4982573688030243,19.931978225708008,0.6832786202430725,2.4758944511413574,-0.22098104655742645,0.0,0.0,0.0,0.0,0.0,0.0,0.0,-0.34637588236246314,-0.028681679204675636,-0.3123154938537087,0.1773211778973522,0.09563004119635561,0.09444252867661647,-0.24327388346213427,1.2134423788955087,-0.22012442234733645,-0.007484736532087735,-2.6038932135397928,-0.10888789437214534,2.468182837857362,0.8264742802710094,1.2134413937687574,-0.2202432315892585,-0.0075118285948192216,-2.6038483821997875,-0.10888392708698907,2.4681821257803174,0.826474908251239,-0.0006233067995943031,-0.0007840528077240317,-0.000154951234971202,0.0005537511815011893,-0.00010508941934637606,-0.00033241515032998194,-0.0008314727301582408,0.0,0.0,0.0,0.0,0.0,0.0,0.0,-9.85126751285037e-07,-0.00011880924192203546,-2.7092062731486934e-05,4.4831340005213605e-05,3.9672851562672085e-06,-7.120770444402069e-07,6.279802295949821e-07,0.0006233067995943031,0.0007840528077240317,0.000154951234971202,-0.0005537511815011893,0.00010508941934637606,0.00033241515032998194,0.0008314727301582408,0.3236324191093445,19.745019912719727,0.4982573688030243,-19.931978225708008,-0.6832786202430725,-2.4758944511413574,0.22098104655742645,0
31,0.15003299713134766,-0.3236324191093445,-19.745019912719727,-0.4982573688030243,19.931978225708008,0.6832786202430725,2.4758944511413574,-0.22098104655742645,0.0,0.0,0.0,0.0,0.0,0.0,0.0,-0.34637588236246314,-0.028681679204675636,-0.3123154938537087,0.1773211778973522,0.09563004119635561,0.09444252867661647,-0.24327388346213427,1.2134423788955087,-0.22012442234733645,-0.007484736532087735,-2.6038932135397928,-0.10888789437214534,2.468182837857362,0.8264742802710094,1.2134413937687574,-0.2202432315892585,-0.0075118285948192216,-2.6038483821997875,-0.10888392708698907,2.4681821257803174,0.826474908251239,-0.0006233067995943031,-0.0007840528077240317,-0.000154951234971202,0.0005537511815011893,-0.00010508941934637606,-0.00033241515032998194,-0.0008314727301582408,0.0,0.0,0.0,0.0,0.0,0.0,0.0,-9.85126751285037e-07,-0.00011880924192203546,-2.7092062731486934e-05,4.4831340005213605e-05,3.9672851562672085e-06,-7.120770444402069e-07,6.279802295949821e-07,0.0006233067995943031,0.0007840528077240317,0.000154951234971202,-0.0005537511815011893,0.00010508941934637606,0.00033241515032998194,0.0008314727301582408,0.3236324191093445,19.745019912719727,0.4982573688030243,-19.931978225708008,-0.6832786202430725,-2.4758944511413574,0.22098104655742645,0
32,0.1550285816192627,-0.3514034152030945,-19.792627334594727,-0.4982573688030243,19.955781936645508,0.6832786202430725,2.4566683769226074,-0.24112264811992645,0.0,0.0,0.0,0.0,0.0,0.0,0.0,-0.34446051958666934,-0.022493710626985373,-0.3085166468063741,0.1721689746767072,0.09528620778849664,0.09382349480914633,-0.2421778653416261,1.2134422095109192,-0.22012108147562592,-0.007484736532038241,-2.603894883975648,-0.10888789437214534,2.4681881530019973,0.8264736798311118,1.2134413937687574,-0.2202432315892585,-0.0075118285948192216,-2.6038483821997875,-0.10888392708698907,2.4681821257803174,0.826474908251239,0.00020969653238931457,0.0009836335025529919,6.641620254322866e-05,-0.00030893059322603916,-0.0003089403569248428,0.0001640957586454166,-0.0005676477033348215,0.0,0.0,0.0,0.0,0.0,0.0,0.0,-8.157421618193439e-07,-0.00012215011363256312,-2.709206278098033e-05,4.650177586063009e-05,3.9672851562672085e-06,-6.027221679971717e-06,1.2284201272860784e-06,-0.00020969653238931457,-0.0009836335025529919,-6.641620254322866e-05,0.00030893059322603916,0.0003089403569248428,-0.0001640957586454166,0.0005676477033348215,0.3514034152030945,19.792627334594727,0.4982573688030243,-19.955781936645508,-0.6832786202430725,-2.4566683769226074,0.24112264811992645,0
33,0.1600208282470703,-0.3514034152030945,-19.792627334594727,-0.4982573688030243,19.955781936645508,0.6832786202430725,2.4566683769226074,-0.24112264811992645,0.0,0.0,0.0,0.0,0.0,0.0,0.0,-0.34446051958666934,-0.022493710626985373,-0.3085166468063741,0.1721689746767072,0.09528620778849664,0.09382349480914633,-0.2421778653416261,1.2134422095109192,-0.22012108147562592,-0.007484736532038241,-2.603894883975648,-0.10888789437214534,2.4681881530019973,0.8264736798311118,1.2134413937687574,-0.2202432315892585,-0.0075118285948192216,-2.6038483821997875,-0.10888392708698907,2.4681821257803174,0.826474908251239,0.00020969653238931457,0.0009836335025529919,6.641620254322866e-05,-0.00030893059322603916,-0.0003089403569248428,0.0001640957586454166,-0.0005676477033348215,0.0,0.0,0.0,0.0,0.0,0.0,0.0,-8.157421618193439e-07,-0.00012215011363256312,-2.709206278098033e-05,4.650177586063009e-05,3.9672851562672085e-06,-6.027221679971717e-06,1.2284201272860784e-06,-0.00020969653238931457,-0.0009836335025529919,-6.641620254322866e-05,0.00030893059322603916,0.0003089403569248428,-0.0001640957586454166,0.0005676477033348215,0.3514034152030945,19.792627334594727,0.4982573688030243,-19.955781936645508,-0.6832786202430725,-2.4566683769226074,0.24112264811992645,0
34,0.16501092910766602,-0.3236324191093445,-19.768823623657227,-0.4982573688030243,19.931978225708008,0.6713767647743225,2.4630770683288574,-0.22830526530742645,0.0,0.0,0.0,0.0,0.0,0.0,0.0,-0.34494708320250916,-0.027404794749385477,-0.3113502139870457,0.17623602245616987,0.09505457632071124,0.09376046458315883,-0.2417422618042565,1.213440700097671,-0.2201227519114812,-0.0074847364959623516,-2.6038932135397928,-0.10888657194375992,2.4681842620825662,0.8264734359442427,1.2134413937687574,-0.2202432315892585,-0.0075118285948192216,-2.6038483821997875,-0.10888392708698907,2.4681821257803174,0.826474908251239,-0.00036715861742450694,1.7199335985261747e-05,-9.979502966260771e-05,0.0003570751966754604,0.0003667782938822655,6.522223312511163e-05,-0.0008130025432119507,0.0,0.0,0.0,0.0,0.0,0.0,0.0,6.936710863492124e-07,-0.00012047967777728541,-2.709209885687e-05,4.4831340005213605e-05,2.6448567708448056e-06,-2.1363022488785077e-06,1.4723069963196167e-06,0.00036715861742450694,-1.7199335985261747e-05,9.979502966260771e-05,-0.0003570751966754604,-0.0003667782938822655,-6.522223312511163e-05,0.0008130025432119507,0.3236324191093445,19.768823623657227,0.4982573688030243,-19.931978225708008,-0.6713767647743225,-2.4630770683288574,0.22830526530742645,0
35,0.17003393173217773,-0.3236324191093445,-19.768823623657227,-0.4982573688030243,19.931978225708008,0.6713767647743225,2.4630770683288574,-0.22830526530742645,0.0,0.0,0.0,0.0,0.0,0.0,0.0,-0.34494708320250916,-0.027404794749385477,-0.3113502139870457,0.17623602245616987,0.09505457632071124,0.09376046458315883,-0.2417422618042565,1.213440700097671,-0.2201227519114812,-0.0074847364959623516,-2.6038932135397928,-0.10888657194375992,2.4681842620825662,0.8264734359442427,1.2134413937687574,-0.2202432315892585,-0.0075118285948192216,-2.6038483821997875,-0.10888392708698907,2.4681821257803174,0.826474908251239,-0.00036715861742450694,1.7199335985261747e-05,-9.979502966260771e-05,0.0003570751966754604,0.0003667782938822655,6.522223312511163e-05,-0.0008130025432119507,0.0,0.0,0.0,0.0,0.0,0.0,0.0,6.936710863492124e-07,-0.00012047967777728541,-2.709209885687e-05,4.4831340005213605e-05,2.6448567708448056e-06,-2.1363022488785077e-06,1.4723069963196167e-06,0.00036715861742450694,-1.7199335985261747e-05,9.979502966260771e-05,-0.0003570751966754604,-0.0003667782938822655,-6.522223312511163e-05,0.0008130025432119507,0.3236324191093445,19.768823623657227,0.4982573688030243,-19.931978225708008,-0.6713767647743225,-2.4630770683288574,0.22830526530742645,0
36,0.17502117156982422,-0.3236324191093445,-19.768823623657227,-0.4704863727092743,19.955781936645508,0.6832786202430725,2.4566683769226074,-0.26217979192733765,0.0,0.0,0.0,0.0,0.0,0.0,0.0,-0.3469442964933791,-0.06411545514923991,-0.31448818134765344,0.22906466244284648,0.0967284881859206,0.10168410312087678,-0.24185879418123382,1.2134400056315289,-0.2201227519114812,-0.007486685373869178,-2.603894883975648,-0.10888824924053969,2.46818497554116,0.8264800600510694,1.2134413937687574,-0.2202432315892585,-0.0075118285948192216,-2.6038483821997875,-0.10888392708698907,2.4681821257803174,0.826474908251239,-0.0004678586422035156,-0.0002699420376381262,-0.0007918732902748488,-0.0010239527039806707,-0.00010860627546416229,0.00018566687378692212,0.0010690852605205873,0.0,0.0,0.0,0.0,0.0,0.0,0.0,1.3881372284973992e-06,-0.00012047967777728541,-2.514322095004389e-05,4.650177586063009e-05,4.322153550617713e-06,-2.8497608424160603e-06,-5.151799830405146e-06,0.0004678586422035156,0.0002699420376381262,0.0007918732902748488,0.0010239527039806707,0.00010860627546416229,-0.00018566687378692212,-0.0010690852605205873,0.3236324191093445,19.768823623657227,0.4704863727092743,-19.955781936645508,-0.6832786202430725,-2.4566683769226074,0.26217979192733765,0
37,0.1800243854522705,-0.3236324191093445,-19.768823623657227,-0.4704863727092743,19.955781936645508,0.6832786202430725,2.4566683769226074,-0.26217979192733765,0.0,0.0,0.0,0.0,0.0,0.0,0.0,-0.3469442964933791,-0.06411545514923991,-0.31448818134765344,0.22906466244284648,0.0967284881859206,0.10168410312087678,-0.24185879418123382,1.2134400056315289,-0.2201227519114812,-0.007486685373869178,-2.603894883975648,-0.10888824924053969,2.46818497554116,0.8264800600510694,1.2134413937687574,-0.2202432315892585,-0.0075118285948192216,-2.6038483821997875,-0.10888392708698907,2.4681821257803174,0.826474908251239,-0.0004678586422035156,-0.0002699420376381262,-0.0007918732902748488,-0.0010239527039806707,-0.00010860627546416229,0.00018566687378692212,0.0010690852605205873,0.0,0.0,0.0,0.0,0.0,0.0,0.0,1.3881372284973992e-06,-0.00012047967777728541,-2.514322095004389e-05,4.650177586063009e-05,4.322153550617713e-06,-2.8497608424160603e-06,-5.151799830405146e-06,0.0004678586422035156,0.0002699420376381262,0.0007918732902748488,0.0010239527039806707,0.00010860627546416229,-0.00018566687378692212,-0.0010690852605205873,0.3236324191093445,19.768823623657227,0.4704863727092743,-19.955781936645508,-0.6832786202430725,-2.4566683769226074,0.26217979192733765,0
38,0.18501925468444824,-0.3236324191093445,-19.745019912719727,-0.5458648204803467,19.955781936645508,0.6777854561805725,2.4630770683288574,-0.23471395671367645,0.0,0.0,0.0,0.0,0.0,0.0,0.0,-0.34296014047648826,-0.03317461330304728,-0.30862140485190204,0.18255267931911118,0.09524638079501188,0.09400685158447493,-0.24199488458195864,1.21344026660448,-0.22012442234733645,-0.007481395658236323,-2.603894883975648,-0.10888834862776914,2.4681842620107943,0.826472747790471,1.2134413937687574,-0.2202432315892585,-0.0075118285948192216,-2.6038483821997875,-0.10888392708698907,2.4681821257803174,0.826474908251239,-0.00021282370896261976,-0.0010014576942398343,0.000970169024585086,0.0004857458936582225,3.305651299918184e-05,0.00014321767717080184,-0.0002788036387068575,0.0,0.0,0.0,0.0,0.0,0.0,0.0,1.1271642774701718e-06,-0.00011880924192203546,-3.0432936582898418e-05,4.650177586063009e-05,4.4215407800640705e-06,-2.1362304769567686e-06,2.1604607680636434e-06,0.00021282370896261976,0.0010014576942398343,-0.000970169024585086,-0.0004857458936582225,-3.305651299918184e-05,-0.00014321767717080184,0.0002788036387068575,0.3236324191093445,19.745019912719727,0.5458648204803467,-19.955781936645508,-0.6777854561805725,-2.4630770683288574,0.23471395671367645,0
39,0.1900331974029541,-0.3236324191093445,-19.745019912719727,-0.5458648204803467,19.955781936645508,0.6777854561805725,2.4630770683288574,-0.23471395671367645,0.0,0.0,0.0,0.0,0.0,0.0,0.0,-0.34296014047648826,-0.03317461330304728,-0.30862140485190204,0.18255267931911118,0.09524638079501188,0.09400685158447493,-0.24199488458195864,1.21344026660448,-0.22012442234733645,-0.007481395658236323,-2.603894883975648,-0.10888834862776914,2.4681842620107943,0.826472747790471,1.2134413937687574,-0.2202432315892585,-0.0075118285948192216,-2.6038483821997875,-0.10888392708698907,2.4681821257803174,0.826474908251239,-0.00021282370896261976,-0.0010014576942398343,0.000970169024585086,0.0004857458936582225,3.305651299918184e-05,0.00014321767717080184,-0.0002788036387068575,0.0,0.0,0.0,0.0,0.0,0.0,0.0,1.1271642774701718e-06,-0.00011880924192203546,-3.0432936582898418e-05,4.650177586063009e-05,4.4215407800640705e-06,-2.1362304769567686e-06,2.1604607680636434e-06,0.00021282370896261976,0.0010014576942398343,-0.000970169024585086,-0.0004857458936582225,-3.305651299918184e-05,-0.00014321767717080184,0.0002788036387068575,0.3236324191093445,19.745019912719727,0.5458648204803467,-19.955781936645508,-0.6777854561805725,-2.4630770683288574,0.23471395671367645,0
40,0.19502854347229004,-0.3752071261405945,-19.745019912719727,-0.4982573688030243,19.908174514770508,0.6713767647743225,2.4694857597351074,-0.26217979192733765,0.0,0.0,0.0,0.0,0.0,0.0,0.0,-0.3430070443322159,-0.018274884720810534,-0.31056737422355063,0.16615926190698246,0.09483045332451244,0.09115839846070065,-0.24208793948000953,1.213443864258042,-0.22012442234733645,-0.00748473653203824,-2.6038915431039373,-0.10888799142334708,2.4681835499339635,0.8264793143718889,1.2134413937687574,-0.2202432315892585,-0.0075118285948192216,-2.6038483821997875,-0.10888392708698907,2.4681821257803174,0.826474908251239,0.0009715997719582639,-0.00048207700937674333,-0.0004129398802944334,0.0009544115869487649,0.0003586265293858904,7.068193650454596e-05,0.0008821246240979392,0.0,0.0,0.0,0.0,0.0,0.0,0.0,-2.4704892847005056e-06,-0.00011880924192203546,-2.7092062780981196e-05,4.316090414979712e-05,4.0643363580089575e-06,-1.4241536461234716e-06,-4.406120649891321e-06,-0.0009715997719582639,0.00048207700937674333,0.0004129398802944334,-0.0009544115869487649,-0.0003586265293858904,-7.068193650454596e-05,-0.0008821246240979392,0.3752071261405945,19.745019912719727,0.4982573688030243,-19.908174514770508,-0.6713767647743225,-2.4694857597351074,0.26217979192733765,0
41,0.20003342628479004,-0.3752071261405945,-19.745019912719727,-0.4982573688030243,19.908174514770508,0.6713767647743225,2.4694857597351074,-0.26217979192733765,0.0,0.0,0.0,0.0,0.0,0.0,0.0,-0.3430070443322159,-0.018274884720810534,-0.31056737422355063,0.16615926190698246,0.09483045332451244,0.09115839846070065,-0.24208793948000953,1.213443864258042,-0.22012442234733645,-0.00748473653203824,-2.6038915431039373,-0.10888799142334708,2.4681835499339635,0.8264793143718889,1.2134413937687574,-0.2202432315892585,-0.0075118285948192216,-2.6038483821997875,-0.10888392708698907,2.4681821257803174,0.826474908251239,0.0009715997719582639,-0.00048207700937674333,-0.0004129398802944334,0.0009544115869487649,0.0003586265293858904,7.068193650454596e-05,0.0008821246240979392,0.0,0.0,0.0,0.0,0.0,0.0,0.0,-2.4704892847005056e-06,-0.00011880924192203546,-2.7092062780981196e-05,4.316090414979712e-05,4.0643363580089575e-06,-1.4241536461234716e-06,-4.406120649891321e-06,-0.0009715997719582639,0.00048207700937674333,0.0004129398802944334,-0.0009544115869487649,-0.0003586265293858904,-7.068193650454596e-05,-0.0008821246240979392,0.3752071261405945,19.745019912719727,0.4982573688030243,-19.908174514770508,-0.6713767647743225,-2.4694857597351074,0.26217979192733765,0
42,0.20502376556396484,-0.4029781222343445,-19.768823623657227,-0.5220611095428467,19.983552932739258,0.6896873116493225,2.4630770683288574,-0.24112264811992645,0.0,0.0,0.0,0.0,0.0,0.0,0.0,-0.34797031797421785,-0.025753836507980497,-0.3155958149222827,0.17182440031087878,0.09539152846936125,0.09269104862184226,-0.24170731202813764,1.2134476484411196,-0.2201227519114812,-0.007483066094091586,-2.603896832817479,-0.10888860645698124,2.4681842620107863,0.8264734946944553,1.2134413937687574,-0.2202432315892585,-0.0075118285948192216,-2.6038483821997875,-0.10888392708698907,2.4681821257803174,0.826474908251239,0.001065030114448011,-0.00022105987614623587,-6.863936756114648e-06,-0.0005347691893207544,-0.00036272166712388455,0.00017617632816644308,-9.542231255075455e-05,0.0,0.0,0.0,0.0,0.0,0.0,0.0,-6.254672362260294e-06,-0.00012047967777728541,-2.8762500727635455e-05,4.8450617691653264e-05,4.6793699921693355e-06,-2.136230468963163e-06,1.413556783735892e-06,-0.001065030114448011,0.00022105987614623587,6.863936756114648e-06,0.0005347691893207544,0.00036272166712388455,-0.00017617632816644308,9.542231255075455e-05,0.4029781222343445,19.768823623657227,0.5220611095428467,-19.983552932739258,-0.6896873116493225,-2.4630770683288574,0.24112264811992645,0
43,0.21003317832946777,-0.4029781222343445,-19.768823623657227,-0.5220611095428467,19.983552932739258,0.6896873116493225,2.4630770683288574,-0.24112264811992645,0.0,0.0,0.0,0.0,0.0,0.0,0.0,-0.34797031797421785,-0.025753836507980497,-0.3155958149222827,0.17182440031087878,0.09539152846936125,0.09269104862184226,-0.24170731202813764,1.2134476484411196,-0.2201227519114812,-0.007483066094091586,-2.603896832817479,-0.10888860645698124,2.4681842620107863,0.8264734946944553,1.2134413937687574,-0.2202432315892585,-0.0075118285948192216,-2.6038483821997875,-0.10888392708698907,2.4681821257803174,0.826474908251239,0.001065030114448011,-0.00022105987614623587,-6.863936756114648e-06,-0.0005347691893207544,-0.00036272166712388455,0.00017617632816644308,-9.542231255075455e-05,0.0,0.0,0.0,0.0,0.0,0.0,0.0,-6.254672362260294e-06,-0.00012047967777728541,-2.8762500727635455e-05,4.8450617691653264e-05,4.6793699921693355e-06,-2.136230468963163e-06,1.413556783735892e-06,-0.001065030114448011,0.00022105987614623587,6.863936756114648e-06,0.0005347691893207544,0.00036272166712388455,-0.00017617632816644308,9.542231255075455e-05,0.4029781222343445,19.768823623657227,0.5220611095428467,-19.983552932739258,-0.6896873116493225,-2.4630770683288574,0.24112264811992645,0
44,0.21502256393432617,-0.4029781222343445,-19.768823623657227,-0.5220611095428467,19.983552932739258,0.6896873116493225,2.4630770683288574,-0.24112264811992645,0.0,0.0,0.0,0.0,0.0,0.0,0.0,-0.34797031797421785,-0.025753836507980497,-0.3155958149222827,0.17182440031087878,0.09539152846936125,0.09269104862184226,-0.24170731202813764,1.2134476484411196,-0.2201227519114812,-0.007483066094091586,-2.603896832817479,-0.10888860645698124,2.4681842620107863,0.8264734946944553,1.2134413937687574,-0.2202432315892585,-0.0075118285948192216,-2.6038483821997875,-0.10888392708698907,2.4681821257803174,0.826474908251239,0.001065030114448011,-0.00022105987614623587,-6.863936756114648e-06,-0.0005347691893207544,-0.00036272166712388455,0.00017617632816644308,-9.542231255075455e-05,0.0,0.0,0.0,0.0,0.0,0.0,0.0,-6.254672362260294e-06,-0.00012047967777728541,-2.8762500727635455e-05,4.8450617691653264e-05,4.6793699921693355e-06,-2.136230468963163e-06,1.413556783735892e-06,-0.001065030114448011,0.00022105987614623587,6.863936756114648e-06,0.0005347691893207544,0.00036272166712388455,-0.00017617632816644308,9.542231255075455e-05,0.4029781222343445,19.768823623657227,0.5220611095428467,-19.983552932739258,-0.6896873116493225,-2.4630770683288574,0.24112264811992645,0
45,0.2200334072113037,-0.4029781222343445,-19.768823623657227,-0.5220611095428467,19.983552932739258,0.6896873116493225,2.4630770683288574,-0.24112264811992645,0.0,0.0,0.0,0.0,0.0,0.0,0.0,-0.34797031797421785,-0.025753836507980497,-0.3155958149222827,0.17182440031087878,0.09539152846936125,0.09269104862184226,-0.24170731202813764,1.2134476484411196,-0.2201227519114812,-0.007483066094091586,-2.603896832817479,-0.10888860645698124,2.4681842620107863,0.8264734946944553,1.2134413937687574,-0.2202432315892585,-0.0075118285948192216,-2.6038483821997875,-0.10888392708698907,2.4681821257803174,0.826474908251239,0.001065030114448011,-0.00022105987614623587,-6.863936756114648e-06,-0.0005347691893207544,-0.00036272166712388455,0.00017617632816644308,-9.542231255075455e-05,0.0,0.0,0.0,0.0,0.0,0.0,0.0,-6.254672362260294e-06,-0.00012047967777728541,-2.8762500727635455e-05,4.8450617691653264e-05,4.6793699921693355e-06,-2.136230468963163e-06,1.413556783735892e-06,-0.001065030114448011,0.00022105987614623587,6.863936756114648e-06,0.0005347691893207544,0.00036272166712388455,-0.00017617632816644308,9.542231255075455e-05,0.4029781222343445,19.768823623657227,0.5220611095428467,-19.983552932739258,-0.6896873116493225,-2.4630770683288574,0.24112264811992645,0
46,0.22502350807189941,-0.4029781222343445,-19.768823623657227,-0.5220611095428467,19.983552932739258,0.6896873116493225,2.4630770683288574,-0.24112264811992645,0.0,0.0,0.0,0.0,0.0,0.0,0.0,-0.34797031797421785,-0.025753836507980497,-0.3155958149222827,0.17182440031087878,0.09539152846936125,0.09269104862184226,-0.24170731202813764,1.2134476484411196,-0.2201227519114812,-0.007483066094091586,-2.603896832817479,-0.10888860645698124,2.4681842620107863,0.8264734946944553,1.2134413937687574,-0.2202432315892585,-0.0075118285948192216,-2.6038483821997875,-0.10888392708698907,2.4681821257803174,0.826474908251239,0.001065030114448011,-0.00022105987614623587,-6.863936756114648e-06,-0.0005347691893207544,-0.00036272166712388455,0.00017617632816644308,-9.542231255075455e-05,0.0,0.0,0.0,0.0,0.0,0.0,0.0,-6.254672362260294e-06,-0.00012047967777728541,-2.8762500727635455e-05,4.8450617691653264e-05,4.6793699921693355e-06,-2.136230468963163e-06,1.413556783735892e-06,-0.001065030114448011,0.00022105987614623587,6.863936756114648e-06,0.0005347691893207544,0.00036272166712388455,-0.00017617632816644308,9.542231255075455e-05,0.4029781222343445,19.768823623657227,0.5220611095428467,-19.983552932739258,-0.6896873116493225,-2.4630770683288574,0.24112264811992645,0
47,0.23003363609313965,-0.3514034152030945,-19.768823623657227,-0.4982573688030243,19.955781936645508,0.6713767647743225,2.4694857597351074,-0.23471395671367645,0.0,0.0,0.0,0.0,0.0,0.0,0.0,-0.34165248871421017,-0.023165762980370565,-0.30732952424778887,0.1700328955179595,0.09486560899831879,0.09251215655620415,-0.2417158753071901,1.2134442826971825,-0.2201227519114812,-0.00748473653203824,-2.603894883975648,-0.10888657194375996,2.468183550095469,0.8264761897197642,1.2134413937687574,-0.2202432315892585,-0.0075118285948192216,-2.6038483821997875,-0.10888392708698907,2.4681821257803174,0.826474908251239,0.0005761671700323993,-0.000171368581569094,-0.0005643694972512485,-7.444952703274246e-05,0.0003675645686442091,-0.0001690374005002938,2.7254552554948537e-05,0.0,0.0,0.0,0.0,0.0,0.0,0.0,-2.8889284251487624e-06,-0.00012047967777728541,-2.7092062780981196e-05,4.650177586063009e-05,2.644856770886439e-06,-1.4243151515991315e-06,-1.2814685251827385e-06,-0.0005761671700323993,0.000171368581569094,0.0005643694972512485,7.444952703274246e-05,-0.0003675645686442091,0.0001690374005002938,-2.7254552554948537e-05,0.3514034152030945,19.768823623657227,0.4982573688030243,-19.955781936645508,-0.6713767647743225,-2.4694857597351074,0.23471395671367645,0
48,0.23502564430236816,-0.3514034152030945,-19.768823623657227,-0.4982573688030243,19.955781936645508,0.6713767647743225,2.4694857597351074,-0.23471395671367645,0.0,0.0,0.0,0.0,0.0,0.0,0.0,-0.34165248871421017,-0.023165762980370565,-0.30732952424778887,0.1700328955179595,0.09486560899831879,0.09251215655620415,-0.2417158753071901,1.2134442826971825,-0.2201227519114812,-0.00748473653203824,-2.603894883975648,-0.10888657194375996,2.468183550095469,0.8264761897197642,1.2134413937687574,-0.2202432315892585,-0.0075118285948192216,-2.6038483821997875,-0.10888392708698907,2.4681821257803174,0.826474908251239,0.0005761671700323993,-0.000171368581569094,-0.0005643694972512485,-7.444952703274246e-05,0.0003675645686442091,-0.0001690374005002938,2.7254552554948537e-05,0.0,0.0,0.0,0.0,0.0,0.0,0.0,-2.8889284251487624e-06,-0.00012047967777728541,-2.7092062780981196e-05,4.650177586063009e-05,2.644856770886439e-06,-1.4243151515991315e-06,-1.2814685251827385e-06,-0.0005761671700323993,0.000171368581569094,0.0005643694972512485,7.444952703274246e-05,-0.0003675645686442091,0.0001690374005002938,-2.7254552554948537e-05,0.3514034152030945,19.768823623657227,0.4982573688030243,-19.955781936645508,-0.6713767647743225,-2.4694857597351074,0.23471395671367645,0
49,0.24003267288208008,-0.3236324191093445,-19.745019912719727,-0.4982573688030243,19.955781936645508,0.6832786202430725,2.4758944511413574,-0.27591270208358765,0.0,0.0,0.0,0.0,0.0,0.0,0.0,-0.34736356240496924,-0.029444925424947498,-0.3137193231663894,0.17392491729046589,0.09487822932726654,0.09307512462220786,-0.24216234996513764,1.2134427587055325,-0.22012442234733645,-0.00748473653203824,-2.603894883975648,-0.1088878958325091,2.46818389749527,0.826481483149922,1.2134413937687574,-0.2202432315892585,-0.0075118285948192216,-2.6038483821997875,-0.10888392708698907,2.4681821257803174,0.826474908251239,-0.0005338185299119552,-0.0005531271414767398,-0.0004910015345906062,-4.03266319583141e-05,-9.574736599368836e-05,-0.0004965803200176756,0.0017683606953952662,0.0,0.0,0.0,0.0,0.0,0.0,0.0,-1.3649367751611408e-06,-0.00011880924192203546,-2.7092062780981196e-05,4.650177586063009e-05,3.968745520027683e-06,-1.7717149525253717e-06,-6.574898682942809e-06,0.0005338185299119552,0.0005531271414767398,0.0004910015345906062,4.03266319583141e-05,9.574736599368836e-05,0.0004965803200176756,-0.0017683606953952662,0.3236324191093445,19.745019912719727,0.4982573688030243,-19.955781936645508,-0.6832786202430725,-2.4758944511413574,0.27591270208358765,0
50,0.24502015113830566,-0.3236324191093445,-19.745019912719727,-0.4982573688030243,19.955781936645508,0.6832786202430725,2.4758944511413574,-0.27591270208358765,0.0,0.0,0.0,0.0,0.0,0.0,0.0,-0.34736356240496924,-0.029444925424947498,-0.3137193231663894,0.17392491729046589,0.09487822932726654,0.09307512462220786,-0.24216234996513764,1.2134427587055325,-0.22012442234733645,-0.00748473653203824,-2.603894883975648,-0.1088878958325091,2.46818389749527,0.826481483149922,1.2134413937687574,-0.2202432315892585,-0.0075118285948192216,-2.6038483821997875,-0.10888392708698907,2.4681821257803174,0.826474908251239,-0.0005338185299119552,-0.0005531271414767398,-0.0004910015345906062,-4.03266319583141e-05,-9.574736599368836e-05,-0.0004965803200176756,0.0017683606953952662,0.0,0.0,0.0,0.0,0.0,0.0,0.0,-1.3649367751611408e-06,-0.00011880924192203546,-2.7092062780981196e-05,4.650177586063009e-05,3.968745520027683e-06,-1.7717149525253717e-06,-6.574898682942809e-06,0.0005338185299119552,0.0005531271414767398,0.0004910015345906062,4.03266319583141e-05,9.574736599368836e-05,0.0004965803200176756,-0.0017683606953952662,0.3236324191093445,19.745019912719727,0.4982573688030243,-19.955781936645508,-0.6832786202430725,-2.4758944511413574,0.27591270208358765,0
51,0.25002503395080566,-0.3236324191093445,-19.745019912719727,-0.4982573688030243,19.955781936645508,0.6832786202430725,2.4758944511413574,-0.27591270208358765,0.0,0.0,0.0,0.0,0.0,0.0,0.0,-0.34736356240496924,-0.029444925424947498,-0.3137193231663894,0.17392491729046589,0.09487822932726654,0.09307512462220786,-0.24216234996513764,1.2134427587055325,-0.22012442234733645,-0.00748473653203824,-2.603894883975648,-0.1088878958325091,2.46818389749527,0.826481483149922,1.2134413937687574,-0.2202432315892585,-0.0075118285948192216,-2.6038483821997875,-0.10888392708698907,2.4681821257803174,0.826474908251239,-0.0005338185299119552,-0.0005531271414767398,-0.0004910015345906062,-4.03266319583141e-05,-9.574736599368836e-05,-0.0004965803200176756,0.0017683606953952662,0.0,0.0,0.0,0.0,0.0,0.0,0.0,-1.3649367751611408e-06,-0.00011880924192203546,-2.7092062780981196e-05,4.650177586063009e-05,3.968745520027683e-06,-1.7717149525253717e-06,-6.574898682942809e-06,0.0005338185299119552,0.0005531271414767398,0.0004910015345906062,4.03266319583141e-05,9.574736599368836e-05,0.0004965803200176756,-0.0017683606953952662,0.3236324191093445,19.745019912719727,0.4982573688030243,-19.955781936645508,-0.6832786202430725,-2.4758944511413574,0.27591270208358765,0
52,0.25501060485839844,-0.3236324191093445,-19.745019912719727,-0.4982573688030243,19.955781936645508,0.6832786202430725,2.4758944511413574,-0.27591270208358765,0.0,0.0,0.0,0.0,0.0,0.0,0.0,-0.34736356240496924,-0.029444925424947498,-0.3137193231663894,0.17392491729046589,0.09487822932726654,0.09307512462220786,-0.24216234996513764,1.2134427587055325,-0.22012442234733645,-0.00748473653203824,-2.603894883975648,-0.1088878958325091,2.46818389749527,0.826481483149922,1.2134413937687574,-0.2202432315892585,-0.0075118285948192216,-2.6038483821997875,-0.10888392708698907,2.4681821257803174,0.826474908251239,-0.0005338185299119552,-0.0005531271414767398,-0.0004910015345906062,-4.03266319583141e-05,-9.574736599368836e-05,-0.0004965803200176756,0.0017683606953952662,0.0,0.0,0.0,0.0,0.0,0.0,0.0,-1.3649367751611408e-06,-0.00011880924192203546,-2.7092062780981196e-05,4.650177586063009e-05,3.968745520027683e-06,-1.7717149525253717e-06,-6.574898682942809e-06,0.0005338185299119552,0.0005531271414767398,0.0004910015345906062,4.03266319583141e-05,9.574736599368836e-05,0.0004965803200176756,-0.0017683606953952662,0.3236324191093445,19.745019912719727,0.4982573688030243,-19.955781936645508,-0.6832786202430725,-2.4758944511413574,0.27591270208358765,0
53,0.26003360748291016,-0.3514034152030945,-19.745019912719727,-0.5220611095428467,19.983552932739258,0.6777854561805725,2.4694857597351074,-0.20724813640117645,0.0,0.0,0.0,0.0,0.0,0.0,0.0,-0.3464267180412671,-0.025922732843128207,-0.31388441544176215,0.17162496883492634,0.09505546907848053,0.09256712693129691,-0.24181842364994166,1.213441954694938,-0.22012442234733645,-0.007483066094091586,-2.603896832817479,-0.10889047783614028,2.468183549939945,0.8264727805733707,1.2134413937687574,-0.2202432315892585,-0.0075118285948192216,-2.6038483821997875,-0.10888392708698907,2.4681821257803174,0.826474908251239,0.00032267530838928077,-0.00016439808507360466,0.00020802824689720363,-0.0010516139130372613,2.9890075623500114e-05,-0.00017774944537928689,-0.001317124465480679,0.0,0.0,0.0,0.0,0.0,0.0,0.0,-5.609261806149846e-07,-0.00011880924192203546,-2.8762500727635455e-05,4.8450617691653264e-05,6.550749151207347e-06,-1.424159627561039e-06,2.1276778683354536e-06,-0.00032267530838928077,0.00016439808507360466,-0.00020802824689720363,0.0010516139130372613,-2.9890075623500114e-05,0.00017774944537928689,0.001317124465480679,0.3514034152030945,19.745019912719727,0.5220611095428467,-19.983552932739258,-0.6777854561805725,-2.4694857597351074,0.20724813640117645,0
54,0.26501989364624023,-0.3514034152030945,-19.745019912719727,-0.5220611095428467,19.983552932739258,0.6777854561805725,2.4694857597351074,-0.20724813640117645,0.0,0.0,0.0,0.0,0.0,0.0,0.0,-0.3464267180412671,-0.025922732843128207,-0.31388441544176215,0.17162496883492634,0.09505546907848053,0.09256712693129691,-0.24181842364994166,1.213441954694938,-0.22012442234733645,-0.007483066094091586,-2.603896832817479,-0.10889047783614028,2.468183549939945,0.8264727805733707,1.2134413937687574,-0.2202432315892585,-0.0075118285948192216,-2.6038483821997875,-0.10888392708698907,2.4681821257803174,0.826474908251239,0.00032267530838928077,-0.00016439808507360466,0.00020802824689720363,-0.0010516139130372613,2.9890075623500114e-05,-0.00017774944537928689,-0.001317124465480679,0.0,0.0,0.0,0.0,0.0,0.0,0.0,-5.609261806149846e-07,-0.00011880924192203546,-2.8762500727635455e-05,4.8450617691653264e-05,6.550749151207347e-06,-1.424159627561039e-06,2.1276778683354536e-06,-0.00032267530838928077,0.00016439808507360466,-0.00020802824689720363,0.0010516139130372613,-2.9890075623500114e-05,0.00017774944537928689,0.001317124465480679,0.3514034152030945,19.745019912719727,0.5220611095428467,-19.983552932739258,-0.6777854561805725,-2.4694857597351074,0.20724813640117645,0
55,0.2700321674346924,-0.3236324191093445,-19.768823623657227,-0.4982573688030243,19.955781936645508,0.6777854561805725,2.4694857597351074,-0.25485557317733765,0.0,0.0,0.0,0.0,0.0,0.0,0.0,-0.3450023827502089,-0.02398153550124478,-0.3150947040759468,0.17093728797225136,0.09485283629059099,0.09249624652269864,-0.2423109085858842,1.2134409219860613,-0.2201227519114812,-0.00748473653203824,-2.603894883975648,-0.108887284038612,2.4681835499339635,0.8264748941137168,1.2134413937687574,-0.2202432315892585,-0.0075118285948192216,-2.6038483821997875,-0.10888392708698907,2.4681821257803174,0.826474908251239,-0.0002798665476438112,0.0003415370116700183,-0.0002476228654683624,-0.0005973749582031088,4.3498703024429385e-05,-0.0002614975332372932,0.0005411480926542356,0.0,0.0,0.0,0.0,0.0,0.0,0.0,4.7178269602099476e-07,-0.00012047967777728541,-2.7092062780981196e-05,4.650177586063009e-05,3.3569516229292606e-06,-1.4241536461234716e-06,1.4137522263979463e-08,0.0002798665476438112,-0.0003415370116700183,0.0002476228654683624,0.0005973749582031088,-4.3498703024429385e-05,0.0002614975332372932,-0.0005411480926542356,0.3236324191093445,19.768823623657227,0.4982573688030243,-19.955781936645508,-0.6777854561805725,-2.4694857597351074,0.25485557317733765,0
56,0.27501726150512695,-0.3236324191093445,-19.768823623657227,-0.4982573688030243,19.955781936645508,0.6777854561805725,2.4694857597351074,-0.25485557317733765,0.0,0.0,0.0,0.0,0.0,0.0,0.0,-0.3450023827502089,-0.02398153550124478,-0.3150947040759468,0.17093728797225136,0.09485283629059099,0.09249624652269864,-0.2423109085858842,1.2134409219860613,-0.2201227519114812,-0.00748473653203824,-2.603894883975648,-0.108887284038612,2.4681835499339635,0.8264748941137168,1.2134413937687574,-0.2202432315892585,-0.0075118285948192216,-2.6038483821997875,-0.10888392708698907,2.4681821257803174,0.826474908251239,-0.0002798665476438112,0.0003415370116700183,-0.0002476228654683624,-0.0005973749582031088,4.3498703024429385e-05,-0.0002614975332372932,0.0005411480926542356,0.0,0.0,0.0,0.0,0.0,0.0,0.0,4.7178269602099476e-07,-0.00012047967777728541,-2.7092062780981196e-05,4.650177586063009e-05,3.3569516229292606e-06,-1.4241536461234716e-06,1.4137522263979463e-08,0.0002798665476438112,-0.0003415370116700183,0.0002476228654683624,0.0005973749582031088,-4.3498703024429385e-05,0.0002614975332372932,-0.0005411480926542356,0.3236324191093445,19.768823623657227,0.4982573688030243,-19.955781936645508,-0.6777854561805725,-2.4694857597351074,0.25485557317733765,0
57,0.28000831604003906,-0.3514034152030945,-19.745019912719727,-0.5220611095428467,19.955781936645508,0.6777854561805725,2.4630770683288574,-0.20724813640117645,0.0,0.0,0.0,0.0,0.0,0.0,0.0,-0.346262203640666,-0.024941589507469414,-0.3167570994703469,0.17562414374826935,0.09477249721734073,0.09329407698405369,-0.24343841174594558,1.2134441227032133,-0.22012442234733645,-0.007483066094091586,-2.603894883975648,-0.10888728402058293,2.4681842620107863,0.8264695784320263,1.2134413937687574,-0.2202432315892585,-0.0075118285948192216,-2.6038483821997875,-0.10888392708698907,2.4681821257803174,0.826474908251239,0.00011807073766127847,-0.00045637916163684044,0.0006404715520859634,-2.546617991716457e-06,0.00024781918788252294,9.578091279683929e-05,-0.0010385865103727946,0.0,0.0,0.0,0.0,0.0,0.0,0.0,-2.728934455964449e-06,-0.00011880924192203546,-2.8762500727635455e-05,4.650177586063009e-05,3.3569335938510303e-06,-2.136230468963163e-06,5.329819212751552e-06,-0.00011807073766127847,0.00045637916163684044,-0.0006404715520859634,2.546617991716457e-06,-0.00024781918788252294,-9.578091279683929e-05,0.0010385865103727946,0.3514034152030945,19.745019912719727,0.5220611095428467,-19.955781936645508,-0.6777854561805725,-2.4630770683288574,0.20724813640117645,0
58,0.28501319885253906,-0.3514034152030945,-19.745019912719727,-0.5220611095428467,19.955781936645508,0.6777854561805725,2.4630770683288574,-0.20724813640117645,0.0,0.0,0.0,0.0,0.0,0.0,0.0,-0.346262203640666,-0.024941589507469414,-0.3167570994703469,0.17562414374826935,0.09477249721734073,0.09329407698405369,-0.24343841174594558,1.2134441227032133,-0.22012442234733645,-0.007483066094091586,-2.603894883975648,-0.10888728402058293,2.4681842620107863,0.8264695784320263,1.2134413937687574,-0.2202432315892585,-0.0075118285948192216,-2.6038483821997875,-0.10888392708698907,2.4681821257803174,0.826474908251239,0.00011807073766127847,-0.00045637916163684044,0.0006404715520859634,-2.546617991716457e-06,0.00024781918788252294,9.578091279683929e-05,-0.0010385865103727946,0.0,0.0,0.0,0.0,0.0,0.0,0.0,-2.728934455964449e-06,-0.00011880924192203546,-2.8762500727635455e-05,4.650177586063009e-05,3.3569335938510303e-06,-2.136230468963163e-06,5.329819212751552e-06,-0.00011807073766127847,0.00045637916163684044,-0.0006404715520859634,2.546617991716457e-06,-0.00024781918788252294,-9.578091279683929e-05,0.0010385865103727946,0.3514034152030945,19.745019912719727,0.5220611095428467,-19.955781936645508,-0.6777854561805725,-2.4630770683288574,0.20724813640117645,0
59,0.29001498222351074,-0.3752071261405945,-19.792627334594727,-0.5220611095428467,19.931978225708008,0.6832786202430725,2.4694857597351074,-0.26217979192733765,0.0,0.0,0.0,0.0,0.0,0.0,0.0,-0.34705775207480033,-0.02710687398649474,-0.31718373586035536,0.17877356399990457,0.09535462717720719,0.09406893797959721,-0.24317147916213985,1.2134436334208036,-0.22012108147562592,-0.007483066094091586,-2.6038932135397928,-0.10888789437214534,2.4681836676715334,0.8264767435253567,1.2134413937687574,-0.2202432315892585,-0.0075118285948192216,-2.6038483821997875,-0.10888392708698907,2.4681821257803174,0.826474908251239,0.0005392830758983719,0.0003314443519822977,-0.0002015095193906886,0.0007444893081940589,-0.00015756383643032536,-0.00013372126812682635,0.0009985083792453124,0.0,0.0,0.0,0.0,0.0,0.0,0.0,-2.2396520462653058e-06,-0.00012215011363256312,-2.8762500727635455e-05,4.4831340005213605e-05,3.9672851562672085e-06,-1.541891216039204e-06,-1.835274117678587e-06,-0.0005392830758983719,-0.0003314443519822977,0.0002015095193906886,-0.0007444893081940589,0.00015756383643032536,0.00013372126812682635,-0.0009985083792453124,0.3752071261405945,19.792627334594727,0.5220611095428467,-19.931978225708008,-0.6832786202430725,-2.4694857597351074,0.26217979192733765,0
60,0.29502296447753906,-0.3752071261405945,-19.792627334594727,-0.5220611095428467,19.931978225708008,0.6832786202430725,2.4694857597351074,-0.26217979192733765,0.0,0.0,0.0,0.0,0.0,0.0,0.0,-0.34705775207480033,-0.02710687398649474,-0.31718373586035536,0.17877356399990457,0.09535462717720719,0.09406893797959721,-0.24317147916213985,1.2134436334208036,-0.22012108147562592,-0.007483066094091586,-2.6038932135397928,-0.10888789437214534,2.4681836676715334,0.8264767435253567,1.2134413937687574,-0.2202432315892585,-0.0075118285948192216,-2.6038483821997875,-0.10888392708698907,2.4681821257803174,0.826474908251239,0.0005392830758983719,0.0003314443519822977,-0.0002015095193906886,0.0007444893081940589,-0.00015756383643032536,-0.00013372126812682635,0.0009985083792453124,0.0,0.0,0.0,0.0,0.0,0.0,0.0,-2.2396520462653058e-06,-0.00012215011363256312,-2.8762500727635455e-05,4.4831340005213605e-05,3.9672851562672085e-06,-1.541891216039204e-06,-1.835274117678587e-06,-0.0005392830758983719,-0.0003314443519822977,0.0002015095193906886,-0.0007444893081940589,0.00015756383643032536,0.00013372126812682635,-0.0009985083792453124,0.3752071261405945,19.792627334594727,0.5220611095428467,-19.931978225708008,-0.6832786202430725,-2.4694857597351074,0.26217979192733765,0
61,0.300029993057251,-0.3752071261405945,-19.792627334594727,-0.5220611095428467,19.955781936645508,0.6832786202430725,2.4694857597351074,-0.21457235515117645,0.0,0.0,0.0,0.0,0.0,0.0,0.0,-0.3420295231208473,-0.031621225217551945,-0.3126151023153138,0.1802851985349784,0.09542542927750307,0.09446810839352064,-0.24269383079561535,1.2134436333036334,-0.22012108147562592,-0.007483066094091586,-2.603894883975648,-0.10888789437214534,2.468183549934628,0.8264707425455649,1.2134413937687574,-0.2202432315892585,-0.0075118285948192216,-2.6038483821997875,-0.10888392708698907,2.4681821257803174,0.826474908251239,0.0009387761036188148,3.440279020035846e-05,0.00036330584139615443,0.00016886411547121146,-0.0002030394663108707,0.00015126388093828394,-0.000990778189281602,0.0,0.0,0.0,0.0,0.0,0.0,0.0,-2.239534875991822e-06,-0.00012215011363256312,-2.8762500727635455e-05,4.650177586063009e-05,3.9672851562672085e-06,-1.4241543104809296e-06,4.165705674186171e-06,-0.0009387761036188148,-3.440279020035846e-05,-0.00036330584139615443,-0.00016886411547121146,0.0002030394663108707,-0.00015126388093828394,0.000990778189281602,0.3752071261405945,19.792627334594727,0.5220611095428467,-19.955781936645508,-0.6832786202430725,-2.4694857597351074,0.21457235515117645,0
62,0.3050236701965332,-0.3752071261405945,-19.792627334594727,-0.5220611095428467,19.955781936645508,0.6832786202430725,2.4694857597351074,-0.21457235515117645,0.0,0.0,0.0,0.0,0.0,0.0,0.0,-0.3420295231208473,-0.031621225217551945,-0.3126151023153138,0.1802851985349784,0.09542542927750307,0.09446810839352064,-0.24269383079561535,1.2134436333036334,-0.22012108147562592,-0.007483066094091586,-2.603894883975648,-0.10888789437214534,2.468183549934628,0.8264707425455649,1.2134413937687574,-0.2202432315892585,-0.0075118285948192216,-2.6038483821997875,-0.10888392708698907,2.4681821257803174,0.826474908251239,0.0009387761036188148,3.440279020035846e-05,0.00036330584139615443,0.00016886411547121146,-0.0002030394663108707,0.00015126388093828394,-0.000990778189281602,0.0,0.0,0.0,0.0,0.0,0.0,0.0,-2.239534875991822e-06,-0.00012215011363256312,-2.8762500727635455e-05,4.650177586063009e-05,3.9672851562672085e-06,-1.4241543104809296e-06,4.165705674186171e-06,-0.0009387761036188148,-3.440279020035846e-05,-0.00036330584139615443,-0.00016886411547121146,0.0002030394663108707,-0.00015126388093828394,0.000990778189281602,0.3752071261405945,19.792627334594727,0.5220611095428467,-19.955781936645508,-0.6832786202430725,-2.4694857597351074,0.21457235515117645,0
63,0.31003451347351074,-0.3236324191093445,-19.768823623657227,-0.4982573688030243,19.955781936645508,0.6713767647743225,2.4758944511413574,-0.27591270208358765,0.0,0.0,0.0,0.0,0.0,0.0,0.0,-0.3443110265800354,-0.028673138714095877,-0.313254929043172,0.1751346802806984,0.09519803188908812,0.09382637434629118,-0.24178624993635153,1.213442097431815,-0.2201227519114812,-0.00748473653203824,-2.603894883975648,-0.10888657194375992,2.468182839310691,0.8264803710245553,1.2134413937687574,-0.2202432315892585,-0.0075118285948192216,-2.6038483821997875,-0.10888392708698907,2.4681821257803174,0.826474908251239,-0.0006510444372992564,-0.00038405890780314575,3.257383411720345e-05,-7.59241714970145e-05,0.0002885883830167973,-0.0004393518377919942,0.0016344185634248267,0.0,0.0,0.0,0.0,0.0,0.0,0.0,-7.036630575996128e-07,-0.00012047967777728541,-2.7092062780981196e-05,4.650177586063009e-05,2.6448567708448056e-06,-7.135303734528975e-07,-5.462773316255998e-06,0.0006510444372992564,0.00038405890780314575,-3.257383411720345e-05,7.59241714970145e-05,-0.0002885883830167973,0.0004393518377919942,-0.0016344185634248267,0.3236324191093445,19.768823623657227,0.4982573688030243,-19.955781936645508,-0.6713767647743225,-2.4758944511413574,0.27591270208358765,0
64,0.31502366065979004,-0.3236324191093445,-19.768823623657227,-0.4982573688030243,19.955781936645508,0.6713767647743225,2.4758944511413574,-0.27591270208358765,0.0,0.0,0.0,0.0,0.0,0.0,0.0,-0.3443110265800354,-0.028673138714095877,-0.313254929043172,0.1751346802806984,0.09519803188908812,0.09382637434629118,-0.24178624993635153,1.213442097431815,-0.2201227519114812,-0.00748473653203824,-2.603894883975648,-0.10888657194375992,2.468182839310691,0.8264803710245553,1.2134413937687574,-0.2202432315892585,-0.0075118285948192216,-2.6038483821997875,-0.10888392708698907,2.4681821257803174,0.826474908251239,-0.0006510444372992564,-0.00038405890780314575,3.257383411720345e-05,-7.59241714970145e-05,0.0002885883830167973,-0.0004393518377919942,0.0016344185634248267,0.0,0.0,0.0,0.0,0.0,0.0,0.0,-7.036630575996128e-07,-0.00012047967777728541,-2.7092062780981196e-05,4.650177586063009e-05,2.6448567708448056e-06,-7.135303734528975e-07,-5.462773316255998e-06,0.0006510444372992564,0.00038405890780314575,-3.257383411720345e-05,7.59241714970145e-05,-0.0002885883830167973,0.0004393518377919942,-0.0016344185634248267,0.3236324191093445,19.768823623657227,0.4982573688030243,-19.955781936645508,-0.6713767647743225,-2.4758944511413574,0.27591270208358765,0
65,0.3200387954711914,-0.3236324191093445,-19.792627334594727,-0.5220611095428467,19.931978225708008,0.6777854561805725,2.4758944511413574,-0.22830526530742645,0.0,0.0,0.0,0.0,0.0,0.0,0.0,-0.34511101749503453,-0.029221923989346785,-0.31223897159588193,0.1763668272840084,0.09497003505887305,0.093651243855469,-0.24221289700225834,1.2134403092376116,-0.22012108147562592,-0.007483066094091586,-2.6038932135774773,-0.10888729716385669,2.4681828771030054,0.8264755655728094,1.2134413937687574,-0.2202432315892585,-0.0075118285948192216,-2.6038483821997875,-0.10888392708698907,2.4681821257803174,0.826474908251239,-0.00015933796594592176,0.0007155709524930868,0.00022316199619482248,0.0005505781444135031,0.00014830665846391971,-0.0002242250605179249,-0.000671011293405105,0.0,0.0,0.0,0.0,0.0,0.0,0.0,1.0845311457785556e-06,-0.00012215011363256312,-2.8762500727635455e-05,4.4831377689735774e-05,3.3700768676120374e-06,-7.513226880639934e-07,-6.573215703964408e-07,0.00015933796594592176,-0.0007155709524930868,-0.00022316199619482248,-0.0005505781444135031,-0.00014830665846391971,0.0002242250605179249,0.000671011293405105,0.3236324191093445,19.792627334594727,0.5220611095428467,-19.931978225708008,-0.6777854561805725,-2.4758944511413574,0.22830526530742645,0
66,0.32501769065856934,-0.3236324191093445,-19.792627334594727,-0.5220611095428467,19.931978225708008,0.6777854561805725,2.4758944511413574,-0.22830526530742645,0.0,0.0,0.0,0.0,0.0,0.0,0.0,-0.34511101749503453,-0.029221923989346785,-0.31223897159588193,0.1763668272840084,0.09497003505887305,0.093651243855469,-0.24221289700225834,1.2134403092376116,-0.22012108147562592,-0.007483066094091586,-2.6038932135774773,-0.10888729716385669,2.4681828771030054,0.8264755655728094,1.2134413937687574,-0.2202432315892585,-0.0075118285948192216,-2.6038483821997875,-0.10888392708698907,2.4681821257803174,0.826474908251239,-0.00015933796594592176,0.0007155709524930868,0.00022316199619482248,0.0005505781444135031,0.00014830665846391971,-0.0002242250605179249,-0.000671011293405105,0.0,0.0,0.0,0.0,0.0,0.0,0.0,1.0845311457785556e-06,-0.00012215011363256312,-2.8762500727635455e-05,4.4831377689735774e-05,3.3700768676120374e-06,-7.513226880639934e-07,-6.573215703964408e-07,0.00015933796594592176,-0.0007155709524930868,-0.00022316199619482248,-0.0005505781444135031,-0.00014830665846391971,0.0002242250605179249,0.000671011293405105,0.3236324191093445,19.792627334594727,0.5220611095428467,-19.931978225708008,-0.6777854561805725,-2.4758944511413574,0.22830526530742645,0
67,0.3300328254699707,-0.3514034152030945,-19.768823623657227,-0.5220611095428467,19.955781936645508,0.6713767647743225,2.4630770683288574,-0.23471395671367645,0.0,0.0,0.0,0.0,0.0,0.0,0.0,-0.3463761487339218,-0.030470874777481522,-0.3158980069474267,0.17837440150175018,0.09529744795865662,0.09377866093104525,-0.24267051984459276,1.2134419543661747,-0.2201227519114812,-0.007483066094091586,-2.603894883975648,-0.10888657194383411,2.4681842663716584,0.8264726519597007,1.2134413937687574,-0.2202432315892585,-0.0075118285948192216,-2.6038483821997875,-0.10888392708698907,2.4681821257803174,0.826474908251239,-3.4864776255814846e-05,-6.958796675191823e-05,0.0002856870455020136,-0.00023738830466698294,0.00038243649605990333,4.477580967958413e-05,-0.0004896656926370498,0.0,0.0,0.0,0.0,0.0,0.0,0.0,-5.605974173761297e-07,-0.00012047967777728541,-2.8762500727635455e-05,4.650177586063009e-05,2.6448568450354593e-06,-2.1405913410710298e-06,2.256291538382804e-06,3.4864776255814846e-05,6.958796675191823e-05,-0.0002856870455020136,0.00023738830466698294,-0.00038243649605990333,-4.477580967958413e-05,0.0004896656926370498,0.3514034152030945,19.768823623657227,0.5220611095428467,-19.955781936645508,-0.6713767647743225,-2.4630770683288574,0.23471395671367645,0
68,0.3350193500518799,-0.3514034152030945,-19.768823623657227,-0.5220611095428467,19.955781936645508,0.6713767647743225,2.4630770683288574,-0.23471395671367645,0.0,0.0,0.0,0.0,0.0,0.0,0.0,-0.3463761487339218,-0.030470874777481522,-0.3158980069474267,0.17837440150175018,0.09529744795865662,0.09377866093104525,-0.24267051984459276,1.2134419543661747,-0.2201227519114812,-0.007483066094091586,-2.603894883975648,-0.10888657194383411,2.4681842663716584,0.8264726519597007,1.2134413937687574,-0.2202432315892585,-0.0075118285948192216,-2.6038483821997875,-0.10888392708698907,2.4681821257803174,0.826474908251239,-3.4864776255814846e-05,-6.958796675191823e-05,0.0002856870455020136,-0.00023738830466698294,0.00038243649605990333,4.477580967958413e-05,-0.0004896656926370498,0.0,0.0,0.0,0.0,0.0,0.0,0.0,-5.605974173761297e-07,-0.00012047967777728541,-2.8762500727635455e-05,4.650177586063009e-05,2.6448568450354593e-06,-2.1405913410710298e-06,2.256291538382804e-06,3.4864776255814846e-05,6.958796675191823e-05,-0.0002856870455020136,0.00023738830466698294,-0.00038243649605990333,-4.477580967958413e-05,0.0004896656926370498,0.3514034152030945,19.768823623657227,0.5220611095428467,-19.955781936645508,-0.6713767647743225,-2.4630770683288574,0.23471395671367645,0
69,0.3400406837463379,-0.3752071261405945,-19.768823623657227,-0.5458648204803467,19.983552932739258,0.6777854561805725,2.4694857597351074,-0.24112264811992645,0.0,0.0,0.0,0.0,0.0,0.0,0.0,-0.3442865330237906,-0.035827326311359105,-0.31279949742498564,0.1856348510154688,0.09571404329252003,0.09491134317315515,-0.24294120621122042,1.2134457648246584,-0.2201227519114812,-0.007481395658236323,-2.603896832817479,-0.10888728986203787,2.468183549933988,0.8264736967175572,1.2134413937687574,-0.2202432315892585,-0.0075118285948192216,-2.6038483821997875,-0.10888392708698907,2.4681821257803174,0.826474908251239,0.00040475166892730283,-0.00020826329881737152,0.0011261258073233488,-0.0006372803694242563,0.00021690872428644162,-0.00015619415603992942,-3.438033487352754e-05,0.0,0.0,0.0,0.0,0.0,0.0,0.0,-4.371055901009058e-06,-0.00012047967777728541,-3.0432936582898418e-05,4.8450617691653264e-05,3.3627750487957853e-06,-1.4241536705483782e-06,1.2115336818219191e-06,-0.00040475166892730283,0.00020826329881737152,-0.0011261258073233488,0.0006372803694242563,-0.00021690872428644162,0.00015619415603992942,3.438033487352754e-05,0.3752071261405945,19.768823623657227,0.5458648204803467,-19.983552932739258,-0.6777854561805725,-2.4694857597351074,0.24112264811992645,0
70,0.3450205326080322,-0.3752071261405945,-19.768823623657227,-0.5458648204803467,19.983552932739258,0.6777854561805725,2.4694857597351074,-0.24112264811992645,0.0,0.0,0.0,0.0,0.0,0.0,0.0,-0.3442865330237906,-0.035827326311359105,-0.31279949742498564,0.1856348510154688,0.09571404329252003,0.09491134317315515,-0.24294120621122042,1.2134457648246584,-0.2201227519114812,-0.007481395658236323,-2.603896832817479,-0.10888728986203787,2.468183549933988,0.8264736967175572,1.2134413937687574,-0.2202432315892585,-0.0075118285948192216,-2.6038483821997875,-0.10888392708698907,2.4681821257803174,0.826474908251239,0.00040475166892730283,-0.00020826329881737152,0.0011261258073233488,-0.0006372803694242563,0.00021690872428644162,-0.00015619415603992942,-3.438033487352754e-05,0.0,0.0,0.0,0.0,0.0,0.0,0.0,-4.371055901009058e-06,-0.00012047967777728541,-3.0432936582898418e-05,4.8450617691653264e-05,3.3627750487957853e-06,-1.4241536705483782e-06,1.2115336818219191e-06,-0.00040475166892730283,0.00020826329881737152,-0.0011261258073233488,0.0006372803694242563,-0.00021690872428644162,0.00015619415603992942,3.438033487352754e-05,0.3752071261405945,19.768823623657227,0.5458648204803467,-19.983552932739258,-0.6777854561805725,-2.4694857597351074,0.24112264811992645,0
71,0.350034236907959,-0.3514034152030945,-19.792627334594727,-0.4982573688030243,19.955781936645508,0.6777854561805725,2.4823031425476074,-0.23471395671367645,0.0,0.0,0.0,0.0,0.0,0.0,0.0,-0.3421551099193478,-0.02695654679291502,-0.30990312618086385,0.1802813070057804,0.09550544507263845,0.09409189116362505,-0.2429459147104779,1.2134421821101797,-0.22012108147562592,-0.007485683445642624,-2.603894883975648,-0.1088872840206158,2.4681821257803174,0.8264758045839247,1.2134413937687574,-0.2202432315892585,-0.0075118285948192216,-2.6038483821997875,-0.10888392708698907,2.4681821257803174,0.826474908251239,0.0006125576137872781,0.0005594773723042885,-0.00034913676728043054,-7.231910428984694e-05,-1.4779871505050172e-05,-0.0005989153040613103,-0.0001279919766183948,0.0,0.0,0.0,0.0,0.0,0.0,0.0,-7.883414223641694e-07,-0.00012215011363256312,-2.6145149176597278e-05,4.650177586063009e-05,3.3569336267275096e-06,0.0,-8.963326856292753e-07,-0.0006125576137872781,-0.0005594773723042885,0.00034913676728043054,7.231910428984694e-05,1.4779871505050172e-05,0.0005989153040613103,0.0001279919766183948,0.3514034152030945,19.792627334594727,0.4982573688030243,-19.955781936645508,-0.6777854561805725,-2.4823031425476074,0.23471395671367645,0
72,0.35502171516418457,-0.3514034152030945,-19.792627334594727,-0.4982573688030243,19.955781936645508,0.6777854561805725,2.4823031425476074,-0.23471395671367645,0.0,0.0,0.0,0.0,0.0,0.0,0.0,-0.3421551099193478,-0.02695654679291502,-0.30990312618086385,0.1802813070057804,0.09550544507263845,0.09409189116362505,-0.2429459147104779,1.2134421821101797,-0.22012108147562592,-0.007485683445642624,-2.603894883975648,-0.1088872840206158,2.4681821257803174,0.8264758045839247,1.2134413937687574,-0.2202432315892585,-0.0075118285948192216,-2.6038483821997875,-0.10888392708698907,2.4681821257803174,0.826474908251239,0.0006125576137872781,0.0005594773723042885,-0.00034913676728043054,-7.231910428984694e-05,-1.4779871505050172e-05,-0.0005989153040613103,-0.0001279919766183948,0.0,0.0,0.0,0.0,0.0,0.0,0.0,-7.883414223641694e-07,-0.00012215011363256312,-2.6145149176597278e-05,4.650177586063009e-05,3.3569336267275096e-06,0.0,-8.963326856292753e-07,-0.0006125576137872781,-0.0005594773723042885,0.00034913676728043054,7.231910428984694e-05,1.4779871505050172e-05,0.0005989153040613103,0.0001279919766183948,0.3514034152030945,19.792627334594727,0.4982573688030243,-19.955781936645508,-0.6777854561805725,-2.4823031425476074,0.23471395671367645,0
73,0.360034704208374,-0.3752071261405945,-19.792627334594727,-0.5220611095428467,19.908174514770508,0.6658836007118225,2.4630770683288574,-0.22830526530742645,0.0,0.0,0.0,0.0,0.0,0.0,0.0,-0.34305019077305576,-0.032745895922624474,-0.3143394860469158,0.1845904658082496,0.09559338569716964,0.09527495430273776,-0.24282820760869583,1.2134439631477223,-0.22012108147562592,-0.007483066099436941,-2.6038915431039373,-0.10888596159219742,2.468184615223496,0.826472255677457,1.2134413937687574,-0.2202432315892585,-0.0075118285948192216,-2.6038483821997875,-0.10888392708698907,2.4681821257803174,0.826474908251239,0.0008180984978388273,0.00036400309091679276,0.0001455182125880627,0.00157458495398234,0.000440238344691787,0.0002634727383542526,-0.0008474637638121357,0.0,0.0,0.0,0.0,0.0,0.0,0.0,-2.5693789649228194e-06,-0.00012215011363256312,-2.876249538228022e-05,4.316090414979712e-05,2.0345052083453607e-06,-2.48944317871036e-06,2.6525737820692896e-06,-0.0008180984978388273,-0.00036400309091679276,-0.0001455182125880627,-0.00157458495398234,-0.000440238344691787,-0.0002634727383542526,0.0008474637638121357,0.3752071261405945,19.792627334594727,0.5220611095428467,-19.908174514770508,-0.6658836007118225,-2.4630770683288574,0.22830526530742645,0
74,0.3650214672088623,-0.3752071261405945,-19.792627334594727,-0.5220611095428467,19.908174514770508,0.6658836007118225,2.4630770683288574,-0.22830526530742645,0.0,0.0,0.0,0.0,0.0,0.0,0.0,-0.34305019077305576,-0.032745895922624474,-0.3143394860469158,0.1845904658082496,0.09559338569716964,0.09527495430273776,-0.24282820760869583,1.2134439631477223,-0.22012108147562592,-0.007483066099436941,-2.6038915431039373,-0.10888596159219742,2.468184615223496,0.826472255677457,1.2134413937687574,-0.2202432315892585,-0.0075118285948192216,-2.6038483821997875,-0.10888392708698907,2.4681821257803174,0.826474908251239,0.0008180984978388273,0.00036400309091679276,0.0001455182125880627,0.00157458495398234,0.000440238344691787,0.0002634727383542526,-0.0008474637638121357,0.0,0.0,0.0,0.0,0.0,0.0,0.0,-2.5693789649228194e-06,-0.00012215011363256312,-2.876249538228022e-05,4.316090414979712e-05,2.0345052083453607e-06,-2.48944317871036e-06,2.6525737820692896e-06,-0.0008180984978388273,-0.00036400309091679276,-0.0001455182125880627,-0.00157458495398234,-0.000440238344691787,-0.0002634727383542526,0.0008474637638121357,0.3752071261405945,19.792627334594727,0.5220611095428467,-19.908174514770508,-0.6658836007118225,-2.4630770683288574,0.22830526530742645,0
75,0.3700132369995117,-0.4029781222343445,-19.768823623657227,-0.5220611095428467,19.955781936645508,0.6832786202430725,2.4630770683288574,-0.26858848333358765,0.0,0.0,0.0,0.0,0.0,0.0,0.0,-0.34454882945042314,-0.030624455965606576,-0.31606904034177,0.18276069371990494,0.09521937749166194,0.09539763593578579,-0.24345069111236292,1.2134455708096337,-0.2201227519114812,-0.0074830670682825675,-2.603894883975648,-0.10888789437214534,2.468187440927168,0.8264774361695799,1.2134413937687574,-0.2202432315892585,-0.0075118285948192216,-2.6038483821997875,-0.10888392708698907,2.4681821257803174,0.826474908251239,0.0010511855192579518,-8.107359167698243e-05,0.00024151659375876158,2.806723167968467e-05,-0.00032543035083661907,4.853287662943493e-05,0.0007368683721684922,0.0,0.0,0.0,0.0,0.0,0.0,0.0,-4.177040876296445e-06,-0.00012047967777728541,-2.87615265366541e-05,4.650177586063009e-05,3.9672851562672085e-06,-5.315146850648489e-06,-2.527918340877733e-06,-0.0010511855192579518,8.107359167698243e-05,-0.00024151659375876158,-2.806723167968467e-05,0.00032543035083661907,-4.853287662943493e-05,-0.0007368683721684922,0.4029781222343445,19.768823623657227,0.5220611095428467,-19.955781936645508,-0.6832786202430725,-2.4630770683288574,0.26858848333358765,0
76,0.3750131130218506,-0.4029781222343445,-19.768823623657227,-0.5220611095428467,19.955781936645508,0.6832786202430725,2.4630770683288574,-0.26858848333358765,0.0,0.0,0.0,0.0,0.0,0.0,0.0,-0.34454882945042314,-0.030624455965606576,-0.31606904034177,0.18276069371990494,0.09521937749166194,0.09539763593578579,-0.24345069111236292,1.2134455708096337,-0.2201227519114812,-0.0074830670682825675,-2.603894883975648,-0.10888789437214534,2.468187440927168,0.8264774361695799,1.2134413937687574,-0.2202432315892585,-0.0075118285948192216,-2.6038483821997875,-0.10888392708698907,2.4681821257803174,0.826474908251239,0.0010511855192579518,-8.107359167698243e-05,0.00024151659375876158,2.806723167968467e-05,-0.00032543035083661907,4.853287662943493e-05,0.0007368683721684922,0.0,0.0,0.0,0.0,0.0,0.0,0.0,-4.177040876296445e-06,-0.00012047967777728541,-2.87615265366541e-05,4.650177586063009e-05,3.9672851562672085e-06,-5.315146850648489e-06,-2.527918340877733e-06,-0.0010511855192579518,8.107359167698243e-05,-0.00024151659375876158,-2.806723167968467e-05,0.00032543035083661907,-4.853287662943493e-05,-0.0007368683721684922,0.4029781222343445,19.768823623657227,0.5220611095428467,-19.955781936645508,-0.6832786202430725,-2.4630770683288574,0.26858848333358765,0
77,0.3800175189971924,-0.4029781222343445,-19.768823623657227,-0.5220611095428467,19.955781936645508,0.6832786202430725,2.4630770683288574,-0.26858848333358765,0.0,0.0,0.0,0.0,0.0,0.0,0.0,-0.34454882945042314,-0.030624455965606576,-0.31606904034177,0.18276069371990494,0.09521937749166194,0.09539763593578579,-0.24345069111236292,1.2134455708096337,-0.2201227519114812,-0.0074830670682825675,-2.603894883975648,-0.10888789437214534,2.468187440927168,0.8264774361695799,1.2134413937687574,-0.2202432315892585,-0.0075118285948192216,-2.6038483821997875,-0.10888392708698907,2.4681821257803174,0.826474908251239,0.0010511855192579518,-8.107359167698243e-05,0.00024151659375876158,2.806723167968467e-05,-0.00032543035083661907,4.853287662943493e-05,0.0007368683721684922,0.0,0.0,0.0,0.0,0.0,0.0,0.0,-4.177040876296445e-06,-0.00012047967777728541,-2.87615265366541e-05,4.650177586063009e-05,3.9672851562672085e-06,-5.315146850648489e-06,-2.527918340877733e-06,-0.0010511855192579518,8.107359167698243e-05,-0.00024151659375876158,-2.806723167968467e-05,0.00032543035083661907,-4.853287662943493e-05,-0.0007368683721684922,0.4029781222343445,19.768823623657227,0.5220611095428467,-19.955781936645508,-0.6832786202430725,-2.4630770683288574,0.26858848333358765,0
78,0.3850243091583252,-0.4029781222343445,-19.768823623657227,-0.5220611095428467,19.955781936645508,0.6832786202430725,2.4630770683288574,-0.26858848333358765,0.0,0.0,0.0,0.0,0.0,0.0,0.0,-0.34454882945042314,-0.030624455965606576,-0.31606904034177,0.18276069371990494,0.09521937749166194,0.09539763593578579,-0.24345069111236292,1.2134455708096337,-0.2201227519114812,-0.0074830670682825675,-2.603894883975648,-0.10888789437214534,2.468187440927168,0.8264774361695799,1.2134413937687574,-0.2202432315892585,-0.0075118285948192216,-2.6038483821997875,-0.10888392708698907,2.4681821257803174,0.826474908251239,0.0010511855192579518,-8.107359167698243e-05,0.00024151659375876158,2.806723167968467e-05,-0.00032543035083661907,4.853287662943493e-05,0.0007368683721684922,0.0,0.0,0.0,0.0,0.0,0.0,0.0,-4.177040876296445e-06,-0.00012047967777728541,-2.87615265366541e-05,4.650177586063009e-05,3.9672851562672085e-06,-5.315146850648489e-06,-2.527918340877733e-06,-0.0010511855192579518,8.107359167698243e-05,-0.00024151659375876158,-2.806723167968467e-05,0.00032543035083661907,-4.853287662943493e-05,-0.0007368683721684922,0.4029781222343445,19.768823623657227,0.5220611095428467,-19.955781936645508,-0.6832786202430725,-2.4630770683288574,0.26858848333358765,0
79,0.39003515243530273,-0.3514034152030945,-19.768823623657227,-0.4982573688030243,19.983552932739258,0.6777854561805725,2.4694857597351074,-0.26217979192733765,0.0,0.0,0.0,0.0,0.0,0.0,0.0,-0.3427564062442939,-0.027494595975792974,-0.31230869889837937,0.1813539115505464,0.09441079629842919,0.09523884897071157,-0.24402518650345098,1.2134421848975134,-0.2201227519114812,-0.00748473653204374,-2.603896832817479,-0.10888740377041137,2.468183550436425,0.8264756775405574,1.2134413937687574,-0.2202432315892585,-0.0075118285948192216,-2.6038483821997875,-0.10888392708698907,2.4681821257803174,0.826474908251239,0.0003027685898081666,8.574013483617834e-05,-8.006185057697782e-05,-0.0007609649129277274,8.181584080374832e-05,-0.00020404136087611566,0.0009415543127747245,0.0,0.0,0.0,0.0,0.0,0.0,0.0,-7.911287560613545e-07,-0.00012047967777728541,-2.7092062775481256e-05,4.8450617691653264e-05,3.4766834222932363e-06,-1.424656107751332e-06,-7.692893183586236e-07,-0.0003027685898081666,-8.574013483617834e-05,8.006185057697782e-05,0.0007609649129277274,-8.181584080374832e-05,0.00020404136087611566,-0.0009415543127747245,0.3514034152030945,19.768823623657227,0.4982573688030243,-19.983552932739258,-0.6777854561805725,-2.4694857597351074,0.26217979192733765,0
