rezayati/contactInterpretation/dataset/franka_main/labeled_data/link3/e4_6.csv
index,time,tau_J0,tau_J1,tau_J2,tau_J3,tau_J4,tau_J5,tau_J6,tau_J_d0,tau_J_d1,tau_J_d2,tau_J_d3,tau_J_d4,tau_J_d5,tau_J_d6,tau_ext0,tau_ext1,tau_ext2,tau_ext3,tau_ext4,tau_ext5,tau_ext6,q0,q1,q2,q3,q4,q5,q6,q_d0,q_d1,q_d2,q_d3,q_d4,q_d5,q_d6,dq0,dq1,dq2,dq3,dq4,dq5,dq6,dq_d0,dq_d1,dq_d2,dq_d3,dq_d4,dq_d5,dq_d6,e0,e1,e2,e3,e4,e5,e6,de0,de1,de2,de3,de4,de5,de6,etau_J0,etau_J1,etau_J2,etau_J3,etau_J4,etau_J5,etau_J6,label
1,0.0,0.16037636995315552,-18.130334854125977,1.1680023670196533,18.122896194458008,0.4983420968055725,2.2488436698913574,-0.21457235515117645,0.0,0.0,0.0,0.0,0.0,0.0,0.0,0.11270042919150987,0.5343570236600367,0.3212884990594498,0.4907554619511243,0.07069956893781246,0.05920433289847246,-0.1823264273795367,-0.6089601408766027,-0.05767410785639494,-0.6665679302212936,-2.594562349587156,-0.05562347166486126,2.507976045649173,0.8763200034935634,-0.6090851748156966,-0.05753196718556838,-0.666603097082616,-2.5945565370258534,-0.05562143941554,2.507976027223799,0.8763108487046415,-0.0006358954173666307,0.00013305863886297242,-7.01927901595885e-05,-0.00012600609745426833,-0.00018242252370591857,-0.00013071011367255477,0.0015387745477276557,0.0,0.0,0.0,0.0,0.0,0.0,0.0,-0.00012503393909391036,0.0001421406708265599,-3.5166861322433185e-05,5.812561302498409e-06,2.032249321257118e-06,-1.84253741153384e-08,-9.154788921938994e-06,0.0006358954173666307,-0.00013305863886297242,7.01927901595885e-05,0.00012600609745426833,0.00018242252370591857,0.00013071011367255477,-0.0015387745477276557,-0.16037636995315552,18.130334854125977,-1.1680023670196533,-18.122896194458008,-0.4983420968055725,-2.2488436698913574,0.21457235515117645,0
2,0.004998922348022461,0.16037636995315552,-18.130334854125977,1.1680023670196533,18.122896194458008,0.4983420968055725,2.2488436698913574,-0.21457235515117645,0.0,0.0,0.0,0.0,0.0,0.0,0.0,0.11270042919150987,0.5343570236600367,0.3212884990594498,0.4907554619511243,0.07069956893781246,0.05920433289847246,-0.1823264273795367,-0.6089601408766027,-0.05767410785639494,-0.6665679302212936,-2.594562349587156,-0.05562347166486126,2.507976045649173,0.8763200034935634,-0.6090851748156966,-0.05753196718556838,-0.666603097082616,-2.5945565370258534,-0.05562143941554,2.507976027223799,0.8763108487046415,-0.0006358954173666307,0.00013305863886297242,-7.01927901595885e-05,-0.00012600609745426833,-0.00018242252370591857,-0.00013071011367255477,0.0015387745477276557,0.0,0.0,0.0,0.0,0.0,0.0,0.0,-0.00012503393909391036,0.0001421406708265599,-3.5166861322433185e-05,5.812561302498409e-06,2.032249321257118e-06,-1.84253741153384e-08,-9.154788921938994e-06,0.0006358954173666307,-0.00013305863886297242,7.01927901595885e-05,0.00012600609745426833,0.00018242252370591857,0.00013071011367255477,-0.0015387745477276557,-0.16037636995315552,18.130334854125977,-1.1680023670196533,-18.122896194458008,-0.4983420968055725,-2.2488436698913574,0.21457235515117645,0
3,0.010009050369262695,0.10880166292190552,-18.154138565063477,1.0926239490509033,18.122896194458008,0.4983420968055725,2.2424349784851074,-0.15964071452617645,0.0,0.0,0.0,0.0,0.0,0.0,0.0,0.1193963269726143,0.5406587180790541,0.3310459498662689,0.4870713813951894,0.0704777933914378,0.05898283998053816,-0.1828792767810737,-0.6089565215989163,-0.05767243742053968,-0.6665626406167676,-2.594562349587156,-0.055622761277260895,2.507973881222131,0.876312840824323,-0.6090851748156966,-0.05753196718556838,-0.666603097082616,-2.5945565370258534,-0.05562143941554,2.507976027223799,0.8763108487046415,0.0009556256386074459,0.00021718517201197045,0.0023245754858910467,-0.0003009898865350277,-0.00016847782943660335,8.795921811646699e-05,-0.000523883555878049,0.0,0.0,0.0,0.0,0.0,0.0,0.0,-0.000128653216780239,0.00014047023497129607,-4.045646584838192e-05,5.812561302498409e-06,1.3218617208946015e-06,2.1460016679242244e-06,-1.9921196815486653e-06,-0.0009556256386074459,-0.00021718517201197045,-0.0023245754858910467,0.0003009898865350277,0.00016847782943660335,-8.795921811646699e-05,0.000523883555878049,-0.10880166292190552,18.154138565063477,-1.0926239490509033,-18.122896194458008,-0.4983420968055725,-2.2424349784851074,0.15964071452617645,0
4,0.01500082015991211,0.10880166292190552,-18.154138565063477,1.0926239490509033,18.122896194458008,0.4983420968055725,2.2424349784851074,-0.15964071452617645,0.0,0.0,0.0,0.0,0.0,0.0,0.0,0.1193963269726143,0.5406587180790541,0.3310459498662689,0.4870713813951894,0.0704777933914378,0.05898283998053816,-0.1828792767810737,-0.6089565215989163,-0.05767243742053968,-0.6665626406167676,-2.594562349587156,-0.055622761277260895,2.507973881222131,0.876312840824323,-0.6090851748156966,-0.05753196718556838,-0.666603097082616,-2.5945565370258534,-0.05562143941554,2.507976027223799,0.8763108487046415,0.0009556256386074459,0.00021718517201197045,0.0023245754858910467,-0.0003009898865350277,-0.00016847782943660335,8.795921811646699e-05,-0.000523883555878049,0.0,0.0,0.0,0.0,0.0,0.0,0.0,-0.000128653216780239,0.00014047023497129607,-4.045646584838192e-05,5.812561302498409e-06,1.3218617208946015e-06,2.1460016679242244e-06,-1.9921196815486653e-06,-0.0009556256386074459,-0.00021718517201197045,-0.0023245754858910467,0.0003009898865350277,0.00016847782943660335,-8.795921811646699e-05,0.000523883555878049,-0.10880166292190552,18.154138565063477,-1.0926239490509033,-18.122896194458008,-0.4983420968055725,-2.2424349784851074,0.15964071452617645,0
5,0.01999974250793457,0.13260537385940552,-18.154138565063477,1.1918060779571533,18.122896194458008,0.4864402413368225,2.2424349784851074,-0.16604940593242645,0.0,0.0,0.0,0.0,0.0,0.0,0.0,0.1181153917171077,0.5324291405331397,0.33120760290965867,0.488023167273683,0.07050116924819902,0.05981584840336149,-0.18261876980267877,-0.6089581920347715,-0.05767243742053968,-0.6665696007661651,-2.594562349587156,-0.055622149068441956,2.5079724804141375,0.8763146125332963,-0.6090851748156966,-0.05753196718556838,-0.666603097082616,-2.5945565370258534,-0.05562143941554,2.507976027223799,0.8763108487046415,-0.0002155372761506002,-0.00045249846789238674,-0.0007951057940367765,-0.00017088449155848296,0.0003031625421075157,8.268101188886926e-05,-0.0006591783145394475,0.0,0.0,0.0,0.0,0.0,0.0,0.0,-0.00012698278092504456,0.00014047023497129607,-3.349631645088724e-05,5.812561302498409e-06,7.09652901956237e-07,3.5468096615254296e-06,-3.7638286548569155e-06,0.0002155372761506002,0.00045249846789238674,0.0007951057940367765,0.00017088449155848296,-0.0003031625421075157,-8.268101188886926e-05,0.0006591783145394475,-0.13260537385940552,18.154138565063477,-1.1918060779571533,-18.122896194458008,-0.4864402413368225,-2.2424349784851074,0.16604940593242645,0
6,0.024997949600219727,0.13260537385940552,-18.154138565063477,1.1918060779571533,18.122896194458008,0.4864402413368225,2.2424349784851074,-0.16604940593242645,0.0,0.0,0.0,0.0,0.0,0.0,0.0,0.1181153917171077,0.5324291405331397,0.33120760290965867,0.488023167273683,0.07050116924819902,0.05981584840336149,-0.18261876980267877,-0.6089581920347715,-0.05767243742053968,-0.6665696007661651,-2.594562349587156,-0.055622149068441956,2.5079724804141375,0.8763146125332963,-0.6090851748156966,-0.05753196718556838,-0.666603097082616,-2.5945565370258534,-0.05562143941554,2.507976027223799,0.8763108487046415,-0.0002155372761506002,-0.00045249846789238674,-0.0007951057940367765,-0.00017088449155848296,0.0003031625421075157,8.268101188886926e-05,-0.0006591783145394475,0.0,0.0,0.0,0.0,0.0,0.0,0.0,-0.00012698278092504456,0.00014047023497129607,-3.349631645088724e-05,5.812561302498409e-06,7.09652901956237e-07,3.5468096615254296e-06,-3.7638286548569155e-06,0.0002155372761506002,0.00045249846789238674,0.0007951057940367765,0.00017088449155848296,-0.0003031625421075157,-8.268101188886926e-05,0.0006591783145394475,-0.13260537385940552,18.154138565063477,-1.1918060779571533,-18.122896194458008,-0.4864402413368225,-2.2424349784851074,0.16604940593242645,0
7,0.02999734878540039,0.10880166292190552,-18.130334854125977,1.1680023670196533,18.122896194458008,0.4864402413368225,2.2488436698913574,-0.19351522624492645,0.0,0.0,0.0,0.0,0.0,0.0,0.0,0.11721454277732285,0.5266601064680484,0.3297331497827006,0.48409390688759124,0.0704854573994781,0.059719504150393336,-0.18288458846092853,-0.6089565215989163,-0.05767410785639494,-0.6665679303303098,-2.594562349587156,-0.05562143609040964,2.507972853646924,0.8763176642970906,-0.6090851748156966,-0.05753196718556838,-0.666603097082616,-2.5945565370258534,-0.05562143941554,2.507976027223799,0.8763108487046415,-0.00025687732117939626,-0.0008524579425565916,-0.0005005246315471001,-0.0002882034772780214,0.00023887348614449173,3.222984529647165e-06,0.000510523016551933,0.0,0.0,0.0,0.0,0.0,0.0,0.0,-0.000128653216780239,0.0001421406708265599,-3.5166752306192706e-05,5.812561302498409e-06,-3.32513035855575e-09,3.173576875070694e-06,-6.815592449083141e-06,0.00025687732117939626,0.0008524579425565916,0.0005005246315471001,0.0002882034772780214,-0.00023887348614449173,-3.222984529647165e-06,-0.000510523016551933,-0.10880166292190552,18.130334854125977,-1.1680023670196533,-18.122896194458008,-0.4864402413368225,-2.2488436698913574,0.19351522624492645,0
8,0.03500080108642578,0.10880166292190552,-18.130334854125977,1.1680023670196533,18.122896194458008,0.4864402413368225,2.2488436698913574,-0.19351522624492645,0.0,0.0,0.0,0.0,0.0,0.0,0.0,0.11721454277732285,0.5266601064680484,0.3297331497827006,0.48409390688759124,0.0704854573994781,0.059719504150393336,-0.18288458846092853,-0.6089565215989163,-0.05767410785639494,-0.6665679303303098,-2.594562349587156,-0.05562143609040964,2.507972853646924,0.8763176642970906,-0.6090851748156966,-0.05753196718556838,-0.666603097082616,-2.5945565370258534,-0.05562143941554,2.507976027223799,0.8763108487046415,-0.00025687732117939626,-0.0008524579425565916,-0.0005005246315471001,-0.0002882034772780214,0.00023887348614449173,3.222984529647165e-06,0.000510523016551933,0.0,0.0,0.0,0.0,0.0,0.0,0.0,-0.000128653216780239,0.0001421406708265599,-3.5166752306192706e-05,5.812561302498409e-06,-3.32513035855575e-09,3.173576875070694e-06,-6.815592449083141e-06,0.00025687732117939626,0.0008524579425565916,0.0005005246315471001,0.0002882034772780214,-0.00023887348614449173,-3.222984529647165e-06,-0.000510523016551933,-0.10880166292190552,18.130334854125977,-1.1680023670196533,-18.122896194458008,-0.4864402413368225,-2.2488436698913574,0.19351522624492645,0
9,0.03999757766723633,0.08103066682815552,-18.130334854125977,1.1164276599884033,18.146699905395508,0.4983420968055725,2.2424349784851074,-0.20083944499492645,0.0,0.0,0.0,0.0,0.0,0.0,0.0,0.1141110541344461,0.5277607297701807,0.3282560201047663,0.4834484515058123,0.06996329453241801,0.060004561741292706,-0.18249352079599987,-0.6089545727570852,-0.05767410785639494,-0.6665643110526235,-2.5945640200230113,-0.055622627082031625,2.5079724668458874,0.8763184780991738,-0.6090851748156966,-0.05753196718556838,-0.666603097082616,-2.5945565370258534,-0.05562143941554,2.507976027223799,0.8763108487046415,0.0004290359323122789,0.0003251145038874903,-0.0001929684554880066,-0.0007903312909715013,-0.00021226791684578487,-2.5126026628402492e-05,0.0007739296917845327,0.0,0.0,0.0,0.0,0.0,0.0,0.0,-0.0001306020586113732,0.0001421406708265599,-3.878602999252134e-05,7.482997157914895e-06,1.1876664916254942e-06,3.560377911604462e-06,-7.629394532360223e-06,-0.0004290359323122789,-0.0003251145038874903,0.0001929684554880066,0.0007903312909715013,0.00021226791684578487,2.5126026628402492e-05,-0.0007739296917845327,-0.08103066682815552,18.130334854125977,-1.1164276599884033,-18.146699905395508,-0.4983420968055725,-2.2424349784851074,0.20083944499492645,0
10,0.044997453689575195,0.08103066682815552,-18.130334854125977,1.1164276599884033,18.146699905395508,0.4983420968055725,2.2424349784851074,-0.20083944499492645,0.0,0.0,0.0,0.0,0.0,0.0,0.0,0.1141110541344461,0.5277607297701807,0.3282560201047663,0.4834484515058123,0.06996329453241801,0.060004561741292706,-0.18249352079599987,-0.6089545727570852,-0.05767410785639494,-0.6665643110526235,-2.5945640200230113,-0.055622627082031625,2.5079724668458874,0.8763184780991738,-0.6090851748156966,-0.05753196718556838,-0.666603097082616,-2.5945565370258534,-0.05562143941554,2.507976027223799,0.8763108487046415,0.0004290359323122789,0.0003251145038874903,-0.0001929684554880066,-0.0007903312909715013,-0.00021226791684578487,-2.5126026628402492e-05,0.0007739296917845327,0.0,0.0,0.0,0.0,0.0,0.0,0.0,-0.0001306020586113732,0.0001421406708265599,-3.878602999252134e-05,7.482997157914895e-06,1.1876664916254942e-06,3.560377911604462e-06,-7.629394532360223e-06,-0.0004290359323122789,-0.0003251145038874903,0.0001929684554880066,0.0007903312909715013,0.00021226791684578487,2.5126026628402492e-05,-0.0007739296917845327,-0.08103066682815552,18.130334854125977,-1.1164276599884033,-18.146699905395508,-0.4983420968055725,-2.2424349784851074,0.20083944499492645,0
11,0.04999971389770508,0.10880166292190552,-18.054956436157227,1.1164276599884033,18.099092483520508,0.4864402413368225,2.2424349784851074,-0.15964071452617645,0.0,0.0,0.0,0.0,0.0,0.0,0.0,0.11575475739544072,0.5346627661749316,0.32781955969165294,0.4801531615919315,0.0696332412533205,0.05903207253217596,-0.18259146765200673,-0.6089565215989163,-0.05767939756993661,-0.6665643110526235,-2.594560679151301,-0.055622093032985966,2.5079724668935195,0.876310721548067,-0.6090851748156966,-0.05753196718556838,-0.666603097082616,-2.5945565370258534,-0.05562143941554,2.507976027223799,0.8763108487046415,-0.0004956762351397667,-0.0008538405687065365,0.00010751146272143019,2.7223730427188192e-05,0.0003644504734550604,-0.00010175159155827958,-0.0011502130370044388,0.0,0.0,0.0,0.0,0.0,0.0,0.0,-0.000128653216780239,0.0001474303843682287,-3.878602999252134e-05,4.142125447526013e-06,6.536174459656485e-07,3.560330279483992e-06,1.2715657449202666e-07,0.0004956762351397667,0.0008538405687065365,-0.00010751146272143019,-2.7223730427188192e-05,-0.0003644504734550604,0.00010175159155827958,0.0011502130370044388,-0.10880166292190552,18.054956436157227,-1.1164276599884033,-18.099092483520508,-0.4864402413368225,-2.2424349784851074,0.15964071452617645,0
12,0.055382490158081055,0.10880166292190552,-18.054956436157227,1.1164276599884033,18.099092483520508,0.4864402413368225,2.2424349784851074,-0.15964071452617645,0.0,0.0,0.0,0.0,0.0,0.0,0.0,0.11575475739544072,0.5346627661749316,0.32781955969165294,0.4801531615919315,0.0696332412533205,0.05903207253217596,-0.18259146765200673,-0.6089565215989163,-0.05767939756993661,-0.6665643110526235,-2.594560679151301,-0.055622093032985966,2.5079724668935195,0.876310721548067,-0.6090851748156966,-0.05753196718556838,-0.666603097082616,-2.5945565370258534,-0.05562143941554,2.507976027223799,0.8763108487046415,-0.0004956762351397667,-0.0008538405687065365,0.00010751146272143019,2.7223730427188192e-05,0.0003644504734550604,-0.00010175159155827958,-0.0011502130370044388,0.0,0.0,0.0,0.0,0.0,0.0,0.0,-0.000128653216780239,0.0001474303843682287,-3.878602999252134e-05,4.142125447526013e-06,6.536174459656485e-07,3.560330279483992e-06,1.2715657449202666e-07,0.0004956762351397667,0.0008538405687065365,-0.00010751146272143019,-2.7223730427188192e-05,-0.0003644504734550604,0.00010175159155827958,0.0011502130370044388,-0.10880166292190552,18.054956436157227,-1.1164276599884033,-18.099092483520508,-0.4864402413368225,-2.2424349784851074,0.15964071452617645,0
13,0.060003042221069336,0.10880166292190552,-18.106531143188477,1.1164276599884033,18.122896194458008,0.4928489327430725,2.2424349784851074,-0.19351522624492645,0.0,0.0,0.0,0.0,0.0,0.0,0.0,0.11715079680419972,0.540607214703979,0.3296627129623673,0.4842947426180953,0.06972001301302236,0.0594271920879493,-0.18265064100150558,-0.6089565215989163,-0.05767577829225021,-0.6665621652854116,-2.594562349587156,-0.05561894391247049,2.5079757684983157,0.8763176599184949,-0.6090851748156966,-0.05753196718556838,-0.666603097082616,-2.5945565370258534,-0.05562143941554,2.507976027223799,0.8763108487046415,0.0005364104506599286,0.0007999997356009017,0.0004970434266657588,2.5092735499865713e-05,8.273310644728923e-06,-0.0002093925079723155,-0.00034029863555993107,0.0,0.0,0.0,0.0,0.0,0.0,0.0,-0.000128653216780239,0.00014381110668182373,-4.0931797204435405e-05,5.812561302498409e-06,-2.495503069507854e-06,2.5872548325978073e-07,-6.811213853374909e-06,-0.0005364104506599286,-0.0007999997356009017,-0.0004970434266657588,-2.5092735499865713e-05,-8.273310644728923e-06,0.0002093925079723155,0.00034029863555993107,-0.10880166292190552,18.106531143188477,-1.1164276599884033,-18.122896194458008,-0.4928489327430725,-2.2424349784851074,0.19351522624492645,0
14,0.06500434875488281,0.10880166292190552,-18.106531143188477,1.1164276599884033,18.122896194458008,0.4928489327430725,2.2424349784851074,-0.19351522624492645,0.0,0.0,0.0,0.0,0.0,0.0,0.0,0.11715079680419972,0.540607214703979,0.3296627129623673,0.4842947426180953,0.06972001301302236,0.0594271920879493,-0.18265064100150558,-0.6089565215989163,-0.05767577829225021,-0.6665621652854116,-2.594562349587156,-0.05561894391247049,2.5079757684983157,0.8763176599184949,-0.6090851748156966,-0.05753196718556838,-0.666603097082616,-2.5945565370258534,-0.05562143941554,2.507976027223799,0.8763108487046415,0.0005364104506599286,0.0007999997356009017,0.0004970434266657588,2.5092735499865713e-05,8.273310644728923e-06,-0.0002093925079723155,-0.00034029863555993107,0.0,0.0,0.0,0.0,0.0,0.0,0.0,-0.000128653216780239,0.00014381110668182373,-4.0931797204435405e-05,5.812561302498409e-06,-2.495503069507854e-06,2.5872548325978073e-07,-6.811213853374909e-06,-0.0005364104506599286,-0.0007999997356009017,-0.0004970434266657588,-2.5092735499865713e-05,-8.273310644728923e-06,0.0002093925079723155,0.00034029863555993107,-0.10880166292190552,18.106531143188477,-1.1164276599884033,-18.122896194458008,-0.4928489327430725,-2.2424349784851074,0.19351522624492645,0
15,0.07000231742858887,0.08103066682815552,-18.154138565063477,1.1441986560821533,18.122896194458008,0.4864402413368225,2.2424349784851074,-0.14590780436992645,0.0,0.0,0.0,0.0,0.0,0.0,0.0,0.10692423735947776,0.53665596154816,0.31717452790889156,0.4876216061539837,0.07010414253234577,0.05912433773417349,-0.18319629089593348,-0.6089545727570852,-0.057672437095762044,-0.6665662598823417,-2.594562349587156,-0.055619270673361816,2.5079728643235617,0.8763123745835242,-0.6090851748156966,-0.05753196718556838,-0.666603097082616,-2.5945565370258534,-0.05562143941554,2.507976027223799,0.8763108487046415,0.0007049816391996489,0.0004447010495165484,-0.0004333473277475392,-0.00013743950605807578,0.00019363877026590433,7.789270529869372e-05,-0.0020430896199490024,0.0,0.0,0.0,0.0,0.0,0.0,0.0,-0.0001306020586113732,0.00014046991019366073,-3.683720027425341e-05,5.812561302498409e-06,-2.1687421781838023e-06,3.162900237274613e-06,-1.5258788826910674e-06,-0.0007049816391996489,-0.0004447010495165484,0.0004333473277475392,0.00013743950605807578,-0.00019363877026590433,-7.789270529869372e-05,0.0020430896199490024,-0.08103066682815552,18.154138565063477,-1.1441986560821533,-18.122896194458008,-0.4864402413368225,-2.2424349784851074,0.14590780436992645,0
16,0.07500815391540527,0.08103066682815552,-18.154138565063477,1.1441986560821533,18.122896194458008,0.4864402413368225,2.2424349784851074,-0.14590780436992645,0.0,0.0,0.0,0.0,0.0,0.0,0.0,0.10692423735947776,0.53665596154816,0.31717452790889156,0.4876216061539837,0.07010414253234577,0.05912433773417349,-0.18319629089593348,-0.6089545727570852,-0.057672437095762044,-0.6665662598823417,-2.594562349587156,-0.055619270673361816,2.5079728643235617,0.8763123745835242,-0.6090851748156966,-0.05753196718556838,-0.666603097082616,-2.5945565370258534,-0.05562143941554,2.507976027223799,0.8763108487046415,0.0007049816391996489,0.0004447010495165484,-0.0004333473277475392,-0.00013743950605807578,0.00019363877026590433,7.789270529869372e-05,-0.0020430896199490024,0.0,0.0,0.0,0.0,0.0,0.0,0.0,-0.0001306020586113732,0.00014046991019366073,-3.683720027425341e-05,5.812561302498409e-06,-2.1687421781838023e-06,3.162900237274613e-06,-1.5258788826910674e-06,-0.0007049816391996489,-0.0004447010495165484,0.0004333473277475392,0.00013743950605807578,-0.00019363877026590433,-7.789270529869372e-05,0.0020430896199490024,-0.08103066682815552,18.154138565063477,-1.1441986560821533,-18.122896194458008,-0.4864402413368225,-2.2424349784851074,0.14590780436992645,0
17,0.07995915412902832,0.13260537385940552,-18.154138565063477,1.1441986560821533,18.122896194458008,0.4928489327430725,2.2360262870788574,-0.19351522624492645,0.0,0.0,0.0,0.0,0.0,0.0,0.0,0.1116623999018846,0.5334382743499994,0.31952432040151857,0.4899701137492727,0.06953924946613586,0.05926768073641485,-0.18294464070510374,-0.6089581920347715,-0.05767243742053785,-0.6665660214758755,-2.594562349587156,-0.055622743979399154,2.5079731837639185,0.8763176642970906,-0.6090851748156966,-0.05753196718556838,-0.666603097082616,-2.5945565370258534,-0.05562143941554,2.507976027223799,0.8763108487046415,-0.0009244728581459866,-0.0003211438732488041,-0.00013584960304693293,0.000292154375851105,0.00024190031336789028,0.00025494119229770837,0.0007171113024908966,0.0,0.0,0.0,0.0,0.0,0.0,0.0,-0.00012698278092504456,0.0001404702349694642,-3.707560674048871e-05,5.812561302498409e-06,1.304563859154395e-06,2.8434598804416567e-06,-6.815592449083141e-06,0.0009244728581459866,0.0003211438732488041,0.00013584960304693293,-0.000292154375851105,-0.00024190031336789028,-0.00025494119229770837,-0.0007171113024908966,-0.13260537385940552,18.154138565063477,-1.1441986560821533,-18.122896194458008,-0.4928489327430725,-2.2360262870788574,0.19351522624492645,0
18,0.08500003814697266,0.13260537385940552,-18.154138565063477,1.1441986560821533,18.122896194458008,0.4928489327430725,2.2360262870788574,-0.19351522624492645,0.0,0.0,0.0,0.0,0.0,0.0,0.0,0.1116623999018846,0.5334382743499994,0.31952432040151857,0.4899701137492727,0.06953924946613586,0.05926768073641485,-0.18294464070510374,-0.6089581920347715,-0.05767243742053785,-0.6665660214758755,-2.594562349587156,-0.055622743979399154,2.5079731837639185,0.8763176642970906,-0.6090851748156966,-0.05753196718556838,-0.666603097082616,-2.5945565370258534,-0.05562143941554,2.507976027223799,0.8763108487046415,-0.0009244728581459866,-0.0003211438732488041,-0.00013584960304693293,0.000292154375851105,0.00024190031336789028,0.00025494119229770837,0.0007171113024908966,0.0,0.0,0.0,0.0,0.0,0.0,0.0,-0.00012698278092504456,0.0001404702349694642,-3.707560674048871e-05,5.812561302498409e-06,1.304563859154395e-06,2.8434598804416567e-06,-6.815592449083141e-06,0.0009244728581459866,0.0003211438732488041,0.00013584960304693293,-0.000292154375851105,-0.00024190031336789028,-0.00025494119229770837,-0.0007171113024908966,-0.13260537385940552,18.154138565063477,-1.1441986560821533,-18.122896194458008,-0.4928489327430725,-2.2360262870788574,0.19351522624492645,0
19,0.08999824523925781,0.13260537385940552,-18.154138565063477,1.1441986560821533,18.122896194458008,0.4928489327430725,2.2360262870788574,-0.19351522624492645,0.0,0.0,0.0,0.0,0.0,0.0,0.0,0.1116623999018846,0.5334382743499994,0.31952432040151857,0.4899701137492727,0.06953924946613586,0.05926768073641485,-0.18294464070510374,-0.6089581920347715,-0.05767243742053785,-0.6665660214758755,-2.594562349587156,-0.055622743979399154,2.5079731837639185,0.8763176642970906,-0.6090851748156966,-0.05753196718556838,-0.666603097082616,-2.5945565370258534,-0.05562143941554,2.507976027223799,0.8763108487046415,-0.0009244728581459866,-0.0003211438732488041,-0.00013584960304693293,0.000292154375851105,0.00024190031336789028,0.00025494119229770837,0.0007171113024908966,0.0,0.0,0.0,0.0,0.0,0.0,0.0,-0.00012698278092504456,0.0001404702349694642,-3.707560674048871e-05,5.812561302498409e-06,1.304563859154395e-06,2.8434598804416567e-06,-6.815592449083141e-06,0.0009244728581459866,0.0003211438732488041,0.00013584960304693293,-0.000292154375851105,-0.00024190031336789028,-0.00025494119229770837,-0.0007171113024908966,-0.13260537385940552,18.154138565063477,-1.1441986560821533,-18.122896194458008,-0.4928489327430725,-2.2360262870788574,0.19351522624492645,0
20,0.09499406814575195,0.16037636995315552,-18.130334854125977,1.1441986560821533,18.071321487426758,0.4864402413368225,2.2488436698913574,-0.18710653483867645,0.0,0.0,0.0,0.0,0.0,0.0,0.0,0.11867724192988156,0.5345276136769511,0.32512995366658703,0.48394717581352303,0.06966785217901351,0.05803599143445436,-0.18308683909158904,-0.6089601408766027,-0.05767400262844182,-0.6665662598931088,-2.5945587303094695,-0.055620950113140506,2.507971756216439,0.8763169478596169,-0.6090851748156966,-0.05753196718556838,-0.666603097082616,-2.5945565370258534,-0.05562143941554,2.507976027223799,0.8763108487046415,-0.0008222939099056452,-0.000627513002114838,0.0001592899979559016,0.0011741028079400582,0.0003490852567777182,-0.0003760776542906887,5.4952300397064955e-05,0.0,0.0,0.0,0.0,0.0,0.0,0.0,-0.00012503393909391036,0.000142035442873438,-3.68371895071995e-05,2.19328361605875e-06,-4.893023994936851e-07,4.271007359779588e-06,-6.099154975403032e-06,0.0008222939099056452,0.000627513002114838,-0.0001592899979559016,-0.0011741028079400582,-0.0003490852567777182,0.0003760776542906887,-5.4952300397064955e-05,-0.16037636995315552,18.130334854125977,-1.1441986560821533,-18.071321487426758,-0.4864402413368225,-2.2488436698913574,0.18710653483867645,0
21,0.09999728202819824,0.16037636995315552,-18.130334854125977,1.1441986560821533,18.071321487426758,0.4864402413368225,2.2488436698913574,-0.18710653483867645,0.0,0.0,0.0,0.0,0.0,0.0,0.0,0.11867724192988156,0.5345276136769511,0.32512995366658703,0.48394717581352303,0.06966785217901351,0.05803599143445436,-0.18308683909158904,-0.6089601408766027,-0.05767400262844182,-0.6665662598931088,-2.5945587303094695,-0.055620950113140506,2.507971756216439,0.8763169478596169,-0.6090851748156966,-0.05753196718556838,-0.666603097082616,-2.5945565370258534,-0.05562143941554,2.507976027223799,0.8763108487046415,-0.0008222939099056452,-0.000627513002114838,0.0001592899979559016,0.0011741028079400582,0.0003490852567777182,-0.0003760776542906887,5.4952300397064955e-05,0.0,0.0,0.0,0.0,0.0,0.0,0.0,-0.00012503393909391036,0.000142035442873438,-3.68371895071995e-05,2.19328361605875e-06,-4.893023994936851e-07,4.271007359779588e-06,-6.099154975403032e-06,0.0008222939099056452,0.000627513002114838,-0.0001592899979559016,-0.0011741028079400582,-0.0003490852567777182,0.0003760776542906887,-5.4952300397064955e-05,-0.16037636995315552,18.130334854125977,-1.1441986560821533,-18.071321487426758,-0.4864402413368225,-2.2488436698913574,0.18710653483867645,0
22,0.1049950122833252,0.13260537385940552,-18.106531143188477,1.1164276599884033,18.122896194458008,0.4928489327430725,2.2360262870788574,-0.16604940593242645,0.0,0.0,0.0,0.0,0.0,0.0,0.0,0.12296561211482553,0.5299507123974404,0.327328248289716,0.4844889408597912,0.0699852981612443,0.05822923254906997,-0.1837751434296067,-0.6089581920347715,-0.05767577829165619,-0.6665642315797639,-2.594562349587156,-0.05561989968705765,2.507974251690432,0.8763146081786027,-0.6090851748156966,-0.05753196718556838,-0.666603097082616,-2.5945565370258534,-0.05562143941554,2.507976027223799,0.8763108487046415,0.00041427804855740324,-0.0005985980544278992,0.0010434244329424005,-9.631628023406464e-05,2.3724245313364615e-05,0.00024969283191656134,-0.0007797321082634016,0.0,0.0,0.0,0.0,0.0,0.0,0.0,-0.00012698278092504456,0.00014381110608780584,-3.886550285214785e-05,5.812561302498409e-06,-1.5397284823526203e-06,1.7755333669988715e-06,-3.759473961251203e-06,-0.00041427804855740324,0.0005985980544278992,-0.0010434244329424005,9.631628023406464e-05,-2.3724245313364615e-05,-0.00024969283191656134,0.0007797321082634016,-0.13260537385940552,18.106531143188477,-1.1164276599884033,-18.122896194458008,-0.4928489327430725,-2.2360262870788574,0.16604940593242645,0
23,0.11000370979309082,0.13260537385940552,-18.106531143188477,1.1164276599884033,18.122896194458008,0.4928489327430725,2.2360262870788574,-0.16604940593242645,0.0,0.0,0.0,0.0,0.0,0.0,0.0,0.12296561211482553,0.5299507123974404,0.327328248289716,0.4844889408597912,0.0699852981612443,0.05822923254906997,-0.1837751434296067,-0.6089581920347715,-0.05767577829165619,-0.6665642315797639,-2.594562349587156,-0.05561989968705765,2.507974251690432,0.8763146081786027,-0.6090851748156966,-0.05753196718556838,-0.666603097082616,-2.5945565370258534,-0.05562143941554,2.507976027223799,0.8763108487046415,0.00041427804855740324,-0.0005985980544278992,0.0010434244329424005,-9.631628023406464e-05,2.3724245313364615e-05,0.00024969283191656134,-0.0007797321082634016,0.0,0.0,0.0,0.0,0.0,0.0,0.0,-0.00012698278092504456,0.00014381110608780584,-3.886550285214785e-05,5.812561302498409e-06,-1.5397284823526203e-06,1.7755333669988715e-06,-3.759473961251203e-06,-0.00041427804855740324,0.0005985980544278992,-0.0010434244329424005,9.631628023406464e-05,-2.3724245313364615e-05,-0.00024969283191656134,0.0007797321082634016,-0.13260537385940552,18.106531143188477,-1.1164276599884033,-18.122896194458008,-0.4928489327430725,-2.2360262870788574,0.16604940593242645,0
24,0.11499691009521484,0.10880166292190552,-18.106531143188477,1.1918060779571533,18.122896194458008,0.4928489327430725,2.2360262870788574,-0.17337362468242645,0.0,0.0,0.0,0.0,0.0,0.0,0.0,0.12281614125289249,0.5292883495538202,0.3264485819830516,0.48514909047409505,0.07042820748712005,0.05854276381988468,-0.18350487045061592,-0.6089565215989163,-0.05767577829225021,-0.6665696007657166,-2.594562349587156,-0.055623098685061975,2.5079731790840687,0.8763154219806861,-0.6090851748156966,-0.05753196718556838,-0.666603097082616,-2.5945565370258534,-0.05562143941554,2.507976027223799,0.8763108487046415,0.00043696019196492927,-0.00029554341576974535,-0.0004357860446931115,-9.032752103374086e-05,5.892276782150852e-05,-3.5646087739075795e-05,-0.000551178834539985,0.0,0.0,0.0,0.0,0.0,0.0,0.0,-0.000128653216780239,0.00014381110668182373,-3.3496316899417344e-05,5.812561302498409e-06,1.6592695219752596e-06,2.8481397302826394e-06,-4.573276044639307e-06,-0.00043696019196492927,0.00029554341576974535,0.0004357860446931115,9.032752103374086e-05,-5.892276782150852e-05,3.5646087739075795e-05,0.000551178834539985,-0.10880166292190552,18.106531143188477,-1.1918060779571533,-18.122896194458008,-0.4928489327430725,-2.2360262870788574,0.17337362468242645,0
25,0.12000083923339844,0.10880166292190552,-18.106531143188477,1.1918060779571533,18.122896194458008,0.4928489327430725,2.2360262870788574,-0.17337362468242645,0.0,0.0,0.0,0.0,0.0,0.0,0.0,0.12281614125289249,0.5292883495538202,0.3264485819830516,0.48514909047409505,0.07042820748712005,0.05854276381988468,-0.18350487045061592,-0.6089565215989163,-0.05767577829225021,-0.6665696007657166,-2.594562349587156,-0.055623098685061975,2.5079731790840687,0.8763154219806861,-0.6090851748156966,-0.05753196718556838,-0.666603097082616,-2.5945565370258534,-0.05562143941554,2.507976027223799,0.8763108487046415,0.00043696019196492927,-0.00029554341576974535,-0.0004357860446931115,-9.032752103374086e-05,5.892276782150852e-05,-3.5646087739075795e-05,-0.000551178834539985,0.0,0.0,0.0,0.0,0.0,0.0,0.0,-0.000128653216780239,0.00014381110668182373,-3.3496316899417344e-05,5.812561302498409e-06,1.6592695219752596e-06,2.8481397302826394e-06,-4.573276044639307e-06,-0.00043696019196492927,0.00029554341576974535,0.0004357860446931115,9.032752103374086e-05,-5.892276782150852e-05,3.5646087739075795e-05,0.000551178834539985,-0.10880166292190552,18.106531143188477,-1.1918060779571533,-18.122896194458008,-0.4928489327430725,-2.2360262870788574,0.17337362468242645,0
26,0.12500762939453125,0.08103066682815552,-18.106531143188477,1.1441986560821533,18.122896194458008,0.4928489327430725,2.2360262870788574,-0.17978231608867645,0.0,0.0,0.0,0.0,0.0,0.0,0.0,0.1188888260367516,0.5317486548406665,0.32735248115298266,0.48565064570442484,0.0704294026598276,0.05758953716836854,-0.1829042385369914,-0.6089545727570852,-0.05767577829225021,-0.6665655446387173,-2.594562349587156,-0.05562309286166536,2.507973180854575,0.8763161384181597,-0.6090851748156966,-0.05753196718556838,-0.666603097082616,-2.5945565370258534,-0.05562143941554,2.507976027223799,0.8763108487046415,0.0010043457048715158,-0.00019385818246084422,6.723077768861649e-05,-0.000235182718585476,0.0001511360757406426,0.00014365776571133933,-0.0005090993027713353,0.0,0.0,0.0,0.0,0.0,0.0,0.0,-0.0001306020586113732,0.00014381110668182373,-3.7552443898691834e-05,5.812561302498409e-06,1.6534461253631116e-06,2.8463692238744898e-06,-5.289713518208394e-06,-0.0010043457048715158,0.00019385818246084422,-6.723077768861649e-05,0.000235182718585476,-0.0001511360757406426,-0.00014365776571133933,0.0005090993027713353,-0.08103066682815552,18.106531143188477,-1.1441986560821533,-18.122896194458008,-0.4928489327430725,-2.2360262870788574,0.17978231608867645,0
27,0.13001775741577148,0.08103066682815552,-18.106531143188477,1.1441986560821533,18.122896194458008,0.4928489327430725,2.2360262870788574,-0.17978231608867645,0.0,0.0,0.0,0.0,0.0,0.0,0.0,0.1188888260367516,0.5317486548406665,0.32735248115298266,0.48565064570442484,0.0704294026598276,0.05758953716836854,-0.1829042385369914,-0.6089545727570852,-0.05767577829225021,-0.6665655446387173,-2.594562349587156,-0.05562309286166536,2.507973180854575,0.8763161384181597,-0.6090851748156966,-0.05753196718556838,-0.666603097082616,-2.5945565370258534,-0.05562143941554,2.507976027223799,0.8763108487046415,0.0010043457048715158,-0.00019385818246084422,6.723077768861649e-05,-0.000235182718585476,0.0001511360757406426,0.00014365776571133933,-0.0005090993027713353,0.0,0.0,0.0,0.0,0.0,0.0,0.0,-0.0001306020586113732,0.00014381110668182373,-3.7552443898691834e-05,5.812561302498409e-06,1.6534461253631116e-06,2.8463692238744898e-06,-5.289713518208394e-06,-0.0010043457048715158,0.00019385818246084422,-6.723077768861649e-05,0.000235182718585476,-0.0001511360757406426,-0.00014365776571133933,0.0005090993027713353,-0.08103066682815552,18.106531143188477,-1.1441986560821533,-18.122896194458008,-0.4928489327430725,-2.2360262870788574,0.17978231608867645,0
28,0.13500642776489258,0.08103066682815552,-18.106531143188477,1.1441986560821533,18.122896194458008,0.4928489327430725,2.2360262870788574,-0.17978231608867645,0.0,0.0,0.0,0.0,0.0,0.0,0.0,0.1188888260367516,0.5317486548406665,0.32735248115298266,0.48565064570442484,0.0704294026598276,0.05758953716836854,-0.1829042385369914,-0.6089545727570852,-0.05767577829225021,-0.6665655446387173,-2.594562349587156,-0.05562309286166536,2.507973180854575,0.8763161384181597,-0.6090851748156966,-0.05753196718556838,-0.666603097082616,-2.5945565370258534,-0.05562143941554,2.507976027223799,0.8763108487046415,0.0010043457048715158,-0.00019385818246084422,6.723077768861649e-05,-0.000235182718585476,0.0001511360757406426,0.00014365776571133933,-0.0005090993027713353,0.0,0.0,0.0,0.0,0.0,0.0,0.0,-0.0001306020586113732,0.00014381110668182373,-3.7552443898691834e-05,5.812561302498409e-06,1.6534461253631116e-06,2.8463692238744898e-06,-5.289713518208394e-06,-0.0010043457048715158,0.00019385818246084422,-6.723077768861649e-05,0.000235182718585476,-0.0001511360757406426,-0.00014365776571133933,0.0005090993027713353,-0.08103066682815552,18.106531143188477,-1.1441986560821533,-18.122896194458008,-0.4928489327430725,-2.2360262870788574,0.17978231608867645,0
29,0.14000701904296875,0.08103066682815552,-18.106531143188477,1.1441986560821533,18.122896194458008,0.4928489327430725,2.2360262870788574,-0.17978231608867645,0.0,0.0,0.0,0.0,0.0,0.0,0.0,0.1188888260367516,0.5317486548406665,0.32735248115298266,0.48565064570442484,0.0704294026598276,0.05758953716836854,-0.1829042385369914,-0.6089545727570852,-0.05767577829225021,-0.6665655446387173,-2.594562349587156,-0.05562309286166536,2.507973180854575,0.8763161384181597,-0.6090851748156966,-0.05753196718556838,-0.666603097082616,-2.5945565370258534,-0.05562143941554,2.507976027223799,0.8763108487046415,0.0010043457048715158,-0.00019385818246084422,6.723077768861649e-05,-0.000235182718585476,0.0001511360757406426,0.00014365776571133933,-0.0005090993027713353,0.0,0.0,0.0,0.0,0.0,0.0,0.0,-0.0001306020586113732,0.00014381110668182373,-3.7552443898691834e-05,5.812561302498409e-06,1.6534461253631116e-06,2.8463692238744898e-06,-5.289713518208394e-06,-0.0010043457048715158,0.00019385818246084422,-6.723077768861649e-05,0.000235182718585476,-0.0001511360757406426,-0.00014365776571133933,0.0005090993027713353,-0.08103066682815552,18.106531143188477,-1.1441986560821533,-18.122896194458008,-0.4928489327430725,-2.2360262870788574,0.17978231608867645,0
30,0.14495110511779785,0.16037636995315552,-18.078760147094727,1.0926239490509033,18.122896194458008,0.5047507882118225,2.2360262870788574,-0.20724813640117645,0.0,0.0,0.0,0.0,0.0,0.0,0.0,0.11491182407894181,0.5325669347190621,0.3250637013848102,0.48809258565280184,0.07021247749996892,0.05721705516732624,-0.18247789549175245,-0.6089601408766027,-0.05767772713408135,-0.6665626406127306,-2.594562349587156,-0.055623457940440074,2.507973296654088,0.8763191509301402,-0.6090851748156966,-0.05753196718556838,-0.666603097082616,-2.5945565370258534,-0.05562143941554,2.507976027223799,0.8763108487046415,-0.0015846288919799006,-0.0012606810944568755,0.000627123515762903,-0.00011946756384063077,-0.0004995005785079379,0.000368345402655879,0.0013970295955892643,0.0,0.0,0.0,0.0,0.0,0.0,0.0,-0.00012503393909391036,0.00014575994851296487,-4.045646988537488e-05,5.812561302498409e-06,2.018524900074259e-06,2.7305697107848914e-06,-8.302225498746374e-06,0.0015846288919799006,0.0012606810944568755,-0.000627123515762903,0.00011946756384063077,0.0004995005785079379,-0.000368345402655879,-0.0013970295955892643,-0.16037636995315552,18.078760147094727,-1.0926239490509033,-18.122896194458008,-0.5047507882118225,-2.2360262870788574,0.20724813640117645,0
31,0.14999866485595703,0.16037636995315552,-18.078760147094727,1.0926239490509033,18.122896194458008,0.5047507882118225,2.2360262870788574,-0.20724813640117645,0.0,0.0,0.0,0.0,0.0,0.0,0.0,0.11491182407894181,0.5325669347190621,0.3250637013848102,0.48809258565280184,0.07021247749996892,0.05721705516732624,-0.18247789549175245,-0.6089601408766027,-0.05767772713408135,-0.6665626406127306,-2.594562349587156,-0.055623457940440074,2.507973296654088,0.8763191509301402,-0.6090851748156966,-0.05753196718556838,-0.666603097082616,-2.5945565370258534,-0.05562143941554,2.507976027223799,0.8763108487046415,-0.0015846288919799006,-0.0012606810944568755,0.000627123515762903,-0.00011946756384063077,-0.0004995005785079379,0.000368345402655879,0.0013970295955892643,0.0,0.0,0.0,0.0,0.0,0.0,0.0,-0.00012503393909391036,0.00014575994851296487,-4.045646988537488e-05,5.812561302498409e-06,2.018524900074259e-06,2.7305697107848914e-06,-8.302225498746374e-06,0.0015846288919799006,0.0012606810944568755,-0.000627123515762903,0.00011946756384063077,0.0004995005785079379,-0.000368345402655879,-0.0013970295955892643,-0.16037636995315552,18.078760147094727,-1.0926239490509033,-18.122896194458008,-0.5047507882118225,-2.2360262870788574,0.20724813640117645,0
32,0.15500211715698242,0.10880166292190552,-18.177942276000977,1.1441986560821533,18.146699905395508,0.4928489327430725,2.2424349784851074,-0.17337362468242645,0.0,0.0,0.0,0.0,0.0,0.0,0.0,0.11728816847266636,0.535349214323564,0.32580189486587774,0.48621694649011216,0.07005103276258623,0.05745882248328017,-0.18232443222434974,-0.6089565215989163,-0.057670766984684416,-0.6665662598944546,-2.594564020362173,-0.05562203474155076,2.5079725193296634,0.8763154258566231,-0.6090851748156966,-0.05753196718556838,-0.666603097082616,-2.5945565370258534,-0.05562143941554,2.507976027223799,0.8763108487046415,-0.00019037977617351642,0.001176859549521587,-0.0005820013638686114,-0.0008968027542934655,0.00012617805272073426,5.08748457495968e-05,0.00031446467550046804,0.0,0.0,0.0,0.0,0.0,0.0,0.0,-0.000128653216780239,0.00013879979911603224,-3.6837188161387147e-05,7.483336319502598e-06,5.95326010759123e-07,3.507894135612588e-06,-4.577151981655092e-06,0.00019037977617351642,-0.001176859549521587,0.0005820013638686114,0.0008968027542934655,-0.00012617805272073426,-5.08748457495968e-05,-0.00031446467550046804,-0.10880166292190552,18.177942276000977,-1.1441986560821533,-18.146699905395508,-0.4928489327430725,-2.2424349784851074,0.17337362468242645,0
33,0.16000080108642578,0.10880166292190552,-18.177942276000977,1.1441986560821533,18.146699905395508,0.4928489327430725,2.2424349784851074,-0.17337362468242645,0.0,0.0,0.0,0.0,0.0,0.0,0.0,0.11728816847266636,0.535349214323564,0.32580189486587774,0.48621694649011216,0.07005103276258623,0.05745882248328017,-0.18232443222434974,-0.6089565215989163,-0.057670766984684416,-0.6665662598944546,-2.594564020362173,-0.05562203474155076,2.5079725193296634,0.8763154258566231,-0.6090851748156966,-0.05753196718556838,-0.666603097082616,-2.5945565370258534,-0.05562143941554,2.507976027223799,0.8763108487046415,-0.00019037977617351642,0.001176859549521587,-0.0005820013638686114,-0.0008968027542934655,0.00012617805272073426,5.08748457495968e-05,0.00031446467550046804,0.0,0.0,0.0,0.0,0.0,0.0,0.0,-0.000128653216780239,0.00013879979911603224,-3.6837188161387147e-05,7.483336319502598e-06,5.95326010759123e-07,3.507894135612588e-06,-4.577151981655092e-06,0.00019037977617351642,-0.001176859549521587,0.0005820013638686114,0.0008968027542934655,-0.00012617805272073426,-5.08748457495968e-05,-0.00031446467550046804,-0.10880166292190552,18.177942276000977,-1.1441986560821533,-18.146699905395508,-0.4928489327430725,-2.2424349784851074,0.17337362468242645,0
34,0.16500091552734375,0.13260537385940552,-18.106531143188477,1.1680023670196533,18.071321487426758,0.4928489327430725,2.2360262870788574,-0.17978231608867645,0.0,0.0,0.0,0.0,0.0,0.0,0.0,0.11517312313115315,0.5360122484151745,0.32393800507071474,0.48588400798674297,0.06984843941656856,0.05790165932402007,-0.18101637953258304,-0.6089581920347715,-0.05767577829225021,-0.6665657816196587,-2.5945587303094713,-0.055622860657821085,2.5079731922140964,0.8763161384181816,-0.6090851748156966,-0.05753196718556838,-0.666603097082616,-2.5945565370258534,-0.05562143941554,2.507976027223799,0.8763108487046415,-0.0006253223003113126,-0.000626526724568405,-0.0005556792884965559,0.0009685736968694223,2.0139990086465275e-05,0.00023292248794422484,-0.00046849079508615523,0.0,0.0,0.0,0.0,0.0,0.0,0.0,-0.00012698278092504456,0.00014381110668182373,-3.7315462957265844e-05,2.1932836178351067e-06,1.421242281085533e-06,2.8350097025509058e-06,-5.289713540079788e-06,0.0006253223003113126,0.000626526724568405,0.0005556792884965559,-0.0009685736968694223,-2.0139990086465275e-05,-0.00023292248794422484,0.00046849079508615523,-0.13260537385940552,18.106531143188477,-1.1680023670196533,-18.071321487426758,-0.4928489327430725,-2.2360262870788574,0.17978231608867645,0
35,0.17000222206115723,0.13260537385940552,-18.106531143188477,1.1680023670196533,18.071321487426758,0.4928489327430725,2.2360262870788574,-0.17978231608867645,0.0,0.0,0.0,0.0,0.0,0.0,0.0,0.11517312313115315,0.5360122484151745,0.32393800507071474,0.48588400798674297,0.06984843941656856,0.05790165932402007,-0.18101637953258304,-0.6089581920347715,-0.05767577829225021,-0.6665657816196587,-2.5945587303094713,-0.055622860657821085,2.5079731922140964,0.8763161384181816,-0.6090851748156966,-0.05753196718556838,-0.666603097082616,-2.5945565370258534,-0.05562143941554,2.507976027223799,0.8763108487046415,-0.0006253223003113126,-0.000626526724568405,-0.0005556792884965559,0.0009685736968694223,2.0139990086465275e-05,0.00023292248794422484,-0.00046849079508615523,0.0,0.0,0.0,0.0,0.0,0.0,0.0,-0.00012698278092504456,0.00014381110668182373,-3.7315462957265844e-05,2.1932836178351067e-06,1.421242281085533e-06,2.8350097025509058e-06,-5.289713540079788e-06,0.0006253223003113126,0.000626526724568405,0.0005556792884965559,-0.0009685736968694223,-2.0139990086465275e-05,-0.00023292248794422484,0.00046849079508615523,-0.13260537385940552,18.106531143188477,-1.1680023670196533,-18.071321487426758,-0.4928489327430725,-2.2360262870788574,0.17978231608867645,0
36,0.17500019073486328,0.10880166292190552,-18.130334854125977,1.1441986560821533,18.099092483520508,0.4928489327430725,2.2424349784851074,-0.15964071452617645,0.0,0.0,0.0,0.0,0.0,0.0,0.0,0.11260261639251838,0.5317040856672756,0.32186994421165815,0.4873208764653175,0.06966259915167423,0.05802223945159738,-0.18099671882443744,-0.6089565215989163,-0.05767410785639494,-0.6665662598904115,-2.594560679151301,-0.05562273128641499,2.507972820106254,0.876313781271335,-0.6090851748156966,-0.05753196718556838,-0.666603097082616,-2.5945565370258534,-0.05562143941554,2.507976027223799,0.8763108487046415,0.0003266518078404873,-0.00021228450636487562,-0.00012956055146474957,0.0005054946844023169,0.00017782055493669653,-6.299288182106773e-05,-0.0009000710309251482,0.0,0.0,0.0,0.0,0.0,0.0,0.0,-0.000128653216780239,0.0001421406708265599,-3.6837192204486335e-05,4.142125447526013e-06,1.2918708749906638e-06,3.207117544867799e-06,-2.9325666934809647e-06,-0.0003266518078404873,0.00021228450636487562,0.00012956055146474957,-0.0005054946844023169,-0.00017782055493669653,6.299288182106773e-05,0.0009000710309251482,-0.10880166292190552,18.130334854125977,-1.1441986560821533,-18.099092483520508,-0.4928489327430725,-2.2424349784851074,0.15964071452617645,0
37,0.17999792098999023,0.10880166292190552,-18.130334854125977,1.1441986560821533,18.099092483520508,0.4928489327430725,2.2424349784851074,-0.15964071452617645,0.0,0.0,0.0,0.0,0.0,0.0,0.0,0.11260261639251838,0.5317040856672756,0.32186994421165815,0.4873208764653175,0.06966259915167423,0.05802223945159738,-0.18099671882443744,-0.6089565215989163,-0.05767410785639494,-0.6665662598904115,-2.594560679151301,-0.05562273128641499,2.507972820106254,0.876313781271335,-0.6090851748156966,-0.05753196718556838,-0.666603097082616,-2.5945565370258534,-0.05562143941554,2.507976027223799,0.8763108487046415,0.0003266518078404873,-0.00021228450636487562,-0.00012956055146474957,0.0005054946844023169,0.00017782055493669653,-6.299288182106773e-05,-0.0009000710309251482,0.0,0.0,0.0,0.0,0.0,0.0,0.0,-0.000128653216780239,0.0001421406708265599,-3.6837192204486335e-05,4.142125447526013e-06,1.2918708749906638e-06,3.207117544867799e-06,-2.9325666934809647e-06,-0.0003266518078404873,0.00021228450636487562,0.00012956055146474957,-0.0005054946844023169,-0.00017782055493669653,6.299288182106773e-05,0.0009000710309251482,-0.10880166292190552,18.130334854125977,-1.1441986560821533,-18.099092483520508,-0.4928489327430725,-2.2424349784851074,0.15964071452617645,0
38,0.18501734733581543,0.13260537385940552,-18.154138565063477,1.1680023670196533,18.099092483520508,0.4928489327430725,2.2424349784851074,-0.15964071452617645,0.0,0.0,0.0,0.0,0.0,0.0,0.0,0.11453493622477326,0.5321415794973856,0.3245654363828422,0.4847637438524532,0.06984919816146286,0.05759140529248897,-0.18126521325554246,-0.6089581920347715,-0.05767243742053968,-0.6665679303303098,-2.594560679151301,-0.05562305407882035,2.5079771763444754,0.8763139004617823,-0.6090851748156966,-0.05753196718556838,-0.666603097082616,-2.5945565370258534,-0.05562143941554,2.507976027223799,0.8763108487046415,-0.00013630587560277345,0.0010113614492811068,-0.0001694872324731041,0.0002713895263355856,0.00019011030360966663,-3.250796673919803e-05,-0.0008123761388110423,0.0,0.0,0.0,0.0,0.0,0.0,0.0,-0.00012698278092504456,0.00014047023497129607,-3.5166752306192706e-05,4.142125447526013e-06,1.6146632803512584e-06,-1.1491206763913908e-06,-3.051757140770661e-06,0.00013630587560277345,-0.0010113614492811068,0.0001694872324731041,-0.0002713895263355856,-0.00019011030360966663,3.250796673919803e-05,0.0008123761388110423,-0.13260537385940552,18.154138565063477,-1.1680023670196533,-18.099092483520508,-0.4928489327430725,-2.2424349784851074,0.15964071452617645,0
39,0.19000625610351562,0.13260537385940552,-18.154138565063477,1.1680023670196533,18.099092483520508,0.4928489327430725,2.2424349784851074,-0.15964071452617645,0.0,0.0,0.0,0.0,0.0,0.0,0.0,0.11453493622477326,0.5321415794973856,0.3245654363828422,0.4847637438524532,0.06984919816146286,0.05759140529248897,-0.18126521325554246,-0.6089581920347715,-0.05767243742053968,-0.6665679303303098,-2.594560679151301,-0.05562305407882035,2.5079771763444754,0.8763139004617823,-0.6090851748156966,-0.05753196718556838,-0.666603097082616,-2.5945565370258534,-0.05562143941554,2.507976027223799,0.8763108487046415,-0.00013630587560277345,0.0010113614492811068,-0.0001694872324731041,0.0002713895263355856,0.00019011030360966663,-3.250796673919803e-05,-0.0008123761388110423,0.0,0.0,0.0,0.0,0.0,0.0,0.0,-0.00012698278092504456,0.00014047023497129607,-3.5166752306192706e-05,4.142125447526013e-06,1.6146632803512584e-06,-1.1491206763913908e-06,-3.051757140770661e-06,0.00013630587560277345,-0.0010113614492811068,0.0001694872324731041,-0.0002713895263355856,-0.00019011030360966663,3.250796673919803e-05,0.0008123761388110423,-0.13260537385940552,18.154138565063477,-1.1680023670196533,-18.099092483520508,-0.4928489327430725,-2.2424349784851074,0.15964071452617645,0
40,0.1950058937072754,0.08103066682815552,-18.106531143188477,1.1164276599884033,18.099092483520508,0.4983420968055725,2.2360262870788574,-0.20083944499492645,0.0,0.0,0.0,0.0,0.0,0.0,0.0,0.1159818407198803,0.5302987323535231,0.3254741983001278,0.48647957029784095,0.07020845170965605,0.05809546561916972,-0.1810920100239317,-0.6089545727570852,-0.05767577829225021,-0.6665643110526235,-2.594560679151301,-0.05562010255090004,2.5079731789430926,0.8763184780991738,-0.6090851748156966,-0.05753196718556838,-0.666603097082616,-2.5945565370258534,-0.05562143941554,2.507976027223799,0.8763108487046415,0.001084021549525625,-0.00043002744694444677,0.0005238289273965322,0.00059722493467699,-0.00012421176113346254,0.00020861613158112445,0.0010906589491310912,0.0,0.0,0.0,0.0,0.0,0.0,0.0,-0.0001306020586113732,0.00014381110668182373,-3.878602999252134e-05,4.142125447526013e-06,-1.3368646399614104e-06,2.8482807064023064e-06,-7.629394532360223e-06,-0.001084021549525625,0.00043002744694444677,-0.0005238289273965322,-0.00059722493467699,0.00012421176113346254,-0.00020861613158112445,-0.0010906589491310912,-0.08103066682815552,18.106531143188477,-1.1164276599884033,-18.099092483520508,-0.4983420968055725,-2.2360262870788574,0.20083944499492645,0
41,0.20011401176452637,0.08103066682815552,-18.106531143188477,1.1164276599884033,18.099092483520508,0.4983420968055725,2.2360262870788574,-0.20083944499492645,0.0,0.0,0.0,0.0,0.0,0.0,0.0,0.1159818407198803,0.5302987323535231,0.3254741983001278,0.48647957029784095,0.07020845170965605,0.05809546561916972,-0.1810920100239317,-0.6089545727570852,-0.05767577829225021,-0.6665643110526235,-2.594560679151301,-0.05562010255090004,2.5079731789430926,0.8763184780991738,-0.6090851748156966,-0.05753196718556838,-0.666603097082616,-2.5945565370258534,-0.05562143941554,2.507976027223799,0.8763108487046415,0.001084021549525625,-0.00043002744694444677,0.0005238289273965322,0.00059722493467699,-0.00012421176113346254,0.00020861613158112445,0.0010906589491310912,0.0,0.0,0.0,0.0,0.0,0.0,0.0,-0.0001306020586113732,0.00014381110668182373,-3.878602999252134e-05,4.142125447526013e-06,-1.3368646399614104e-06,2.8482807064023064e-06,-7.629394532360223e-06,-0.001084021549525625,0.00043002744694444677,-0.0005238289273965322,-0.00059722493467699,0.00012421176113346254,-0.00020861613158112445,-0.0010906589491310912,-0.08103066682815552,18.106531143188477,-1.1164276599884033,-18.099092483520508,-0.4983420968055725,-2.2360262870788574,0.20083944499492645,0
42,0.2050037384033203,0.10880166292190552,-18.106531143188477,1.1441986560821533,18.146699905395508,0.4928489327430725,2.2488436698913574,-0.16604940593242645,0.0,0.0,0.0,0.0,0.0,0.0,0.0,0.11826511322385178,0.5313837729669174,0.324913851076117,0.48447522342218646,0.06988015534562539,0.058109606344787214,-0.18143741034403807,-0.6089565215989163,-0.05767577829225021,-0.6665662598581159,-2.5945640200230113,-0.055618954603103274,2.5079728144009907,0.8763144948017081,-0.6090851748156966,-0.05753196718556838,-0.666603097082616,-2.5945565370258534,-0.05562143941554,2.507976027223799,0.8763108487046415,0.00035357173928307763,-0.00048446973107912526,-0.0003661530866546718,-0.0009932617134815922,-0.0001261539276471852,-0.0003745993522932872,0.00014295404093074102,0.0,0.0,0.0,0.0,0.0,0.0,0.0,-0.000128653216780239,0.00014381110668182373,-3.6837224500096966e-05,7.482997157914895e-06,-2.484812436726047e-06,3.212822808240645e-06,-3.6460970666007952e-06,-0.00035357173928307763,0.00048446973107912526,0.0003661530866546718,0.0009932617134815922,0.0001261539276471852,0.0003745993522932872,-0.00014295404093074102,-0.10880166292190552,18.106531143188477,-1.1441986560821533,-18.146699905395508,-0.4928489327430725,-2.2488436698913574,0.16604940593242645,0
43,0.20999670028686523,0.10880166292190552,-18.106531143188477,1.1441986560821533,18.146699905395508,0.4928489327430725,2.2488436698913574,-0.16604940593242645,0.0,0.0,0.0,0.0,0.0,0.0,0.0,0.11826511322385178,0.5313837729669174,0.324913851076117,0.48447522342218646,0.06988015534562539,0.058109606344787214,-0.18143741034403807,-0.6089565215989163,-0.05767577829225021,-0.6665662598581159,-2.5945640200230113,-0.055618954603103274,2.5079728144009907,0.8763144948017081,-0.6090851748156966,-0.05753196718556838,-0.666603097082616,-2.5945565370258534,-0.05562143941554,2.507976027223799,0.8763108487046415,0.00035357173928307763,-0.00048446973107912526,-0.0003661530866546718,-0.0009932617134815922,-0.0001261539276471852,-0.0003745993522932872,0.00014295404093074102,0.0,0.0,0.0,0.0,0.0,0.0,0.0,-0.000128653216780239,0.00014381110668182373,-3.6837224500096966e-05,7.482997157914895e-06,-2.484812436726047e-06,3.212822808240645e-06,-3.6460970666007952e-06,-0.00035357173928307763,0.00048446973107912526,0.0003661530866546718,0.0009932617134815922,0.0001261539276471852,0.0003745993522932872,-0.00014295404093074102,-0.10880166292190552,18.106531143188477,-1.1441986560821533,-18.146699905395508,-0.4928489327430725,-2.2488436698913574,0.16604940593242645,0
44,0.2149975299835205,0.16037636995315552,-18.154138565063477,1.1680023670196533,18.146699905395508,0.4928489327430725,2.2296175956726074,-0.16604940593242645,0.0,0.0,0.0,0.0,0.0,0.0,0.0,0.12159499773716907,0.5330267358997891,0.32775354607327506,0.4855946253495624,0.06955211261302015,0.058476477308344293,-0.18134005748180898,-0.6089601408766027,-0.05767243742053968,-0.6665679303303097,-2.5945640200230113,-0.055623217564154746,2.5079770699136996,0.8763146125386134,-0.6090851748156966,-0.05753196718556838,-0.666603097082616,-2.5945565370258534,-0.05562143941554,2.507976027223799,0.8763108487046415,-0.0009779547877665135,0.0005484952456539956,-0.0005757270344151903,-0.0010303908091917329,0.00023087068658569004,0.00034133483919894926,-0.0004578500694732981,0.0,0.0,0.0,0.0,0.0,0.0,0.0,-0.00012503393909391036,0.00014047023497129607,-3.516675230630373e-05,7.482997157914895e-06,1.7781486147463998e-06,-1.0426899006432677e-06,-3.763833971937025e-06,0.0009779547877665135,-0.0005484952456539956,0.0005757270344151903,0.0010303908091917329,-0.00023087068658569004,-0.00034133483919894926,0.0004578500694732981,-0.16037636995315552,18.154138565063477,-1.1680023670196533,-18.146699905395508,-0.4928489327430725,-2.2296175956726074,0.16604940593242645,0
45,0.22010064125061035,0.16037636995315552,-18.154138565063477,1.1680023670196533,18.146699905395508,0.4928489327430725,2.2296175956726074,-0.16604940593242645,0.0,0.0,0.0,0.0,0.0,0.0,0.0,0.12159499773716907,0.5330267358997891,0.32775354607327506,0.4855946253495624,0.06955211261302015,0.058476477308344293,-0.18134005748180898,-0.6089601408766027,-0.05767243742053968,-0.6665679303303097,-2.5945640200230113,-0.055623217564154746,2.5079770699136996,0.8763146125386134,-0.6090851748156966,-0.05753196718556838,-0.666603097082616,-2.5945565370258534,-0.05562143941554,2.507976027223799,0.8763108487046415,-0.0009779547877665135,0.0005484952456539956,-0.0005757270344151903,-0.0010303908091917329,0.00023087068658569004,0.00034133483919894926,-0.0004578500694732981,0.0,0.0,0.0,0.0,0.0,0.0,0.0,-0.00012503393909391036,0.00014047023497129607,-3.516675230630373e-05,7.482997157914895e-06,1.7781486147463998e-06,-1.0426899006432677e-06,-3.763833971937025e-06,0.0009779547877665135,-0.0005484952456539956,0.0005757270344151903,0.0010303908091917329,-0.00023087068658569004,-0.00034133483919894926,0.0004578500694732981,-0.16037636995315552,18.154138565063477,-1.1680023670196533,-18.146699905395508,-0.4928489327430725,-2.2296175956726074,0.16604940593242645,0
46,0.22499918937683105,0.10880166292190552,-18.106531143188477,1.1441986560821533,18.099092483520508,0.5047507882118225,2.2296175956726074,-0.15231649577617645,0.0,0.0,0.0,0.0,0.0,0.0,0.0,0.12601720833733887,0.5402418228735181,0.33290230699610585,0.48190841804902806,0.06933133576140421,0.05719796583561327,-0.1823456474536927,-0.6089565215989163,-0.0576757782561638,-0.6665662598944546,-2.594560679151301,-0.05562296287782844,2.5079749637313564,0.8763120226615917,-0.6090851748156966,-0.05753196718556838,-0.666603097082616,-2.5945565370258534,-0.05562143941554,2.507976027223799,0.8763108487046415,0.0004269026855466936,8.337676609071435e-05,0.00044892856748746465,0.000107528410774476,-0.0005366372326785664,0.0003241791615164729,-0.001469641507724341,0.0,0.0,0.0,0.0,0.0,0.0,0.0,-0.000128653216780239,0.00014381107059541903,-3.6837188161387147e-05,4.142125447526013e-06,1.5234622884399696e-06,1.0634924425545478e-06,-1.1739569502067226e-06,-0.0004269026855466936,-8.337676609071435e-05,-0.00044892856748746465,-0.000107528410774476,0.0005366372326785664,-0.0003241791615164729,0.001469641507724341,-0.10880166292190552,18.106531143188477,-1.1441986560821533,-18.099092483520508,-0.5047507882118225,-2.2296175956726074,0.15231649577617645,0
47,0.23000049591064453,0.10880166292190552,-18.106531143188477,1.1441986560821533,18.099092483520508,0.5047507882118225,2.2296175956726074,-0.15231649577617645,0.0,0.0,0.0,0.0,0.0,0.0,0.0,0.12601720833733887,0.5402418228735181,0.33290230699610585,0.48190841804902806,0.06933133576140421,0.05719796583561327,-0.1823456474536927,-0.6089565215989163,-0.0576757782561638,-0.6665662598944546,-2.594560679151301,-0.05562296287782844,2.5079749637313564,0.8763120226615917,-0.6090851748156966,-0.05753196718556838,-0.666603097082616,-2.5945565370258534,-0.05562143941554,2.507976027223799,0.8763108487046415,0.0004269026855466936,8.337676609071435e-05,0.00044892856748746465,0.000107528410774476,-0.0005366372326785664,0.0003241791615164729,-0.001469641507724341,0.0,0.0,0.0,0.0,0.0,0.0,0.0,-0.000128653216780239,0.00014381107059541903,-3.6837188161387147e-05,4.142125447526013e-06,1.5234622884399696e-06,1.0634924425545478e-06,-1.1739569502067226e-06,-0.0004269026855466936,-8.337676609071435e-05,-0.00044892856748746465,-0.000107528410774476,0.0005366372326785664,-0.0003241791615164729,0.001469641507724341,-0.10880166292190552,18.106531143188477,-1.1441986560821533,-18.099092483520508,-0.5047507882118225,-2.2296175956726074,0.15231649577617645,0
48,0.2349998950958252,0.10880166292190552,-18.154138565063477,1.1441986560821533,18.146699905395508,0.4928489327430725,2.2488436698913574,-0.17337362468242645,0.0,0.0,0.0,0.0,0.0,0.0,0.0,0.11936536936847214,0.535282233485767,0.32775006562756615,0.48347783635670266,0.06933401208549941,0.05670433915942066,-0.18253651016011563,-0.6089565215989163,-0.05767243742053948,-0.6665655446387173,-2.5945640200230113,-0.05562320449013011,2.5079717554149394,0.8763152693519286,-0.6090851748156966,-0.05753196718556838,-0.666603097082616,-2.5945565370258534,-0.05562143941554,2.507976027223799,0.8763108487046415,0.0003160481796061858,0.0004748420187039493,0.00029695316039171827,-0.0009993568690884864,-8.618738081740657e-05,-0.00035205541757796075,-0.0006829367892879142,0.0,0.0,0.0,0.0,0.0,0.0,0.0,-0.000128653216780239,0.00014047023497109484,-3.7552443898691834e-05,7.482997157914895e-06,1.7650745901126585e-06,4.271808859535042e-06,-4.420647287117774e-06,-0.0003160481796061858,-0.0004748420187039493,-0.00029695316039171827,0.0009993568690884864,8.618738081740657e-05,0.00035205541757796075,0.0006829367892879142,-0.10880166292190552,18.154138565063477,-1.1441986560821533,-18.146699905395508,-0.4928489327430725,-2.2488436698913574,0.17337362468242645,0
49,0.24000120162963867,0.10880166292190552,-18.154138565063477,1.1441986560821533,18.146699905395508,0.4928489327430725,2.2488436698913574,-0.17337362468242645,0.0,0.0,0.0,0.0,0.0,0.0,0.0,0.11936536936847214,0.535282233485767,0.32775006562756615,0.48347783635670266,0.06933401208549941,0.05670433915942066,-0.18253651016011563,-0.6089565215989163,-0.05767243742053948,-0.6665655446387173,-2.5945640200230113,-0.05562320449013011,2.5079717554149394,0.8763152693519286,-0.6090851748156966,-0.05753196718556838,-0.666603097082616,-2.5945565370258534,-0.05562143941554,2.507976027223799,0.8763108487046415,0.0003160481796061858,0.0004748420187039493,0.00029695316039171827,-0.0009993568690884864,-8.618738081740657e-05,-0.00035205541757796075,-0.0006829367892879142,0.0,0.0,0.0,0.0,0.0,0.0,0.0,-0.000128653216780239,0.00014047023497109484,-3.7552443898691834e-05,7.482997157914895e-06,1.7650745901126585e-06,4.271808859535042e-06,-4.420647287117774e-06,-0.0003160481796061858,-0.0004748420187039493,-0.00029695316039171827,0.0009993568690884864,8.618738081740657e-05,0.00035205541757796075,0.0006829367892879142,-0.10880166292190552,18.154138565063477,-1.1441986560821533,-18.146699905395508,-0.4928489327430725,-2.2488436698913574,0.17337362468242645,0
50,0.24500703811645508,0.10880166292190552,-18.154138565063477,1.1164276599884033,18.146699905395508,0.4928489327430725,2.2552523612976074,-0.16604940593242645,0.0,0.0,0.0,0.0,0.0,0.0,0.0,0.11732390532367354,0.5292670671935539,0.32679586412944434,0.4860253768472954,0.0694393567846766,0.05722799141858253,-0.18281710927590974,-0.6089565215989163,-0.05767243742053968,-0.6665643110485859,-2.594564021078181,-0.05561878830485295,2.5079742230539805,0.8763146067241908,-0.6090851748156966,-0.05753196718556838,-0.666603097082616,-2.5945565370258534,-0.05562143941554,2.507976027223799,0.8763108487046415,0.0002680426266417262,-0.00022352847726730136,0.00023325273776556135,-0.0006246417431259798,0.00027770451071104624,-0.00039209926990009053,-0.00022868635453790478,0.0,0.0,0.0,0.0,0.0,0.0,0.0,-0.000128653216780239,0.00014047023497129607,-3.8786034030069416e-05,7.484052327644264e-06,-2.651110687049152e-06,1.8041698184312338e-06,-3.758019549326974e-06,-0.0002680426266417262,0.00022352847726730136,-0.00023325273776556135,0.0006246417431259798,-0.00027770451071104624,0.00039209926990009053,0.00022868635453790478,-0.10880166292190552,18.154138565063477,-1.1164276599884033,-18.146699905395508,-0.4928489327430725,-2.2552523612976074,0.16604940593242645,0
51,0.2499983310699463,0.10880166292190552,-18.154138565063477,1.1164276599884033,18.146699905395508,0.4928489327430725,2.2552523612976074,-0.16604940593242645,0.0,0.0,0.0,0.0,0.0,0.0,0.0,0.11732390532367354,0.5292670671935539,0.32679586412944434,0.4860253768472954,0.0694393567846766,0.05722799141858253,-0.18281710927590974,-0.6089565215989163,-0.05767243742053968,-0.6665643110485859,-2.594564021078181,-0.05561878830485295,2.5079742230539805,0.8763146067241908,-0.6090851748156966,-0.05753196718556838,-0.666603097082616,-2.5945565370258534,-0.05562143941554,2.507976027223799,0.8763108487046415,0.0002680426266417262,-0.00022352847726730136,0.00023325273776556135,-0.0006246417431259798,0.00027770451071104624,-0.00039209926990009053,-0.00022868635453790478,0.0,0.0,0.0,0.0,0.0,0.0,0.0,-0.000128653216780239,0.00014047023497129607,-3.8786034030069416e-05,7.484052327644264e-06,-2.651110687049152e-06,1.8041698184312338e-06,-3.758019549326974e-06,-0.0002680426266417262,0.00022352847726730136,-0.00023325273776556135,0.0006246417431259798,-0.00027770451071104624,0.00039209926990009053,0.00022868635453790478,-0.10880166292190552,18.154138565063477,-1.1164276599884033,-18.146699905395508,-0.4928489327430725,-2.2552523612976074,0.16604940593242645,0
52,0.2550199031829834,0.10880166292190552,-18.154138565063477,1.1164276599884033,18.146699905395508,0.4928489327430725,2.2552523612976074,-0.16604940593242645,0.0,0.0,0.0,0.0,0.0,0.0,0.0,0.11732390532367354,0.5292670671935539,0.32679586412944434,0.4860253768472954,0.0694393567846766,0.05722799141858253,-0.18281710927590974,-0.6089565215989163,-0.05767243742053968,-0.6665643110485859,-2.594564021078181,-0.05561878830485295,2.5079742230539805,0.8763146067241908,-0.6090851748156966,-0.05753196718556838,-0.666603097082616,-2.5945565370258534,-0.05562143941554,2.507976027223799,0.8763108487046415,0.0002680426266417262,-0.00022352847726730136,0.00023325273776556135,-0.0006246417431259798,0.00027770451071104624,-0.00039209926990009053,-0.00022868635453790478,0.0,0.0,0.0,0.0,0.0,0.0,0.0,-0.000128653216780239,0.00014047023497129607,-3.8786034030069416e-05,7.484052327644264e-06,-2.651110687049152e-06,1.8041698184312338e-06,-3.758019549326974e-06,-0.0002680426266417262,0.00022352847726730136,-0.00023325273776556135,0.0006246417431259798,-0.00027770451071104624,0.00039209926990009053,0.00022868635453790478,-0.10880166292190552,18.154138565063477,-1.1164276599884033,-18.146699905395508,-0.4928489327430725,-2.2552523612976074,0.16604940593242645,0
53,0.260098934173584,0.10880166292190552,-18.154138565063477,1.1164276599884033,18.146699905395508,0.4928489327430725,2.2552523612976074,-0.16604940593242645,0.0,0.0,0.0,0.0,0.0,0.0,0.0,0.11732390532367354,0.5292670671935539,0.32679586412944434,0.4860253768472954,0.0694393567846766,0.05722799141858253,-0.18281710927590974,-0.6089565215989163,-0.05767243742053968,-0.6665643110485859,-2.594564021078181,-0.05561878830485295,2.5079742230539805,0.8763146067241908,-0.6090851748156966,-0.05753196718556838,-0.666603097082616,-2.5945565370258534,-0.05562143941554,2.507976027223799,0.8763108487046415,0.0002680426266417262,-0.00022352847726730136,0.00023325273776556135,-0.0006246417431259798,0.00027770451071104624,-0.00039209926990009053,-0.00022868635453790478,0.0,0.0,0.0,0.0,0.0,0.0,0.0,-0.000128653216780239,0.00014047023497129607,-3.8786034030069416e-05,7.484052327644264e-06,-2.651110687049152e-06,1.8041698184312338e-06,-3.758019549326974e-06,-0.0002680426266417262,0.00022352847726730136,-0.00023325273776556135,0.0006246417431259798,-0.00027770451071104624,0.00039209926990009053,0.00022868635453790478,-0.10880166292190552,18.154138565063477,-1.1164276599884033,-18.146699905395508,-0.4928489327430725,-2.2552523612976074,0.16604940593242645,0
54,0.265002965927124,0.08103066682815552,-18.154138565063477,1.1441986560821533,18.170503616333008,0.5047507882118225,2.2424349784851074,-0.14590780436992645,0.0,0.0,0.0,0.0,0.0,0.0,0.0,0.11667027261910994,0.5247712530513221,0.3249320219753697,0.4848298478281221,0.07003995544911995,0.057850651621132974,-0.18236616852737114,-0.6089545727570852,-0.05767243742053968,-0.6665662598944546,-2.5945656904588725,-0.055623114189781005,2.5079724684726936,0.8763091564232713,-0.6090851748156966,-0.05753196718556838,-0.666603097082616,-2.5945565370258534,-0.05562143941554,2.507976027223799,0.8763108487046415,0.000548939389316205,-0.0005626541162247798,0.00010831196688537209,-0.0011109631162168968,-0.0003732585356478379,0.00011336055273059965,-0.0010520207016920147,0.0,0.0,0.0,0.0,0.0,0.0,0.0,-0.0001306020586113732,0.00014047023497129607,-3.6837188161387147e-05,9.15343301910454e-06,1.6747742410047617e-06,3.5587511053591925e-06,1.6922813701469863e-06,-0.000548939389316205,0.0005626541162247798,-0.00010831196688537209,0.0011109631162168968,0.0003732585356478379,-0.00011336055273059965,0.0010520207016920147,-0.08103066682815552,18.154138565063477,-1.1441986560821533,-18.170503616333008,-0.5047507882118225,-2.2424349784851074,0.14590780436992645,0
55,0.2699470520019531,0.08103066682815552,-18.154138565063477,1.1441986560821533,18.170503616333008,0.5047507882118225,2.2424349784851074,-0.14590780436992645,0.0,0.0,0.0,0.0,0.0,0.0,0.0,0.11667027261910994,0.5247712530513221,0.3249320219753697,0.4848298478281221,0.07003995544911995,0.057850651621132974,-0.18236616852737114,-0.6089545727570852,-0.05767243742053968,-0.6665662598944546,-2.5945656904588725,-0.055623114189781005,2.5079724684726936,0.8763091564232713,-0.6090851748156966,-0.05753196718556838,-0.666603097082616,-2.5945565370258534,-0.05562143941554,2.507976027223799,0.8763108487046415,0.000548939389316205,-0.0005626541162247798,0.00010831196688537209,-0.0011109631162168968,-0.0003732585356478379,0.00011336055273059965,-0.0010520207016920147,0.0,0.0,0.0,0.0,0.0,0.0,0.0,-0.0001306020586113732,0.00014047023497129607,-3.6837188161387147e-05,9.15343301910454e-06,1.6747742410047617e-06,3.5587511053591925e-06,1.6922813701469863e-06,-0.000548939389316205,0.0005626541162247798,-0.00010831196688537209,0.0011109631162168968,0.0003732585356478379,-0.00011336055273059965,0.0010520207016920147,-0.08103066682815552,18.154138565063477,-1.1441986560821533,-18.170503616333008,-0.5047507882118225,-2.2424349784851074,0.14590780436992645,0
56,0.27500081062316895,0.10880166292190552,-18.130334854125977,1.1680023670196533,18.122896194458008,0.4928489327430725,2.2424349784851074,-0.15231649577617645,0.0,0.0,0.0,0.0,0.0,0.0,0.0,0.11533615932877554,0.5215484249566731,0.32447883070485756,0.48388232120899816,0.07040239100939218,0.05821382221067491,-0.18185036204915742,-0.6089565215989163,-0.05767410785639494,-0.6665679303303098,-2.594562349587156,-0.05562286130550002,2.5079726388431394,0.8763130473963486,-0.6090851748156966,-0.05753196718556838,-0.666603097082616,-2.5945565370258534,-0.05562143941554,2.507976027223799,0.8763108487046415,2.4721561975510292e-05,-0.0005177432638372409,-0.001187637675588194,-4.166090555130154e-05,5.355456972312954e-05,0.00011430417621624847,-0.0006642326813805686,0.0,0.0,0.0,0.0,0.0,0.0,0.0,-0.000128653216780239,0.0001421406708265599,-3.5166752306192706e-05,5.812561302498409e-06,1.4218899600168533e-06,3.3883806596080035e-06,-2.1986917071448175e-06,-2.4721561975510292e-05,0.0005177432638372409,0.001187637675588194,4.166090555130154e-05,-5.355456972312954e-05,-0.00011430417621624847,0.0006642326813805686,-0.10880166292190552,18.130334854125977,-1.1680023670196533,-18.122896194458008,-0.4928489327430725,-2.2424349784851074,0.15231649577617645,0
57,0.27999329566955566,0.10880166292190552,-18.130334854125977,1.1680023670196533,18.122896194458008,0.4928489327430725,2.2424349784851074,-0.15231649577617645,0.0,0.0,0.0,0.0,0.0,0.0,0.0,0.11533615932877554,0.5215484249566731,0.32447883070485756,0.48388232120899816,0.07040239100939218,0.05821382221067491,-0.18185036204915742,-0.6089565215989163,-0.05767410785639494,-0.6665679303303098,-2.594562349587156,-0.05562286130550002,2.5079726388431394,0.8763130473963486,-0.6090851748156966,-0.05753196718556838,-0.666603097082616,-2.5945565370258534,-0.05562143941554,2.507976027223799,0.8763108487046415,2.4721561975510292e-05,-0.0005177432638372409,-0.001187637675588194,-4.166090555130154e-05,5.355456972312954e-05,0.00011430417621624847,-0.0006642326813805686,0.0,0.0,0.0,0.0,0.0,0.0,0.0,-0.000128653216780239,0.0001421406708265599,-3.5166752306192706e-05,5.812561302498409e-06,1.4218899600168533e-06,3.3883806596080035e-06,-2.1986917071448175e-06,-2.4721561975510292e-05,0.0005177432638372409,0.001187637675588194,4.166090555130154e-05,-5.355456972312954e-05,-0.00011430417621624847,0.0006642326813805686,-0.10880166292190552,18.130334854125977,-1.1680023670196533,-18.122896194458008,-0.4928489327430725,-2.2424349784851074,0.15231649577617645,0
58,0.28499889373779297,0.10880166292190552,-18.078760147094727,1.1164276599884033,18.146699905395508,0.4864402413368225,2.2424349784851074,-0.17978231608867645,0.0,0.0,0.0,0.0,0.0,0.0,0.0,0.11949815107992205,0.5278992812123144,0.3256196515820759,0.47988371121199896,0.07005627466283766,0.058037590141657665,-0.18111061232647926,-0.6089565215989163,-0.05767772713408135,-0.6665640726340444,-2.5945640200230113,-0.055621439497925994,2.5079740105110164,0.8763161340573119,-0.6090851748156966,-0.05753196718556838,-0.666603097082616,-2.5945565370258534,-0.05562143941554,2.507976027223799,0.8763108487046415,0.0003354536164789667,-0.0006622192047380987,0.00043649035183159033,-0.0008720556216062787,0.00043796994725156025,-0.0002025976295035853,-0.0005966540343860414,0.0,0.0,0.0,0.0,0.0,0.0,0.0,-0.000128653216780239,0.00014575994851296487,-3.9024448571622905e-05,7.482997157914895e-06,8.238599386034551e-11,2.0167127825487796e-06,-5.285352670414412e-06,-0.0003354536164789667,0.0006622192047380987,-0.00043649035183159033,0.0008720556216062787,-0.00043796994725156025,0.0002025976295035853,0.0005966540343860414,-0.10880166292190552,18.078760147094727,-1.1164276599884033,-18.146699905395508,-0.4864402413368225,-2.2424349784851074,0.17978231608867645,0
59,0.28999829292297363,0.10880166292190552,-18.078760147094727,1.1164276599884033,18.146699905395508,0.4864402413368225,2.2424349784851074,-0.17978231608867645,0.0,0.0,0.0,0.0,0.0,0.0,0.0,0.11949815107992205,0.5278992812123144,0.3256196515820759,0.47988371121199896,0.07005627466283766,0.058037590141657665,-0.18111061232647926,-0.6089565215989163,-0.05767772713408135,-0.6665640726340444,-2.5945640200230113,-0.055621439497925994,2.5079740105110164,0.8763161340573119,-0.6090851748156966,-0.05753196718556838,-0.666603097082616,-2.5945565370258534,-0.05562143941554,2.507976027223799,0.8763108487046415,0.0003354536164789667,-0.0006622192047380987,0.00043649035183159033,-0.0008720556216062787,0.00043796994725156025,-0.0002025976295035853,-0.0005966540343860414,0.0,0.0,0.0,0.0,0.0,0.0,0.0,-0.000128653216780239,0.00014575994851296487,-3.9024448571622905e-05,7.482997157914895e-06,8.238599386034551e-11,2.0167127825487796e-06,-5.285352670414412e-06,-0.0003354536164789667,0.0006622192047380987,-0.00043649035183159033,0.0008720556216062787,-0.00043796994725156025,0.0002025976295035853,0.0005966540343860414,-0.10880166292190552,18.078760147094727,-1.1164276599884033,-18.146699905395508,-0.4864402413368225,-2.2424349784851074,0.17978231608867645,0
60,0.2950131893157959,0.10880166292190552,-18.078760147094727,1.1680023670196533,18.122896194458008,0.4983420968055725,2.2232089042663574,-0.19351522624492645,0.0,0.0,0.0,0.0,0.0,0.0,0.0,0.124528273961135,0.5307218085720941,0.32852265415945264,0.48653841003530296,0.06981818139208194,0.058497833961189,-0.1805337433981611,-0.6089565215989163,-0.05767772713408135,-0.6665679302926252,-2.594562349587156,-0.055622761922304954,2.5079761511098795,0.876317664297066,-0.6090851748156966,-0.05753196718556838,-0.666603097082616,-2.5945565370258534,-0.05562143941554,2.507976027223799,0.8763108487046415,0.0006362987175479065,-8.227596666019038e-05,1.4158467762293916e-05,-6.958300258971464e-05,-4.790356098800039e-05,0.0005508963592182951,0.00036446097364038467,0.0,0.0,0.0,0.0,0.0,0.0,0.0,-0.000128653216780239,0.00014575994851296487,-3.51667899908259e-05,5.812561302498409e-06,1.3225067649544342e-06,-1.238860805052866e-07,-6.815592424547212e-06,-0.0006362987175479065,8.227596666019038e-05,-1.4158467762293916e-05,6.958300258971464e-05,4.790356098800039e-05,-0.0005508963592182951,-0.00036446097364038467,-0.10880166292190552,18.078760147094727,-1.1680023670196533,-18.122896194458008,-0.4983420968055725,-2.2232089042663574,0.19351522624492645,0
61,0.3000006675720215,0.10880166292190552,-18.078760147094727,1.1680023670196533,18.122896194458008,0.4983420968055725,2.2232089042663574,-0.19351522624492645,0.0,0.0,0.0,0.0,0.0,0.0,0.0,0.124528273961135,0.5307218085720941,0.32852265415945264,0.48653841003530296,0.06981818139208194,0.058497833961189,-0.1805337433981611,-0.6089565215989163,-0.05767772713408135,-0.6665679302926252,-2.594562349587156,-0.055622761922304954,2.5079761511098795,0.876317664297066,-0.6090851748156966,-0.05753196718556838,-0.666603097082616,-2.5945565370258534,-0.05562143941554,2.507976027223799,0.8763108487046415,0.0006362987175479065,-8.227596666019038e-05,1.4158467762293916e-05,-6.958300258971464e-05,-4.790356098800039e-05,0.0005508963592182951,0.00036446097364038467,0.0,0.0,0.0,0.0,0.0,0.0,0.0,-0.000128653216780239,0.00014575994851296487,-3.51667899908259e-05,5.812561302498409e-06,1.3225067649544342e-06,-1.238860805052866e-07,-6.815592424547212e-06,-0.0006362987175479065,8.227596666019038e-05,-1.4158467762293916e-05,6.958300258971464e-05,4.790356098800039e-05,-0.0005508963592182951,-0.00036446097364038467,-0.10880166292190552,18.078760147094727,-1.1680023670196533,-18.122896194458008,-0.4983420968055725,-2.2232089042663574,0.19351522624492645,0
62,0.30499839782714844,0.16037636995315552,-18.078760147094727,1.1441986560821533,18.146699905395508,0.5047507882118225,2.2360262870788574,-0.14590780436992645,0.0,0.0,0.0,0.0,0.0,0.0,0.0,0.11687668513879128,0.5329679385138059,0.32371675704316927,0.4897849454505991,0.07000875130272903,0.05759116722945081,-0.18017292092759443,-0.6089601408766027,-0.05767772713408135,-0.6665662598944545,-2.5945640200230113,-0.05562312037474707,2.5079778889125595,0.8763123745835488,-0.6090851748156966,-0.05753196718556838,-0.666603097082616,-2.5945565370258534,-0.05562143941554,2.507976027223799,0.8763108487046415,-0.001124160419858604,-0.0011479073716008051,0.0002886546828221659,-0.0006527805238477295,-0.0005409379996846856,0.00035084870369801106,-0.0010972327135249675,0.0,0.0,0.0,0.0,0.0,0.0,0.0,-0.00012503393909391036,0.00014575994851296487,-3.683718816149817e-05,7.482997157914895e-06,1.6809592070718415e-06,-1.8616887604849808e-06,-1.5258789073380186e-06,0.001124160419858604,0.0011479073716008051,-0.0002886546828221659,0.0006527805238477295,0.0005409379996846856,-0.00035084870369801106,0.0010972327135249675,-0.16037636995315552,18.078760147094727,-1.1441986560821533,-18.146699905395508,-0.5047507882118225,-2.2360262870788574,0.14590780436992645,0
63,0.3099958896636963,0.16037636995315552,-18.078760147094727,1.1441986560821533,18.146699905395508,0.5047507882118225,2.2360262870788574,-0.14590780436992645,0.0,0.0,0.0,0.0,0.0,0.0,0.0,0.11687668513879128,0.5329679385138059,0.32371675704316927,0.4897849454505991,0.07000875130272903,0.05759116722945081,-0.18017292092759443,-0.6089601408766027,-0.05767772713408135,-0.6665662598944545,-2.5945640200230113,-0.05562312037474707,2.5079778889125595,0.8763123745835488,-0.6090851748156966,-0.05753196718556838,-0.666603097082616,-2.5945565370258534,-0.05562143941554,2.507976027223799,0.8763108487046415,-0.001124160419858604,-0.0011479073716008051,0.0002886546828221659,-0.0006527805238477295,-0.0005409379996846856,0.00035084870369801106,-0.0010972327135249675,0.0,0.0,0.0,0.0,0.0,0.0,0.0,-0.00012503393909391036,0.00014575994851296487,-3.683718816149817e-05,7.482997157914895e-06,1.6809592070718415e-06,-1.8616887604849808e-06,-1.5258789073380186e-06,0.001124160419858604,0.0011479073716008051,-0.0002886546828221659,0.0006527805238477295,0.0005409379996846856,-0.00035084870369801106,0.0010972327135249675,-0.16037636995315552,18.078760147094727,-1.1441986560821533,-18.146699905395508,-0.5047507882118225,-2.2360262870788574,0.14590780436992645,0
64,0.315004825592041,0.13260537385940552,-18.154138565063477,1.1441986560821533,18.099092483520508,0.4928489327430725,2.2552523612976074,-0.20724813640117645,0.0,0.0,0.0,0.0,0.0,0.0,0.0,0.1168332681033547,0.5350419494923818,0.32694366840854644,0.48942604765195874,0.06996819893387295,0.05749947706471736,-0.17960157602749052,-0.6089581920347715,-0.05767243742053968,-0.6665660214758755,-2.594560679151301,-0.055618914915859956,2.5079745748935593,0.8763191858153461,-0.6090851748156966,-0.05753196718556838,-0.666603097082616,-2.5945565370258534,-0.05562143941554,2.507976027223799,0.8763108487046415,-0.0004959301554261124,0.0003284472999818872,0.0002329304870777781,0.0004547988162744373,0.00020194341080183369,-0.0002804417296007072,0.0012870101609664976,0.0,0.0,0.0,0.0,0.0,0.0,0.0,-0.00012698278092504456,0.00014047023497129607,-3.707560674048871e-05,4.142125447526013e-06,-2.5244996800441455e-06,1.4523302396263205e-06,-8.33711070458154e-06,0.0004959301554261124,-0.0003284472999818872,-0.0002329304870777781,-0.0004547988162744373,-0.00020194341080183369,0.0002804417296007072,-0.0012870101609664976,-0.13260537385940552,18.154138565063477,-1.1441986560821533,-18.099092483520508,-0.4928489327430725,-2.2552523612976074,0.20724813640117645,0
65,0.3200089931488037,0.13260537385940552,-18.154138565063477,1.1441986560821533,18.099092483520508,0.4928489327430725,2.2552523612976074,-0.20724813640117645,0.0,0.0,0.0,0.0,0.0,0.0,0.0,0.1168332681033547,0.5350419494923818,0.32694366840854644,0.48942604765195874,0.06996819893387295,0.05749947706471736,-0.17960157602749052,-0.6089581920347715,-0.05767243742053968,-0.6665660214758755,-2.594560679151301,-0.055618914915859956,2.5079745748935593,0.8763191858153461,-0.6090851748156966,-0.05753196718556838,-0.666603097082616,-2.5945565370258534,-0.05562143941554,2.507976027223799,0.8763108487046415,-0.0004959301554261124,0.0003284472999818872,0.0002329304870777781,0.0004547988162744373,0.00020194341080183369,-0.0002804417296007072,0.0012870101609664976,0.0,0.0,0.0,0.0,0.0,0.0,0.0,-0.00012698278092504456,0.00014047023497129607,-3.707560674048871e-05,4.142125447526013e-06,-2.5244996800441455e-06,1.4523302396263205e-06,-8.33711070458154e-06,0.0004959301554261124,-0.0003284472999818872,-0.0002329304870777781,-0.0004547988162744373,-0.00020194341080183369,0.0002804417296007072,-0.0012870101609664976,-0.13260537385940552,18.154138565063477,-1.1441986560821533,-18.099092483520508,-0.4928489327430725,-2.2552523612976074,0.20724813640117645,0
66,0.3250002861022949,0.13260537385940552,-18.130334854125977,1.1680023670196533,18.071321487426758,0.4928489327430725,2.2360262870788574,-0.19351522624492645,0.0,0.0,0.0,0.0,0.0,0.0,0.0,0.11597841011987878,0.5305323455210336,0.32794136427417814,0.4890442747679572,0.07075227513157631,0.058407255838985275,-0.18038186830363973,-0.6089581920347715,-0.05767409907537005,-0.6665679302208449,-2.5945587303094695,-0.05562308115330125,2.5079733010931546,0.8763176642970825,-0.6090851748156966,-0.05753196718556838,-0.666603097082616,-2.5945565370258534,-0.05562143941554,2.507976027223799,0.8763108487046415,-0.0003088717838290888,-0.0009246743684810394,-0.0004562535675060982,0.0012955933558537432,7.0170910383021e-05,0.00027265567256992327,0.0004975606332119418,0.0,0.0,0.0,0.0,0.0,0.0,0.0,-0.00012698278092504456,0.00014213188980166658,-3.516686177107431e-05,2.19328361605875e-06,1.6417377612515383e-06,2.7261306443371325e-06,-6.815592440978513e-06,0.0003088717838290888,0.0009246743684810394,0.0004562535675060982,-0.0012955933558537432,-7.0170910383021e-05,-0.00027265567256992327,-0.0004975606332119418,-0.13260537385940552,18.130334854125977,-1.1680023670196533,-18.071321487426758,-0.4928489327430725,-2.2360262870788574,0.19351522624492645,0
67,0.32999706268310547,0.13260537385940552,-18.130334854125977,1.1680023670196533,18.071321487426758,0.4928489327430725,2.2360262870788574,-0.19351522624492645,0.0,0.0,0.0,0.0,0.0,0.0,0.0,0.11597841011987878,0.5305323455210336,0.32794136427417814,0.4890442747679572,0.07075227513157631,0.058407255838985275,-0.18038186830363973,-0.6089581920347715,-0.05767409907537005,-0.6665679302208449,-2.5945587303094695,-0.05562308115330125,2.5079733010931546,0.8763176642970825,-0.6090851748156966,-0.05753196718556838,-0.666603097082616,-2.5945565370258534,-0.05562143941554,2.507976027223799,0.8763108487046415,-0.0003088717838290888,-0.0009246743684810394,-0.0004562535675060982,0.0012955933558537432,7.0170910383021e-05,0.00027265567256992327,0.0004975606332119418,0.0,0.0,0.0,0.0,0.0,0.0,0.0,-0.00012698278092504456,0.00014213188980166658,-3.516686177107431e-05,2.19328361605875e-06,1.6417377612515383e-06,2.7261306443371325e-06,-6.815592440978513e-06,0.0003088717838290888,0.0009246743684810394,0.0004562535675060982,-0.0012955933558537432,-7.0170910383021e-05,-0.00027265567256992327,-0.0004975606332119418,-0.13260537385940552,18.130334854125977,-1.1680023670196533,-18.071321487426758,-0.4928489327430725,-2.2360262870788574,0.19351522624492645,0
68,0.33501458168029785,0.10880166292190552,-18.205713272094727,1.1680023670196533,18.099092483520508,0.5047507882118225,2.2488436698913574,-0.15231649577617645,0.0,0.0,0.0,0.0,0.0,0.0,0.0,0.11183431685083223,0.5229172721986126,0.3227858305234759,0.490652193558054,0.0710183748920121,0.058696404770347176,-0.1814578137113838,-0.6089565215989163,-0.05766881814280371,-0.6665678508574495,-2.594560679151301,-0.05562418498517766,2.5079717548173863,0.8763130866603718,-0.6090851748156966,-0.05753196718556838,-0.666603097082616,-2.5945565370258534,-0.05562143941554,2.507976027223799,0.8763108487046415,-0.00022153116103454393,0.0009383720254934842,-0.0010099483765991543,0.0005438816840849435,-0.00048827417130390625,-0.00022936303142231286,-0.001536713005868153,0.0,0.0,0.0,0.0,0.0,0.0,0.0,-0.000128653216780239,0.0001368509572353266,-3.5246225166485345e-05,4.142125447526013e-06,2.745569637661871e-06,4.27240641265314e-06,-2.237955730288732e-06,0.00022153116103454393,-0.0009383720254934842,0.0010099483765991543,-0.0005438816840849435,0.00048827417130390625,0.00022936303142231286,0.001536713005868153,-0.10880166292190552,18.205713272094727,-1.1680023670196533,-18.099092483520508,-0.5047507882118225,-2.2488436698913574,0.15231649577617645,0
69,0.3399975299835205,0.10880166292190552,-18.205713272094727,1.1680023670196533,18.099092483520508,0.5047507882118225,2.2488436698913574,-0.15231649577617645,0.0,0.0,0.0,0.0,0.0,0.0,0.0,0.11183431685083223,0.5229172721986126,0.3227858305234759,0.490652193558054,0.0710183748920121,0.058696404770347176,-0.1814578137113838,-0.6089565215989163,-0.05766881814280371,-0.6665678508574495,-2.594560679151301,-0.05562418498517766,2.5079717548173863,0.8763130866603718,-0.6090851748156966,-0.05753196718556838,-0.666603097082616,-2.5945565370258534,-0.05562143941554,2.507976027223799,0.8763108487046415,-0.00022153116103454393,0.0009383720254934842,-0.0010099483765991543,0.0005438816840849435,-0.00048827417130390625,-0.00022936303142231286,-0.001536713005868153,0.0,0.0,0.0,0.0,0.0,0.0,0.0,-0.000128653216780239,0.0001368509572353266,-3.5246225166485345e-05,4.142125447526013e-06,2.745569637661871e-06,4.27240641265314e-06,-2.237955730288732e-06,0.00022153116103454393,-0.0009383720254934842,0.0010099483765991543,-0.0005438816840849435,0.00048827417130390625,0.00022936303142231286,0.001536713005868153,-0.10880166292190552,18.205713272094727,-1.1680023670196533,-18.099092483520508,-0.5047507882118225,-2.2488436698913574,0.15231649577617645,0
70,0.34510183334350586,0.08103066682815552,-18.106531143188477,1.1918060779571533,18.099092483520508,0.4928489327430725,2.2360262870788574,-0.16604940593242645,0.0,0.0,0.0,0.0,0.0,0.0,0.0,0.11496533256830573,0.5269379985510476,0.3255433581878307,0.4863923785397909,0.07074848710289473,0.057717215455356546,-0.18194290463874327,-0.6089545727570852,-0.05767577829225021,-0.6665696007657166,-2.594560679151301,-0.055619550180106524,2.5079731919984596,0.8763135136552921,-0.6090851748156966,-0.05753196718556838,-0.666603097082616,-2.5945565370258534,-0.05562143941554,2.507976027223799,0.8763108487046415,0.00014060939091636754,-0.0004553883932974827,-0.001201548161898318,0.0003426437740760092,-9.313780033714846e-06,0.00027237180792665145,-0.0012475570497482158,0.0,0.0,0.0,0.0,0.0,0.0,0.0,-0.0001306020586113732,0.00014381110668182373,-3.3496316899417344e-05,4.142125447526013e-06,-1.889235433476244e-06,2.835225339392622e-06,-2.6649506505993514e-06,-0.00014060939091636754,0.0004553883932974827,0.001201548161898318,-0.0003426437740760092,9.313780033714846e-06,-0.00027237180792665145,0.0012475570497482158,-0.08103066682815552,18.106531143188477,-1.1918060779571533,-18.099092483520508,-0.4928489327430725,-2.2360262870788574,0.16604940593242645,0
71,0.34999775886535645,0.08103066682815552,-18.106531143188477,1.1918060779571533,18.099092483520508,0.4928489327430725,2.2360262870788574,-0.16604940593242645,0.0,0.0,0.0,0.0,0.0,0.0,0.0,0.11496533256830573,0.5269379985510476,0.3255433581878307,0.4863923785397909,0.07074848710289473,0.057717215455356546,-0.18194290463874327,-0.6089545727570852,-0.05767577829225021,-0.6665696007657166,-2.594560679151301,-0.055619550180106524,2.5079731919984596,0.8763135136552921,-0.6090851748156966,-0.05753196718556838,-0.666603097082616,-2.5945565370258534,-0.05562143941554,2.507976027223799,0.8763108487046415,0.00014060939091636754,-0.0004553883932974827,-0.001201548161898318,0.0003426437740760092,-9.313780033714846e-06,0.00027237180792665145,-0.0012475570497482158,0.0,0.0,0.0,0.0,0.0,0.0,0.0,-0.0001306020586113732,0.00014381110668182373,-3.3496316899417344e-05,4.142125447526013e-06,-1.889235433476244e-06,2.835225339392622e-06,-2.6649506505993514e-06,-0.00014060939091636754,0.0004553883932974827,0.001201548161898318,-0.0003426437740760092,9.313780033714846e-06,-0.00027237180792665145,0.0012475570497482158,-0.08103066682815552,18.106531143188477,-1.1918060779571533,-18.099092483520508,-0.4928489327430725,-2.2360262870788574,0.16604940593242645,0
72,0.3549988269805908,0.16037636995315552,-18.106531143188477,1.1164276599884033,18.099092483520508,0.5047507882118225,2.2296175956726074,-0.20724813640117645,0.0,0.0,0.0,0.0,0.0,0.0,0.0,0.11294503254030375,0.5256790095012279,0.3270805863955376,0.4902204777661815,0.07076576032528177,0.058336247387618265,-0.18277804018261473,-0.6089601408766027,-0.05767577829225021,-0.6665642315797639,-2.594560679151301,-0.05561988662790341,2.507973908489842,0.8763191901697936,-0.6090851748156966,-0.05753196718556838,-0.666603097082616,-2.5945565370258534,-0.05562143941554,2.507976027223799,0.8763108487046415,-0.0014563663297968944,-0.000245900229865218,0.0004943816582662948,0.0006344283320191842,-0.0003580677893506681,0.00043494447989715954,0.00044255708663379974,0.0,0.0,0.0,0.0,0.0,0.0,0.0,-0.00012503393909391036,0.00014381110668182373,-3.886550285214785e-05,4.142125447526013e-06,-1.5527876365897808e-06,2.1187339571682173e-06,-8.341465152161831e-06,0.0014563663297968944,0.000245900229865218,-0.0004943816582662948,-0.0006344283320191842,0.0003580677893506681,-0.00043494447989715954,-0.00044255708663379974,-0.16037636995315552,18.106531143188477,-1.1164276599884033,-18.099092483520508,-0.5047507882118225,-2.2296175956726074,0.20724813640117645,0
73,0.36009788513183594,0.16037636995315552,-18.106531143188477,1.1164276599884033,18.099092483520508,0.5047507882118225,2.2296175956726074,-0.20724813640117645,0.0,0.0,0.0,0.0,0.0,0.0,0.0,0.11294503254030375,0.5256790095012279,0.3270805863955376,0.4902204777661815,0.07076576032528177,0.058336247387618265,-0.18277804018261473,-0.6089601408766027,-0.05767577829225021,-0.6665642315797639,-2.594560679151301,-0.05561988662790341,2.507973908489842,0.8763191901697936,-0.6090851748156966,-0.05753196718556838,-0.666603097082616,-2.5945565370258534,-0.05562143941554,2.507976027223799,0.8763108487046415,-0.0014563663297968944,-0.000245900229865218,0.0004943816582662948,0.0006344283320191842,-0.0003580677893506681,0.00043494447989715954,0.00044255708663379974,0.0,0.0,0.0,0.0,0.0,0.0,0.0,-0.00012503393909391036,0.00014381110668182373,-3.886550285214785e-05,4.142125447526013e-06,-1.5527876365897808e-06,2.1187339571682173e-06,-8.341465152161831e-06,0.0014563663297968944,0.000245900229865218,-0.0004943816582662948,-0.0006344283320191842,0.0003580677893506681,-0.00043494447989715954,-0.00044255708663379974,-0.16037636995315552,18.106531143188477,-1.1164276599884033,-18.099092483520508,-0.5047507882118225,-2.2296175956726074,0.20724813640117645,0
74,0.36499738693237305,0.16037636995315552,-18.106531143188477,1.1164276599884033,18.099092483520508,0.5047507882118225,2.2296175956726074,-0.20724813640117645,0.0,0.0,0.0,0.0,0.0,0.0,0.0,0.11294503254030375,0.5256790095012279,0.3270805863955376,0.4902204777661815,0.07076576032528177,0.058336247387618265,-0.18277804018261473,-0.6089601408766027,-0.05767577829225021,-0.6665642315797639,-2.594560679151301,-0.05561988662790341,2.507973908489842,0.8763191901697936,-0.6090851748156966,-0.05753196718556838,-0.666603097082616,-2.5945565370258534,-0.05562143941554,2.507976027223799,0.8763108487046415,-0.0014563663297968944,-0.000245900229865218,0.0004943816582662948,0.0006344283320191842,-0.0003580677893506681,0.00043494447989715954,0.00044255708663379974,0.0,0.0,0.0,0.0,0.0,0.0,0.0,-0.00012503393909391036,0.00014381110668182373,-3.886550285214785e-05,4.142125447526013e-06,-1.5527876365897808e-06,2.1187339571682173e-06,-8.341465152161831e-06,0.0014563663297968944,0.000245900229865218,-0.0004943816582662948,-0.0006344283320191842,0.0003580677893506681,-0.00043494447989715954,-0.00044255708663379974,-0.16037636995315552,18.106531143188477,-1.1164276599884033,-18.099092483520508,-0.5047507882118225,-2.2296175956726074,0.20724813640117645,0
75,0.3699982166290283,0.16037636995315552,-18.106531143188477,1.1164276599884033,18.099092483520508,0.5047507882118225,2.2296175956726074,-0.20724813640117645,0.0,0.0,0.0,0.0,0.0,0.0,0.0,0.11294503254030375,0.5256790095012279,0.3270805863955376,0.4902204777661815,0.07076576032528177,0.058336247387618265,-0.18277804018261473,-0.6089601408766027,-0.05767577829225021,-0.6665642315797639,-2.594560679151301,-0.05561988662790341,2.507973908489842,0.8763191901697936,-0.6090851748156966,-0.05753196718556838,-0.666603097082616,-2.5945565370258534,-0.05562143941554,2.507976027223799,0.8763108487046415,-0.0014563663297968944,-0.000245900229865218,0.0004943816582662948,0.0006344283320191842,-0.0003580677893506681,0.00043494447989715954,0.00044255708663379974,0.0,0.0,0.0,0.0,0.0,0.0,0.0,-0.00012503393909391036,0.00014381110668182373,-3.886550285214785e-05,4.142125447526013e-06,-1.5527876365897808e-06,2.1187339571682173e-06,-8.341465152161831e-06,0.0014563663297968944,0.000245900229865218,-0.0004943816582662948,-0.0006344283320191842,0.0003580677893506681,-0.00043494447989715954,-0.00044255708663379974,-0.16037636995315552,18.106531143188477,-1.1164276599884033,-18.099092483520508,-0.5047507882118225,-2.2296175956726074,0.20724813640117645,0
76,0.37500739097595215,0.05722695589065552,-18.106531143188477,1.1164276599884033,18.099092483520508,0.4864402413368225,2.2424349784851074,-0.21457235515117645,0.0,0.0,0.0,0.0,0.0,0.0,0.0,0.1153768471378174,0.529401349357197,0.32729433236855315,0.4895957576765089,0.07063479573806498,0.05856745808836955,-0.1826398502931554,-0.6089529023212299,-0.05767577829225021,-0.666564311052175,-2.594560679151301,-0.05561879913598558,2.507972937843898,0.8763195330278004,-0.6090851748156966,-0.05753196718556838,-0.666603097082616,-2.5945565370258534,-0.05562143941554,2.507976027223799,0.8763108487046415,0.0017127950329176836,-0.0005528088765673543,0.0005056242289453282,0.0006993584749955004,0.00026545611358412454,0.00011296121902693696,0.000858557850660627,0.0,0.0,0.0,0.0,0.0,0.0,0.0,-0.00013227249446667866,0.00014381110668182373,-3.8786030441051444e-05,4.142125447526013e-06,-2.640279554419478e-06,3.0893799007891687e-06,-8.684323158925089e-06,-0.0017127950329176836,0.0005528088765673543,-0.0005056242289453282,-0.0006993584749955004,-0.00026545611358412454,-0.00011296121902693696,-0.000858557850660627,-0.05722695589065552,18.106531143188477,-1.1164276599884033,-18.099092483520508,-0.4864402413368225,-2.2424349784851074,0.21457235515117645,0
77,0.38110923767089844,0.05722695589065552,-18.106531143188477,1.1164276599884033,18.099092483520508,0.4864402413368225,2.2424349784851074,-0.21457235515117645,0.0,0.0,0.0,0.0,0.0,0.0,0.0,0.1153768471378174,0.529401349357197,0.32729433236855315,0.4895957576765089,0.07063479573806498,0.05856745808836955,-0.1826398502931554,-0.6089529023212299,-0.05767577829225021,-0.666564311052175,-2.594560679151301,-0.05561879913598558,2.507972937843898,0.8763195330278004,-0.6090851748156966,-0.05753196718556838,-0.666603097082616,-2.5945565370258534,-0.05562143941554,2.507976027223799,0.8763108487046415,0.0017127950329176836,-0.0005528088765673543,0.0005056242289453282,0.0006993584749955004,0.00026545611358412454,0.00011296121902693696,0.000858557850660627,0.0,0.0,0.0,0.0,0.0,0.0,0.0,-0.00013227249446667866,0.00014381110668182373,-3.8786030441051444e-05,4.142125447526013e-06,-2.640279554419478e-06,3.0893799007891687e-06,-8.684323158925089e-06,-0.0017127950329176836,0.0005528088765673543,-0.0005056242289453282,-0.0006993584749955004,-0.00026545611358412454,-0.00011296121902693696,-0.000858557850660627,-0.05722695589065552,18.106531143188477,-1.1164276599884033,-18.099092483520508,-0.4864402413368225,-2.2424349784851074,0.21457235515117645,0
78,0.3849959373474121,0.16037636995315552,-18.130334854125977,1.1918060779571533,18.122896194458008,0.4864402413368225,2.2296175956726074,-0.21457235515117645,0.0,0.0,0.0,0.0,0.0,0.0,0.0,0.11679207771902148,0.5298094576552391,0.32479248579159586,0.49130628038500557,0.0703191415825414,0.05923238327463486,-0.18308202514873947,-0.6089601408766027,-0.05767410785639494,-0.6665696004391164,-2.594562349587156,-0.05561929858573837,2.5079738953566397,0.8763200025218714,-0.6090851748156966,-0.05753196718556838,-0.666603097082616,-2.5945565370258534,-0.05562143941554,2.507976027223799,0.8763108487046415,-0.0011241888921254782,-0.00018056312807907546,-0.0013083613694232395,0.00032496899791082664,0.0005062186988613004,0.0004756459775667976,0.001541628099541664,0.0,0.0,0.0,0.0,0.0,0.0,0.0,-0.00012503393909391036,0.0001421406708265599,-3.349664349960868e-05,5.812561302498409e-06,-2.140829801627886e-06,2.131867159249623e-06,-9.153817229878847e-06,0.0011241888921254782,0.00018056312807907546,0.0013083613694232395,-0.00032496899791082664,-0.0005062186988613004,-0.0004756459775667976,-0.001541628099541664,-0.16037636995315552,18.130334854125977,-1.1918060779571533,-18.122896194458008,-0.4864402413368225,-2.2296175956726074,0.21457235515117645,0
79,0.3899953365325928,0.16037636995315552,-18.130334854125977,1.1918060779571533,18.122896194458008,0.4864402413368225,2.2296175956726074,-0.21457235515117645,0.0,0.0,0.0,0.0,0.0,0.0,0.0,0.11679207771902148,0.5298094576552391,0.32479248579159586,0.49130628038500557,0.0703191415825414,0.05923238327463486,-0.18308202514873947,-0.6089601408766027,-0.05767410785639494,-0.6665696004391164,-2.594562349587156,-0.05561929858573837,2.5079738953566397,0.8763200025218714,-0.6090851748156966,-0.05753196718556838,-0.666603097082616,-2.5945565370258534,-0.05562143941554,2.507976027223799,0.8763108487046415,-0.0011241888921254782,-0.00018056312807907546,-0.0013083613694232395,0.00032496899791082664,0.0005062186988613004,0.0004756459775667976,0.001541628099541664,0.0,0.0,0.0,0.0,0.0,0.0,0.0,-0.00012503393909391036,0.0001421406708265599,-3.349664349960868e-05,5.812561302498409e-06,-2.140829801627886e-06,2.131867159249623e-06,-9.153817229878847e-06,0.0011241888921254782,0.00018056312807907546,0.0013083613694232395,-0.00032496899791082664,-0.0005062186988613004,-0.0004756459775667976,-0.001541628099541664,-0.16037636995315552,18.130334854125977,-1.1918060779571533,-18.122896194458008,-0.4864402413368225,-2.2296175956726074,0.21457235515117645,0
