rezayati/contactInterpretation/dataset/franka_main/labeled_data/link3/e4_7.csv
index,time,tau_J0,tau_J1,tau_J2,tau_J3,tau_J4,tau_J5,tau_J6,tau_J_d0,tau_J_d1,tau_J_d2,tau_J_d3,tau_J_d4,tau_J_d5,tau_J_d6,tau_ext0,tau_ext1,tau_ext2,tau_ext3,tau_ext4,tau_ext5,tau_ext6,q0,q1,q2,q3,q4,q5,q6,q_d0,q_d1,q_d2,q_d3,q_d4,q_d5,q_d6,dq0,dq1,dq2,dq3,dq4,dq5,dq6,dq_d0,dq_d1,dq_d2,dq_d3,dq_d4,dq_d5,dq_d6,e0,e1,e2,e3,e4,e5,e6,de0,de1,de2,de3,de4,de5,de6,etau_J0,etau_J1,etau_J2,etau_J3,etau_J4,etau_J5,etau_J6,label
1,0.0,-0.14510458707809448,-11.973108291625977,1.3425629138946533,21.693452835083008,0.3738303780555725,2.5207552909851074,-0.24112264811992645,0.0,0.0,0.0,0.0,0.0,0.0,0.0,-0.19268324610475848,0.36397286017811203,0.10887478537427374,0.44057452787919116,-0.16384178495679158,0.12461460341821377,-0.20741174543616064,0.1728419774469169,-0.4875473665605511,-0.11151553529460825,-1.9464599343513047,0.1336113440791738,2.595551071855757,0.945251374554303,0.1728802376190821,-0.48752024683155326,-0.11147110072896137,-1.9463801863486305,0.1336059019074957,2.595550359778934,0.9452445589611904,-0.0005102274048491618,-0.00015377398090018145,-0.0010389531012239834,0.0007285334389036886,-0.00015183695536402989,0.00013150693803792404,0.0018549936028750525,0.0,0.0,0.0,0.0,0.0,0.0,0.0,3.826017216521094e-05,2.7119728997826442e-05,4.4434565646886415e-05,7.97480026741848e-05,-5.442171678110563e-06,-7.120768228396912e-07,-6.8155931125524205e-06,0.0005102274048491618,0.00015377398090018145,0.0010389531012239834,-0.0007285334389036886,0.00015183695536402989,-0.00013150693803792404,-0.0018549936028750525,0.14510458707809448,11.973108291625977,-1.3425629138946533,-21.693452835083008,-0.3738303780555725,-2.5207552909851074,0.24112264811992645,0
2,0.0045697689056396484,-0.14510458707809448,-11.973108291625977,1.3425629138946533,21.693452835083008,0.3738303780555725,2.5207552909851074,-0.24112264811992645,0.0,0.0,0.0,0.0,0.0,0.0,0.0,-0.19268324610475848,0.36397286017811203,0.10887478537427374,0.44057452787919116,-0.16384178495679158,0.12461460341821377,-0.20741174543616064,0.1728419774469169,-0.4875473665605511,-0.11151553529460825,-1.9464599343513047,0.1336113440791738,2.595551071855757,0.945251374554303,0.1728802376190821,-0.48752024683155326,-0.11147110072896137,-1.9463801863486305,0.1336059019074957,2.595550359778934,0.9452445589611904,-0.0005102274048491618,-0.00015377398090018145,-0.0010389531012239834,0.0007285334389036886,-0.00015183695536402989,0.00013150693803792404,0.0018549936028750525,0.0,0.0,0.0,0.0,0.0,0.0,0.0,3.826017216521094e-05,2.7119728997826442e-05,4.4434565646886415e-05,7.97480026741848e-05,-5.442171678110563e-06,-7.120768228396912e-07,-6.8155931125524205e-06,0.0005102274048491618,0.00015377398090018145,0.0010389531012239834,-0.0007285334389036886,0.00015183695536402989,-0.00013150693803792404,-0.0018549936028750525,0.14510458707809448,11.973108291625977,-1.3425629138946533,-21.693452835083008,-0.3738303780555725,-2.5207552909851074,0.24112264811992645,0
3,0.009570598602294922,-0.17287558317184448,-12.024682998657227,1.2909882068634033,21.741060256958008,0.3674216866493225,2.5207552909851074,-0.16604940593242645,0.0,0.0,0.0,0.0,0.0,0.0,0.0,-0.19156830370953082,0.35156858316000145,0.1063916146162953,0.4450856160360121,-0.16350738607004997,0.12588741384643046,-0.20695866992776005,0.17284384577361603,-0.4875437472828647,-0.1115119422918333,-1.9464632752234474,0.13361205615599947,2.595551067495106,0.9452430330829488,0.1728802376190821,-0.48752024683155326,-0.11147110072896137,-1.9463801863486305,0.1336059019074957,2.595550359778934,0.9452445589611904,1.8869822546774435e-05,0.00040663647613745963,0.00024743314511931926,0.00038393519692171956,0.0002092818335020188,0.0002474050673560048,-0.001085795887067011,0.0,0.0,0.0,0.0,0.0,0.0,0.0,3.639184546608276e-05,2.3500451311442294e-05,4.0841562871929415e-05,8.308887481689453e-05,-6.154248503781323e-06,-7.077161718882508e-07,1.525878241648293e-06,-1.8869822546774435e-05,-0.00040663647613745963,-0.00024743314511931926,-0.00038393519692171956,-0.0002092818335020188,-0.0002474050673560048,0.001085795887067011,0.17287558317184448,12.024682998657227,-1.2909882068634033,-21.741060256958008,-0.3674216866493225,-2.5207552909851074,0.16604940593242645,0
4,0.01456451416015625,-0.17287558317184448,-12.024682998657227,1.2909882068634033,21.741060256958008,0.3674216866493225,2.5207552909851074,-0.16604940593242645,0.0,0.0,0.0,0.0,0.0,0.0,0.0,-0.19156830370953082,0.35156858316000145,0.1063916146162953,0.4450856160360121,-0.16350738607004997,0.12588741384643046,-0.20695866992776005,0.17284384577361603,-0.4875437472828647,-0.1115119422918333,-1.9464632752234474,0.13361205615599947,2.595551067495106,0.9452430330829488,0.1728802376190821,-0.48752024683155326,-0.11147110072896137,-1.9463801863486305,0.1336059019074957,2.595550359778934,0.9452445589611904,1.8869822546774435e-05,0.00040663647613745963,0.00024743314511931926,0.00038393519692171956,0.0002092818335020188,0.0002474050673560048,-0.001085795887067011,0.0,0.0,0.0,0.0,0.0,0.0,0.0,3.639184546608276e-05,2.3500451311442294e-05,4.0841562871929415e-05,8.308887481689453e-05,-6.154248503781323e-06,-7.077161718882508e-07,1.525878241648293e-06,-1.8869822546774435e-05,-0.00040663647613745963,-0.00024743314511931926,-0.00038393519692171956,-0.0002092818335020188,-0.0002474050673560048,0.001085795887067011,0.17287558317184448,12.024682998657227,-1.2909882068634033,-21.741060256958008,-0.3674216866493225,-2.5207552909851074,0.16604940593242645,0
5,0.019567489624023438,-0.17287558317184448,-12.048486709594727,1.2909882068634033,21.768831253051758,0.3738303780555725,2.5271639823913574,-0.17978231608867645,0.0,0.0,0.0,0.0,0.0,0.0,0.0,-0.18580066440827506,0.33669837052120416,0.10916018313669759,0.4453973117812243,-0.16351008855486457,0.12586647297698372,-0.2066100485264577,0.17284392502277338,-0.48754207684700945,-0.11151122323430196,-1.9464652240652784,0.13361134407917655,2.595550346696957,0.945244558961855,0.1728802376190821,-0.48752024683155326,-0.11147110072896137,-1.9463801863486305,0.1336059019074957,2.595550359778934,0.9452445589611904,-0.00019353305515485065,-0.00027392644046010537,0.00035194028021441484,-0.0006218321396580632,-0.0002619661381657072,-6.420030855037712e-05,-0.0008461066215643217,0.0,0.0,0.0,0.0,0.0,0.0,0.0,3.631259630873518e-05,2.1830015456192342e-05,4.012250534059236e-05,8.50377166479177e-05,-5.442171680858365e-06,1.3081976835138676e-08,-6.645795025406187e-13,0.00019353305515485065,0.00027392644046010537,-0.00035194028021441484,0.0006218321396580632,0.0002619661381657072,6.420030855037712e-05,0.0008461066215643217,0.17287558317184448,12.048486709594727,-1.2909882068634033,-21.768831253051758,-0.3738303780555725,-2.5271639823913574,0.17978231608867645,0
6,0.024566173553466797,-0.17287558317184448,-12.048486709594727,1.2909882068634033,21.768831253051758,0.3738303780555725,2.5271639823913574,-0.17978231608867645,0.0,0.0,0.0,0.0,0.0,0.0,0.0,-0.18580066440827506,0.33669837052120416,0.10916018313669759,0.4453973117812243,-0.16351008855486457,0.12586647297698372,-0.2066100485264577,0.17284392502277338,-0.48754207684700945,-0.11151122323430196,-1.9464652240652784,0.13361134407917655,2.595550346696957,0.945244558961855,0.1728802376190821,-0.48752024683155326,-0.11147110072896137,-1.9463801863486305,0.1336059019074957,2.595550359778934,0.9452445589611904,-0.00019353305515485065,-0.00027392644046010537,0.00035194028021441484,-0.0006218321396580632,-0.0002619661381657072,-6.420030855037712e-05,-0.0008461066215643217,0.0,0.0,0.0,0.0,0.0,0.0,0.0,3.631259630873518e-05,2.1830015456192342e-05,4.012250534059236e-05,8.50377166479177e-05,-5.442171680858365e-06,1.3081976835138676e-08,-6.645795025406187e-13,0.00019353305515485065,0.00027392644046010537,-0.00035194028021441484,0.0006218321396580632,0.0002619661381657072,6.420030855037712e-05,0.0008461066215643217,0.17287558317184448,12.048486709594727,-1.2909882068634033,-21.768831253051758,-0.3738303780555725,-2.5271639823913574,0.17978231608867645,0
7,0.029568910598754883,-0.17287558317184448,-12.024682998657227,1.3147919178009033,21.741060256958008,0.3738303780555725,2.5271639823913574,-0.17978231608867645,0.0,0.0,0.0,0.0,0.0,0.0,0.0,-0.18664398467060342,0.3329858578567148,0.10563079159654815,0.44201300659142806,-0.16354410876763914,0.1253891917079993,-0.20650015327627913,0.17284701300912442,-0.4875437472828647,-0.11151353351412172,-1.9464632752234474,0.13361134407917655,2.5955503597788603,0.945244558961855,0.1728802376190821,-0.48752024683155326,-0.11147110072896137,-1.9463801863486305,0.1336059019074957,2.595550359778934,0.9452445589611904,-0.0009618042842750015,-0.0005797528163388786,-0.0003556632838747204,0.00020329041137196358,-0.00021121568370637125,3.8055870338648096e-05,-0.0005660541708491346,0.0,0.0,0.0,0.0,0.0,0.0,0.0,3.322460995769383e-05,2.3500451311442294e-05,4.243278516034843e-05,8.308887481689453e-05,-5.442171680858365e-06,7.37188088351104e-14,-6.645795025406187e-13,0.0009618042842750015,0.0005797528163388786,0.0003556632838747204,-0.00020329041137196358,0.00021121568370637125,-3.8055870338648096e-05,0.0005660541708491346,0.17287558317184448,12.024682998657227,-1.3147919178009033,-21.741060256958008,-0.3738303780555725,-2.5271639823913574,0.17978231608867645,0
8,0.03456854820251465,-0.17287558317184448,-12.024682998657227,1.3147919178009033,21.741060256958008,0.3738303780555725,2.5271639823913574,-0.17978231608867645,0.0,0.0,0.0,0.0,0.0,0.0,0.0,-0.18664398467060342,0.3329858578567148,0.10563079159654815,0.44201300659142806,-0.16354410876763914,0.1253891917079993,-0.20650015327627913,0.17284701300912442,-0.4875437472828647,-0.11151353351412172,-1.9464632752234474,0.13361134407917655,2.5955503597788603,0.945244558961855,0.1728802376190821,-0.48752024683155326,-0.11147110072896137,-1.9463801863486305,0.1336059019074957,2.595550359778934,0.9452445589611904,-0.0009618042842750015,-0.0005797528163388786,-0.0003556632838747204,0.00020329041137196358,-0.00021121568370637125,3.8055870338648096e-05,-0.0005660541708491346,0.0,0.0,0.0,0.0,0.0,0.0,0.0,3.322460995769383e-05,2.3500451311442294e-05,4.243278516034843e-05,8.308887481689453e-05,-5.442171680858365e-06,7.37188088351104e-14,-6.645795025406187e-13,0.0009618042842750015,0.0005797528163388786,0.0003556632838747204,-0.00020329041137196358,0.00021121568370637125,-3.8055870338648096e-05,0.0005660541708491346,0.17287558317184448,12.024682998657227,-1.3147919178009033,-21.741060256958008,-0.3738303780555725,-2.5271639823913574,0.17978231608867645,0
9,0.03957772254943848,-0.17287558317184448,-12.024682998657227,1.3147919178009033,21.741060256958008,0.3738303780555725,2.5271639823913574,-0.17978231608867645,0.0,0.0,0.0,0.0,0.0,0.0,0.0,-0.18664398467060342,0.3329858578567148,0.10563079159654815,0.44201300659142806,-0.16354410876763914,0.1253891917079993,-0.20650015327627913,0.17284701300912442,-0.4875437472828647,-0.11151353351412172,-1.9464632752234474,0.13361134407917655,2.5955503597788603,0.945244558961855,0.1728802376190821,-0.48752024683155326,-0.11147110072896137,-1.9463801863486305,0.1336059019074957,2.595550359778934,0.9452445589611904,-0.0009618042842750015,-0.0005797528163388786,-0.0003556632838747204,0.00020329041137196358,-0.00021121568370637125,3.8055870338648096e-05,-0.0005660541708491346,0.0,0.0,0.0,0.0,0.0,0.0,0.0,3.322460995769383e-05,2.3500451311442294e-05,4.243278516034843e-05,8.308887481689453e-05,-5.442171680858365e-06,7.37188088351104e-14,-6.645795025406187e-13,0.0009618042842750015,0.0005797528163388786,0.0003556632838747204,-0.00020329041137196358,0.00021121568370637125,-3.8055870338648096e-05,0.0005660541708491346,0.17287558317184448,12.024682998657227,-1.3147919178009033,-21.741060256958008,-0.3738303780555725,-2.5271639823913574,0.17978231608867645,0
10,0.04457879066467285,-0.17287558317184448,-12.024682998657227,1.3147919178009033,21.741060256958008,0.3738303780555725,2.5271639823913574,-0.17978231608867645,0.0,0.0,0.0,0.0,0.0,0.0,0.0,-0.18664398467060342,0.3329858578567148,0.10563079159654815,0.44201300659142806,-0.16354410876763914,0.1253891917079993,-0.20650015327627913,0.17284701300912442,-0.4875437472828647,-0.11151353351412172,-1.9464632752234474,0.13361134407917655,2.5955503597788603,0.945244558961855,0.1728802376190821,-0.48752024683155326,-0.11147110072896137,-1.9463801863486305,0.1336059019074957,2.595550359778934,0.9452445589611904,-0.0009618042842750015,-0.0005797528163388786,-0.0003556632838747204,0.00020329041137196358,-0.00021121568370637125,3.8055870338648096e-05,-0.0005660541708491346,0.0,0.0,0.0,0.0,0.0,0.0,0.0,3.322460995769383e-05,2.3500451311442294e-05,4.243278516034843e-05,8.308887481689453e-05,-5.442171680858365e-06,7.37188088351104e-14,-6.645795025406187e-13,0.0009618042842750015,0.0005797528163388786,0.0003556632838747204,-0.00020329041137196358,0.00021121568370637125,-3.8055870338648096e-05,0.0005660541708491346,0.17287558317184448,12.024682998657227,-1.3147919178009033,-21.741060256958008,-0.3738303780555725,-2.5271639823913574,0.17978231608867645,0
11,0.04957890510559082,-0.17287558317184448,-12.024682998657227,1.3147919178009033,21.741060256958008,0.3738303780555725,2.5271639823913574,-0.17978231608867645,0.0,0.0,0.0,0.0,0.0,0.0,0.0,-0.18664398467060342,0.3329858578567148,0.10563079159654815,0.44201300659142806,-0.16354410876763914,0.1253891917079993,-0.20650015327627913,0.17284701300912442,-0.4875437472828647,-0.11151353351412172,-1.9464632752234474,0.13361134407917655,2.5955503597788603,0.945244558961855,0.1728802376190821,-0.48752024683155326,-0.11147110072896137,-1.9463801863486305,0.1336059019074957,2.595550359778934,0.9452445589611904,-0.0009618042842750015,-0.0005797528163388786,-0.0003556632838747204,0.00020329041137196358,-0.00021121568370637125,3.8055870338648096e-05,-0.0005660541708491346,0.0,0.0,0.0,0.0,0.0,0.0,0.0,3.322460995769383e-05,2.3500451311442294e-05,4.243278516034843e-05,8.308887481689453e-05,-5.442171680858365e-06,7.37188088351104e-14,-6.645795025406187e-13,0.0009618042842750015,0.0005797528163388786,0.0003556632838747204,-0.00020329041137196358,0.00021121568370637125,-3.8055870338648096e-05,0.0005660541708491346,0.17287558317184448,12.024682998657227,-1.3147919178009033,-21.741060256958008,-0.3738303780555725,-2.5271639823913574,0.17978231608867645,0
12,0.05452680587768555,-0.22445029020309448,-11.925500869750977,1.2909882068634033,21.693452835083008,0.3674216866493225,2.5207552909851074,-0.17978231608867645,0.0,0.0,0.0,0.0,0.0,0.0,0.0,-0.18729702996604952,0.3346161780093795,0.109524449780631,0.4324147422119,-0.16433856613970993,0.12428074204464554,-0.2053635461768265,0.1728482824731419,-0.48755070743226164,-0.11151194135373471,-1.9464599343517368,0.13361205615599947,2.595551071855757,0.945244558961855,0.1728802376190821,-0.48752024683155326,-0.11147110072896137,-1.9463801863486305,0.1336059019074957,2.595550359778934,0.9452445589611904,0.00046865149355036404,-0.0012094011022686553,6.874795973386119e-05,0.000956701545755875,-6.386133864034198e-05,3.08005356363517e-05,-0.0001795181986621349,0.0,0.0,0.0,0.0,0.0,0.0,0.0,3.1955145940204543e-05,3.0460600708381858e-05,4.084062477334449e-05,7.97480031062836e-05,-6.154248503781323e-06,-7.120768228396912e-07,-6.645795025406187e-13,-0.00046865149355036404,0.0012094011022686553,-6.874795973386119e-05,-0.000956701545755875,6.386133864034198e-05,-3.08005356363517e-05,0.0001795181986621349,0.22445029020309448,11.925500869750977,-1.2909882068634033,-21.693452835083008,-0.3674216866493225,-2.5207552909851074,0.17978231608867645,0
13,0.05956530570983887,-0.22445029020309448,-11.925500869750977,1.2909882068634033,21.693452835083008,0.3674216866493225,2.5207552909851074,-0.17978231608867645,0.0,0.0,0.0,0.0,0.0,0.0,0.0,-0.18729702996604952,0.3346161780093795,0.109524449780631,0.4324147422119,-0.16433856613970993,0.12428074204464554,-0.2053635461768265,0.1728482824731419,-0.48755070743226164,-0.11151194135373471,-1.9464599343517368,0.13361205615599947,2.595551071855757,0.945244558961855,0.1728802376190821,-0.48752024683155326,-0.11147110072896137,-1.9463801863486305,0.1336059019074957,2.595550359778934,0.9452445589611904,0.00046865149355036404,-0.0012094011022686553,6.874795973386119e-05,0.000956701545755875,-6.386133864034198e-05,3.08005356363517e-05,-0.0001795181986621349,0.0,0.0,0.0,0.0,0.0,0.0,0.0,3.1955145940204543e-05,3.0460600708381858e-05,4.084062477334449e-05,7.97480031062836e-05,-6.154248503781323e-06,-7.120768228396912e-07,-6.645795025406187e-13,-0.00046865149355036404,0.0012094011022686553,-6.874795973386119e-05,-0.000956701545755875,6.386133864034198e-05,-3.08005356363517e-05,0.0001795181986621349,0.22445029020309448,11.925500869750977,-1.2909882068634033,-21.693452835083008,-0.3674216866493225,-2.5207552909851074,0.17978231608867645,0
14,0.06456446647644043,-0.17287558317184448,-12.000879287719727,1.2433807849884033,21.741060256958008,0.3674216866493225,2.5143465995788574,-0.17337362468242645,0.0,0.0,0.0,0.0,0.0,0.0,0.0,-0.19170771050946042,0.322672151937158,0.10737111603788932,0.4432337620166559,-0.16447926744373634,0.12529237127953285,-0.20435046912958535,0.1728439522637902,-0.48754541771871995,-0.11150857514936394,-1.9464632752234474,0.13361205615599947,2.595551783771074,0.9452438468850322,0.1728802376190821,-0.48752024683155326,-0.11147110072896137,-1.9463801863486305,0.1336059019074957,2.595550359778934,0.9452445589611904,-0.0006417928629392493,0.0011075864812019475,0.001304011429842585,-0.00029177306263198516,0.00011344879010418594,0.00021051375384687529,-0.0011676484283049274,0.0,0.0,0.0,0.0,0.0,0.0,0.0,3.628535529190402e-05,2.5170887166692246e-05,3.747442040256954e-05,8.308887481689453e-05,-6.154248503781323e-06,-1.4239921402037226e-06,7.120761582601887e-07,0.0006417928629392493,-0.0011075864812019475,-0.001304011429842585,0.00029177306263198516,-0.00011344879010418594,-0.00021051375384687529,0.0011676484283049274,0.17287558317184448,12.000879287719727,-1.2433807849884033,-21.741060256958008,-0.3674216866493225,-2.5143465995788574,0.17337362468242645,0
15,0.0697627067565918,-0.17287558317184448,-12.000879287719727,1.2433807849884033,21.741060256958008,0.3674216866493225,2.5143465995788574,-0.17337362468242645,0.0,0.0,0.0,0.0,0.0,0.0,0.0,-0.19170771050946042,0.322672151937158,0.10737111603788932,0.4432337620166559,-0.16447926744373634,0.12529237127953285,-0.20435046912958535,0.1728439522637902,-0.48754541771871995,-0.11150857514936394,-1.9464632752234474,0.13361205615599947,2.595551783771074,0.9452438468850322,0.1728802376190821,-0.48752024683155326,-0.11147110072896137,-1.9463801863486305,0.1336059019074957,2.595550359778934,0.9452445589611904,-0.0006417928629392493,0.0011075864812019475,0.001304011429842585,-0.00029177306263198516,0.00011344879010418594,0.00021051375384687529,-0.0011676484283049274,0.0,0.0,0.0,0.0,0.0,0.0,0.0,3.628535529190402e-05,2.5170887166692246e-05,3.747442040256954e-05,8.308887481689453e-05,-6.154248503781323e-06,-1.4239921402037226e-06,7.120761582601887e-07,0.0006417928629392493,-0.0011075864812019475,-0.001304011429842585,0.00029177306263198516,-0.00011344879010418594,-0.00021051375384687529,0.0011676484283049274,0.17287558317184448,12.000879287719727,-1.2433807849884033,-21.741060256958008,-0.3674216866493225,-2.5143465995788574,0.17337362468242645,0
16,0.07598543167114258,-0.19667929410934448,-11.925500869750977,1.2909882068634033,21.768831253051758,0.3738303780555725,2.5271639823913574,-0.19351522624492645,0.0,0.0,0.0,0.0,0.0,0.0,0.0,-0.19524723798677132,0.3384064878908275,0.10142479573535114,0.43938154623880893,-0.16432115888117133,0.12391237591317768,-0.20569990134927,0.17284552633736383,-0.48755070743226164,-0.1115117055650252,-1.9464652240652784,0.13361134407917655,2.595550359778933,0.9452460848407613,0.1728802376190821,-0.48752024683155326,-0.11147110072896137,-1.9463801863486305,0.1336059019074957,2.595550359778934,0.9452445589611904,-0.00024120460817801838,-0.00022492316788647916,-0.0003591403270041311,-0.001251918234518337,-0.0004031197970248848,-0.00028445184329220426,-0.00016574283926962106,0.0,0.0,0.0,0.0,0.0,0.0,0.0,3.471128171828042e-05,3.0460600708381858e-05,4.060483606382892e-05,8.50377166479177e-05,-5.442171680858365e-06,8.881784197001252e-16,-1.5258795709183204e-06,0.00024120460817801838,0.00022492316788647916,0.0003591403270041311,0.001251918234518337,0.0004031197970248848,0.00028445184329220426,0.00016574283926962106,0.19667929410934448,11.925500869750977,-1.2909882068634033,-21.768831253051758,-0.3738303780555725,-2.5271639823913574,0.19351522624492645,0
17,0.07956552505493164,-0.19667929410934448,-11.925500869750977,1.2909882068634033,21.768831253051758,0.3738303780555725,2.5271639823913574,-0.19351522624492645,0.0,0.0,0.0,0.0,0.0,0.0,0.0,-0.19524723798677132,0.3384064878908275,0.10142479573535114,0.43938154623880893,-0.16432115888117133,0.12391237591317768,-0.20569990134927,0.17284552633736383,-0.48755070743226164,-0.1115117055650252,-1.9464652240652784,0.13361134407917655,2.595550359778933,0.9452460848407613,0.1728802376190821,-0.48752024683155326,-0.11147110072896137,-1.9463801863486305,0.1336059019074957,2.595550359778934,0.9452445589611904,-0.00024120460817801838,-0.00022492316788647916,-0.0003591403270041311,-0.001251918234518337,-0.0004031197970248848,-0.00028445184329220426,-0.00016574283926962106,0.0,0.0,0.0,0.0,0.0,0.0,0.0,3.471128171828042e-05,3.0460600708381858e-05,4.060483606382892e-05,8.50377166479177e-05,-5.442171680858365e-06,8.881784197001252e-16,-1.5258795709183204e-06,0.00024120460817801838,0.00022492316788647916,0.0003591403270041311,0.001251918234518337,0.0004031197970248848,0.00028445184329220426,0.00016574283926962106,0.19667929410934448,11.925500869750977,-1.2909882068634033,-21.768831253051758,-0.3738303780555725,-2.5271639823913574,0.19351522624492645,0
18,0.08480000495910645,-0.17287558317184448,-11.925500869750977,1.3425629138946533,21.693452835083008,0.3619285225868225,2.5271639823913574,-0.20083944499492645,0.0,0.0,0.0,0.0,0.0,0.0,0.0,-0.19079373723364254,0.3379226869604247,0.10660817750853012,0.44658020440896984,-0.16457085515558165,0.12436050763401112,-0.20647394498481209,0.17284387543304602,-0.48755070743226164,-0.1115152984262761,-1.9464599343517368,0.13361266650756198,2.595550359778934,0.9452468986428446,0.1728802376190821,-0.48752024683155326,-0.11147110072896137,-1.9463801863486305,0.1336059019074957,2.595550359778934,0.9452445589611904,-0.0004638376180621616,-0.0009133686991388579,-0.0008326654683554543,0.0008442824771662543,0.00041912923043476325,-0.0002417730088676938,0.0003680289625786822,0.0,0.0,0.0,0.0,0.0,0.0,0.0,3.636218603608743e-05,3.0460600708381858e-05,4.4197697314729556e-05,7.97480031062836e-05,-6.764600066294646e-06,0.0,-2.3396816541954024e-06,0.0004638376180621616,0.0009133686991388579,0.0008326654683554543,-0.0008442824771662543,-0.00041912923043476325,0.0002417730088676938,-0.0003680289625786822,0.17287558317184448,11.925500869750977,-1.3425629138946533,-21.693452835083008,-0.3619285225868225,-2.5271639823913574,0.20083944499492645,0
19,0.0895683765411377,-0.17287558317184448,-11.925500869750977,1.3425629138946533,21.693452835083008,0.3619285225868225,2.5271639823913574,-0.20083944499492645,0.0,0.0,0.0,0.0,0.0,0.0,0.0,-0.19079373723364254,0.3379226869604247,0.10660817750853012,0.44658020440896984,-0.16457085515558165,0.12436050763401112,-0.20647394498481209,0.17284387543304602,-0.48755070743226164,-0.1115152984262761,-1.9464599343517368,0.13361266650756198,2.595550359778934,0.9452468986428446,0.1728802376190821,-0.48752024683155326,-0.11147110072896137,-1.9463801863486305,0.1336059019074957,2.595550359778934,0.9452445589611904,-0.0004638376180621616,-0.0009133686991388579,-0.0008326654683554543,0.0008442824771662543,0.00041912923043476325,-0.0002417730088676938,0.0003680289625786822,0.0,0.0,0.0,0.0,0.0,0.0,0.0,3.636218603608743e-05,3.0460600708381858e-05,4.4197697314729556e-05,7.97480031062836e-05,-6.764600066294646e-06,0.0,-2.3396816541954024e-06,0.0004638376180621616,0.0009133686991388579,0.0008326654683554543,-0.0008442824771662543,-0.00041912923043476325,0.0002417730088676938,-0.0003680289625786822,0.17287558317184448,11.925500869750977,-1.3425629138946533,-21.693452835083008,-0.3619285225868225,-2.5271639823913574,0.20083944499492645,0
20,0.09456586837768555,-0.17287558317184448,-11.925500869750977,1.3425629138946533,21.693452835083008,0.3619285225868225,2.5271639823913574,-0.20083944499492645,0.0,0.0,0.0,0.0,0.0,0.0,0.0,-0.19079373723364254,0.3379226869604247,0.10660817750853012,0.44658020440896984,-0.16457085515558165,0.12436050763401112,-0.20647394498481209,0.17284387543304602,-0.48755070743226164,-0.1115152984262761,-1.9464599343517368,0.13361266650756198,2.595550359778934,0.9452468986428446,0.1728802376190821,-0.48752024683155326,-0.11147110072896137,-1.9463801863486305,0.1336059019074957,2.595550359778934,0.9452445589611904,-0.0004638376180621616,-0.0009133686991388579,-0.0008326654683554543,0.0008442824771662543,0.00041912923043476325,-0.0002417730088676938,0.0003680289625786822,0.0,0.0,0.0,0.0,0.0,0.0,0.0,3.636218603608743e-05,3.0460600708381858e-05,4.4197697314729556e-05,7.97480031062836e-05,-6.764600066294646e-06,0.0,-2.3396816541954024e-06,0.0004638376180621616,0.0009133686991388579,0.0008326654683554543,-0.0008442824771662543,-0.00041912923043476325,0.0002417730088676938,-0.0003680289625786822,0.17287558317184448,11.925500869750977,-1.3425629138946533,-21.693452835083008,-0.3619285225868225,-2.5271639823913574,0.20083944499492645,0
21,0.09956645965576172,-0.17287558317184448,-11.925500869750977,1.3425629138946533,21.693452835083008,0.3619285225868225,2.5271639823913574,-0.20083944499492645,0.0,0.0,0.0,0.0,0.0,0.0,0.0,-0.19079373723364254,0.3379226869604247,0.10660817750853012,0.44658020440896984,-0.16457085515558165,0.12436050763401112,-0.20647394498481209,0.17284387543304602,-0.48755070743226164,-0.1115152984262761,-1.9464599343517368,0.13361266650756198,2.595550359778934,0.9452468986428446,0.1728802376190821,-0.48752024683155326,-0.11147110072896137,-1.9463801863486305,0.1336059019074957,2.595550359778934,0.9452445589611904,-0.0004638376180621616,-0.0009133686991388579,-0.0008326654683554543,0.0008442824771662543,0.00041912923043476325,-0.0002417730088676938,0.0003680289625786822,0.0,0.0,0.0,0.0,0.0,0.0,0.0,3.636218603608743e-05,3.0460600708381858e-05,4.4197697314729556e-05,7.97480031062836e-05,-6.764600066294646e-06,0.0,-2.3396816541954024e-06,0.0004638376180621616,0.0009133686991388579,0.0008326654683554543,-0.0008442824771662543,-0.00041912923043476325,0.0002417730088676938,-0.0003680289625786822,0.17287558317184448,11.925500869750977,-1.3425629138946533,-21.693452835083008,-0.3619285225868225,-2.5271639823913574,0.20083944499492645,0
22,0.1045694351196289,-0.19667929410934448,-11.949304580688477,1.2909882068634033,21.741060256958008,0.3619285225868225,2.5143465995788574,-0.20083944499492645,0.0,0.0,0.0,0.0,0.0,0.0,0.0,-0.1925293042076209,0.36495069059515384,0.10066257086274534,0.4361470907316034,-0.16452920872078725,0.1223002436288066,-0.20636130411338663,0.1728457665815317,-0.4875490369964064,-0.11151193355758648,-1.9464632752234474,0.13361266650756198,2.5955517839325797,0.9452468986428446,0.1728802376190821,-0.48752024683155326,-0.11147110072896137,-1.9463801863486305,0.1336059019074957,2.595550359778934,0.9452445589611904,0.0001401560662987786,0.0002658489859695101,0.00021159020177214386,-0.00036279564255875416,0.0001435386426139268,0.00037601282841854395,0.00029315253139722177,0.0,0.0,0.0,0.0,0.0,0.0,0.0,3.447103755041536e-05,2.8790164853131905e-05,4.08328286251175e-05,8.308887481689453e-05,-6.764600066294646e-06,-1.4241536456793824e-06,-2.3396816541954024e-06,-0.0001401560662987786,-0.0002658489859695101,-0.00021159020177214386,0.00036279564255875416,-0.0001435386426139268,-0.00037601282841854395,-0.00029315253139722177,0.19667929410934448,11.949304580688477,-1.2909882068634033,-21.741060256958008,-0.3619285225868225,-2.5143465995788574,0.20083944499492645,0
23,0.11066627502441406,-0.19667929410934448,-11.949304580688477,1.2909882068634033,21.741060256958008,0.3619285225868225,2.5143465995788574,-0.20083944499492645,0.0,0.0,0.0,0.0,0.0,0.0,0.0,-0.1925293042076209,0.36495069059515384,0.10066257086274534,0.4361470907316034,-0.16452920872078725,0.1223002436288066,-0.20636130411338663,0.1728457665815317,-0.4875490369964064,-0.11151193355758648,-1.9464632752234474,0.13361266650756198,2.5955517839325797,0.9452468986428446,0.1728802376190821,-0.48752024683155326,-0.11147110072896137,-1.9463801863486305,0.1336059019074957,2.595550359778934,0.9452445589611904,0.0001401560662987786,0.0002658489859695101,0.00021159020177214386,-0.00036279564255875416,0.0001435386426139268,0.00037601282841854395,0.00029315253139722177,0.0,0.0,0.0,0.0,0.0,0.0,0.0,3.447103755041536e-05,2.8790164853131905e-05,4.08328286251175e-05,8.308887481689453e-05,-6.764600066294646e-06,-1.4241536456793824e-06,-2.3396816541954024e-06,-0.0001401560662987786,-0.0002658489859695101,-0.00021159020177214386,0.00036279564255875416,-0.0001435386426139268,-0.00037601282841854395,-0.00029315253139722177,0.19667929410934448,11.949304580688477,-1.2909882068634033,-21.741060256958008,-0.3619285225868225,-2.5143465995788574,0.20083944499492645,0
24,0.11478734016418457,-0.19667929410934448,-11.949304580688477,1.2909882068634033,21.741060256958008,0.3619285225868225,2.5143465995788574,-0.20083944499492645,0.0,0.0,0.0,0.0,0.0,0.0,0.0,-0.1925293042076209,0.36495069059515384,0.10066257086274534,0.4361470907316034,-0.16452920872078725,0.1223002436288066,-0.20636130411338663,0.1728457665815317,-0.4875490369964064,-0.11151193355758648,-1.9464632752234474,0.13361266650756198,2.5955517839325797,0.9452468986428446,0.1728802376190821,-0.48752024683155326,-0.11147110072896137,-1.9463801863486305,0.1336059019074957,2.595550359778934,0.9452445589611904,0.0001401560662987786,0.0002658489859695101,0.00021159020177214386,-0.00036279564255875416,0.0001435386426139268,0.00037601282841854395,0.00029315253139722177,0.0,0.0,0.0,0.0,0.0,0.0,0.0,3.447103755041536e-05,2.8790164853131905e-05,4.08328286251175e-05,8.308887481689453e-05,-6.764600066294646e-06,-1.4241536456793824e-06,-2.3396816541954024e-06,-0.0001401560662987786,-0.0002658489859695101,-0.00021159020177214386,0.00036279564255875416,-0.0001435386426139268,-0.00037601282841854395,-0.00029315253139722177,0.19667929410934448,11.949304580688477,-1.2909882068634033,-21.741060256958008,-0.3619285225868225,-2.5143465995788574,0.20083944499492645,0
25,0.11957144737243652,-0.19667929410934448,-11.949304580688477,1.2909882068634033,21.741060256958008,0.3619285225868225,2.5143465995788574,-0.20083944499492645,0.0,0.0,0.0,0.0,0.0,0.0,0.0,-0.1925293042076209,0.36495069059515384,0.10066257086274534,0.4361470907316034,-0.16452920872078725,0.1223002436288066,-0.20636130411338663,0.1728457665815317,-0.4875490369964064,-0.11151193355758648,-1.9464632752234474,0.13361266650756198,2.5955517839325797,0.9452468986428446,0.1728802376190821,-0.48752024683155326,-0.11147110072896137,-1.9463801863486305,0.1336059019074957,2.595550359778934,0.9452445589611904,0.0001401560662987786,0.0002658489859695101,0.00021159020177214386,-0.00036279564255875416,0.0001435386426139268,0.00037601282841854395,0.00029315253139722177,0.0,0.0,0.0,0.0,0.0,0.0,0.0,3.447103755041536e-05,2.8790164853131905e-05,4.08328286251175e-05,8.308887481689453e-05,-6.764600066294646e-06,-1.4241536456793824e-06,-2.3396816541954024e-06,-0.0001401560662987786,-0.0002658489859695101,-0.00021159020177214386,0.00036279564255875416,-0.0001435386426139268,-0.00037601282841854395,-0.00029315253139722177,0.19667929410934448,11.949304580688477,-1.2909882068634033,-21.741060256958008,-0.3619285225868225,-2.5143465995788574,0.20083944499492645,0
26,0.12498879432678223,-0.17287558317184448,-12.024682998657227,1.2909882068634033,21.741060256958008,0.3674216866493225,2.5207552909851074,-0.17337362468242645,0.0,0.0,0.0,0.0,0.0,0.0,0.0,-0.18791814213732105,0.3481617283342807,0.11080102669129441,0.44438862221764747,-0.16536931214637818,0.12465039644760746,-0.20486040659742896,0.17284669452909052,-0.4875437472828647,-0.11151186243276866,-1.9464632752234474,0.13361205615599947,2.595551058612299,0.9452437291474622,0.1728802376190821,-0.48752024683155326,-0.11147110072896137,-1.9463801863486305,0.1336059019074957,2.595550359778934,0.9452445589611904,0.00017674496222280754,0.000658310577379803,0.00043289389296119273,-0.0001409814506427213,0.0002722632429167879,0.00023071152231304308,-0.0008658713149649796,0.0,0.0,0.0,0.0,0.0,0.0,0.0,3.35430899915945e-05,2.3500451311442294e-05,4.0761703807290495e-05,8.308887481689453e-05,-6.154248503781323e-06,-6.988333649537992e-07,8.29813728175921e-07,-0.00017674496222280754,-0.000658310577379803,-0.00043289389296119273,0.0001409814506427213,-0.0002722632429167879,-0.00023071152231304308,0.0008658713149649796,0.17287558317184448,12.024682998657227,-1.2909882068634033,-21.741060256958008,-0.3674216866493225,-2.5207552909851074,0.17337362468242645,0
27,0.12956905364990234,-0.17287558317184448,-12.024682998657227,1.2909882068634033,21.741060256958008,0.3674216866493225,2.5207552909851074,-0.17337362468242645,0.0,0.0,0.0,0.0,0.0,0.0,0.0,-0.18791814213732105,0.3481617283342807,0.11080102669129441,0.44438862221764747,-0.16536931214637818,0.12465039644760746,-0.20486040659742896,0.17284669452909052,-0.4875437472828647,-0.11151186243276866,-1.9464632752234474,0.13361205615599947,2.595551058612299,0.9452437291474622,0.1728802376190821,-0.48752024683155326,-0.11147110072896137,-1.9463801863486305,0.1336059019074957,2.595550359778934,0.9452445589611904,0.00017674496222280754,0.000658310577379803,0.00043289389296119273,-0.0001409814506427213,0.0002722632429167879,0.00023071152231304308,-0.0008658713149649796,0.0,0.0,0.0,0.0,0.0,0.0,0.0,3.35430899915945e-05,2.3500451311442294e-05,4.0761703807290495e-05,8.308887481689453e-05,-6.154248503781323e-06,-6.988333649537992e-07,8.29813728175921e-07,-0.00017674496222280754,-0.000658310577379803,-0.00043289389296119273,0.0001409814506427213,-0.0002722632429167879,-0.00023071152231304308,0.0008658713149649796,0.17287558317184448,12.024682998657227,-1.2909882068634033,-21.741060256958008,-0.3674216866493225,-2.5207552909851074,0.17337362468242645,0
28,0.1345667839050293,-0.19667929410934448,-12.024682998657227,1.3663666248321533,21.792634963989258,0.3674216866493225,2.5207552909851074,-0.18710653483867645,0.0,0.0,0.0,0.0,0.0,0.0,0.0,-0.18631914856128592,0.33999205777836816,0.10829116544940323,0.4451604110558843,-0.16462322452458705,0.12484974020850025,-0.20472880091881573,0.17284768138848727,-0.4875437472828647,-0.11151510019987325,-1.9464668945011336,0.13361170073571027,2.5955510718555326,0.9452453727619445,0.1728802376190821,-0.48752024683155326,-0.11147110072896137,-1.9463801863486305,0.1336059019074957,2.595550359778934,0.9452445589611904,0.0005195557566556442,-0.0002412327489393274,-0.0011864575583133427,-0.0014978426386298082,0.00012013722682367607,0.00023032577031530693,-0.000586119947124831,0.0,0.0,0.0,0.0,0.0,0.0,0.0,3.255623059483792e-05,2.3500451311442294e-05,4.399947091188183e-05,8.670815250311215e-05,-5.798828214581553e-06,-7.120765985746402e-07,-8.13800754118077e-07,-0.0005195557566556442,0.0002412327489393274,0.0011864575583133427,0.0014978426386298082,-0.00012013722682367607,-0.00023032577031530693,0.000586119947124831,0.19667929410934448,12.024682998657227,-1.3663666248321533,-21.792634963989258,-0.3674216866493225,-2.5207552909851074,0.18710653483867645,0
29,0.13956832885742188,-0.19667929410934448,-12.024682998657227,1.3663666248321533,21.792634963989258,0.3674216866493225,2.5207552909851074,-0.18710653483867645,0.0,0.0,0.0,0.0,0.0,0.0,0.0,-0.18631914856128592,0.33999205777836816,0.10829116544940323,0.4451604110558843,-0.16462322452458705,0.12484974020850025,-0.20472880091881573,0.17284768138848727,-0.4875437472828647,-0.11151510019987325,-1.9464668945011336,0.13361170073571027,2.5955510718555326,0.9452453727619445,0.1728802376190821,-0.48752024683155326,-0.11147110072896137,-1.9463801863486305,0.1336059019074957,2.595550359778934,0.9452445589611904,0.0005195557566556442,-0.0002412327489393274,-0.0011864575583133427,-0.0014978426386298082,0.00012013722682367607,0.00023032577031530693,-0.000586119947124831,0.0,0.0,0.0,0.0,0.0,0.0,0.0,3.255623059483792e-05,2.3500451311442294e-05,4.399947091188183e-05,8.670815250311215e-05,-5.798828214581553e-06,-7.120765985746402e-07,-8.13800754118077e-07,-0.0005195557566556442,0.0002412327489393274,0.0011864575583133427,0.0014978426386298082,-0.00012013722682367607,-0.00023032577031530693,0.000586119947124831,0.19667929410934448,12.024682998657227,-1.3663666248321533,-21.792634963989258,-0.3674216866493225,-2.5207552909851074,0.18710653483867645,0
30,0.14456605911254883,-0.17287558317184448,-12.100061416625977,1.2909882068634033,21.693452835083008,0.3555198311805725,2.5207552909851074,-0.21457235515117645,0.0,0.0,0.0,0.0,0.0,0.0,0.0,-0.1918856580096662,0.3400905298794592,0.10201436043062023,0.43856273772244203,-0.16363662248403354,0.12463410326534065,-0.20502798954762236,0.17284672137798737,-0.487538457569323,-0.11151194231603392,-1.9464599343517368,0.13361337858237854,2.595551071855757,0.9452484245217508,0.1728802376190821,-0.48752024683155326,-0.11147110072896137,-1.9463801863486305,0.1336059019074957,2.595550359778934,0.9452445589611904,-0.0007304120778957634,0.0014238949806762173,7.858713213203479e-05,0.0006565708697325722,0.0005750475514262006,0.00018122567023551013,0.0010931897136488742,0.0,0.0,0.0,0.0,0.0,0.0,0.0,3.351624109473872e-05,1.8210737769752683e-05,4.084158707255703e-05,7.97480031062836e-05,-7.476674882850309e-06,-7.120768228396912e-07,-3.865560560423198e-06,0.0007304120778957634,-0.0014238949806762173,-7.858713213203479e-05,-0.0006565708697325722,-0.0005750475514262006,-0.00018122567023551013,-0.0010931897136488742,0.17287558317184448,12.100061416625977,-1.2909882068634033,-21.693452835083008,-0.3555198311805725,-2.5207552909851074,0.21457235515117645,0
31,0.1495647430419922,-0.17287558317184448,-12.100061416625977,1.2909882068634033,21.693452835083008,0.3555198311805725,2.5207552909851074,-0.21457235515117645,0.0,0.0,0.0,0.0,0.0,0.0,0.0,-0.1918856580096662,0.3400905298794592,0.10201436043062023,0.43856273772244203,-0.16363662248403354,0.12463410326534065,-0.20502798954762236,0.17284672137798737,-0.487538457569323,-0.11151194231603392,-1.9464599343517368,0.13361337858237854,2.595551071855757,0.9452484245217508,0.1728802376190821,-0.48752024683155326,-0.11147110072896137,-1.9463801863486305,0.1336059019074957,2.595550359778934,0.9452445589611904,-0.0007304120778957634,0.0014238949806762173,7.858713213203479e-05,0.0006565708697325722,0.0005750475514262006,0.00018122567023551013,0.0010931897136488742,0.0,0.0,0.0,0.0,0.0,0.0,0.0,3.351624109473872e-05,1.8210737769752683e-05,4.084158707255703e-05,7.97480031062836e-05,-7.476674882850309e-06,-7.120768228396912e-07,-3.865560560423198e-06,0.0007304120778957634,-0.0014238949806762173,-7.858713213203479e-05,-0.0006565708697325722,-0.0005750475514262006,-0.00018122567023551013,-0.0010931897136488742,0.17287558317184448,12.100061416625977,-1.2909882068634033,-21.693452835083008,-0.3555198311805725,-2.5207552909851074,0.21457235515117645,0
32,0.15456628799438477,-0.19667929410934448,-12.000879287719727,1.2909882068634033,21.741060256958008,0.3793235421180725,2.5271639823913574,-0.17978231608867645,0.0,0.0,0.0,0.0,0.0,0.0,0.0,-0.19500037796262046,0.31760641009927354,0.10479786036155003,0.4455856873509511,-0.16407981838028776,0.12607083614414707,-0.2048259467298419,0.17284560715793984,-0.48754541771871995,-0.11151193940506947,-1.9464632752234474,0.13361073372761406,2.595550359778934,0.945244558961855,0.1728802376190821,-0.48752024683155326,-0.11147110072896137,-1.9463801863486305,0.1336059019074957,2.595550359778934,0.9452445589611904,-9.862328366477466e-05,-0.0011790556730029427,-0.00027684206715422735,4.391367652676011e-05,-0.00035422051244045013,1.835079817618885e-05,-0.0006638394460343977,0.0,0.0,0.0,0.0,0.0,0.0,0.0,3.4630461142270974e-05,2.5170887166692246e-05,4.0838676108101435e-05,8.308887481689453e-05,-4.831820118372798e-06,0.0,-6.645795025406187e-13,9.862328366477466e-05,0.0011790556730029427,0.00027684206715422735,-4.391367652676011e-05,0.00035422051244045013,-1.835079817618885e-05,0.0006638394460343977,0.19667929410934448,12.000879287719727,-1.2909882068634033,-21.741060256958008,-0.3793235421180725,-2.5271639823913574,0.17978231608867645,0
33,0.159562349319458,-0.19667929410934448,-12.000879287719727,1.2909882068634033,21.741060256958008,0.3793235421180725,2.5271639823913574,-0.17978231608867645,0.0,0.0,0.0,0.0,0.0,0.0,0.0,-0.19500037796262046,0.31760641009927354,0.10479786036155003,0.4455856873509511,-0.16407981838028776,0.12607083614414707,-0.2048259467298419,0.17284560715793984,-0.48754541771871995,-0.11151193940506947,-1.9464632752234474,0.13361073372761406,2.595550359778934,0.945244558961855,0.1728802376190821,-0.48752024683155326,-0.11147110072896137,-1.9463801863486305,0.1336059019074957,2.595550359778934,0.9452445589611904,-9.862328366477466e-05,-0.0011790556730029427,-0.00027684206715422735,4.391367652676011e-05,-0.00035422051244045013,1.835079817618885e-05,-0.0006638394460343977,0.0,0.0,0.0,0.0,0.0,0.0,0.0,3.4630461142270974e-05,2.5170887166692246e-05,4.0838676108101435e-05,8.308887481689453e-05,-4.831820118372798e-06,0.0,-6.645795025406187e-13,9.862328366477466e-05,0.0011790556730029427,0.00027684206715422735,-4.391367652676011e-05,0.00035422051244045013,-1.835079817618885e-05,0.0006638394460343977,0.19667929410934448,12.000879287719727,-1.2909882068634033,-21.741060256958008,-0.3793235421180725,-2.5271639823913574,0.17978231608867645,0
34,0.16483259201049805,-0.19667929410934448,-11.949304580688477,1.2671844959259033,21.717256546020508,0.3674216866493225,2.5207552909851074,-0.16604940593242645,0.0,0.0,0.0,0.0,0.0,0.0,0.0,-0.19186433302185177,0.3284084044445893,0.11059734545631891,0.435622290189091,-0.16422795877054208,0.12453842986410035,-0.20491898391481903,0.1728457565626433,-0.4875490369964064,-0.11151027156741883,-1.946461604787592,0.13361205615599947,2.595551071855757,0.9452430330829488,0.1728802376190821,-0.48752024683155326,-0.11147110072896137,-1.9463801863486305,0.1336059019074957,2.595550359778934,0.9452445589611904,0.00019297878051280527,-0.0015283879812706142,0.0007159335302116454,0.0005421331723487256,4.63600550490369e-05,0.00010114266333203169,-0.0007331755409205778,0.0,0.0,0.0,0.0,0.0,0.0,0.0,3.448105643880095e-05,2.8790164853131905e-05,3.917083845746128e-05,8.141843896147805e-05,-6.154248503781323e-06,-7.120768228396912e-07,1.525878241648293e-06,-0.00019297878051280527,0.0015283879812706142,-0.0007159335302116454,-0.0005421331723487256,-4.63600550490369e-05,-0.00010114266333203169,0.0007331755409205778,0.19667929410934448,11.949304580688477,-1.2671844959259033,-21.717256546020508,-0.3674216866493225,-2.5207552909851074,0.16604940593242645,0
35,0.16953158378601074,-0.19667929410934448,-11.949304580688477,1.2671844959259033,21.717256546020508,0.3674216866493225,2.5207552909851074,-0.16604940593242645,0.0,0.0,0.0,0.0,0.0,0.0,0.0,-0.19186433302185177,0.3284084044445893,0.11059734545631891,0.435622290189091,-0.16422795877054208,0.12453842986410035,-0.20491898391481903,0.1728457565626433,-0.4875490369964064,-0.11151027156741883,-1.946461604787592,0.13361205615599947,2.595551071855757,0.9452430330829488,0.1728802376190821,-0.48752024683155326,-0.11147110072896137,-1.9463801863486305,0.1336059019074957,2.595550359778934,0.9452445589611904,0.00019297878051280527,-0.0015283879812706142,0.0007159335302116454,0.0005421331723487256,4.63600550490369e-05,0.00010114266333203169,-0.0007331755409205778,0.0,0.0,0.0,0.0,0.0,0.0,0.0,3.448105643880095e-05,2.8790164853131905e-05,3.917083845746128e-05,8.141843896147805e-05,-6.154248503781323e-06,-7.120768228396912e-07,1.525878241648293e-06,-0.00019297878051280527,0.0015283879812706142,-0.0007159335302116454,-0.0005421331723487256,-4.63600550490369e-05,-0.00010114266333203169,0.0007331755409205778,0.19667929410934448,11.949304580688477,-1.2671844959259033,-21.717256546020508,-0.3674216866493225,-2.5207552909851074,0.16604940593242645,0
36,0.17458486557006836,-0.19667929410934448,-11.925500869750977,1.3147919178009033,21.741060256958008,0.3738303780555725,2.5079379081726074,-0.22098104655742645,0.0,0.0,0.0,0.0,0.0,0.0,0.0,-0.19242385877849671,0.3422651613153814,0.10660636821491008,0.42972859571634037,-0.16414136169370966,0.12329659685905936,-0.20467799975089707,0.17284578021900757,-0.48755070743226164,-0.11151146923154324,-1.9464632752234474,0.13361134407917655,2.595552496009403,0.9452491365447386,0.1728802376190821,-0.48752024683155326,-0.11147110072896137,-1.9463801863486305,0.1336059019074957,2.595550359778934,0.9452445589611904,1.1478384079615374e-05,-0.0003917757403932848,-0.000618248501106546,-0.0006456047346970139,-0.00023697801681077488,0.0005683683058260103,0.0013421100883906146,0.0,0.0,0.0,0.0,0.0,0.0,0.0,3.4457400074544564e-05,3.0460600708381858e-05,4.036850258187785e-05,8.308887481689453e-05,-5.442171680858365e-06,-2.136230468963163e-06,-4.577583548215358e-06,-1.1478384079615374e-05,0.0003917757403932848,0.000618248501106546,0.0006456047346970139,0.00023697801681077488,-0.0005683683058260103,-0.0013421100883906146,0.19667929410934448,11.925500869750977,-1.3147919178009033,-21.741060256958008,-0.3738303780555725,-2.5079379081726074,0.22098104655742645,0
37,0.1795797348022461,-0.19667929410934448,-11.925500869750977,1.3147919178009033,21.741060256958008,0.3738303780555725,2.5079379081726074,-0.22098104655742645,0.0,0.0,0.0,0.0,0.0,0.0,0.0,-0.19242385877849671,0.3422651613153814,0.10660636821491008,0.42972859571634037,-0.16414136169370966,0.12329659685905936,-0.20467799975089707,0.17284578021900757,-0.48755070743226164,-0.11151146923154324,-1.9464632752234474,0.13361134407917655,2.595552496009403,0.9452491365447386,0.1728802376190821,-0.48752024683155326,-0.11147110072896137,-1.9463801863486305,0.1336059019074957,2.595550359778934,0.9452445589611904,1.1478384079615374e-05,-0.0003917757403932848,-0.000618248501106546,-0.0006456047346970139,-0.00023697801681077488,0.0005683683058260103,0.0013421100883906146,0.0,0.0,0.0,0.0,0.0,0.0,0.0,3.4457400074544564e-05,3.0460600708381858e-05,4.036850258187785e-05,8.308887481689453e-05,-5.442171680858365e-06,-2.136230468963163e-06,-4.577583548215358e-06,-1.1478384079615374e-05,0.0003917757403932848,0.000618248501106546,0.0006456047346970139,0.00023697801681077488,-0.0005683683058260103,-0.0013421100883906146,0.19667929410934448,11.925500869750977,-1.3147919178009033,-21.741060256958008,-0.3738303780555725,-2.5079379081726074,0.22098104655742645,0
38,0.18457388877868652,-0.17287558317184448,-11.949304580688477,1.3147919178009033,21.717256546020508,0.3674216866493225,2.5143465995788574,-0.22098104655742645,0.0,0.0,0.0,0.0,0.0,0.0,0.0,-0.19395321156974102,0.3317072234712241,0.10516599338197044,0.44253100294599906,-0.1646703258265261,0.12472210002721937,-0.20449336875398405,0.17284458419584148,-0.4875490369964064,-0.11151287604789212,-1.946461604787592,0.13361205615599947,2.5955517795719287,0.9452480769604441,0.1728802376190821,-0.48752024683155326,-0.11147110072896137,-1.9463801863486305,0.1336059019074957,2.595550359778934,0.9452445589611904,-0.0004899172621132506,0.00024995831792531996,-0.0006831598581634574,0.0003664630037194958,-3.081555098714703e-05,0.0003716194740159797,0.0007320703498547052,0.0,0.0,0.0,0.0,0.0,0.0,0.0,3.5653423240633586e-05,2.8790164853131905e-05,4.1775318930750704e-05,8.141843896147805e-05,-6.154248503781323e-06,-1.419792994727942e-06,-3.517999253688231e-06,0.0004899172621132506,-0.00024995831792531996,0.0006831598581634574,-0.0003664630037194958,3.081555098714703e-05,-0.0003716194740159797,-0.0007320703498547052,0.17287558317184448,11.949304580688477,-1.3147919178009033,-21.717256546020508,-0.3674216866493225,-2.5143465995788574,0.22098104655742645,0
39,0.18957257270812988,-0.17287558317184448,-11.949304580688477,1.3147919178009033,21.717256546020508,0.3674216866493225,2.5143465995788574,-0.22098104655742645,0.0,0.0,0.0,0.0,0.0,0.0,0.0,-0.19395321156974102,0.3317072234712241,0.10516599338197044,0.44253100294599906,-0.1646703258265261,0.12472210002721937,-0.20449336875398405,0.17284458419584148,-0.4875490369964064,-0.11151287604789212,-1.946461604787592,0.13361205615599947,2.5955517795719287,0.9452480769604441,0.1728802376190821,-0.48752024683155326,-0.11147110072896137,-1.9463801863486305,0.1336059019074957,2.595550359778934,0.9452445589611904,-0.0004899172621132506,0.00024995831792531996,-0.0006831598581634574,0.0003664630037194958,-3.081555098714703e-05,0.0003716194740159797,0.0007320703498547052,0.0,0.0,0.0,0.0,0.0,0.0,0.0,3.5653423240633586e-05,2.8790164853131905e-05,4.1775318930750704e-05,8.141843896147805e-05,-6.154248503781323e-06,-1.419792994727942e-06,-3.517999253688231e-06,0.0004899172621132506,-0.00024995831792531996,0.0006831598581634574,-0.0003664630037194958,3.081555098714703e-05,-0.0003716194740159797,-0.0007320703498547052,0.17287558317184448,11.949304580688477,-1.3147919178009033,-21.717256546020508,-0.3674216866493225,-2.5143465995788574,0.22098104655742645,0
40,0.19457054138183594,-0.17287558317184448,-11.901697158813477,1.3147919178009033,21.741060256958008,0.3674216866493225,2.5271639823913574,-0.17337362468242645,0.0,0.0,0.0,0.0,0.0,0.0,0.0,-0.1905005664226241,0.3786124709274063,0.10840227530461696,0.40766999561588113,-0.1658669310132136,0.11918504690656247,-0.20492202474333845,0.17284601691286303,-0.4875523778681169,-0.11151360399076861,-1.9464632752234474,0.13361205615599947,2.5955503597789096,0.9452438468790505,0.1728802376190821,-0.48752024683155326,-0.11147110072896137,-1.9463801863486305,0.1336059019074957,2.595550359778934,0.9452445589611904,-0.0006736280039411144,-0.0013075782682087519,-6.968743889033679e-05,-1.1589540285703872e-05,4.059638844266808e-05,-9.32174689063359e-05,-0.0013191405493010848,0.0,0.0,0.0,0.0,0.0,0.0,0.0,3.4220706219084684e-05,3.213103656363181e-05,4.250326180724184e-05,8.308887481689453e-05,-6.154248503781323e-06,2.4424906541753444e-14,7.120821399198007e-07,0.0006736280039411144,0.0013075782682087519,6.968743889033679e-05,1.1589540285703872e-05,-4.059638844266808e-05,9.32174689063359e-05,0.0013191405493010848,0.17287558317184448,11.901697158813477,-1.3147919178009033,-21.741060256958008,-0.3674216866493225,-2.5271639823913574,0.17337362468242645,0
41,0.19956493377685547,-0.17287558317184448,-11.901697158813477,1.3147919178009033,21.741060256958008,0.3674216866493225,2.5271639823913574,-0.17337362468242645,0.0,0.0,0.0,0.0,0.0,0.0,0.0,-0.1905005664226241,0.3786124709274063,0.10840227530461696,0.40766999561588113,-0.1658669310132136,0.11918504690656247,-0.20492202474333845,0.17284601691286303,-0.4875523778681169,-0.11151360399076861,-1.9464632752234474,0.13361205615599947,2.5955503597789096,0.9452438468790505,0.1728802376190821,-0.48752024683155326,-0.11147110072896137,-1.9463801863486305,0.1336059019074957,2.595550359778934,0.9452445589611904,-0.0006736280039411144,-0.0013075782682087519,-6.968743889033679e-05,-1.1589540285703872e-05,4.059638844266808e-05,-9.32174689063359e-05,-0.0013191405493010848,0.0,0.0,0.0,0.0,0.0,0.0,0.0,3.4220706219084684e-05,3.213103656363181e-05,4.250326180724184e-05,8.308887481689453e-05,-6.154248503781323e-06,2.4424906541753444e-14,7.120821399198007e-07,0.0006736280039411144,0.0013075782682087519,6.968743889033679e-05,1.1589540285703872e-05,-4.059638844266808e-05,9.32174689063359e-05,0.0013191405493010848,0.17287558317184448,11.901697158813477,-1.3147919178009033,-21.741060256958008,-0.3674216866493225,-2.5271639823913574,0.17337362468242645,0
42,0.20456600189208984,-0.17287558317184448,-11.973108291625977,1.3147919178009033,21.741060256958008,0.3738303780555725,2.5271639823913574,-0.20083944499492645,0.0,0.0,0.0,0.0,0.0,0.0,0.0,-0.19670763666865665,0.3452213212672673,0.1021466592382823,0.4488256153703737,-0.16469470733331673,0.12533372442850854,-0.2055881016480508,0.17284601786138432,-0.4875473665605511,-0.11151337596489304,-1.9464632752234474,0.13361134407917655,2.5955503596174285,0.9452468986428446,0.1728802376190821,-0.48752024683155326,-0.11147110072896137,-1.9463801863486305,0.1336059019074957,2.595550359778934,0.9452445589611904,-0.0009444500291235175,0.0008339295845518311,-0.0004237824552407414,-0.0001739621981650416,-7.562003591773734e-05,-0.00016565202154241587,6.614533236685794e-05,0.0,0.0,0.0,0.0,0.0,0.0,0.0,3.4219757697795394e-05,2.7119728997826442e-05,4.227523593167137e-05,8.308887481689453e-05,-5.442171680858365e-06,1.6150547565985107e-10,-2.3396816541954024e-06,0.0009444500291235175,-0.0008339295845518311,0.0004237824552407414,0.0001739621981650416,7.562003591773734e-05,0.00016565202154241587,-6.614533236685794e-05,0.17287558317184448,11.973108291625977,-1.3147919178009033,-21.741060256958008,-0.3738303780555725,-2.5271639823913574,0.20083944499492645,0
43,0.2095646858215332,-0.17287558317184448,-11.973108291625977,1.3147919178009033,21.741060256958008,0.3738303780555725,2.5271639823913574,-0.20083944499492645,0.0,0.0,0.0,0.0,0.0,0.0,0.0,-0.19670763666865665,0.3452213212672673,0.1021466592382823,0.4488256153703737,-0.16469470733331673,0.12533372442850854,-0.2055881016480508,0.17284601786138432,-0.4875473665605511,-0.11151337596489304,-1.9464632752234474,0.13361134407917655,2.5955503596174285,0.9452468986428446,0.1728802376190821,-0.48752024683155326,-0.11147110072896137,-1.9463801863486305,0.1336059019074957,2.595550359778934,0.9452445589611904,-0.0009444500291235175,0.0008339295845518311,-0.0004237824552407414,-0.0001739621981650416,-7.562003591773734e-05,-0.00016565202154241587,6.614533236685794e-05,0.0,0.0,0.0,0.0,0.0,0.0,0.0,3.4219757697795394e-05,2.7119728997826442e-05,4.227523593167137e-05,8.308887481689453e-05,-5.442171680858365e-06,1.6150547565985107e-10,-2.3396816541954024e-06,0.0009444500291235175,-0.0008339295845518311,0.0004237824552407414,0.0001739621981650416,7.562003591773734e-05,0.00016565202154241587,-6.614533236685794e-05,0.17287558317184448,11.973108291625977,-1.3147919178009033,-21.741060256958008,-0.3738303780555725,-2.5271639823913574,0.20083944499492645,0
44,0.21456384658813477,-0.14510458707809448,-11.973108291625977,1.2909882068634033,21.741060256958008,0.3674216866493225,2.5335726737976074,-0.22098104655742645,0.0,0.0,0.0,0.0,0.0,0.0,0.0,-0.1912022501276979,0.34068935830730623,0.11126708226601816,0.4564955110567432,-0.16431180886554755,0.12588193295551262,-0.20536600241171496,0.17284263822225268,-0.4875473665605511,-0.11151194102762096,-1.9464632752234474,0.13361205615599947,2.595548588063981,0.9452491365985738,0.1728802376190821,-0.48752024683155326,-0.11147110072896137,-1.9463801863486305,0.1336059019074957,2.595550359778934,0.9452445589611904,-0.0009094757547437941,7.23545973150302e-05,0.0004242538667916958,0.00013940289818083283,0.00020085182714622162,-0.0003596799765740936,0.0013270198420944766,0.0,0.0,0.0,0.0,0.0,0.0,0.0,3.75993968294297e-05,2.7119728997826442e-05,4.0840298659597374e-05,8.308887481689453e-05,-6.154248503781323e-06,1.771714952969461e-06,-4.5776373833739115e-06,0.0009094757547437941,-7.23545973150302e-05,-0.0004242538667916958,-0.00013940289818083283,-0.00020085182714622162,0.0003596799765740936,-0.0013270198420944766,0.14510458707809448,11.973108291625977,-1.2909882068634033,-21.741060256958008,-0.3674216866493225,-2.5335726737976074,0.22098104655742645,0
45,0.21956443786621094,-0.14510458707809448,-11.973108291625977,1.2909882068634033,21.741060256958008,0.3674216866493225,2.5335726737976074,-0.22098104655742645,0.0,0.0,0.0,0.0,0.0,0.0,0.0,-0.1912022501276979,0.34068935830730623,0.11126708226601816,0.4564955110567432,-0.16431180886554755,0.12588193295551262,-0.20536600241171496,0.17284263822225268,-0.4875473665605511,-0.11151194102762096,-1.9464632752234474,0.13361205615599947,2.595548588063981,0.9452491365985738,0.1728802376190821,-0.48752024683155326,-0.11147110072896137,-1.9463801863486305,0.1336059019074957,2.595550359778934,0.9452445589611904,-0.0009094757547437941,7.23545973150302e-05,0.0004242538667916958,0.00013940289818083283,0.00020085182714622162,-0.0003596799765740936,0.0013270198420944766,0.0,0.0,0.0,0.0,0.0,0.0,0.0,3.75993968294297e-05,2.7119728997826442e-05,4.0840298659597374e-05,8.308887481689453e-05,-6.154248503781323e-06,1.771714952969461e-06,-4.5776373833739115e-06,0.0009094757547437941,-7.23545973150302e-05,-0.0004242538667916958,-0.00013940289818083283,-0.00020085182714622162,0.0003596799765740936,-0.0013270198420944766,0.14510458707809448,11.973108291625977,-1.2909882068634033,-21.741060256958008,-0.3674216866493225,-2.5335726737976074,0.22098104655742645,0
46,0.22456741333007812,-0.14510458707809448,-11.973108291625977,1.2909882068634033,21.741060256958008,0.3674216866493225,2.5335726737976074,-0.22098104655742645,0.0,0.0,0.0,0.0,0.0,0.0,0.0,-0.1912022501276979,0.34068935830730623,0.11126708226601816,0.4564955110567432,-0.16431180886554755,0.12588193295551262,-0.20536600241171496,0.17284263822225268,-0.4875473665605511,-0.11151194102762096,-1.9464632752234474,0.13361205615599947,2.595548588063981,0.9452491365985738,0.1728802376190821,-0.48752024683155326,-0.11147110072896137,-1.9463801863486305,0.1336059019074957,2.595550359778934,0.9452445589611904,-0.0009094757547437941,7.23545973150302e-05,0.0004242538667916958,0.00013940289818083283,0.00020085182714622162,-0.0003596799765740936,0.0013270198420944766,0.0,0.0,0.0,0.0,0.0,0.0,0.0,3.75993968294297e-05,2.7119728997826442e-05,4.0840298659597374e-05,8.308887481689453e-05,-6.154248503781323e-06,1.771714952969461e-06,-4.5776373833739115e-06,0.0009094757547437941,-7.23545973150302e-05,-0.0004242538667916958,-0.00013940289818083283,-0.00020085182714622162,0.0003596799765740936,-0.0013270198420944766,0.14510458707809448,11.973108291625977,-1.2909882068634033,-21.741060256958008,-0.3674216866493225,-2.5335726737976074,0.22098104655742645,0
47,0.22998595237731934,-0.14510458707809448,-11.973108291625977,1.2909882068634033,21.741060256958008,0.3674216866493225,2.5335726737976074,-0.22098104655742645,0.0,0.0,0.0,0.0,0.0,0.0,0.0,-0.1912022501276979,0.34068935830730623,0.11126708226601816,0.4564955110567432,-0.16431180886554755,0.12588193295551262,-0.20536600241171496,0.17284263822225268,-0.4875473665605511,-0.11151194102762096,-1.9464632752234474,0.13361205615599947,2.595548588063981,0.9452491365985738,0.1728802376190821,-0.48752024683155326,-0.11147110072896137,-1.9463801863486305,0.1336059019074957,2.595550359778934,0.9452445589611904,-0.0009094757547437941,7.23545973150302e-05,0.0004242538667916958,0.00013940289818083283,0.00020085182714622162,-0.0003596799765740936,0.0013270198420944766,0.0,0.0,0.0,0.0,0.0,0.0,0.0,3.75993968294297e-05,2.7119728997826442e-05,4.0840298659597374e-05,8.308887481689453e-05,-6.154248503781323e-06,1.771714952969461e-06,-4.5776373833739115e-06,0.0009094757547437941,-7.23545973150302e-05,-0.0004242538667916958,-0.00013940289818083283,-0.00020085182714622162,0.0003596799765740936,-0.0013270198420944766,0.14510458707809448,11.973108291625977,-1.2909882068634033,-21.741060256958008,-0.3674216866493225,-2.5335726737976074,0.22098104655742645,0
48,0.2345740795135498,-0.17287558317184448,-11.973108291625977,1.2909882068634033,21.717256546020508,0.3674216866493225,2.5335726737976074,-0.18710653483867645,0.0,0.0,0.0,0.0,0.0,0.0,0.0,-0.1918506991949145,0.3356357731498324,0.10761248696338824,0.45893932355449946,-0.16404019630444724,0.126570077007641,-0.20482552487846775,0.1728462229401678,-0.4875473665605511,-0.11151194200328325,-1.946461604787592,0.13361205615599947,2.5955496476961293,0.9452453727639384,0.1728802376190821,-0.48752024683155326,-0.11147110072896137,-1.9463801863486305,0.1336059019074957,2.595550359778934,0.9452445589611904,-0.0005218456007002061,-0.0005569325692303128,0.00043609012320208735,0.00035279653852056695,0.00014767363112783009,-0.0004139500436422082,-0.0005069957771879599,0.0,0.0,0.0,0.0,0.0,0.0,0.0,3.4014678914312535e-05,2.7119728997826442e-05,4.0841274321884447e-05,8.141843896147805e-05,-6.154248503781323e-06,7.120828047213479e-07,-8.138027479676069e-07,0.0005218456007002061,0.0005569325692303128,-0.00043609012320208735,-0.00035279653852056695,-0.00014767363112783009,0.0004139500436422082,0.0005069957771879599,0.17287558317184448,11.973108291625977,-1.2909882068634033,-21.717256546020508,-0.3674216866493225,-2.5335726737976074,0.18710653483867645,0
49,0.23957204818725586,-0.17287558317184448,-11.973108291625977,1.2909882068634033,21.717256546020508,0.3674216866493225,2.5335726737976074,-0.18710653483867645,0.0,0.0,0.0,0.0,0.0,0.0,0.0,-0.1918506991949145,0.3356357731498324,0.10761248696338824,0.45893932355449946,-0.16404019630444724,0.126570077007641,-0.20482552487846775,0.1728462229401678,-0.4875473665605511,-0.11151194200328325,-1.946461604787592,0.13361205615599947,2.5955496476961293,0.9452453727639384,0.1728802376190821,-0.48752024683155326,-0.11147110072896137,-1.9463801863486305,0.1336059019074957,2.595550359778934,0.9452445589611904,-0.0005218456007002061,-0.0005569325692303128,0.00043609012320208735,0.00035279653852056695,0.00014767363112783009,-0.0004139500436422082,-0.0005069957771879599,0.0,0.0,0.0,0.0,0.0,0.0,0.0,3.4014678914312535e-05,2.7119728997826442e-05,4.0841274321884447e-05,8.141843896147805e-05,-6.154248503781323e-06,7.120828047213479e-07,-8.138027479676069e-07,0.0005218456007002061,0.0005569325692303128,-0.00043609012320208735,-0.00035279653852056695,-0.00014767363112783009,0.0004139500436422082,0.0005069957771879599,0.17287558317184448,11.973108291625977,-1.2909882068634033,-21.717256546020508,-0.3674216866493225,-2.5335726737976074,0.18710653483867645,0
50,0.2445690631866455,-0.17287558317184448,-12.048486709594727,1.2909882068634033,21.741060256958008,0.3738303780555725,2.5271639823913574,-0.19351522624492645,0.0,0.0,0.0,0.0,0.0,0.0,0.0,-0.19523232559181716,0.3375264006047791,0.10245048718452869,0.45600194672070954,-0.16384611688343792,0.12635089575000621,-0.20478719715675683,0.1728466946491689,-0.48754207684700945,-0.11151194131764709,-1.9464632752234474,0.13361134407917655,2.595550359778934,0.9452460850063046,0.1728802376190821,-0.48752024683155326,-0.11147110072896137,-1.9463801863486305,0.1336059019074957,2.595550359778934,0.9452445589611904,-0.000896475794694429,0.000892195249465067,0.00011513291888948299,0.0001681369302192676,-0.0002595011049325219,-8.480574327073746e-05,8.911825049950457e-05,0.0,0.0,0.0,0.0,0.0,0.0,0.0,3.3542969913202825e-05,2.1830015456192342e-05,4.084058868572549e-05,8.308887481689453e-05,-5.442171680858365e-06,0.0,-1.5260451141640985e-06,0.000896475794694429,-0.000892195249465067,-0.00011513291888948299,-0.0001681369302192676,0.0002595011049325219,8.480574327073746e-05,-8.911825049950457e-05,0.17287558317184448,12.048486709594727,-1.2909882068634033,-21.741060256958008,-0.3738303780555725,-2.5271639823913574,0.19351522624492645,0
51,0.24999284744262695,-0.17287558317184448,-12.048486709594727,1.2909882068634033,21.741060256958008,0.3738303780555725,2.5271639823913574,-0.19351522624492645,0.0,0.0,0.0,0.0,0.0,0.0,0.0,-0.19523232559181716,0.3375264006047791,0.10245048718452869,0.45600194672070954,-0.16384611688343792,0.12635089575000621,-0.20478719715675683,0.1728466946491689,-0.48754207684700945,-0.11151194131764709,-1.9464632752234474,0.13361134407917655,2.595550359778934,0.9452460850063046,0.1728802376190821,-0.48752024683155326,-0.11147110072896137,-1.9463801863486305,0.1336059019074957,2.595550359778934,0.9452445589611904,-0.000896475794694429,0.000892195249465067,0.00011513291888948299,0.0001681369302192676,-0.0002595011049325219,-8.480574327073746e-05,8.911825049950457e-05,0.0,0.0,0.0,0.0,0.0,0.0,0.0,3.3542969913202825e-05,2.1830015456192342e-05,4.084058868572549e-05,8.308887481689453e-05,-5.442171680858365e-06,0.0,-1.5260451141640985e-06,0.000896475794694429,-0.000892195249465067,-0.00011513291888948299,-0.0001681369302192676,0.0002595011049325219,8.480574327073746e-05,-8.911825049950457e-05,0.17287558317184448,12.048486709594727,-1.2909882068634033,-21.741060256958008,-0.3738303780555725,-2.5271639823913574,0.19351522624492645,0
52,0.2545654773712158,-0.17287558317184448,-12.024682998657227,1.3147919178009033,21.717256546020508,0.3674216866493225,2.5207552909851074,-0.21457235515117645,0.0,0.0,0.0,0.0,0.0,0.0,0.0,-0.18992630120768073,0.33563999627275554,0.11166145945954577,0.45015686405960054,-0.1646776011822554,0.12527794237448997,-0.20434226816623663,0.1728445581676579,-0.4875437472828647,-0.11151148092353416,-1.946461604787592,0.13361205615599947,2.595551071855757,0.9452484245217517,0.1728802376190821,-0.48752024683155326,-0.11147110072896137,-1.9463801863486305,0.1336059019074957,2.595550359778934,0.9452445589611904,-0.0007238310561762561,-0.00020492671601174384,6.111037907684835e-05,0.0002065674846223029,0.0001288631096579528,0.0002559745108068809,0.0008204553595786155,0.0,0.0,0.0,0.0,0.0,0.0,0.0,3.567945142421425e-05,2.3500451311442294e-05,4.038019457279496e-05,8.141843896147805e-05,-6.154248503781323e-06,-7.120768228396912e-07,-3.865560561311376e-06,0.0007238310561762561,0.00020492671601174384,-6.111037907684835e-05,-0.0002065674846223029,-0.0001288631096579528,-0.0002559745108068809,-0.0008204553595786155,0.17287558317184448,12.024682998657227,-1.3147919178009033,-21.717256546020508,-0.3674216866493225,-2.5207552909851074,0.21457235515117645,0
53,0.2595789432525635,-0.17287558317184448,-12.024682998657227,1.3147919178009033,21.717256546020508,0.3674216866493225,2.5207552909851074,-0.21457235515117645,0.0,0.0,0.0,0.0,0.0,0.0,0.0,-0.18992630120768073,0.33563999627275554,0.11166145945954577,0.45015686405960054,-0.1646776011822554,0.12527794237448997,-0.20434226816623663,0.1728445581676579,-0.4875437472828647,-0.11151148092353416,-1.946461604787592,0.13361205615599947,2.595551071855757,0.9452484245217517,0.1728802376190821,-0.48752024683155326,-0.11147110072896137,-1.9463801863486305,0.1336059019074957,2.595550359778934,0.9452445589611904,-0.0007238310561762561,-0.00020492671601174384,6.111037907684835e-05,0.0002065674846223029,0.0001288631096579528,0.0002559745108068809,0.0008204553595786155,0.0,0.0,0.0,0.0,0.0,0.0,0.0,3.567945142421425e-05,2.3500451311442294e-05,4.038019457279496e-05,8.141843896147805e-05,-6.154248503781323e-06,-7.120768228396912e-07,-3.865560561311376e-06,0.0007238310561762561,0.00020492671601174384,-6.111037907684835e-05,-0.0002065674846223029,-0.0001288631096579528,-0.0002559745108068809,-0.0008204553595786155,0.17287558317184448,12.024682998657227,-1.3147919178009033,-21.717256546020508,-0.3674216866493225,-2.5207552909851074,0.21457235515117645,0
54,0.26456522941589355,-0.19667929410934448,-12.048486709594727,1.2671844959259033,21.717256546020508,0.3674216866493225,2.5399813652038574,-0.17337362468242645,0.0,0.0,0.0,0.0,0.0,0.0,0.0,-0.1972075968292984,0.32830108797027235,0.10006090088813278,0.44576307622774874,-0.1643077057789965,0.12546615453652848,-0.20435690599339582,0.17284555538571267,-0.48754207684700945,-0.1115095615914951,-1.946461604787592,0.13361205615599947,2.595548922543336,0.9452438468850322,0.1728802376190821,-0.48752024683155326,-0.11147110072896137,-1.9463801863486305,0.1336059019074957,2.595550359778934,0.9452445589611904,-0.0003529672661900099,0.00027195848638093633,0.000316788677904624,-6.460959664950918e-05,3.5599768087122485e-05,-0.00028204103385031694,-0.0008458344843997245,0.0,0.0,0.0,0.0,0.0,0.0,0.0,3.468223336944298e-05,2.1830015456192342e-05,3.8460862533729046e-05,8.141843896147805e-05,-6.154248503781323e-06,1.4372355980896145e-06,7.120761582601887e-07,0.0003529672661900099,-0.00027195848638093633,-0.000316788677904624,6.460959664950918e-05,-3.5599768087122485e-05,0.00028204103385031694,0.0008458344843997245,0.19667929410934448,12.048486709594727,-1.2671844959259033,-21.717256546020508,-0.3674216866493225,-2.5399813652038574,0.17337362468242645,0
55,0.26956820487976074,-0.19667929410934448,-12.048486709594727,1.2671844959259033,21.717256546020508,0.3674216866493225,2.5399813652038574,-0.17337362468242645,0.0,0.0,0.0,0.0,0.0,0.0,0.0,-0.1972075968292984,0.32830108797027235,0.10006090088813278,0.44576307622774874,-0.1643077057789965,0.12546615453652848,-0.20435690599339582,0.17284555538571267,-0.48754207684700945,-0.1115095615914951,-1.946461604787592,0.13361205615599947,2.595548922543336,0.9452438468850322,0.1728802376190821,-0.48752024683155326,-0.11147110072896137,-1.9463801863486305,0.1336059019074957,2.595550359778934,0.9452445589611904,-0.0003529672661900099,0.00027195848638093633,0.000316788677904624,-6.460959664950918e-05,3.5599768087122485e-05,-0.00028204103385031694,-0.0008458344843997245,0.0,0.0,0.0,0.0,0.0,0.0,0.0,3.468223336944298e-05,2.1830015456192342e-05,3.8460862533729046e-05,8.141843896147805e-05,-6.154248503781323e-06,1.4372355980896145e-06,7.120761582601887e-07,0.0003529672661900099,-0.00027195848638093633,-0.000316788677904624,6.460959664950918e-05,-3.5599768087122485e-05,0.00028204103385031694,0.0008458344843997245,0.19667929410934448,12.048486709594727,-1.2671844959259033,-21.717256546020508,-0.3674216866493225,-2.5399813652038574,0.17337362468242645,0
56,0.2745649814605713,-0.19667929410934448,-12.000879287719727,1.2671844959259033,21.741060256958008,0.3738303780555725,2.5271639823913574,-0.16604940593242645,0.0,0.0,0.0,0.0,0.0,0.0,0.0,-0.19619540816339753,0.32242368263434784,0.1007151125745667,0.44276644360810746,-0.1644287810064309,0.12612517790517216,-0.20504582502372717,0.17284848219197368,-0.48754541771871995,-0.11151026864042697,-1.9464632752234474,0.13361134407917655,2.5955503597788603,0.9452430330829488,0.1728802376190821,-0.48752024683155326,-0.11147110072896137,-1.9463801863486305,0.1336059019074957,2.595550359778934,0.9452445589611904,-5.471321719245985e-05,-0.0004799844765324828,0.0003115313465699984,-0.0002800440314384748,-0.00012380043610473265,-0.00012327268123267935,-0.0013856529529315026,0.0,0.0,0.0,0.0,0.0,0.0,0.0,3.175542710842638e-05,2.5170887166692246e-05,3.9167911465604055e-05,8.308887481689453e-05,-5.442171680858365e-06,7.37188088351104e-14,1.525878241648293e-06,5.471321719245985e-05,0.0004799844765324828,-0.0003115313465699984,0.0002800440314384748,0.00012380043610473265,0.00012327268123267935,0.0013856529529315026,0.19667929410934448,12.000879287719727,-1.2671844959259033,-21.741060256958008,-0.3738303780555725,-2.5271639823913574,0.16604940593242645,0
57,0.27956557273864746,-0.19667929410934448,-12.000879287719727,1.2671844959259033,21.741060256958008,0.3738303780555725,2.5271639823913574,-0.16604940593242645,0.0,0.0,0.0,0.0,0.0,0.0,0.0,-0.19619540816339753,0.32242368263434784,0.1007151125745667,0.44276644360810746,-0.1644287810064309,0.12612517790517216,-0.20504582502372717,0.17284848219197368,-0.48754541771871995,-0.11151026864042697,-1.9464632752234474,0.13361134407917655,2.5955503597788603,0.9452430330829488,0.1728802376190821,-0.48752024683155326,-0.11147110072896137,-1.9463801863486305,0.1336059019074957,2.595550359778934,0.9452445589611904,-5.471321719245985e-05,-0.0004799844765324828,0.0003115313465699984,-0.0002800440314384748,-0.00012380043610473265,-0.00012327268123267935,-0.0013856529529315026,0.0,0.0,0.0,0.0,0.0,0.0,0.0,3.175542710842638e-05,2.5170887166692246e-05,3.9167911465604055e-05,8.308887481689453e-05,-5.442171680858365e-06,7.37188088351104e-14,1.525878241648293e-06,5.471321719245985e-05,0.0004799844765324828,-0.0003115313465699984,0.0002800440314384748,0.00012380043610473265,0.00012327268123267935,0.0013856529529315026,0.19667929410934448,12.000879287719727,-1.2671844959259033,-21.741060256958008,-0.3738303780555725,-2.5271639823913574,0.16604940593242645,0
58,0.28456974029541016,-0.22445029020309448,-11.949304580688477,1.2671844959259033,21.717256546020508,0.3674216866493225,2.5271639823913574,-0.17978231608867645,0.0,0.0,0.0,0.0,0.0,0.0,0.0,-0.1907192484574828,0.3294755813094967,0.1047384967036736,0.4358074444507723,-0.16447170238402722,0.12521566280451457,-0.20584842899512665,0.17284826537654233,-0.4875490369964064,-0.11150806206909264,-1.946461604787592,0.13361205615599947,2.595550359778934,0.945244558961855,0.1728802376190821,-0.48752024683155326,-0.11147110072896137,-1.9463801863486305,0.1336059019074957,2.595550359778934,0.9452445589611904,0.0011701885329818333,-0.0008729646094028455,0.0008551187138351145,0.0002969556090506597,0.00016995415843629167,-7.948762526154095e-05,-0.00017109133613373576,0.0,0.0,0.0,0.0,0.0,0.0,0.0,3.1972242539785034e-05,2.8790164853131905e-05,3.696134013127239e-05,8.141843896147805e-05,-6.154248503781323e-06,0.0,-6.645795025406187e-13,-0.0011701885329818333,0.0008729646094028455,-0.0008551187138351145,-0.0002969556090506597,-0.00016995415843629167,7.948762526154095e-05,0.00017109133613373576,0.22445029020309448,11.949304580688477,-1.2671844959259033,-21.717256546020508,-0.3674216866493225,-2.5271639823913574,0.17978231608867645,0
59,0.2895939350128174,-0.22445029020309448,-11.949304580688477,1.2671844959259033,21.717256546020508,0.3674216866493225,2.5271639823913574,-0.17978231608867645,0.0,0.0,0.0,0.0,0.0,0.0,0.0,-0.1907192484574828,0.3294755813094967,0.1047384967036736,0.4358074444507723,-0.16447170238402722,0.12521566280451457,-0.20584842899512665,0.17284826537654233,-0.4875490369964064,-0.11150806206909264,-1.946461604787592,0.13361205615599947,2.595550359778934,0.945244558961855,0.1728802376190821,-0.48752024683155326,-0.11147110072896137,-1.9463801863486305,0.1336059019074957,2.595550359778934,0.9452445589611904,0.0011701885329818333,-0.0008729646094028455,0.0008551187138351145,0.0002969556090506597,0.00016995415843629167,-7.948762526154095e-05,-0.00017109133613373576,0.0,0.0,0.0,0.0,0.0,0.0,0.0,3.1972242539785034e-05,2.8790164853131905e-05,3.696134013127239e-05,8.141843896147805e-05,-6.154248503781323e-06,0.0,-6.645795025406187e-13,-0.0011701885329818333,0.0008729646094028455,-0.0008551187138351145,-0.0002969556090506597,-0.00016995415843629167,7.948762526154095e-05,0.00017109133613373576,0.22445029020309448,11.949304580688477,-1.2671844959259033,-21.717256546020508,-0.3674216866493225,-2.5271639823913574,0.17978231608867645,0
60,0.2945845127105713,-0.19667929410934448,-11.949304580688477,1.2671844959259033,21.693452835083008,0.3674216866493225,2.5271639823913574,-0.20083944499492645,0.0,0.0,0.0,0.0,0.0,0.0,0.0,-0.1954648153345667,0.3232294729402293,0.09520549608077956,0.4417152718396912,-0.16391444824180004,0.12576649049139368,-0.2051087358679318,0.17284575497514484,-0.4875490369964064,-0.11151027086931914,-1.9464599343517368,0.13361205615599947,2.595550359778934,0.9452468986428446,0.1728802376190821,-0.48752024683155326,-0.11147110072896137,-1.9463801863486305,0.1336059019074957,2.595550359778934,0.9452445589611904,-0.00018198755447992572,-0.000411107482129719,0.0003437997098266298,0.00111332286814648,0.00018250138282970514,-0.00010782675314189516,0.00017816691597176464,0.0,0.0,0.0,0.0,0.0,0.0,0.0,3.4482643937266966e-05,2.8790164853131905e-05,3.917014035777211e-05,7.97480031062836e-05,-6.154248503781323e-06,0.0,-2.3396816541954024e-06,0.00018198755447992572,0.000411107482129719,-0.0003437997098266298,-0.00111332286814648,-0.00018250138282970514,0.00010782675314189516,-0.00017816691597176464,0.19667929410934448,11.949304580688477,-1.2671844959259033,-21.693452835083008,-0.3674216866493225,-2.5271639823913574,0.20083944499492645,0
61,0.29958343505859375,-0.19667929410934448,-11.949304580688477,1.2671844959259033,21.693452835083008,0.3674216866493225,2.5271639823913574,-0.20083944499492645,0.0,0.0,0.0,0.0,0.0,0.0,0.0,-0.1954648153345667,0.3232294729402293,0.09520549608077956,0.4417152718396912,-0.16391444824180004,0.12576649049139368,-0.2051087358679318,0.17284575497514484,-0.4875490369964064,-0.11151027086931914,-1.9464599343517368,0.13361205615599947,2.595550359778934,0.9452468986428446,0.1728802376190821,-0.48752024683155326,-0.11147110072896137,-1.9463801863486305,0.1336059019074957,2.595550359778934,0.9452445589611904,-0.00018198755447992572,-0.000411107482129719,0.0003437997098266298,0.00111332286814648,0.00018250138282970514,-0.00010782675314189516,0.00017816691597176464,0.0,0.0,0.0,0.0,0.0,0.0,0.0,3.4482643937266966e-05,2.8790164853131905e-05,3.917014035777211e-05,7.97480031062836e-05,-6.154248503781323e-06,0.0,-2.3396816541954024e-06,0.00018198755447992572,0.000411107482129719,-0.0003437997098266298,-0.00111332286814648,-0.00018250138282970514,0.00010782675314189516,-0.00017816691597176464,0.19667929410934448,11.949304580688477,-1.2671844959259033,-21.693452835083008,-0.3674216866493225,-2.5271639823913574,0.20083944499492645,0
62,0.3045656681060791,-0.17287558317184448,-11.949304580688477,1.2909882068634033,21.768831253051758,0.3674216866493225,2.5271639823913574,-0.17337362468242645,0.0,0.0,0.0,0.0,0.0,0.0,0.0,-0.18696720673432227,0.3371018717573683,0.10672128119953558,0.4389741245502406,-0.16484439187933805,0.12485518301228306,-0.20438077488101913,0.17284392795393344,-0.4875490369964064,-0.11151191598498778,-1.9464652240652784,0.13361205615599947,2.595550359778934,0.9452438468850322,0.1728802376190821,-0.48752024683155326,-0.11147110072896137,-1.9463801863486305,0.1336059019074957,2.595550359778934,0.9452445589611904,1.5336193120596704e-05,1.3493568937281114e-05,0.00031253198677734295,-0.0011285089577631597,-2.156035610165437e-05,-0.00013650930742028055,-0.0012330326915837451,0.0,0.0,0.0,0.0,0.0,0.0,0.0,3.630966514867051e-05,2.8790164853131905e-05,4.081525602640801e-05,8.50377166479177e-05,-6.154248503781323e-06,0.0,7.120761582601887e-07,-1.5336193120596704e-05,-1.3493568937281114e-05,-0.00031253198677734295,0.0011285089577631597,2.156035610165437e-05,0.00013650930742028055,0.0012330326915837451,0.17287558317184448,11.949304580688477,-1.2909882068634033,-21.768831253051758,-0.3674216866493225,-2.5271639823913574,0.17337362468242645,0
63,0.3095715045928955,-0.17287558317184448,-11.949304580688477,1.2909882068634033,21.768831253051758,0.3674216866493225,2.5271639823913574,-0.17337362468242645,0.0,0.0,0.0,0.0,0.0,0.0,0.0,-0.18696720673432227,0.3371018717573683,0.10672128119953558,0.4389741245502406,-0.16484439187933805,0.12485518301228306,-0.20438077488101913,0.17284392795393344,-0.4875490369964064,-0.11151191598498778,-1.9464652240652784,0.13361205615599947,2.595550359778934,0.9452438468850322,0.1728802376190821,-0.48752024683155326,-0.11147110072896137,-1.9463801863486305,0.1336059019074957,2.595550359778934,0.9452445589611904,1.5336193120596704e-05,1.3493568937281114e-05,0.00031253198677734295,-0.0011285089577631597,-2.156035610165437e-05,-0.00013650930742028055,-0.0012330326915837451,0.0,0.0,0.0,0.0,0.0,0.0,0.0,3.630966514867051e-05,2.8790164853131905e-05,4.081525602640801e-05,8.50377166479177e-05,-6.154248503781323e-06,0.0,7.120761582601887e-07,-1.5336193120596704e-05,-1.3493568937281114e-05,-0.00031253198677734295,0.0011285089577631597,2.156035610165437e-05,0.00013650930742028055,0.0012330326915837451,0.17287558317184448,11.949304580688477,-1.2909882068634033,-21.768831253051758,-0.3674216866493225,-2.5271639823913574,0.17337362468242645,0
64,0.31457948684692383,-0.19667929410934448,-11.973108291625977,1.2909882068634033,21.693452835083008,0.3793235421180725,2.5335726737976074,-0.17337362468242645,0.0,0.0,0.0,0.0,0.0,0.0,0.0,-0.18881188689808656,0.34660317019600717,0.09894658713741458,0.43802774299977254,-0.16476123723059202,0.12486490555676591,-0.20501475358720797,0.17284552796490005,-0.4875473665605511,-0.11151193355892343,-1.9464599343517368,0.13361073372761406,2.595549647702111,0.9452438468850322,0.1728802376190821,-0.48752024683155326,-0.11147110072896137,-1.9463801863486305,0.1336059019074957,2.595550359778934,0.9452445589611904,0.0007872756782799279,0.0008411307340512288,-3.713236928467384e-05,0.000811790729789291,-0.00036479592883237707,-0.00037374562249521155,-0.0011886404492133123,0.0,0.0,0.0,0.0,0.0,0.0,0.0,3.470965418206351e-05,2.7119728997826442e-05,4.0832829962061945e-05,7.97480031062836e-05,-4.831820118372798e-06,7.120768228396912e-07,7.120761582601887e-07,-0.0007872756782799279,-0.0008411307340512288,3.713236928467384e-05,-0.000811790729789291,0.00036479592883237707,0.00037374562249521155,0.0011886404492133123,0.19667929410934448,11.973108291625977,-1.2909882068634033,-21.693452835083008,-0.3793235421180725,-2.5335726737976074,0.17337362468242645,0
65,0.31957125663757324,-0.19667929410934448,-11.973108291625977,1.2909882068634033,21.693452835083008,0.3793235421180725,2.5335726737976074,-0.17337362468242645,0.0,0.0,0.0,0.0,0.0,0.0,0.0,-0.18881188689808656,0.34660317019600717,0.09894658713741458,0.43802774299977254,-0.16476123723059202,0.12486490555676591,-0.20501475358720797,0.17284552796490005,-0.4875473665605511,-0.11151193355892343,-1.9464599343517368,0.13361073372761406,2.595549647702111,0.9452438468850322,0.1728802376190821,-0.48752024683155326,-0.11147110072896137,-1.9463801863486305,0.1336059019074957,2.595550359778934,0.9452445589611904,0.0007872756782799279,0.0008411307340512288,-3.713236928467384e-05,0.000811790729789291,-0.00036479592883237707,-0.00037374562249521155,-0.0011886404492133123,0.0,0.0,0.0,0.0,0.0,0.0,0.0,3.470965418206351e-05,2.7119728997826442e-05,4.0832829962061945e-05,7.97480031062836e-05,-4.831820118372798e-06,7.120768228396912e-07,7.120761582601887e-07,-0.0007872756782799279,-0.0008411307340512288,3.713236928467384e-05,-0.000811790729789291,0.00036479592883237707,0.00037374562249521155,0.0011886404492133123,0.19667929410934448,11.973108291625977,-1.2909882068634033,-21.693452835083008,-0.3793235421180725,-2.5335726737976074,0.17337362468242645,0
66,0.3245697021484375,-0.22445029020309448,-12.000879287719727,1.2909882068634033,21.717256546020508,0.3738303780555725,2.5271639823913574,-0.18710653483867645,0.0,0.0,0.0,0.0,0.0,0.0,0.0,-0.18912381475189086,0.3419371406910868,0.09689971927762311,0.44397422306492745,-0.16434438095566625,0.12570918292780553,-0.2062002764541012,0.1728475563453097,-0.48754541771871995,-0.11151123203933515,-1.946461604787592,0.13361134407917655,2.595550359778934,0.9452453727639384,0.1728802376190821,-0.48752024683155326,-0.11147110072896137,-1.9463801863486305,0.1336059019074957,2.595550359778934,0.9452445589611904,0.0006532841697770342,0.0005858576528431491,0.00018664572270640073,0.00027394365001875065,-0.0003030914617550958,-4.91927303826141e-05,-0.0007986848696773803,0.0,0.0,0.0,0.0,0.0,0.0,0.0,3.2681273772400266e-05,2.5170887166692246e-05,4.013131037378104e-05,8.141843896147805e-05,-5.442171680858365e-06,0.0,-8.138027479676069e-07,-0.0006532841697770342,-0.0005858576528431491,-0.00018664572270640073,-0.00027394365001875065,0.0003030914617550958,4.91927303826141e-05,0.0007986848696773803,0.22445029020309448,12.000879287719727,-1.2909882068634033,-21.717256546020508,-0.3738303780555725,-2.5271639823913574,0.18710653483867645,0
67,0.32956361770629883,-0.22445029020309448,-12.000879287719727,1.2909882068634033,21.717256546020508,0.3738303780555725,2.5271639823913574,-0.18710653483867645,0.0,0.0,0.0,0.0,0.0,0.0,0.0,-0.18912381475189086,0.3419371406910868,0.09689971927762311,0.44397422306492745,-0.16434438095566625,0.12570918292780553,-0.2062002764541012,0.1728475563453097,-0.48754541771871995,-0.11151123203933515,-1.946461604787592,0.13361134407917655,2.595550359778934,0.9452453727639384,0.1728802376190821,-0.48752024683155326,-0.11147110072896137,-1.9463801863486305,0.1336059019074957,2.595550359778934,0.9452445589611904,0.0006532841697770342,0.0005858576528431491,0.00018664572270640073,0.00027394365001875065,-0.0003030914617550958,-4.91927303826141e-05,-0.0007986848696773803,0.0,0.0,0.0,0.0,0.0,0.0,0.0,3.2681273772400266e-05,2.5170887166692246e-05,4.013131037378104e-05,8.141843896147805e-05,-5.442171680858365e-06,0.0,-8.138027479676069e-07,-0.0006532841697770342,-0.0005858576528431491,-0.00018664572270640073,-0.00027394365001875065,0.0003030914617550958,4.91927303826141e-05,0.0007986848696773803,0.22445029020309448,12.000879287719727,-1.2909882068634033,-21.717256546020508,-0.3738303780555725,-2.5271639823913574,0.18710653483867645,0
68,0.33458518981933594,-0.24825400114059448,-12.000879287719727,1.3147919178009033,21.768831253051758,0.3619285225868225,2.5271639823913574,-0.22098104655742645,0.0,0.0,0.0,0.0,0.0,0.0,0.0,-0.19306004061197146,0.34205228274091537,0.09594139531240232,0.44337263160947693,-0.16439347114125843,0.12592342127293024,-0.20738681393187347,0.17284945628357076,-0.48754541771871995,-0.11151361243513626,-1.9464652240652784,0.13361266650756198,2.595550359778934,0.9452491365985738,0.1728802376190821,-0.48752024683155326,-0.11147110072896137,-1.9463801863486305,0.1336059019074957,2.595550359778934,0.9452445589611904,0.0008727930225351639,-2.792489097977333e-05,-0.000706792259909269,-0.001072280859848584,0.0003960380830734417,0.00011800825013912264,0.0007295856645256405,0.0,0.0,0.0,0.0,0.0,0.0,0.0,3.078133551134843e-05,2.5170887166692246e-05,4.251170617489142e-05,8.50377166479177e-05,-6.764600066294646e-06,0.0,-4.5776373833739115e-06,-0.0008727930225351639,2.792489097977333e-05,0.000706792259909269,0.001072280859848584,-0.0003960380830734417,-0.00011800825013912264,-0.0007295856645256405,0.24825400114059448,12.000879287719727,-1.3147919178009033,-21.768831253051758,-0.3619285225868225,-2.5271639823913574,0.22098104655742645,0
69,0.3395659923553467,-0.24825400114059448,-12.000879287719727,1.3147919178009033,21.768831253051758,0.3619285225868225,2.5271639823913574,-0.22098104655742645,0.0,0.0,0.0,0.0,0.0,0.0,0.0,-0.19306004061197146,0.34205228274091537,0.09594139531240232,0.44337263160947693,-0.16439347114125843,0.12592342127293024,-0.20738681393187347,0.17284945628357076,-0.48754541771871995,-0.11151361243513626,-1.9464652240652784,0.13361266650756198,2.595550359778934,0.9452491365985738,0.1728802376190821,-0.48752024683155326,-0.11147110072896137,-1.9463801863486305,0.1336059019074957,2.595550359778934,0.9452445589611904,0.0008727930225351639,-2.792489097977333e-05,-0.000706792259909269,-0.001072280859848584,0.0003960380830734417,0.00011800825013912264,0.0007295856645256405,0.0,0.0,0.0,0.0,0.0,0.0,0.0,3.078133551134843e-05,2.5170887166692246e-05,4.251170617489142e-05,8.50377166479177e-05,-6.764600066294646e-06,0.0,-4.5776373833739115e-06,-0.0008727930225351639,2.792489097977333e-05,0.000706792259909269,0.001072280859848584,-0.0003960380830734417,-0.00011800825013912264,-0.0007295856645256405,0.24825400114059448,12.000879287719727,-1.3147919178009033,-21.768831253051758,-0.3619285225868225,-2.5271639823913574,0.22098104655742645,0
70,0.34456467628479004,-0.22445029020309448,-12.024682998657227,1.2909882068634033,21.741060256958008,0.3674216866493225,2.5143465995788574,-0.15964071452617645,0.0,0.0,0.0,0.0,0.0,0.0,0.0,-0.18627068889937298,0.339370261337672,0.10788996569142,0.44562322120955267,-0.16494355990189577,0.12668029700792185,-0.20798227613108264,0.1728475716110142,-0.4875437472828647,-0.11151194232806637,-1.9464632752234474,0.13361205615599947,2.5955517839325797,0.9452423210061258,0.1728802376190821,-0.48752024683155326,-0.11147110072896137,-1.9463801863486305,0.1336059019074957,2.595550359778934,0.9452445589611904,0.0013779646130304495,0.0004446847844829668,0.00019014392523579451,0.0003513634481963429,4.2897203432619e-05,0.00044373569597614976,-0.0016671593964889767,0.0,0.0,0.0,0.0,0.0,0.0,0.0,3.266600806792197e-05,2.3500451311442294e-05,4.0841599105001514e-05,8.308887481689453e-05,-6.154248503781323e-06,-1.4241536456793824e-06,2.2379550645990065e-06,-0.0013779646130304495,-0.0004446847844829668,-0.00019014392523579451,-0.0003513634481963429,-4.2897203432619e-05,-0.00044373569597614976,0.0016671593964889767,0.22445029020309448,12.024682998657227,-1.2909882068634033,-21.741060256958008,-0.3674216866493225,-2.5143465995788574,0.15964071452617645,0
71,0.34957051277160645,-0.22445029020309448,-12.024682998657227,1.2909882068634033,21.741060256958008,0.3674216866493225,2.5143465995788574,-0.15964071452617645,0.0,0.0,0.0,0.0,0.0,0.0,0.0,-0.18627068889937298,0.339370261337672,0.10788996569142,0.44562322120955267,-0.16494355990189577,0.12668029700792185,-0.20798227613108264,0.1728475716110142,-0.4875437472828647,-0.11151194232806637,-1.9464632752234474,0.13361205615599947,2.5955517839325797,0.9452423210061258,0.1728802376190821,-0.48752024683155326,-0.11147110072896137,-1.9463801863486305,0.1336059019074957,2.595550359778934,0.9452445589611904,0.0013779646130304495,0.0004446847844829668,0.00019014392523579451,0.0003513634481963429,4.2897203432619e-05,0.00044373569597614976,-0.0016671593964889767,0.0,0.0,0.0,0.0,0.0,0.0,0.0,3.266600806792197e-05,2.3500451311442294e-05,4.0841599105001514e-05,8.308887481689453e-05,-6.154248503781323e-06,-1.4241536456793824e-06,2.2379550645990065e-06,-0.0013779646130304495,-0.0004446847844829668,-0.00019014392523579451,-0.0003513634481963429,-4.2897203432619e-05,-0.00044373569597614976,0.0016671593964889767,0.22445029020309448,12.024682998657227,-1.2909882068634033,-21.741060256958008,-0.3674216866493225,-2.5143465995788574,0.15964071452617645,0
72,0.35458922386169434,-0.22445029020309448,-12.024682998657227,1.2909882068634033,21.741060256958008,0.3674216866493225,2.5143465995788574,-0.15964071452617645,0.0,0.0,0.0,0.0,0.0,0.0,0.0,-0.18627068889937298,0.339370261337672,0.10788996569142,0.44562322120955267,-0.16494355990189577,0.12668029700792185,-0.20798227613108264,0.1728475716110142,-0.4875437472828647,-0.11151194232806637,-1.9464632752234474,0.13361205615599947,2.5955517839325797,0.9452423210061258,0.1728802376190821,-0.48752024683155326,-0.11147110072896137,-1.9463801863486305,0.1336059019074957,2.595550359778934,0.9452445589611904,0.0013779646130304495,0.0004446847844829668,0.00019014392523579451,0.0003513634481963429,4.2897203432619e-05,0.00044373569597614976,-0.0016671593964889767,0.0,0.0,0.0,0.0,0.0,0.0,0.0,3.266600806792197e-05,2.3500451311442294e-05,4.0841599105001514e-05,8.308887481689453e-05,-6.154248503781323e-06,-1.4241536456793824e-06,2.2379550645990065e-06,-0.0013779646130304495,-0.0004446847844829668,-0.00019014392523579451,-0.0003513634481963429,-4.2897203432619e-05,-0.00044373569597614976,0.0016671593964889767,0.22445029020309448,12.024682998657227,-1.2909882068634033,-21.741060256958008,-0.3674216866493225,-2.5143465995788574,0.15964071452617645,0
73,0.3596038818359375,-0.22445029020309448,-12.024682998657227,1.2909882068634033,21.741060256958008,0.3674216866493225,2.5143465995788574,-0.15964071452617645,0.0,0.0,0.0,0.0,0.0,0.0,0.0,-0.18627068889937298,0.339370261337672,0.10788996569142,0.44562322120955267,-0.16494355990189577,0.12668029700792185,-0.20798227613108264,0.1728475716110142,-0.4875437472828647,-0.11151194232806637,-1.9464632752234474,0.13361205615599947,2.5955517839325797,0.9452423210061258,0.1728802376190821,-0.48752024683155326,-0.11147110072896137,-1.9463801863486305,0.1336059019074957,2.595550359778934,0.9452445589611904,0.0013779646130304495,0.0004446847844829668,0.00019014392523579451,0.0003513634481963429,4.2897203432619e-05,0.00044373569597614976,-0.0016671593964889767,0.0,0.0,0.0,0.0,0.0,0.0,0.0,3.266600806792197e-05,2.3500451311442294e-05,4.0841599105001514e-05,8.308887481689453e-05,-6.154248503781323e-06,-1.4241536456793824e-06,2.2379550645990065e-06,-0.0013779646130304495,-0.0004446847844829668,-0.00019014392523579451,-0.0003513634481963429,-4.2897203432619e-05,-0.00044373569597614976,0.0016671593964889767,0.22445029020309448,12.024682998657227,-1.2909882068634033,-21.741060256958008,-0.3674216866493225,-2.5143465995788574,0.15964071452617645,0
74,0.3645749092102051,-0.17287558317184448,-12.024682998657227,1.2433807849884033,21.717256546020508,0.3674216866493225,2.5207552909851074,-0.16604940593242645,0.0,0.0,0.0,0.0,0.0,0.0,0.0,-0.19582403653681393,0.3434791933762477,0.08938595889034404,0.44059722550515196,-0.1641538404616161,0.12564599073985386,-0.20813530536507815,0.17284388389749236,-0.4875437472828647,-0.11150786486068585,-1.946461604787592,0.13361205615599947,2.595551071855757,0.9452430330829488,0.1728802376190821,-0.48752024683155326,-0.11147110072896137,-1.9463801863486305,0.1336059019074957,2.595550359778934,0.9452445589611904,-0.0012981410663950666,0.0001284526642725952,0.0007778820313797595,0.0004664218892507176,0.00011035361207179398,9.711270664567416e-05,-0.0012135264496890828,0.0,0.0,0.0,0.0,0.0,0.0,0.0,3.6353721589749144e-05,2.3500451311442294e-05,3.6764131724487115e-05,8.141843896147805e-05,-6.154248503781323e-06,-7.120768228396912e-07,1.525878241648293e-06,0.0012981410663950666,-0.0001284526642725952,-0.0007778820313797595,-0.0004664218892507176,-0.00011035361207179398,-9.711270664567416e-05,0.0012135264496890828,0.17287558317184448,12.024682998657227,-1.2433807849884033,-21.717256546020508,-0.3674216866493225,-2.5207552909851074,0.16604940593242645,0
75,0.3695657253265381,-0.17287558317184448,-12.024682998657227,1.2433807849884033,21.717256546020508,0.3674216866493225,2.5207552909851074,-0.16604940593242645,0.0,0.0,0.0,0.0,0.0,0.0,0.0,-0.19582403653681393,0.3434791933762477,0.08938595889034404,0.44059722550515196,-0.1641538404616161,0.12564599073985386,-0.20813530536507815,0.17284388389749236,-0.4875437472828647,-0.11150786486068585,-1.946461604787592,0.13361205615599947,2.595551071855757,0.9452430330829488,0.1728802376190821,-0.48752024683155326,-0.11147110072896137,-1.9463801863486305,0.1336059019074957,2.595550359778934,0.9452445589611904,-0.0012981410663950666,0.0001284526642725952,0.0007778820313797595,0.0004664218892507176,0.00011035361207179398,9.711270664567416e-05,-0.0012135264496890828,0.0,0.0,0.0,0.0,0.0,0.0,0.0,3.6353721589749144e-05,2.3500451311442294e-05,3.6764131724487115e-05,8.141843896147805e-05,-6.154248503781323e-06,-7.120768228396912e-07,1.525878241648293e-06,0.0012981410663950666,-0.0001284526642725952,-0.0007778820313797595,-0.0004664218892507176,-0.00011035361207179398,-9.711270664567416e-05,0.0012135264496890828,0.17287558317184448,12.024682998657227,-1.2433807849884033,-21.717256546020508,-0.3674216866493225,-2.5207552909851074,0.16604940593242645,0
76,0.37457752227783203,-0.22445029020309448,-12.000879287719727,1.2909882068634033,21.693452835083008,0.3738303780555725,2.5271639823913574,-0.22830526530742645,0.0,0.0,0.0,0.0,0.0,0.0,0.0,-0.19249574597952446,0.3431219109674396,0.09819229995432137,0.4365438745648629,-0.16447850438555753,0.12461066482204293,-0.20781109946988996,0.17284842313568435,-0.48754541771871995,-0.11151170555175886,-1.9464599343517368,0.13361134407917655,2.595550359778934,0.9452499504006571,0.1728802376190821,-0.48752024683155326,-0.11147110072896137,-1.9463801863486305,0.1336059019074957,2.595550359778934,0.9452445589611904,0.0004554537609347183,1.6532485794681132e-06,0.00027678693244839557,0.0006379657746378092,-0.000133536467476136,-0.00010656128327947847,0.0009316248748255736,0.0,0.0,0.0,0.0,0.0,0.0,0.0,3.181448339775739e-05,2.5170887166692246e-05,4.060482279749644e-05,7.97480031062836e-05,-5.442171680858365e-06,0.0,-5.3914394666509935e-06,-0.0004554537609347183,-1.6532485794681132e-06,-0.00027678693244839557,-0.0006379657746378092,0.000133536467476136,0.00010656128327947847,-0.0009316248748255736,0.22445029020309448,12.000879287719727,-1.2909882068634033,-21.693452835083008,-0.3738303780555725,-2.5271639823913574,0.22830526530742645,0
77,0.3795804977416992,-0.22445029020309448,-12.000879287719727,1.2909882068634033,21.693452835083008,0.3738303780555725,2.5271639823913574,-0.22830526530742645,0.0,0.0,0.0,0.0,0.0,0.0,0.0,-0.19249574597952446,0.3431219109674396,0.09819229995432137,0.4365438745648629,-0.16447850438555753,0.12461066482204293,-0.20781109946988996,0.17284842313568435,-0.48754541771871995,-0.11151170555175886,-1.9464599343517368,0.13361134407917655,2.595550359778934,0.9452499504006571,0.1728802376190821,-0.48752024683155326,-0.11147110072896137,-1.9463801863486305,0.1336059019074957,2.595550359778934,0.9452445589611904,0.0004554537609347183,1.6532485794681132e-06,0.00027678693244839557,0.0006379657746378092,-0.000133536467476136,-0.00010656128327947847,0.0009316248748255736,0.0,0.0,0.0,0.0,0.0,0.0,0.0,3.181448339775739e-05,2.5170887166692246e-05,4.060482279749644e-05,7.97480031062836e-05,-5.442171680858365e-06,0.0,-5.3914394666509935e-06,-0.0004554537609347183,-1.6532485794681132e-06,-0.00027678693244839557,-0.0006379657746378092,0.000133536467476136,0.00010656128327947847,-0.0009316248748255736,0.22445029020309448,12.000879287719727,-1.2909882068634033,-21.693452835083008,-0.3738303780555725,-2.5271639823913574,0.22830526530742645,0
78,0.38470888137817383,-0.17287558317184448,-12.024682998657227,1.2909882068634033,21.717256546020508,0.3793235421180725,2.5271639823913574,-0.19351522624492645,0.0,0.0,0.0,0.0,0.0,0.0,0.0,-0.19674983035740196,0.3333278519071714,0.0988745999902437,0.4386057155961972,-0.16415004134490996,0.1253024376438109,-0.20815795208404264,0.1728440931813291,-0.4875437472828647,-0.1115097851545837,-1.946461604787592,0.13361073372761406,2.595550359778934,0.9452460833872111,0.1728802376190821,-0.48752024683155326,-0.11147110072896137,-1.9463801863486305,0.1336059019074957,2.595550359778934,0.9452445589611904,-0.0007490985334921293,0.0006243599137903705,0.00025741198154528817,0.00018390452967501878,-0.0002721107099361315,5.884972031788684e-05,-5.176329593482992e-05,0.0,0.0,0.0,0.0,0.0,0.0,0.0,3.6144437753016234e-05,2.3500451311442294e-05,3.868442562232621e-05,8.141843896147805e-05,-4.831820118372798e-06,0.0,-1.524426020638181e-06,0.0007490985334921293,-0.0006243599137903705,-0.00025741198154528817,-0.00018390452967501878,0.0002721107099361315,-5.884972031788684e-05,5.176329593482992e-05,0.17287558317184448,12.024682998657227,-1.2909882068634033,-21.717256546020508,-0.3793235421180725,-2.5271639823913574,0.19351522624492645,0
79,0.38956761360168457,-0.17287558317184448,-12.024682998657227,1.2909882068634033,21.717256546020508,0.3793235421180725,2.5271639823913574,-0.19351522624492645,0.0,0.0,0.0,0.0,0.0,0.0,0.0,-0.19674983035740196,0.3333278519071714,0.0988745999902437,0.4386057155961972,-0.16415004134490996,0.1253024376438109,-0.20815795208404264,0.1728440931813291,-0.4875437472828647,-0.1115097851545837,-1.946461604787592,0.13361073372761406,2.595550359778934,0.9452460833872111,0.1728802376190821,-0.48752024683155326,-0.11147110072896137,-1.9463801863486305,0.1336059019074957,2.595550359778934,0.9452445589611904,-0.0007490985334921293,0.0006243599137903705,0.00025741198154528817,0.00018390452967501878,-0.0002721107099361315,5.884972031788684e-05,-5.176329593482992e-05,0.0,0.0,0.0,0.0,0.0,0.0,0.0,3.6144437753016234e-05,2.3500451311442294e-05,3.868442562232621e-05,8.141843896147805e-05,-4.831820118372798e-06,0.0,-1.524426020638181e-06,0.0007490985334921293,-0.0006243599137903705,-0.00025741198154528817,-0.00018390452967501878,0.0002721107099361315,-5.884972031788684e-05,5.176329593482992e-05,0.17287558317184448,12.024682998657227,-1.2909882068634033,-21.717256546020508,-0.3793235421180725,-2.5271639823913574,0.19351522624492645,0
80,0.3945648670196533,-0.17287558317184448,-12.000879287719727,1.3147919178009033,21.717256546020508,0.3793235421180725,2.5207552909851074,-0.16604940593242645,0.0,0.0,0.0,0.0,0.0,0.0,0.0,-0.19362299820625273,0.33890646562266935,0.1034453919827625,0.4340643683728409,-0.1640675205329343,0.12525937121803632,-0.2074656882532974,0.17284669358820123,-0.48754541771871995,-0.11151361177741329,-1.946461604787592,0.13361025983389513,2.595551071855757,0.9452430330829406,0.1728802376190821,-0.48752024683155326,-0.11147110072896137,-1.9463801863486305,0.1336059019074957,2.595550359778934,0.9452445589611904,-0.00042554243733071586,0.0005899004594477544,-0.00034553483285896066,0.00025841483393436974,-0.0003165212611477052,0.0002503033917048329,-0.0010619430697158855,0.0,0.0,0.0,0.0,0.0,0.0,0.0,3.354403088087765e-05,2.5170887166692246e-05,4.251104845191811e-05,8.141843896147805e-05,-4.357926399439771e-06,-7.120768228396912e-07,1.5258782498639434e-06,0.00042554243733071586,-0.0005899004594477544,0.00034553483285896066,-0.00025841483393436974,0.0003165212611477052,-0.0002503033917048329,0.0010619430697158855,0.17287558317184448,12.000879287719727,-1.3147919178009033,-21.717256546020508,-0.3793235421180725,-2.5207552909851074,0.16604940593242645,0
