rezayati/contactInterpretation/dataset/franka_main/labeled_data/link3/e4_8.csv
index,time,tau_J0,tau_J1,tau_J2,tau_J3,tau_J4,tau_J5,tau_J6,tau_J_d0,tau_J_d1,tau_J_d2,tau_J_d3,tau_J_d4,tau_J_d5,tau_J_d6,tau_ext0,tau_ext1,tau_ext2,tau_ext3,tau_ext4,tau_ext5,tau_ext6,q0,q1,q2,q3,q4,q5,q6,q_d0,q_d1,q_d2,q_d3,q_d4,q_d5,q_d6,dq0,dq1,dq2,dq3,dq4,dq5,dq6,dq_d0,dq_d1,dq_d2,dq_d3,dq_d4,dq_d5,dq_d6,e0,e1,e2,e3,e4,e5,e6,de0,de1,de2,de3,de4,de5,de6,etau_J0,etau_J1,etau_J2,etau_J3,etau_J4,etau_J5,etau_J6,label
1,0.0,-0.3752071261405945,-22.748254776000977,-0.1491362750530243,14.056428909301758,0.10008770227432251,2.1197543144226074,-0.37845176458358765,0.0,0.0,0.0,0.0,0.0,0.0,0.0,-0.29866127090743166,0.025237566856630242,-0.17896701234133325,0.18795506424550537,-0.13501743090972418,-0.07093291572088346,-0.37455343061457363,1.6755041926827345,0.052280617505273706,0.029817709939563824,-2.752368731658587,0.03425417754054069,2.766375570986006,0.7691800883544815,1.6754973547542302,0.052104326824870026,0.029969505109285054,-2.752394845125968,0.0342448039870148,2.7663679543071322,0.7691630533470046,0.0009496529520135581,-0.0007054923064793672,0.0008195773880981445,-0.0002767602321998825,0.00019178849828943773,-0.00012411161358849053,0.0004978040314315034,0.0,0.0,0.0,0.0,0.0,0.0,0.0,-6.837928504310753e-06,-0.0001762906804036804,0.00015179516972122983,-2.611346738090603e-05,-9.373553525891809e-06,-7.616678873834104e-06,-1.703500747685105e-05,-0.0009496529520135581,0.0007054923064793672,-0.0008195773880981445,0.0002767602321998825,-0.00019178849828943773,0.00012411161358849053,-0.0004978040314315034,0.3752071261405945,22.748254776000977,0.1491362750530243,-14.056428909301758,-0.10008770227432251,-2.1197543144226074,0.37845176458358765,0
2,0.005002498626708984,-0.3752071261405945,-22.748254776000977,-0.1491362750530243,14.056428909301758,0.10008770227432251,2.1197543144226074,-0.37845176458358765,0.0,0.0,0.0,0.0,0.0,0.0,0.0,-0.29866127090743166,0.025237566856630242,-0.17896701234133325,0.18795506424550537,-0.13501743090972418,-0.07093291572088346,-0.37455343061457363,1.6755041926827345,0.052280617505273706,0.029817709939563824,-2.752368731658587,0.03425417754054069,2.766375570986006,0.7691800883544815,1.6754973547542302,0.052104326824870026,0.029969505109285054,-2.752394845125968,0.0342448039870148,2.7663679543071322,0.7691630533470046,0.0009496529520135581,-0.0007054923064793672,0.0008195773880981445,-0.0002767602321998825,0.00019178849828943773,-0.00012411161358849053,0.0004978040314315034,0.0,0.0,0.0,0.0,0.0,0.0,0.0,-6.837928504310753e-06,-0.0001762906804036804,0.00015179516972122983,-2.611346738090603e-05,-9.373553525891809e-06,-7.616678873834104e-06,-1.703500747685105e-05,-0.0009496529520135581,0.0007054923064793672,-0.0008195773880981445,0.0002767602321998825,-0.00019178849828943773,0.00012411161358849053,-0.0004978040314315034,0.3752071261405945,22.748254776000977,0.1491362750530243,-14.056428909301758,-0.10008770227432251,-2.1197543144226074,0.37845176458358765,0
3,0.010001659393310547,-0.4029781222343445,-22.748254776000977,-0.1729399859905243,14.080232620239258,0.09367901086807251,2.1133456230163574,-0.38577598333358765,0.0,0.0,0.0,0.0,0.0,0.0,0.0,-0.30939206811740144,0.018526422052094385,-0.18469742121690663,0.19232630041452448,-0.13446385813726058,-0.06972555589334677,-0.3733256950416521,1.6755061415245656,0.05228162008802036,0.029819301404896862,-2.752371360452421,0.034254889617363615,2.766376283062829,0.7691809021565648,1.6754973547542302,0.052104326824870026,0.029969505109285054,-2.752394845125968,0.0342448039870148,2.7663679543071322,0.7691630533470046,0.0009839689214900472,-0.0012488824917815727,0.0009044252240500129,-0.0003525119295156778,0.0003127978182900765,-8.695385748661458e-05,0.0007177676301400748,0.0,0.0,0.0,0.0,0.0,0.0,0.0,-8.786770335333927e-06,-0.00017729326315033683,0.00015020370438819167,-2.3484673547180535e-05,-1.0085630348814767e-05,-8.328755696673795e-06,-1.784880956012813e-05,-0.0009839689214900472,0.0012488824917815727,-0.0009044252240500129,0.0003525119295156778,-0.0003127978182900765,8.695385748661458e-05,-0.0007177676301400748,0.4029781222343445,22.748254776000977,0.1729399859905243,-14.080232620239258,-0.09367901086807251,-2.1133456230163574,0.38577598333358765,0
4,0.01500082015991211,-0.4029781222343445,-22.748254776000977,-0.1729399859905243,14.080232620239258,0.09367901086807251,2.1133456230163574,-0.38577598333358765,0.0,0.0,0.0,0.0,0.0,0.0,0.0,-0.30939206811740144,0.018526422052094385,-0.18469742121690663,0.19232630041452448,-0.13446385813726058,-0.06972555589334677,-0.3733256950416521,1.6755061415245656,0.05228162008802036,0.029819301404896862,-2.752371360452421,0.034254889617363615,2.766376283062829,0.7691809021565648,1.6754973547542302,0.052104326824870026,0.029969505109285054,-2.752394845125968,0.0342448039870148,2.7663679543071322,0.7691630533470046,0.0009839689214900472,-0.0012488824917815727,0.0009044252240500129,-0.0003525119295156778,0.0003127978182900765,-8.695385748661458e-05,0.0007177676301400748,0.0,0.0,0.0,0.0,0.0,0.0,0.0,-8.786770335333927e-06,-0.00017729326315033683,0.00015020370438819167,-2.3484673547180535e-05,-1.0085630348814767e-05,-8.328755696673795e-06,-1.784880956012813e-05,-0.0009839689214900472,0.0012488824917815727,-0.0009044252240500129,0.0003525119295156778,-0.0003127978182900765,8.695385748661458e-05,-0.0007177676301400748,0.4029781222343445,22.748254776000977,0.1729399859905243,-14.080232620239258,-0.09367901086807251,-2.1133456230163574,0.38577598333358765,0
5,0.020000696182250977,-0.3752071261405945,-22.795862197875977,-0.1729399859905243,14.080232620239258,0.10008770227432251,2.1133456230163574,-0.37204307317733765,0.0,0.0,0.0,0.0,0.0,0.0,0.0,-0.3253883475658792,0.024718616386246887,-0.19565561859850658,0.1868038897481431,-0.13435841033292667,-0.07133297012430714,-0.3738358883055003,1.6755041926827345,0.05228491686780521,0.029819313428226277,-2.752370402099853,0.03425417754054069,2.766376283062829,0.7691793762776585,1.6754973547542302,0.052104326824870026,0.029969505109285054,-2.752394845125968,0.0342448039870148,2.7663679543071322,0.7691630533470046,9.728637168522822e-06,0.00047195290073871016,0.0005911156358995754,-0.0003033586390055593,-0.00010864863759962446,0.00019418305061364246,-0.0004198297739893998,0.0,0.0,0.0,0.0,0.0,0.0,0.0,-6.837928504310753e-06,-0.0001805900429351845,0.00015019168105877626,-2.44430261151507e-05,-9.373553525891809e-06,-8.328755696673795e-06,-1.6322930653900336e-05,-9.728637168522822e-06,-0.00047195290073871016,-0.0005911156358995754,0.0003033586390055593,0.00010864863759962446,-0.00019418305061364246,0.0004198297739893998,0.3752071261405945,22.795862197875977,0.1729399859905243,-14.080232620239258,-0.10008770227432251,-2.1133456230163574,0.37204307317733765,0
6,0.02500462532043457,-0.3752071261405945,-22.795862197875977,-0.1729399859905243,14.080232620239258,0.10008770227432251,2.1133456230163574,-0.37204307317733765,0.0,0.0,0.0,0.0,0.0,0.0,0.0,-0.3253883475658792,0.024718616386246887,-0.19565561859850658,0.1868038897481431,-0.13435841033292667,-0.07133297012430714,-0.3738358883055003,1.6755041926827345,0.05228491686780521,0.029819313428226277,-2.752370402099853,0.03425417754054069,2.766376283062829,0.7691793762776585,1.6754973547542302,0.052104326824870026,0.029969505109285054,-2.752394845125968,0.0342448039870148,2.7663679543071322,0.7691630533470046,9.728637168522822e-06,0.00047195290073871016,0.0005911156358995754,-0.0003033586390055593,-0.00010864863759962446,0.00019418305061364246,-0.0004198297739893998,0.0,0.0,0.0,0.0,0.0,0.0,0.0,-6.837928504310753e-06,-0.0001805900429351845,0.00015019168105877626,-2.44430261151507e-05,-9.373553525891809e-06,-8.328755696673795e-06,-1.6322930653900336e-05,-9.728637168522822e-06,-0.00047195290073871016,-0.0005911156358995754,0.0003033586390055593,0.00010864863759962446,-0.00019418305061364246,0.0004198297739893998,0.3752071261405945,22.795862197875977,0.1729399859905243,-14.080232620239258,-0.10008770227432251,-2.1133456230163574,0.37204307317733765,0
7,0.030008792877197266,-0.4029781222343445,-22.795862197875977,-0.1729399859905243,14.032625198364258,0.09367901086807251,2.0941195487976074,-0.39950889348983765,0.0,0.0,0.0,0.0,0.0,0.0,0.0,-0.3358572860438514,0.023194182473610332,-0.20396310049812194,0.18726911157351445,-0.134465586204425,-0.07130802827226351,-0.3757874937071217,1.6755061415245656,0.05228428553502888,0.029819310178760924,-2.752365482074579,0.034254889617363615,2.766378419293298,0.7691824280354711,1.6754973547542302,0.052104326824870026,0.029969505109285054,-2.752394845125968,0.0342448039870148,2.7663679543071322,0.7691630533470046,0.000384799797296247,0.0005895511699075276,0.00043255814104356283,0.0004803761804765692,9.030583720360182e-05,0.0007366682410975284,0.00022509632616604184,0.0,0.0,0.0,0.0,0.0,0.0,0.0,-8.786770335333927e-06,-0.00017995871015885623,0.0001501949305241293,-2.9363051389008632e-05,-1.0085630348814767e-05,-1.0464986165636958e-05,-1.937468846646695e-05,-0.000384799797296247,-0.0005895511699075276,-0.00043255814104356283,-0.0004803761804765692,-9.030583720360182e-05,-0.0007366682410975284,-0.00022509632616604184,0.4029781222343445,22.795862197875977,0.1729399859905243,-14.032625198364258,-0.09367901086807251,-2.0941195487976074,0.39950889348983765,0
8,0.035010576248168945,-0.4029781222343445,-22.795862197875977,-0.1729399859905243,14.032625198364258,0.09367901086807251,2.0941195487976074,-0.39950889348983765,0.0,0.0,0.0,0.0,0.0,0.0,0.0,-0.3358572860438514,0.023194182473610332,-0.20396310049812194,0.18726911157351445,-0.134465586204425,-0.07130802827226351,-0.3757874937071217,1.6755061415245656,0.05228428553502888,0.029819310178760924,-2.752365482074579,0.034254889617363615,2.766378419293298,0.7691824280354711,1.6754973547542302,0.052104326824870026,0.029969505109285054,-2.752394845125968,0.0342448039870148,2.7663679543071322,0.7691630533470046,0.000384799797296247,0.0005895511699075276,0.00043255814104356283,0.0004803761804765692,9.030583720360182e-05,0.0007366682410975284,0.00022509632616604184,0.0,0.0,0.0,0.0,0.0,0.0,0.0,-8.786770335333927e-06,-0.00017995871015885623,0.0001501949305241293,-2.9363051389008632e-05,-1.0085630348814767e-05,-1.0464986165636958e-05,-1.937468846646695e-05,-0.000384799797296247,-0.0005895511699075276,-0.00043255814104356283,-0.0004803761804765692,-9.030583720360182e-05,-0.0007366682410975284,-0.00022509632616604184,0.4029781222343445,22.795862197875977,0.1729399859905243,-14.032625198364258,-0.09367901086807251,-2.0941195487976074,0.39950889348983765,0
9,0.04000425338745117,-0.2998287081718445,-22.748254776000977,-0.1253325641155243,14.032625198364258,0.10008770227432251,2.1133456230163574,-0.37845176458358765,0.0,0.0,0.0,0.0,0.0,0.0,0.0,-0.3376818384406104,0.014013735590440243,-0.20281391598830054,0.1939274871814121,-0.1357768352407708,-0.07019515672192668,-0.3776982829041017,1.6754989030782093,0.052280866067136646,0.029816049682009252,-2.752368050106016,0.03425417754054069,2.766376283062829,0.7691800883544815,1.6754973547542302,0.052104326824870026,0.029969505109285054,-2.752394845125968,0.0342448039870148,2.7663679543071322,0.7691630533470046,-0.000759202143256702,-0.0009983821145941056,2.5451071838905824e-05,0.0006877299110486403,-0.00011718726546262012,-1.5112102507784542e-05,-0.00029140879169423117,0.0,0.0,0.0,0.0,0.0,0.0,0.0,-1.5483239790281544e-06,-0.00017653924226661982,0.0001534554272758018,-2.6795019952174925e-05,-9.373553525891809e-06,-8.328755696673795e-06,-1.703500747685105e-05,0.000759202143256702,0.0009983821145941056,-2.5451071838905824e-05,-0.0006877299110486403,0.00011718726546262012,1.5112102507784542e-05,0.00029140879169423117,0.2998287081718445,22.748254776000977,0.1253325641155243,-14.032625198364258,-0.10008770227432251,-2.1133456230163574,0.37845176458358765,0
10,0.04502081871032715,-0.2998287081718445,-22.748254776000977,-0.1253325641155243,14.032625198364258,0.10008770227432251,2.1133456230163574,-0.37845176458358765,0.0,0.0,0.0,0.0,0.0,0.0,0.0,-0.3376818384406104,0.014013735590440243,-0.20281391598830054,0.1939274871814121,-0.1357768352407708,-0.07019515672192668,-0.3776982829041017,1.6754989030782093,0.052280866067136646,0.029816049682009252,-2.752368050106016,0.03425417754054069,2.766376283062829,0.7691800883544815,1.6754973547542302,0.052104326824870026,0.029969505109285054,-2.752394845125968,0.0342448039870148,2.7663679543071322,0.7691630533470046,-0.000759202143256702,-0.0009983821145941056,2.5451071838905824e-05,0.0006877299110486403,-0.00011718726546262012,-1.5112102507784542e-05,-0.00029140879169423117,0.0,0.0,0.0,0.0,0.0,0.0,0.0,-1.5483239790281544e-06,-0.00017653924226661982,0.0001534554272758018,-2.6795019952174925e-05,-9.373553525891809e-06,-8.328755696673795e-06,-1.703500747685105e-05,0.000759202143256702,0.0009983821145941056,-2.5451071838905824e-05,-0.0006877299110486403,0.00011718726546262012,1.5112102507784542e-05,0.00029140879169423117,0.2998287081718445,22.748254776000977,0.1253325641155243,-14.032625198364258,-0.10008770227432251,-2.1133456230163574,0.37845176458358765,0
11,0.05000424385070801,-0.24825400114059448,-22.795862197875977,-0.04995415359735489,14.056428909301758,0.09367901086807251,2.1133456230163574,-0.33725303411483765,0.0,0.0,0.0,0.0,0.0,0.0,0.0,-0.3302002005797239,0.0193290468388103,-0.19697221446660781,0.1838872801379334,-0.13608570674122417,-0.07175803967082567,-0.37846017595813763,1.6754952836915071,0.05228496594105774,0.02981067963043864,-2.7523696350779487,0.034254889617363615,2.766376283062829,0.7691755107177627,1.6754973547542302,0.052104326824870026,0.029969505109285054,-2.752394845125968,0.0342448039870148,2.7663679543071322,0.7691630533470046,-0.000392092801491626,0.00017563642148207397,-0.00030300760465639006,-0.0006701548000578988,0.0001883018476966943,-1.0654054899488538e-05,-0.0020660844072394337,0.0,0.0,0.0,0.0,0.0,0.0,0.0,2.0710627230968726e-06,-0.0001806391161877155,0.00015882547884641524,-2.5210048019363995e-05,-1.0085630348814767e-05,-8.328755696673795e-06,-1.245737075805664e-05,0.000392092801491626,-0.00017563642148207397,0.00030300760465639006,0.0006701548000578988,-0.0001883018476966943,1.0654054899488538e-05,0.0020660844072394337,0.24825400114059448,22.795862197875977,0.04995415359735489,-14.056428909301758,-0.09367901086807251,-2.1133456230163574,0.33725303411483765,0
12,0.055002450942993164,-0.24825400114059448,-22.795862197875977,-0.04995415359735489,14.056428909301758,0.09367901086807251,2.1133456230163574,-0.33725303411483765,0.0,0.0,0.0,0.0,0.0,0.0,0.0,-0.3302002005797239,0.0193290468388103,-0.19697221446660781,0.1838872801379334,-0.13608570674122417,-0.07175803967082567,-0.37846017595813763,1.6754952836915071,0.05228496594105774,0.02981067963043864,-2.7523696350779487,0.034254889617363615,2.766376283062829,0.7691755107177627,1.6754973547542302,0.052104326824870026,0.029969505109285054,-2.752394845125968,0.0342448039870148,2.7663679543071322,0.7691630533470046,-0.000392092801491626,0.00017563642148207397,-0.00030300760465639006,-0.0006701548000578988,0.0001883018476966943,-1.0654054899488538e-05,-0.0020660844072394337,0.0,0.0,0.0,0.0,0.0,0.0,0.0,2.0710627230968726e-06,-0.0001806391161877155,0.00015882547884641524,-2.5210048019363995e-05,-1.0085630348814767e-05,-8.328755696673795e-06,-1.245737075805664e-05,0.000392092801491626,-0.00017563642148207397,0.00030300760465639006,0.0006701548000578988,-0.0001883018476966943,1.0654054899488538e-05,0.0020660844072394337,0.24825400114059448,22.795862197875977,0.04995415359735489,-14.056428909301758,-0.09367901086807251,-2.1133456230163574,0.33725303411483765,0
13,0.059998512268066406,-0.24825400114059448,-22.795862197875977,-0.04995415359735489,14.056428909301758,0.09367901086807251,2.1133456230163574,-0.33725303411483765,0.0,0.0,0.0,0.0,0.0,0.0,0.0,-0.3302002005797239,0.0193290468388103,-0.19697221446660781,0.1838872801379334,-0.13608570674122417,-0.07175803967082567,-0.37846017595813763,1.6754952836915071,0.05228496594105774,0.02981067963043864,-2.7523696350779487,0.034254889617363615,2.766376283062829,0.7691755107177627,1.6754973547542302,0.052104326824870026,0.029969505109285054,-2.752394845125968,0.0342448039870148,2.7663679543071322,0.7691630533470046,-0.000392092801491626,0.00017563642148207397,-0.00030300760465639006,-0.0006701548000578988,0.0001883018476966943,-1.0654054899488538e-05,-0.0020660844072394337,0.0,0.0,0.0,0.0,0.0,0.0,0.0,2.0710627230968726e-06,-0.0001806391161877155,0.00015882547884641524,-2.5210048019363995e-05,-1.0085630348814767e-05,-8.328755696673795e-06,-1.245737075805664e-05,0.000392092801491626,-0.00017563642148207397,0.00030300760465639006,0.0006701548000578988,-0.0001883018476966943,1.0654054899488538e-05,0.0020660844072394337,0.24825400114059448,22.795862197875977,0.04995415359735489,-14.056428909301758,-0.09367901086807251,-2.1133456230163574,0.33725303411483765,0
14,0.06500029563903809,-0.24825400114059448,-22.795862197875977,-0.04995415359735489,14.056428909301758,0.09367901086807251,2.1133456230163574,-0.33725303411483765,0.0,0.0,0.0,0.0,0.0,0.0,0.0,-0.3302002005797239,0.0193290468388103,-0.19697221446660781,0.1838872801379334,-0.13608570674122417,-0.07175803967082567,-0.37846017595813763,1.6754952836915071,0.05228496594105774,0.02981067963043864,-2.7523696350779487,0.034254889617363615,2.766376283062829,0.7691755107177627,1.6754973547542302,0.052104326824870026,0.029969505109285054,-2.752394845125968,0.0342448039870148,2.7663679543071322,0.7691630533470046,-0.000392092801491626,0.00017563642148207397,-0.00030300760465639006,-0.0006701548000578988,0.0001883018476966943,-1.0654054899488538e-05,-0.0020660844072394337,0.0,0.0,0.0,0.0,0.0,0.0,0.0,2.0710627230968726e-06,-0.0001806391161877155,0.00015882547884641524,-2.5210048019363995e-05,-1.0085630348814767e-05,-8.328755696673795e-06,-1.245737075805664e-05,0.000392092801491626,-0.00017563642148207397,0.00030300760465639006,0.0006701548000578988,-0.0001883018476966943,1.0654054899488538e-05,0.0020660844072394337,0.24825400114059448,22.795862197875977,0.04995415359735489,-14.056428909301758,-0.09367901086807251,-2.1133456230163574,0.33725303411483765,0
15,0.06999969482421875,-0.22445029020309448,-22.772058486938477,-0.02615044265985489,14.080232620239258,0.08818584680557251,2.1069369316101074,-0.36471885442733765,0.0,0.0,0.0,0.0,0.0,0.0,0.0,-0.31345442826941977,0.015486322951651428,-0.18723800922113226,0.18727778703427062,-0.13544057032108353,-0.07096689713809519,-0.37747233839810324,1.675493613255651,0.05228323766298197,0.0298090003839162,-2.7523711132839934,0.034255499968926115,2.7663769951396517,0.7691786802131452,1.6754973547542302,0.052104326824870026,0.029969505109285054,-2.752394845125968,0.0342448039870148,2.7663679543071322,0.7691630533470046,0.0004900007742377451,-8.784354657610834e-05,-5.1924377444227585e-05,-0.0008102776866918443,9.384609465978768e-05,0.0003589722173900961,-0.0002671108667806334,0.0,0.0,0.0,0.0,0.0,0.0,0.0,3.741498579179492e-06,-0.0001789108381119453,0.00016050472536885407,-2.3731841974683476e-05,-1.0695981911314212e-05,-9.040832519513486e-06,-1.5626866140538986e-05,-0.0004900007742377451,8.784354657610834e-05,5.1924377444227585e-05,0.0008102776866918443,-9.384609465978768e-05,-0.0003589722173900961,0.0002671108667806334,0.22445029020309448,22.772058486938477,0.02615044265985489,-14.080232620239258,-0.08818584680557251,-2.1069369316101074,0.36471885442733765,0
16,0.07499837875366211,-0.22445029020309448,-22.772058486938477,-0.02615044265985489,14.080232620239258,0.08818584680557251,2.1069369316101074,-0.36471885442733765,0.0,0.0,0.0,0.0,0.0,0.0,0.0,-0.31345442826941977,0.015486322951651428,-0.18723800922113226,0.18727778703427062,-0.13544057032108353,-0.07096689713809519,-0.37747233839810324,1.675493613255651,0.05228323766298197,0.0298090003839162,-2.7523711132839934,0.034255499968926115,2.7663769951396517,0.7691786802131452,1.6754973547542302,0.052104326824870026,0.029969505109285054,-2.752394845125968,0.0342448039870148,2.7663679543071322,0.7691630533470046,0.0004900007742377451,-8.784354657610834e-05,-5.1924377444227585e-05,-0.0008102776866918443,9.384609465978768e-05,0.0003589722173900961,-0.0002671108667806334,0.0,0.0,0.0,0.0,0.0,0.0,0.0,3.741498579179492e-06,-0.0001789108381119453,0.00016050472536885407,-2.3731841974683476e-05,-1.0695981911314212e-05,-9.040832519513486e-06,-1.5626866140538986e-05,-0.0004900007742377451,8.784354657610834e-05,5.1924377444227585e-05,0.0008102776866918443,-9.384609465978768e-05,-0.0003589722173900961,0.0002671108667806334,0.22445029020309448,22.772058486938477,0.02615044265985489,-14.080232620239258,-0.08818584680557251,-2.1069369316101074,0.36471885442733765,0
17,0.07999944686889648,-0.24825400114059448,-22.819665908813477,-0.04995415359735489,14.032625198364258,0.11198955774307251,2.1261630058288574,-0.33725303411483765,0.0,0.0,0.0,0.0,0.0,0.0,0.0,-0.300337609070058,0.01305297954463815,-0.18197858281178828,0.18984363916453187,-0.1344647297995311,-0.07043753905827135,-0.3754682934216699,1.6754952836915065,0.052285947203065015,0.029810673744423803,-2.7523657384970686,0.03425285511215528,2.766374858909183,0.7691755107179842,1.6754973547542302,0.052104326824870026,0.029969505109285054,-2.752394845125968,0.0342448039870148,2.7663679543071322,0.7691630533470046,-0.00014885657437490433,0.0008175659286267516,0.00014481655397898603,0.0010552343682159022,-0.0005095882067707433,-0.00043182656806107394,-0.0015467076814984129,0.0,0.0,0.0,0.0,0.0,0.0,0.0,2.0710627237630064e-06,-0.0001816203781949896,0.0001588313648612505,-2.9106628899544518e-05,-8.051125140476345e-06,-6.904602050994413e-06,-1.2457370979546134e-05,0.00014885657437490433,-0.0008175659286267516,-0.00014481655397898603,-0.0010552343682159022,0.0005095882067707433,0.00043182656806107394,0.0015467076814984129,0.24825400114059448,22.819665908813477,0.04995415359735489,-14.032625198364258,-0.11198955774307251,-2.1261630058288574,0.33725303411483765,0
18,0.08500432968139648,-0.24825400114059448,-22.819665908813477,-0.04995415359735489,14.032625198364258,0.11198955774307251,2.1261630058288574,-0.33725303411483765,0.0,0.0,0.0,0.0,0.0,0.0,0.0,-0.300337609070058,0.01305297954463815,-0.18197858281178828,0.18984363916453187,-0.1344647297995311,-0.07043753905827135,-0.3754682934216699,1.6754952836915065,0.052285947203065015,0.029810673744423803,-2.7523657384970686,0.03425285511215528,2.766374858909183,0.7691755107179842,1.6754973547542302,0.052104326824870026,0.029969505109285054,-2.752394845125968,0.0342448039870148,2.7663679543071322,0.7691630533470046,-0.00014885657437490433,0.0008175659286267516,0.00014481655397898603,0.0010552343682159022,-0.0005095882067707433,-0.00043182656806107394,-0.0015467076814984129,0.0,0.0,0.0,0.0,0.0,0.0,0.0,2.0710627237630064e-06,-0.0001816203781949896,0.0001588313648612505,-2.9106628899544518e-05,-8.051125140476345e-06,-6.904602050994413e-06,-1.2457370979546134e-05,0.00014885657437490433,-0.0008175659286267516,-0.00014481655397898603,-0.0010552343682159022,0.0005095882067707433,0.00043182656806107394,0.0015467076814984129,0.24825400114059448,22.819665908813477,0.04995415359735489,-14.032625198364258,-0.11198955774307251,-2.1261630058288574,0.33725303411483765,0
19,0.09000205993652344,-0.2998287081718445,-22.847436904907227,-0.1491362750530243,14.056428909301758,0.10008770227432251,2.1261630058288574,-0.34457725286483765,0.0,0.0,0.0,0.0,0.0,0.0,0.0,-0.30407513732682284,0.016052442391865346,-0.1862716344265656,0.18602405819623394,-0.1330233252391015,-0.07046727807893277,-0.3751248574183365,1.675498902969193,0.052288614124347675,0.029817630968612317,-2.75236946420276,0.03425417754054069,2.7663748593936996,0.7691763245198461,1.6754973547542302,0.052104326824870026,0.029969505109285054,-2.752394845125968,0.0342448039870148,2.7663679543071322,0.7691630533470046,-0.0009737066398821767,0.0012700417544688869,0.0007289318833401461,-0.00040512884587532057,-0.00038267684983826896,-0.00035753162295522643,-0.0011923317413818067,0.0,0.0,0.0,0.0,0.0,0.0,0.0,-1.5482149626766528e-06,-0.00018428729947764927,0.0001518741406727371,-2.5380923208029316e-05,-9.373553525891809e-06,-6.905086567421392e-06,-1.3271172841444745e-05,0.0009737066398821767,-0.0012700417544688869,-0.0007289318833401461,0.00040512884587532057,0.00038267684983826896,0.00035753162295522643,0.0011923317413818067,0.2998287081718445,22.847436904907227,0.1491362750530243,-14.056428909301758,-0.10008770227432251,-2.1261630058288574,0.34457725286483765,0
20,0.09622859954833984,-0.2998287081718445,-22.847436904907227,-0.1491362750530243,14.056428909301758,0.10008770227432251,2.1261630058288574,-0.34457725286483765,0.0,0.0,0.0,0.0,0.0,0.0,0.0,-0.30407513732682284,0.016052442391865346,-0.1862716344265656,0.18602405819623394,-0.1330233252391015,-0.07046727807893277,-0.3751248574183365,1.675498902969193,0.052288614124347675,0.029817630968612317,-2.75236946420276,0.03425417754054069,2.7663748593936996,0.7691763245198461,1.6754973547542302,0.052104326824870026,0.029969505109285054,-2.752394845125968,0.0342448039870148,2.7663679543071322,0.7691630533470046,-0.0009737066398821767,0.0012700417544688869,0.0007289318833401461,-0.00040512884587532057,-0.00038267684983826896,-0.00035753162295522643,-0.0011923317413818067,0.0,0.0,0.0,0.0,0.0,0.0,0.0,-1.5482149626766528e-06,-0.00018428729947764927,0.0001518741406727371,-2.5380923208029316e-05,-9.373553525891809e-06,-6.905086567421392e-06,-1.3271172841444745e-05,0.0009737066398821767,-0.0012700417544688869,-0.0007289318833401461,0.00040512884587532057,0.00038267684983826896,0.00035753162295522643,0.0011923317413818067,0.2998287081718445,22.847436904907227,0.1491362750530243,-14.056428909301758,-0.10008770227432251,-2.1261630058288574,0.34457725286483765,0
21,0.10002398490905762,-0.4267818331718445,-22.772058486938477,-0.1729399859905243,14.056428909301758,0.10008770227432251,2.1261630058288574,-0.39218467473983765,0.0,0.0,0.0,0.0,0.0,0.0,0.0,-0.31400488254627656,0.015941018102643072,-0.192275223364338,0.18831957177992523,-0.1337078413535643,-0.06946966142190093,-0.37616149351007117,1.675507811960421,0.052283322682712206,0.029819304329153147,-2.752369469188734,0.03425417754054069,2.7663752121218956,0.7691816142333877,1.6754973547542302,0.052104326824870026,0.029969505109285054,-2.752394845125968,0.0342448039870148,2.7663679543071322,0.7691630533470046,0.0002639067028061652,-0.0002601695878795943,-7.511958531925995e-05,0.0001729522191462159,-7.254589751131844e-05,-0.00024984127668781567,-2.603085747992226e-05,0.0,0.0,0.0,0.0,0.0,0.0,0.0,-1.0457206190750412e-05,-0.00017899585784218047,0.00015020078013190663,-2.5375937234173307e-05,-9.373553525891809e-06,-7.257814763406145e-06,-1.8560886383078845e-05,-0.0002639067028061652,0.0002601695878795943,7.511958531925995e-05,-0.0001729522191462159,7.254589751131844e-05,0.00024984127668781567,2.603085747992226e-05,0.4267818331718445,22.772058486938477,0.1729399859905243,-14.056428909301758,-0.10008770227432251,-2.1261630058288574,0.39218467473983765,0
22,0.10500931739807129,-0.4267818331718445,-22.772058486938477,-0.1729399859905243,14.056428909301758,0.10008770227432251,2.1261630058288574,-0.39218467473983765,0.0,0.0,0.0,0.0,0.0,0.0,0.0,-0.31400488254627656,0.015941018102643072,-0.192275223364338,0.18831957177992523,-0.1337078413535643,-0.06946966142190093,-0.37616149351007117,1.675507811960421,0.052283322682712206,0.029819304329153147,-2.752369469188734,0.03425417754054069,2.7663752121218956,0.7691816142333877,1.6754973547542302,0.052104326824870026,0.029969505109285054,-2.752394845125968,0.0342448039870148,2.7663679543071322,0.7691630533470046,0.0002639067028061652,-0.0002601695878795943,-7.511958531925995e-05,0.0001729522191462159,-7.254589751131844e-05,-0.00024984127668781567,-2.603085747992226e-05,0.0,0.0,0.0,0.0,0.0,0.0,0.0,-1.0457206190750412e-05,-0.00017899585784218047,0.00015020078013190663,-2.5375937234173307e-05,-9.373553525891809e-06,-7.257814763406145e-06,-1.8560886383078845e-05,-0.0002639067028061652,0.0002601695878795943,7.511958531925995e-05,-0.0001729522191462159,7.254589751131844e-05,0.00024984127668781567,2.603085747992226e-05,0.4267818331718445,22.772058486938477,0.1729399859905243,-14.056428909301758,-0.10008770227432251,-2.1261630058288574,0.39218467473983765,0
23,0.10995721817016602,-0.3752071261405945,-22.772058486938477,-0.1729399859905243,14.056428909301758,0.09367901086807251,2.1133456230163574,-0.40591758489608765,0.0,0.0,0.0,0.0,0.0,0.0,0.0,-0.324242403798824,0.014865177395269887,-0.19575929259448538,0.1861123867557623,-0.13519590093210937,-0.06925237214813385,-0.37859945276092966,1.6755041926827345,0.052283313047632674,0.029819327835108572,-2.7523666702377922,0.034254889617363615,2.7663762830648224,0.7691831401122939,1.6754973547542302,0.052104326824870026,0.029969505109285054,-2.752394845125968,0.0342448039870148,2.7663679543071322,0.7691630533470046,-0.0010820717276329177,-0.00014115233447691846,4.925646657235719e-05,-0.0001263570182787778,0.009783331494448705,1.4082730227988725e-05,0.0007280498999887562,0.0,0.0,0.0,0.0,0.0,0.0,0.0,-6.837928504310753e-06,-0.00017898622276264764,0.00015017727417648147,-2.8174888175858115e-05,-1.0085630348814767e-05,-8.328757690190258e-06,-2.008676528930664e-05,0.0010820717276329177,0.00014115233447691846,-4.925646657235719e-05,0.0001263570182787778,-0.009783331494448705,-1.4082730227988725e-05,-0.0007280498999887562,0.3752071261405945,22.772058486938477,0.1729399859905243,-14.056428909301758,-0.09367901086807251,-2.1133456230163574,0.40591758489608765,0
24,0.11579179763793945,-0.3752071261405945,-22.772058486938477,-0.1729399859905243,14.056428909301758,0.09367901086807251,2.1133456230163574,-0.40591758489608765,0.0,0.0,0.0,0.0,0.0,0.0,0.0,-0.324242403798824,0.014865177395269887,-0.19575929259448538,0.1861123867557623,-0.13519590093210937,-0.06925237214813385,-0.37859945276092966,1.6755041926827345,0.052283313047632674,0.029819327835108572,-2.7523666702377922,0.034254889617363615,2.7663762830648224,0.7691831401122939,1.6754973547542302,0.052104326824870026,0.029969505109285054,-2.752394845125968,0.0342448039870148,2.7663679543071322,0.7691630533470046,-0.0010820717276329177,-0.00014115233447691846,4.925646657235719e-05,-0.0001263570182787778,0.009783331494448705,1.4082730227988725e-05,0.0007280498999887562,0.0,0.0,0.0,0.0,0.0,0.0,0.0,-6.837928504310753e-06,-0.00017898622276264764,0.00015017727417648147,-2.8174888175858115e-05,-1.0085630348814767e-05,-8.328757690190258e-06,-2.008676528930664e-05,0.0010820717276329177,0.00014115233447691846,-4.925646657235719e-05,0.0001263570182787778,-0.009783331494448705,-1.4082730227988725e-05,-0.0007280498999887562,0.3752071261405945,22.772058486938477,0.1729399859905243,-14.056428909301758,-0.09367901086807251,-2.1133456230163574,0.40591758489608765,0
25,0.11999750137329102,-0.3236324191093445,-22.748254776000977,-0.1491362750530243,14.080232620239258,0.08818584680557251,2.1261630058288574,-0.34457725286483765,0.0,0.0,0.0,0.0,0.0,0.0,0.0,-0.329422536335803,0.016712012000787112,-0.19630340797462822,0.18332966759834457,-0.13697432282808378,-0.06955584742355919,-0.3800288842468066,1.675500573405048,0.05228162016597993,0.02981763111317474,-2.752368917458886,0.034255499968926115,2.766374858909183,0.7691763245736812,1.6754973547542302,0.052104326824870026,0.029969505109285054,-2.752394845125968,0.0342448039870148,2.7663679543071322,0.7691630533470046,-0.00043180279662890283,-0.0006685539483048023,0.0002637418162773271,-0.000782321472629634,0.0008459525254319305,-0.00038534197132038977,-0.001358855672170277,0.0,0.0,0.0,0.0,0.0,0.0,0.0,-3.2186508178710938e-06,-0.0001772933411099062,0.00015187399611031258,-2.5927667082203953e-05,-1.0695981911314212e-05,-6.904602050994413e-06,-1.3271226676603298e-05,0.00043180279662890283,0.0006685539483048023,-0.0002637418162773271,0.000782321472629634,-0.0008459525254319305,0.00038534197132038977,0.001358855672170277,0.3236324191093445,22.748254776000977,0.1491362750530243,-14.080232620239258,-0.08818584680557251,-2.1261630058288574,0.34457725286483765,0
26,0.12500381469726562,-0.3236324191093445,-22.748254776000977,-0.1491362750530243,14.080232620239258,0.08818584680557251,2.1261630058288574,-0.34457725286483765,0.0,0.0,0.0,0.0,0.0,0.0,0.0,-0.329422536335803,0.016712012000787112,-0.19630340797462822,0.18332966759834457,-0.13697432282808378,-0.06955584742355919,-0.3800288842468066,1.675500573405048,0.05228162016597993,0.02981763111317474,-2.752368917458886,0.034255499968926115,2.766374858909183,0.7691763245736812,1.6754973547542302,0.052104326824870026,0.029969505109285054,-2.752394845125968,0.0342448039870148,2.7663679543071322,0.7691630533470046,-0.00043180279662890283,-0.0006685539483048023,0.0002637418162773271,-0.000782321472629634,0.0008459525254319305,-0.00038534197132038977,-0.001358855672170277,0.0,0.0,0.0,0.0,0.0,0.0,0.0,-3.2186508178710938e-06,-0.0001772933411099062,0.00015187399611031258,-2.5927667082203953e-05,-1.0695981911314212e-05,-6.904602050994413e-06,-1.3271226676603298e-05,0.00043180279662890283,0.0006685539483048023,-0.0002637418162773271,0.000782321472629634,-0.0008459525254319305,0.00038534197132038977,0.001358855672170277,0.3236324191093445,22.748254776000977,0.1491362750530243,-14.080232620239258,-0.08818584680557251,-2.1261630058288574,0.34457725286483765,0
27,0.12999820709228516,-0.3236324191093445,-22.795862197875977,-0.09756157547235489,14.032625198364258,0.09367901086807251,2.1133456230163574,-0.39950889348983765,0.0,0.0,0.0,0.0,0.0,0.0,0.0,-0.3343017600661512,0.017839046836112156,-0.2054430283369775,0.18659442500066742,-0.13565219684102856,-0.06955792240014243,-0.37800680996172215,1.675500573405048,0.05228499611354812,0.029814099432495376,-2.7523654918753695,0.034254889617363615,2.766376283062829,0.7691824411174236,1.6754973547542302,0.052104326824870026,0.029969505109285054,-2.752394845125968,0.0342448039870148,2.7663679543071322,0.7691630533470046,0.0007678549370861093,0.00033368107893178917,4.141844834254384e-05,0.0007566344710075116,0.00044052873899263015,0.0001486793357413288,0.0008043308916821168,0.0,0.0,0.0,0.0,0.0,0.0,0.0,-3.2186508178710938e-06,-0.00018066928867809667,0.0001554056767896772,-2.935325059860716e-05,-1.0085630348814767e-05,-8.328755696673795e-06,-1.9387770418988204e-05,-0.0007678549370861093,-0.00033368107893178917,-4.141844834254384e-05,-0.0007566344710075116,-0.00044052873899263015,-0.0001486793357413288,-0.0008043308916821168,0.3236324191093445,22.795862197875977,0.09756157547235489,-14.032625198364258,-0.09367901086807251,-2.1133456230163574,0.39950889348983765,0
28,0.13499999046325684,-0.3236324191093445,-22.795862197875977,-0.09756157547235489,14.032625198364258,0.09367901086807251,2.1133456230163574,-0.39950889348983765,0.0,0.0,0.0,0.0,0.0,0.0,0.0,-0.3343017600661512,0.017839046836112156,-0.2054430283369775,0.18659442500066742,-0.13565219684102856,-0.06955792240014243,-0.37800680996172215,1.675500573405048,0.05228499611354812,0.029814099432495376,-2.7523654918753695,0.034254889617363615,2.766376283062829,0.7691824411174236,1.6754973547542302,0.052104326824870026,0.029969505109285054,-2.752394845125968,0.0342448039870148,2.7663679543071322,0.7691630533470046,0.0007678549370861093,0.00033368107893178917,4.141844834254384e-05,0.0007566344710075116,0.00044052873899263015,0.0001486793357413288,0.0008043308916821168,0.0,0.0,0.0,0.0,0.0,0.0,0.0,-3.2186508178710938e-06,-0.00018066928867809667,0.0001554056767896772,-2.935325059860716e-05,-1.0085630348814767e-05,-8.328755696673795e-06,-1.9387770418988204e-05,-0.0007678549370861093,-0.00033368107893178917,-4.141844834254384e-05,-0.0007566344710075116,-0.00044052873899263015,-0.0001486793357413288,-0.0008043308916821168,0.3236324191093445,22.795862197875977,0.09756157547235489,-14.032625198364258,-0.09367901086807251,-2.1133456230163574,0.39950889348983765,0
29,0.1399986743927002,-0.24825400114059448,-22.795862197875977,-0.09756157547235489,14.056428909301758,0.08177715539932251,2.1133456230163574,-0.39950889348983765,0.0,0.0,0.0,0.0,0.0,0.0,0.0,-0.33064134663134415,0.019521739662014818,-0.20626208016793654,0.18427657970175798,-0.1347491132593307,-0.07021575713693612,-0.37662255768859426,1.6754952836915065,0.0522821536959877,0.029814041913849013,-2.7523674954052444,0.03425621204574903,2.766376283062829,0.7691824280355449,1.6754973547542302,0.052104326824870026,0.029969505109285054,-2.752394845125968,0.0342448039870148,2.7663679543071322,0.7691630533470046,-0.0007445635927574562,0.0002425380864825349,0.00040204089549210445,-2.6557178193714128e-05,0.0005401967751898985,-7.980453954046458e-05,0.000891854972153649,0.0,0.0,0.0,0.0,0.0,0.0,0.0,2.0710627237630064e-06,-0.00017782687111767698,0.0001554631954360404,-2.7349720723712778e-05,-1.1408058734230231e-05,-8.328755696673795e-06,-1.937468854029678e-05,0.0007445635927574562,-0.0002425380864825349,-0.00040204089549210445,2.6557178193714128e-05,-0.0005401967751898985,7.980453954046458e-05,-0.000891854972153649,0.24825400114059448,22.795862197875977,0.09756157547235489,-14.056428909301758,-0.08177715539932251,-2.1133456230163574,0.39950889348983765,0
30,0.14499902725219727,-0.24825400114059448,-22.795862197875977,-0.09756157547235489,14.056428909301758,0.08177715539932251,2.1133456230163574,-0.39950889348983765,0.0,0.0,0.0,0.0,0.0,0.0,0.0,-0.33064134663134415,0.019521739662014818,-0.20626208016793654,0.18427657970175798,-0.1347491132593307,-0.07021575713693612,-0.37662255768859426,1.6754952836915065,0.0522821536959877,0.029814041913849013,-2.7523674954052444,0.03425621204574903,2.766376283062829,0.7691824280355449,1.6754973547542302,0.052104326824870026,0.029969505109285054,-2.752394845125968,0.0342448039870148,2.7663679543071322,0.7691630533470046,-0.0007445635927574562,0.0002425380864825349,0.00040204089549210445,-2.6557178193714128e-05,0.0005401967751898985,-7.980453954046458e-05,0.000891854972153649,0.0,0.0,0.0,0.0,0.0,0.0,0.0,2.0710627237630064e-06,-0.00017782687111767698,0.0001554631954360404,-2.7349720723712778e-05,-1.1408058734230231e-05,-8.328755696673795e-06,-1.937468854029678e-05,0.0007445635927574562,-0.0002425380864825349,-0.00040204089549210445,2.6557178193714128e-05,-0.0005401967751898985,7.980453954046458e-05,-0.000891854972153649,0.24825400114059448,22.795862197875977,0.09756157547235489,-14.056428909301758,-0.08177715539932251,-2.1133456230163574,0.39950889348983765,0
31,0.14999938011169434,-0.22445029020309448,-22.795862197875977,-0.09756157547235489,14.032625198364258,0.08818584680557251,2.1133456230163574,-0.39218467473983765,0.0,0.0,0.0,0.0,0.0,0.0,0.0,-0.32061921905365076,0.015115131489213311,-0.2018480092740622,0.18838405991754367,-0.13515286829597495,-0.07017190196016505,-0.37596025113024323,1.675493613255651,0.05228428191168543,0.029814734093015882,-2.752365741537485,0.034255499968926115,2.766376283062829,0.7691816142333877,1.6754973547542302,0.052104326824870026,0.029969505109285054,-2.752394845125968,0.0342448039870148,2.7663679543071322,0.7691630533470046,-0.0009240580982947786,0.00010917054451096911,0.00014083115893575045,0.0006296790798226082,0.0002125162591921238,9.957778020278993e-05,0.002443818231224678,0.0,0.0,0.0,0.0,0.0,0.0,0.0,3.741498579179492e-06,-0.00017995508681540456,0.0001547710162691715,-2.9103588483181397e-05,-1.0695981911314212e-05,-8.328755696673795e-06,-1.8560886383078845e-05,0.0009240580982947786,-0.00010917054451096911,-0.00014083115893575045,-0.0006296790798226082,-0.0002125162591921238,-9.957778020278993e-05,-0.002443818231224678,0.22445029020309448,22.795862197875977,0.09756157547235489,-14.032625198364258,-0.08818584680557251,-2.1133456230163574,0.39218467473983765,0
32,0.15501189231872559,-0.22445029020309448,-22.795862197875977,-0.09756157547235489,14.032625198364258,0.08818584680557251,2.1133456230163574,-0.39218467473983765,0.0,0.0,0.0,0.0,0.0,0.0,0.0,-0.32061921905365076,0.015115131489213311,-0.2018480092740622,0.18838405991754367,-0.13515286829597495,-0.07017190196016505,-0.37596025113024323,1.675493613255651,0.05228428191168543,0.029814734093015882,-2.752365741537485,0.034255499968926115,2.766376283062829,0.7691816142333877,1.6754973547542302,0.052104326824870026,0.029969505109285054,-2.752394845125968,0.0342448039870148,2.7663679543071322,0.7691630533470046,-0.0009240580982947786,0.00010917054451096911,0.00014083115893575045,0.0006296790798226082,0.0002125162591921238,9.957778020278993e-05,0.002443818231224678,0.0,0.0,0.0,0.0,0.0,0.0,0.0,3.741498579179492e-06,-0.00017995508681540456,0.0001547710162691715,-2.9103588483181397e-05,-1.0695981911314212e-05,-8.328755696673795e-06,-1.8560886383078845e-05,0.0009240580982947786,-0.00010917054451096911,-0.00014083115893575045,-0.0006296790798226082,-0.0002125162591921238,-9.957778020278993e-05,-0.002443818231224678,0.22445029020309448,22.795862197875977,0.09756157547235489,-14.032625198364258,-0.08818584680557251,-2.1133456230163574,0.39218467473983765,0
33,0.16002130508422852,-0.24825400114059448,-22.819665908813477,-0.07375786453485489,14.056428909301758,0.08818584680557251,2.1197543144226074,-0.39950889348983765,0.0,0.0,0.0,0.0,0.0,0.0,0.0,-0.30916430606940076,0.01378634801888471,-0.1954130201397757,0.18778911198522774,-0.13588040196450987,-0.06990334081842339,-0.37660602289350936,1.6754952836915065,0.052284298627933226,0.029812342234555655,-2.752368730633653,0.034255499968926115,2.766375570986006,0.7691824280354711,1.6754973547542302,0.052104326824870026,0.029969505109285054,-2.752394845125968,0.0342448039870148,2.7663679543071322,0.7691630533470046,-0.0007840329870959002,0.00043274447289702925,-0.00013207498731717667,-6.389533596419705e-05,0.00020926193817897076,-0.00011771114588330889,0.0002993902494495275,0.0,0.0,0.0,0.0,0.0,0.0,0.0,2.0710627237630064e-06,-0.00017997180306320026,0.0001571628747293989,-2.6114492315265636e-05,-1.0695981911314212e-05,-7.616678873834104e-06,-1.937468846646695e-05,0.0007840329870959002,-0.00043274447289702925,0.00013207498731717667,6.389533596419705e-05,-0.00020926193817897076,0.00011771114588330889,-0.0002993902494495275,0.24825400114059448,22.819665908813477,0.07375786453485489,-14.056428909301758,-0.08818584680557251,-2.1197543144226074,0.39950889348983765,0
34,0.1650078296661377,-0.24825400114059448,-22.819665908813477,-0.07375786453485489,14.056428909301758,0.08818584680557251,2.1197543144226074,-0.39950889348983765,0.0,0.0,0.0,0.0,0.0,0.0,0.0,-0.30916430606940076,0.01378634801888471,-0.1954130201397757,0.18778911198522774,-0.13588040196450987,-0.06990334081842339,-0.37660602289350936,1.6754952836915065,0.052284298627933226,0.029812342234555655,-2.752368730633653,0.034255499968926115,2.766375570986006,0.7691824280354711,1.6754973547542302,0.052104326824870026,0.029969505109285054,-2.752394845125968,0.0342448039870148,2.7663679543071322,0.7691630533470046,-0.0007840329870959002,0.00043274447289702925,-0.00013207498731717667,-6.389533596419705e-05,0.00020926193817897076,-0.00011771114588330889,0.0002993902494495275,0.0,0.0,0.0,0.0,0.0,0.0,0.0,2.0710627237630064e-06,-0.00017997180306320026,0.0001571628747293989,-2.6114492315265636e-05,-1.0695981911314212e-05,-7.616678873834104e-06,-1.937468846646695e-05,0.0007840329870959002,-0.00043274447289702925,0.00013207498731717667,6.389533596419705e-05,-0.00020926193817897076,0.00011771114588330889,-0.0002993902494495275,0.24825400114059448,22.819665908813477,0.07375786453485489,-14.056428909301758,-0.08818584680557251,-2.1197543144226074,0.39950889348983765,0
35,0.1709747314453125,-0.3514034152030945,-22.795862197875977,-0.1253325641155243,14.056428909301758,0.08818584680557251,2.1133456230163574,-0.39950889348983765,0.0,0.0,0.0,0.0,0.0,0.0,0.0,-0.30319128316584015,0.00761018376427927,-0.19192889060996904,0.1878652814026882,-0.13657737274221915,-0.06985214934417888,-0.37843667606042847,1.6755025222468791,0.05228491689072307,0.02981596053274607,-2.752368731545528,0.034255499968926115,2.766376283062829,0.7691824280354711,1.6754973547542302,0.052104326824870026,0.029969505109285054,-2.752394845125968,0.0342448039870148,2.7663679543071322,0.7691630533470046,0.0015232837035358009,-0.00040744090045477554,0.0007190545098245548,-6.156942737024788e-05,0.00029146521677230174,-7.328123503301787e-05,0.0007859410809563657,0.0,0.0,0.0,0.0,0.0,0.0,0.0,-5.167492648894267e-06,-0.00018059006585304654,0.0001535445765389852,-2.61135804402457e-05,-1.0695981911314212e-05,-8.328755696673795e-06,-1.937468846646695e-05,-0.0015232837035358009,0.00040744090045477554,-0.0007190545098245548,6.156942737024788e-05,-0.00029146521677230174,7.328123503301787e-05,-0.0007859410809563657,0.3514034152030945,22.795862197875977,0.1253325641155243,-14.056428909301758,-0.08818584680557251,-2.1133456230163574,0.39950889348983765,0
36,0.17500567436218262,-0.3514034152030945,-22.795862197875977,-0.1253325641155243,14.056428909301758,0.08818584680557251,2.1133456230163574,-0.39950889348983765,0.0,0.0,0.0,0.0,0.0,0.0,0.0,-0.30319128316584015,0.00761018376427927,-0.19192889060996904,0.1878652814026882,-0.13657737274221915,-0.06985214934417888,-0.37843667606042847,1.6755025222468791,0.05228491689072307,0.02981596053274607,-2.752368731545528,0.034255499968926115,2.766376283062829,0.7691824280354711,1.6754973547542302,0.052104326824870026,0.029969505109285054,-2.752394845125968,0.0342448039870148,2.7663679543071322,0.7691630533470046,0.0015232837035358009,-0.00040744090045477554,0.0007190545098245548,-6.156942737024788e-05,0.00029146521677230174,-7.328123503301787e-05,0.0007859410809563657,0.0,0.0,0.0,0.0,0.0,0.0,0.0,-5.167492648894267e-06,-0.00018059006585304654,0.0001535445765389852,-2.61135804402457e-05,-1.0695981911314212e-05,-8.328755696673795e-06,-1.937468846646695e-05,-0.0015232837035358009,0.00040744090045477554,-0.0007190545098245548,6.156942737024788e-05,-0.00029146521677230174,7.328123503301787e-05,-0.0007859410809563657,0.3514034152030945,22.795862197875977,0.1253325641155243,-14.056428909301758,-0.08818584680557251,-2.1133456230163574,0.39950889348983765,0
37,0.18000459671020508,-0.3514034152030945,-22.795862197875977,-0.1253325641155243,14.056428909301758,0.08818584680557251,2.1133456230163574,-0.39950889348983765,0.0,0.0,0.0,0.0,0.0,0.0,0.0,-0.30319128316584015,0.00761018376427927,-0.19192889060996904,0.1878652814026882,-0.13657737274221915,-0.06985214934417888,-0.37843667606042847,1.6755025222468791,0.05228491689072307,0.02981596053274607,-2.752368731545528,0.034255499968926115,2.766376283062829,0.7691824280354711,1.6754973547542302,0.052104326824870026,0.029969505109285054,-2.752394845125968,0.0342448039870148,2.7663679543071322,0.7691630533470046,0.0015232837035358009,-0.00040744090045477554,0.0007190545098245548,-6.156942737024788e-05,0.00029146521677230174,-7.328123503301787e-05,0.0007859410809563657,0.0,0.0,0.0,0.0,0.0,0.0,0.0,-5.167492648894267e-06,-0.00018059006585304654,0.0001535445765389852,-2.61135804402457e-05,-1.0695981911314212e-05,-8.328755696673795e-06,-1.937468846646695e-05,-0.0015232837035358009,0.00040744090045477554,-0.0007190545098245548,6.156942737024788e-05,-0.00029146521677230174,7.328123503301787e-05,-0.0007859410809563657,0.3514034152030945,22.795862197875977,0.1253325641155243,-14.056428909301758,-0.08818584680557251,-2.1133456230163574,0.39950889348983765,0
38,0.18500256538391113,-0.3514034152030945,-22.795862197875977,-0.1253325641155243,14.056428909301758,0.08818584680557251,2.1133456230163574,-0.39950889348983765,0.0,0.0,0.0,0.0,0.0,0.0,0.0,-0.30319128316584015,0.00761018376427927,-0.19192889060996904,0.1878652814026882,-0.13657737274221915,-0.06985214934417888,-0.37843667606042847,1.6755025222468791,0.05228491689072307,0.02981596053274607,-2.752368731545528,0.034255499968926115,2.766376283062829,0.7691824280354711,1.6754973547542302,0.052104326824870026,0.029969505109285054,-2.752394845125968,0.0342448039870148,2.7663679543071322,0.7691630533470046,0.0015232837035358009,-0.00040744090045477554,0.0007190545098245548,-6.156942737024788e-05,0.00029146521677230174,-7.328123503301787e-05,0.0007859410809563657,0.0,0.0,0.0,0.0,0.0,0.0,0.0,-5.167492648894267e-06,-0.00018059006585304654,0.0001535445765389852,-2.61135804402457e-05,-1.0695981911314212e-05,-8.328755696673795e-06,-1.937468846646695e-05,-0.0015232837035358009,0.00040744090045477554,-0.0007190545098245548,6.156942737024788e-05,-0.00029146521677230174,7.328123503301787e-05,-0.0007859410809563657,0.3514034152030945,22.795862197875977,0.1253325641155243,-14.056428909301758,-0.08818584680557251,-2.1133456230163574,0.39950889348983765,0
39,0.1900007724761963,-0.3752071261405945,-22.772058486938477,-0.1729399859905243,14.032625198364258,0.09367901086807251,2.1197543144226074,-0.39950889348983765,0.0,0.0,0.0,0.0,0.0,0.0,0.0,-0.30742336089666117,0.010229966380058981,-0.19552140790336658,0.18903546534322477,-0.1361613071143736,-0.07055280948867976,-0.3786431082305235,1.6755041926827345,0.052282510088634146,0.029821433548372654,-2.752365739170331,0.034254889617363615,2.766378751353944,0.7691824280354711,1.6754973547542302,0.052104326824870026,0.029969505109285054,-2.752394845125968,0.0342448039870148,2.7663679543071322,0.7691630533470046,0.001232394430100408,-0.00029205101043602383,0.001185651472916658,0.0006314525538089148,4.9060930083385886e-05,-9.044619639147217e-05,0.0007862401206149231,0.0,0.0,0.0,0.0,0.0,0.0,0.0,-6.837928504310753e-06,-0.00017818326376412008,0.00014807156091239948,-2.9105955637209746e-05,-1.0085630348814767e-05,-1.0797046811727995e-05,-1.937468846646695e-05,-0.001232394430100408,0.00029205101043602383,-0.001185651472916658,-0.0006314525538089148,-4.9060930083385886e-05,9.044619639147217e-05,-0.0007862401206149231,0.3752071261405945,22.772058486938477,0.1729399859905243,-14.032625198364258,-0.09367901086807251,-2.1197543144226074,0.39950889348983765,0
40,0.19517850875854492,-0.3752071261405945,-22.772058486938477,-0.1729399859905243,14.032625198364258,0.09367901086807251,2.1197543144226074,-0.39950889348983765,0.0,0.0,0.0,0.0,0.0,0.0,0.0,-0.30742336089666117,0.010229966380058981,-0.19552140790336658,0.18903546534322477,-0.1361613071143736,-0.07055280948867976,-0.3786431082305235,1.6755041926827345,0.052282510088634146,0.029821433548372654,-2.752365739170331,0.034254889617363615,2.766378751353944,0.7691824280354711,1.6754973547542302,0.052104326824870026,0.029969505109285054,-2.752394845125968,0.0342448039870148,2.7663679543071322,0.7691630533470046,0.001232394430100408,-0.00029205101043602383,0.001185651472916658,0.0006314525538089148,4.9060930083385886e-05,-9.044619639147217e-05,0.0007862401206149231,0.0,0.0,0.0,0.0,0.0,0.0,0.0,-6.837928504310753e-06,-0.00017818326376412008,0.00014807156091239948,-2.9105955637209746e-05,-1.0085630348814767e-05,-1.0797046811727995e-05,-1.937468846646695e-05,-0.001232394430100408,0.00029205101043602383,-0.001185651472916658,-0.0006314525538089148,-4.9060930083385886e-05,9.044619639147217e-05,-0.0007862401206149231,0.3752071261405945,22.772058486938477,0.1729399859905243,-14.032625198364258,-0.09367901086807251,-2.1197543144226074,0.39950889348983765,0
41,0.19999909400939941,-0.4267818331718445,-22.748254776000977,-0.1491362750530243,14.080232620239258,0.10558086633682251,2.1197543144226074,-0.41324180364608765,0.0,0.0,0.0,0.0,0.0,0.0,0.0,-0.3180111918666065,0.010016343862539719,-0.20028544212287236,0.19004493188584107,-0.13629367566830278,-0.07042540817026402,-0.3782755560284727,1.675507811960421,0.052280944984834404,0.02981786802592979,-2.7523703742757184,0.03425356718897819,2.7663755710039593,0.7691839539143773,1.6754973547542302,0.052104326824870026,0.029969505109285054,-2.752394845125968,0.0342448039870148,2.7663679543071322,0.7691630533470046,0.0010243669848341657,-0.0007759861122937703,6.616236534490679e-06,-0.0007724665805747524,-0.0004261928607979402,-0.00017518685573340541,0.0012799866440245426,0.0,0.0,0.0,0.0,0.0,0.0,0.0,-1.0457206190750412e-05,-0.00017661815996437846,0.00015163708335526327,-2.4470850249702636e-05,-8.763201963392364e-06,-7.616696827028591e-06,-2.0900567372694745e-05,-0.0010243669848341657,0.0007759861122937703,-6.616236534490679e-06,0.0007724665805747524,0.0004261928607979402,0.00017518685573340541,-0.0012799866440245426,0.4267818331718445,22.748254776000977,0.1491362750530243,-14.080232620239258,-0.10558086633682251,-2.1197543144226074,0.41324180364608765,0
42,0.205003023147583,-0.4267818331718445,-22.748254776000977,-0.1491362750530243,14.080232620239258,0.10558086633682251,2.1197543144226074,-0.41324180364608765,0.0,0.0,0.0,0.0,0.0,0.0,0.0,-0.3180111918666065,0.010016343862539719,-0.20028544212287236,0.19004493188584107,-0.13629367566830278,-0.07042540817026402,-0.3782755560284727,1.675507811960421,0.052280944984834404,0.02981786802592979,-2.7523703742757184,0.03425356718897819,2.7663755710039593,0.7691839539143773,1.6754973547542302,0.052104326824870026,0.029969505109285054,-2.752394845125968,0.0342448039870148,2.7663679543071322,0.7691630533470046,0.0010243669848341657,-0.0007759861122937703,6.616236534490679e-06,-0.0007724665805747524,-0.0004261928607979402,-0.00017518685573340541,0.0012799866440245426,0.0,0.0,0.0,0.0,0.0,0.0,0.0,-1.0457206190750412e-05,-0.00017661815996437846,0.00015163708335526327,-2.4470850249702636e-05,-8.763201963392364e-06,-7.616696827028591e-06,-2.0900567372694745e-05,-0.0010243669848341657,0.0007759861122937703,-6.616236534490679e-06,0.0007724665805747524,0.0004261928607979402,0.00017518685573340541,-0.0012799866440245426,0.4267818331718445,22.748254776000977,0.1491362750530243,-14.080232620239258,-0.10558086633682251,-2.1197543144226074,0.41324180364608765,0
43,0.20999932289123535,-0.3752071261405945,-22.772058486938477,-0.2007109820842743,14.056428909301758,0.10558086633682251,2.1133456230163574,-0.39950889348983765,0.0,0.0,0.0,0.0,0.0,0.0,0.0,-0.33251443286641186,0.009963830014967742,-0.20404577690780387,0.19453339916295156,-0.13590669105035813,-0.07027376237809686,-0.3790295767336658,1.6755041926827345,0.05228261495483411,0.029821330188585047,-2.7523697201930672,0.03425356718897819,2.766376400800399,0.7691824280354711,1.6754973547542302,0.052104326824870026,0.029969505109285054,-2.752394845125968,0.0342448039870148,2.7663679543071322,0.7691630533470046,-0.00026859503200258846,-0.00038741365567954817,0.0011600923950204239,0.0002543824616207351,-0.00019055893775783708,-5.730705316249569e-05,0.000465751616074193,0.0,0.0,0.0,0.0,0.0,0.0,0.0,-6.837928504310753e-06,-0.00017828812996408677,0.00014817492070000673,-2.5124932900855157e-05,-8.763201963392364e-06,-8.446493266589528e-06,-1.937468846646695e-05,0.00026859503200258846,0.00038741365567954817,-0.0011600923950204239,-0.0002543824616207351,0.00019055893775783708,5.730705316249569e-05,-0.000465751616074193,0.3752071261405945,22.772058486938477,0.2007109820842743,-14.056428909301758,-0.10558086633682251,-2.1133456230163574,0.39950889348983765,0
44,0.21500086784362793,-0.3752071261405945,-22.772058486938477,-0.2007109820842743,14.056428909301758,0.10558086633682251,2.1133456230163574,-0.39950889348983765,0.0,0.0,0.0,0.0,0.0,0.0,0.0,-0.33251443286641186,0.009963830014967742,-0.20404577690780387,0.19453339916295156,-0.13590669105035813,-0.07027376237809686,-0.3790295767336658,1.6755041926827345,0.05228261495483411,0.029821330188585047,-2.7523697201930672,0.03425356718897819,2.766376400800399,0.7691824280354711,1.6754973547542302,0.052104326824870026,0.029969505109285054,-2.752394845125968,0.0342448039870148,2.7663679543071322,0.7691630533470046,-0.00026859503200258846,-0.00038741365567954817,0.0011600923950204239,0.0002543824616207351,-0.00019055893775783708,-5.730705316249569e-05,0.000465751616074193,0.0,0.0,0.0,0.0,0.0,0.0,0.0,-6.837928504310753e-06,-0.00017828812996408677,0.00014817492070000673,-2.5124932900855157e-05,-8.763201963392364e-06,-8.446493266589528e-06,-1.937468846646695e-05,0.00026859503200258846,0.00038741365567954817,-0.0011600923950204239,-0.0002543824616207351,0.00019055893775783708,5.730705316249569e-05,-0.000465751616074193,0.3752071261405945,22.772058486938477,0.2007109820842743,-14.056428909301758,-0.10558086633682251,-2.1133456230163574,0.39950889348983765,0
45,0.22000932693481445,-0.3236324191093445,-22.748254776000977,-0.1491362750530243,14.080232620239258,0.08818584680557251,2.1133456230163574,-0.41324180364608765,0.0,0.0,0.0,0.0,0.0,0.0,0.0,-0.336277247753642,0.01576209468844446,-0.20378731558735141,0.19284009738952976,-0.13573167588096854,-0.07054380200572483,-0.3810211193482552,1.675500573405048,0.052280942062427685,0.029818351420658723,-2.7523713910579257,0.034255499968926115,2.7663762830634933,0.7691839540758829,1.6754973547542302,0.052104326824870026,0.029969505109285054,-2.752394845125968,0.0342448039870148,2.7663679543071322,0.7691630533470046,0.00012274771526883573,-0.0007385024358991484,-8.11291763683385e-06,-0.0005109189329500994,0.00027758490930301514,0.00022283248663138456,0.0012484785407982542,0.0,0.0,0.0,0.0,0.0,0.0,0.0,-3.2186508178710938e-06,-0.00017661523755765907,0.00015115368862633066,-2.345406804238337e-05,-1.0695981911314212e-05,-8.328756361031253e-06,-2.0900728878281427e-05,-0.00012274771526883573,0.0007385024358991484,8.11291763683385e-06,0.0005109189329500994,-0.00027758490930301514,-0.00022283248663138456,-0.0012484785407982542,0.3236324191093445,22.748254776000977,0.1491362750530243,-14.080232620239258,-0.08818584680557251,-2.1133456230163574,0.41324180364608765,0
46,0.22504091262817383,-0.3236324191093445,-22.748254776000977,-0.1491362750530243,14.080232620239258,0.08818584680557251,2.1133456230163574,-0.41324180364608765,0.0,0.0,0.0,0.0,0.0,0.0,0.0,-0.336277247753642,0.01576209468844446,-0.20378731558735141,0.19284009738952976,-0.13573167588096854,-0.07054380200572483,-0.3810211193482552,1.675500573405048,0.052280942062427685,0.029818351420658723,-2.7523713910579257,0.034255499968926115,2.7663762830634933,0.7691839540758829,1.6754973547542302,0.052104326824870026,0.029969505109285054,-2.752394845125968,0.0342448039870148,2.7663679543071322,0.7691630533470046,0.00012274771526883573,-0.0007385024358991484,-8.11291763683385e-06,-0.0005109189329500994,0.00027758490930301514,0.00022283248663138456,0.0012484785407982542,0.0,0.0,0.0,0.0,0.0,0.0,0.0,-3.2186508178710938e-06,-0.00017661523755765907,0.00015115368862633066,-2.345406804238337e-05,-1.0695981911314212e-05,-8.328756361031253e-06,-2.0900728878281427e-05,-0.00012274771526883573,0.0007385024358991484,8.11291763683385e-06,0.0005109189329500994,-0.00027758490930301514,-0.00022283248663138456,-0.0012484785407982542,0.3236324191093445,22.748254776000977,0.1491362750530243,-14.080232620239258,-0.08818584680557251,-2.1133456230163574,0.41324180364608765,0
47,0.23000788688659668,-0.24825400114059448,-22.772058486938477,0.001620553433895111,14.008821487426758,0.08818584680557251,2.1261630058288574,-0.39950889348983765,0.0,0.0,0.0,0.0,0.0,0.0,0.0,-0.326511564136666,0.017260539336511966,-0.2030541880465395,0.1903127187448926,-0.13650540218673188,-0.07027128248479754,-0.3809221194687736,1.675495284672653,0.0522830769302844,0.0298072923465733,-2.7523662576898262,0.034255499968926115,2.7663748590706887,0.769182428035472,1.6754973547542302,0.052104326824870026,0.029969505109285054,-2.752394845125968,0.0342448039870148,2.7663679543071322,0.7691630533470046,-0.000758980778775091,-0.0003242616939301399,-0.0019382989512067368,0.001157534049594641,0.00020968594122797233,-0.00031704983794022856,0.0014504213119920354,0.0,0.0,0.0,0.0,0.0,0.0,0.0,2.0700815772656256e-06,-0.00017875010541437697,0.00016221276271175325,-2.8587436141869205e-05,-1.0695981911314212e-05,-6.904763556470073e-06,-1.9374688467355128e-05,0.000758980778775091,0.0003242616939301399,0.0019382989512067368,-0.001157534049594641,-0.00020968594122797233,0.00031704983794022856,-0.0014504213119920354,0.24825400114059448,22.772058486938477,-0.001620553433895111,-14.008821487426758,-0.08818584680557251,-2.1261630058288574,0.39950889348983765,0
48,0.23496556282043457,-0.24825400114059448,-22.772058486938477,0.001620553433895111,14.008821487426758,0.08818584680557251,2.1261630058288574,-0.39950889348983765,0.0,0.0,0.0,0.0,0.0,0.0,0.0,-0.326511564136666,0.017260539336511966,-0.2030541880465395,0.1903127187448926,-0.13650540218673188,-0.07027128248479754,-0.3809221194687736,1.675495284672653,0.0522830769302844,0.0298072923465733,-2.7523662576898262,0.034255499968926115,2.7663748590706887,0.769182428035472,1.6754973547542302,0.052104326824870026,0.029969505109285054,-2.752394845125968,0.0342448039870148,2.7663679543071322,0.7691630533470046,-0.000758980778775091,-0.0003242616939301399,-0.0019382989512067368,0.001157534049594641,0.00020968594122797233,-0.00031704983794022856,0.0014504213119920354,0.0,0.0,0.0,0.0,0.0,0.0,0.0,2.0700815772656256e-06,-0.00017875010541437697,0.00016221276271175325,-2.8587436141869205e-05,-1.0695981911314212e-05,-6.904763556470073e-06,-1.9374688467355128e-05,0.000758980778775091,0.0003242616939301399,0.0019382989512067368,-0.001157534049594641,-0.00020968594122797233,0.00031704983794022856,-0.0014504213119920354,0.24825400114059448,22.772058486938477,-0.001620553433895111,-14.008821487426758,-0.08818584680557251,-2.1261630058288574,0.39950889348983765,0
49,0.23999762535095215,-0.2720577120780945,-22.819665908813477,-0.07375786453485489,14.008821487426758,0.09367901086807251,2.1133456230163574,-0.37845176458358765,0.0,0.0,0.0,0.0,0.0,0.0,0.0,-0.31815739042584396,0.01350693772965638,-0.20023552420353286,0.1914120010616994,-0.13628756962867328,-0.0691378835870437,-0.3781206014279231,1.6754969541273672,0.05228656135633049,0.02981449968706918,-2.752365308375472,0.034255244648020614,2.76637628306283,0.7691801014364337,1.6754973547542302,0.052104326824870026,0.029969505109285054,-2.752394845125968,0.0342448039870148,2.7663679543071322,0.7691630533470046,0.0007360176178945952,0.0006853361300049865,0.0003450148184067796,0.0010581225165864556,7.498368890302218e-05,-6.607835879109379e-06,-9.500928124228289e-06,0.0,0.0,0.0,0.0,0.0,0.0,0.0,4.006268630174503e-07,-0.0001822345314604623,0.0001550054222158731,-2.953675049610638e-05,-1.0440661005813034e-05,-8.328755697561974e-06,-1.7048089429039237e-05,-0.0007360176178945952,-0.0006853361300049865,-0.0003450148184067796,-0.0010581225165864556,-7.498368890302218e-05,6.607835879109379e-06,9.500928124228289e-06,0.2720577120780945,22.819665908813477,0.07375786453485489,-14.008821487426758,-0.09367901086807251,-2.1133456230163574,0.37845176458358765,0
50,0.24499821662902832,-0.2720577120780945,-22.819665908813477,-0.07375786453485489,14.008821487426758,0.09367901086807251,2.1133456230163574,-0.37845176458358765,0.0,0.0,0.0,0.0,0.0,0.0,0.0,-0.31815739042584396,0.01350693772965638,-0.20023552420353286,0.1914120010616994,-0.13628756962867328,-0.0691378835870437,-0.3781206014279231,1.6754969541273672,0.05228656135633049,0.02981449968706918,-2.752365308375472,0.034255244648020614,2.76637628306283,0.7691801014364337,1.6754973547542302,0.052104326824870026,0.029969505109285054,-2.752394845125968,0.0342448039870148,2.7663679543071322,0.7691630533470046,0.0007360176178945952,0.0006853361300049865,0.0003450148184067796,0.0010581225165864556,7.498368890302218e-05,-6.607835879109379e-06,-9.500928124228289e-06,0.0,0.0,0.0,0.0,0.0,0.0,0.0,4.006268630174503e-07,-0.0001822345314604623,0.0001550054222158731,-2.953675049610638e-05,-1.0440661005813034e-05,-8.328755697561974e-06,-1.7048089429039237e-05,-0.0007360176178945952,-0.0006853361300049865,-0.0003450148184067796,-0.0010581225165864556,-7.498368890302218e-05,6.607835879109379e-06,9.500928124228289e-06,0.2720577120780945,22.819665908813477,0.07375786453485489,-14.008821487426758,-0.09367901086807251,-2.1133456230163574,0.37845176458358765,0
51,0.2500004768371582,-0.24825400114059448,-22.819665908813477,-0.07375786453485489,14.080232620239258,0.08818584680557251,2.1133456230163574,-0.39950889348983765,0.0,0.0,0.0,0.0,0.0,0.0,0.0,-0.3080025401747007,0.01261051113639493,-0.1954809197760472,0.19097259855059756,-0.13631528627021763,-0.06896743879891834,-0.377225718555108,1.6754952836915065,0.05228421971040626,0.029812341267761396,-2.752368331134806,0.034258693786479485,2.766376283062829,0.7691824280355449,1.6754973547542302,0.052104326824870026,0.029969505109285054,-2.752394845125968,0.0342448039870148,2.7663679543071322,0.7691630533470046,-7.997880847172879e-05,0.0008484830142898728,-0.00022985739767861704,-0.0004528283912894637,0.00010269378918637286,0.0001374293163895122,0.0009026050142093029,0.0,0.0,0.0,0.0,0.0,0.0,0.0,2.0710627237630064e-06,-0.00017989288553623556,0.00015716384152365814,-2.6513991162158135e-05,-1.3889799464684993e-05,-8.328755696673795e-06,-1.937468854029678e-05,7.997880847172879e-05,-0.0008484830142898728,0.00022985739767861704,0.0004528283912894637,-0.00010269378918637286,-0.0001374293163895122,-0.0009026050142093029,0.24825400114059448,22.819665908813477,0.07375786453485489,-14.080232620239258,-0.08818584680557251,-2.1133456230163574,0.39950889348983765,0
52,0.25499987602233887,-0.24825400114059448,-22.819665908813477,-0.07375786453485489,14.080232620239258,0.08818584680557251,2.1133456230163574,-0.39950889348983765,0.0,0.0,0.0,0.0,0.0,0.0,0.0,-0.3080025401747007,0.01261051113639493,-0.1954809197760472,0.19097259855059756,-0.13631528627021763,-0.06896743879891834,-0.377225718555108,1.6754952836915065,0.05228421971040626,0.029812341267761396,-2.752368331134806,0.034258693786479485,2.766376283062829,0.7691824280355449,1.6754973547542302,0.052104326824870026,0.029969505109285054,-2.752394845125968,0.0342448039870148,2.7663679543071322,0.7691630533470046,-7.997880847172879e-05,0.0008484830142898728,-0.00022985739767861704,-0.0004528283912894637,0.00010269378918637286,0.0001374293163895122,0.0009026050142093029,0.0,0.0,0.0,0.0,0.0,0.0,0.0,2.0710627237630064e-06,-0.00017989288553623556,0.00015716384152365814,-2.6513991162158135e-05,-1.3889799464684993e-05,-8.328755696673795e-06,-1.937468854029678e-05,7.997880847172879e-05,-0.0008484830142898728,0.00022985739767861704,0.0004528283912894637,-0.00010269378918637286,-0.0001374293163895122,-0.0009026050142093029,0.24825400114059448,22.819665908813477,0.07375786453485489,-14.080232620239258,-0.08818584680557251,-2.1133456230163574,0.39950889348983765,0
53,0.26001667976379395,-0.2998287081718445,-22.772058486938477,-0.09756157547235489,14.056428909301758,0.08818584680557251,2.1069369316101074,-0.41324180364608765,0.0,0.0,0.0,0.0,0.0,0.0,0.0,-0.3032227612642365,0.01518410046871395,-0.19197741792306303,0.1892518854257325,-0.13646495230782152,-0.06929947098476685,-0.37807847711654824,1.675498902969193,0.05228300998021902,0.02981401169143232,-2.752366753655722,0.03425549998695531,2.7663770082216037,0.7691839539143773,1.6754973547542302,0.052104326824870026,0.029969505109285054,-2.752394845125968,0.0342448039870148,2.7663679543071322,0.7691630533470046,-0.00013983294768543455,-0.00020969428003607247,-0.00030124272442984176,0.0001330790844871162,0.0004361738921353308,0.0002973458858445545,0.0010418231815940025,0.0,0.0,0.0,0.0,0.0,0.0,0.0,-1.5482149626766528e-06,-0.00017868315534899648,0.00015549341785273466,-2.8091470245961148e-05,-1.0695999940510403e-05,-9.05391447147963e-06,-2.0900567372694745e-05,0.00013983294768543455,0.00020969428003607247,0.00030124272442984176,-0.0001330790844871162,-0.0004361738921353308,-0.0002973458858445545,-0.0010418231815940025,0.2998287081718445,22.772058486938477,0.09756157547235489,-14.056428909301758,-0.08818584680557251,-2.1069369316101074,0.41324180364608765,0
54,0.2650275230407715,-0.2998287081718445,-22.772058486938477,-0.09756157547235489,14.056428909301758,0.08818584680557251,2.1069369316101074,-0.41324180364608765,0.0,0.0,0.0,0.0,0.0,0.0,0.0,-0.3032227612642365,0.01518410046871395,-0.19197741792306303,0.1892518854257325,-0.13646495230782152,-0.06929947098476685,-0.37807847711654824,1.675498902969193,0.05228300998021902,0.02981401169143232,-2.752366753655722,0.03425549998695531,2.7663770082216037,0.7691839539143773,1.6754973547542302,0.052104326824870026,0.029969505109285054,-2.752394845125968,0.0342448039870148,2.7663679543071322,0.7691630533470046,-0.00013983294768543455,-0.00020969428003607247,-0.00030124272442984176,0.0001330790844871162,0.0004361738921353308,0.0002973458858445545,0.0010418231815940025,0.0,0.0,0.0,0.0,0.0,0.0,0.0,-1.5482149626766528e-06,-0.00017868315534899648,0.00015549341785273466,-2.8091470245961148e-05,-1.0695999940510403e-05,-9.05391447147963e-06,-2.0900567372694745e-05,0.00013983294768543455,0.00020969428003607247,0.00030124272442984176,-0.0001330790844871162,-0.0004361738921353308,-0.0002973458858445545,-0.0010418231815940025,0.2998287081718445,22.772058486938477,0.09756157547235489,-14.056428909301758,-0.08818584680557251,-2.1069369316101074,0.41324180364608765,0
55,0.26999497413635254,-0.4029781222343445,-22.795862197875977,-0.1491362750530243,14.032625198364258,0.10558086633682251,2.1133456230163574,-0.40591758489608765,0.0,0.0,0.0,0.0,0.0,0.0,0.0,-0.3060435620174819,0.013985511208565508,-0.1907867765647387,0.19222633539862477,-0.13591531868428314,-0.06948788440852491,-0.37864698456727663,1.6755061415245656,0.052284995678927165,0.029818420638156602,-2.7523647226914787,0.0342535671889783,2.7663762830629026,0.7691831401122939,1.6754973547542302,0.052104326824870026,0.029969505109285054,-2.752394845125968,0.0342448039870148,2.7663679543071322,0.7691630533470046,0.001111663109447473,8.624280660426421e-05,0.0008317634602234831,0.0009043529702429896,-0.0002590363837816108,5.2136220674609584e-05,0.0017036192721232722,0.0,0.0,0.0,0.0,0.0,0.0,0.0,-8.786770335333927e-06,-0.0001806688540571394,0.00015108447112845147,-3.012243448941021e-05,-8.763201963496448e-06,-8.328755770392604e-06,-2.008676528930664e-05,-0.001111663109447473,-8.624280660426421e-05,-0.0008317634602234831,-0.0009043529702429896,0.0002590363837816108,-5.2136220674609584e-05,-0.0017036192721232722,0.4029781222343445,22.795862197875977,0.1491362750530243,-14.032625198364258,-0.10558086633682251,-2.1133456230163574,0.40591758489608765,0
56,0.27500057220458984,-0.4029781222343445,-22.795862197875977,-0.1491362750530243,14.032625198364258,0.10558086633682251,2.1133456230163574,-0.40591758489608765,0.0,0.0,0.0,0.0,0.0,0.0,0.0,-0.3060435620174819,0.013985511208565508,-0.1907867765647387,0.19222633539862477,-0.13591531868428314,-0.06948788440852491,-0.37864698456727663,1.6755061415245656,0.052284995678927165,0.029818420638156602,-2.7523647226914787,0.0342535671889783,2.7663762830629026,0.7691831401122939,1.6754973547542302,0.052104326824870026,0.029969505109285054,-2.752394845125968,0.0342448039870148,2.7663679543071322,0.7691630533470046,0.001111663109447473,8.624280660426421e-05,0.0008317634602234831,0.0009043529702429896,-0.0002590363837816108,5.2136220674609584e-05,0.0017036192721232722,0.0,0.0,0.0,0.0,0.0,0.0,0.0,-8.786770335333927e-06,-0.0001806688540571394,0.00015108447112845147,-3.012243448941021e-05,-8.763201963496448e-06,-8.328755770392604e-06,-2.008676528930664e-05,-0.001111663109447473,-8.624280660426421e-05,-0.0008317634602234831,-0.0009043529702429896,0.0002590363837816108,-5.2136220674609584e-05,-0.0017036192721232722,0.4029781222343445,22.795862197875977,0.1491362750530243,-14.032625198364258,-0.10558086633682251,-2.1133456230163574,0.40591758489608765,0
57,0.28009986877441406,-0.3752071261405945,-22.795862197875977,-0.1729399859905243,14.056428909301758,0.08818584680557251,2.1197543144226074,-0.38577598333358765,0.0,0.0,0.0,0.0,0.0,0.0,0.0,-0.3163098749513166,0.014237392490818464,-0.19270944029325,0.19260883014230717,-0.13591596191477995,-0.06979965735858602,-0.3756560937108377,1.6755041956261738,0.05228427611781751,0.02982143351672293,-2.752366671124859,0.034255499968926115,2.766375570986006,0.7691809021565648,1.6754973547542302,0.052104326824870026,0.029969505109285054,-2.752394845125968,0.0342448039870148,2.7663679543071322,0.7691630533470046,4.302401617732709e-06,6.008329995430053e-05,0.000383237994568209,4.265752922025953e-05,0.0004248690237240861,-0.00033691090143359086,0.0007103313487955749,0.0,0.0,0.0,0.0,0.0,0.0,0.0,-6.840871943580851e-06,-0.0001799492929474844,0.000148071592562124,-2.8174001108993707e-05,-1.0695981911314212e-05,-7.616678873834104e-06,-1.784880956012813e-05,-4.302401617732709e-06,-6.008329995430053e-05,-0.000383237994568209,-4.265752922025953e-05,-0.0004248690237240861,0.00033691090143359086,-0.0007103313487955749,0.3752071261405945,22.795862197875977,0.1729399859905243,-14.056428909301758,-0.08818584680557251,-2.1197543144226074,0.38577598333358765,0
58,0.2850069999694824,-0.3752071261405945,-22.795862197875977,-0.1729399859905243,14.056428909301758,0.08818584680557251,2.1197543144226074,-0.38577598333358765,0.0,0.0,0.0,0.0,0.0,0.0,0.0,-0.3163098749513166,0.014237392490818464,-0.19270944029325,0.19260883014230717,-0.13591596191477995,-0.06979965735858602,-0.3756560937108377,1.6755041956261738,0.05228427611781751,0.02982143351672293,-2.752366671124859,0.034255499968926115,2.766375570986006,0.7691809021565648,1.6754973547542302,0.052104326824870026,0.029969505109285054,-2.752394845125968,0.0342448039870148,2.7663679543071322,0.7691630533470046,4.302401617732709e-06,6.008329995430053e-05,0.000383237994568209,4.265752922025953e-05,0.0004248690237240861,-0.00033691090143359086,0.0007103313487955749,0.0,0.0,0.0,0.0,0.0,0.0,0.0,-6.840871943580851e-06,-0.0001799492929474844,0.000148071592562124,-2.8174001108993707e-05,-1.0695981911314212e-05,-7.616678873834104e-06,-1.784880956012813e-05,-4.302401617732709e-06,-6.008329995430053e-05,-0.000383237994568209,-4.265752922025953e-05,-0.0004248690237240861,0.00033691090143359086,-0.0007103313487955749,0.3752071261405945,22.795862197875977,0.1729399859905243,-14.056428909301758,-0.08818584680557251,-2.1197543144226074,0.38577598333358765,0
59,0.2900052070617676,-0.3514034152030945,-22.819665908813477,-0.07375786453485489,14.056428909301758,0.09367901086807251,2.1133456230163574,-0.38577598333358765,0.0,0.0,0.0,0.0,0.0,0.0,0.0,-0.31977833305637743,0.016429779751604468,-0.1941742684879167,0.1876392014418906,-0.13582808419541992,-0.07081149739541265,-0.3740315651577667,1.6755025222468958,0.05228658766065856,0.029812423484237877,-2.7523674124962723,0.034254889617363615,2.766376283062829,0.7691809021565648,1.6754973547542302,0.052104326824870026,0.029969505109285054,-2.752394845125968,0.0342448039870148,2.7663679543071322,0.7691630533470046,0.0004438896587126345,0.0007173110120684254,-0.0017260578441070573,-0.00037782476639917575,0.000213721267110692,0.00028348096607801627,0.00047711583585060484,0.0,0.0,0.0,0.0,0.0,0.0,0.0,-5.167492665547613e-06,-0.0001822608357885322,0.0001570816250471771,-2.7432629695844923e-05,-1.0085630348814767e-05,-8.328755696673795e-06,-1.784880956012813e-05,-0.0004438896587126345,-0.0007173110120684254,0.0017260578441070573,0.00037782476639917575,-0.000213721267110692,-0.00028348096607801627,-0.00047711583585060484,0.3514034152030945,22.819665908813477,0.07375786453485489,-14.056428909301758,-0.09367901086807251,-2.1133456230163574,0.38577598333358765,0
60,0.295032262802124,-0.3514034152030945,-22.819665908813477,-0.07375786453485489,14.056428909301758,0.09367901086807251,2.1133456230163574,-0.38577598333358765,0.0,0.0,0.0,0.0,0.0,0.0,0.0,-0.31977833305637743,0.016429779751604468,-0.1941742684879167,0.1876392014418906,-0.13582808419541992,-0.07081149739541265,-0.3740315651577667,1.6755025222468958,0.05228658766065856,0.029812423484237877,-2.7523674124962723,0.034254889617363615,2.766376283062829,0.7691809021565648,1.6754973547542302,0.052104326824870026,0.029969505109285054,-2.752394845125968,0.0342448039870148,2.7663679543071322,0.7691630533470046,0.0004438896587126345,0.0007173110120684254,-0.0017260578441070573,-0.00037782476639917575,0.000213721267110692,0.00028348096607801627,0.00047711583585060484,0.0,0.0,0.0,0.0,0.0,0.0,0.0,-5.167492665547613e-06,-0.0001822608357885322,0.0001570816250471771,-2.7432629695844923e-05,-1.0085630348814767e-05,-8.328755696673795e-06,-1.784880956012813e-05,-0.0004438896587126345,-0.0007173110120684254,0.0017260578441070573,0.00037782476639917575,-0.000213721267110692,-0.00028348096607801627,-0.00047711583585060484,0.3514034152030945,22.819665908813477,0.07375786453485489,-14.056428909301758,-0.09367901086807251,-2.1133456230163574,0.38577598333358765,0
61,0.3000209331512451,-0.3514034152030945,-22.819665908813477,-0.07375786453485489,14.056428909301758,0.09367901086807251,2.1133456230163574,-0.38577598333358765,0.0,0.0,0.0,0.0,0.0,0.0,0.0,-0.31977833305637743,0.016429779751604468,-0.1941742684879167,0.1876392014418906,-0.13582808419541992,-0.07081149739541265,-0.3740315651577667,1.6755025222468958,0.05228658766065856,0.029812423484237877,-2.7523674124962723,0.034254889617363615,2.766376283062829,0.7691809021565648,1.6754973547542302,0.052104326824870026,0.029969505109285054,-2.752394845125968,0.0342448039870148,2.7663679543071322,0.7691630533470046,0.0004438896587126345,0.0007173110120684254,-0.0017260578441070573,-0.00037782476639917575,0.000213721267110692,0.00028348096607801627,0.00047711583585060484,0.0,0.0,0.0,0.0,0.0,0.0,0.0,-5.167492665547613e-06,-0.0001822608357885322,0.0001570816250471771,-2.7432629695844923e-05,-1.0085630348814767e-05,-8.328755696673795e-06,-1.784880956012813e-05,-0.0004438896587126345,-0.0007173110120684254,0.0017260578441070573,0.00037782476639917575,-0.000213721267110692,-0.00028348096607801627,-0.00047711583585060484,0.3514034152030945,22.819665908813477,0.07375786453485489,-14.056428909301758,-0.09367901086807251,-2.1133456230163574,0.38577598333358765,0
62,0.30500364303588867,-0.3514034152030945,-22.819665908813477,-0.07375786453485489,14.056428909301758,0.09367901086807251,2.1133456230163574,-0.38577598333358765,0.0,0.0,0.0,0.0,0.0,0.0,0.0,-0.31977833305637743,0.016429779751604468,-0.1941742684879167,0.1876392014418906,-0.13582808419541992,-0.07081149739541265,-0.3740315651577667,1.6755025222468958,0.05228658766065856,0.029812423484237877,-2.7523674124962723,0.034254889617363615,2.766376283062829,0.7691809021565648,1.6754973547542302,0.052104326824870026,0.029969505109285054,-2.752394845125968,0.0342448039870148,2.7663679543071322,0.7691630533470046,0.0004438896587126345,0.0007173110120684254,-0.0017260578441070573,-0.00037782476639917575,0.000213721267110692,0.00028348096607801627,0.00047711583585060484,0.0,0.0,0.0,0.0,0.0,0.0,0.0,-5.167492665547613e-06,-0.0001822608357885322,0.0001570816250471771,-2.7432629695844923e-05,-1.0085630348814767e-05,-8.328755696673795e-06,-1.784880956012813e-05,-0.0004438896587126345,-0.0007173110120684254,0.0017260578441070573,0.00037782476639917575,-0.000213721267110692,-0.00028348096607801627,-0.00047711583585060484,0.3514034152030945,22.819665908813477,0.07375786453485489,-14.056428909301758,-0.09367901086807251,-2.1133456230163574,0.38577598333358765,0
63,0.31004977226257324,-0.2720577120780945,-22.795862197875977,-0.07375786453485489,14.056428909301758,0.10558086633682251,2.1197543144226074,-0.41324180364608765,0.0,0.0,0.0,0.0,0.0,0.0,0.0,-0.32981037808874514,0.015428546128908616,-0.20301256094092487,0.1871199747671344,-0.13440638799035065,-0.07057048586198399,-0.3750054678987087,1.6754969541273617,0.052284986297799,0.029812660084674997,-2.7523696808517526,0.03425356718897819,2.766375570986006,0.7691839539143773,1.6754973547542302,0.052104326824870026,0.029969505109285054,-2.752394845125968,0.0342448039870148,2.7663679543071322,0.7691630533470046,-0.001831049159507187,0.00025249273369837554,-0.0008966146332669263,-0.0005134564857182615,-1.7496135271301345e-05,-0.00021723105249432285,0.001581027168511822,0.0,0.0,0.0,0.0,0.0,0.0,0.0,4.0062686856856544e-07,-0.00018065947292897344,0.00015684502461005626,-2.51642742155056e-05,-8.763201963392364e-06,-7.616678873834104e-06,-2.0900567372694745e-05,0.001831049159507187,-0.00025249273369837554,0.0008966146332669263,0.0005134564857182615,1.7496135271301345e-05,0.00021723105249432285,-0.001581027168511822,0.2720577120780945,22.795862197875977,0.07375786453485489,-14.056428909301758,-0.10558086633682251,-2.1197543144226074,0.41324180364608765,0
64,0.31503748893737793,-0.2720577120780945,-22.795862197875977,-0.07375786453485489,14.056428909301758,0.10558086633682251,2.1197543144226074,-0.41324180364608765,0.0,0.0,0.0,0.0,0.0,0.0,0.0,-0.32981037808874514,0.015428546128908616,-0.20301256094092487,0.1871199747671344,-0.13440638799035065,-0.07057048586198399,-0.3750054678987087,1.6754969541273617,0.052284986297799,0.029812660084674997,-2.7523696808517526,0.03425356718897819,2.766375570986006,0.7691839539143773,1.6754973547542302,0.052104326824870026,0.029969505109285054,-2.752394845125968,0.0342448039870148,2.7663679543071322,0.7691630533470046,-0.001831049159507187,0.00025249273369837554,-0.0008966146332669263,-0.0005134564857182615,-1.7496135271301345e-05,-0.00021723105249432285,0.001581027168511822,0.0,0.0,0.0,0.0,0.0,0.0,0.0,4.0062686856856544e-07,-0.00018065947292897344,0.00015684502461005626,-2.51642742155056e-05,-8.763201963392364e-06,-7.616678873834104e-06,-2.0900567372694745e-05,0.001831049159507187,-0.00025249273369837554,0.0008966146332669263,0.0005134564857182615,1.7496135271301345e-05,0.00021723105249432285,-0.001581027168511822,0.2720577120780945,22.795862197875977,0.07375786453485489,-14.056428909301758,-0.10558086633682251,-2.1197543144226074,0.41324180364608765,0
65,0.3200204372406006,-0.2998287081718445,-22.819665908813477,-0.09756157547235489,14.056428909301758,0.10008770227432251,2.1261630058288574,-0.42605918645858765,0.0,0.0,0.0,0.0,0.0,0.0,0.0,-0.32803753321752704,0.01225946153643584,-0.20171286484362574,0.1893754519358816,-0.13376321792844104,-0.07029489947776678,-0.37579940234373577,1.675498902969193,0.052286665466953874,0.029814251627124665,-2.752369638243234,0.03425417754054069,2.766374858909183,0.7691853780680231,1.6754973547542302,0.052104326824870026,0.029969505109285054,-2.752394845125968,0.0342448039870148,2.7663679543071322,0.7691630533470046,-5.133741915815284e-05,0.001054920153541059,-0.0002531731456464571,6.229064755276522e-05,-2.1302223880650682e-05,-0.0005031442649644906,0.0023251091842110515,0.0,0.0,0.0,0.0,0.0,0.0,0.0,-1.5482149626766528e-06,-0.00018233864208384853,0.00015525348216038903,-2.520688273399685e-05,-9.373553525891809e-06,-6.904602050994413e-06,-2.232472101848515e-05,5.133741915815284e-05,-0.001054920153541059,0.0002531731456464571,-6.229064755276522e-05,2.1302223880650682e-05,0.0005031442649644906,-0.0023251091842110515,0.2998287081718445,22.819665908813477,0.09756157547235489,-14.056428909301758,-0.10008770227432251,-2.1261630058288574,0.42605918645858765,0
66,0.325000524520874,-0.2998287081718445,-22.819665908813477,-0.09756157547235489,14.056428909301758,0.10008770227432251,2.1261630058288574,-0.42605918645858765,0.0,0.0,0.0,0.0,0.0,0.0,0.0,-0.32803753321752704,0.01225946153643584,-0.20171286484362574,0.1893754519358816,-0.13376321792844104,-0.07029489947776678,-0.37579940234373577,1.675498902969193,0.052286665466953874,0.029814251627124665,-2.752369638243234,0.03425417754054069,2.766374858909183,0.7691853780680231,1.6754973547542302,0.052104326824870026,0.029969505109285054,-2.752394845125968,0.0342448039870148,2.7663679543071322,0.7691630533470046,-5.133741915815284e-05,0.001054920153541059,-0.0002531731456464571,6.229064755276522e-05,-2.1302223880650682e-05,-0.0005031442649644906,0.0023251091842110515,0.0,0.0,0.0,0.0,0.0,0.0,0.0,-1.5482149626766528e-06,-0.00018233864208384853,0.00015525348216038903,-2.520688273399685e-05,-9.373553525891809e-06,-6.904602050994413e-06,-2.232472101848515e-05,5.133741915815284e-05,-0.001054920153541059,0.0002531731456464571,-6.229064755276522e-05,2.1302223880650682e-05,0.0005031442649644906,-0.0023251091842110515,0.2998287081718445,22.819665908813477,0.09756157547235489,-14.056428909301758,-0.10008770227432251,-2.1261630058288574,0.42605918645858765,0
67,0.33001184463500977,-0.24825400114059448,-22.795862197875977,-0.07375786453485489,14.056428909301758,0.10008770227432251,2.1197543144226074,-0.37845176458358765,0.0,0.0,0.0,0.0,0.0,0.0,0.0,-0.3215661482454215,0.014815912623837276,-0.19722302609725462,0.18914351717615083,-0.13365981525968224,-0.07014071569275586,-0.3748984618237368,1.6754952836915065,0.05228499474245668,0.029812367579250123,-2.752369708110309,0.03425417754054069,2.766375570986006,0.7691801291077236,1.6754973547542302,0.052104326824870026,0.029969505109285054,-2.752394845125968,0.0342448039870148,2.7663679543071322,0.7691630533470046,-0.001157903456342826,0.0007220229860807215,0.00022687071554260314,0.0002889753984302728,-8.28969369296596e-05,-8.728400946501696e-05,0.00030200575300452965,0.0,0.0,0.0,0.0,0.0,0.0,0.0,2.0710627237630064e-06,-0.0001806679175866549,0.00015713753003493078,-2.5137015659204565e-05,-9.373553525891809e-06,-7.616678873834104e-06,-1.7075760718965327e-05,0.001157903456342826,-0.0007220229860807215,-0.00022687071554260314,-0.0002889753984302728,8.28969369296596e-05,8.728400946501696e-05,-0.00030200575300452965,0.24825400114059448,22.795862197875977,0.07375786453485489,-14.056428909301758,-0.10008770227432251,-2.1197543144226074,0.37845176458358765,0
68,0.3361496925354004,-0.24825400114059448,-22.795862197875977,-0.07375786453485489,14.056428909301758,0.10008770227432251,2.1197543144226074,-0.37845176458358765,0.0,0.0,0.0,0.0,0.0,0.0,0.0,-0.3215661482454215,0.014815912623837276,-0.19722302609725462,0.18914351717615083,-0.13365981525968224,-0.07014071569275586,-0.3748984618237368,1.6754952836915065,0.05228499474245668,0.029812367579250123,-2.752369708110309,0.03425417754054069,2.766375570986006,0.7691801291077236,1.6754973547542302,0.052104326824870026,0.029969505109285054,-2.752394845125968,0.0342448039870148,2.7663679543071322,0.7691630533470046,-0.001157903456342826,0.0007220229860807215,0.00022687071554260314,0.0002889753984302728,-8.28969369296596e-05,-8.728400946501696e-05,0.00030200575300452965,0.0,0.0,0.0,0.0,0.0,0.0,0.0,2.0710627237630064e-06,-0.0001806679175866549,0.00015713753003493078,-2.5137015659204565e-05,-9.373553525891809e-06,-7.616678873834104e-06,-1.7075760718965327e-05,0.001157903456342826,-0.0007220229860807215,-0.00022687071554260314,-0.0002889753984302728,8.28969369296596e-05,8.728400946501696e-05,-0.00030200575300452965,0.24825400114059448,22.795862197875977,0.07375786453485489,-14.056428909301758,-0.10008770227432251,-2.1197543144226074,0.37845176458358765,0
69,0.3400087356567383,-0.24825400114059448,-22.795862197875977,-0.04995415359735489,14.008821487426758,0.09367901086807251,2.1197543144226074,-0.39950889348983765,0.0,0.0,0.0,0.0,0.0,0.0,0.0,-0.3192091038933095,0.019625104964257577,-0.19479446690124916,0.18637727556139025,-0.132905457291983,-0.0702952212278585,-0.37449093518441795,1.6754952836915065,0.05228496691983781,0.029812802927684474,-2.7523662962411386,0.034254889617363615,2.766375570986006,0.7691824280357011,1.6754973547542302,0.052104326824870026,0.029969505109285054,-2.752394845125968,0.0342448039870148,2.7663679543071322,0.7691630533470046,-0.00039870128309456705,0.0007902923895822983,-0.0009813998092809944,0.0012036468969294438,0.0001985505501065813,-8.43092214527282e-05,0.0011107720481002194,0.0,0.0,0.0,0.0,0.0,0.0,0.0,2.0710627237630064e-06,-0.00018064009496778638,0.00015670218160057994,-2.8548884829504573e-05,-1.0085630348814767e-05,-7.616678873834104e-06,-1.937468869650516e-05,0.00039870128309456705,-0.0007902923895822983,0.0009813998092809944,-0.0012036468969294438,-0.0001985505501065813,8.43092214527282e-05,-0.0011107720481002194,0.24825400114059448,22.795862197875977,0.04995415359735489,-14.008821487426758,-0.09367901086807251,-2.1197543144226074,0.39950889348983765,0
70,0.3450467586517334,-0.24825400114059448,-22.795862197875977,-0.04995415359735489,14.008821487426758,0.09367901086807251,2.1197543144226074,-0.39950889348983765,0.0,0.0,0.0,0.0,0.0,0.0,0.0,-0.3192091038933095,0.019625104964257577,-0.19479446690124916,0.18637727556139025,-0.132905457291983,-0.0702952212278585,-0.37449093518441795,1.6754952836915065,0.05228496691983781,0.029812802927684474,-2.7523662962411386,0.034254889617363615,2.766375570986006,0.7691824280357011,1.6754973547542302,0.052104326824870026,0.029969505109285054,-2.752394845125968,0.0342448039870148,2.7663679543071322,0.7691630533470046,-0.00039870128309456705,0.0007902923895822983,-0.0009813998092809944,0.0012036468969294438,0.0001985505501065813,-8.43092214527282e-05,0.0011107720481002194,0.0,0.0,0.0,0.0,0.0,0.0,0.0,2.0710627237630064e-06,-0.00018064009496778638,0.00015670218160057994,-2.8548884829504573e-05,-1.0085630348814767e-05,-7.616678873834104e-06,-1.937468869650516e-05,0.00039870128309456705,-0.0007902923895822983,0.0009813998092809944,-0.0012036468969294438,-0.0001985505501065813,8.43092214527282e-05,-0.0011107720481002194,0.24825400114059448,22.795862197875977,0.04995415359735489,-14.008821487426758,-0.09367901086807251,-2.1197543144226074,0.39950889348983765,0
71,0.35003089904785156,-0.2720577120780945,-22.748254776000977,-0.09756157547235489,14.056428909301758,0.10008770227432251,2.1261630058288574,-0.39218467473983765,0.0,0.0,0.0,0.0,0.0,0.0,0.0,-0.3118771169375508,0.015003983567247666,-0.19053094844265817,0.1911690735280132,-0.13209701060828655,-0.06903421688513413,-0.375905908092164,1.6754969541273617,0.05228165394287027,0.02981614394768807,-2.752369693074447,0.03425417754054069,2.766374858909183,0.7691816142333877,1.6754973547542302,0.052104326824870026,0.029969505109285054,-2.752394845125968,0.0342448039870148,2.7663679543071322,0.7691630533470046,-1.2147928322572058e-05,-0.0009766491750988694,0.00028426510963941226,-6.979391256071135e-05,-0.0033001928667181287,-0.00032457420248276536,0.0002002419605162304,0.0,0.0,0.0,0.0,0.0,0.0,0.0,4.0062686856856544e-07,-0.00017732711800024642,0.00015336116159698349,-2.5152051521093455e-05,-9.373553525891809e-06,-6.904602050994413e-06,-1.8560886383078845e-05,1.2147928322572058e-05,0.0009766491750988694,-0.00028426510963941226,6.979391256071135e-05,0.0033001928667181287,0.00032457420248276536,-0.0002002419605162304,0.2720577120780945,22.748254776000977,0.09756157547235489,-14.056428909301758,-0.10008770227432251,-2.1261630058288574,0.39218467473983765,0
72,0.35505008697509766,-0.2720577120780945,-22.748254776000977,-0.09756157547235489,14.056428909301758,0.10008770227432251,2.1261630058288574,-0.39218467473983765,0.0,0.0,0.0,0.0,0.0,0.0,0.0,-0.3118771169375508,0.015003983567247666,-0.19053094844265817,0.1911690735280132,-0.13209701060828655,-0.06903421688513413,-0.375905908092164,1.6754969541273617,0.05228165394287027,0.02981614394768807,-2.752369693074447,0.03425417754054069,2.766374858909183,0.7691816142333877,1.6754973547542302,0.052104326824870026,0.029969505109285054,-2.752394845125968,0.0342448039870148,2.7663679543071322,0.7691630533470046,-1.2147928322572058e-05,-0.0009766491750988694,0.00028426510963941226,-6.979391256071135e-05,-0.0033001928667181287,-0.00032457420248276536,0.0002002419605162304,0.0,0.0,0.0,0.0,0.0,0.0,0.0,4.0062686856856544e-07,-0.00017732711800024642,0.00015336116159698349,-2.5152051521093455e-05,-9.373553525891809e-06,-6.904602050994413e-06,-1.8560886383078845e-05,1.2147928322572058e-05,0.0009766491750988694,-0.00028426510963941226,6.979391256071135e-05,0.0033001928667181287,0.00032457420248276536,-0.0002002419605162304,0.2720577120780945,22.748254776000977,0.09756157547235489,-14.056428909301758,-0.10008770227432251,-2.1261630058288574,0.39218467473983765,0
73,0.36006689071655273,-0.3236324191093445,-22.795862197875977,-0.1491362750530243,14.056428909301758,0.10008770227432251,2.1197543144226074,-0.36471885442733765,0.0,0.0,0.0,0.0,0.0,0.0,0.0,-0.3102840359518874,0.016948414700189783,-0.19303251217125042,0.18858397203493352,-0.13260742002238554,-0.0693972163528265,-0.3771534172439892,1.675500573405048,0.05228286528377448,0.029817630980632455,-2.752367492027913,0.03425429583000548,2.766375570986006,0.7691785624755753,1.6754973547542302,0.052104326824870026,0.029969505109285054,-2.752394845125968,0.0342448039870148,2.7663679543071322,0.7691630533470046,0.00020080716876057252,-3.12725086391817e-05,-3.2098425918716545e-05,-0.00014019611252476385,-0.00023526101182995318,-0.00022364979685990141,-0.00029348225842284385,0.0,0.0,0.0,0.0,0.0,0.0,0.0,-3.2186508178710938e-06,-0.00017853845890445502,0.00015187412865259875,-2.735309805501629e-05,-9.491842990677624e-06,-7.616678873834104e-06,-1.5509128570623254e-05,-0.00020080716876057252,3.12725086391817e-05,3.2098425918716545e-05,0.00014019611252476385,0.00023526101182995318,0.00022364979685990141,0.00029348225842284385,0.3236324191093445,22.795862197875977,0.1491362750530243,-14.056428909301758,-0.10008770227432251,-2.1197543144226074,0.36471885442733765,0
74,0.3650386333465576,-0.3236324191093445,-22.795862197875977,-0.1491362750530243,14.056428909301758,0.10008770227432251,2.1197543144226074,-0.36471885442733765,0.0,0.0,0.0,0.0,0.0,0.0,0.0,-0.3102840359518874,0.016948414700189783,-0.19303251217125042,0.18858397203493352,-0.13260742002238554,-0.0693972163528265,-0.3771534172439892,1.675500573405048,0.05228286528377448,0.029817630980632455,-2.752367492027913,0.03425429583000548,2.766375570986006,0.7691785624755753,1.6754973547542302,0.052104326824870026,0.029969505109285054,-2.752394845125968,0.0342448039870148,2.7663679543071322,0.7691630533470046,0.00020080716876057252,-3.12725086391817e-05,-3.2098425918716545e-05,-0.00014019611252476385,-0.00023526101182995318,-0.00022364979685990141,-0.00029348225842284385,0.0,0.0,0.0,0.0,0.0,0.0,0.0,-3.2186508178710938e-06,-0.00017853845890445502,0.00015187412865259875,-2.735309805501629e-05,-9.491842990677624e-06,-7.616678873834104e-06,-1.5509128570623254e-05,-0.00020080716876057252,3.12725086391817e-05,3.2098425918716545e-05,0.00014019611252476385,0.00023526101182995318,0.00022364979685990141,0.00029348225842284385,0.3236324191093445,22.795862197875977,0.1491362750530243,-14.056428909301758,-0.10008770227432251,-2.1197543144226074,0.36471885442733765,0
75,0.37001824378967285,-0.3236324191093445,-22.795862197875977,-0.1729399859905243,14.056428909301758,0.09367901086807251,2.1197543144226074,-0.37204307317733765,0.0,0.0,0.0,0.0,0.0,0.0,0.0,-0.31098156949992606,0.01473504897338039,-0.19725184286400316,0.19012031719056977,-0.13407304745136958,-0.06947895294864462,-0.3760570493124178,1.675500573405048,0.052284758364490105,0.029820099848118165,-2.7523696255688406,0.034254889618031366,2.766375570986006,0.7691793762776585,1.6754973547542302,0.052104326824870026,0.029969505109285054,-2.752394845125968,0.0342448039870148,2.7663679543071322,0.7691630533470046,-0.0011096191736415645,3.4377322749447807e-05,0.00038390009712725086,0.0001100012102505323,-5.919779648515169e-05,-0.00018927229177286565,-0.0002756514571710454,0.0,0.0,0.0,0.0,0.0,0.0,0.0,-3.2186508178710938e-06,-0.00018043153962007952,0.0001494052611668885,-2.5219557127531544e-05,-1.0085631016565344e-05,-7.616678873834104e-06,-1.6322930653900336e-05,0.0011096191736415645,-3.4377322749447807e-05,-0.00038390009712725086,-0.0001100012102505323,5.919779648515169e-05,0.00018927229177286565,0.0002756514571710454,0.3236324191093445,22.795862197875977,0.1729399859905243,-14.056428909301758,-0.09367901086807251,-2.1197543144226074,0.37204307317733765,0
76,0.37502074241638184,-0.3236324191093445,-22.795862197875977,-0.1729399859905243,14.056428909301758,0.09367901086807251,2.1197543144226074,-0.37204307317733765,0.0,0.0,0.0,0.0,0.0,0.0,0.0,-0.31098156949992606,0.01473504897338039,-0.19725184286400316,0.19012031719056977,-0.13407304745136958,-0.06947895294864462,-0.3760570493124178,1.675500573405048,0.052284758364490105,0.029820099848118165,-2.7523696255688406,0.034254889618031366,2.766375570986006,0.7691793762776585,1.6754973547542302,0.052104326824870026,0.029969505109285054,-2.752394845125968,0.0342448039870148,2.7663679543071322,0.7691630533470046,-0.0011096191736415645,3.4377322749447807e-05,0.00038390009712725086,0.0001100012102505323,-5.919779648515169e-05,-0.00018927229177286565,-0.0002756514571710454,0.0,0.0,0.0,0.0,0.0,0.0,0.0,-3.2186508178710938e-06,-0.00018043153962007952,0.0001494052611668885,-2.5219557127531544e-05,-1.0085631016565344e-05,-7.616678873834104e-06,-1.6322930653900336e-05,0.0011096191736415645,-3.4377322749447807e-05,-0.00038390009712725086,-0.0001100012102505323,5.919779648515169e-05,0.00018927229177286565,0.0002756514571710454,0.3236324191093445,22.795862197875977,0.1729399859905243,-14.056428909301758,-0.09367901086807251,-2.1197543144226074,0.37204307317733765,0
77,0.37502074241638184,-0.3236324191093445,-22.795862197875977,-0.1729399859905243,14.056428909301758,0.09367901086807251,2.1197543144226074,-0.37204307317733765,0.0,0.0,0.0,0.0,0.0,0.0,0.0,-0.31098156949992606,0.01473504897338039,-0.19725184286400316,0.19012031719056977,-0.13407304745136958,-0.06947895294864462,-0.3760570493124178,1.675500573405048,0.052284758364490105,0.029820099848118165,-2.7523696255688406,0.034254889618031366,2.766375570986006,0.7691793762776585,1.6754973547542302,0.052104326824870026,0.029969505109285054,-2.752394845125968,0.0342448039870148,2.7663679543071322,0.7691630533470046,-0.0011096191736415645,3.4377322749447807e-05,0.00038390009712725086,0.0001100012102505323,-5.919779648515169e-05,-0.00018927229177286565,-0.0002756514571710454,0.0,0.0,0.0,0.0,0.0,0.0,0.0,-3.2186508178710938e-06,-0.00018043153962007952,0.0001494052611668885,-2.5219557127531544e-05,-1.0085631016565344e-05,-7.616678873834104e-06,-1.6322930653900336e-05,0.0011096191736415645,-3.4377322749447807e-05,-0.00038390009712725086,-0.0001100012102505323,5.919779648515169e-05,0.00018927229177286565,0.0002756514571710454,0.3236324191093445,22.795862197875977,0.1729399859905243,-14.056428909301758,-0.09367901086807251,-2.1197543144226074,0.37204307317733765,0
78,0.3850107192993164,-0.3236324191093445,-22.772058486938477,-0.1729399859905243,14.056428909301758,0.09367901086807251,2.1133456230163574,-0.34457725286483765,0.0,0.0,0.0,0.0,0.0,0.0,0.0,-0.3193225655208147,0.0167423196839983,-0.20204000847510933,0.18361227365240643,-0.13561631690142253,-0.07080310520269777,-0.3768413979325581,1.675500573405048,0.05228237768672417,0.02981930155338804,-2.7523694720536773,0.03425488961736362,2.766376283062829,0.7691763245198461,1.6754973547542302,0.052104326824870026,0.029969505109285054,-2.752394845125968,0.0342448039870148,2.7663679543071322,0.7691630533470046,-0.0016353269400199517,-0.00033014984003908534,0.0005713305342208852,-0.0005108436405070013,-5.083216521342949e-05,2.257313742606896e-05,-0.001379713394576402,0.0,0.0,0.0,0.0,0.0,0.0,0.0,-3.2186508178710938e-06,-0.00017805086185414265,0.00015020355589701398,-2.5373072290779675e-05,-1.0085630348821706e-05,-8.328755696673795e-06,-1.3271172841444745e-05,0.0016353269400199517,0.00033014984003908534,-0.0005713305342208852,0.0005108436405070013,5.083216521342949e-05,-2.257313742606896e-05,0.001379713394576402,0.3236324191093445,22.772058486938477,0.1729399859905243,-14.056428909301758,-0.09367901086807251,-2.1133456230163574,0.34457725286483765,0
79,0.39002013206481934,-0.3236324191093445,-22.772058486938477,-0.1729399859905243,14.056428909301758,0.09367901086807251,2.1133456230163574,-0.34457725286483765,0.0,0.0,0.0,0.0,0.0,0.0,0.0,-0.3193225655208147,0.0167423196839983,-0.20204000847510933,0.18361227365240643,-0.13561631690142253,-0.07080310520269777,-0.3768413979325581,1.675500573405048,0.05228237768672417,0.02981930155338804,-2.7523694720536773,0.03425488961736362,2.766376283062829,0.7691763245198461,1.6754973547542302,0.052104326824870026,0.029969505109285054,-2.752394845125968,0.0342448039870148,2.7663679543071322,0.7691630533470046,-0.0016353269400199517,-0.00033014984003908534,0.0005713305342208852,-0.0005108436405070013,-5.083216521342949e-05,2.257313742606896e-05,-0.001379713394576402,0.0,0.0,0.0,0.0,0.0,0.0,0.0,-3.2186508178710938e-06,-0.00017805086185414265,0.00015020355589701398,-2.5373072290779675e-05,-1.0085630348821706e-05,-8.328755696673795e-06,-1.3271172841444745e-05,0.0016353269400199517,0.00033014984003908534,-0.0005713305342208852,0.0005108436405070013,5.083216521342949e-05,-2.257313742606896e-05,0.001379713394576402,0.3236324191093445,22.772058486938477,0.1729399859905243,-14.056428909301758,-0.09367901086807251,-2.1133456230163574,0.34457725286483765,0
