rezayati/contactInterpretation/dataset/franka_main/labeled_data/link3/e5_3.csv
index,time,tau_J0,tau_J1,tau_J2,tau_J3,tau_J4,tau_J5,tau_J6,tau_J_d0,tau_J_d1,tau_J_d2,tau_J_d3,tau_J_d4,tau_J_d5,tau_J_d6,tau_ext0,tau_ext1,tau_ext2,tau_ext3,tau_ext4,tau_ext5,tau_ext6,q0,q1,q2,q3,q4,q5,q6,q_d0,q_d1,q_d2,q_d3,q_d4,q_d5,q_d6,dq0,dq1,dq2,dq3,dq4,dq5,dq6,dq_d0,dq_d1,dq_d2,dq_d3,dq_d4,dq_d5,dq_d6,e0,e1,e2,e3,e4,e5,e6,de0,de1,de2,de3,de4,de5,de6,etau_J0,etau_J1,etau_J2,etau_J3,etau_J4,etau_J5,etau_J6,label
1,0.0,-0.7560665011405945,-33.86458969116211,-4.072781085968018,19.360689163208008,0.2429099678993225,1.860660195350647,-0.09097616374492645,0.0,0.0,0.0,0.0,0.0,0.0,0.0,-0.938686094777689,0.25849852530550765,-0.7271641799796816,0.32397215439656096,0.18411794263322456,-0.03459842692177112,-0.11703680071677013,1.0546915622803203,0.3242919399487345,-0.39246445401103563,-2.153495444461881,0.8647488597167863,2.465964763039329,0.5444870349509776,1.0544104758940245,0.3238615046091247,-0.39250456234122666,-2.153291787532338,0.8647539153680389,2.46587817577521,0.5445020185570556,-0.0005557420592096122,0.00010906571189787983,-0.0010173118209282675,0.0003230687627730804,-0.00013282803427557403,0.000287246716613434,-0.00048020257172393165,0.0,0.0,0.0,0.0,0.0,0.0,0.0,-0.00028108638629587013,-0.0004304353396097915,-4.010833019102433e-05,0.00020365692954316117,5.05565125263896e-06,-8.65872641191423e-05,1.4983606077989542e-05,0.0005557420592096122,-0.00010906571189787983,0.0010173118209282675,-0.0003230687627730804,0.00013282803427557403,-0.000287246716613434,0.00048020257172393165,0.7560665011405945,33.86458969116211,4.072781085968018,-19.360689163208008,-0.2429099678993225,-1.860660195350647,0.09097616374492645,0
2,0.005018711090087891,-0.7560665011405945,-33.86458969116211,-4.072781085968018,19.360689163208008,0.2429099678993225,1.860660195350647,-0.09097616374492645,0.0,0.0,0.0,0.0,0.0,0.0,0.0,-0.938686094777689,0.25849852530550765,-0.7271641799796816,0.32397215439656096,0.18411794263322456,-0.03459842692177112,-0.11703680071677013,1.0546915622803203,0.3242919399487345,-0.39246445401103563,-2.153495444461881,0.8647488597167863,2.465964763039329,0.5444870349509776,1.0544104758940245,0.3238615046091247,-0.39250456234122666,-2.153291787532338,0.8647539153680389,2.46587817577521,0.5445020185570556,-0.0005557420592096122,0.00010906571189787983,-0.0010173118209282675,0.0003230687627730804,-0.00013282803427557403,0.000287246716613434,-0.00048020257172393165,0.0,0.0,0.0,0.0,0.0,0.0,0.0,-0.00028108638629587013,-0.0004304353396097915,-4.010833019102433e-05,0.00020365692954316117,5.05565125263896e-06,-8.65872641191423e-05,1.4983606077989542e-05,0.0005557420592096122,-0.00010906571189787983,0.0010173118209282675,-0.0003230687627730804,0.00013282803427557403,-0.000287246716613434,0.00048020257172393165,0.7560665011405945,33.86458969116211,4.072781085968018,-19.360689163208008,-0.2429099678993225,-1.860660195350647,0.09097616374492645,0
3,0.010040998458862305,-0.5815059542655945,-33.91616439819336,-3.9974029064178467,19.360689163208008,0.2429099678993225,1.828616738319397,-0.11844198405742645,0.0,0.0,0.0,0.0,0.0,0.0,0.0,-0.8671725595235991,0.2514315143927423,-0.6558229994789131,0.3229137007845309,0.18427842896354446,-0.04183816892896801,-0.11584282077314169,1.0546784823554007,0.3242955592264209,-0.3924697437119065,-2.153495444474425,0.864749919348934,2.46596832337559,0.5444900880007536,1.0544104758940245,0.3238615046091247,-0.39250456234122666,-2.153291787532338,0.8647539153680389,2.46587817577521,0.5445020185570556,-0.0007999307747670353,0.0006154523394394338,-0.003074577436381091,-0.0003074154633719971,-5.9504790529890204e-05,-1.2577026757501432e-05,0.00015946142195985194,0.0,0.0,0.0,0.0,0.0,0.0,0.0,-0.00026800646137625783,-0.00043405461729617567,-3.481862932014357e-05,0.00020365694208734908,3.996019104945958e-06,-9.014760038006386e-05,1.1930556301997797e-05,0.0007999307747670353,-0.0006154523394394338,0.003074577436381091,0.0003074154633719971,5.9504790529890204e-05,1.2577026757501432e-05,-0.00015946142195985194,0.5815059542655945,33.91616439819336,3.9974029064178467,-19.360689163208008,-0.2429099678993225,-1.828616738319397,0.11844198405742645,0
4,0.01500391960144043,-0.5815059542655945,-33.91616439819336,-3.9974029064178467,19.360689163208008,0.2429099678993225,1.828616738319397,-0.11844198405742645,0.0,0.0,0.0,0.0,0.0,0.0,0.0,-0.8671725595235991,0.2514315143927423,-0.6558229994789131,0.3229137007845309,0.18427842896354446,-0.04183816892896801,-0.11584282077314169,1.0546784823554007,0.3242955592264209,-0.3924697437119065,-2.153495444474425,0.864749919348934,2.46596832337559,0.5444900880007536,1.0544104758940245,0.3238615046091247,-0.39250456234122666,-2.153291787532338,0.8647539153680389,2.46587817577521,0.5445020185570556,-0.0007999307747670353,0.0006154523394394338,-0.003074577436381091,-0.0003074154633719971,-5.9504790529890204e-05,-1.2577026757501432e-05,0.00015946142195985194,0.0,0.0,0.0,0.0,0.0,0.0,0.0,-0.00026800646137625783,-0.00043405461729617567,-3.481862932014357e-05,0.00020365694208734908,3.996019104945958e-06,-9.014760038006386e-05,1.1930556301997797e-05,0.0007999307747670353,-0.0006154523394394338,0.003074577436381091,0.0003074154633719971,5.9504790529890204e-05,1.2577026757501432e-05,-0.00015946142195985194,0.5815059542655945,33.91616439819336,3.9974029064178467,-19.360689163208008,-0.2429099678993225,-1.828616738319397,0.11844198405742645,0
5,0.020003795623779297,-0.4505855441093445,-33.89236068725586,-3.7990386486053467,19.336885452270508,0.2365012764930725,1.783755898475647,-0.13858358561992645,0.0,0.0,0.0,0.0,0.0,0.0,0.0,-0.7996542478857085,0.2281527995553507,-0.5909897573688788,0.32835517310289497,0.18575664020985067,-0.05069250146645256,-0.11628476767171358,1.0546690521379425,0.32429388879056564,-0.3924867936860738,-2.153493777091026,0.8647506314317386,2.4659733079671855,0.5444955557451368,1.0544104758940245,0.3238615046091247,-0.39250456234122666,-2.153291787532338,0.8647539153680389,2.46587817577521,0.5445020185570556,-0.0004413401503299225,-0.0006845219635941612,-0.0008094552620789784,0.000831607313372701,0.0004890366139549416,0.0005031324081629159,0.0010623440340522094,0.0,0.0,0.0,0.0,0.0,0.0,0.0,-0.00025857624391800726,-0.0004323841814409257,-1.7768655152849977e-05,0.00020198955868799828,3.2839363003356326e-06,-9.513219197554434e-05,6.462811918850342e-06,0.0004413401503299225,0.0006845219635941612,0.0008094552620789784,-0.000831607313372701,-0.0004890366139549416,-0.0005031324081629159,-0.0010623440340522094,0.4505855441093445,33.89236068725586,3.7990386486053467,-19.336885452270508,-0.2365012764930725,-1.783755898475647,0.13858358561992645,0
6,0.024999141693115234,-0.4505855441093445,-33.89236068725586,-3.7990386486053467,19.336885452270508,0.2365012764930725,1.783755898475647,-0.13858358561992645,0.0,0.0,0.0,0.0,0.0,0.0,0.0,-0.7996542478857085,0.2281527995553507,-0.5909897573688788,0.32835517310289497,0.18575664020985067,-0.05069250146645256,-0.11628476767171358,1.0546690521379425,0.32429388879056564,-0.3924867936860738,-2.153493777091026,0.8647506314317386,2.4659733079671855,0.5444955557451368,1.0544104758940245,0.3238615046091247,-0.39250456234122666,-2.153291787532338,0.8647539153680389,2.46587817577521,0.5445020185570556,-0.0004413401503299225,-0.0006845219635941612,-0.0008094552620789784,0.000831607313372701,0.0004890366139549416,0.0005031324081629159,0.0010623440340522094,0.0,0.0,0.0,0.0,0.0,0.0,0.0,-0.00025857624391800726,-0.0004323841814409257,-1.7768655152849977e-05,0.00020198955868799828,3.2839363003356326e-06,-9.513219197554434e-05,6.462811918850342e-06,0.0004413401503299225,0.0006845219635941612,0.0008094552620789784,-0.000831607313372701,-0.0004890366139549416,-0.0005031324081629159,-0.0010623440340522094,0.4505855441093445,33.89236068725586,3.7990386486053467,-19.336885452270508,-0.2365012764930725,-1.783755898475647,0.13858358561992645,0
7,0.029999732971191406,-0.3752071261405945,-33.93996810913086,-3.7236602306365967,19.388460159301758,0.2548118233680725,1.783755898475647,-0.07724325358867645,0.0,0.0,0.0,0.0,0.0,0.0,0.0,-0.7603961551842938,0.20907332611966883,-0.548475507816833,0.3287464742798009,0.18889479916736324,-0.06038631501572205,-0.11558899865073764,1.0546637624230302,0.32429722966227614,-0.39249529168463737,-2.153497396368729,0.8647485969265302,2.465973307482669,0.5444858621414339,1.0544104758940245,0.3238615046091247,-0.39250456234122666,-2.153291787532338,0.8647539153680389,2.46587817577521,0.5445020185570556,0.0006081586932384718,0.000763517225252377,-1.9195122362099072e-05,-0.00042008591571237176,-0.000500835211042274,0.00019634220407075377,-0.0009962607198460804,0.0,0.0,0.0,0.0,0.0,0.0,0.0,-0.0002532865290056918,-0.0004357250531514256,-9.270656589288606e-06,0.00020560883639131333,5.318441508750382e-06,-9.513170745911737e-05,1.615641562169312e-05,-0.0006081586932384718,-0.000763517225252377,1.9195122362099072e-05,0.00042008591571237176,0.000500835211042274,-0.00019634220407075377,0.0009962607198460804,0.3752071261405945,33.93996810913086,3.7236602306365967,-19.388460159301758,-0.2548118233680725,-1.783755898475647,0.07724325358867645,0
8,0.034996747970581055,-0.3752071261405945,-33.93996810913086,-3.7236602306365967,19.388460159301758,0.2548118233680725,1.783755898475647,-0.07724325358867645,0.0,0.0,0.0,0.0,0.0,0.0,0.0,-0.7603961551842938,0.20907332611966883,-0.548475507816833,0.3287464742798009,0.18889479916736324,-0.06038631501572205,-0.11558899865073764,1.0546637624230302,0.32429722966227614,-0.39249529168463737,-2.153497396368729,0.8647485969265302,2.465973307482669,0.5444858621414339,1.0544104758940245,0.3238615046091247,-0.39250456234122666,-2.153291787532338,0.8647539153680389,2.46587817577521,0.5445020185570556,0.0006081586932384718,0.000763517225252377,-1.9195122362099072e-05,-0.00042008591571237176,-0.000500835211042274,0.00019634220407075377,-0.0009962607198460804,0.0,0.0,0.0,0.0,0.0,0.0,0.0,-0.0002532865290056918,-0.0004357250531514256,-9.270656589288606e-06,0.00020560883639131333,5.318441508750382e-06,-9.513170745911737e-05,1.615641562169312e-05,-0.0006081586932384718,-0.000763517225252377,1.9195122362099072e-05,0.00042008591571237176,0.000500835211042274,-0.00019634220407075377,0.0009962607198460804,0.3752071261405945,33.93996810913086,3.7236602306365967,-19.388460159301758,-0.2548118233680725,-1.783755898475647,0.07724325358867645,0
9,0.03999805450439453,-0.3752071261405945,-33.93996810913086,-3.7236602306365967,19.388460159301758,0.2548118233680725,1.783755898475647,-0.07724325358867645,0.0,0.0,0.0,0.0,0.0,0.0,0.0,-0.7603961551842938,0.20907332611966883,-0.548475507816833,0.3287464742798009,0.18889479916736324,-0.06038631501572205,-0.11558899865073764,1.0546637624230302,0.32429722966227614,-0.39249529168463737,-2.153497396368729,0.8647485969265302,2.465973307482669,0.5444858621414339,1.0544104758940245,0.3238615046091247,-0.39250456234122666,-2.153291787532338,0.8647539153680389,2.46587817577521,0.5445020185570556,0.0006081586932384718,0.000763517225252377,-1.9195122362099072e-05,-0.00042008591571237176,-0.000500835211042274,0.00019634220407075377,-0.0009962607198460804,0.0,0.0,0.0,0.0,0.0,0.0,0.0,-0.0002532865290056918,-0.0004357250531514256,-9.270656589288606e-06,0.00020560883639131333,5.318441508750382e-06,-9.513170745911737e-05,1.615641562169312e-05,-0.0006081586932384718,-0.000763517225252377,1.9195122362099072e-05,0.00042008591571237176,0.000500835211042274,-0.00019634220407075377,0.0009962607198460804,0.3752071261405945,33.93996810913086,3.7236602306365967,-19.388460159301758,-0.2548118233680725,-1.783755898475647,0.07724325358867645,0
10,0.04499959945678711,-0.3752071261405945,-33.93996810913086,-3.7236602306365967,19.388460159301758,0.2548118233680725,1.783755898475647,-0.07724325358867645,0.0,0.0,0.0,0.0,0.0,0.0,0.0,-0.7603961551842938,0.20907332611966883,-0.548475507816833,0.3287464742798009,0.18889479916736324,-0.06038631501572205,-0.11558899865073764,1.0546637624230302,0.32429722966227614,-0.39249529168463737,-2.153497396368729,0.8647485969265302,2.465973307482669,0.5444858621414339,1.0544104758940245,0.3238615046091247,-0.39250456234122666,-2.153291787532338,0.8647539153680389,2.46587817577521,0.5445020185570556,0.0006081586932384718,0.000763517225252377,-1.9195122362099072e-05,-0.00042008591571237176,-0.000500835211042274,0.00019634220407075377,-0.0009962607198460804,0.0,0.0,0.0,0.0,0.0,0.0,0.0,-0.0002532865290056918,-0.0004357250531514256,-9.270656589288606e-06,0.00020560883639131333,5.318441508750382e-06,-9.513170745911737e-05,1.615641562169312e-05,-0.0006081586932384718,-0.000763517225252377,1.9195122362099072e-05,0.00042008591571237176,0.000500835211042274,-0.00019634220407075377,0.0009962607198460804,0.3752071261405945,33.93996810913086,3.7236602306365967,-19.388460159301758,-0.2548118233680725,-1.783755898475647,0.07724325358867645,0
11,0.05001378059387207,-0.2720577120780945,-33.91616439819336,-3.6998565196990967,19.388460159301758,0.2429099678993225,1.763614296913147,-0.13858358561992645,0.0,0.0,0.0,0.0,0.0,0.0,0.0,-0.6847626399986331,0.18961890591075492,-0.47376746036899875,0.32932164958012394,0.19089295985023344,-0.07282062987130139,-0.11372161583262964,1.054654139068145,0.3242955592264209,-0.39249700185701347,-2.153497396368729,0.8647499193549156,2.465975545922914,0.5444924553769537,1.0544104758940245,0.3238615046091247,-0.39250456234122666,-2.153291787532338,0.8647539153680389,2.46587817577521,0.5445020185570556,-0.0007028163800155582,-0.00031524864184366157,0.00015860964759484682,-0.0007945689932957296,0.0002320264737226985,0.0004087159875934779,0.0010387294959705274,0.0,0.0,0.0,0.0,0.0,0.0,0.0,-0.00024366317412050087,-0.00043405461729617567,-7.560484213187113e-06,0.00020560883639131333,3.996013123286346e-06,-9.737014770383468e-05,9.563180101923585e-06,0.0007028163800155582,0.00031524864184366157,-0.00015860964759484682,0.0007945689932957296,-0.0002320264737226985,-0.0004087159875934779,-0.0010387294959705274,0.2720577120780945,33.91616439819336,3.6998565196990967,-19.388460159301758,-0.2429099678993225,-1.763614296913147,0.13858358561992645,0
12,0.05501556396484375,-0.2720577120780945,-33.91616439819336,-3.6998565196990967,19.388460159301758,0.2429099678993225,1.763614296913147,-0.13858358561992645,0.0,0.0,0.0,0.0,0.0,0.0,0.0,-0.6847626399986331,0.18961890591075492,-0.47376746036899875,0.32932164958012394,0.19089295985023344,-0.07282062987130139,-0.11372161583262964,1.054654139068145,0.3242955592264209,-0.39249700185701347,-2.153497396368729,0.8647499193549156,2.465975545922914,0.5444924553769537,1.0544104758940245,0.3238615046091247,-0.39250456234122666,-2.153291787532338,0.8647539153680389,2.46587817577521,0.5445020185570556,-0.0007028163800155582,-0.00031524864184366157,0.00015860964759484682,-0.0007945689932957296,0.0002320264737226985,0.0004087159875934779,0.0010387294959705274,0.0,0.0,0.0,0.0,0.0,0.0,0.0,-0.00024366317412050087,-0.00043405461729617567,-7.560484213187113e-06,0.00020560883639131333,3.996013123286346e-06,-9.737014770383468e-05,9.563180101923585e-06,0.0007028163800155582,0.00031524864184366157,-0.00015860964759484682,0.0007945689932957296,-0.0002320264737226985,-0.0004087159875934779,-0.0010387294959705274,0.2720577120780945,33.91616439819336,3.6998565196990967,-19.388460159301758,-0.2429099678993225,-1.763614296913147,0.13858358561992645,0
13,0.060005903244018555,-0.2720577120780945,-33.99154281616211,-3.6998565196990967,19.360689163208008,0.2484031319618225,1.790164589881897,-0.11844198405742645,0.0,0.0,0.0,0.0,0.0,0.0,0.0,-0.5935499412363195,0.16450876660588146,-0.3923200367282573,0.33960778958759363,0.19127527724457016,-0.08467905297662852,-0.11371232782893091,1.054653424430163,0.3243008489399625,-0.3924970282107617,-2.1534952002780012,0.8647493084650012,2.4659725958903627,0.544490440299003,1.0544104758940245,0.3238615046091247,-0.39250456234122666,-2.153291787532338,0.8647539153680389,2.46587817577521,0.5445020185570556,-0.0004167485584981381,0.00030337568117448963,0.0004742441954984945,0.00041637135281887304,2.0459274528514943e-05,-0.0002365340194446692,0.0005651221821009867,0.0,0.0,0.0,0.0,0.0,0.0,0.0,-0.00024294853613859857,-0.00043934433083780977,-7.534130464947886e-06,0.0002034127456633783,4.6069030377182685e-06,-9.442011515270465e-05,1.1578258052646895e-05,0.0004167485584981381,-0.00030337568117448963,-0.0004742441954984945,-0.00041637135281887304,-2.0459274528514943e-05,0.0002365340194446692,-0.0005651221821009867,0.2720577120780945,33.99154281616211,3.6998565196990967,-19.360689163208008,-0.2484031319618225,-1.790164589881897,0.11844198405742645,0
14,0.0650026798248291,-0.2720577120780945,-33.99154281616211,-3.6998565196990967,19.360689163208008,0.2484031319618225,1.790164589881897,-0.11844198405742645,0.0,0.0,0.0,0.0,0.0,0.0,0.0,-0.5935499412363195,0.16450876660588146,-0.3923200367282573,0.33960778958759363,0.19127527724457016,-0.08467905297662852,-0.11371232782893091,1.054653424430163,0.3243008489399625,-0.3924970282107617,-2.1534952002780012,0.8647493084650012,2.4659725958903627,0.544490440299003,1.0544104758940245,0.3238615046091247,-0.39250456234122666,-2.153291787532338,0.8647539153680389,2.46587817577521,0.5445020185570556,-0.0004167485584981381,0.00030337568117448963,0.0004742441954984945,0.00041637135281887304,2.0459274528514943e-05,-0.0002365340194446692,0.0005651221821009867,0.0,0.0,0.0,0.0,0.0,0.0,0.0,-0.00024294853613859857,-0.00043934433083780977,-7.534130464947886e-06,0.0002034127456633783,4.6069030377182685e-06,-9.442011515270465e-05,1.1578258052646895e-05,0.0004167485584981381,-0.00030337568117448963,-0.0004742441954984945,-0.00041637135281887304,-2.0459274528514943e-05,0.0002365340194446692,-0.0005651221821009867,0.2720577120780945,33.99154281616211,3.6998565196990967,-19.360689163208008,-0.2484031319618225,-1.790164589881897,0.11844198405742645,0
15,0.07000184059143066,-0.3752071261405945,-33.96377182006836,-3.7514312267303467,19.412263870239258,0.2429099678993225,1.796573281288147,-0.10470907390117645,0.0,0.0,0.0,0.0,0.0,0.0,0.0,-0.54737746663805,0.15505051622620594,-0.3499105924136812,0.3365761997065582,0.19306226622010797,-0.09252136266173099,-0.11379619463022095,1.0546606884913086,0.324298926343798,-0.392494445511048,-2.153499066803189,0.8647495661422028,2.46597188381354,0.5444885621238434,1.0544104758940245,0.3238615046091247,-0.39250456234122666,-2.153291787532338,0.8647539153680389,2.46587817577521,0.5445020185570556,0.0001981758088729793,-0.0007841945421397761,0.0006733145388816107,-0.0009034149588247563,1.1678877617441434e-05,-0.0005155028846684639,-0.0006968919030344203,0.0,0.0,0.0,0.0,0.0,0.0,0.0,-0.00025021259728408296,-0.00043742173467326007,-1.0116830178652503e-05,0.00020727927085095743,4.349225836142168e-06,-9.370803832986496e-05,1.3456433212155616e-05,-0.0001981758088729793,0.0007841945421397761,-0.0006733145388816107,0.0009034149588247563,-1.1678877617441434e-05,0.0005155028846684639,0.0006968919030344203,0.3752071261405945,33.96377182006836,3.7514312267303467,-19.412263870239258,-0.2429099678993225,-1.796573281288147,0.10470907390117645,0
16,0.07500314712524414,-0.3752071261405945,-33.96377182006836,-3.7514312267303467,19.412263870239258,0.2429099678993225,1.796573281288147,-0.10470907390117645,0.0,0.0,0.0,0.0,0.0,0.0,0.0,-0.54737746663805,0.15505051622620594,-0.3499105924136812,0.3365761997065582,0.19306226622010797,-0.09252136266173099,-0.11379619463022095,1.0546606884913086,0.324298926343798,-0.392494445511048,-2.153499066803189,0.8647495661422028,2.46597188381354,0.5444885621238434,1.0544104758940245,0.3238615046091247,-0.39250456234122666,-2.153291787532338,0.8647539153680389,2.46587817577521,0.5445020185570556,0.0001981758088729793,-0.0007841945421397761,0.0006733145388816107,-0.0009034149588247563,1.1678877617441434e-05,-0.0005155028846684639,-0.0006968919030344203,0.0,0.0,0.0,0.0,0.0,0.0,0.0,-0.00025021259728408296,-0.00043742173467326007,-1.0116830178652503e-05,0.00020727927085095743,4.349225836142168e-06,-9.370803832986496e-05,1.3456433212155616e-05,-0.0001981758088729793,0.0007841945421397761,-0.0006733145388816107,0.0009034149588247563,-1.1678877617441434e-05,0.0005155028846684639,0.0006968919030344203,0.3752071261405945,33.96377182006836,3.7514312267303467,-19.412263870239258,-0.2429099678993225,-1.796573281288147,0.10470907390117645,0
17,0.07999968528747559,-0.5021602511405945,-33.99154281616211,-3.8506133556365967,19.336885452270508,0.2548118233680725,1.783755898475647,-0.11111776530742645,0.0,0.0,0.0,0.0,0.0,0.0,0.0,-0.5081904487599914,0.147825143892931,-0.30879374732461456,0.334070429752071,0.1933540588231945,-0.10039662276244861,-0.11388498068300808,1.054669571972746,0.32430084893997896,-0.3924865371859587,-2.1534937770910427,0.8647485969263087,2.4659733079671855,0.5444892787387716,1.0544104758940245,0.3238615046091247,-0.39250456234122666,-2.153291787532338,0.8647539153680389,2.46587817577521,0.5445020185570556,0.0005122783347714499,0.0006456264805362907,0.0012926727045883104,0.0008080638836010853,-0.0002861885623544416,-7.545705292828832e-05,3.3295566748379956e-05,0.0,0.0,0.0,0.0,0.0,0.0,0.0,-0.0002590960787214325,-0.00043934433085424107,-1.802515526794224e-05,0.00020198955870487367,5.318441730239876e-06,-9.513219197554434e-05,1.2739818283979965e-05,-0.0005122783347714499,-0.0006456264805362907,-0.0012926727045883104,-0.0008080638836010853,0.0002861885623544416,7.545705292828832e-05,-3.3295566748379956e-05,0.5021602511405945,33.99154281616211,3.8506133556365967,-19.336885452270508,-0.2548118233680725,-1.783755898475647,0.11111776530742645,0
18,0.08500218391418457,-0.5021602511405945,-33.99154281616211,-3.8506133556365967,19.336885452270508,0.2548118233680725,1.783755898475647,-0.11111776530742645,0.0,0.0,0.0,0.0,0.0,0.0,0.0,-0.5081904487599914,0.147825143892931,-0.30879374732461456,0.334070429752071,0.1933540588231945,-0.10039662276244861,-0.11388498068300808,1.054669571972746,0.32430084893997896,-0.3924865371859587,-2.1534937770910427,0.8647485969263087,2.4659733079671855,0.5444892787387716,1.0544104758940245,0.3238615046091247,-0.39250456234122666,-2.153291787532338,0.8647539153680389,2.46587817577521,0.5445020185570556,0.0005122783347714499,0.0006456264805362907,0.0012926727045883104,0.0008080638836010853,-0.0002861885623544416,-7.545705292828832e-05,3.3295566748379956e-05,0.0,0.0,0.0,0.0,0.0,0.0,0.0,-0.0002590960787214325,-0.00043934433085424107,-1.802515526794224e-05,0.00020198955870487367,5.318441730239876e-06,-9.513219197554434e-05,1.2739818283979965e-05,-0.0005122783347714499,-0.0006456264805362907,-0.0012926727045883104,-0.0008080638836010853,0.0002861885623544416,7.545705292828832e-05,-3.3295566748379956e-05,0.5021602511405945,33.99154281616211,3.8506133556365967,-19.336885452270508,-0.2548118233680725,-1.783755898475647,0.11111776530742645,0
19,0.08995461463928223,-0.5815059542655945,-33.93996810913086,-3.9220244884490967,19.388460159301758,0.2484031319618225,1.796573281288147,-0.07724325358867645,0.0,0.0,0.0,0.0,0.0,0.0,0.0,-0.5089522498982821,0.13638446335511703,-0.3005678720112625,0.3370497536359267,0.1935022284462109,-0.10452602530073375,-0.1141389405962664,1.0546751400922474,0.32429722966227614,-0.3924815028569122,-2.1534973963310446,0.8647489557906434,2.46597188381354,0.5444855236075256,1.0544104758940245,0.3238615046091247,-0.39250456234122666,-2.153291787532338,0.8647539153680389,2.46587817577521,0.5445020185570556,-0.00016903858174788437,-0.0005788642563421645,0.0003938849031233806,-0.0005845426146013552,-6.610142806259196e-05,-0.0003074263227178044,-0.0014068486724559813,0.0,0.0,0.0,0.0,0.0,0.0,0.0,-0.0002646641982229081,-0.0004357250531514256,-2.305948431446936e-05,0.00020560879870679116,4.959577395546866e-06,-9.370803832986496e-05,1.6494949530043712e-05,0.00016903858174788437,0.0005788642563421645,-0.0003938849031233806,0.0005845426146013552,6.610142806259196e-05,0.0003074263227178044,0.0014068486724559813,0.5815059542655945,33.93996810913086,3.9220244884490967,-19.388460159301758,-0.2484031319618225,-1.796573281288147,0.07724325358867645,0
20,0.09500336647033691,-0.5815059542655945,-33.93996810913086,-3.9220244884490967,19.388460159301758,0.2484031319618225,1.796573281288147,-0.07724325358867645,0.0,0.0,0.0,0.0,0.0,0.0,0.0,-0.5089522498982821,0.13638446335511703,-0.3005678720112625,0.3370497536359267,0.1935022284462109,-0.10452602530073375,-0.1141389405962664,1.0546751400922474,0.32429722966227614,-0.3924815028569122,-2.1534973963310446,0.8647489557906434,2.46597188381354,0.5444855236075256,1.0544104758940245,0.3238615046091247,-0.39250456234122666,-2.153291787532338,0.8647539153680389,2.46587817577521,0.5445020185570556,-0.00016903858174788437,-0.0005788642563421645,0.0003938849031233806,-0.0005845426146013552,-6.610142806259196e-05,-0.0003074263227178044,-0.0014068486724559813,0.0,0.0,0.0,0.0,0.0,0.0,0.0,-0.0002646641982229081,-0.0004357250531514256,-2.305948431446936e-05,0.00020560879870679116,4.959577395546866e-06,-9.370803832986496e-05,1.6494949530043712e-05,0.00016903858174788437,0.0005788642563421645,-0.0003938849031233806,0.0005845426146013552,6.610142806259196e-05,0.0003074263227178044,0.0014068486724559813,0.5815059542655945,33.93996810913086,3.9220244884490967,-19.388460159301758,-0.2484031319618225,-1.796573281288147,0.07724325358867645,0
21,0.10000252723693848,-0.6053096652030945,-33.99154281616211,-3.9220244884490967,19.388460159301758,0.2484031319618225,1.790164589881897,-0.15231649577617645,0.0,0.0,0.0,0.0,0.0,0.0,0.0,-0.49462453746607854,0.11910016713522413,-0.2828544692033761,0.35010140596742356,0.19252147593638044,-0.10781261280054773,-0.11446300880559246,1.0546771421555912,0.3243008489399625,-0.39248164873804586,-2.153497396368729,0.8647461242727702,2.4659725958903627,0.5444938503819209,1.0544104758940245,0.3238615046091247,-0.39250456234122666,-2.153291787532338,0.8647539153680389,2.46587817577521,0.5445020185570556,0.0003375606245283879,0.00021580997952999875,-0.0003830697218503889,4.154709252687225e-05,-8.171510488808553e-05,0.00016413543392035157,0.0015092663099937702,0.0,0.0,0.0,0.0,0.0,0.0,0.0,-0.0002666662615666837,-0.00043934433083780977,-2.2913603180796382e-05,0.00020560883639131333,7.791095268716575e-06,-9.442011515270465e-05,8.168175134715128e-06,-0.0003375606245283879,-0.00021580997952999875,0.0003830697218503889,-4.154709252687225e-05,8.171510488808553e-05,-0.00016413543392035157,-0.0015092663099937702,0.6053096652030945,33.99154281616211,3.9220244884490967,-19.388460159301758,-0.2484031319618225,-1.790164589881897,0.15231649577617645,0
22,0.10496091842651367,-0.6053096652030945,-33.99154281616211,-3.9220244884490967,19.388460159301758,0.2484031319618225,1.790164589881897,-0.15231649577617645,0.0,0.0,0.0,0.0,0.0,0.0,0.0,-0.49462453746607854,0.11910016713522413,-0.2828544692033761,0.35010140596742356,0.19252147593638044,-0.10781261280054773,-0.11446300880559246,1.0546771421555912,0.3243008489399625,-0.39248164873804586,-2.153497396368729,0.8647461242727702,2.4659725958903627,0.5444938503819209,1.0544104758940245,0.3238615046091247,-0.39250456234122666,-2.153291787532338,0.8647539153680389,2.46587817577521,0.5445020185570556,0.0003375606245283879,0.00021580997952999875,-0.0003830697218503889,4.154709252687225e-05,-8.171510488808553e-05,0.00016413543392035157,0.0015092663099937702,0.0,0.0,0.0,0.0,0.0,0.0,0.0,-0.0002666662615666837,-0.00043934433083780977,-2.2913603180796382e-05,0.00020560883639131333,7.791095268716575e-06,-9.442011515270465e-05,8.168175134715128e-06,-0.0003375606245283879,-0.00021580997952999875,0.0003830697218503889,-4.154709252687225e-05,8.171510488808553e-05,-0.00016413543392035157,-0.0015092663099937702,0.6053096652030945,33.99154281616211,3.9220244884490967,-19.388460159301758,-0.2484031319618225,-1.790164589881897,0.15231649577617645,0
23,0.10999727249145508,-0.5537349581718445,-33.99154281616211,-3.8982207775115967,19.360689163208008,0.2429099678993225,1.790164589881897,-0.09738485515117645,0.0,0.0,0.0,0.0,0.0,0.0,0.0,-0.4954435098986927,0.1256164640285618,-0.279900810665585,0.34416669780808606,0.19162702841370963,-0.11104498769874854,-0.11411330491390319,1.0546759831589234,0.32430084926398306,-0.39248309041619817,-2.153495447413844,0.8647498757304304,2.4659725958903627,0.5444909257806009,1.0544104758940245,0.3238615046091247,-0.39250456234122666,-2.153291787532338,0.8647539153680389,2.46587817577521,0.5445020185570556,-5.958735092579996e-05,0.0003455397022170717,-0.0004613145288920523,-2.5120184512023714e-06,0.0001247787009110703,-4.5808161389727875e-05,-0.0005891973204956985,0.0,0.0,0.0,0.0,0.0,0.0,0.0,-0.0002655072648989343,-0.0004393446548583424,-2.1471925028493377e-05,0.00020365988150627956,4.0396376085327645e-06,-9.442011515270465e-05,1.1092776454724174e-05,5.958735092579996e-05,-0.0003455397022170717,0.0004613145288920523,2.5120184512023714e-06,-0.0001247787009110703,4.5808161389727875e-05,0.0005891973204956985,0.5537349581718445,33.99154281616211,3.8982207775115967,-19.360689163208008,-0.2429099678993225,-1.790164589881897,0.09738485515117645,0
24,0.11500215530395508,-0.5537349581718445,-33.99154281616211,-3.8982207775115967,19.360689163208008,0.2429099678993225,1.790164589881897,-0.09738485515117645,0.0,0.0,0.0,0.0,0.0,0.0,0.0,-0.4954435098986927,0.1256164640285618,-0.279900810665585,0.34416669780808606,0.19162702841370963,-0.11104498769874854,-0.11411330491390319,1.0546759831589234,0.32430084926398306,-0.39248309041619817,-2.153495447413844,0.8647498757304304,2.4659725958903627,0.5444909257806009,1.0544104758940245,0.3238615046091247,-0.39250456234122666,-2.153291787532338,0.8647539153680389,2.46587817577521,0.5445020185570556,-5.958735092579996e-05,0.0003455397022170717,-0.0004613145288920523,-2.5120184512023714e-06,0.0001247787009110703,-4.5808161389727875e-05,-0.0005891973204956985,0.0,0.0,0.0,0.0,0.0,0.0,0.0,-0.0002655072648989343,-0.0004393446548583424,-2.1471925028493377e-05,0.00020365988150627956,4.0396376085327645e-06,-9.442011515270465e-05,1.1092776454724174e-05,5.958735092579996e-05,-0.0003455397022170717,0.0004613145288920523,2.5120184512023714e-06,-0.0001247787009110703,4.5808161389727875e-05,0.0005891973204956985,0.5537349581718445,33.99154281616211,3.8982207775115967,-19.360689163208008,-0.2429099678993225,-1.790164589881897,0.09738485515117645,0
25,0.11999940872192383,-0.4783565402030945,-34.01534652709961,-3.8506133556365967,19.360689163208008,0.2484031319618225,1.790164589881897,-0.13858358561992645,0.0,0.0,0.0,0.0,0.0,0.0,0.0,-0.488995442284044,0.11534184488938608,-0.27604264050481403,0.3478392651592451,0.1909002258707138,-0.11303971706563996,-0.11423275163991248,1.0546679025324353,0.3243025193758196,-0.3924864486757216,-2.1534954200547975,0.8647493088416013,2.4659725958903627,0.5444955441346716,1.0544104758940245,0.3238615046091247,-0.39250456234122666,-2.153291787532338,0.8647539153680389,2.46587817577521,0.5445020185570556,-2.74361191448343e-05,0.0007332752116622801,-0.0004614553162633773,0.00017242999736444777,-0.00018422941721901376,-0.00022818096780407606,0.0007607811017863448,0.0,0.0,0.0,0.0,0.0,0.0,0.0,-0.00025742663841077373,-0.0004410147666948916,-1.8113665505081755e-05,0.00020363252245969576,4.606526437633818e-06,-9.442011515270465e-05,6.474422383995204e-06,2.74361191448343e-05,-0.0007332752116622801,0.0004614553162633773,-0.00017242999736444777,0.00018422941721901376,0.00022818096780407606,-0.0007607811017863448,0.4783565402030945,34.01534652709961,3.8506133556365967,-19.360689163208008,-0.2484031319618225,-1.790164589881897,0.13858358561992645,0
26,0.12500596046447754,-0.4783565402030945,-34.01534652709961,-3.8506133556365967,19.360689163208008,0.2484031319618225,1.790164589881897,-0.13858358561992645,0.0,0.0,0.0,0.0,0.0,0.0,0.0,-0.488995442284044,0.11534184488938608,-0.27604264050481403,0.3478392651592451,0.1909002258707138,-0.11303971706563996,-0.11423275163991248,1.0546679025324353,0.3243025193758196,-0.3924864486757216,-2.1534954200547975,0.8647493088416013,2.4659725958903627,0.5444955441346716,1.0544104758940245,0.3238615046091247,-0.39250456234122666,-2.153291787532338,0.8647539153680389,2.46587817577521,0.5445020185570556,-2.74361191448343e-05,0.0007332752116622801,-0.0004614553162633773,0.00017242999736444777,-0.00018422941721901376,-0.00022818096780407606,0.0007607811017863448,0.0,0.0,0.0,0.0,0.0,0.0,0.0,-0.00025742663841077373,-0.0004410147666948916,-1.8113665505081755e-05,0.00020363252245969576,4.606526437633818e-06,-9.442011515270465e-05,6.474422383995204e-06,2.74361191448343e-05,-0.0007332752116622801,0.0004614553162633773,-0.00017242999736444777,0.00018422941721901376,0.00022818096780407606,-0.0007607811017863448,0.4783565402030945,34.01534652709961,3.8506133556365967,-19.360689163208008,-0.2484031319618225,-1.790164589881897,0.13858358561992645,0
27,0.1300067901611328,-0.4029781222343445,-34.01534652709961,-3.7752349376678467,19.360689163208008,0.2484031319618225,1.790164589881897,-0.12485067546367645,0.0,0.0,0.0,0.0,0.0,0.0,0.0,-0.4815879126218129,0.10031736324585987,-0.27370368327769184,0.3529993892343179,0.19093636202574524,-0.11416452610234148,-0.11414793257530316,1.054662615077676,0.32430251937581783,-0.3924917208922503,-2.1534954475267427,0.8647493090033522,2.4659725958903627,0.5444908118856582,1.0544104758940245,0.3238615046091247,-0.39250456234122666,-2.153291787532338,0.8647539153680389,2.46587817577521,0.5445020185570556,-0.00014056922705586424,0.00021576960964472632,0.00020884881551911096,0.0006217342497029883,-3.1967498053675986e-05,-0.0001398181191763893,0.0009316632856534176,0.0,0.0,0.0,0.0,0.0,0.0,0.0,-0.00025213918365141197,-0.00044101476669311523,-1.2841448976341763e-05,0.00020365999440485894,4.606364686687847e-06,-9.442011515270465e-05,1.1206671397423484e-05,0.00014056922705586424,-0.00021576960964472632,-0.00020884881551911096,-0.0006217342497029883,3.1967498053675986e-05,0.0001398181191763893,-0.0009316632856534176,0.4029781222343445,34.01534652709961,3.7752349376678467,-19.360689163208008,-0.2484031319618225,-1.790164589881897,0.12485067546367645,0
28,0.1350107192993164,-0.4029781222343445,-34.01534652709961,-3.7752349376678467,19.360689163208008,0.2484031319618225,1.790164589881897,-0.12485067546367645,0.0,0.0,0.0,0.0,0.0,0.0,0.0,-0.4815879126218129,0.10031736324585987,-0.27370368327769184,0.3529993892343179,0.19093636202574524,-0.11416452610234148,-0.11414793257530316,1.054662615077676,0.32430251937581783,-0.3924917208922503,-2.1534954475267427,0.8647493090033522,2.4659725958903627,0.5444908118856582,1.0544104758940245,0.3238615046091247,-0.39250456234122666,-2.153291787532338,0.8647539153680389,2.46587817577521,0.5445020185570556,-0.00014056922705586424,0.00021576960964472632,0.00020884881551911096,0.0006217342497029883,-3.1967498053675986e-05,-0.0001398181191763893,0.0009316632856534176,0.0,0.0,0.0,0.0,0.0,0.0,0.0,-0.00025213918365141197,-0.00044101476669311523,-1.2841448976341763e-05,0.00020365999440485894,4.606364686687847e-06,-9.442011515270465e-05,1.1206671397423484e-05,0.00014056922705586424,-0.00021576960964472632,-0.00020884881551911096,-0.0006217342497029883,3.1967498053675986e-05,0.0001398181191763893,-0.0009316632856534176,0.4029781222343445,34.01534652709961,3.7752349376678467,-19.360689163208008,-0.2484031319618225,-1.790164589881897,0.12485067546367645,0
29,0.1399977207183838,-0.3236324191093445,-33.99154281616211,-3.7236602306365967,19.360689163208008,0.2484031319618225,1.783755898475647,-0.12485067546367645,0.0,0.0,0.0,0.0,0.0,0.0,0.0,-0.46621042120340805,0.10900103273602832,-0.2588734587698177,0.3422857773734803,0.191496540054127,-0.11624143461095045,-0.11345179891928513,1.0546570438088123,0.3243008755096497,-0.39249843715850025,-2.1534954475268977,0.8647460123513951,2.4659733079671855,0.5444908000776505,1.0544104758940245,0.3238615046091247,-0.39250456234122666,-2.153291787532338,0.8647539153680389,2.46587817577521,0.5445020185570556,-0.00017272629155876414,-0.0001245229939532837,-0.00015196787666844634,4.4344215462574144e-06,-0.00013622721184638423,3.854364160365916e-06,0.00020311450849351957,0.0,0.0,0.0,0.0,0.0,0.0,0.0,-0.0002465679147878319,-0.0004393709005249824,-6.125182726413048e-06,0.00020365999455984607,7.903016643773242e-06,-9.513219197554434e-05,1.121847940510623e-05,0.00017272629155876414,0.0001245229939532837,0.00015196787666844634,-4.4344215462574144e-06,0.00013622721184638423,-3.854364160365916e-06,-0.00020311450849351957,0.3236324191093445,33.99154281616211,3.7236602306365967,-19.360689163208008,-0.2484031319618225,-1.783755898475647,0.12485067546367645,0
30,0.1452040672302246,-0.3236324191093445,-33.99154281616211,-3.7236602306365967,19.360689163208008,0.2484031319618225,1.783755898475647,-0.12485067546367645,0.0,0.0,0.0,0.0,0.0,0.0,0.0,-0.46621042120340805,0.10900103273602832,-0.2588734587698177,0.3422857773734803,0.191496540054127,-0.11624143461095045,-0.11345179891928513,1.0546570438088123,0.3243008755096497,-0.39249843715850025,-2.1534954475268977,0.8647460123513951,2.4659733079671855,0.5444908000776505,1.0544104758940245,0.3238615046091247,-0.39250456234122666,-2.153291787532338,0.8647539153680389,2.46587817577521,0.5445020185570556,-0.00017272629155876414,-0.0001245229939532837,-0.00015196787666844634,4.4344215462574144e-06,-0.00013622721184638423,3.854364160365916e-06,0.00020311450849351957,0.0,0.0,0.0,0.0,0.0,0.0,0.0,-0.0002465679147878319,-0.0004393709005249824,-6.125182726413048e-06,0.00020365999455984607,7.903016643773242e-06,-9.513219197554434e-05,1.121847940510623e-05,0.00017272629155876414,0.0001245229939532837,0.00015196787666844634,-4.4344215462574144e-06,0.00013622721184638423,-3.854364160365916e-06,-0.00020311450849351957,0.3236324191093445,33.99154281616211,3.7236602306365967,-19.360689163208008,-0.2484031319618225,-1.783755898475647,0.12485067546367645,0
31,0.15000414848327637,-0.2998287081718445,-33.99154281616211,-3.7514312267303467,19.360689163208008,0.2429099678993225,1.790164589881897,-0.11111776530742645,0.0,0.0,0.0,0.0,0.0,0.0,0.0,-0.462827395937704,0.09909387680115704,-0.260705565049227,0.34525128643182623,0.19261698206908448,-0.11511199938705728,-0.11409997067652099,1.0546553732679607,0.32430084894011246,-0.39249656851124304,-2.1534954444744425,0.864746740206577,2.4659725958903627,0.5444892727451273,1.0544104758940245,0.3238615046091247,-0.39250456234122666,-2.153291787532338,0.8647539153680389,2.46587817577521,0.5445020185570556,-0.0012761748896093013,0.0004783650262991262,0.0007632477808624748,0.0004631638369882792,9.771956821072954e-05,-8.097640211185006e-05,-3.933659540105967e-05,0.0,0.0,0.0,0.0,0.0,0.0,0.0,-0.0002448973739361815,-0.0004393443309877454,-7.993829983621303e-06,0.00020365694210466856,7.175161461869806e-06,-9.442011515270465e-05,1.2745811928338568e-05,0.0012761748896093013,-0.0004783650262991262,-0.0007632477808624748,-0.0004631638369882792,-9.771956821072954e-05,8.097640211185006e-05,3.933659540105967e-05,0.2998287081718445,33.99154281616211,3.7514312267303467,-19.360689163208008,-0.2429099678993225,-1.790164589881897,0.11111776530742645,0
32,0.1549992561340332,-0.2998287081718445,-33.99154281616211,-3.7514312267303467,19.360689163208008,0.2429099678993225,1.790164589881897,-0.11111776530742645,0.0,0.0,0.0,0.0,0.0,0.0,0.0,-0.462827395937704,0.09909387680115704,-0.260705565049227,0.34525128643182623,0.19261698206908448,-0.11511199938705728,-0.11409997067652099,1.0546553732679607,0.32430084894011246,-0.39249656851124304,-2.1534954444744425,0.864746740206577,2.4659725958903627,0.5444892727451273,1.0544104758940245,0.3238615046091247,-0.39250456234122666,-2.153291787532338,0.8647539153680389,2.46587817577521,0.5445020185570556,-0.0012761748896093013,0.0004783650262991262,0.0007632477808624748,0.0004631638369882792,9.771956821072954e-05,-8.097640211185006e-05,-3.933659540105967e-05,0.0,0.0,0.0,0.0,0.0,0.0,0.0,-0.0002448973739361815,-0.0004393443309877454,-7.993829983621303e-06,0.00020365694210466856,7.175161461869806e-06,-9.442011515270465e-05,1.2745811928338568e-05,0.0012761748896093013,-0.0004783650262991262,-0.0007632477808624748,-0.0004631638369882792,-9.771956821072954e-05,8.097640211185006e-05,3.933659540105967e-05,0.2998287081718445,33.99154281616211,3.7514312267303467,-19.360689163208008,-0.2429099678993225,-1.790164589881897,0.11111776530742645,0
33,0.16000652313232422,-0.2998287081718445,-33.99154281616211,-3.7514312267303467,19.360689163208008,0.2429099678993225,1.790164589881897,-0.11111776530742645,0.0,0.0,0.0,0.0,0.0,0.0,0.0,-0.462827395937704,0.09909387680115704,-0.260705565049227,0.34525128643182623,0.19261698206908448,-0.11511199938705728,-0.11409997067652099,1.0546553732679607,0.32430084894011246,-0.39249656851124304,-2.1534954444744425,0.864746740206577,2.4659725958903627,0.5444892727451273,1.0544104758940245,0.3238615046091247,-0.39250456234122666,-2.153291787532338,0.8647539153680389,2.46587817577521,0.5445020185570556,-0.0012761748896093013,0.0004783650262991262,0.0007632477808624748,0.0004631638369882792,9.771956821072954e-05,-8.097640211185006e-05,-3.933659540105967e-05,0.0,0.0,0.0,0.0,0.0,0.0,0.0,-0.0002448973739361815,-0.0004393443309877454,-7.993829983621303e-06,0.00020365694210466856,7.175161461869806e-06,-9.442011515270465e-05,1.2745811928338568e-05,0.0012761748896093013,-0.0004783650262991262,-0.0007632477808624748,-0.0004631638369882792,-9.771956821072954e-05,8.097640211185006e-05,3.933659540105967e-05,0.2998287081718445,33.99154281616211,3.7514312267303467,-19.360689163208008,-0.2429099678993225,-1.790164589881897,0.11111776530742645,0
34,0.16500186920166016,-0.2998287081718445,-33.99154281616211,-3.7514312267303467,19.360689163208008,0.2429099678993225,1.790164589881897,-0.11111776530742645,0.0,0.0,0.0,0.0,0.0,0.0,0.0,-0.462827395937704,0.09909387680115704,-0.260705565049227,0.34525128643182623,0.19261698206908448,-0.11511199938705728,-0.11409997067652099,1.0546553732679607,0.32430084894011246,-0.39249656851124304,-2.1534954444744425,0.864746740206577,2.4659725958903627,0.5444892727451273,1.0544104758940245,0.3238615046091247,-0.39250456234122666,-2.153291787532338,0.8647539153680389,2.46587817577521,0.5445020185570556,-0.0012761748896093013,0.0004783650262991262,0.0007632477808624748,0.0004631638369882792,9.771956821072954e-05,-8.097640211185006e-05,-3.933659540105967e-05,0.0,0.0,0.0,0.0,0.0,0.0,0.0,-0.0002448973739361815,-0.0004393443309877454,-7.993829983621303e-06,0.00020365694210466856,7.175161461869806e-06,-9.442011515270465e-05,1.2745811928338568e-05,0.0012761748896093013,-0.0004783650262991262,-0.0007632477808624748,-0.0004631638369882792,-9.771956821072954e-05,8.097640211185006e-05,3.933659540105967e-05,0.2998287081718445,33.99154281616211,3.7514312267303467,-19.360689163208008,-0.2429099678993225,-1.790164589881897,0.11111776530742645,0
35,0.1700119972229004,-0.3752071261405945,-33.99154281616211,-3.7514312267303467,19.388460159301758,0.2548118233680725,1.783755898475647,-0.09738485515117645,0.0,0.0,0.0,0.0,0.0,0.0,0.0,-0.4443155017440373,0.09279069223409929,-0.24618821105032943,0.3483109782016602,0.19245710187833942,-0.11503731229114658,-0.11476589135145164,1.0546606629815019,0.3243008489399625,-0.39249586182278723,-2.1534973963686777,0.8647485837907388,2.4659733079671855,0.5444888065043422,1.0544104758940245,0.3238615046091247,-0.39250456234122666,-2.153291787532338,0.8647539153680389,2.46587817577521,0.5445020185570556,0.0007380175849521669,0.0003341751770158703,0.0002780537210570453,-5.392089203797377e-05,-0.00020101169629188834,1.2741050272125098e-05,-0.0011862158260158417,0.0,0.0,0.0,0.0,0.0,0.0,0.0,-0.0002501870874773715,-0.00043934433083780977,-8.700518439430649e-06,0.00020560883633979898,5.331577300093926e-06,-9.513219197554434e-05,1.32120527134294e-05,-0.0007380175849521669,-0.0003341751770158703,-0.0002780537210570453,5.392089203797377e-05,0.00020101169629188834,-1.2741050272125098e-05,0.0011862158260158417,0.3752071261405945,33.99154281616211,3.7514312267303467,-19.388460159301758,-0.2548118233680725,-1.783755898475647,0.09738485515117645,0
36,0.17502260208129883,-0.3752071261405945,-33.99154281616211,-3.7514312267303467,19.388460159301758,0.2548118233680725,1.783755898475647,-0.09738485515117645,0.0,0.0,0.0,0.0,0.0,0.0,0.0,-0.4443155017440373,0.09279069223409929,-0.24618821105032943,0.3483109782016602,0.19245710187833942,-0.11503731229114658,-0.11476589135145164,1.0546606629815019,0.3243008489399625,-0.39249586182278723,-2.1534973963686777,0.8647485837907388,2.4659733079671855,0.5444888065043422,1.0544104758940245,0.3238615046091247,-0.39250456234122666,-2.153291787532338,0.8647539153680389,2.46587817577521,0.5445020185570556,0.0007380175849521669,0.0003341751770158703,0.0002780537210570453,-5.392089203797377e-05,-0.00020101169629188834,1.2741050272125098e-05,-0.0011862158260158417,0.0,0.0,0.0,0.0,0.0,0.0,0.0,-0.0002501870874773715,-0.00043934433083780977,-8.700518439430649e-06,0.00020560883633979898,5.331577300093926e-06,-9.513219197554434e-05,1.32120527134294e-05,-0.0007380175849521669,-0.0003341751770158703,-0.0002780537210570453,5.392089203797377e-05,0.00020101169629188834,-1.2741050272125098e-05,0.0011862158260158417,0.3752071261405945,33.99154281616211,3.7514312267303467,-19.388460159301758,-0.2548118233680725,-1.783755898475647,0.09738485515117645,0
37,0.180006742477417,-0.4267818331718445,-34.01534652709961,-3.7236602306365967,19.360689163208008,0.2429099678993225,1.790164589881897,-0.11844198405742645,0.0,0.0,0.0,0.0,0.0,0.0,0.0,-0.43209501954032437,0.08408103998922667,-0.23735875302506249,0.35222254451515744,0.1921817731305006,-0.11494157288535842,-0.11667089325110962,1.0546642822591883,0.32430251937581783,-0.39249639436939626,-2.1534954200547984,0.8647498015993759,2.4659725958903627,0.5444932698780703,1.0544104758940245,0.3238615046091247,-0.39250456234122666,-2.153291787532338,0.8647539153680389,2.46587817577521,0.5445020185570556,-0.0001931409237346946,0.0003991043024493286,-0.0008981018017252873,0.0006039611378465057,-8.941098370827131e-05,-0.0002765961318333902,0.00025218465428796725,0.0,0.0,0.0,0.0,0.0,0.0,0.0,-0.00025380636516381117,-0.00044101476669311523,-8.167971830397303e-06,0.00020363252246058394,4.11376866304991e-06,-9.442011515270465e-05,8.748678985259772e-06,0.0001931409237346946,-0.0003991043024493286,0.0008981018017252873,-0.0006039611378465057,8.941098370827131e-05,0.0002765961318333902,-0.00025218465428796725,0.4267818331718445,34.01534652709961,3.7236602306365967,-19.360689163208008,-0.2429099678993225,-1.790164589881897,0.11844198405742645,0
38,0.1850128173828125,-0.4267818331718445,-34.01534652709961,-3.7236602306365967,19.360689163208008,0.2429099678993225,1.790164589881897,-0.11844198405742645,0.0,0.0,0.0,0.0,0.0,0.0,0.0,-0.43209501954032437,0.08408103998922667,-0.23735875302506249,0.35222254451515744,0.1921817731305006,-0.11494157288535842,-0.11667089325110962,1.0546642822591883,0.32430251937581783,-0.39249639436939626,-2.1534954200547984,0.8647498015993759,2.4659725958903627,0.5444932698780703,1.0544104758940245,0.3238615046091247,-0.39250456234122666,-2.153291787532338,0.8647539153680389,2.46587817577521,0.5445020185570556,-0.0001931409237346946,0.0003991043024493286,-0.0008981018017252873,0.0006039611378465057,-8.941098370827131e-05,-0.0002765961318333902,0.00025218465428796725,0.0,0.0,0.0,0.0,0.0,0.0,0.0,-0.00025380636516381117,-0.00044101476669311523,-8.167971830397303e-06,0.00020363252246058394,4.11376866304991e-06,-9.442011515270465e-05,8.748678985259772e-06,0.0001931409237346946,-0.0003991043024493286,0.0008981018017252873,-0.0006039611378465057,8.941098370827131e-05,0.0002765961318333902,-0.00025218465428796725,0.4267818331718445,34.01534652709961,3.7236602306365967,-19.360689163208008,-0.2429099678993225,-1.790164589881897,0.11844198405742645,0
39,0.18999481201171875,-0.4505855441093445,-34.01534652709961,-3.8228423595428467,19.336885452270508,0.2310081124305725,1.790164589881897,-0.12485067546367645,0.0,0.0,0.0,0.0,0.0,0.0,0.0,-0.4327329150954333,0.09596250293957172,-0.23153715028884253,0.3449620460883735,0.19149540687366562,-0.11587539853151664,-0.11632860112479745,1.0546659526950435,0.32430251937581783,-0.3924894342093338,-2.1534937770908877,0.8647508885699264,2.4659725958903627,0.5444907986419955,1.0544104758940245,0.3238615046091247,-0.39250456234122666,-2.153291787532338,0.8647539153680389,2.46587817577521,0.5445020185570556,-5.125298992020292e-05,0.0012736560292116498,6.953496129992455e-05,0.0009339540625589098,0.0005075426608571721,7.55561213940318e-05,0.0004777511133870721,0.0,0.0,0.0,0.0,0.0,0.0,0.0,-0.0002554768010190056,-0.00044101476669311523,-1.5128131892860885e-05,0.00020198955854988654,3.0267981124820764e-06,-9.442011515270465e-05,1.1219915060145524e-05,5.125298992020292e-05,-0.0012736560292116498,-6.953496129992455e-05,-0.0009339540625589098,-0.0005075426608571721,-7.55561213940318e-05,-0.0004777511133870721,0.4505855441093445,34.01534652709961,3.8228423595428467,-19.336885452270508,-0.2310081124305725,-1.790164589881897,0.12485067546367645,0
40,0.19500231742858887,-0.4505855441093445,-34.01534652709961,-3.8228423595428467,19.336885452270508,0.2310081124305725,1.790164589881897,-0.12485067546367645,0.0,0.0,0.0,0.0,0.0,0.0,0.0,-0.4327329150954333,0.09596250293957172,-0.23153715028884253,0.3449620460883735,0.19149540687366562,-0.11587539853151664,-0.11632860112479745,1.0546659526950435,0.32430251937581783,-0.3924894342093338,-2.1534937770908877,0.8647508885699264,2.4659725958903627,0.5444907986419955,1.0544104758940245,0.3238615046091247,-0.39250456234122666,-2.153291787532338,0.8647539153680389,2.46587817577521,0.5445020185570556,-5.125298992020292e-05,0.0012736560292116498,6.953496129992455e-05,0.0009339540625589098,0.0005075426608571721,7.55561213940318e-05,0.0004777511133870721,0.0,0.0,0.0,0.0,0.0,0.0,0.0,-0.0002554768010190056,-0.00044101476669311523,-1.5128131892860885e-05,0.00020198955854988654,3.0267981124820764e-06,-9.442011515270465e-05,1.1219915060145524e-05,5.125298992020292e-05,-0.0012736560292116498,-6.953496129992455e-05,-0.0009339540625589098,-0.0005075426608571721,-7.55561213940318e-05,-0.0004777511133870721,0.4505855441093445,34.01534652709961,3.8228423595428467,-19.336885452270508,-0.2310081124305725,-1.790164589881897,0.12485067546367645,0
41,0.2000112533569336,-0.5299312472343445,-33.96377182006836,-3.8506133556365967,19.412263870239258,0.2484031319618225,1.777347207069397,-0.10470907390117645,0.0,0.0,0.0,0.0,0.0,0.0,0.0,-0.432051743064905,0.07801600868641005,-0.23299668070118615,0.35472201389805297,0.1911486231361206,-0.11485309886215676,-0.11541166598212123,1.054671520814561,0.3242989000981314,-0.3924895817806272,-2.153499066804584,0.8647493041561918,2.4659740200440083,0.5444896252054284,1.0544104758940245,0.3238615046091247,-0.39250456234122666,-2.153291787532338,0.8647539153680389,2.46587817577521,0.5445020185570556,0.001074946544384493,-0.001022435605134097,6.374372765371158e-05,-0.0010175634626127356,-9.503121524979919e-05,0.0005585498430161484,-5.436211862236308e-05,0.0,0.0,0.0,0.0,0.0,0.0,0.0,-0.00026104492053646844,-0.0004373954890066756,-1.4980560599453518e-05,0.00020727927224628573,4.611211847138641e-06,-9.584426879838404e-05,1.2393351627171256e-05,-0.001074946544384493,0.001022435605134097,-6.374372765371158e-05,0.0010175634626127356,9.503121524979919e-05,-0.0005585498430161484,5.436211862236308e-05,0.5299312472343445,33.96377182006836,3.8506133556365967,-19.412263870239258,-0.2484031319618225,-1.777347207069397,0.10470907390117645,0
42,0.20500516891479492,-0.5299312472343445,-33.96377182006836,-3.8506133556365967,19.412263870239258,0.2484031319618225,1.777347207069397,-0.10470907390117645,0.0,0.0,0.0,0.0,0.0,0.0,0.0,-0.432051743064905,0.07801600868641005,-0.23299668070118615,0.35472201389805297,0.1911486231361206,-0.11485309886215676,-0.11541166598212123,1.054671520814561,0.3242989000981314,-0.3924895817806272,-2.153499066804584,0.8647493041561918,2.4659740200440083,0.5444896252054284,1.0544104758940245,0.3238615046091247,-0.39250456234122666,-2.153291787532338,0.8647539153680389,2.46587817577521,0.5445020185570556,0.001074946544384493,-0.001022435605134097,6.374372765371158e-05,-0.0010175634626127356,-9.503121524979919e-05,0.0005585498430161484,-5.436211862236308e-05,0.0,0.0,0.0,0.0,0.0,0.0,0.0,-0.00026104492053646844,-0.0004373954890066756,-1.4980560599453518e-05,0.00020727927224628573,4.611211847138641e-06,-9.584426879838404e-05,1.2393351627171256e-05,-0.001074946544384493,0.001022435605134097,-6.374372765371158e-05,0.0010175634626127356,9.503121524979919e-05,-0.0005585498430161484,5.436211862236308e-05,0.5299312472343445,33.96377182006836,3.8506133556365967,-19.412263870239258,-0.2484031319618225,-1.777347207069397,0.10470907390117645,0
43,0.2100059986114502,-0.5299312472343445,-33.93996810913086,-3.9220244884490967,19.388460159301758,0.2429099678993225,1.783755898475647,-0.13217489421367645,0.0,0.0,0.0,0.0,0.0,0.0,0.0,-0.4529660068223678,0.07815764349129302,-0.2519263480818317,0.35818170224460016,0.1912867030667764,-0.11226708565397847,-0.11541697632105252,1.054671520814561,0.32429722966227614,-0.3924824739634313,-2.153497396368729,0.8647495661421237,2.4659733079671855,0.5444916124441368,1.0544104758940245,0.3238615046091247,-0.39250456234122666,-2.153291787532338,0.8647539153680389,2.46587817577521,0.5445020185570556,0.00026712216975951407,-0.001434371887781302,0.0010904573742415804,-0.0005056356906125554,0.00014438406934214306,-0.0015864363050715501,0.0008285241105226076,0.0,0.0,0.0,0.0,0.0,0.0,0.0,-0.00026104492053646844,-0.0004357250531514256,-2.2088377795381753e-05,0.00020560883639131333,4.349225915190047e-06,-9.513219197554434e-05,1.0406112918803778e-05,-0.00026712216975951407,0.001434371887781302,-0.0010904573742415804,0.0005056356906125554,-0.00014438406934214306,0.0015864363050715501,-0.0008285241105226076,0.5299312472343445,33.93996810913086,3.9220244884490967,-19.388460159301758,-0.2429099678993225,-1.783755898475647,0.13217489421367645,0
44,0.21495318412780762,-0.5299312472343445,-33.93996810913086,-3.9220244884490967,19.388460159301758,0.2429099678993225,1.783755898475647,-0.13217489421367645,0.0,0.0,0.0,0.0,0.0,0.0,0.0,-0.4529660068223678,0.07815764349129302,-0.2519263480818317,0.35818170224460016,0.1912867030667764,-0.11226708565397847,-0.11541697632105252,1.054671520814561,0.32429722966227614,-0.3924824739634313,-2.153497396368729,0.8647495661421237,2.4659733079671855,0.5444916124441368,1.0544104758940245,0.3238615046091247,-0.39250456234122666,-2.153291787532338,0.8647539153680389,2.46587817577521,0.5445020185570556,0.00026712216975951407,-0.001434371887781302,0.0010904573742415804,-0.0005056356906125554,0.00014438406934214306,-0.0015864363050715501,0.0008285241105226076,0.0,0.0,0.0,0.0,0.0,0.0,0.0,-0.00026104492053646844,-0.0004357250531514256,-2.2088377795381753e-05,0.00020560883639131333,4.349225915190047e-06,-9.513219197554434e-05,1.0406112918803778e-05,-0.00026712216975951407,0.001434371887781302,-0.0010904573742415804,0.0005056356906125554,-0.00014438406934214306,0.0015864363050715501,-0.0008285241105226076,0.5299312472343445,33.93996810913086,3.9220244884490967,-19.388460159301758,-0.2429099678993225,-1.783755898475647,0.13217489421367645,0
45,0.21999645233154297,-0.4783565402030945,-33.96377182006836,-3.8982207775115967,19.360689163208008,0.2548118233680725,1.783755898475647,-0.07724325358867645,0.0,0.0,0.0,0.0,0.0,0.0,0.0,-0.4465006697762399,0.09422409092172325,-0.2396103337693973,0.3492241655289244,0.19084205096354018,-0.11826327291254861,-0.11520835755850474,1.0546679270466812,0.3242989000981314,-0.392483347377174,-2.153495447514336,0.8647482437131557,2.4659733079671855,0.5444855089104838,1.0544104758940245,0.3238615046091247,-0.39250456234122666,-2.153291787532338,0.8647539153680389,2.46587817577521,0.5445020185570556,-0.000979147538083708,-0.0005204647796790368,0.0010339192716269342,0.00043582519113357455,-0.00024572800800313365,0.0002567651647725777,-0.0009857282864484593,0.0,0.0,0.0,0.0,0.0,0.0,0.0,-0.00025745115265674023,-0.0004373954890066756,-2.1214964052662655e-05,0.00020365998199833868,5.671654883188104e-06,-9.513219197554434e-05,1.65096465718495e-05,0.000979147538083708,0.0005204647796790368,-0.0010339192716269342,-0.00043582519113357455,0.00024572800800313365,-0.0002567651647725777,0.0009857282864484593,0.4783565402030945,33.96377182006836,3.8982207775115967,-19.360689163208008,-0.2548118233680725,-1.783755898475647,0.07724325358867645,0
46,0.22499704360961914,-0.4783565402030945,-33.96377182006836,-3.8982207775115967,19.360689163208008,0.2548118233680725,1.783755898475647,-0.07724325358867645,0.0,0.0,0.0,0.0,0.0,0.0,0.0,-0.4465006697762399,0.09422409092172325,-0.2396103337693973,0.3492241655289244,0.19084205096354018,-0.11826327291254861,-0.11520835755850474,1.0546679270466812,0.3242989000981314,-0.392483347377174,-2.153495447514336,0.8647482437131557,2.4659733079671855,0.5444855089104838,1.0544104758940245,0.3238615046091247,-0.39250456234122666,-2.153291787532338,0.8647539153680389,2.46587817577521,0.5445020185570556,-0.000979147538083708,-0.0005204647796790368,0.0010339192716269342,0.00043582519113357455,-0.00024572800800313365,0.0002567651647725777,-0.0009857282864484593,0.0,0.0,0.0,0.0,0.0,0.0,0.0,-0.00025745115265674023,-0.0004373954890066756,-2.1214964052662655e-05,0.00020365998199833868,5.671654883188104e-06,-9.513219197554434e-05,1.65096465718495e-05,0.000979147538083708,0.0005204647796790368,-0.0010339192716269342,-0.00043582519113357455,0.00024572800800313365,-0.0002567651647725777,0.0009857282864484593,0.4783565402030945,33.96377182006836,3.8982207775115967,-19.360689163208008,-0.2548118233680725,-1.783755898475647,0.07724325358867645,0
47,0.23001885414123535,-0.4505855441093445,-33.99154281616211,-3.8228423595428467,19.388460159301758,0.2484031319618225,1.796573281288147,-0.08365194499492645,0.0,0.0,0.0,0.0,0.0,0.0,0.0,-0.4480949879065308,0.05334907445024992,-0.2453994163259508,0.39828545230178,0.1908469556684272,-0.11407249318385096,-0.11345607400860859,1.0546680189895397,0.324300857688518,-0.39248863484607377,-2.153497396368729,0.8647492697555026,2.46597188381354,0.544486591804125,1.0544104758940245,0.3238615046091247,-0.39250456234122666,-2.153291787532338,0.8647539153680389,2.46587817577521,0.5445020185570556,-0.0007784117266553888,-7.17261128904702e-05,-0.0005419120219048163,-0.001242102447723225,5.370475047750598e-05,-0.0003042232651187774,-0.001284494144557678,0.0,0.0,0.0,0.0,0.0,0.0,0.0,-0.00025754309551517807,-0.0004393530793933009,-1.5927495152889826e-05,0.00020560883639131333,4.6456125363247835e-06,-9.370803832986496e-05,1.5426752930647325e-05,0.0007784117266553888,7.17261128904702e-05,0.0005419120219048163,0.001242102447723225,-5.370475047750598e-05,0.0003042232651187774,0.001284494144557678,0.4505855441093445,33.99154281616211,3.8228423595428467,-19.388460159301758,-0.2484031319618225,-1.796573281288147,0.08365194499492645,0
48,0.2350311279296875,-0.4505855441093445,-33.99154281616211,-3.8228423595428467,19.388460159301758,0.2484031319618225,1.796573281288147,-0.08365194499492645,0.0,0.0,0.0,0.0,0.0,0.0,0.0,-0.4480949879065308,0.05334907445024992,-0.2453994163259508,0.39828545230178,0.1908469556684272,-0.11407249318385096,-0.11345607400860859,1.0546680189895397,0.324300857688518,-0.39248863484607377,-2.153497396368729,0.8647492697555026,2.46597188381354,0.544486591804125,1.0544104758940245,0.3238615046091247,-0.39250456234122666,-2.153291787532338,0.8647539153680389,2.46587817577521,0.5445020185570556,-0.0007784117266553888,-7.17261128904702e-05,-0.0005419120219048163,-0.001242102447723225,5.370475047750598e-05,-0.0003042232651187774,-0.001284494144557678,0.0,0.0,0.0,0.0,0.0,0.0,0.0,-0.00025754309551517807,-0.0004393530793933009,-1.5927495152889826e-05,0.00020560883639131333,4.6456125363247835e-06,-9.370803832986496e-05,1.5426752930647325e-05,0.0007784117266553888,7.17261128904702e-05,0.0005419120219048163,0.001242102447723225,-5.370475047750598e-05,0.0003042232651187774,0.001284494144557678,0.4505855441093445,33.99154281616211,3.8228423595428467,-19.388460159301758,-0.2484031319618225,-1.796573281288147,0.08365194499492645,0
49,0.2400524616241455,-0.3514034152030945,-33.99154281616211,-3.7752349376678467,19.360689163208008,0.2484031319618225,1.790164589881897,-0.07724325358867645,0.0,0.0,0.0,0.0,0.0,0.0,0.0,-0.4392177056655651,0.08979308992071669,-0.23445311258201454,0.35301653761648444,0.19124002166577103,-0.11924650890691271,-0.1126595785979111,1.0546589925845273,0.3243009276769788,-0.3924918204149179,-2.153495446170251,0.8647493090032793,2.4659725958903627,0.5444855235184641,1.0544104758940245,0.3238615046091247,-0.39250456234122666,-2.153291787532338,0.8647539153680389,2.46587817577521,0.5445020185570556,-0.0012454029985025092,-0.00041377410897289993,0.00011993123315559048,0.0004467225862489276,-0.0003177512158023194,-0.0001129090857724158,-0.0015250926857242344,0.0,0.0,0.0,0.0,0.0,0.0,0.0,-0.0002485166905028535,-0.00043942306785410556,-1.2741926308734719e-05,0.00020365863791305117,4.6063647596295e-06,-9.442011515270465e-05,1.6495038591468614e-05,0.0012454029985025092,0.00041377410897289993,-0.00011993123315559048,-0.0004467225862489276,0.0003177512158023194,0.0001129090857724158,0.0015250926857242344,0.3514034152030945,33.99154281616211,3.7752349376678467,-19.360689163208008,-0.2484031319618225,-1.790164589881897,0.07724325358867645,0
50,0.24500131607055664,-0.3514034152030945,-33.99154281616211,-3.7752349376678467,19.360689163208008,0.2484031319618225,1.790164589881897,-0.07724325358867645,0.0,0.0,0.0,0.0,0.0,0.0,0.0,-0.4392177056655651,0.08979308992071669,-0.23445311258201454,0.35301653761648444,0.19124002166577103,-0.11924650890691271,-0.1126595785979111,1.0546589925845273,0.3243009276769788,-0.3924918204149179,-2.153495446170251,0.8647493090032793,2.4659725958903627,0.5444855235184641,1.0544104758940245,0.3238615046091247,-0.39250456234122666,-2.153291787532338,0.8647539153680389,2.46587817577521,0.5445020185570556,-0.0012454029985025092,-0.00041377410897289993,0.00011993123315559048,0.0004467225862489276,-0.0003177512158023194,-0.0001129090857724158,-0.0015250926857242344,0.0,0.0,0.0,0.0,0.0,0.0,0.0,-0.0002485166905028535,-0.00043942306785410556,-1.2741926308734719e-05,0.00020365863791305117,4.6063647596295e-06,-9.442011515270465e-05,1.6495038591468614e-05,0.0012454029985025092,0.00041377410897289993,-0.00011993123315559048,-0.0004467225862489276,0.0003177512158023194,0.0001129090857724158,0.0015250926857242344,0.3514034152030945,33.99154281616211,3.7752349376678467,-19.360689163208008,-0.2484031319618225,-1.790164589881897,0.07724325358867645,0
51,0.24995088577270508,-0.3752071261405945,-33.96377182006836,-3.7752349376678467,19.412263870239258,0.2429099678993225,1.796573281288147,-0.13858358561992645,0.0,0.0,0.0,0.0,0.0,0.0,0.0,-0.4463009121095493,0.09964980903742791,-0.23902537196931303,0.3380509815700158,0.1918156958296048,-0.11845411095952814,-0.11281514510028941,1.0546606629815019,0.3242989000985758,-0.3924948918660738,-2.1534967499908397,0.8647499149942649,2.46597188381354,0.5444923288636648,1.0544104758940245,0.3238615046091247,-0.39250456234122666,-2.153291787532338,0.8647539153680389,2.46587817577521,0.5445020185570556,-4.914956662844764e-05,-0.0007079580592393763,0.0012433370926330756,-0.0009769022961143281,0.0003487348120539567,-0.0003427162482880331,0.0011156534788636656,0.0,0.0,0.0,0.0,0.0,0.0,0.0,-0.0002501870874773715,-0.00043739548945109785,-9.670475152878666e-06,0.00020496245850187833,4.000373774015742e-06,-9.370803832986496e-05,9.689693390768639e-06,4.914956662844764e-05,0.0007079580592393763,-0.0012433370926330756,0.0009769022961143281,-0.0003487348120539567,0.0003427162482880331,-0.0011156534788636656,0.3752071261405945,33.96377182006836,3.7752349376678467,-19.412263870239258,-0.2429099678993225,-1.796573281288147,0.13858358561992645,0
52,0.2549593448638916,-0.3752071261405945,-33.96377182006836,-3.7752349376678467,19.412263870239258,0.2429099678993225,1.796573281288147,-0.13858358561992645,0.0,0.0,0.0,0.0,0.0,0.0,0.0,-0.4463009121095493,0.09964980903742791,-0.23902537196931303,0.3380509815700158,0.1918156958296048,-0.11845411095952814,-0.11281514510028941,1.0546606629815019,0.3242989000985758,-0.3924948918660738,-2.1534967499908397,0.8647499149942649,2.46597188381354,0.5444923288636648,1.0544104758940245,0.3238615046091247,-0.39250456234122666,-2.153291787532338,0.8647539153680389,2.46587817577521,0.5445020185570556,-4.914956662844764e-05,-0.0007079580592393763,0.0012433370926330756,-0.0009769022961143281,0.0003487348120539567,-0.0003427162482880331,0.0011156534788636656,0.0,0.0,0.0,0.0,0.0,0.0,0.0,-0.0002501870874773715,-0.00043739548945109785,-9.670475152878666e-06,0.00020496245850187833,4.000373774015742e-06,-9.370803832986496e-05,9.689693390768639e-06,4.914956662844764e-05,0.0007079580592393763,-0.0012433370926330756,0.0009769022961143281,-0.0003487348120539567,0.0003427162482880331,-0.0011156534788636656,0.3752071261405945,33.96377182006836,3.7752349376678467,-19.412263870239258,-0.2429099678993225,-1.796573281288147,0.13858358561992645,0
53,0.2600224018096924,-0.3752071261405945,-33.96377182006836,-3.7752349376678467,19.412263870239258,0.2429099678993225,1.796573281288147,-0.13858358561992645,0.0,0.0,0.0,0.0,0.0,0.0,0.0,-0.4463009121095493,0.09964980903742791,-0.23902537196931303,0.3380509815700158,0.1918156958296048,-0.11845411095952814,-0.11281514510028941,1.0546606629815019,0.3242989000985758,-0.3924948918660738,-2.1534967499908397,0.8647499149942649,2.46597188381354,0.5444923288636648,1.0544104758940245,0.3238615046091247,-0.39250456234122666,-2.153291787532338,0.8647539153680389,2.46587817577521,0.5445020185570556,-4.914956662844764e-05,-0.0007079580592393763,0.0012433370926330756,-0.0009769022961143281,0.0003487348120539567,-0.0003427162482880331,0.0011156534788636656,0.0,0.0,0.0,0.0,0.0,0.0,0.0,-0.0002501870874773715,-0.00043739548945109785,-9.670475152878666e-06,0.00020496245850187833,4.000373774015742e-06,-9.370803832986496e-05,9.689693390768639e-06,4.914956662844764e-05,0.0007079580592393763,-0.0012433370926330756,0.0009769022961143281,-0.0003487348120539567,0.0003427162482880331,-0.0011156534788636656,0.3752071261405945,33.96377182006836,3.7752349376678467,-19.412263870239258,-0.2429099678993225,-1.796573281288147,0.13858358561992645,0
54,0.2651534080505371,-0.3752071261405945,-33.96377182006836,-3.7752349376678467,19.412263870239258,0.2429099678993225,1.796573281288147,-0.13858358561992645,0.0,0.0,0.0,0.0,0.0,0.0,0.0,-0.4463009121095493,0.09964980903742791,-0.23902537196931303,0.3380509815700158,0.1918156958296048,-0.11845411095952814,-0.11281514510028941,1.0546606629815019,0.3242989000985758,-0.3924948918660738,-2.1534967499908397,0.8647499149942649,2.46597188381354,0.5444923288636648,1.0544104758940245,0.3238615046091247,-0.39250456234122666,-2.153291787532338,0.8647539153680389,2.46587817577521,0.5445020185570556,-4.914956662844764e-05,-0.0007079580592393763,0.0012433370926330756,-0.0009769022961143281,0.0003487348120539567,-0.0003427162482880331,0.0011156534788636656,0.0,0.0,0.0,0.0,0.0,0.0,0.0,-0.0002501870874773715,-0.00043739548945109785,-9.670475152878666e-06,0.00020496245850187833,4.000373774015742e-06,-9.370803832986496e-05,9.689693390768639e-06,4.914956662844764e-05,0.0007079580592393763,-0.0012433370926330756,0.0009769022961143281,-0.0003487348120539567,0.0003427162482880331,-0.0011156534788636656,0.3752071261405945,33.96377182006836,3.7752349376678467,-19.412263870239258,-0.2429099678993225,-1.796573281288147,0.13858358561992645,0
55,0.26999568939208984,-0.3514034152030945,-33.96377182006836,-3.7752349376678467,19.388460159301758,0.2548118233680725,1.790164589881897,-0.08365194499492645,0.0,0.0,0.0,0.0,0.0,0.0,0.0,-0.4513759115767344,0.094254803165157,-0.2433701967556949,0.3405357156497915,0.19279624732445963,-0.1160758962607505,-0.11155758431658269,1.0546589925456464,0.3242989000981314,-0.3924945850719293,-2.1534973963556507,0.8647485969265055,2.4659725958903627,0.5444862645938386,1.0544104758940245,0.3238615046091247,-0.39250456234122666,-2.153291787532338,0.8647539153680389,2.46587817577521,0.5445020185570556,-0.0007677888735699939,-0.00042822417574157044,0.0003853936195752495,-0.00023088533883247587,-0.00036279353155187357,-8.252315051966915e-05,-0.0009679498616190212,0.0,0.0,0.0,0.0,0.0,0.0,0.0,-0.000248516651621955,-0.0004373954890066756,-9.977269297356539e-06,0.0002056088233128861,5.318441533397333e-06,-9.442011515270465e-05,1.5753963216957878e-05,0.0007677888735699939,0.00042822417574157044,-0.0003853936195752495,0.00023088533883247587,0.00036279353155187357,8.252315051966915e-05,0.0009679498616190212,0.3514034152030945,33.96377182006836,3.7752349376678467,-19.388460159301758,-0.2548118233680725,-1.790164589881897,0.08365194499492645,0
56,0.275005578994751,-0.3514034152030945,-33.96377182006836,-3.7752349376678467,19.388460159301758,0.2548118233680725,1.790164589881897,-0.08365194499492645,0.0,0.0,0.0,0.0,0.0,0.0,0.0,-0.4513759115767344,0.094254803165157,-0.2433701967556949,0.3405357156497915,0.19279624732445963,-0.1160758962607505,-0.11155758431658269,1.0546589925456464,0.3242989000981314,-0.3924945850719293,-2.1534973963556507,0.8647485969265055,2.4659725958903627,0.5444862645938386,1.0544104758940245,0.3238615046091247,-0.39250456234122666,-2.153291787532338,0.8647539153680389,2.46587817577521,0.5445020185570556,-0.0007677888735699939,-0.00042822417574157044,0.0003853936195752495,-0.00023088533883247587,-0.00036279353155187357,-8.252315051966915e-05,-0.0009679498616190212,0.0,0.0,0.0,0.0,0.0,0.0,0.0,-0.000248516651621955,-0.0004373954890066756,-9.977269297356539e-06,0.0002056088233128861,5.318441533397333e-06,-9.442011515270465e-05,1.5753963216957878e-05,0.0007677888735699939,0.00042822417574157044,-0.0003853936195752495,0.00023088533883247587,0.00036279353155187357,8.252315051966915e-05,0.0009679498616190212,0.3514034152030945,33.96377182006836,3.7752349376678467,-19.388460159301758,-0.2548118233680725,-1.790164589881897,0.08365194499492645,0
57,0.28002405166625977,-0.4029781222343445,-33.99154281616211,-3.7752349376678467,19.336885452270508,0.2484031319618225,1.790164589881897,-0.09097616374492645,0.0,0.0,0.0,0.0,0.0,0.0,0.0,-0.43661367829506126,0.09339184227471219,-0.23168125205021356,0.3435940904670131,0.1928664640857747,-0.11649656957225464,-0.11096276158624058,1.0546626118233329,0.3243008489399625,-0.3924920654873899,-2.153493776073558,0.8647461300889651,2.4659725958903627,0.5444870348433072,1.0544104758940245,0.3238615046091247,-0.39250456234122666,-2.153291787532338,0.8647539153680389,2.46587817577521,0.5445020185570556,0.00013076948746480372,0.00028778368064285166,0.00017128663742403588,0.0006447890378996253,-0.00014798026737980442,-0.0003083677702665122,-0.001022937947023819,0.0,0.0,0.0,0.0,0.0,0.0,0.0,-0.0002521359293083947,-0.00043934433083780977,-1.2496853836752031e-05,0.00020198854122011056,7.78527907385751e-06,-9.442011515270465e-05,1.498371374841767e-05,-0.00013076948746480372,-0.00028778368064285166,-0.00017128663742403588,-0.0006447890378996253,0.00014798026737980442,0.0003083677702665122,0.001022937947023819,0.4029781222343445,33.99154281616211,3.7752349376678467,-19.336885452270508,-0.2484031319618225,-1.790164589881897,0.09097616374492645,0
58,0.2850344181060791,-0.4029781222343445,-33.99154281616211,-3.7752349376678467,19.336885452270508,0.2484031319618225,1.790164589881897,-0.09097616374492645,0.0,0.0,0.0,0.0,0.0,0.0,0.0,-0.43661367829506126,0.09339184227471219,-0.23168125205021356,0.3435940904670131,0.1928664640857747,-0.11649656957225464,-0.11096276158624058,1.0546626118233329,0.3243008489399625,-0.3924920654873899,-2.153493776073558,0.8647461300889651,2.4659725958903627,0.5444870348433072,1.0544104758940245,0.3238615046091247,-0.39250456234122666,-2.153291787532338,0.8647539153680389,2.46587817577521,0.5445020185570556,0.00013076948746480372,0.00028778368064285166,0.00017128663742403588,0.0006447890378996253,-0.00014798026737980442,-0.0003083677702665122,-0.001022937947023819,0.0,0.0,0.0,0.0,0.0,0.0,0.0,-0.0002521359293083947,-0.00043934433083780977,-1.2496853836752031e-05,0.00020198854122011056,7.78527907385751e-06,-9.442011515270465e-05,1.498371374841767e-05,-0.00013076948746480372,-0.00028778368064285166,-0.00017128663742403588,-0.0006447890378996253,0.00014798026737980442,0.0003083677702665122,0.001022937947023819,0.4029781222343445,33.99154281616211,3.7752349376678467,-19.336885452270508,-0.2484031319618225,-1.790164589881897,0.09097616374492645,0
59,0.28999900817871094,-0.4783565402030945,-34.01534652709961,-3.7752349376678467,19.360689163208008,0.2429099678993225,1.783755898475647,-0.12485067546367645,0.0,0.0,0.0,0.0,0.0,0.0,0.0,-0.43981926306350083,0.08869662438548913,-0.23347600963478934,0.34839431151722955,0.19322380844699028,-0.11603293998714445,-0.1114700692899084,1.0546679015368745,0.3243025281243733,-0.39249490065201503,-2.1534954475268924,0.8647499193369705,2.4659733079671855,0.5444954039557218,1.0544104758940245,0.3238615046091247,-0.39250456234122666,-2.153291787532338,0.8647539153680389,2.46587817577521,0.5445020185570556,0.0005016515280395972,0.0008387367369086964,-0.0009605145057445025,0.00015063431767150878,0.0001527350480280849,0.00013578972312057428,0.0008758056063453271,0.0,0.0,0.0,0.0,0.0,0.0,0.0,-0.0002574256428500288,-0.0004410235152486064,-9.661689211626356e-06,0.000203659994554517,3.996031068376205e-06,-9.513219197554434e-05,6.614601333776449e-06,-0.0005016515280395972,-0.0008387367369086964,0.0009605145057445025,-0.00015063431767150878,-0.0001527350480280849,-0.00013578972312057428,-0.0008758056063453271,0.4783565402030945,34.01534652709961,3.7752349376678467,-19.360689163208008,-0.2429099678993225,-1.783755898475647,0.12485067546367645,0
60,0.2949967384338379,-0.4783565402030945,-34.01534652709961,-3.7752349376678467,19.360689163208008,0.2429099678993225,1.783755898475647,-0.12485067546367645,0.0,0.0,0.0,0.0,0.0,0.0,0.0,-0.43981926306350083,0.08869662438548913,-0.23347600963478934,0.34839431151722955,0.19322380844699028,-0.11603293998714445,-0.1114700692899084,1.0546679015368745,0.3243025281243733,-0.39249490065201503,-2.1534954475268924,0.8647499193369705,2.4659733079671855,0.5444954039557218,1.0544104758940245,0.3238615046091247,-0.39250456234122666,-2.153291787532338,0.8647539153680389,2.46587817577521,0.5445020185570556,0.0005016515280395972,0.0008387367369086964,-0.0009605145057445025,0.00015063431767150878,0.0001527350480280849,0.00013578972312057428,0.0008758056063453271,0.0,0.0,0.0,0.0,0.0,0.0,0.0,-0.0002574256428500288,-0.0004410235152486064,-9.661689211626356e-06,0.000203659994554517,3.996031068376205e-06,-9.513219197554434e-05,6.614601333776449e-06,-0.0005016515280395972,-0.0008387367369086964,0.0009605145057445025,-0.00015063431767150878,-0.0001527350480280849,-0.00013578972312057428,-0.0008758056063453271,0.4783565402030945,34.01534652709961,3.7752349376678467,-19.360689163208008,-0.2429099678993225,-1.783755898475647,0.12485067546367645,0
61,0.29999852180480957,-0.4783565402030945,-34.01534652709961,-3.8228423595428467,19.336885452270508,0.2548118233680725,1.790164589881897,-0.06351034343242645,0.0,0.0,0.0,0.0,0.0,0.0,0.0,-0.4371069193735833,0.09183659396786911,-0.2270550934443872,0.34962865345855454,0.19258880992851457,-0.1170914830750809,-0.11232901648046881,1.0546679015368745,0.3243025203479289,-0.3924893201300877,-2.1534937770910427,0.8647485576806734,2.4659725958903627,0.5444840353853836,1.0544104758940245,0.3238615046091247,-0.39250456234122666,-2.153291787532338,0.8647539153680389,2.46587817577521,0.5445020185570556,-5.9629659312854394e-05,0.0006894525017953692,-0.0002640409934766948,0.0009430132184443993,-0.0004413073511189562,7.406505813440421e-05,-0.0024363854817005003,0.0,0.0,0.0,0.0,0.0,0.0,0.0,-0.0002574256428500288,-0.00044101573880417355,-1.5242211138966066e-05,0.00020198955870487367,5.3576873655369894e-06,-9.442011515270465e-05,1.7983171672009135e-05,5.9629659312854394e-05,-0.0006894525017953692,0.0002640409934766948,-0.0009430132184443993,0.0004413073511189562,-7.406505813440421e-05,0.0024363854817005003,0.4783565402030945,34.01534652709961,3.8228423595428467,-19.336885452270508,-0.2548118233680725,-1.790164589881897,0.06351034343242645,0
62,0.30499815940856934,-0.4783565402030945,-34.01534652709961,-3.8228423595428467,19.336885452270508,0.2548118233680725,1.790164589881897,-0.06351034343242645,0.0,0.0,0.0,0.0,0.0,0.0,0.0,-0.4371069193735833,0.09183659396786911,-0.2270550934443872,0.34962865345855454,0.19258880992851457,-0.1170914830750809,-0.11232901648046881,1.0546679015368745,0.3243025203479289,-0.3924893201300877,-2.1534937770910427,0.8647485576806734,2.4659725958903627,0.5444840353853836,1.0544104758940245,0.3238615046091247,-0.39250456234122666,-2.153291787532338,0.8647539153680389,2.46587817577521,0.5445020185570556,-5.9629659312854394e-05,0.0006894525017953692,-0.0002640409934766948,0.0009430132184443993,-0.0004413073511189562,7.406505813440421e-05,-0.0024363854817005003,0.0,0.0,0.0,0.0,0.0,0.0,0.0,-0.0002574256428500288,-0.00044101573880417355,-1.5242211138966066e-05,0.00020198955870487367,5.3576873655369894e-06,-9.442011515270465e-05,1.7983171672009135e-05,5.9629659312854394e-05,-0.0006894525017953692,0.0002640409934766948,-0.0009430132184443993,0.0004413073511189562,-7.406505813440421e-05,0.0024363854817005003,0.4783565402030945,34.01534652709961,3.8228423595428467,-19.336885452270508,-0.2548118233680725,-1.790164589881897,0.06351034343242645,0
63,0.3099977970123291,-0.4783565402030945,-34.01534652709961,-3.8506133556365967,19.360689163208008,0.2484031319618225,1.790164589881897,-0.13858358561992645,0.0,0.0,0.0,0.0,0.0,0.0,0.0,-0.44329250792176056,0.0986139927013664,-0.2296202661718464,0.34307150758234334,0.19203541551886022,-0.11753047259439604,-0.11325265134179652,1.054667902481682,0.32430251948383015,-0.3924867495161313,-2.1534954475268977,0.8647493045886456,2.4659725958903627,0.5444923381235314,1.0544104758940245,0.3238615046091247,-0.39250456234122666,-2.153291787532338,0.8647539153680389,2.46587817577521,0.5445020185570556,-7.133638712427702e-05,0.0008668791491258729,0.00031125210562450207,-0.00038864189947980776,-0.00017867811434140832,2.4254909342062917e-05,0.0011742808683703734,0.0,0.0,0.0,0.0,0.0,0.0,0.0,-0.0002574265876575943,-0.00044101487470543654,-1.781282509538684e-05,0.00020365999455984607,4.6107793932881336e-06,-9.442011515270465e-05,9.680433524228427e-06,7.133638712427702e-05,-0.0008668791491258729,-0.00031125210562450207,0.00038864189947980776,0.00017867811434140832,-2.4254909342062917e-05,-0.0011742808683703734,0.4783565402030945,34.01534652709961,3.8506133556365967,-19.360689163208008,-0.2484031319618225,-1.790164589881897,0.13858358561992645,0
64,0.3149991035461426,-0.4783565402030945,-34.01534652709961,-3.8506133556365967,19.360689163208008,0.2484031319618225,1.790164589881897,-0.13858358561992645,0.0,0.0,0.0,0.0,0.0,0.0,0.0,-0.44329250792176056,0.0986139927013664,-0.2296202661718464,0.34307150758234334,0.19203541551886022,-0.11753047259439604,-0.11325265134179652,1.054667902481682,0.32430251948383015,-0.3924867495161313,-2.1534954475268977,0.8647493045886456,2.4659725958903627,0.5444923381235314,1.0544104758940245,0.3238615046091247,-0.39250456234122666,-2.153291787532338,0.8647539153680389,2.46587817577521,0.5445020185570556,-7.133638712427702e-05,0.0008668791491258729,0.00031125210562450207,-0.00038864189947980776,-0.00017867811434140832,2.4254909342062917e-05,0.0011742808683703734,0.0,0.0,0.0,0.0,0.0,0.0,0.0,-0.0002574265876575943,-0.00044101487470543654,-1.781282509538684e-05,0.00020365999455984607,4.6107793932881336e-06,-9.442011515270465e-05,9.680433524228427e-06,7.133638712427702e-05,-0.0008668791491258729,-0.00031125210562450207,0.00038864189947980776,0.00017867811434140832,-2.4254909342062917e-05,-0.0011742808683703734,0.4783565402030945,34.01534652709961,3.8506133556365967,-19.360689163208008,-0.2484031319618225,-1.790164589881897,0.13858358561992645,0
65,0.32001304626464844,-0.4505855441093445,-34.01534652709961,-3.8228423595428467,19.388460159301758,0.2429099678993225,1.783755898475647,-0.09097616374492645,0.0,0.0,0.0,0.0,0.0,0.0,0.0,-0.4488014324704409,0.08740190636571817,-0.2370875448975844,0.3510320038787097,0.19148059907653145,-0.11624335517814638,-0.11365241909479945,1.0546659611983176,0.32430252229200357,-0.39249154833142924,-2.153494923879761,0.8647499062729385,2.4659733079671855,0.544487047871419,1.0544104758940245,0.3238615046091247,-0.39250456234122666,-2.153291787532338,0.8647539153680389,2.46587817577521,0.5445020185570556,-0.00040632521686938147,0.0008666672639032596,-0.00047013983316806195,-5.90440242912947e-06,0.00015930895445387896,0.0002009556203875858,-0.0011778259644698,0.0,0.0,0.0,0.0,0.0,0.0,0.0,-0.00025548530429309046,-0.00044101768287885257,-1.3014009797418513e-05,0.00020313634742308295,4.009095100454552e-06,-9.513219197554434e-05,1.4970685636606085e-05,0.00040632521686938147,-0.0008666672639032596,0.00047013983316806195,5.90440242912947e-06,-0.00015930895445387896,-0.0002009556203875858,0.0011778259644698,0.4505855441093445,34.01534652709961,3.8228423595428467,-19.388460159301758,-0.2429099678993225,-1.783755898475647,0.09097616374492645,0
66,0.3250119686126709,-0.4505855441093445,-34.01534652709961,-3.8228423595428467,19.388460159301758,0.2429099678993225,1.783755898475647,-0.09097616374492645,0.0,0.0,0.0,0.0,0.0,0.0,0.0,-0.4488014324704409,0.08740190636571817,-0.2370875448975844,0.3510320038787097,0.19148059907653145,-0.11624335517814638,-0.11365241909479945,1.0546659611983176,0.32430252229200357,-0.39249154833142924,-2.153494923879761,0.8647499062729385,2.4659733079671855,0.544487047871419,1.0544104758940245,0.3238615046091247,-0.39250456234122666,-2.153291787532338,0.8647539153680389,2.46587817577521,0.5445020185570556,-0.00040632521686938147,0.0008666672639032596,-0.00047013983316806195,-5.90440242912947e-06,0.00015930895445387896,0.0002009556203875858,-0.0011778259644698,0.0,0.0,0.0,0.0,0.0,0.0,0.0,-0.00025548530429309046,-0.00044101768287885257,-1.3014009797418513e-05,0.00020313634742308295,4.009095100454552e-06,-9.513219197554434e-05,1.4970685636606085e-05,0.00040632521686938147,-0.0008666672639032596,0.00047013983316806195,5.90440242912947e-06,-0.00015930895445387896,-0.0002009556203875858,0.0011778259644698,0.4505855441093445,34.01534652709961,3.8228423595428467,-19.388460159301758,-0.2429099678993225,-1.783755898475647,0.09097616374492645,0
67,0.32996129989624023,-0.4783565402030945,-34.01534652709961,-3.8506133556365967,19.388460159301758,0.2484031319618225,1.796573281288147,-0.13217489421367645,0.0,0.0,0.0,0.0,0.0,0.0,0.0,-0.4544108759125434,0.08986428680413373,-0.24053226265073255,0.34699158550150033,0.1919012234217473,-0.11718609324693237,-0.11363883096494827,1.0546679128746144,0.32430251948384115,-0.392486513965751,-2.1534973963170874,0.8647493090032793,2.46597188381354,0.5444917301637525,1.0544104758940245,0.3238615046091247,-0.39250456234122666,-2.153291787532338,0.8647539153680389,2.46587817577521,0.5445020185570556,0.00010193933981987169,0.0006381904559976292,0.0006653010845482444,-0.00036385508688489935,-9.731834707914024e-05,-0.00020305901923007704,0.0011277949101639179,0.0,0.0,0.0,0.0,0.0,0.0,0.0,-0.00025743698058988684,-0.00044101487471642775,-1.8048375475643308e-05,0.00020560878474951139,4.6063647596295e-06,-9.370803832986496e-05,1.0288393303081733e-05,-0.00010193933981987169,-0.0006381904559976292,-0.0006653010845482444,0.00036385508688489935,9.731834707914024e-05,0.00020305901923007704,-0.0011277949101639179,0.4783565402030945,34.01534652709961,3.8506133556365967,-19.388460159301758,-0.2484031319618225,-1.796573281288147,0.13217489421367645,0
68,0.33499932289123535,-0.4783565402030945,-34.01534652709961,-3.8506133556365967,19.388460159301758,0.2484031319618225,1.796573281288147,-0.13217489421367645,0.0,0.0,0.0,0.0,0.0,0.0,0.0,-0.4544108759125434,0.08986428680413373,-0.24053226265073255,0.34699158550150033,0.1919012234217473,-0.11718609324693237,-0.11363883096494827,1.0546679128746144,0.32430251948384115,-0.392486513965751,-2.1534973963170874,0.8647493090032793,2.46597188381354,0.5444917301637525,1.0544104758940245,0.3238615046091247,-0.39250456234122666,-2.153291787532338,0.8647539153680389,2.46587817577521,0.5445020185570556,0.00010193933981987169,0.0006381904559976292,0.0006653010845482444,-0.00036385508688489935,-9.731834707914024e-05,-0.00020305901923007704,0.0011277949101639179,0.0,0.0,0.0,0.0,0.0,0.0,0.0,-0.00025743698058988684,-0.00044101487471642775,-1.8048375475643308e-05,0.00020560878474951139,4.6063647596295e-06,-9.370803832986496e-05,1.0288393303081733e-05,-0.00010193933981987169,-0.0006381904559976292,-0.0006653010845482444,0.00036385508688489935,9.731834707914024e-05,0.00020305901923007704,-0.0011277949101639179,0.4783565402030945,34.01534652709961,3.8506133556365967,-19.388460159301758,-0.2484031319618225,-1.796573281288147,0.13217489421367645,0
69,0.3399956226348877,-0.4267818331718445,-33.99154281616211,-3.7752349376678467,19.388460159301758,0.2484031319618225,1.783755898475647,-0.12485067546367645,0.0,0.0,0.0,0.0,0.0,0.0,0.0,-0.44170668783877165,0.09742476431369457,-0.2295280466808963,0.3426953863476328,0.19153717745657545,-0.11851699723213023,-0.1135758438641009,1.0546642822593801,0.3243015575729633,-0.3924948659453667,-2.1534973963687287,0.8647492697574964,2.4659733079671855,0.5444908005640864,1.0544104758940245,0.3238615046091247,-0.39250456234122666,-2.153291787532338,0.8647539153680389,2.46587817577521,0.5445020185570556,5.926984649653331e-05,0.0005087127533879221,-0.0006421172140609471,-0.0006549807816581263,-0.00010531996736666226,0.00018819395578312194,0.0005464896800439314,0.0,0.0,0.0,0.0,0.0,0.0,0.0,-0.0002538063653556577,-0.0004400529638385886,-9.696395859959406e-06,0.00020560883639086924,4.645610542475254e-06,-9.513219197554434e-05,1.1217992969214663e-05,-5.926984649653331e-05,-0.0005087127533879221,0.0006421172140609471,0.0006549807816581263,0.00010531996736666226,-0.00018819395578312194,-0.0005464896800439314,0.4267818331718445,33.99154281616211,3.7752349376678467,-19.388460159301758,-0.2484031319618225,-1.783755898475647,0.12485067546367645,0
70,0.3450193405151367,-0.4267818331718445,-33.99154281616211,-3.7752349376678467,19.388460159301758,0.2484031319618225,1.783755898475647,-0.12485067546367645,0.0,0.0,0.0,0.0,0.0,0.0,0.0,-0.44170668783877165,0.09742476431369457,-0.2295280466808963,0.3426953863476328,0.19153717745657545,-0.11851699723213023,-0.1135758438641009,1.0546642822593801,0.3243015575729633,-0.3924948659453667,-2.1534973963687287,0.8647492697574964,2.4659733079671855,0.5444908005640864,1.0544104758940245,0.3238615046091247,-0.39250456234122666,-2.153291787532338,0.8647539153680389,2.46587817577521,0.5445020185570556,5.926984649653331e-05,0.0005087127533879221,-0.0006421172140609471,-0.0006549807816581263,-0.00010531996736666226,0.00018819395578312194,0.0005464896800439314,0.0,0.0,0.0,0.0,0.0,0.0,0.0,-0.0002538063653556577,-0.0004400529638385886,-9.696395859959406e-06,0.00020560883639086924,4.645610542475254e-06,-9.513219197554434e-05,1.1217992969214663e-05,-5.926984649653331e-05,-0.0005087127533879221,0.0006421172140609471,0.0006549807816581263,0.00010531996736666226,-0.00018819395578312194,-0.0005464896800439314,0.4267818331718445,33.99154281616211,3.7752349376678467,-19.388460159301758,-0.2484031319618225,-1.783755898475647,0.12485067546367645,0
71,0.3500180244445801,-0.4029781222343445,-33.99154281616211,-3.7514312267303467,19.412263870239258,0.2484031319618225,1.783755898475647,-0.11844198405742645,0.0,0.0,0.0,0.0,0.0,0.0,0.0,-0.4399909726273398,0.08931846971096494,-0.23340688998717657,0.3466375439493227,0.19183511562817934,-0.11822110370287967,-0.11329810106762199,1.0546626118233329,0.3243008492653165,-0.39249433759398045,-2.153499066804584,0.8647491912657094,2.4659733079671855,0.5444900865472061,1.0544104758940245,0.3238615046091247,-0.39250456234122666,-2.153291787532338,0.8647539153680389,2.46587817577521,0.5445020185570556,0.0005022388449659184,0.00027744276175704387,-0.00037454765926183206,-0.0011720161739344986,-5.068236452357147e-05,0.00021895614585052753,0.00017350486502839196,0.0,0.0,0.0,0.0,0.0,0.0,0.0,-0.0002521359293083947,-0.00043934465619177576,-1.0224747246212473e-05,0.00020727927224628573,4.724102329545232e-06,-9.513219197554434e-05,1.1932009849502379e-05,-0.0005022388449659184,-0.00027744276175704387,0.00037454765926183206,0.0011720161739344986,5.068236452357147e-05,-0.00021895614585052753,-0.00017350486502839196,0.4029781222343445,33.99154281616211,3.7514312267303467,-19.412263870239258,-0.2484031319618225,-1.783755898475647,0.11844198405742645,0
72,0.35504841804504395,-0.4029781222343445,-33.99154281616211,-3.7514312267303467,19.412263870239258,0.2484031319618225,1.783755898475647,-0.11844198405742645,0.0,0.0,0.0,0.0,0.0,0.0,0.0,-0.4399909726273398,0.08931846971096494,-0.23340688998717657,0.3466375439493227,0.19183511562817934,-0.11822110370287967,-0.11329810106762199,1.0546626118233329,0.3243008492653165,-0.39249433759398045,-2.153499066804584,0.8647491912657094,2.4659733079671855,0.5444900865472061,1.0544104758940245,0.3238615046091247,-0.39250456234122666,-2.153291787532338,0.8647539153680389,2.46587817577521,0.5445020185570556,0.0005022388449659184,0.00027744276175704387,-0.00037454765926183206,-0.0011720161739344986,-5.068236452357147e-05,0.00021895614585052753,0.00017350486502839196,0.0,0.0,0.0,0.0,0.0,0.0,0.0,-0.0002521359293083947,-0.00043934465619177576,-1.0224747246212473e-05,0.00020727927224628573,4.724102329545232e-06,-9.513219197554434e-05,1.1932009849502379e-05,-0.0005022388449659184,-0.00027744276175704387,0.00037454765926183206,0.0011720161739344986,5.068236452357147e-05,-0.00021895614585052753,-0.00017350486502839196,0.4029781222343445,33.99154281616211,3.7514312267303467,-19.412263870239258,-0.2484031319618225,-1.783755898475647,0.11844198405742645,0
73,0.36003851890563965,-0.3752071261405945,-34.03915023803711,-3.7236602306365967,19.412263870239258,0.2484031319618225,1.783755898475647,-0.08365194499492645,0.0,0.0,0.0,0.0,0.0,0.0,0.0,-0.4267616602528979,0.08307586848240968,-0.22319194301524456,0.35220036595642895,0.19179342664139076,-0.11861288932834417,-0.11384543584480533,1.0546606629815019,0.3243041898116749,-0.39249851928505675,-2.153496841564513,0.8647493090026885,2.4659733079671855,0.5444862209873067,1.0544104758940245,0.3238615046091247,-0.39250456234122666,-2.153291787532338,0.8647539153680389,2.46587817577521,0.5445020185570556,8.38556832941194e-05,0.000931419177298284,-6.639617044324955e-05,-0.0007106969869748295,-6.15015388775665e-05,-3.0623083928685136e-05,-0.0012681170787962291,0.0,0.0,0.0,0.0,0.0,0.0,0.0,-0.0002501870874773715,-0.00044268520255019705,-6.043056169913186e-06,0.0002050540321749672,4.606365350379171e-06,-9.513219197554434e-05,1.5797569748898788e-05,-8.38556832941194e-05,-0.000931419177298284,6.639617044324955e-05,0.0007106969869748295,6.15015388775665e-05,3.0623083928685136e-05,0.0012681170787962291,0.3752071261405945,34.03915023803711,3.7236602306365967,-19.412263870239258,-0.2484031319618225,-1.783755898475647,0.08365194499492645,0
74,0.3650050163269043,-0.3752071261405945,-34.03915023803711,-3.7236602306365967,19.412263870239258,0.2484031319618225,1.783755898475647,-0.08365194499492645,0.0,0.0,0.0,0.0,0.0,0.0,0.0,-0.4267616602528979,0.08307586848240968,-0.22319194301524456,0.35220036595642895,0.19179342664139076,-0.11861288932834417,-0.11384543584480533,1.0546606629815019,0.3243041898116749,-0.39249851928505675,-2.153496841564513,0.8647493090026885,2.4659733079671855,0.5444862209873067,1.0544104758940245,0.3238615046091247,-0.39250456234122666,-2.153291787532338,0.8647539153680389,2.46587817577521,0.5445020185570556,8.38556832941194e-05,0.000931419177298284,-6.639617044324955e-05,-0.0007106969869748295,-6.15015388775665e-05,-3.0623083928685136e-05,-0.0012681170787962291,0.0,0.0,0.0,0.0,0.0,0.0,0.0,-0.0002501870874773715,-0.00044268520255019705,-6.043056169913186e-06,0.0002050540321749672,4.606365350379171e-06,-9.513219197554434e-05,1.5797569748898788e-05,-8.38556832941194e-05,-0.000931419177298284,6.639617044324955e-05,0.0007106969869748295,6.15015388775665e-05,3.0623083928685136e-05,0.0012681170787962291,0.3752071261405945,34.03915023803711,3.7236602306365967,-19.412263870239258,-0.2484031319618225,-1.783755898475647,0.08365194499492645,0
75,0.3650050163269043,-0.3752071261405945,-34.03915023803711,-3.7236602306365967,19.412263870239258,0.2484031319618225,1.783755898475647,-0.08365194499492645,0.0,0.0,0.0,0.0,0.0,0.0,0.0,-0.4267616602528979,0.08307586848240968,-0.22319194301524456,0.35220036595642895,0.19179342664139076,-0.11861288932834417,-0.11384543584480533,1.0546606629815019,0.3243041898116749,-0.39249851928505675,-2.153496841564513,0.8647493090026885,2.4659733079671855,0.5444862209873067,1.0544104758940245,0.3238615046091247,-0.39250456234122666,-2.153291787532338,0.8647539153680389,2.46587817577521,0.5445020185570556,8.38556832941194e-05,0.000931419177298284,-6.639617044324955e-05,-0.0007106969869748295,-6.15015388775665e-05,-3.0623083928685136e-05,-0.0012681170787962291,0.0,0.0,0.0,0.0,0.0,0.0,0.0,-0.0002501870874773715,-0.00044268520255019705,-6.043056169913186e-06,0.0002050540321749672,4.606365350379171e-06,-9.513219197554434e-05,1.5797569748898788e-05,-8.38556832941194e-05,-0.000931419177298284,6.639617044324955e-05,0.0007106969869748295,6.15015388775665e-05,3.0623083928685136e-05,0.0012681170787962291,0.3752071261405945,34.03915023803711,3.7236602306365967,-19.412263870239258,-0.2484031319618225,-1.783755898475647,0.08365194499492645,0
76,0.3750011920928955,-0.3752071261405945,-34.03915023803711,-3.7236602306365967,19.412263870239258,0.2484031319618225,1.783755898475647,-0.08365194499492645,0.0,0.0,0.0,0.0,0.0,0.0,0.0,-0.4267616602528979,0.08307586848240968,-0.22319194301524456,0.35220036595642895,0.19179342664139076,-0.11861288932834417,-0.11384543584480533,1.0546606629815019,0.3243041898116749,-0.39249851928505675,-2.153496841564513,0.8647493090026885,2.4659733079671855,0.5444862209873067,1.0544104758940245,0.3238615046091247,-0.39250456234122666,-2.153291787532338,0.8647539153680389,2.46587817577521,0.5445020185570556,8.38556832941194e-05,0.000931419177298284,-6.639617044324955e-05,-0.0007106969869748295,-6.15015388775665e-05,-3.0623083928685136e-05,-0.0012681170787962291,0.0,0.0,0.0,0.0,0.0,0.0,0.0,-0.0002501870874773715,-0.00044268520255019705,-6.043056169913186e-06,0.0002050540321749672,4.606365350379171e-06,-9.513219197554434e-05,1.5797569748898788e-05,-8.38556832941194e-05,-0.000931419177298284,6.639617044324955e-05,0.0007106969869748295,6.15015388775665e-05,3.0623083928685136e-05,0.0012681170787962291,0.3752071261405945,34.03915023803711,3.7236602306365967,-19.412263870239258,-0.2484031319618225,-1.783755898475647,0.08365194499492645,0
77,0.38001561164855957,-0.3752071261405945,-34.03915023803711,-3.7236602306365967,19.412263870239258,0.2484031319618225,1.783755898475647,-0.08365194499492645,0.0,0.0,0.0,0.0,0.0,0.0,0.0,-0.4267616602528979,0.08307586848240968,-0.22319194301524456,0.35220036595642895,0.19179342664139076,-0.11861288932834417,-0.11384543584480533,1.0546606629815019,0.3243041898116749,-0.39249851928505675,-2.153496841564513,0.8647493090026885,2.4659733079671855,0.5444862209873067,1.0544104758940245,0.3238615046091247,-0.39250456234122666,-2.153291787532338,0.8647539153680389,2.46587817577521,0.5445020185570556,8.38556832941194e-05,0.000931419177298284,-6.639617044324955e-05,-0.0007106969869748295,-6.15015388775665e-05,-3.0623083928685136e-05,-0.0012681170787962291,0.0,0.0,0.0,0.0,0.0,0.0,0.0,-0.0002501870874773715,-0.00044268520255019705,-6.043056169913186e-06,0.0002050540321749672,4.606365350379171e-06,-9.513219197554434e-05,1.5797569748898788e-05,-8.38556832941194e-05,-0.000931419177298284,6.639617044324955e-05,0.0007106969869748295,6.15015388775665e-05,3.0623083928685136e-05,0.0012681170787962291,0.3752071261405945,34.03915023803711,3.7236602306365967,-19.412263870239258,-0.2484031319618225,-1.783755898475647,0.08365194499492645,0
78,0.38501667976379395,-0.3752071261405945,-34.03915023803711,-3.7236602306365967,19.412263870239258,0.2484031319618225,1.783755898475647,-0.08365194499492645,0.0,0.0,0.0,0.0,0.0,0.0,0.0,-0.4267616602528979,0.08307586848240968,-0.22319194301524456,0.35220036595642895,0.19179342664139076,-0.11861288932834417,-0.11384543584480533,1.0546606629815019,0.3243041898116749,-0.39249851928505675,-2.153496841564513,0.8647493090026885,2.4659733079671855,0.5444862209873067,1.0544104758940245,0.3238615046091247,-0.39250456234122666,-2.153291787532338,0.8647539153680389,2.46587817577521,0.5445020185570556,8.38556832941194e-05,0.000931419177298284,-6.639617044324955e-05,-0.0007106969869748295,-6.15015388775665e-05,-3.0623083928685136e-05,-0.0012681170787962291,0.0,0.0,0.0,0.0,0.0,0.0,0.0,-0.0002501870874773715,-0.00044268520255019705,-6.043056169913186e-06,0.0002050540321749672,4.606365350379171e-06,-9.513219197554434e-05,1.5797569748898788e-05,-8.38556832941194e-05,-0.000931419177298284,6.639617044324955e-05,0.0007106969869748295,6.15015388775665e-05,3.0623083928685136e-05,0.0012681170787962291,0.3752071261405945,34.03915023803711,3.7236602306365967,-19.412263870239258,-0.2484031319618225,-1.783755898475647,0.08365194499492645,0
79,0.3900132179260254,-0.3752071261405945,-34.03915023803711,-3.7236602306365967,19.412263870239258,0.2484031319618225,1.783755898475647,-0.08365194499492645,0.0,0.0,0.0,0.0,0.0,0.0,0.0,-0.4267616602528979,0.08307586848240968,-0.22319194301524456,0.35220036595642895,0.19179342664139076,-0.11861288932834417,-0.11384543584480533,1.0546606629815019,0.3243041898116749,-0.39249851928505675,-2.153496841564513,0.8647493090026885,2.4659733079671855,0.5444862209873067,1.0544104758940245,0.3238615046091247,-0.39250456234122666,-2.153291787532338,0.8647539153680389,2.46587817577521,0.5445020185570556,8.38556832941194e-05,0.000931419177298284,-6.639617044324955e-05,-0.0007106969869748295,-6.15015388775665e-05,-3.0623083928685136e-05,-0.0012681170787962291,0.0,0.0,0.0,0.0,0.0,0.0,0.0,-0.0002501870874773715,-0.00044268520255019705,-6.043056169913186e-06,0.0002050540321749672,4.606365350379171e-06,-9.513219197554434e-05,1.5797569748898788e-05,-8.38556832941194e-05,-0.000931419177298284,6.639617044324955e-05,0.0007106969869748295,6.15015388775665e-05,3.0623083928685136e-05,0.0012681170787962291,0.3752071261405945,34.03915023803711,3.7236602306365967,-19.412263870239258,-0.2484031319618225,-1.783755898475647,0.08365194499492645,0
80,0.3950159549713135,-0.4267818331718445,-33.99154281616211,-3.7990386486053467,19.336885452270508,0.2484031319618225,1.783755898475647,-0.14590780436992645,0.0,0.0,0.0,0.0,0.0,0.0,0.0,-0.4341069306307579,0.08882603722926978,-0.22573155748016147,0.3467227907237123,0.19359110732443266,-0.12026288514675613,-0.11208488077747265,1.0546642822591883,0.3243009276769624,-0.3924903172871847,-2.1534936672026443,0.8647493089774322,2.4659733079671855,0.5444931387896056,1.0544104758940245,0.3238615046091247,-0.39250456234122666,-2.153291787532338,0.8647539153680389,2.46587817577521,0.5445020185570556,-0.0003806453035174327,0.000372914709831957,4.395982012125792e-06,0.0006603149456438831,-0.00013357562596318302,9.753557121690604e-05,0.00122113971471607,0.0,0.0,0.0,0.0,0.0,0.0,0.0,-0.00025380636516381117,-0.00043942306783767426,-1.4245054041961414e-05,0.0002018796703064929,4.606390606731736e-06,-9.513219197554434e-05,8.879767450009624e-06,0.0003806453035174327,-0.000372914709831957,-4.395982012125792e-06,-0.0006603149456438831,0.00013357562596318302,-9.753557121690604e-05,-0.00122113971471607,0.4267818331718445,33.99154281616211,3.7990386486053467,-19.336885452270508,-0.2484031319618225,-1.783755898475647,0.14590780436992645,0
