rezayati/contactInterpretation/dataset/franka_main/labeled_data/link3/e5_5.csv
index,time,tau_J0,tau_J1,tau_J2,tau_J3,tau_J4,tau_J5,tau_J6,tau_J_d0,tau_J_d1,tau_J_d2,tau_J_d3,tau_J_d4,tau_J_d5,tau_J_d6,tau_ext0,tau_ext1,tau_ext2,tau_ext3,tau_ext4,tau_ext5,tau_ext6,q0,q1,q2,q3,q4,q5,q6,q_d0,q_d1,q_d2,q_d3,q_d4,q_d5,q_d6,dq0,dq1,dq2,dq3,dq4,dq5,dq6,dq_d0,dq_d1,dq_d2,dq_d3,dq_d4,dq_d5,dq_d6,e0,e1,e2,e3,e4,e5,e6,de0,de1,de2,de3,de4,de5,de6,etau_J0,etau_J1,etau_J2,etau_J3,etau_J4,etau_J5,etau_J6,label
1,0.0,-0.6806880831718445,-46.50039291381836,-5.612087726593018,19.487642288208008,0.7784934639930725,2.3660311698913574,-0.17978231608867645,0.0,0.0,0.0,0.0,0.0,0.0,0.0,-0.6598770789532432,-0.1754600638521158,-0.40734477692220483,0.32047904248109726,0.18937474461645507,0.1001934906777456,-0.18710217959527065,0.87802495998667,0.7557418655791481,-0.2824339042295489,-1.6690509168056018,0.14140530458356848,2.4035714551883336,1.0273460828380452,0.878092876070424,0.7554597494309409,-0.2825552651693207,-1.6690993614607135,0.1414185955172306,2.4034451173676383,1.0273381002308042,0.0008390854561105633,-0.0005993659334227511,0.0007507124635196721,0.0011375449460461675,-0.00018573989647028205,-2.112586226578308e-05,-4.948265048637903e-05,0.0,0.0,0.0,0.0,0.0,0.0,0.0,6.791608375400493e-05,-0.0002821161482072787,-0.00012136093977183071,-4.8444655111667956e-05,1.3290933662118976e-05,-0.0001263378206952659,-7.982607240997197e-06,-0.0008390854561105633,0.0005993659334227511,-0.0007507124635196721,-0.0011375449460461675,0.00018573989647028205,2.112586226578308e-05,4.948265048637903e-05,0.6806880831718445,46.50039291381836,5.612087726593018,-19.487642288208008,-0.7784934639930725,-2.3660311698913574,0.17978231608867645,0
2,0.00418400764465332,-0.6053096652030945,-46.50039291381836,-5.536709308624268,19.511445999145508,0.7849021553993225,2.3660311698913574,-0.15231649577617645,0.0,0.0,0.0,0.0,0.0,0.0,0.0,-0.6498598478131247,-0.16441626490354463,-0.4039217528470751,0.3139400241753282,0.18955972911077398,0.09902377403385748,-0.18714579006154705,0.8780196702731283,0.7557425003825304,-0.2824391939430905,-1.669052587241457,0.14140489382654944,2.403576173242943,1.0273430310802327,0.878092876070424,0.7554597494309409,-0.2825552651693207,-1.6690993614607135,0.1414185955172306,2.4034451173676383,1.0273381002308042,-0.00036214535775588164,-0.00021813479041606114,-0.0010707199533319925,0.0006300333827020377,-0.0004167529902008307,5.1955516359156584e-05,-0.0016450537853285824,0.0,0.0,0.0,0.0,0.0,0.0,0.0,7.320579729563903e-05,-0.0002827509515895832,-0.00011607122623019661,-4.6774219256473515e-05,1.3701690681156009e-05,-0.0001310558753044866,-4.930849428541606e-06,0.00036214535775588164,0.00021813479041606114,0.0010707199533319925,-0.0006300333827020377,0.0004167529902008307,-5.1955516359156584e-05,0.0016450537853285824,0.6053096652030945,46.50039291381836,5.536709308624268,-19.511445999145508,-0.7849021553993225,-2.3660311698913574,0.15231649577617645,0
3,0.009129047393798828,-0.6053096652030945,-46.50039291381836,-5.536709308624268,19.511445999145508,0.7849021553993225,2.3660311698913574,-0.15231649577617645,0.0,0.0,0.0,0.0,0.0,0.0,0.0,-0.6498598478131247,-0.16441626490354463,-0.4039217528470751,0.3139400241753282,0.18955972911077398,0.09902377403385748,-0.18714579006154705,0.8780196702731283,0.7557425003825304,-0.2824391939430905,-1.669052587241457,0.14140489382654944,2.403576173242943,1.0273430310802327,0.878092876070424,0.7554597494309409,-0.2825552651693207,-1.6690993614607135,0.1414185955172306,2.4034451173676383,1.0273381002308042,-0.00036214535775588164,-0.00021813479041606114,-0.0010707199533319925,0.0006300333827020377,-0.0004167529902008307,5.1955516359156584e-05,-0.0016450537853285824,0.0,0.0,0.0,0.0,0.0,0.0,0.0,7.320579729563903e-05,-0.0002827509515895832,-0.00011607122623019661,-4.6774219256473515e-05,1.3701690681156009e-05,-0.0001310558753044866,-4.930849428541606e-06,0.00036214535775588164,0.00021813479041606114,0.0010707199533319925,-0.0006300333827020377,0.0004167529902008307,-5.1955516359156584e-05,0.0016450537853285824,0.6053096652030945,46.50039291381836,5.536709308624268,-19.511445999145508,-0.7849021553993225,-2.3660311698913574,0.15231649577617645,0
4,0.009129047393798828,-0.6053096652030945,-46.50039291381836,-5.536709308624268,19.511445999145508,0.7849021553993225,2.3660311698913574,-0.15231649577617645,0.0,0.0,0.0,0.0,0.0,0.0,0.0,-0.6498598478131247,-0.16441626490354463,-0.4039217528470751,0.3139400241753282,0.18955972911077398,0.09902377403385748,-0.18714579006154705,0.8780196702731283,0.7557425003825304,-0.2824391939430905,-1.669052587241457,0.14140489382654944,2.403576173242943,1.0273430310802327,0.878092876070424,0.7554597494309409,-0.2825552651693207,-1.6690993614607135,0.1414185955172306,2.4034451173676383,1.0273381002308042,-0.00036214535775588164,-0.00021813479041606114,-0.0010707199533319925,0.0006300333827020377,-0.0004167529902008307,5.1955516359156584e-05,-0.0016450537853285824,0.0,0.0,0.0,0.0,0.0,0.0,0.0,7.320579729563903e-05,-0.0002827509515895832,-0.00011607122623019661,-4.6774219256473515e-05,1.3701690681156009e-05,-0.0001310558753044866,-4.930849428541606e-06,0.00036214535775588164,0.00021813479041606114,0.0010707199533319925,-0.0006300333827020377,0.0004167529902008307,-5.1955516359156584e-05,0.0016450537853285824,0.6053096652030945,46.50039291381836,5.536709308624268,-19.511445999145508,-0.7849021553993225,-2.3660311698913574,0.15231649577617645,0
5,0.019184589385986328,-0.6053096652030945,-46.47658920288086,-5.564480304718018,19.535249710083008,0.7784934639930725,2.3788485527038574,-0.15964071452617645,0.0,0.0,0.0,0.0,0.0,0.0,0.0,-0.6463187475854132,-0.1693728720663687,-0.40550208351748834,0.31561779627198794,0.18982181113956992,0.09932620596149531,-0.18655811438127895,0.8780196702731283,0.7557398764939748,-0.2824372451012594,-1.6690542576773122,0.14140454192950966,2.403570554762108,1.027343844882316,0.878092876070424,0.7554597494309409,-0.2825552651693207,-1.6690993614607135,0.1414185955172306,2.4034451173676383,1.0273381002308042,-0.0005012524001601545,-0.0010912608932897596,0.0006485320608149611,-3.394143551991219e-05,6.416101660112526e-05,-0.0003374114326787133,-0.0013120870363549813,0.0,0.0,0.0,0.0,0.0,0.0,0.0,7.320579729563903e-05,-0.0002801270630339303,-0.00011802006806133081,-4.5103783401279074e-05,1.405358772094134e-05,-0.00012543739446968516,-5.744651511818688e-06,0.0005012524001601545,0.0010912608932897596,-0.0006485320608149611,3.394143551991219e-05,-6.416101660112526e-05,0.0003374114326787133,0.0013120870363549813,0.6053096652030945,46.47658920288086,5.564480304718018,-19.535249710083008,-0.7784934639930725,-2.3788485527038574,0.15964071452617645,0
6,0.024185657501220703,-0.6053096652030945,-46.47658920288086,-5.564480304718018,19.535249710083008,0.7784934639930725,2.3788485527038574,-0.15964071452617645,0.0,0.0,0.0,0.0,0.0,0.0,0.0,-0.6463187475854132,-0.1693728720663687,-0.40550208351748834,0.31561779627198794,0.18982181113956992,0.09932620596149531,-0.18655811438127895,0.8780196702731283,0.7557398764939748,-0.2824372451012594,-1.6690542576773122,0.14140454192950966,2.403570554762108,1.027343844882316,0.878092876070424,0.7554597494309409,-0.2825552651693207,-1.6690993614607135,0.1414185955172306,2.4034451173676383,1.0273381002308042,-0.0005012524001601545,-0.0010912608932897596,0.0006485320608149611,-3.394143551991219e-05,6.416101660112526e-05,-0.0003374114326787133,-0.0013120870363549813,0.0,0.0,0.0,0.0,0.0,0.0,0.0,7.320579729563903e-05,-0.0002801270630339303,-0.00011802006806133081,-4.5103783401279074e-05,1.405358772094134e-05,-0.00012543739446968516,-5.744651511818688e-06,0.0005012524001601545,0.0010912608932897596,-0.0006485320608149611,3.394143551991219e-05,-6.416101660112526e-05,0.0003374114326787133,0.0013120870363549813,0.6053096652030945,46.47658920288086,5.564480304718018,-19.535249710083008,-0.7784934639930725,-2.3788485527038574,0.15964071452617645,0
7,0.02918863296508789,-0.6291133761405945,-46.50039291381836,-5.564480304718018,19.511445999145508,0.7730002999305725,2.3788485527038574,-0.21457235515117645,0.0,0.0,0.0,0.0,0.0,0.0,0.0,-0.6486796352070758,-0.1709799431159889,-0.40697716871478784,0.31598414644694295,0.19039089320447328,0.10017096285589638,-0.18643120031634838,0.8780213407089835,0.7557436926916598,-0.2824372451012594,-1.669052587241457,0.14140472019362835,2.403573324720683,1.0273499483979411,0.878092876070424,0.7554597494309409,-0.2825552651693207,-1.6690993614607135,0.1414185955172306,2.4034451173676383,1.0273381002308042,0.0002698056632415357,-0.0003372415398665905,4.2887203426260006e-05,0.00034130981897720445,-0.00011860353737662588,-0.00032841477758591126,0.0013935024409213184,0.0,0.0,0.0,0.0,0.0,0.0,0.0,7.153536144044459e-05,-0.00028394326071889964,-0.00011802006806133081,-4.6774219256473515e-05,1.3875323602252632e-05,-0.00012820735304464037,-1.1848167136951915e-05,-0.0002698056632415357,0.0003372415398665905,-4.2887203426260006e-05,-0.00034130981897720445,0.00011860353737662588,0.00032841477758591126,-0.0013935024409213184,0.6291133761405945,46.50039291381836,5.564480304718018,-19.511445999145508,-0.7730002999305725,-2.3788485527038574,0.21457235515117645,0
8,0.034206390380859375,-0.6291133761405945,-46.50039291381836,-5.564480304718018,19.511445999145508,0.7730002999305725,2.3788485527038574,-0.21457235515117645,0.0,0.0,0.0,0.0,0.0,0.0,0.0,-0.6486796352070758,-0.1709799431159889,-0.40697716871478784,0.31598414644694295,0.19039089320447328,0.10017096285589638,-0.18643120031634838,0.8780213407089835,0.7557436926916598,-0.2824372451012594,-1.669052587241457,0.14140472019362835,2.403573324720683,1.0273499483979411,0.878092876070424,0.7554597494309409,-0.2825552651693207,-1.6690993614607135,0.1414185955172306,2.4034451173676383,1.0273381002308042,0.0002698056632415357,-0.0003372415398665905,4.2887203426260006e-05,0.00034130981897720445,-0.00011860353737662588,-0.00032841477758591126,0.0013935024409213184,0.0,0.0,0.0,0.0,0.0,0.0,0.0,7.153536144044459e-05,-0.00028394326071889964,-0.00011802006806133081,-4.6774219256473515e-05,1.3875323602252632e-05,-0.00012820735304464037,-1.1848167136951915e-05,-0.0002698056632415357,0.0003372415398665905,-4.2887203426260006e-05,-0.00034130981897720445,0.00011860353737662588,0.00032841477758591126,-0.0013935024409213184,0.6291133761405945,46.50039291381836,5.564480304718018,-19.511445999145508,-0.7730002999305725,-2.3788485527038574,0.21457235515117645,0
9,0.03918862342834473,-0.6291133761405945,-46.50039291381836,-5.564480304718018,19.511445999145508,0.7730002999305725,2.3788485527038574,-0.21457235515117645,0.0,0.0,0.0,0.0,0.0,0.0,0.0,-0.6486796352070758,-0.1709799431159889,-0.40697716871478784,0.31598414644694295,0.19039089320447328,0.10017096285589638,-0.18643120031634838,0.8780213407089835,0.7557436926916598,-0.2824372451012594,-1.669052587241457,0.14140472019362835,2.403573324720683,1.0273499483979411,0.878092876070424,0.7554597494309409,-0.2825552651693207,-1.6690993614607135,0.1414185955172306,2.4034451173676383,1.0273381002308042,0.0002698056632415357,-0.0003372415398665905,4.2887203426260006e-05,0.00034130981897720445,-0.00011860353737662588,-0.00032841477758591126,0.0013935024409213184,0.0,0.0,0.0,0.0,0.0,0.0,0.0,7.153536144044459e-05,-0.00028394326071889964,-0.00011802006806133081,-4.6774219256473515e-05,1.3875323602252632e-05,-0.00012820735304464037,-1.1848167136951915e-05,-0.0002698056632415357,0.0003372415398665905,-4.2887203426260006e-05,-0.00034130981897720445,0.00011860353737662588,0.00032841477758591126,-0.0013935024409213184,0.6291133761405945,46.50039291381836,5.564480304718018,-19.511445999145508,-0.7730002999305725,-2.3788485527038574,0.21457235515117645,0
10,0.044133663177490234,-0.6291133761405945,-46.50039291381836,-5.564480304718018,19.511445999145508,0.7730002999305725,2.3788485527038574,-0.21457235515117645,0.0,0.0,0.0,0.0,0.0,0.0,0.0,-0.6486796352070758,-0.1709799431159889,-0.40697716871478784,0.31598414644694295,0.19039089320447328,0.10017096285589638,-0.18643120031634838,0.8780213407089835,0.7557436926916598,-0.2824372451012594,-1.669052587241457,0.14140472019362835,2.403573324720683,1.0273499483979411,0.878092876070424,0.7554597494309409,-0.2825552651693207,-1.6690993614607135,0.1414185955172306,2.4034451173676383,1.0273381002308042,0.0002698056632415357,-0.0003372415398665905,4.2887203426260006e-05,0.00034130981897720445,-0.00011860353737662588,-0.00032841477758591126,0.0013935024409213184,0.0,0.0,0.0,0.0,0.0,0.0,0.0,7.153536144044459e-05,-0.00028394326071889964,-0.00011802006806133081,-4.6774219256473515e-05,1.3875323602252632e-05,-0.00012820735304464037,-1.1848167136951915e-05,-0.0002698056632415357,0.0003372415398665905,-4.2887203426260006e-05,-0.00034130981897720445,0.00011860353737662588,0.00032841477758591126,-0.0013935024409213184,0.6291133761405945,46.50039291381836,5.564480304718018,-19.511445999145508,-0.7730002999305725,-2.3788485527038574,0.21457235515117645,0
11,0.04918336868286133,-0.6053096652030945,-46.47658920288086,-5.564480304718018,19.586824417114258,0.7730002999305725,2.3788485527038574,-0.16604940593242645,0.0,0.0,0.0,0.0,0.0,0.0,0.0,-0.6472271736464392,-0.16603163845884955,-0.40806500320612465,0.31367205780854973,0.1901714895825085,0.10003551548972905,-0.18731965216079954,0.8780196702731283,0.7557401411922052,-0.2824372451012594,-1.6690578769549986,0.1414061446396433,2.4035701573426635,1.027344556959139,0.878092876070424,0.7554597494309409,-0.2825552651693207,-1.6690993614607135,0.1414185955172306,2.4034451173676383,1.0273381002308042,-0.00037694318926125145,-0.0003005370782938192,-0.0007006747860987819,-0.0018483268153370684,2.790138602659187e-05,-0.00040094205289054963,-0.0009161734179141207,0.0,0.0,0.0,0.0,0.0,0.0,0.0,7.320579729563903e-05,-0.0002803917612643758,-0.00011802006806133081,-4.1484505714839415e-05,1.2450877587305564e-05,-0.00012503997502522068,-6.456728334880424e-06,0.00037694318926125145,0.0003005370782938192,0.0007006747860987819,0.0018483268153370684,-2.790138602659187e-05,0.00040094205289054963,0.0009161734179141207,0.6053096652030945,46.47658920288086,5.564480304718018,-19.586824417114258,-0.7730002999305725,-2.3788485527038574,0.16604940593242645,0
12,0.054186105728149414,-0.6053096652030945,-46.47658920288086,-5.564480304718018,19.586824417114258,0.7730002999305725,2.3788485527038574,-0.16604940593242645,0.0,0.0,0.0,0.0,0.0,0.0,0.0,-0.6472271736464392,-0.16603163845884955,-0.40806500320612465,0.31367205780854973,0.1901714895825085,0.10003551548972905,-0.18731965216079954,0.8780196702731283,0.7557401411922052,-0.2824372451012594,-1.6690578769549986,0.1414061446396433,2.4035701573426635,1.027344556959139,0.878092876070424,0.7554597494309409,-0.2825552651693207,-1.6690993614607135,0.1414185955172306,2.4034451173676383,1.0273381002308042,-0.00037694318926125145,-0.0003005370782938192,-0.0007006747860987819,-0.0018483268153370684,2.790138602659187e-05,-0.00040094205289054963,-0.0009161734179141207,0.0,0.0,0.0,0.0,0.0,0.0,0.0,7.320579729563903e-05,-0.0002803917612643758,-0.00011802006806133081,-4.1484505714839415e-05,1.2450877587305564e-05,-0.00012503997502522068,-6.456728334880424e-06,0.00037694318926125145,0.0003005370782938192,0.0007006747860987819,0.0018483268153370684,-2.790138602659187e-05,0.00040094205289054963,0.0009161734179141207,0.6053096652030945,46.47658920288086,5.564480304718018,-19.586824417114258,-0.7730002999305725,-2.3788485527038574,0.16604940593242645,0
13,0.05918717384338379,-0.6291133761405945,-46.50039291381836,-5.564480304718018,19.559053421020508,0.7665916085243225,2.3660311698913574,-0.20724813640117645,0.0,0.0,0.0,0.0,0.0,0.0,0.0,-0.6514214941645541,-0.18067709207230306,-0.4159594176357062,0.32423894131724673,0.19055111251473036,0.10133517103112964,-0.18820037560570854,0.8780213407089835,0.7557439307846843,-0.2824372451012594,-1.6690559281131676,0.1414069623552149,2.403575100469739,1.0273491345958576,0.878092876070424,0.7554597494309409,-0.2825552651693207,-1.6690993614607135,0.1414185955172306,2.4034451173676383,1.0273381002308042,-0.001025220621135418,-0.00028831623350257106,-0.0003884363932108052,-0.0008277678610083717,0.000392870429544914,-2.341071787218061e-05,0.0004977581924898966,0.0,0.0,0.0,0.0,0.0,0.0,0.0,7.153536144044459e-05,-0.0002841813537434179,-0.00011802006806133081,-4.343334754586259e-05,1.1633162015689535e-05,-0.00012998310210088349,-1.1034365053452788e-05,0.001025220621135418,0.00028831623350257106,0.0003884363932108052,0.0008277678610083717,-0.000392870429544914,2.341071787218061e-05,-0.0004977581924898966,0.6291133761405945,46.50039291381836,5.564480304718018,-19.559053421020508,-0.7665916085243225,-2.3660311698913574,0.20724813640117645,0
14,0.06419873237609863,-0.6291133761405945,-46.50039291381836,-5.564480304718018,19.559053421020508,0.7665916085243225,2.3660311698913574,-0.20724813640117645,0.0,0.0,0.0,0.0,0.0,0.0,0.0,-0.6514214941645541,-0.18067709207230306,-0.4159594176357062,0.32423894131724673,0.19055111251473036,0.10133517103112964,-0.18820037560570854,0.8780213407089835,0.7557439307846843,-0.2824372451012594,-1.6690559281131676,0.1414069623552149,2.403575100469739,1.0273491345958576,0.878092876070424,0.7554597494309409,-0.2825552651693207,-1.6690993614607135,0.1414185955172306,2.4034451173676383,1.0273381002308042,-0.001025220621135418,-0.00028831623350257106,-0.0003884363932108052,-0.0008277678610083717,0.000392870429544914,-2.341071787218061e-05,0.0004977581924898966,0.0,0.0,0.0,0.0,0.0,0.0,0.0,7.153536144044459e-05,-0.0002841813537434179,-0.00011802006806133081,-4.343334754586259e-05,1.1633162015689535e-05,-0.00012998310210088349,-1.1034365053452788e-05,0.001025220621135418,0.00028831623350257106,0.0003884363932108052,0.0008277678610083717,-0.000392870429544914,2.341071787218061e-05,-0.0004977581924898966,0.6291133761405945,46.50039291381836,5.564480304718018,-19.559053421020508,-0.7665916085243225,-2.3660311698913574,0.20724813640117645,0
15,0.06919050216674805,-0.6806880831718445,-46.50039291381836,-5.588284015655518,19.535249710083008,0.7784934639930725,2.3660311698913574,-0.23471395671367645,0.0,0.0,0.0,0.0,0.0,0.0,0.0,-0.6466516172538628,-0.17028758649836712,-0.4066029968429577,0.3223758677253115,0.1909381737609131,0.10048974228672329,-0.18929772191156424,0.87802495998667,0.7557436924144066,-0.28243557466540414,-1.6690542576773122,0.14140441934191725,2.4035749958878214,1.0273521863536703,0.878092876070424,0.7554597494309409,-0.2825552651693207,-1.6690993614607135,0.1414185955172306,2.4034451173676383,1.0273381002308042,6.14850075149339e-05,0.00015051166168439294,-0.000682022742557225,-0.00010956194794826279,-9.712757606430166e-05,3.836665182968254e-05,0.0018535455650935413,0.0,0.0,0.0,0.0,0.0,0.0,0.0,6.791608375400493e-05,-0.0002839429834657903,-0.00011969050391658076,-4.5103783401279074e-05,1.4176175313351802e-05,-0.00012987852018309098,-1.4086122866130424e-05,-6.14850075149339e-05,-0.00015051166168439294,0.000682022742557225,0.00010956194794826279,9.712757606430166e-05,-3.836665182968254e-05,-0.0018535455650935413,0.6806880831718445,46.50039291381836,5.588284015655518,-19.535249710083008,-0.7784934639930725,-2.3660311698913574,0.23471395671367645,0
16,0.07414436340332031,-0.6806880831718445,-46.50039291381836,-5.588284015655518,19.535249710083008,0.7784934639930725,2.3660311698913574,-0.23471395671367645,0.0,0.0,0.0,0.0,0.0,0.0,0.0,-0.6466516172538628,-0.17028758649836712,-0.4066029968429577,0.3223758677253115,0.1909381737609131,0.10048974228672329,-0.18929772191156424,0.87802495998667,0.7557436924144066,-0.28243557466540414,-1.6690542576773122,0.14140441934191725,2.4035749958878214,1.0273521863536703,0.878092876070424,0.7554597494309409,-0.2825552651693207,-1.6690993614607135,0.1414185955172306,2.4034451173676383,1.0273381002308042,6.14850075149339e-05,0.00015051166168439294,-0.000682022742557225,-0.00010956194794826279,-9.712757606430166e-05,3.836665182968254e-05,0.0018535455650935413,0.0,0.0,0.0,0.0,0.0,0.0,0.0,6.791608375400493e-05,-0.0002839429834657903,-0.00011969050391658076,-4.5103783401279074e-05,1.4176175313351802e-05,-0.00012987852018309098,-1.4086122866130424e-05,-6.14850075149339e-05,-0.00015051166168439294,0.000682022742557225,0.00010956194794826279,9.712757606430166e-05,-3.836665182968254e-05,-0.0018535455650935413,0.6806880831718445,46.50039291381836,5.588284015655518,-19.535249710083008,-0.7784934639930725,-2.3660311698913574,0.23471395671367645,0
17,0.07913899421691895,-0.6568843722343445,-46.52419662475586,-5.564480304718018,19.487642288208008,0.7784934639930725,2.3660311698913574,-0.15964071452617645,0.0,0.0,0.0,0.0,0.0,0.0,0.0,-0.6420121101250876,-0.18210126338437296,-0.40229779311887526,0.3302063912846854,0.19122437799169897,0.10165994180225166,-0.189159337229157,0.8780232895627034,0.7557432438552922,-0.2824372451012594,-1.6690509168056018,0.14140731236940257,2.4035756940086888,1.027343844882316,0.878092876070424,0.7554597494309409,-0.2825552651693207,-1.6690993614607135,0.1414185955172306,2.4034451173676383,1.0273381002308042,-0.0005376631491237055,6.062976350683946e-05,-0.00048803628230942634,0.0012764752137520443,-0.00011567855276972778,5.808819291687326e-05,-0.001325920427575807,0.0,0.0,0.0,0.0,0.0,0.0,0.0,6.958650772059816e-05,-0.0002834944243513826,-0.00011802006806133081,-4.8444655111667956e-05,1.1283147828028417e-05,-0.00013057664105042832,-5.744651511818688e-06,0.0005376631491237055,-6.062976350683946e-05,0.00048803628230942634,-0.0012764752137520443,0.00011567855276972778,-5.808819291687326e-05,0.001325920427575807,0.6568843722343445,46.52419662475586,5.564480304718018,-19.487642288208008,-0.7784934639930725,-2.3660311698913574,0.15964071452617645,0
18,0.08413290977478027,-0.6568843722343445,-46.52419662475586,-5.564480304718018,19.487642288208008,0.7784934639930725,2.3660311698913574,-0.15964071452617645,0.0,0.0,0.0,0.0,0.0,0.0,0.0,-0.6420121101250876,-0.18210126338437296,-0.40229779311887526,0.3302063912846854,0.19122437799169897,0.10165994180225166,-0.189159337229157,0.8780232895627034,0.7557432438552922,-0.2824372451012594,-1.6690509168056018,0.14140731236940257,2.4035756940086888,1.027343844882316,0.878092876070424,0.7554597494309409,-0.2825552651693207,-1.6690993614607135,0.1414185955172306,2.4034451173676383,1.0273381002308042,-0.0005376631491237055,6.062976350683946e-05,-0.00048803628230942634,0.0012764752137520443,-0.00011567855276972778,5.808819291687326e-05,-0.001325920427575807,0.0,0.0,0.0,0.0,0.0,0.0,0.0,6.958650772059816e-05,-0.0002834944243513826,-0.00011802006806133081,-4.8444655111667956e-05,1.1283147828028417e-05,-0.00013057664105042832,-5.744651511818688e-06,0.0005376631491237055,-6.062976350683946e-05,0.00048803628230942634,-0.0012764752137520443,0.00011567855276972778,-5.808819291687326e-05,0.001325920427575807,0.6568843722343445,46.52419662475586,5.564480304718018,-19.487642288208008,-0.7784934639930725,-2.3660311698913574,0.15964071452617645,0
19,0.08918261528015137,-0.6806880831718445,-46.50039291381836,-5.612087726593018,19.511445999145508,0.7784934639930725,2.3724398612976074,-0.20724813640117645,0.0,0.0,0.0,0.0,0.0,0.0,0.0,-0.6615366202320074,-0.17264422194300535,-0.4110396107980295,0.3242611203740685,0.19157909132897497,0.10094743313565015,-0.18896336440130618,0.87802495998667,0.7557415469245974,-0.282431758462337,-1.669052587241457,0.14140880183765106,2.4035718437341678,1.0273491480048587,0.878092876070424,0.7554597494309409,-0.2825552651693207,-1.6690993614607135,0.1414185955172306,2.4034451173676383,1.0273381002308042,-0.0005374876539419763,-0.00019481361393285974,0.0005800056526876506,0.0005541181510217607,2.2985235167041667e-05,-0.00020424442784552988,0.0005826017139646721,0.0,0.0,0.0,0.0,0.0,0.0,0.0,6.791608375400493e-05,-0.0002817974936565326,-0.00012350670698374477,-4.6774219256473515e-05,9.793679579539472e-06,-0.00012672636652943936,-1.1047774054473436e-05,0.0005374876539419763,0.00019481361393285974,-0.0005800056526876506,-0.0005541181510217607,-2.2985235167041667e-05,0.00020424442784552988,-0.0005826017139646721,0.6806880831718445,46.50039291381836,5.612087726593018,-19.511445999145508,-0.7784934639930725,-2.3724398612976074,0.20724813640117645,0
20,0.09433221817016602,-0.6806880831718445,-46.50039291381836,-5.612087726593018,19.511445999145508,0.7784934639930725,2.3724398612976074,-0.20724813640117645,0.0,0.0,0.0,0.0,0.0,0.0,0.0,-0.6615366202320074,-0.17264422194300535,-0.4110396107980295,0.3242611203740685,0.19157909132897497,0.10094743313565015,-0.18896336440130618,0.87802495998667,0.7557415469245974,-0.282431758462337,-1.669052587241457,0.14140880183765106,2.4035718437341678,1.0273491480048587,0.878092876070424,0.7554597494309409,-0.2825552651693207,-1.6690993614607135,0.1414185955172306,2.4034451173676383,1.0273381002308042,-0.0005374876539419763,-0.00019481361393285974,0.0005800056526876506,0.0005541181510217607,2.2985235167041667e-05,-0.00020424442784552988,0.0005826017139646721,0.0,0.0,0.0,0.0,0.0,0.0,0.0,6.791608375400493e-05,-0.0002817974936565326,-0.00012350670698374477,-4.6774219256473515e-05,9.793679579539472e-06,-0.00012672636652943936,-1.1047774054473436e-05,0.0005374876539419763,0.00019481361393285974,-0.0005800056526876506,-0.0005541181510217607,-2.2985235167041667e-05,0.00020424442784552988,-0.0005826017139646721,0.6806880831718445,46.50039291381836,5.612087726593018,-19.511445999145508,-0.7784934639930725,-2.3724398612976074,0.20724813640117645,0
21,0.09919476509094238,-0.6806880831718445,-46.50039291381836,-5.588284015655518,19.487642288208008,0.7730002999305725,2.3660311698913574,-0.20083944499492645,0.0,0.0,0.0,0.0,0.0,0.0,0.0,-0.680343207684693,-0.17345762038274198,-0.42052034129852395,0.322578456294333,0.1915113621006493,0.10063235448336981,-0.18932955905473386,0.87802495998667,0.7557440102560534,-0.28243557462906543,-1.6690509168056018,0.14140516045311277,2.403575747479082,1.027348422519262,0.878092876070424,0.7554597494309409,-0.2825552651693207,-1.6690993614607135,0.1414185955172306,2.4034451173676383,1.0273381002308042,-0.0008057168785412265,-0.0002612041105782599,-0.00021761150865900762,0.0006932689850935817,7.942005073961544e-05,-3.4654346343525254e-05,0.0004982445696828735,0.0,0.0,0.0,0.0,0.0,0.0,0.0,6.791608375400493e-05,-0.00028426082511257,-0.00011969054025529058,-4.8444655111667956e-05,1.3435064117828244e-05,-0.0001306301114438746,-1.0322288457764728e-05,0.0008057168785412265,0.0002612041105782599,0.00021761150865900762,-0.0006932689850935817,-7.942005073961544e-05,3.4654346343525254e-05,-0.0004982445696828735,0.6806880831718445,46.50039291381836,5.588284015655518,-19.487642288208008,-0.7730002999305725,-2.3660311698913574,0.20083944499492645,0
22,0.10418176651000977,-0.6806880831718445,-46.50039291381836,-5.588284015655518,19.487642288208008,0.7730002999305725,2.3660311698913574,-0.20083944499492645,0.0,0.0,0.0,0.0,0.0,0.0,0.0,-0.680343207684693,-0.17345762038274198,-0.42052034129852395,0.322578456294333,0.1915113621006493,0.10063235448336981,-0.18932955905473386,0.87802495998667,0.7557440102560534,-0.28243557462906543,-1.6690509168056018,0.14140516045311277,2.403575747479082,1.027348422519262,0.878092876070424,0.7554597494309409,-0.2825552651693207,-1.6690993614607135,0.1414185955172306,2.4034451173676383,1.0273381002308042,-0.0008057168785412265,-0.0002612041105782599,-0.00021761150865900762,0.0006932689850935817,7.942005073961544e-05,-3.4654346343525254e-05,0.0004982445696828735,0.0,0.0,0.0,0.0,0.0,0.0,0.0,6.791608375400493e-05,-0.00028426082511257,-0.00011969054025529058,-4.8444655111667956e-05,1.3435064117828244e-05,-0.0001306301114438746,-1.0322288457764728e-05,0.0008057168785412265,0.0002612041105782599,0.00021761150865900762,-0.0006932689850935817,-7.942005073961544e-05,3.4654346343525254e-05,-0.0004982445696828735,0.6806880831718445,46.50039291381836,5.588284015655518,-19.487642288208008,-0.7730002999305725,-2.3660311698913574,0.20083944499492645,0
23,0.10913538932800293,-0.6568843722343445,-46.47658920288086,-5.588284015655518,19.511445999145508,0.7784934639930725,2.3724398612976074,-0.19351522624492645,0.0,0.0,0.0,0.0,0.0,0.0,0.0,-0.6438463801838809,-0.17783370641504828,-0.39403311521894907,0.3270898405262576,0.1907585661434242,0.1007499077723572,-0.18840667722995408,0.8780232895508148,0.7557398761661777,-0.2824355746654041,-1.669052587241457,0.14140410991228894,2.403570783595653,1.027347970759979,0.878092876070424,0.7554597494309409,-0.2825552651693207,-1.6690993614607135,0.1414185955172306,2.4034451173676383,1.0273381002308042,0.00025117732603901794,-0.0006351802369130041,0.0004129700576642337,0.00037574971117154975,-4.6767447057237856e-05,-0.00017098351879218124,0.00023266048778692867,0.0,0.0,0.0,0.0,0.0,0.0,0.0,6.958651960919937e-05,-0.00028012673523680753,-0.00011969050391663627,-4.6774219256473515e-05,1.4485604941660846e-05,-0.00012566622801468696,-9.870529174893505e-06,-0.00025117732603901794,0.0006351802369130041,-0.0004129700576642337,-0.00037574971117154975,4.6767447057237856e-05,0.00017098351879218124,-0.00023266048778692867,0.6568843722343445,46.47658920288086,5.588284015655518,-19.511445999145508,-0.7784934639930725,-2.3724398612976074,0.19351522624492645,0
24,0.11418628692626953,-0.6568843722343445,-46.47658920288086,-5.588284015655518,19.511445999145508,0.7784934639930725,2.3724398612976074,-0.19351522624492645,0.0,0.0,0.0,0.0,0.0,0.0,0.0,-0.6438463801838809,-0.17783370641504828,-0.39403311521894907,0.3270898405262576,0.1907585661434242,0.1007499077723572,-0.18840667722995408,0.8780232895508148,0.7557398761661777,-0.2824355746654041,-1.669052587241457,0.14140410991228894,2.403570783595653,1.027347970759979,0.878092876070424,0.7554597494309409,-0.2825552651693207,-1.6690993614607135,0.1414185955172306,2.4034451173676383,1.0273381002308042,0.00025117732603901794,-0.0006351802369130041,0.0004129700576642337,0.00037574971117154975,-4.6767447057237856e-05,-0.00017098351879218124,0.00023266048778692867,0.0,0.0,0.0,0.0,0.0,0.0,0.0,6.958651960919937e-05,-0.00028012673523680753,-0.00011969050391663627,-4.6774219256473515e-05,1.4485604941660846e-05,-0.00012566622801468696,-9.870529174893505e-06,-0.00025117732603901794,0.0006351802369130041,-0.0004129700576642337,-0.00037574971117154975,4.6767447057237856e-05,0.00017098351879218124,-0.00023266048778692867,0.6568843722343445,46.47658920288086,5.588284015655518,-19.511445999145508,-0.7784934639930725,-2.3724398612976074,0.19351522624492645,0
25,0.11933350563049316,-0.6568843722343445,-46.47658920288086,-5.612087726593018,19.487642288208008,0.7730002999305725,2.3660311698913574,-0.20724813640117645,0.0,0.0,0.0,0.0,0.0,0.0,0.0,-0.6620798964461864,-0.1699296816979703,-0.40874474871029143,0.32123437176162284,0.19114279942195375,0.10047875917380435,-0.18807621606394656,0.8780232895508148,0.7557398763068969,-0.2824339042295489,-1.6690509168056018,0.14140504864004647,2.403575741700254,1.0273491345979013,0.878092876070424,0.7554597494309409,-0.2825552651693207,-1.6690993614607135,0.1414185955172306,2.4034451173676383,1.0273381002308042,0.0002926490072561147,-0.00021968039940847787,0.000666623281722563,0.0006617138883889641,-6.044676087520942e-05,2.1956990279322393e-06,0.0010057758447776196,0.0,0.0,0.0,0.0,0.0,0.0,0.0,6.958651960919937e-05,-0.0002801268759560216,-0.00012136093977183071,-4.8444655111667956e-05,1.3546877184134054e-05,-0.00013062433261579187,-1.1034367097151332e-05,-0.0002926490072561147,0.00021968039940847787,-0.000666623281722563,-0.0006617138883889641,6.044676087520942e-05,-2.1956990279322393e-06,-0.0010057758447776196,0.6568843722343445,46.47658920288086,5.612087726593018,-19.487642288208008,-0.7730002999305725,-2.3660311698913574,0.20724813640117645,0
26,0.12418317794799805,-0.6568843722343445,-46.47658920288086,-5.612087726593018,19.487642288208008,0.7730002999305725,2.3660311698913574,-0.20724813640117645,0.0,0.0,0.0,0.0,0.0,0.0,0.0,-0.6620798964461864,-0.1699296816979703,-0.40874474871029143,0.32123437176162284,0.19114279942195375,0.10047875917380435,-0.18807621606394656,0.8780232895508148,0.7557398763068969,-0.2824339042295489,-1.6690509168056018,0.14140504864004647,2.403575741700254,1.0273491345979013,0.878092876070424,0.7554597494309409,-0.2825552651693207,-1.6690993614607135,0.1414185955172306,2.4034451173676383,1.0273381002308042,0.0002926490072561147,-0.00021968039940847787,0.000666623281722563,0.0006617138883889641,-6.044676087520942e-05,2.1956990279322393e-06,0.0010057758447776196,0.0,0.0,0.0,0.0,0.0,0.0,0.0,6.958651960919937e-05,-0.0002801268759560216,-0.00012136093977183071,-4.8444655111667956e-05,1.3546877184134054e-05,-0.00013062433261579187,-1.1034367097151332e-05,-0.0002926490072561147,0.00021968039940847787,-0.000666623281722563,-0.0006617138883889641,6.044676087520942e-05,-2.1956990279322393e-06,-0.0010057758447776196,0.6568843722343445,46.47658920288086,5.612087726593018,-19.487642288208008,-0.7730002999305725,-2.3660311698913574,0.20724813640117645,0
27,0.129241943359375,-0.6291133761405945,-46.52419662475586,-5.564480304718018,19.559053421020508,0.7730002999305725,2.3596224784851074,-0.13858358561992645,0.0,0.0,0.0,0.0,0.0,0.0,0.0,-0.6566013265266356,-0.18751777650024046,-0.40983012092524823,0.3312598317448356,0.1906707786385022,0.10215076055845825,-0.18815066529334787,0.8780213407089835,0.7557432552979629,-0.2824372451012594,-1.6690559281131676,0.14140833820538445,2.4035754653168944,1.0273415052013264,0.878092876070424,0.7554597494309409,-0.2825552651693207,-1.6690993614607135,0.1414185955172306,2.4034451173676383,1.0273381002308042,-1.903976656992355e-05,0.00023646546540717988,-0.00029637860249780894,-0.0005854292118689927,0.00014000176618315607,0.00023880993785477378,-0.0020821410987129202,0.0,0.0,0.0,0.0,0.0,0.0,0.0,7.153536144044459e-05,-0.00028350586702208247,-0.00011802006806133081,-4.343334754586259e-05,1.0257311846145756e-05,-0.00013034794925603777,-3.404970522202788e-06,1.903976656992355e-05,-0.00023646546540717988,0.00029637860249780894,0.0005854292118689927,-0.00014000176618315607,-0.00023880993785477378,0.0020821410987129202,0.6291133761405945,46.52419662475586,5.564480304718018,-19.559053421020508,-0.7730002999305725,-2.3596224784851074,0.13858358561992645,0
28,0.13415884971618652,-0.6291133761405945,-46.52419662475586,-5.564480304718018,19.559053421020508,0.7730002999305725,2.3596224784851074,-0.13858358561992645,0.0,0.0,0.0,0.0,0.0,0.0,0.0,-0.6566013265266356,-0.18751777650024046,-0.40983012092524823,0.3312598317448356,0.1906707786385022,0.10215076055845825,-0.18815066529334787,0.8780213407089835,0.7557432552979629,-0.2824372451012594,-1.6690559281131676,0.14140833820538445,2.4035754653168944,1.0273415052013264,0.878092876070424,0.7554597494309409,-0.2825552651693207,-1.6690993614607135,0.1414185955172306,2.4034451173676383,1.0273381002308042,-1.903976656992355e-05,0.00023646546540717988,-0.00029637860249780894,-0.0005854292118689927,0.00014000176618315607,0.00023880993785477378,-0.0020821410987129202,0.0,0.0,0.0,0.0,0.0,0.0,0.0,7.153536144044459e-05,-0.00028350586702208247,-0.00011802006806133081,-4.343334754586259e-05,1.0257311846145756e-05,-0.00013034794925603777,-3.404970522202788e-06,1.903976656992355e-05,-0.00023646546540717988,0.00029637860249780894,0.0005854292118689927,-0.00014000176618315607,-0.00023880993785477378,0.0020821410987129202,0.6291133761405945,46.52419662475586,5.564480304718018,-19.559053421020508,-0.7730002999305725,-2.3596224784851074,0.13858358561992645,0
29,0.13920903205871582,-0.6291133761405945,-46.52419662475586,-5.564480304718018,19.559053421020508,0.7730002999305725,2.3596224784851074,-0.13858358561992645,0.0,0.0,0.0,0.0,0.0,0.0,0.0,-0.6566013265266356,-0.18751777650024046,-0.40983012092524823,0.3312598317448356,0.1906707786385022,0.10215076055845825,-0.18815066529334787,0.8780213407089835,0.7557432552979629,-0.2824372451012594,-1.6690559281131676,0.14140833820538445,2.4035754653168944,1.0273415052013264,0.878092876070424,0.7554597494309409,-0.2825552651693207,-1.6690993614607135,0.1414185955172306,2.4034451173676383,1.0273381002308042,-1.903976656992355e-05,0.00023646546540717988,-0.00029637860249780894,-0.0005854292118689927,0.00014000176618315607,0.00023880993785477378,-0.0020821410987129202,0.0,0.0,0.0,0.0,0.0,0.0,0.0,7.153536144044459e-05,-0.00028350586702208247,-0.00011802006806133081,-4.343334754586259e-05,1.0257311846145756e-05,-0.00013034794925603777,-3.404970522202788e-06,1.903976656992355e-05,-0.00023646546540717988,0.00029637860249780894,0.0005854292118689927,-0.00014000176618315607,-0.00023880993785477378,0.0020821410987129202,0.6291133761405945,46.52419662475586,5.564480304718018,-19.559053421020508,-0.7730002999305725,-2.3596224784851074,0.13858358561992645,0
30,0.14418435096740723,-0.6291133761405945,-46.52419662475586,-5.564480304718018,19.559053421020508,0.7730002999305725,2.3596224784851074,-0.13858358561992645,0.0,0.0,0.0,0.0,0.0,0.0,0.0,-0.6566013265266356,-0.18751777650024046,-0.40983012092524823,0.3312598317448356,0.1906707786385022,0.10215076055845825,-0.18815066529334787,0.8780213407089835,0.7557432552979629,-0.2824372451012594,-1.6690559281131676,0.14140833820538445,2.4035754653168944,1.0273415052013264,0.878092876070424,0.7554597494309409,-0.2825552651693207,-1.6690993614607135,0.1414185955172306,2.4034451173676383,1.0273381002308042,-1.903976656992355e-05,0.00023646546540717988,-0.00029637860249780894,-0.0005854292118689927,0.00014000176618315607,0.00023880993785477378,-0.0020821410987129202,0.0,0.0,0.0,0.0,0.0,0.0,0.0,7.153536144044459e-05,-0.00028350586702208247,-0.00011802006806133081,-4.343334754586259e-05,1.0257311846145756e-05,-0.00013034794925603777,-3.404970522202788e-06,1.903976656992355e-05,-0.00023646546540717988,0.00029637860249780894,0.0005854292118689927,-0.00014000176618315607,-0.00023880993785477378,0.0020821410987129202,0.6291133761405945,46.52419662475586,5.564480304718018,-19.559053421020508,-0.7730002999305725,-2.3596224784851074,0.13858358561992645,0
31,0.1492013931274414,-0.6291133761405945,-46.50039291381836,-5.564480304718018,19.487642288208008,0.7849021553993225,2.3596224784851074,-0.21457235515117645,0.0,0.0,0.0,0.0,0.0,0.0,0.0,-0.6475696825478889,-0.1667706628974351,-0.4043251012308135,0.3200264743698606,0.19023851757207014,0.099939670733928,-0.1879263215650186,0.8780213407089835,0.7557416646622318,-0.2824372451012594,-1.6690509168056018,0.1414038381271899,2.403573280479938,1.0273499483979411,0.878092876070424,0.7554597494309409,-0.2825552651693207,-1.6690993614607135,0.1414185955172306,2.4034451173676383,1.0273381002308042,0.0007739549090595385,0.00017048742083289873,-0.0001785352120563846,0.001296080717802314,-0.00016500466502891798,0.0003487698729954708,0.0015712623843924026,0.0,0.0,0.0,0.0,0.0,0.0,0.0,7.153536144044459e-05,-0.0002819152312909523,-0.00011802006806133081,-4.8444655111667956e-05,1.4757390040698315e-05,-0.00012816311229979505,-1.1848167136951915e-05,-0.0007739549090595385,-0.00017048742083289873,0.0001785352120563846,-0.001296080717802314,0.00016500466502891798,-0.0003487698729954708,-0.0015712623843924026,0.6291133761405945,46.50039291381836,5.564480304718018,-19.487642288208008,-0.7849021553993225,-2.3596224784851074,0.21457235515117645,0
32,0.1542062759399414,-0.6291133761405945,-46.50039291381836,-5.564480304718018,19.487642288208008,0.7849021553993225,2.3596224784851074,-0.21457235515117645,0.0,0.0,0.0,0.0,0.0,0.0,0.0,-0.6475696825478889,-0.1667706628974351,-0.4043251012308135,0.3200264743698606,0.19023851757207014,0.099939670733928,-0.1879263215650186,0.8780213407089835,0.7557416646622318,-0.2824372451012594,-1.6690509168056018,0.1414038381271899,2.403573280479938,1.0273499483979411,0.878092876070424,0.7554597494309409,-0.2825552651693207,-1.6690993614607135,0.1414185955172306,2.4034451173676383,1.0273381002308042,0.0007739549090595385,0.00017048742083289873,-0.0001785352120563846,0.001296080717802314,-0.00016500466502891798,0.0003487698729954708,0.0015712623843924026,0.0,0.0,0.0,0.0,0.0,0.0,0.0,7.153536144044459e-05,-0.0002819152312909523,-0.00011802006806133081,-4.8444655111667956e-05,1.4757390040698315e-05,-0.00012816311229979505,-1.1848167136951915e-05,-0.0007739549090595385,-0.00017048742083289873,0.0001785352120563846,-0.001296080717802314,0.00016500466502891798,-0.0003487698729954708,-0.0015712623843924026,0.6291133761405945,46.50039291381836,5.564480304718018,-19.487642288208008,-0.7849021553993225,-2.3596224784851074,0.21457235515117645,0
33,0.1591815948486328,-0.6053096652030945,-46.47658920288086,-5.588284015655518,19.559053421020508,0.7730002999305725,2.3660311698913574,-0.17978231608867645,0.0,0.0,0.0,0.0,0.0,0.0,0.0,-0.6581188584499865,-0.17014249680970742,-0.4159359016371977,0.31967532160841283,0.1916477064483685,0.09979397046161836,-0.18726712789019107,0.8780196702731283,0.7557398762712245,-0.28243557466540414,-1.6690559281131676,0.14140896669933295,2.4035719215609226,1.0273460828380452,0.878092876070424,0.7554597494309409,-0.2825552651693207,-1.6690993614607135,0.1414185955172306,2.4034451173676383,1.0273381002308042,-0.0007043730137761887,-0.0005677407171985325,0.0008438471121256823,-0.0008155709460824317,7.099815130101427e-05,0.00021197495202400726,-0.0005387724661215555,0.0,0.0,0.0,0.0,0.0,0.0,0.0,7.320579729563903e-05,-0.00028012684028366763,-0.00011969050391658076,-4.343334754586259e-05,9.628817897650022e-06,-0.00012680419328425785,-7.982607240997197e-06,0.0007043730137761887,0.0005677407171985325,-0.0008438471121256823,0.0008155709460824317,-7.099815130101427e-05,-0.00021197495202400726,0.0005387724661215555,0.6053096652030945,46.47658920288086,5.588284015655518,-19.559053421020508,-0.7730002999305725,-2.3660311698913574,0.17978231608867645,0
34,0.1641850471496582,-0.6053096652030945,-46.47658920288086,-5.588284015655518,19.559053421020508,0.7730002999305725,2.3660311698913574,-0.17978231608867645,0.0,0.0,0.0,0.0,0.0,0.0,0.0,-0.6581188584499865,-0.17014249680970742,-0.4159359016371977,0.31967532160841283,0.1916477064483685,0.09979397046161836,-0.18726712789019107,0.8780196702731283,0.7557398762712245,-0.28243557466540414,-1.6690559281131676,0.14140896669933295,2.4035719215609226,1.0273460828380452,0.878092876070424,0.7554597494309409,-0.2825552651693207,-1.6690993614607135,0.1414185955172306,2.4034451173676383,1.0273381002308042,-0.0007043730137761887,-0.0005677407171985325,0.0008438471121256823,-0.0008155709460824317,7.099815130101427e-05,0.00021197495202400726,-0.0005387724661215555,0.0,0.0,0.0,0.0,0.0,0.0,0.0,7.320579729563903e-05,-0.00028012684028366763,-0.00011969050391658076,-4.343334754586259e-05,9.628817897650022e-06,-0.00012680419328425785,-7.982607240997197e-06,0.0007043730137761887,0.0005677407171985325,-0.0008438471121256823,0.0008155709460824317,-7.099815130101427e-05,-0.00021197495202400726,0.0005387724661215555,0.6053096652030945,46.47658920288086,5.588284015655518,-19.559053421020508,-0.7730002999305725,-2.3660311698913574,0.17978231608867645,0
35,0.16917800903320312,-0.6291133761405945,-46.47658920288086,-5.564480304718018,19.511445999145508,0.7730002999305725,2.3660311698913574,-0.18710653483867645,0.0,0.0,0.0,0.0,0.0,0.0,0.0,-0.6512299115774177,-0.17976450373659258,-0.40960546974547546,0.32605283577122496,0.19160548795498697,0.10055459843811722,-0.18799409624489086,0.8780213407089835,0.7557401146164603,-0.2824372451012594,-1.669052587241457,0.1414093004620117,2.403571468695617,1.0273468966401285,0.878092876070424,0.7554597494309409,-0.2825552651693207,-1.6690993614607135,0.1414185955172306,2.4034451173676383,1.0273381002308042,-0.0004389309689467363,-0.0008165808249181929,4.045870395982002e-05,0.0003766119899351476,0.00026171046942011146,-8.019025273133943e-05,-0.0003745757623873245,0.0,0.0,0.0,0.0,0.0,0.0,0.0,7.153536144044459e-05,-0.0002803651855194378,-0.00011802006806133081,-4.6774219256473515e-05,9.29505521890528e-06,-0.00012635132797855775,-8.796409324274279e-06,0.0004389309689467363,0.0008165808249181929,-4.045870395982002e-05,-0.0003766119899351476,-0.00026171046942011146,8.019025273133943e-05,0.0003745757623873245,0.6291133761405945,46.47658920288086,5.564480304718018,-19.511445999145508,-0.7730002999305725,-2.3660311698913574,0.18710653483867645,0
36,0.17419648170471191,-0.6291133761405945,-46.47658920288086,-5.564480304718018,19.511445999145508,0.7730002999305725,2.3660311698913574,-0.18710653483867645,0.0,0.0,0.0,0.0,0.0,0.0,0.0,-0.6512299115774177,-0.17976450373659258,-0.40960546974547546,0.32605283577122496,0.19160548795498697,0.10055459843811722,-0.18799409624489086,0.8780213407089835,0.7557401146164603,-0.2824372451012594,-1.669052587241457,0.1414093004620117,2.403571468695617,1.0273468966401285,0.878092876070424,0.7554597494309409,-0.2825552651693207,-1.6690993614607135,0.1414185955172306,2.4034451173676383,1.0273381002308042,-0.0004389309689467363,-0.0008165808249181929,4.045870395982002e-05,0.0003766119899351476,0.00026171046942011146,-8.019025273133943e-05,-0.0003745757623873245,0.0,0.0,0.0,0.0,0.0,0.0,0.0,7.153536144044459e-05,-0.0002803651855194378,-0.00011802006806133081,-4.6774219256473515e-05,9.29505521890528e-06,-0.00012635132797855775,-8.796409324274279e-06,0.0004389309689467363,0.0008165808249181929,-4.045870395982002e-05,-0.0003766119899351476,-0.00026171046942011146,8.019025273133943e-05,0.0003745757623873245,0.6291133761405945,46.47658920288086,5.564480304718018,-19.511445999145508,-0.7730002999305725,-2.3660311698913574,0.18710653483867645,0
37,0.17918181419372559,-0.6806880831718445,-46.50039291381836,-5.564480304718018,19.535249710083008,0.7784934639930725,2.3596224784851074,-0.20724813640117645,0.0,0.0,0.0,0.0,0.0,0.0,0.0,-0.6571563927060108,-0.17634580455868537,-0.4104798026357355,0.3244931044810641,0.19143456427575692,0.09990023386306526,-0.1886210199943564,0.87802495998667,0.7557415735257615,-0.2824372451012594,-1.6690542576773122,0.14140459109004072,2.403572176409232,1.0273491345958576,0.878092876070424,0.7554597494309409,-0.2825552651693207,-1.6690993614607135,0.1414185955172306,2.4034451173676383,1.0273381002308042,5.2358421864627815e-05,-0.00039914632335741774,-0.00020868209929621794,-0.0005680545895027987,-0.00026063416217817756,1.8091816329975754e-05,0.0006888348308836584,0.0,0.0,0.0,0.0,0.0,0.0,0.0,6.791608375400493e-05,-0.00028182409482069293,-0.00011802006806133081,-4.5103783401279074e-05,1.400442718987871e-05,-0.00012705904159382442,-1.1034365053452788e-05,-5.2358421864627815e-05,0.00039914632335741774,0.00020868209929621794,0.0005680545895027987,0.00026063416217817756,-1.8091816329975754e-05,-0.0006888348308836584,0.6806880831718445,46.50039291381836,5.564480304718018,-19.535249710083008,-0.7784934639930725,-2.3596224784851074,0.20724813640117645,0
38,0.18418550491333008,-0.6806880831718445,-46.50039291381836,-5.564480304718018,19.535249710083008,0.7784934639930725,2.3596224784851074,-0.20724813640117645,0.0,0.0,0.0,0.0,0.0,0.0,0.0,-0.6571563927060108,-0.17634580455868537,-0.4104798026357355,0.3244931044810641,0.19143456427575692,0.09990023386306526,-0.1886210199943564,0.87802495998667,0.7557415735257615,-0.2824372451012594,-1.6690542576773122,0.14140459109004072,2.403572176409232,1.0273491345958576,0.878092876070424,0.7554597494309409,-0.2825552651693207,-1.6690993614607135,0.1414185955172306,2.4034451173676383,1.0273381002308042,5.2358421864627815e-05,-0.00039914632335741774,-0.00020868209929621794,-0.0005680545895027987,-0.00026063416217817756,1.8091816329975754e-05,0.0006888348308836584,0.0,0.0,0.0,0.0,0.0,0.0,0.0,6.791608375400493e-05,-0.00028182409482069293,-0.00011802006806133081,-4.5103783401279074e-05,1.400442718987871e-05,-0.00012705904159382442,-1.1034365053452788e-05,-5.2358421864627815e-05,0.00039914632335741774,0.00020868209929621794,0.0005680545895027987,0.00026063416217817756,-1.8091816329975754e-05,-0.0006888348308836584,0.6806880831718445,46.50039291381836,5.564480304718018,-19.535249710083008,-0.7784934639930725,-2.3596224784851074,0.20724813640117645,0
39,0.18916034698486328,-0.7084590792655945,-46.50039291381836,-5.564480304718018,19.559053421020508,0.7784934639930725,2.3788485527038574,-0.13858358561992645,0.0,0.0,0.0,0.0,0.0,0.0,0.0,-0.6632064049307274,-0.1784777613478826,-0.4107629645313844,0.32512854366096205,0.19077846194527232,0.0998555386664847,-0.18868117019659889,0.8780269088285011,0.7557422618532864,-0.2824372451012594,-1.6690559281131676,0.1414084781797377,2.4035704993929468,1.0273415052013264,0.878092876070424,0.7554597494309409,-0.2825552651693207,-1.6690993614607135,0.1414185955172306,2.4034451173676383,1.0273381002308042,0.0003836050735449926,-0.00021461305112108312,-0.0007831695082809055,-0.0009876384732269582,-0.00018419231304060135,-0.00041408467425858397,-0.0022860168752678227,0.0,0.0,0.0,0.0,0.0,0.0,0.0,6.596724192287073e-05,-0.00028251242234555995,-0.00011802006806133081,-4.343334754586259e-05,1.011733749289867e-05,-0.00012538202530842923,-3.404970522202788e-06,-0.0003836050735449926,0.00021461305112108312,0.0007831695082809055,0.0009876384732269582,0.00018419231304060135,0.00041408467425858397,0.0022860168752678227,0.7084590792655945,46.50039291381836,5.564480304718018,-19.559053421020508,-0.7784934639930725,-2.3788485527038574,0.13858358561992645,0
40,0.19415020942687988,-0.7084590792655945,-46.50039291381836,-5.564480304718018,19.559053421020508,0.7784934639930725,2.3788485527038574,-0.13858358561992645,0.0,0.0,0.0,0.0,0.0,0.0,0.0,-0.6632064049307274,-0.1784777613478826,-0.4107629645313844,0.32512854366096205,0.19077846194527232,0.0998555386664847,-0.18868117019659889,0.8780269088285011,0.7557422618532864,-0.2824372451012594,-1.6690559281131676,0.1414084781797377,2.4035704993929468,1.0273415052013264,0.878092876070424,0.7554597494309409,-0.2825552651693207,-1.6690993614607135,0.1414185955172306,2.4034451173676383,1.0273381002308042,0.0003836050735449926,-0.00021461305112108312,-0.0007831695082809055,-0.0009876384732269582,-0.00018419231304060135,-0.00041408467425858397,-0.0022860168752678227,0.0,0.0,0.0,0.0,0.0,0.0,0.0,6.596724192287073e-05,-0.00028251242234555995,-0.00011802006806133081,-4.343334754586259e-05,1.011733749289867e-05,-0.00012538202530842923,-3.404970522202788e-06,-0.0003836050735449926,0.00021461305112108312,0.0007831695082809055,0.0009876384732269582,0.00018419231304060135,0.00041408467425858397,0.0022860168752678227,0.7084590792655945,46.50039291381836,5.564480304718018,-19.559053421020508,-0.7784934639930725,-2.3788485527038574,0.13858358561992645,0
41,0.19918131828308105,-0.7084590792655945,-46.47658920288086,-5.635891437530518,19.511445999145508,0.7784934639930725,2.3660311698913574,-0.15964071452617645,0.0,0.0,0.0,0.0,0.0,0.0,0.0,-0.6422166895520143,-0.16753353271737959,-0.39045548797036456,0.3227994291243575,0.18992252535082432,0.09943719596041112,-0.18776222424568348,0.8780269088285011,0.7557421102440441,-0.28243215432083396,-1.669052587241457,0.14140879330751782,2.4035747648684085,1.027343844882316,0.878092876070424,0.7554597494309409,-0.2825552651693207,-1.6690993614607135,0.1414185955172306,2.4034451173676383,1.0273381002308042,0.0009725653043293359,-0.0001578400701759839,0.0013171321623583684,0.0005266718597967667,-0.00022397187763572473,-5.687634496232577e-05,-0.0011407958464415022,0.0,0.0,0.0,0.0,0.0,0.0,0.0,6.596724192287073e-05,-0.0002823608131032884,-0.00012311084848676268,-4.6774219256473515e-05,9.80220971277812e-06,-0.00012964750077015808,-5.744651511818688e-06,-0.0009725653043293359,0.0001578400701759839,-0.0013171321623583684,-0.0005266718597967667,0.00022397187763572473,5.687634496232577e-05,0.0011407958464415022,0.7084590792655945,46.47658920288086,5.635891437530518,-19.511445999145508,-0.7784934639930725,-2.3660311698913574,0.15964071452617645,0
42,0.2042076587677002,-0.7084590792655945,-46.47658920288086,-5.635891437530518,19.511445999145508,0.7784934639930725,2.3660311698913574,-0.15964071452617645,0.0,0.0,0.0,0.0,0.0,0.0,0.0,-0.6422166895520143,-0.16753353271737959,-0.39045548797036456,0.3227994291243575,0.18992252535082432,0.09943719596041112,-0.18776222424568348,0.8780269088285011,0.7557421102440441,-0.28243215432083396,-1.669052587241457,0.14140879330751782,2.4035747648684085,1.027343844882316,0.878092876070424,0.7554597494309409,-0.2825552651693207,-1.6690993614607135,0.1414185955172306,2.4034451173676383,1.0273381002308042,0.0009725653043293359,-0.0001578400701759839,0.0013171321623583684,0.0005266718597967667,-0.00022397187763572473,-5.687634496232577e-05,-0.0011407958464415022,0.0,0.0,0.0,0.0,0.0,0.0,0.0,6.596724192287073e-05,-0.0002823608131032884,-0.00012311084848676268,-4.6774219256473515e-05,9.80220971277812e-06,-0.00012964750077015808,-5.744651511818688e-06,-0.0009725653043293359,0.0001578400701759839,-0.0013171321623583684,-0.0005266718597967667,0.00022397187763572473,5.687634496232577e-05,0.0011407958464415022,0.7084590792655945,46.47658920288086,5.635891437530518,-19.511445999145508,-0.7784934639930725,-2.3660311698913574,0.15964071452617645,0
43,0.20920419692993164,-0.6291133761405945,-46.52419662475586,-5.588284015655518,19.511445999145508,0.7784934639930725,2.3660311698913574,-0.20083944499492645,0.0,0.0,0.0,0.0,0.0,0.0,0.0,-0.6537863362584506,-0.17130696923660055,-0.39976566438094346,0.32607902364625313,0.1901561255365076,0.09989926632605609,-0.1875403558985151,0.8780213407089835,0.7557432170458639,-0.28243557466495556,-1.669052587241457,0.1414087252691483,2.4035719276028633,1.0273484225190348,0.878092876070424,0.7554597494309409,-0.2825552651693207,-1.6690993614607135,0.1414185955172306,2.4034451173676383,1.0273381002308042,-0.0011295154728620724,0.0010611052629356029,0.0002796256081911272,0.0005573561759634838,-7.555139259156968e-05,-0.00013219286344258777,0.0006990591835216556,0.0,0.0,0.0,0.0,0.0,0.0,0.0,7.153536144044459e-05,-0.0002834676149230386,-0.00011969050436516637,-4.6774219256473515e-05,9.87024808229986e-06,-0.00012681023522498336,-1.0322288230613097e-05,0.0011295154728620724,-0.0010611052629356029,-0.0002796256081911272,-0.0005573561759634838,7.555139259156968e-05,0.00013219286344258777,-0.0006990591835216556,0.6291133761405945,46.52419662475586,5.588284015655518,-19.511445999145508,-0.7784934639930725,-2.3660311698913574,0.20083944499492645,0
44,0.21422195434570312,-0.6291133761405945,-46.52419662475586,-5.588284015655518,19.511445999145508,0.7784934639930725,2.3660311698913574,-0.20083944499492645,0.0,0.0,0.0,0.0,0.0,0.0,0.0,-0.6537863362584506,-0.17130696923660055,-0.39976566438094346,0.32607902364625313,0.1901561255365076,0.09989926632605609,-0.1875403558985151,0.8780213407089835,0.7557432170458639,-0.28243557466495556,-1.669052587241457,0.1414087252691483,2.4035719276028633,1.0273484225190348,0.878092876070424,0.7554597494309409,-0.2825552651693207,-1.6690993614607135,0.1414185955172306,2.4034451173676383,1.0273381002308042,-0.0011295154728620724,0.0010611052629356029,0.0002796256081911272,0.0005573561759634838,-7.555139259156968e-05,-0.00013219286344258777,0.0006990591835216556,0.0,0.0,0.0,0.0,0.0,0.0,0.0,7.153536144044459e-05,-0.0002834676149230386,-0.00011969050436516637,-4.6774219256473515e-05,9.87024808229986e-06,-0.00012681023522498336,-1.0322288230613097e-05,0.0011295154728620724,-0.0010611052629356029,-0.0002796256081911272,-0.0005573561759634838,7.555139259156968e-05,0.00013219286344258777,-0.0006990591835216556,0.6291133761405945,46.52419662475586,5.588284015655518,-19.511445999145508,-0.7784934639930725,-2.3660311698913574,0.20083944499492645,0
45,0.21918606758117676,-0.6568843722343445,-46.47658920288086,-5.588284015655518,19.535249710083008,0.7784934639930725,2.3660311698913574,-0.15964071452617645,0.0,0.0,0.0,0.0,0.0,0.0,0.0,-0.6683652763084694,-0.1757541953509618,-0.4119790919744144,0.32785971814926856,0.1912381227522921,0.10018897280372363,-0.1870554695859371,0.8780232895508148,0.7557406797325695,-0.28243557466540414,-1.6690542576773122,0.1414087937995769,2.403572994347372,1.0273438449007097,0.878092876070424,0.7554597494309409,-0.2825552651693207,-1.6690993614607135,0.1414185955172306,2.4034451173676383,1.0273381002308042,-5.125742871446489e-05,-0.0005970329436280989,-0.0001769234881967275,-0.00010021631995038691,-4.776700621202713e-05,6.213914096660445e-06,-0.0013847126252504072,0.0,0.0,0.0,0.0,0.0,0.0,0.0,6.958651960919937e-05,-0.00028093030162867905,-0.00011969050391658076,-4.5103783401279074e-05,9.8017176536902e-06,-0.00012787697973370982,-5.744669905549671e-06,5.125742871446489e-05,0.0005970329436280989,0.0001769234881967275,0.00010021631995038691,4.776700621202713e-05,-6.213914096660445e-06,0.0013847126252504072,0.6568843722343445,46.47658920288086,5.588284015655518,-19.535249710083008,-0.7784934639930725,-2.3660311698913574,0.15964071452617645,0
46,0.2241833209991455,-0.6568843722343445,-46.47658920288086,-5.588284015655518,19.535249710083008,0.7784934639930725,2.3660311698913574,-0.15964071452617645,0.0,0.0,0.0,0.0,0.0,0.0,0.0,-0.6683652763084694,-0.1757541953509618,-0.4119790919744144,0.32785971814926856,0.1912381227522921,0.10018897280372363,-0.1870554695859371,0.8780232895508148,0.7557406797325695,-0.28243557466540414,-1.6690542576773122,0.1414087937995769,2.403572994347372,1.0273438449007097,0.878092876070424,0.7554597494309409,-0.2825552651693207,-1.6690993614607135,0.1414185955172306,2.4034451173676383,1.0273381002308042,-5.125742871446489e-05,-0.0005970329436280989,-0.0001769234881967275,-0.00010021631995038691,-4.776700621202713e-05,6.213914096660445e-06,-0.0013847126252504072,0.0,0.0,0.0,0.0,0.0,0.0,0.0,6.958651960919937e-05,-0.00028093030162867905,-0.00011969050391658076,-4.5103783401279074e-05,9.8017176536902e-06,-0.00012787697973370982,-5.744669905549671e-06,5.125742871446489e-05,0.0005970329436280989,0.0001769234881967275,0.00010021631995038691,4.776700621202713e-05,-6.213914096660445e-06,0.0013847126252504072,0.6568843722343445,46.47658920288086,5.588284015655518,-19.535249710083008,-0.7784934639930725,-2.3660311698913574,0.15964071452617645,0
47,0.22918009757995605,-0.6568843722343445,-46.50039291381836,-5.564480304718018,19.559053421020508,0.7849021553993225,2.3660311698913574,-0.17337362468242645,0.0,0.0,0.0,0.0,0.0,0.0,0.0,-0.6707416252130067,-0.17073262481089144,-0.4144265895283484,0.3254354969640945,0.1915466778977652,0.09981912143554943,-0.1873108201533656,0.8780232895508148,0.755742500385266,-0.2824372451012594,-1.6690559281131676,0.14140352804551629,2.403571607650309,1.0273453621489372,0.878092876070424,0.7554597494309409,-0.2825552651693207,-1.6690993614607135,0.1414185955172306,2.4034451173676383,1.0273381002308042,-0.00010661967727698561,-6.158176080469693e-05,-0.0008392294275703263,-0.000720632177479619,-0.00022948359962772995,-0.00015048007617215998,-0.00038146036490881814,0.0,0.0,0.0,0.0,0.0,0.0,0.0,6.958651960919937e-05,-0.0002827509543251727,-0.00011802006806133081,-4.343334754586259e-05,1.5067471714313996e-05,-0.0001264902826707548,-7.261918133050216e-06,0.00010661967727698561,6.158176080469693e-05,0.0008392294275703263,0.000720632177479619,0.00022948359962772995,0.00015048007617215998,0.00038146036490881814,0.6568843722343445,46.50039291381836,5.564480304718018,-19.559053421020508,-0.7849021553993225,-2.3660311698913574,0.17337362468242645,0
48,0.23418021202087402,-0.6568843722343445,-46.50039291381836,-5.564480304718018,19.559053421020508,0.7849021553993225,2.3660311698913574,-0.17337362468242645,0.0,0.0,0.0,0.0,0.0,0.0,0.0,-0.6707416252130067,-0.17073262481089144,-0.4144265895283484,0.3254354969640945,0.1915466778977652,0.09981912143554943,-0.1873108201533656,0.8780232895508148,0.755742500385266,-0.2824372451012594,-1.6690559281131676,0.14140352804551629,2.403571607650309,1.0273453621489372,0.878092876070424,0.7554597494309409,-0.2825552651693207,-1.6690993614607135,0.1414185955172306,2.4034451173676383,1.0273381002308042,-0.00010661967727698561,-6.158176080469693e-05,-0.0008392294275703263,-0.000720632177479619,-0.00022948359962772995,-0.00015048007617215998,-0.00038146036490881814,0.0,0.0,0.0,0.0,0.0,0.0,0.0,6.958651960919937e-05,-0.0002827509543251727,-0.00011802006806133081,-4.343334754586259e-05,1.5067471714313996e-05,-0.0001264902826707548,-7.261918133050216e-06,0.00010661967727698561,6.158176080469693e-05,0.0008392294275703263,0.000720632177479619,0.00022948359962772995,0.00015048007617215998,0.00038146036490881814,0.6568843722343445,46.50039291381836,5.564480304718018,-19.559053421020508,-0.7849021553993225,-2.3660311698913574,0.17337362468242645,0
49,0.2391805648803711,-0.6291133761405945,-46.50039291381836,-5.564480304718018,19.511445999145508,0.7784934639930725,2.3660311698913574,-0.21457235515117645,0.0,0.0,0.0,0.0,0.0,0.0,0.0,-0.6514012895440419,-0.17757398572707161,-0.40302180098655815,0.3311536832807561,0.1918493959938463,0.10009833911362814,-0.18725304312971827,0.8780213407089835,0.7557444086432157,-0.2824372451012594,-1.669052587241457,0.14140454321788207,2.403571509285581,1.0273499483978925,0.878092876070424,0.7554597494309409,-0.2825552651693207,-1.6690993614607135,0.1414185955172306,2.4034451173676383,1.0273381002308042,-9.356785603933516e-05,-0.0002894638316993496,-0.00048730516181977513,0.0005071410824257946,1.4610949195465202e-05,5.029926193205973e-05,0.00036317031910797746,0.0,0.0,0.0,0.0,0.0,0.0,0.0,7.153536144044459e-05,-0.00028465921227482927,-0.00011802006806133081,-4.6774219256473515e-05,1.4052299348532582e-05,-0.00012639191794283633,-1.1848167088324146e-05,9.356785603933516e-05,0.0002894638316993496,0.00048730516181977513,-0.0005071410824257946,-1.4610949195465202e-05,-5.029926193205973e-05,-0.00036317031910797746,0.6291133761405945,46.50039291381836,5.564480304718018,-19.511445999145508,-0.7784934639930725,-2.3660311698913574,0.21457235515117645,0
50,0.24418139457702637,-0.6291133761405945,-46.50039291381836,-5.564480304718018,19.511445999145508,0.7784934639930725,2.3660311698913574,-0.21457235515117645,0.0,0.0,0.0,0.0,0.0,0.0,0.0,-0.6514012895440419,-0.17757398572707161,-0.40302180098655815,0.3311536832807561,0.1918493959938463,0.10009833911362814,-0.18725304312971827,0.8780213407089835,0.7557444086432157,-0.2824372451012594,-1.669052587241457,0.14140454321788207,2.403571509285581,1.0273499483978925,0.878092876070424,0.7554597494309409,-0.2825552651693207,-1.6690993614607135,0.1414185955172306,2.4034451173676383,1.0273381002308042,-9.356785603933516e-05,-0.0002894638316993496,-0.00048730516181977513,0.0005071410824257946,1.4610949195465202e-05,5.029926193205973e-05,0.00036317031910797746,0.0,0.0,0.0,0.0,0.0,0.0,0.0,7.153536144044459e-05,-0.00028465921227482927,-0.00011802006806133081,-4.6774219256473515e-05,1.4052299348532582e-05,-0.00012639191794283633,-1.1848167088324146e-05,9.356785603933516e-05,0.0002894638316993496,0.00048730516181977513,-0.0005071410824257946,-1.4610949195465202e-05,-5.029926193205973e-05,-0.00036317031910797746,0.6291133761405945,46.50039291381836,5.564480304718018,-19.511445999145508,-0.7784934639930725,-2.3660311698913574,0.21457235515117645,0
51,0.24919939041137695,-0.6053096652030945,-46.54800033569336,-5.564480304718018,19.559053421020508,0.7784934639930725,2.3522982597351074,-0.20083944499492645,0.0,0.0,0.0,0.0,0.0,0.0,0.0,-0.6505064590482588,-0.16749084433356906,-0.4037116392130059,0.3239060554295963,0.19187878042528733,0.09899525354076635,-0.18833931983036944,0.8780196702731283,0.7557456040815091,-0.2824372451012594,-1.6690559281131676,0.1414084868794246,2.4035733476240626,1.0273484225190348,0.878092876070424,0.7554597494309409,-0.2825552651693207,-1.6690993614607135,0.1414185955172306,2.4034451173676383,1.0273381002308042,-0.0008643374239126347,0.0010995233959100047,0.0005506103084545835,-0.0010272609238895474,-0.00015795146324455977,0.0005583585292193717,0.00038759925902809365,0.0,0.0,0.0,0.0,0.0,0.0,0.0,7.320579729563903e-05,-0.00028585465056829573,-0.00011802006806133081,-4.343334754586259e-05,1.0108637806011123e-05,-0.00012823025642427766,-1.0322288230613097e-05,0.0008643374239126347,-0.0010995233959100047,-0.0005506103084545835,0.0010272609238895474,0.00015795146324455977,-0.0005583585292193717,-0.00038759925902809365,0.6053096652030945,46.54800033569336,5.564480304718018,-19.559053421020508,-0.7784934639930725,-2.3522982597351074,0.20083944499492645,0
52,0.25421690940856934,-0.6053096652030945,-46.54800033569336,-5.564480304718018,19.559053421020508,0.7784934639930725,2.3522982597351074,-0.20083944499492645,0.0,0.0,0.0,0.0,0.0,0.0,0.0,-0.6505064590482588,-0.16749084433356906,-0.4037116392130059,0.3239060554295963,0.19187878042528733,0.09899525354076635,-0.18833931983036944,0.8780196702731283,0.7557456040815091,-0.2824372451012594,-1.6690559281131676,0.1414084868794246,2.4035733476240626,1.0273484225190348,0.878092876070424,0.7554597494309409,-0.2825552651693207,-1.6690993614607135,0.1414185955172306,2.4034451173676383,1.0273381002308042,-0.0008643374239126347,0.0010995233959100047,0.0005506103084545835,-0.0010272609238895474,-0.00015795146324455977,0.0005583585292193717,0.00038759925902809365,0.0,0.0,0.0,0.0,0.0,0.0,0.0,7.320579729563903e-05,-0.00028585465056829573,-0.00011802006806133081,-4.343334754586259e-05,1.0108637806011123e-05,-0.00012823025642427766,-1.0322288230613097e-05,0.0008643374239126347,-0.0010995233959100047,-0.0005506103084545835,0.0010272609238895474,0.00015795146324455977,-0.0005583585292193717,-0.00038759925902809365,0.6053096652030945,46.54800033569336,5.564480304718018,-19.559053421020508,-0.7784934639930725,-2.3522982597351074,0.20083944499492645,0
53,0.259157657623291,-0.6053096652030945,-46.54800033569336,-5.564480304718018,19.559053421020508,0.7784934639930725,2.3522982597351074,-0.20083944499492645,0.0,0.0,0.0,0.0,0.0,0.0,0.0,-0.6505064590482588,-0.16749084433356906,-0.4037116392130059,0.3239060554295963,0.19187878042528733,0.09899525354076635,-0.18833931983036944,0.8780196702731283,0.7557456040815091,-0.2824372451012594,-1.6690559281131676,0.1414084868794246,2.4035733476240626,1.0273484225190348,0.878092876070424,0.7554597494309409,-0.2825552651693207,-1.6690993614607135,0.1414185955172306,2.4034451173676383,1.0273381002308042,-0.0008643374239126347,0.0010995233959100047,0.0005506103084545835,-0.0010272609238895474,-0.00015795146324455977,0.0005583585292193717,0.00038759925902809365,0.0,0.0,0.0,0.0,0.0,0.0,0.0,7.320579729563903e-05,-0.00028585465056829573,-0.00011802006806133081,-4.343334754586259e-05,1.0108637806011123e-05,-0.00012823025642427766,-1.0322288230613097e-05,0.0008643374239126347,-0.0010995233959100047,-0.0005506103084545835,0.0010272609238895474,0.00015795146324455977,-0.0005583585292193717,-0.00038759925902809365,0.6053096652030945,46.54800033569336,5.564480304718018,-19.559053421020508,-0.7784934639930725,-2.3522982597351074,0.20083944499492645,0
54,0.26419711112976074,-0.6053096652030945,-46.54800033569336,-5.564480304718018,19.559053421020508,0.7784934639930725,2.3522982597351074,-0.20083944499492645,0.0,0.0,0.0,0.0,0.0,0.0,0.0,-0.6505064590482588,-0.16749084433356906,-0.4037116392130059,0.3239060554295963,0.19187878042528733,0.09899525354076635,-0.18833931983036944,0.8780196702731283,0.7557456040815091,-0.2824372451012594,-1.6690559281131676,0.1414084868794246,2.4035733476240626,1.0273484225190348,0.878092876070424,0.7554597494309409,-0.2825552651693207,-1.6690993614607135,0.1414185955172306,2.4034451173676383,1.0273381002308042,-0.0008643374239126347,0.0010995233959100047,0.0005506103084545835,-0.0010272609238895474,-0.00015795146324455977,0.0005583585292193717,0.00038759925902809365,0.0,0.0,0.0,0.0,0.0,0.0,0.0,7.320579729563903e-05,-0.00028585465056829573,-0.00011802006806133081,-4.343334754586259e-05,1.0108637806011123e-05,-0.00012823025642427766,-1.0322288230613097e-05,0.0008643374239126347,-0.0010995233959100047,-0.0005506103084545835,0.0010272609238895474,0.00015795146324455977,-0.0005583585292193717,-0.00038759925902809365,0.6053096652030945,46.54800033569336,5.564480304718018,-19.559053421020508,-0.7784934639930725,-2.3522982597351074,0.20083944499492645,0
55,0.26918530464172363,-0.6291133761405945,-46.52419662475586,-5.588284015655518,19.511445999145508,0.7665916085243225,2.3724398612976074,-0.20724813640117645,0.0,0.0,0.0,0.0,0.0,0.0,0.0,-0.6590977020799456,-0.1806041865693119,-0.4120060266404163,0.3292122541271404,0.19191283396741804,0.1006558624171899,-0.18877195199159785,0.8780213407089835,0.7557432199771411,-0.28243557466540414,-1.669052587241457,0.14140863457187963,2.403570784126152,1.0273491350924873,0.878092876070424,0.7554597494309409,-0.2825552651693207,-1.6690993614607135,0.1414185955172306,2.4034451173676383,1.0273381002308042,-5.6289099318216875e-05,4.756024990273387e-05,9.058157240946182e-05,0.0006449794758826256,0.00016523394959645917,-0.00011755622313677543,0.0002102988434302064,0.0,0.0,0.0,0.0,0.0,0.0,0.0,7.153536144044459e-05,-0.0002834705462002596,-0.00011969050391658076,-4.6774219256473515e-05,9.960945350967476e-06,-0.0001256667585138871,-1.10348616830791e-05,5.6289099318216875e-05,-4.756024990273387e-05,-9.058157240946182e-05,-0.0006449794758826256,-0.00016523394959645917,0.00011755622313677543,-0.0002102988434302064,0.6291133761405945,46.52419662475586,5.588284015655518,-19.511445999145508,-0.7665916085243225,-2.3724398612976074,0.20724813640117645,0
56,0.27419161796569824,-0.6291133761405945,-46.52419662475586,-5.588284015655518,19.511445999145508,0.7665916085243225,2.3724398612976074,-0.20724813640117645,0.0,0.0,0.0,0.0,0.0,0.0,0.0,-0.6590977020799456,-0.1806041865693119,-0.4120060266404163,0.3292122541271404,0.19191283396741804,0.1006558624171899,-0.18877195199159785,0.8780213407089835,0.7557432199771411,-0.28243557466540414,-1.669052587241457,0.14140863457187963,2.403570784126152,1.0273491350924873,0.878092876070424,0.7554597494309409,-0.2825552651693207,-1.6690993614607135,0.1414185955172306,2.4034451173676383,1.0273381002308042,-5.6289099318216875e-05,4.756024990273387e-05,9.058157240946182e-05,0.0006449794758826256,0.00016523394959645917,-0.00011755622313677543,0.0002102988434302064,0.0,0.0,0.0,0.0,0.0,0.0,0.0,7.153536144044459e-05,-0.0002834705462002596,-0.00011969050391658076,-4.6774219256473515e-05,9.960945350967476e-06,-0.0001256667585138871,-1.10348616830791e-05,5.6289099318216875e-05,-4.756024990273387e-05,-9.058157240946182e-05,-0.0006449794758826256,-0.00016523394959645917,0.00011755622313677543,-0.0002102988434302064,0.6291133761405945,46.52419662475586,5.588284015655518,-19.511445999145508,-0.7665916085243225,-2.3724398612976074,0.20724813640117645,0
57,0.27918529510498047,-0.6568843722343445,-46.42501449584961,-5.612087726593018,19.487642288208008,0.7784934639930725,2.3788485527038574,-0.14590780436992645,0.0,0.0,0.0,0.0,0.0,0.0,0.0,-0.6455237320407945,-0.1691711617185487,-0.40182880886088207,0.3220554755492981,0.19112840055135827,0.10011036808977308,-0.18977720141589977,0.8780232895508148,0.7557386424141971,-0.2824339042295489,-1.669051155224181,0.14140518625405615,2.4035736894513997,1.0273423190034128,0.878092876070424,0.7554597494309409,-0.2825552651693207,-1.6690993614607135,0.1414185955172306,2.4034451173676383,1.0273381002308042,0.0003677660292848756,-0.0017653000178494813,0.0011405272446628765,0.0009063294632915763,-1.5362354311952027e-05,-0.0005160126167164768,-0.0017770484408776606,0.0,0.0,0.0,0.0,0.0,0.0,0.0,6.958651960919937e-05,-0.00027889298325622924,-0.00012136093977183071,-4.820623653256639e-05,1.3409263174446462e-05,-0.00012857208376138018,-4.218772608588495e-06,-0.0003677660292848756,0.0017653000178494813,-0.0011405272446628765,-0.0009063294632915763,1.5362354311952027e-05,0.0005160126167164768,0.0017770484408776606,0.6568843722343445,46.42501449584961,5.612087726593018,-19.487642288208008,-0.7784934639930725,-2.3788485527038574,0.14590780436992645,0
58,0.2842140197753906,-0.6568843722343445,-46.42501449584961,-5.612087726593018,19.487642288208008,0.7784934639930725,2.3788485527038574,-0.14590780436992645,0.0,0.0,0.0,0.0,0.0,0.0,0.0,-0.6455237320407945,-0.1691711617185487,-0.40182880886088207,0.3220554755492981,0.19112840055135827,0.10011036808977308,-0.18977720141589977,0.8780232895508148,0.7557386424141971,-0.2824339042295489,-1.669051155224181,0.14140518625405615,2.4035736894513997,1.0273423190034128,0.878092876070424,0.7554597494309409,-0.2825552651693207,-1.6690993614607135,0.1414185955172306,2.4034451173676383,1.0273381002308042,0.0003677660292848756,-0.0017653000178494813,0.0011405272446628765,0.0009063294632915763,-1.5362354311952027e-05,-0.0005160126167164768,-0.0017770484408776606,0.0,0.0,0.0,0.0,0.0,0.0,0.0,6.958651960919937e-05,-0.00027889298325622924,-0.00012136093977183071,-4.820623653256639e-05,1.3409263174446462e-05,-0.00012857208376138018,-4.218772608588495e-06,-0.0003677660292848756,0.0017653000178494813,-0.0011405272446628765,-0.0009063294632915763,1.5362354311952027e-05,0.0005160126167164768,0.0017770484408776606,0.6568843722343445,46.42501449584961,5.612087726593018,-19.487642288208008,-0.7784934639930725,-2.3788485527038574,0.14590780436992645,0
59,0.2891390323638916,-0.6568843722343445,-46.52419662475586,-5.588284015655518,19.511445999145508,0.7730002999305725,2.3724398612976074,-0.15964071452617645,0.0,0.0,0.0,0.0,0.0,0.0,0.0,-0.6500033706788788,-0.18605416162346322,-0.4090536148704215,0.3292640469370844,0.19118681940536064,0.10206566704047401,-0.18946471835666792,0.8780232895508148,0.7557432170377412,-0.28243557466540414,-1.6690525872419055,0.14140516620736635,2.40357089573317,1.027343844882316,0.878092876070424,0.7554597494309409,-0.2825552651693207,-1.6690993614607135,0.1414185955172306,2.4034451173676383,1.0273381002308042,0.0002117140265459547,2.887116889539751e-05,0.00014517474442884073,0.0003765023109364523,0.00018527488445991013,-0.0001366712234885471,-0.0013991875953010926,0.0,0.0,0.0,0.0,0.0,0.0,0.0,6.958651960919937e-05,-0.0002834676068003139,-0.00011969050391658076,-4.677421880794341e-05,1.3429309864254613e-05,-0.00012577836553173682,-5.744651511818688e-06,-0.0002117140265459547,-2.887116889539751e-05,-0.00014517474442884073,-0.0003765023109364523,-0.00018527488445991013,0.0001366712234885471,0.0013991875953010926,0.6568843722343445,46.52419662475586,5.588284015655518,-19.511445999145508,-0.7730002999305725,-2.3724398612976074,0.15964071452617645,0
60,0.2941455841064453,-0.6568843722343445,-46.52419662475586,-5.588284015655518,19.511445999145508,0.7730002999305725,2.3724398612976074,-0.15964071452617645,0.0,0.0,0.0,0.0,0.0,0.0,0.0,-0.6500033706788788,-0.18605416162346322,-0.4090536148704215,0.3292640469370844,0.19118681940536064,0.10206566704047401,-0.18946471835666792,0.8780232895508148,0.7557432170377412,-0.28243557466540414,-1.6690525872419055,0.14140516620736635,2.40357089573317,1.027343844882316,0.878092876070424,0.7554597494309409,-0.2825552651693207,-1.6690993614607135,0.1414185955172306,2.4034451173676383,1.0273381002308042,0.0002117140265459547,2.887116889539751e-05,0.00014517474442884073,0.0003765023109364523,0.00018527488445991013,-0.0001366712234885471,-0.0013991875953010926,0.0,0.0,0.0,0.0,0.0,0.0,0.0,6.958651960919937e-05,-0.0002834676068003139,-0.00011969050391658076,-4.677421880794341e-05,1.3429309864254613e-05,-0.00012577836553173682,-5.744651511818688e-06,-0.0002117140265459547,-2.887116889539751e-05,-0.00014517474442884073,-0.0003765023109364523,-0.00018527488445991013,0.0001366712234885471,0.0013991875953010926,0.6568843722343445,46.52419662475586,5.588284015655518,-19.511445999145508,-0.7730002999305725,-2.3724398612976074,0.15964071452617645,0
61,0.2991788387298584,-0.6568843722343445,-46.47658920288086,-5.612087726593018,19.511445999145508,0.7730002999305725,2.3596224784851074,-0.15231649577617645,0.0,0.0,0.0,0.0,0.0,0.0,0.0,-0.6495649516081802,-0.17245642307239903,-0.40572622105210654,0.3212945624448442,0.1907808692093222,0.10152168734383024,-0.19028641631377996,0.8780232895508148,0.7557399595589872,-0.2824339042295489,-1.669052587241457,0.14140508212468997,2.40357362059294,1.027343151761242,0.878092876070424,0.7554597494309409,-0.2825552651693207,-1.6690993614607135,0.1414185955172306,2.4034451173676383,1.0273381002308042,-0.000507668648838563,-0.0005266993075390234,0.0009105183606987907,9.664082625310268e-05,1.9433543921379205e-05,0.00016810445398791703,-0.0013133906001919755,0.0,0.0,0.0,0.0,0.0,0.0,0.0,6.958651960919937e-05,-0.00028021012804635426,-0.00012136093977183071,-4.6774219256473515e-05,1.3513392540631664e-05,-0.00012850322530155722,-5.051530437727436e-06,0.000507668648838563,0.0005266993075390234,-0.0009105183606987907,-9.664082625310268e-05,-1.9433543921379205e-05,-0.00016810445398791703,0.0013133906001919755,0.6568843722343445,46.47658920288086,5.612087726593018,-19.511445999145508,-0.7730002999305725,-2.3596224784851074,0.15231649577617645,0
62,0.3041865825653076,-0.6568843722343445,-46.47658920288086,-5.612087726593018,19.511445999145508,0.7730002999305725,2.3596224784851074,-0.15231649577617645,0.0,0.0,0.0,0.0,0.0,0.0,0.0,-0.6495649516081802,-0.17245642307239903,-0.40572622105210654,0.3212945624448442,0.1907808692093222,0.10152168734383024,-0.19028641631377996,0.8780232895508148,0.7557399595589872,-0.2824339042295489,-1.669052587241457,0.14140508212468997,2.40357362059294,1.027343151761242,0.878092876070424,0.7554597494309409,-0.2825552651693207,-1.6690993614607135,0.1414185955172306,2.4034451173676383,1.0273381002308042,-0.000507668648838563,-0.0005266993075390234,0.0009105183606987907,9.664082625310268e-05,1.9433543921379205e-05,0.00016810445398791703,-0.0013133906001919755,0.0,0.0,0.0,0.0,0.0,0.0,0.0,6.958651960919937e-05,-0.00028021012804635426,-0.00012136093977183071,-4.6774219256473515e-05,1.3513392540631664e-05,-0.00012850322530155722,-5.051530437727436e-06,0.000507668648838563,0.0005266993075390234,-0.0009105183606987907,-9.664082625310268e-05,-1.9433543921379205e-05,-0.00016810445398791703,0.0013133906001919755,0.6568843722343445,46.47658920288086,5.612087726593018,-19.511445999145508,-0.7730002999305725,-2.3596224784851074,0.15231649577617645,0
63,0.30918121337890625,-0.7084590792655945,-46.52419662475586,-5.564480304718018,19.511445999145508,0.7784934639930725,2.3660311698913574,-0.19351522624492645,0.0,0.0,0.0,0.0,0.0,0.0,0.0,-0.6647403744850208,-0.16784704735042538,-0.4106122574926577,0.31575496000754366,0.19045038396890743,0.10070764310725988,-0.18998686455208594,0.8780269088285011,0.7557439628140157,-0.2824372451012594,-1.669052587241457,0.14140458939212178,2.403571622131492,1.0273476087176328,0.878092876070424,0.7554597494309409,-0.2825552651693207,-1.6690993614607135,0.1414185955172306,2.4034451173676383,1.0273381002308042,0.00020712797679815537,0.0006133168489606435,-0.0002349463698594918,-0.0002486461192466647,-9.728852322604399e-05,-2.7906792467340183e-05,0.0001941236550498701,0.0,0.0,0.0,0.0,0.0,0.0,0.0,6.596724192287073e-05,-0.00028421338307482724,-0.00011802006806133081,-4.6774219256473515e-05,1.4006125108823042e-05,-0.00012650476385367426,-9.508486828568863e-06,-0.00020712797679815537,-0.0006133168489606435,0.0002349463698594918,0.0002486461192466647,9.728852322604399e-05,2.7906792467340183e-05,-0.0001941236550498701,0.7084590792655945,46.52419662475586,5.564480304718018,-19.511445999145508,-0.7784934639930725,-2.3660311698913574,0.19351522624492645,0
64,0.3141968250274658,-0.7084590792655945,-46.52419662475586,-5.564480304718018,19.511445999145508,0.7784934639930725,2.3660311698913574,-0.19351522624492645,0.0,0.0,0.0,0.0,0.0,0.0,0.0,-0.6647403744850208,-0.16784704735042538,-0.4106122574926577,0.31575496000754366,0.19045038396890743,0.10070764310725988,-0.18998686455208594,0.8780269088285011,0.7557439628140157,-0.2824372451012594,-1.669052587241457,0.14140458939212178,2.403571622131492,1.0273476087176328,0.878092876070424,0.7554597494309409,-0.2825552651693207,-1.6690993614607135,0.1414185955172306,2.4034451173676383,1.0273381002308042,0.00020712797679815537,0.0006133168489606435,-0.0002349463698594918,-0.0002486461192466647,-9.728852322604399e-05,-2.7906792467340183e-05,0.0001941236550498701,0.0,0.0,0.0,0.0,0.0,0.0,0.0,6.596724192287073e-05,-0.00028421338307482724,-0.00011802006806133081,-4.6774219256473515e-05,1.4006125108823042e-05,-0.00012650476385367426,-9.508486828568863e-06,-0.00020712797679815537,-0.0006133168489606435,0.0002349463698594918,0.0002486461192466647,9.728852322604399e-05,2.7906792467340183e-05,-0.0001941236550498701,0.7084590792655945,46.52419662475586,5.564480304718018,-19.511445999145508,-0.7784934639930725,-2.3660311698913574,0.19351522624492645,0
65,0.3191862106323242,-0.6806880831718445,-46.50039291381836,-5.612087726593018,19.511445999145508,0.7730002999305725,2.3724398612976074,-0.20083944499492645,0.0,0.0,0.0,0.0,0.0,0.0,0.0,-0.6603737655565631,-0.17695809156621936,-0.4042548084119793,0.32003126007857857,0.1905644116298915,0.10085563871268229,-0.19015201088768874,0.87802495998667,0.7557444341239294,-0.2824339042295489,-1.669052587241457,0.14140933409080989,2.4035740542400315,1.0273484225190348,0.878092876070424,0.7554597494309409,-0.2825552651693207,-1.6690993614607135,0.1414185955172306,2.4034451173676383,1.0273381002308042,-0.00010818726528569794,-0.00016362425130121347,0.0004331318237456347,0.00030333073040827546,0.00017329706097950906,-0.00034883469218920397,0.0009763811187991157,0.0,0.0,0.0,0.0,0.0,0.0,0.0,6.791608375400493e-05,-0.00028468469298859045,-0.00012136093977183071,-4.6774219256473515e-05,9.261426420714702e-06,-0.00012893687239312612,-1.0322288230613097e-05,0.00010818726528569794,0.00016362425130121347,-0.0004331318237456347,-0.00030333073040827546,-0.00017329706097950906,0.00034883469218920397,-0.0009763811187991157,0.6806880831718445,46.50039291381836,5.612087726593018,-19.511445999145508,-0.7730002999305725,-2.3724398612976074,0.20083944499492645,0
66,0.3245525360107422,-0.6806880831718445,-46.50039291381836,-5.612087726593018,19.511445999145508,0.7730002999305725,2.3724398612976074,-0.20083944499492645,0.0,0.0,0.0,0.0,0.0,0.0,0.0,-0.6603737655565631,-0.17695809156621936,-0.4042548084119793,0.32003126007857857,0.1905644116298915,0.10085563871268229,-0.19015201088768874,0.87802495998667,0.7557444341239294,-0.2824339042295489,-1.669052587241457,0.14140933409080989,2.4035740542400315,1.0273484225190348,0.878092876070424,0.7554597494309409,-0.2825552651693207,-1.6690993614607135,0.1414185955172306,2.4034451173676383,1.0273381002308042,-0.00010818726528569794,-0.00016362425130121347,0.0004331318237456347,0.00030333073040827546,0.00017329706097950906,-0.00034883469218920397,0.0009763811187991157,0.0,0.0,0.0,0.0,0.0,0.0,0.0,6.791608375400493e-05,-0.00028468469298859045,-0.00012136093977183071,-4.6774219256473515e-05,9.261426420714702e-06,-0.00012893687239312612,-1.0322288230613097e-05,0.00010818726528569794,0.00016362425130121347,-0.0004331318237456347,-0.00030333073040827546,-0.00017329706097950906,0.00034883469218920397,-0.0009763811187991157,0.6806880831718445,46.50039291381836,5.612087726593018,-19.511445999145508,-0.7730002999305725,-2.3724398612976074,0.20083944499492645,0
67,0.3291447162628174,-0.7084590792655945,-46.54800033569336,-5.536709308624268,19.487642288208008,0.7665916085243225,2.3660311698913574,-0.16604940593242645,0.0,0.0,0.0,0.0,0.0,0.0,0.0,-0.6651203501582204,-0.1822588059744577,-0.40669971241644864,0.32073454327857626,0.19075428581109083,0.10016229933125177,-0.18927103660118066,0.8780269088285011,0.7557449672853163,-0.2824391939430905,-1.6690509168056018,0.14141001270291884,2.40357268490255,1.027344556959139,0.878092876070424,0.7554597494309409,-0.2825552651693207,-1.6690993614607135,0.1414185955172306,2.4034451173676383,1.0273381002308042,0.0005482579254981896,0.0005839070611969058,-0.0013447021228140097,0.00047807327600075125,0.00022983920122012953,7.038601655175888e-05,-0.0013729759586800408,0.0,0.0,0.0,0.0,0.0,0.0,0.0,6.596724192287073e-05,-0.00028521785437540803,-0.00011607122623019661,-4.8444655111667956e-05,8.582814311763887e-06,-0.00012756753491149908,-6.456728334880424e-06,-0.0005482579254981896,-0.0005839070611969058,0.0013447021228140097,-0.00047807327600075125,-0.00022983920122012953,-7.038601655175888e-05,0.0013729759586800408,0.7084590792655945,46.54800033569336,5.536709308624268,-19.487642288208008,-0.7665916085243225,-2.3660311698913574,0.16604940593242645,0
68,0.3341822624206543,-0.7084590792655945,-46.54800033569336,-5.536709308624268,19.487642288208008,0.7665916085243225,2.3660311698913574,-0.16604940593242645,0.0,0.0,0.0,0.0,0.0,0.0,0.0,-0.6651203501582204,-0.1822588059744577,-0.40669971241644864,0.32073454327857626,0.19075428581109083,0.10016229933125177,-0.18927103660118066,0.8780269088285011,0.7557449672853163,-0.2824391939430905,-1.6690509168056018,0.14141001270291884,2.40357268490255,1.027344556959139,0.878092876070424,0.7554597494309409,-0.2825552651693207,-1.6690993614607135,0.1414185955172306,2.4034451173676383,1.0273381002308042,0.0005482579254981896,0.0005839070611969058,-0.0013447021228140097,0.00047807327600075125,0.00022983920122012953,7.038601655175888e-05,-0.0013729759586800408,0.0,0.0,0.0,0.0,0.0,0.0,0.0,6.596724192287073e-05,-0.00028521785437540803,-0.00011607122623019661,-4.8444655111667956e-05,8.582814311763887e-06,-0.00012756753491149908,-6.456728334880424e-06,-0.0005482579254981896,-0.0005839070611969058,0.0013447021228140097,-0.00047807327600075125,-0.00022983920122012953,-7.038601655175888e-05,0.0013729759586800408,0.7084590792655945,46.54800033569336,5.536709308624268,-19.487642288208008,-0.7665916085243225,-2.3660311698913574,0.16604940593242645,0
69,0.33918070793151855,-0.6053096652030945,-46.47658920288086,-5.536709308624268,19.511445999145508,0.7730002999305725,2.3724398612976074,-0.18710653483867645,0.0,0.0,0.0,0.0,0.0,0.0,0.0,-0.658730013933392,-0.20885260730005484,-0.4020734016243917,0.34153922702102046,0.19044532287636012,0.10350407633814056,-0.18911985043656238,0.8780196702731283,0.755739876161692,-0.2824391939430905,-1.669052587241457,0.1414090899411209,2.403571856363807,1.0273468966401285,0.878092876070424,0.7554597494309409,-0.2825552651693207,-1.6690993614607135,0.1414185955172306,2.4034451173676383,1.0273381002308042,-0.0017524250924601309,-0.0010200541109010232,-0.0009353261760026457,-0.003553661045882975,-5.348385650073446e-06,-0.00025107296806466963,0.00016318135254218548,0.0,0.0,0.0,0.0,0.0,0.0,0.0,7.320579729563903e-05,-0.00028012673075117345,-0.00011607122623019661,-4.6774219256473515e-05,9.50557610970848e-06,-0.00012673899616855167,-8.796409324274279e-06,0.0017524250924601309,0.0010200541109010232,0.0009353261760026457,0.003553661045882975,5.348385650073446e-06,0.00025107296806466963,-0.00016318135254218548,0.6053096652030945,46.47658920288086,5.536709308624268,-19.511445999145508,-0.7730002999305725,-2.3724398612976074,0.18710653483867645,0
70,0.34415364265441895,-0.6053096652030945,-46.47658920288086,-5.536709308624268,19.511445999145508,0.7730002999305725,2.3724398612976074,-0.18710653483867645,0.0,0.0,0.0,0.0,0.0,0.0,0.0,-0.658730013933392,-0.20885260730005484,-0.4020734016243917,0.34153922702102046,0.19044532287636012,0.10350407633814056,-0.18911985043656238,0.8780196702731283,0.755739876161692,-0.2824391939430905,-1.669052587241457,0.1414090899411209,2.403571856363807,1.0273468966401285,0.878092876070424,0.7554597494309409,-0.2825552651693207,-1.6690993614607135,0.1414185955172306,2.4034451173676383,1.0273381002308042,-0.0017524250924601309,-0.0010200541109010232,-0.0009353261760026457,-0.003553661045882975,-5.348385650073446e-06,-0.00025107296806466963,0.00016318135254218548,0.0,0.0,0.0,0.0,0.0,0.0,0.0,7.320579729563903e-05,-0.00028012673075117345,-0.00011607122623019661,-4.6774219256473515e-05,9.50557610970848e-06,-0.00012673899616855167,-8.796409324274279e-06,0.0017524250924601309,0.0010200541109010232,0.0009353261760026457,0.003553661045882975,5.348385650073446e-06,0.00025107296806466963,-0.00016318135254218548,0.6053096652030945,46.47658920288086,5.536709308624268,-19.511445999145508,-0.7730002999305725,-2.3724398612976074,0.18710653483867645,0
71,0.3491806983947754,-0.6806880831718445,-46.47658920288086,-5.588284015655518,19.487642288208008,0.7784934639930725,2.3660311698913574,-0.13858358561992645,0.0,0.0,0.0,0.0,0.0,0.0,0.0,-0.6650101161882828,-0.20258129302690522,-0.4071468216399657,0.3360196438778647,0.1901060687030093,0.10297383890151976,-0.18846555492414724,0.87802495998667,0.7557398761615418,-0.28243557466540414,-1.6690509168056018,0.14140843877918502,2.4035714554558107,1.0273415052013264,0.878092876070424,0.7554597494309409,-0.2825552651693207,-1.6690993614607135,0.1414185955172306,2.4034451173676383,1.0273381002308042,0.0006285730321576841,-0.0009298550652943097,1.0824600289159677e-05,0.0006316473250302598,-0.00019039896165895474,1.1033621266268339e-05,-0.0017957782650813655,0.0,0.0,0.0,0.0,0.0,0.0,0.0,6.791608375400493e-05,-0.00028012673060096027,-0.00011969050391658076,-4.8444655111667956e-05,1.015673804558026e-05,-0.00012633808817241743,-3.404970522202788e-06,-0.0006285730321576841,0.0009298550652943097,-1.0824600289159677e-05,-0.0006316473250302598,0.00019039896165895474,-1.1033621266268339e-05,0.0017957782650813655,0.6806880831718445,46.47658920288086,5.588284015655518,-19.487642288208008,-0.7784934639930725,-2.3660311698913574,0.13858358561992645,0
72,0.35418248176574707,-0.6806880831718445,-46.47658920288086,-5.588284015655518,19.487642288208008,0.7784934639930725,2.3660311698913574,-0.13858358561992645,0.0,0.0,0.0,0.0,0.0,0.0,0.0,-0.6650101161882828,-0.20258129302690522,-0.4071468216399657,0.3360196438778647,0.1901060687030093,0.10297383890151976,-0.18846555492414724,0.87802495998667,0.7557398761615418,-0.28243557466540414,-1.6690509168056018,0.14140843877918502,2.4035714554558107,1.0273415052013264,0.878092876070424,0.7554597494309409,-0.2825552651693207,-1.6690993614607135,0.1414185955172306,2.4034451173676383,1.0273381002308042,0.0006285730321576841,-0.0009298550652943097,1.0824600289159677e-05,0.0006316473250302598,-0.00019039896165895474,1.1033621266268339e-05,-0.0017957782650813655,0.0,0.0,0.0,0.0,0.0,0.0,0.0,6.791608375400493e-05,-0.00028012673060096027,-0.00011969050391658076,-4.8444655111667956e-05,1.015673804558026e-05,-0.00012633808817241743,-3.404970522202788e-06,-0.0006285730321576841,0.0009298550652943097,-1.0824600289159677e-05,-0.0006316473250302598,0.00019039896165895474,-1.1033621266268339e-05,0.0017957782650813655,0.6806880831718445,46.47658920288086,5.588284015655518,-19.487642288208008,-0.7784934639930725,-2.3660311698913574,0.13858358561992645,0
73,0.3591949939727783,-0.6806880831718445,-46.47658920288086,-5.588284015655518,19.487642288208008,0.7784934639930725,2.3660311698913574,-0.13858358561992645,0.0,0.0,0.0,0.0,0.0,0.0,0.0,-0.6650101161882828,-0.20258129302690522,-0.4071468216399657,0.3360196438778647,0.1901060687030093,0.10297383890151976,-0.18846555492414724,0.87802495998667,0.7557398761615418,-0.28243557466540414,-1.6690509168056018,0.14140843877918502,2.4035714554558107,1.0273415052013264,0.878092876070424,0.7554597494309409,-0.2825552651693207,-1.6690993614607135,0.1414185955172306,2.4034451173676383,1.0273381002308042,0.0006285730321576841,-0.0009298550652943097,1.0824600289159677e-05,0.0006316473250302598,-0.00019039896165895474,1.1033621266268339e-05,-0.0017957782650813655,0.0,0.0,0.0,0.0,0.0,0.0,0.0,6.791608375400493e-05,-0.00028012673060096027,-0.00011969050391658076,-4.8444655111667956e-05,1.015673804558026e-05,-0.00012633808817241743,-3.404970522202788e-06,-0.0006285730321576841,0.0009298550652943097,-1.0824600289159677e-05,-0.0006316473250302598,0.00019039896165895474,-1.1033621266268339e-05,0.0017957782650813655,0.6806880831718445,46.47658920288086,5.588284015655518,-19.487642288208008,-0.7784934639930725,-2.3660311698913574,0.13858358561992645,0
74,0.36420202255249023,-0.6806880831718445,-46.47658920288086,-5.588284015655518,19.487642288208008,0.7784934639930725,2.3660311698913574,-0.13858358561992645,0.0,0.0,0.0,0.0,0.0,0.0,0.0,-0.6650101161882828,-0.20258129302690522,-0.4071468216399657,0.3360196438778647,0.1901060687030093,0.10297383890151976,-0.18846555492414724,0.87802495998667,0.7557398761615418,-0.28243557466540414,-1.6690509168056018,0.14140843877918502,2.4035714554558107,1.0273415052013264,0.878092876070424,0.7554597494309409,-0.2825552651693207,-1.6690993614607135,0.1414185955172306,2.4034451173676383,1.0273381002308042,0.0006285730321576841,-0.0009298550652943097,1.0824600289159677e-05,0.0006316473250302598,-0.00019039896165895474,1.1033621266268339e-05,-0.0017957782650813655,0.0,0.0,0.0,0.0,0.0,0.0,0.0,6.791608375400493e-05,-0.00028012673060096027,-0.00011969050391658076,-4.8444655111667956e-05,1.015673804558026e-05,-0.00012633808817241743,-3.404970522202788e-06,-0.0006285730321576841,0.0009298550652943097,-1.0824600289159677e-05,-0.0006316473250302598,0.00019039896165895474,-1.1033621266268339e-05,0.0017957782650813655,0.6806880831718445,46.47658920288086,5.588284015655518,-19.487642288208008,-0.7784934639930725,-2.3660311698913574,0.13858358561992645,0
75,0.3691895008087158,-0.6291133761405945,-46.47658920288086,-5.588284015655518,19.487642288208008,0.7730002999305725,2.3724398612976074,-0.18710653483867645,0.0,0.0,0.0,0.0,0.0,0.0,0.0,-0.6565751277694717,-0.16530655620497126,-0.39857160497070687,0.3080326547547981,0.18945718378782345,0.0991295014110388,-0.18670707569322262,0.8780213407089835,0.7557427386017025,-0.28243557466540414,-1.6690509168056018,0.14140575697346147,2.403570777827229,1.0273468966401285,0.878092876070424,0.7554597494309409,-0.2825552651693207,-1.6690993614607135,0.1414185955172306,2.4034451173676383,1.0273381002308042,-0.00029632565049515975,-0.00048668383692958305,0.0007387833598629882,0.0005850755424624586,3.368367668115796e-06,-9.181893224859872e-05,-0.0005035401204955676,0.0,0.0,0.0,0.0,0.0,0.0,0.0,7.153536144044459e-05,-0.0002829891707616383,-0.00011969050391658076,-4.8444655111667956e-05,1.2838543769128075e-05,-0.00012566045959072625,-8.796409324274279e-06,0.00029632565049515975,0.00048668383692958305,-0.0007387833598629882,-0.0005850755424624586,-3.368367668115796e-06,9.181893224859872e-05,0.0005035401204955676,0.6291133761405945,46.47658920288086,5.588284015655518,-19.487642288208008,-0.7730002999305725,-2.3724398612976074,0.18710653483867645,0
76,0.37418174743652344,-0.6291133761405945,-46.47658920288086,-5.588284015655518,19.487642288208008,0.7730002999305725,2.3724398612976074,-0.18710653483867645,0.0,0.0,0.0,0.0,0.0,0.0,0.0,-0.6565751277694717,-0.16530655620497126,-0.39857160497070687,0.3080326547547981,0.18945718378782345,0.0991295014110388,-0.18670707569322262,0.8780213407089835,0.7557427386017025,-0.28243557466540414,-1.6690509168056018,0.14140575697346147,2.403570777827229,1.0273468966401285,0.878092876070424,0.7554597494309409,-0.2825552651693207,-1.6690993614607135,0.1414185955172306,2.4034451173676383,1.0273381002308042,-0.00029632565049515975,-0.00048668383692958305,0.0007387833598629882,0.0005850755424624586,3.368367668115796e-06,-9.181893224859872e-05,-0.0005035401204955676,0.0,0.0,0.0,0.0,0.0,0.0,0.0,7.153536144044459e-05,-0.0002829891707616383,-0.00011969050391658076,-4.8444655111667956e-05,1.2838543769128075e-05,-0.00012566045959072625,-8.796409324274279e-06,0.00029632565049515975,0.00048668383692958305,-0.0007387833598629882,-0.0005850755424624586,-3.368367668115796e-06,9.181893224859872e-05,0.0005035401204955676,0.6291133761405945,46.47658920288086,5.588284015655518,-19.487642288208008,-0.7730002999305725,-2.3724398612976074,0.18710653483867645,0
77,0.37918996810913086,-0.6291133761405945,-46.47658920288086,-5.588284015655518,19.487642288208008,0.7730002999305725,2.3724398612976074,-0.18710653483867645,0.0,0.0,0.0,0.0,0.0,0.0,0.0,-0.6565751277694717,-0.16530655620497126,-0.39857160497070687,0.3080326547547981,0.18945718378782345,0.0991295014110388,-0.18670707569322262,0.8780213407089835,0.7557427386017025,-0.28243557466540414,-1.6690509168056018,0.14140575697346147,2.403570777827229,1.0273468966401285,0.878092876070424,0.7554597494309409,-0.2825552651693207,-1.6690993614607135,0.1414185955172306,2.4034451173676383,1.0273381002308042,-0.00029632565049515975,-0.00048668383692958305,0.0007387833598629882,0.0005850755424624586,3.368367668115796e-06,-9.181893224859872e-05,-0.0005035401204955676,0.0,0.0,0.0,0.0,0.0,0.0,0.0,7.153536144044459e-05,-0.0002829891707616383,-0.00011969050391658076,-4.8444655111667956e-05,1.2838543769128075e-05,-0.00012566045959072625,-8.796409324274279e-06,0.00029632565049515975,0.00048668383692958305,-0.0007387833598629882,-0.0005850755424624586,-3.368367668115796e-06,9.181893224859872e-05,0.0005035401204955676,0.6291133761405945,46.47658920288086,5.588284015655518,-19.487642288208008,-0.7730002999305725,-2.3724398612976074,0.18710653483867645,0
78,0.38417649269104004,-0.6291133761405945,-46.47658920288086,-5.588284015655518,19.487642288208008,0.7730002999305725,2.3724398612976074,-0.18710653483867645,0.0,0.0,0.0,0.0,0.0,0.0,0.0,-0.6565751277694717,-0.16530655620497126,-0.39857160497070687,0.3080326547547981,0.18945718378782345,0.0991295014110388,-0.18670707569322262,0.8780213407089835,0.7557427386017025,-0.28243557466540414,-1.6690509168056018,0.14140575697346147,2.403570777827229,1.0273468966401285,0.878092876070424,0.7554597494309409,-0.2825552651693207,-1.6690993614607135,0.1414185955172306,2.4034451173676383,1.0273381002308042,-0.00029632565049515975,-0.00048668383692958305,0.0007387833598629882,0.0005850755424624586,3.368367668115796e-06,-9.181893224859872e-05,-0.0005035401204955676,0.0,0.0,0.0,0.0,0.0,0.0,0.0,7.153536144044459e-05,-0.0002829891707616383,-0.00011969050391658076,-4.8444655111667956e-05,1.2838543769128075e-05,-0.00012566045959072625,-8.796409324274279e-06,0.00029632565049515975,0.00048668383692958305,-0.0007387833598629882,-0.0005850755424624586,-3.368367668115796e-06,9.181893224859872e-05,0.0005035401204955676,0.6291133761405945,46.47658920288086,5.588284015655518,-19.487642288208008,-0.7730002999305725,-2.3724398612976074,0.18710653483867645,0
79,0.3891911506652832,-0.6291133761405945,-46.47658920288086,-5.588284015655518,19.487642288208008,0.7730002999305725,2.3724398612976074,-0.18710653483867645,0.0,0.0,0.0,0.0,0.0,0.0,0.0,-0.6565751277694717,-0.16530655620497126,-0.39857160497070687,0.3080326547547981,0.18945718378782345,0.0991295014110388,-0.18670707569322262,0.8780213407089835,0.7557427386017025,-0.28243557466540414,-1.6690509168056018,0.14140575697346147,2.403570777827229,1.0273468966401285,0.878092876070424,0.7554597494309409,-0.2825552651693207,-1.6690993614607135,0.1414185955172306,2.4034451173676383,1.0273381002308042,-0.00029632565049515975,-0.00048668383692958305,0.0007387833598629882,0.0005850755424624586,3.368367668115796e-06,-9.181893224859872e-05,-0.0005035401204955676,0.0,0.0,0.0,0.0,0.0,0.0,0.0,7.153536144044459e-05,-0.0002829891707616383,-0.00011969050391658076,-4.8444655111667956e-05,1.2838543769128075e-05,-0.00012566045959072625,-8.796409324274279e-06,0.00029632565049515975,0.00048668383692958305,-0.0007387833598629882,-0.0005850755424624586,-3.368367668115796e-06,9.181893224859872e-05,0.0005035401204955676,0.6291133761405945,46.47658920288086,5.588284015655518,-19.487642288208008,-0.7730002999305725,-2.3724398612976074,0.18710653483867645,0
80,0.3941943645477295,-0.6568843722343445,-46.50039291381836,-5.564480304718018,19.535249710083008,0.7784934639930725,2.3596224784851074,-0.22098104655742645,0.0,0.0,0.0,0.0,0.0,0.0,0.0,-0.6527837477045813,-0.16788398446094085,-0.39985568429462126,0.30944973934281833,0.19008991640959713,0.09944424543104845,-0.1872870106220079,0.8780232895508148,0.7557422618576214,-0.2824372451012594,-1.6690542576773129,0.14140884774700707,2.4035735950761667,1.027350660474764,0.878092876070424,0.7554597494309409,-0.2825552651693207,-1.6690993614607135,0.1414185955172306,2.4034451173676383,1.0273381002308042,0.0004017883134914115,9.968892404931207e-06,0.00042056900140028514,-0.0002883952101861629,-0.0001546819220171923,0.00033375060856366556,0.0012956028751662998,0.0,0.0,0.0,0.0,0.0,0.0,0.0,6.958651960919937e-05,-0.0002825124266805368,-0.00011802006806133081,-4.510378340061294e-05,9.74777022352824e-06,-0.00012847770852841833,-1.2560243959791606e-05,-0.0004017883134914115,-9.968892404931207e-06,-0.00042056900140028514,0.0002883952101861629,0.0001546819220171923,-0.00033375060856366556,-0.0012956028751662998,0.6568843722343445,46.50039291381836,5.564480304718018,-19.535249710083008,-0.7784934639930725,-2.3596224784851074,0.22098104655742645,0
