rezayati/contactInterpretation/dataset/franka_main/labeled_data/link3/e5_6.csv
index,time,tau_J0,tau_J1,tau_J2,tau_J3,tau_J4,tau_J5,tau_J6,tau_J_d0,tau_J_d1,tau_J_d2,tau_J_d3,tau_J_d4,tau_J_d5,tau_J_d6,tau_ext0,tau_ext1,tau_ext2,tau_ext3,tau_ext4,tau_ext5,tau_ext6,q0,q1,q2,q3,q4,q5,q6,q_d0,q_d1,q_d2,q_d3,q_d4,q_d5,q_d6,dq0,dq1,dq2,dq3,dq4,dq5,dq6,dq_d0,dq_d1,dq_d2,dq_d3,dq_d4,dq_d5,dq_d6,e0,e1,e2,e3,e4,e5,e6,de0,de1,de2,de3,de4,de5,de6,etau_J0,etau_J1,etau_J2,etau_J3,etau_J4,etau_J5,etau_J6,label
1,0.0,0.05722695589065552,-18.253320693969727,1.0172455310821533,18.047517776489258,0.4745383858680725,2.2818026542663574,-0.23471395671367645,0.0,0.0,0.0,0.0,0.0,0.0,0.0,0.021383383305403108,0.42349785506913107,0.2031226885370052,0.4571532785482374,0.053650264810000306,0.10207391414697138,-0.2833847385037777,-0.6091158940431396,-0.0576431069029005,-0.6665221841628092,-2.5944485794201233,-0.05574102575003937,2.508001709511626,0.8763222419338094,-0.6090851748156966,-0.05753196718556838,-0.666603097082616,-2.5945565370258534,-0.05562143941554,2.507976027223799,0.8763108487046415,-0.00021852255793192548,-0.0001126018611811552,0.0008892183144077678,0.0006387056876492617,0.000125772875498655,2.2754895807551218e-05,-0.0016332598833485319,0.0,0.0,0.0,0.0,0.0,0.0,0.0,3.0719227443021246e-05,0.00011113971733211353,-8.091291980683035e-05,-0.00010795760573012458,0.00011958633449937056,-2.568228782706683e-05,-1.139322916787755e-05,0.00021852255793192548,0.0001126018611811552,-0.0008892183144077678,-0.0006387056876492617,-0.000125772875498655,-2.2754895807551218e-05,0.0016332598833485319,-0.05722695589065552,18.253320693969727,-1.0172455310821533,-18.047517776489258,-0.4745383858680725,-2.2818026542663574,0.23471395671367645,0
2,0.004982948303222656,0.05722695589065552,-18.253320693969727,1.0172455310821533,18.047517776489258,0.4745383858680725,2.2818026542663574,-0.23471395671367645,0.0,0.0,0.0,0.0,0.0,0.0,0.0,0.021383383305403108,0.42349785506913107,0.2031226885370052,0.4571532785482374,0.053650264810000306,0.10207391414697138,-0.2833847385037777,-0.6091158940431396,-0.0576431069029005,-0.6665221841628092,-2.5944485794201233,-0.05574102575003937,2.508001709511626,0.8763222419338094,-0.6090851748156966,-0.05753196718556838,-0.666603097082616,-2.5945565370258534,-0.05562143941554,2.507976027223799,0.8763108487046415,-0.00021852255793192548,-0.0001126018611811552,0.0008892183144077678,0.0006387056876492617,0.000125772875498655,2.2754895807551218e-05,-0.0016332598833485319,0.0,0.0,0.0,0.0,0.0,0.0,0.0,3.0719227443021246e-05,0.00011113971733211353,-8.091291980683035e-05,-0.00010795760573012458,0.00011958633449937056,-2.568228782706683e-05,-1.139322916787755e-05,0.00021852255793192548,0.0001126018611811552,-0.0008892183144077678,-0.0006387056876492617,-0.000125772875498655,-2.2754895807551218e-05,0.0016332598833485319,-0.05722695589065552,18.253320693969727,-1.0172455310821533,-18.047517776489258,-0.4745383858680725,-2.2818026542663574,0.23471395671367645,0
3,0.009979963302612305,0.03342324495315552,-18.229516983032227,0.9934418201446533,18.099092483520508,0.4809470772743225,2.2946200370788574,-0.26217979192733765,0.0,0.0,0.0,0.0,0.0,0.0,0.0,0.026146510759480462,0.4262394845387084,0.20759544424018755,0.4568449007495021,0.054182801362374994,0.10174095186597741,-0.2821860252279021,-0.6091117289818291,-0.05764477733875576,-0.6665205137269539,-2.5944521986978097,-0.05574493161837273,2.5080002853579875,0.8763253111358805,-0.6090851748156966,-0.05753196718556838,-0.666603097082616,-2.5945565370258534,-0.05562143941554,2.507976027223799,0.8763108487046415,0.0005332668975337321,-0.00033820465968117496,0.0010686589435815002,-0.0003094351754351006,-2.6075514567327533e-06,-0.000472963505477917,-0.00021444072990194597,0.0,0.0,0.0,0.0,0.0,0.0,0.0,2.6554166132508605e-05,0.00011281015318737736,-8.258335566213582e-05,-0.00010433832804368492,0.0001234922028327326,-2.4258134188492875e-05,-1.4462431239037343e-05,-0.0005332668975337321,0.00033820465968117496,-0.0010686589435815002,0.0003094351754351006,2.6075514567327533e-06,0.000472963505477917,0.00021444072990194597,-0.03342324495315552,18.229516983032227,-0.9934418201446533,-18.099092483520508,-0.4809470772743225,-2.2946200370788574,0.26217979192733765,0
4,0.014981746673583984,0.03342324495315552,-18.229516983032227,0.9934418201446533,18.099092483520508,0.4809470772743225,2.2946200370788574,-0.26217979192733765,0.0,0.0,0.0,0.0,0.0,0.0,0.0,0.026146510759480462,0.4262394845387084,0.20759544424018755,0.4568449007495021,0.054182801362374994,0.10174095186597741,-0.2821860252279021,-0.6091117289818291,-0.05764477733875576,-0.6665205137269539,-2.5944521986978097,-0.05574493161837273,2.5080002853579875,0.8763253111358805,-0.6090851748156966,-0.05753196718556838,-0.666603097082616,-2.5945565370258534,-0.05562143941554,2.507976027223799,0.8763108487046415,0.0005332668975337321,-0.00033820465968117496,0.0010686589435815002,-0.0003094351754351006,-2.6075514567327533e-06,-0.000472963505477917,-0.00021444072990194597,0.0,0.0,0.0,0.0,0.0,0.0,0.0,2.6554166132508605e-05,0.00011281015318737736,-8.258335566213582e-05,-0.00010433832804368492,0.0001234922028327326,-2.4258134188492875e-05,-1.4462431239037343e-05,-0.0005332668975337321,0.00033820465968117496,-0.0010686589435815002,0.0003094351754351006,2.6075514567327533e-06,0.000472963505477917,0.00021444072990194597,-0.03342324495315552,18.229516983032227,-0.9934418201446533,-18.099092483520508,-0.4809470772743225,-2.2946200370788574,0.26217979192733765,0
5,0.01998162269592285,0.05722695589065552,-18.229516983032227,1.0172455310821533,18.122896194458008,0.4690452218055725,2.2882113456726074,-0.24844686686992645,0.0,0.0,0.0,0.0,0.0,0.0,0.0,0.02926302540339782,0.42572056050211254,0.2085754702623523,0.45887191469077826,0.054774572672055155,0.1019158044723686,-0.28145744254498617,-0.6091134077312338,-0.05764477733875576,-0.6665221841628092,-2.5944538691336647,-0.05574148015991286,2.508000997596316,0.876323767812814,-0.6090851748156966,-0.05753196718556838,-0.666603097082616,-2.5945565370258534,-0.05562143941554,2.507976027223799,0.8763108487046415,-0.0007999528898071099,-0.00023089131972354326,0.00045250299430737604,-0.0005611437107325913,0.00025333349582039647,-0.00020490106381370433,-0.0017116273948954556,0.0,0.0,0.0,0.0,0.0,0.0,0.0,2.8232915537218517e-05,0.00011281015318737736,-8.091291980683035e-05,-0.00010266789218871253,0.00012004074437285683,-2.4970372516808226e-05,-1.2919108172471105e-05,0.0007999528898071099,0.00023089131972354326,-0.00045250299430737604,0.0005611437107325913,-0.00025333349582039647,0.00020490106381370433,0.0017116273948954556,-0.05722695589065552,18.229516983032227,-1.0172455310821533,-18.122896194458008,-0.4690452218055725,-2.2882113456726074,0.24844686686992645,0
6,0.024981260299682617,0.05722695589065552,-18.229516983032227,1.0172455310821533,18.122896194458008,0.4690452218055725,2.2882113456726074,-0.24844686686992645,0.0,0.0,0.0,0.0,0.0,0.0,0.0,0.02926302540339782,0.42572056050211254,0.2085754702623523,0.45887191469077826,0.054774572672055155,0.1019158044723686,-0.28145744254498617,-0.6091134077312338,-0.05764477733875576,-0.6665221841628092,-2.5944538691336647,-0.05574148015991286,2.508000997596316,0.876323767812814,-0.6090851748156966,-0.05753196718556838,-0.666603097082616,-2.5945565370258534,-0.05562143941554,2.507976027223799,0.8763108487046415,-0.0007999528898071099,-0.00023089131972354326,0.00045250299430737604,-0.0005611437107325913,0.00025333349582039647,-0.00020490106381370433,-0.0017116273948954556,0.0,0.0,0.0,0.0,0.0,0.0,0.0,2.8232915537218517e-05,0.00011281015318737736,-8.091291980683035e-05,-0.00010266789218871253,0.00012004074437285683,-2.4970372516808226e-05,-1.2919108172471105e-05,0.0007999528898071099,0.00023089131972354326,-0.00045250299430737604,0.0005611437107325913,-0.00025333349582039647,0.00020490106381370433,0.0017116273948954556,-0.05722695589065552,18.229516983032227,-1.0172455310821533,-18.122896194458008,-0.4690452218055725,-2.2882113456726074,0.24844686686992645,0
7,0.029980182647705078,0.005652248859405518,-18.277124404907227,1.0172455310821533,18.122896194458008,0.4745383858680725,2.2753939628601074,-0.30337852239608765,0.0,0.0,0.0,0.0,0.0,0.0,0.0,0.038919949730401936,0.4277807634698193,0.2169612443014662,0.4598131051641143,0.05379379323122482,0.1016774968571269,-0.2809841988805439,-0.6091123016189026,-0.05764143646704523,-0.6665221841628092,-2.5944538691336647,-0.05574102735063045,2.5080024202964126,0.8763298713299963,-0.6090851748156966,-0.05753196718556838,-0.666603097082616,-2.5945565370258534,-0.05562143941554,2.507976027223799,0.8763108487046415,0.000759885862488476,0.0009832269344997929,0.000548606771655567,-0.0007425525244227662,-4.293597374201869e-05,0.00025824844984735347,0.0016646505704854212,0.0,0.0,0.0,0.0,0.0,0.0,0.0,2.7126803206045658e-05,0.0001094692814768497,-8.091291980683035e-05,-0.00010266789218871253,0.0001195879350904469,-2.639307261365076e-05,-1.9022625354803147e-05,-0.000759885862488476,-0.0009832269344997929,-0.000548606771655567,0.0007425525244227662,4.293597374201869e-05,-0.00025824844984735347,-0.0016646505704854212,-0.005652248859405518,18.277124404907227,-1.0172455310821533,-18.122896194458008,-0.4745383858680725,-2.2753939628601074,0.30337852239608765,0
8,0.0349884033203125,0.005652248859405518,-18.277124404907227,1.0172455310821533,18.122896194458008,0.4745383858680725,2.2753939628601074,-0.30337852239608765,0.0,0.0,0.0,0.0,0.0,0.0,0.0,0.038919949730401936,0.4277807634698193,0.2169612443014662,0.4598131051641143,0.05379379323122482,0.1016774968571269,-0.2809841988805439,-0.6091123016189026,-0.05764143646704523,-0.6665221841628092,-2.5944538691336647,-0.05574102735063045,2.5080024202964126,0.8763298713299963,-0.6090851748156966,-0.05753196718556838,-0.666603097082616,-2.5945565370258534,-0.05562143941554,2.507976027223799,0.8763108487046415,0.000759885862488476,0.0009832269344997929,0.000548606771655567,-0.0007425525244227662,-4.293597374201869e-05,0.00025824844984735347,0.0016646505704854212,0.0,0.0,0.0,0.0,0.0,0.0,0.0,2.7126803206045658e-05,0.0001094692814768497,-8.091291980683035e-05,-0.00010266789218871253,0.0001195879350904469,-2.639307261365076e-05,-1.9022625354803147e-05,-0.000759885862488476,-0.0009832269344997929,-0.000548606771655567,0.0007425525244227662,4.293597374201869e-05,-0.00025824844984735347,-0.0016646505704854212,-0.005652248859405518,18.277124404907227,-1.0172455310821533,-18.122896194458008,-0.4745383858680725,-2.2753939628601074,0.30337852239608765,0
9,0.03998589515686035,-0.04592245817184448,-18.229516983032227,0.9696381092071533,18.071321487426758,0.4745383858680725,2.2818026542663574,-0.28964561223983765,0.0,0.0,0.0,0.0,0.0,0.0,0.0,0.03157188495329624,0.4188835466671629,0.20892249623891393,0.46311305426713156,0.05417968970027331,0.10154321042123926,-0.27970217940046366,-0.6091077110973534,-0.05764477733875576,-0.6665188346243052,-2.5944502498559783,-0.055741025726009634,2.5080017046664587,0.8763283454510901,-0.6090851748156966,-0.05753196718556838,-0.666603097082616,-2.5945565370258534,-0.05562143941554,2.507976027223799,0.8763108487046415,0.001550570497492748,-0.0010946329177690425,0.0011127243789981027,0.0004694723443819786,4.625266347325765e-05,0.00028957375508450073,0.0003047353698510117,0.0,0.0,0.0,0.0,0.0,0.0,0.0,2.2536281656826418e-05,0.00011281015318737736,-8.426245831083534e-05,-0.00010628716987515219,0.00011958631046963403,-2.567744265968841e-05,-1.749674644857535e-05,-0.001550570497492748,0.0010946329177690425,-0.0011127243789981027,-0.0004694723443819786,-4.625266347325765e-05,-0.00028957375508450073,-0.0003047353698510117,0.04592245817184448,18.229516983032227,-0.9696381092071533,-18.071321487426758,-0.4745383858680725,-2.2818026542663574,0.28964561223983765,0
10,0.04498767852783203,-0.04592245817184448,-18.229516983032227,0.9696381092071533,18.071321487426758,0.4745383858680725,2.2818026542663574,-0.28964561223983765,0.0,0.0,0.0,0.0,0.0,0.0,0.0,0.03157188495329624,0.4188835466671629,0.20892249623891393,0.46311305426713156,0.05417968970027331,0.10154321042123926,-0.27970217940046366,-0.6091077110973534,-0.05764477733875576,-0.6665188346243052,-2.5944502498559783,-0.055741025726009634,2.5080017046664587,0.8763283454510901,-0.6090851748156966,-0.05753196718556838,-0.666603097082616,-2.5945565370258534,-0.05562143941554,2.507976027223799,0.8763108487046415,0.001550570497492748,-0.0010946329177690425,0.0011127243789981027,0.0004694723443819786,4.625266347325765e-05,0.00028957375508450073,0.0003047353698510117,0.0,0.0,0.0,0.0,0.0,0.0,0.0,2.2536281656826418e-05,0.00011281015318737736,-8.426245831083534e-05,-0.00010628716987515219,0.00011958631046963403,-2.567744265968841e-05,-1.749674644857535e-05,-0.001550570497492748,0.0010946329177690425,-0.0011127243789981027,-0.0004694723443819786,-4.625266347325765e-05,-0.00028957375508450073,-0.0003047353698510117,0.04592245817184448,18.229516983032227,-0.9696381092071533,-18.071321487426758,-0.4745383858680725,-2.2818026542663574,0.28964561223983765,0
11,0.050473928451538086,-0.04592245817184448,-18.277124404907227,0.9934418201446533,18.047517776489258,0.4809470772743225,2.2882113456726074,-0.24844686686992645,0.0,0.0,0.0,0.0,0.0,0.0,0.0,0.02593336498049274,0.4227835587437241,0.2075746240870498,0.4586874613641502,0.05422088428205386,0.10100155853334272,-0.28001884239024666,-0.6091078460365147,-0.05764143646704523,-0.6665205137269049,-2.5944485794201233,-0.05574173780282338,2.508000984352831,0.8763234131464555,-0.6090851748156966,-0.05753196718556838,-0.666603097082616,-2.5945565370258534,-0.05562143941554,2.507976027223799,0.8763108487046415,0.0008180783443763909,0.0007596340233278669,0.0001316527901059,0.0009406266126709736,-5.780596963255619e-05,-0.00010233000064390655,-0.0012717428099668,0.0,0.0,0.0,0.0,0.0,0.0,0.0,2.2671220818115678e-05,0.0001094692814768497,-8.258335571109665e-05,-0.00010795760573012458,0.00012029838728337683,-2.4957129031832892e-05,-1.2564441813966987e-05,-0.0008180783443763909,-0.0007596340233278669,-0.0001316527901059,-0.0009406266126709736,5.780596963255619e-05,0.00010233000064390655,0.0012717428099668,0.04592245817184448,18.277124404907227,-0.9934418201446533,-18.047517776489258,-0.4809470772743225,-2.2882113456726074,0.24844686686992645,0
12,0.054985761642456055,-0.04592245817184448,-18.277124404907227,0.9934418201446533,18.047517776489258,0.4809470772743225,2.2882113456726074,-0.24844686686992645,0.0,0.0,0.0,0.0,0.0,0.0,0.0,0.02593336498049274,0.4227835587437241,0.2075746240870498,0.4586874613641502,0.05422088428205386,0.10100155853334272,-0.28001884239024666,-0.6091078460365147,-0.05764143646704523,-0.6665205137269049,-2.5944485794201233,-0.05574173780282338,2.508000984352831,0.8763234131464555,-0.6090851748156966,-0.05753196718556838,-0.666603097082616,-2.5945565370258534,-0.05562143941554,2.507976027223799,0.8763108487046415,0.0008180783443763909,0.0007596340233278669,0.0001316527901059,0.0009406266126709736,-5.780596963255619e-05,-0.00010233000064390655,-0.0012717428099668,0.0,0.0,0.0,0.0,0.0,0.0,0.0,2.2671220818115678e-05,0.0001094692814768497,-8.258335571109665e-05,-0.00010795760573012458,0.00012029838728337683,-2.4957129031832892e-05,-1.2564441813966987e-05,-0.0008180783443763909,-0.0007596340233278669,-0.0001316527901059,-0.0009406266126709736,5.780596963255619e-05,0.00010233000064390655,0.0012717428099668,0.04592245817184448,18.277124404907227,-0.9934418201446533,-18.047517776489258,-0.4809470772743225,-2.2882113456726074,0.24844686686992645,0
13,0.0599822998046875,-0.018151462078094482,-18.253320693969727,1.0172455310821533,18.071321487426758,0.4864402413368225,2.2882113456726074,-0.26858848333358765,0.0,0.0,0.0,0.0,0.0,0.0,0.0,0.01712893202305413,0.4258428905054454,0.2043303064562752,0.4561546173343209,0.053877509427801146,0.10086043882603378,-0.2802673333856937,-0.6091098205282129,-0.0576431069029005,-0.6665221841628092,-2.5944502498559783,-0.05574238763829502,2.508000997596242,0.8763260057680983,-0.6090851748156966,-0.05753196718556838,-0.666603097082616,-2.5945565370258534,-0.05562143941554,2.507976027223799,0.8763108487046415,-8.8843234883367e-05,0.0004957297501259685,-0.0006822791329580872,0.00015620765531461264,-0.0003136870754439649,-0.00013375256403501265,-0.00043287026920912783,0.0,0.0,0.0,0.0,0.0,0.0,0.0,2.4645712516369045e-05,0.00011113971733211353,-8.091291980683035e-05,-0.00010628716987515219,0.00012094822275501849,-2.4970372443089417e-05,-1.5157063456783249e-05,8.8843234883367e-05,-0.0004957297501259685,0.0006822791329580872,-0.00015620765531461264,0.0003136870754439649,0.00013375256403501265,0.00043287026920912783,0.018151462078094482,18.253320693969727,-1.0172455310821533,-18.071321487426758,-0.4864402413368225,-2.2882113456726074,0.26858848333358765,0
14,0.06498122215270996,-0.018151462078094482,-18.253320693969727,1.0172455310821533,18.071321487426758,0.4864402413368225,2.2882113456726074,-0.26858848333358765,0.0,0.0,0.0,0.0,0.0,0.0,0.0,0.01712893202305413,0.4258428905054454,0.2043303064562752,0.4561546173343209,0.053877509427801146,0.10086043882603378,-0.2802673333856937,-0.6091098205282129,-0.0576431069029005,-0.6665221841628092,-2.5944502498559783,-0.05574238763829502,2.508000997596242,0.8763260057680983,-0.6090851748156966,-0.05753196718556838,-0.666603097082616,-2.5945565370258534,-0.05562143941554,2.507976027223799,0.8763108487046415,-8.8843234883367e-05,0.0004957297501259685,-0.0006822791329580872,0.00015620765531461264,-0.0003136870754439649,-0.00013375256403501265,-0.00043287026920912783,0.0,0.0,0.0,0.0,0.0,0.0,0.0,2.4645712516369045e-05,0.00011113971733211353,-8.091291980683035e-05,-0.00010628716987515219,0.00012094822275501849,-2.4970372443089417e-05,-1.5157063456783249e-05,8.8843234883367e-05,-0.0004957297501259685,0.0006822791329580872,-0.00015620765531461264,0.0003136870754439649,0.00013375256403501265,0.00043287026920912783,0.018151462078094482,18.253320693969727,-1.0172455310821533,-18.071321487426758,-0.4864402413368225,-2.2882113456726074,0.26858848333358765,0
15,0.06998610496520996,0.03342324495315552,-18.229516983032227,1.0172455310821533,18.122896194458008,0.4809470772743225,2.2753939628601074,-0.31711143255233765,0.0,0.0,0.0,0.0,0.0,0.0,0.0,0.019203715685795635,0.4236067600420129,0.2057461136280154,0.4546627043513195,0.053545196863187094,0.10155539508864495,-0.2809566813758453,-0.6091112466039694,-0.05764477733875576,-0.6665221841628092,-2.5944538691336647,-0.0557431572766237,2.508002382450271,0.8763313972089024,-0.6090851748156966,-0.05753196718556838,-0.666603097082616,-2.5945565370258534,-0.05562143941554,2.507976027223799,0.8763108487046415,-0.00027242685743082137,-0.00041069204263136447,-7.50270168491244e-05,-0.0013886177742674427,0.00014182380624954804,0.000523108230750521,-0.005926705791358158,0.0,0.0,0.0,0.0,0.0,0.0,0.0,2.607178827285228e-05,0.00011281015318737736,-8.091291980683035e-05,-0.00010266789218871253,0.00012171786108369775,-2.6355226471874715e-05,-2.054850426091992e-05,0.00027242685743082137,0.00041069204263136447,7.50270168491244e-05,0.0013886177742674427,-0.00014182380624954804,-0.000523108230750521,0.005926705791358158,-0.03342324495315552,18.229516983032227,-1.0172455310821533,-18.122896194458008,-0.4809470772743225,-2.2753939628601074,0.31711143255233765,0
16,0.07498002052307129,0.03342324495315552,-18.229516983032227,1.0172455310821533,18.122896194458008,0.4809470772743225,2.2753939628601074,-0.31711143255233765,0.0,0.0,0.0,0.0,0.0,0.0,0.0,0.019203715685795635,0.4236067600420129,0.2057461136280154,0.4546627043513195,0.053545196863187094,0.10155539508864495,-0.2809566813758453,-0.6091112466039694,-0.05764477733875576,-0.6665221841628092,-2.5944538691336647,-0.0557431572766237,2.508002382450271,0.8763313972089024,-0.6090851748156966,-0.05753196718556838,-0.666603097082616,-2.5945565370258534,-0.05562143941554,2.507976027223799,0.8763108487046415,-0.00027242685743082137,-0.00041069204263136447,-7.50270168491244e-05,-0.0013886177742674427,0.00014182380624954804,0.000523108230750521,-0.005926705791358158,0.0,0.0,0.0,0.0,0.0,0.0,0.0,2.607178827285228e-05,0.00011281015318737736,-8.091291980683035e-05,-0.00010266789218871253,0.00012171786108369775,-2.6355226471874715e-05,-2.054850426091992e-05,0.00027242685743082137,0.00041069204263136447,7.50270168491244e-05,0.0013886177742674427,-0.00014182380624954804,-0.000523108230750521,0.005926705791358158,-0.03342324495315552,18.229516983032227,-1.0172455310821533,-18.122896194458008,-0.4809470772743225,-2.2753939628601074,0.31711143255233765,0
17,0.07998156547546387,0.08103066682815552,-18.277124404907227,1.0410492420196533,18.099092483520508,0.4809470772743225,2.2946200370788574,-0.31711143255233765,0.0,0.0,0.0,0.0,0.0,0.0,0.0,0.02099682999409615,0.422713338229123,0.2046283188144005,0.4538104196844725,0.05356805192692896,0.10211982932450432,-0.28181816692239364,-0.6091172665179084,-0.05764143646704523,-0.6665238545986644,-2.5944521986978097,-0.05574173829762427,2.508000285519272,0.8763313972089024,-0.6090851748156966,-0.05753196718556838,-0.666603097082616,-2.5945565370258534,-0.05562143941554,2.507976027223799,0.8763108487046415,-0.000695918311812431,0.0007323212999561702,0.0001229723266928825,-0.0007414193778386707,-0.000173750554108187,-0.00016983808818080235,0.0013058913389940735,0.0,0.0,0.0,0.0,0.0,0.0,0.0,3.209170221185609e-05,0.0001094692814768497,-7.924248395163591e-05,-0.00010433832804368492,0.00012029888208427153,-2.4258295472812108e-05,-2.054850426091992e-05,0.000695918311812431,-0.0007323212999561702,-0.0001229723266928825,0.0007414193778386707,0.000173750554108187,0.00016983808818080235,-0.0013058913389940735,-0.08103066682815552,18.277124404907227,-1.0410492420196533,-18.099092483520508,-0.4809470772743225,-2.2946200370788574,0.31711143255233765,0
18,0.08498215675354004,0.08103066682815552,-18.277124404907227,1.0410492420196533,18.099092483520508,0.4809470772743225,2.2946200370788574,-0.31711143255233765,0.0,0.0,0.0,0.0,0.0,0.0,0.0,0.02099682999409615,0.422713338229123,0.2046283188144005,0.4538104196844725,0.05356805192692896,0.10211982932450432,-0.28181816692239364,-0.6091172665179084,-0.05764143646704523,-0.6665238545986644,-2.5944521986978097,-0.05574173829762427,2.508000285519272,0.8763313972089024,-0.6090851748156966,-0.05753196718556838,-0.666603097082616,-2.5945565370258534,-0.05562143941554,2.507976027223799,0.8763108487046415,-0.000695918311812431,0.0007323212999561702,0.0001229723266928825,-0.0007414193778386707,-0.000173750554108187,-0.00016983808818080235,0.0013058913389940735,0.0,0.0,0.0,0.0,0.0,0.0,0.0,3.209170221185609e-05,0.0001094692814768497,-7.924248395163591e-05,-0.00010433832804368492,0.00012029888208427153,-2.4258295472812108e-05,-2.054850426091992e-05,0.000695918311812431,-0.0007323212999561702,-0.0001229723266928825,0.0007414193778386707,0.000173750554108187,0.00016983808818080235,-0.0013058913389940735,-0.08103066682815552,18.277124404907227,-1.0410492420196533,-18.099092483520508,-0.4809470772743225,-2.2946200370788574,0.31711143255233765,0
19,0.09223151206970215,0.08103066682815552,-18.277124404907227,1.0410492420196533,18.099092483520508,0.4809470772743225,2.2946200370788574,-0.31711143255233765,0.0,0.0,0.0,0.0,0.0,0.0,0.0,0.02099682999409615,0.422713338229123,0.2046283188144005,0.4538104196844725,0.05356805192692896,0.10211982932450432,-0.28181816692239364,-0.6091172665179084,-0.05764143646704523,-0.6665238545986644,-2.5944521986978097,-0.05574173829762427,2.508000285519272,0.8763313972089024,-0.6090851748156966,-0.05753196718556838,-0.666603097082616,-2.5945565370258534,-0.05562143941554,2.507976027223799,0.8763108487046415,-0.000695918311812431,0.0007323212999561702,0.0001229723266928825,-0.0007414193778386707,-0.000173750554108187,-0.00016983808818080235,0.0013058913389940735,0.0,0.0,0.0,0.0,0.0,0.0,0.0,3.209170221185609e-05,0.0001094692814768497,-7.924248395163591e-05,-0.00010433832804368492,0.00012029888208427153,-2.4258295472812108e-05,-2.054850426091992e-05,0.000695918311812431,-0.0007323212999561702,-0.0001229723266928825,0.0007414193778386707,0.000173750554108187,0.00016983808818080235,-0.0013058913389940735,-0.08103066682815552,18.277124404907227,-1.0410492420196533,-18.099092483520508,-0.4809470772743225,-2.2946200370788574,0.31711143255233765,0
20,0.09497952461242676,0.08103066682815552,-18.277124404907227,1.0410492420196533,18.099092483520508,0.4809470772743225,2.2946200370788574,-0.31711143255233765,0.0,0.0,0.0,0.0,0.0,0.0,0.0,0.02099682999409615,0.422713338229123,0.2046283188144005,0.4538104196844725,0.05356805192692896,0.10211982932450432,-0.28181816692239364,-0.6091172665179084,-0.05764143646704523,-0.6665238545986644,-2.5944521986978097,-0.05574173829762427,2.508000285519272,0.8763313972089024,-0.6090851748156966,-0.05753196718556838,-0.666603097082616,-2.5945565370258534,-0.05562143941554,2.507976027223799,0.8763108487046415,-0.000695918311812431,0.0007323212999561702,0.0001229723266928825,-0.0007414193778386707,-0.000173750554108187,-0.00016983808818080235,0.0013058913389940735,0.0,0.0,0.0,0.0,0.0,0.0,0.0,3.209170221185609e-05,0.0001094692814768497,-7.924248395163591e-05,-0.00010433832804368492,0.00012029888208427153,-2.4258295472812108e-05,-2.054850426091992e-05,0.000695918311812431,-0.0007323212999561702,-0.0001229723266928825,0.0007414193778386707,0.000173750554108187,0.00016983808818080235,-0.0013058913389940735,-0.08103066682815552,18.277124404907227,-1.0410492420196533,-18.099092483520508,-0.4809470772743225,-2.2946200370788574,0.31711143255233765,0
21,0.09497952461242676,0.08103066682815552,-18.277124404907227,1.0410492420196533,18.099092483520508,0.4809470772743225,2.2946200370788574,-0.31711143255233765,0.0,0.0,0.0,0.0,0.0,0.0,0.0,0.02099682999409615,0.422713338229123,0.2046283188144005,0.4538104196844725,0.05356805192692896,0.10211982932450432,-0.28181816692239364,-0.6091172665179084,-0.05764143646704523,-0.6665238545986644,-2.5944521986978097,-0.05574173829762427,2.508000285519272,0.8763313972089024,-0.6090851748156966,-0.05753196718556838,-0.666603097082616,-2.5945565370258534,-0.05562143941554,2.507976027223799,0.8763108487046415,-0.000695918311812431,0.0007323212999561702,0.0001229723266928825,-0.0007414193778386707,-0.000173750554108187,-0.00016983808818080235,0.0013058913389940735,0.0,0.0,0.0,0.0,0.0,0.0,0.0,3.209170221185609e-05,0.0001094692814768497,-7.924248395163591e-05,-0.00010433832804368492,0.00012029888208427153,-2.4258295472812108e-05,-2.054850426091992e-05,0.000695918311812431,-0.0007323212999561702,-0.0001229723266928825,0.0007414193778386707,0.000173750554108187,0.00016983808818080235,-0.0013058913389940735,-0.08103066682815552,18.277124404907227,-1.0410492420196533,-18.099092483520508,-0.4809470772743225,-2.2946200370788574,0.31711143255233765,0
22,0.10499954223632812,0.10880166292190552,-18.229516983032227,0.9934418201446533,18.099092483520508,0.4745383858680725,2.2753939628601074,-0.26217979192733765,0.0,0.0,0.0,0.0,0.0,0.0,0.0,0.030403231502528154,0.42766987131813883,0.21086216616779066,0.4507007153226488,0.05313350677140065,0.10157831280468214,-0.2828003041263457,-0.6091195398417191,-0.05764477733875576,-0.6665205137269539,-2.5944521986978097,-0.05574435097629168,2.50800240721446,0.8763252936932775,-0.6090851748156966,-0.05753196718556838,-0.666603097082616,-2.5945565370258534,-0.05562143941554,2.507976027223799,0.8763108487046415,-0.0010386400277391243,0.0001704200557318296,0.002326197985543391,-0.0005044886943385731,0.0001986002705485647,0.00031917881585999587,-0.0008754451677572443,0.0,0.0,0.0,0.0,0.0,0.0,0.0,3.4365026022498135e-05,0.00011281015318737736,-8.258335566213582e-05,-0.00010433832804368492,0.00012291156075167758,-2.6379990661240527e-05,-1.4444988636008738e-05,0.0010386400277391243,-0.0001704200557318296,-0.002326197985543391,0.0005044886943385731,-0.0001986002705485647,-0.00031917881585999587,0.0008754451677572443,-0.10880166292190552,18.229516983032227,-0.9934418201446533,-18.099092483520508,-0.4745383858680725,-2.2753939628601074,0.26217979192733765,0
23,0.10999441146850586,0.10880166292190552,-18.229516983032227,0.9934418201446533,18.099092483520508,0.4745383858680725,2.2753939628601074,-0.26217979192733765,0.0,0.0,0.0,0.0,0.0,0.0,0.0,0.030403231502528154,0.42766987131813883,0.21086216616779066,0.4507007153226488,0.05313350677140065,0.10157831280468214,-0.2828003041263457,-0.6091195398417191,-0.05764477733875576,-0.6665205137269539,-2.5944521986978097,-0.05574435097629168,2.50800240721446,0.8763252936932775,-0.6090851748156966,-0.05753196718556838,-0.666603097082616,-2.5945565370258534,-0.05562143941554,2.507976027223799,0.8763108487046415,-0.0010386400277391243,0.0001704200557318296,0.002326197985543391,-0.0005044886943385731,0.0001986002705485647,0.00031917881585999587,-0.0008754451677572443,0.0,0.0,0.0,0.0,0.0,0.0,0.0,3.4365026022498135e-05,0.00011281015318737736,-8.258335566213582e-05,-0.00010433832804368492,0.00012291156075167758,-2.6379990661240527e-05,-1.4444988636008738e-05,0.0010386400277391243,-0.0001704200557318296,-0.002326197985543391,0.0005044886943385731,-0.0001986002705485647,-0.00031917881585999587,0.0008754451677572443,-0.10880166292190552,18.229516983032227,-0.9934418201446533,-18.099092483520508,-0.4745383858680725,-2.2753939628601074,0.26217979192733765,0
24,0.11499404907226562,0.05722695589065552,-18.229516983032227,1.0410492420196533,18.071321487426758,0.4745383858680725,2.2882113456726074,-0.25485557317733765,0.0,0.0,0.0,0.0,0.0,0.0,0.0,0.031916101698601665,0.4243088938802593,0.2144670652067228,0.453956562506045,0.053160419610738946,0.10204406833136495,-0.2818926330266451,-0.6091159210246879,-0.05764477733875576,-0.6665238545986644,-2.5944502498559783,-0.05574103017995043,2.5079998202205354,0.8763244798911941,-0.6090851748156966,-0.05753196718556838,-0.666603097082616,-2.5945565370258534,-0.05562143941554,2.507976027223799,0.8763108487046415,-0.0002622551796854317,-0.00016085169739645698,0.00027660317233466146,0.00034270351981280904,2.00952289677977e-05,-0.00018991855329697924,-0.001533929232644083,0.0,0.0,0.0,0.0,0.0,0.0,0.0,3.0746208991350166e-05,0.00011281015318737736,-7.924248395163591e-05,-0.00010628716987515219,0.00011959076441043354,-2.3792996736382577e-05,-1.3631186552620633e-05,0.0002622551796854317,0.00016085169739645698,-0.00027660317233466146,-0.00034270351981280904,-2.00952289677977e-05,0.00018991855329697924,0.001533929232644083,-0.05722695589065552,18.229516983032227,-1.0410492420196533,-18.071321487426758,-0.4745383858680725,-2.2882113456726074,0.25485557317733765,0
25,0.11998701095581055,0.05722695589065552,-18.229516983032227,1.0410492420196533,18.071321487426758,0.4745383858680725,2.2882113456726074,-0.25485557317733765,0.0,0.0,0.0,0.0,0.0,0.0,0.0,0.031916101698601665,0.4243088938802593,0.2144670652067228,0.453956562506045,0.053160419610738946,0.10204406833136495,-0.2818926330266451,-0.6091159210246879,-0.05764477733875576,-0.6665238545986644,-2.5944502498559783,-0.05574103017995043,2.5079998202205354,0.8763244798911941,-0.6090851748156966,-0.05753196718556838,-0.666603097082616,-2.5945565370258534,-0.05562143941554,2.507976027223799,0.8763108487046415,-0.0002622551796854317,-0.00016085169739645698,0.00027660317233466146,0.00034270351981280904,2.00952289677977e-05,-0.00018991855329697924,-0.001533929232644083,0.0,0.0,0.0,0.0,0.0,0.0,0.0,3.0746208991350166e-05,0.00011281015318737736,-7.924248395163591e-05,-0.00010628716987515219,0.00011959076441043354,-2.3792996736382577e-05,-1.3631186552620633e-05,0.0002622551796854317,0.00016085169739645698,-0.00027660317233466146,-0.00034270351981280904,-2.00952289677977e-05,0.00018991855329697924,0.001533929232644083,-0.05722695589065552,18.229516983032227,-1.0410492420196533,-18.071321487426758,-0.4745383858680725,-2.2882113456726074,0.25485557317733765,0
26,0.12506508827209473,0.005652248859405518,-18.277124404907227,1.0172455310821533,18.047517776489258,0.4864402413368225,2.2882113456726074,-0.31711143255233765,0.0,0.0,0.0,0.0,0.0,0.0,0.0,0.03717359225671001,0.4260617532142992,0.22118885222665507,0.44923582355758657,0.052546316327596466,0.10179379841275131,-0.2813259994676219,-0.6091115461532286,-0.05764143646704523,-0.6665221841628092,-2.5944485794201233,-0.055742466461888227,2.5080005266438214,0.8763313972089024,-0.6090851748156966,-0.05753196718556838,-0.666603097082616,-2.5945565370258534,-0.05562143941554,2.507976027223799,0.8763108487046415,0.0005129811224717856,0.0008025402276217903,0.0007455164477581076,0.0005410439722775537,-0.0002927820790636174,-8.525697992635876e-05,0.0013644095940167687,0.0,0.0,0.0,0.0,0.0,0.0,0.0,2.637133753202736e-05,0.0001094692814768497,-8.091291980683035e-05,-0.00010795760573012458,0.00012102704634822659,-2.4499420022472407e-05,-2.054850426091992e-05,-0.0005129811224717856,-0.0008025402276217903,-0.0007455164477581076,-0.0005410439722775537,0.0002927820790636174,8.525697992635876e-05,-0.0013644095940167687,-0.005652248859405518,18.277124404907227,-1.0172455310821533,-18.047517776489258,-0.4864402413368225,-2.2882113456726074,0.31711143255233765,0
27,0.12998199462890625,0.005652248859405518,-18.277124404907227,1.0172455310821533,18.047517776489258,0.4864402413368225,2.2882113456726074,-0.31711143255233765,0.0,0.0,0.0,0.0,0.0,0.0,0.0,0.03717359225671001,0.4260617532142992,0.22118885222665507,0.44923582355758657,0.052546316327596466,0.10179379841275131,-0.2813259994676219,-0.6091115461532286,-0.05764143646704523,-0.6665221841628092,-2.5944485794201233,-0.055742466461888227,2.5080005266438214,0.8763313972089024,-0.6090851748156966,-0.05753196718556838,-0.666603097082616,-2.5945565370258534,-0.05562143941554,2.507976027223799,0.8763108487046415,0.0005129811224717856,0.0008025402276217903,0.0007455164477581076,0.0005410439722775537,-0.0002927820790636174,-8.525697992635876e-05,0.0013644095940167687,0.0,0.0,0.0,0.0,0.0,0.0,0.0,2.637133753202736e-05,0.0001094692814768497,-8.091291980683035e-05,-0.00010795760573012458,0.00012102704634822659,-2.4499420022472407e-05,-2.054850426091992e-05,-0.0005129811224717856,-0.0008025402276217903,-0.0007455164477581076,-0.0005410439722775537,0.0002927820790636174,8.525697992635876e-05,-0.0013644095940167687,-0.005652248859405518,18.277124404907227,-1.0172455310821533,-18.047517776489258,-0.4864402413368225,-2.2882113456726074,0.31711143255233765,0
28,0.13498139381408691,-0.04592245817184448,-18.253320693969727,1.0172455310821533,18.099092483520508,0.4690452218055725,2.2882113456726074,-0.28232139348983765,0.0,0.0,0.0,0.0,0.0,0.0,0.0,0.031278299451703045,0.4265461397753425,0.21909728405293843,0.44863916045666946,0.05265964987595602,0.10151301492553624,-0.2813791278392342,-0.6091079404915811,-0.0576431069029005,-0.6665221841628092,-2.5944521986978097,-0.05574042045933521,2.508000995924767,0.8763275316490067,-0.6090851748156966,-0.05753196718556838,-0.666603097082616,-2.5945565370258534,-0.05562143941554,2.507976027223799,0.8763108487046415,0.0008542840280182847,-3.1972556709610095e-06,-0.00021402475511078268,-0.0006238835338939523,0.00026693040829964314,-0.00048562816532869837,-0.00028017338533060525,0.0,0.0,0.0,0.0,0.0,0.0,0.0,2.2765675884550696e-05,0.00011113971733211353,-8.091291980683035e-05,-0.00010433832804368492,0.00011898104379520769,-2.4968700968130975e-05,-1.6682944365187247e-05,-0.0008542840280182847,3.1972556709610095e-06,0.00021402475511078268,0.0006238835338939523,-0.00026693040829964314,0.00048562816532869837,0.00028017338533060525,0.04592245817184448,18.253320693969727,-1.0172455310821533,-18.099092483520508,-0.4690452218055725,-2.2882113456726074,0.28232139348983765,0
29,0.13998198509216309,-0.04592245817184448,-18.253320693969727,1.0172455310821533,18.099092483520508,0.4690452218055725,2.2882113456726074,-0.28232139348983765,0.0,0.0,0.0,0.0,0.0,0.0,0.0,0.031278299451703045,0.4265461397753425,0.21909728405293843,0.44863916045666946,0.05265964987595602,0.10151301492553624,-0.2813791278392342,-0.6091079404915811,-0.0576431069029005,-0.6665221841628092,-2.5944521986978097,-0.05574042045933521,2.508000995924767,0.8763275316490067,-0.6090851748156966,-0.05753196718556838,-0.666603097082616,-2.5945565370258534,-0.05562143941554,2.507976027223799,0.8763108487046415,0.0008542840280182847,-3.1972556709610095e-06,-0.00021402475511078268,-0.0006238835338939523,0.00026693040829964314,-0.00048562816532869837,-0.00028017338533060525,0.0,0.0,0.0,0.0,0.0,0.0,0.0,2.2765675884550696e-05,0.00011113971733211353,-8.091291980683035e-05,-0.00010433832804368492,0.00011898104379520769,-2.4968700968130975e-05,-1.6682944365187247e-05,-0.0008542840280182847,3.1972556709610095e-06,0.00021402475511078268,0.0006238835338939523,-0.00026693040829964314,0.00048562816532869837,0.00028017338533060525,0.04592245817184448,18.253320693969727,-1.0172455310821533,-18.099092483520508,-0.4690452218055725,-2.2882113456726074,0.28232139348983765,0
30,0.14497923851013184,-0.04592245817184448,-18.229516983032227,1.0172455310821533,18.099092483520508,0.4745383858680725,2.2882113456726074,-0.27591270208358765,0.0,0.0,0.0,0.0,0.0,0.0,0.0,-0.0009025176963137989,0.42783067134788,0.19103474385056285,0.4468254023852733,0.05340466911125589,0.10025704564305307,-0.28088629645891083,-0.6091076840006041,-0.05764477733875576,-0.6665221061616691,-2.5944521986978097,-0.05574114401549395,2.5080009932356564,0.8763268195721837,-0.6090851748156966,-0.05753196718556838,-0.666603097082616,-2.5945565370258534,-0.05562143941554,2.507976027223799,0.8763108487046415,0.0009176744099165848,2.183041637025256e-05,0.0024487471714922256,-0.0007155263028074679,0.00015737507053875552,-0.00011477720064432978,-0.00012757858753215101,0.0,0.0,0.0,0.0,0.0,0.0,0.0,2.2509184907537616e-05,0.00011281015318737736,-8.099092094693283e-05,-0.00010433832804368492,0.00011970459995395283,-2.496601185741909e-05,-1.5970867542236533e-05,-0.0009176744099165848,-2.183041637025256e-05,-0.0024487471714922256,0.0007155263028074679,-0.00015737507053875552,0.00011477720064432978,0.00012757858753215101,0.04592245817184448,18.229516983032227,-1.0172455310821533,-18.099092483520508,-0.4745383858680725,-2.2882113456726074,0.27591270208358765,0
31,0.149979829788208,-0.04592245817184448,-18.229516983032227,1.0172455310821533,18.099092483520508,0.4745383858680725,2.2882113456726074,-0.27591270208358765,0.0,0.0,0.0,0.0,0.0,0.0,0.0,-0.0009025176963137989,0.42783067134788,0.19103474385056285,0.4468254023852733,0.05340466911125589,0.10025704564305307,-0.28088629645891083,-0.6091076840006041,-0.05764477733875576,-0.6665221061616691,-2.5944521986978097,-0.05574114401549395,2.5080009932356564,0.8763268195721837,-0.6090851748156966,-0.05753196718556838,-0.666603097082616,-2.5945565370258534,-0.05562143941554,2.507976027223799,0.8763108487046415,0.0009176744099165848,2.183041637025256e-05,0.0024487471714922256,-0.0007155263028074679,0.00015737507053875552,-0.00011477720064432978,-0.00012757858753215101,0.0,0.0,0.0,0.0,0.0,0.0,0.0,2.2509184907537616e-05,0.00011281015318737736,-8.099092094693283e-05,-0.00010433832804368492,0.00011970459995395283,-2.496601185741909e-05,-1.5970867542236533e-05,-0.0009176744099165848,-2.183041637025256e-05,-0.0024487471714922256,0.0007155263028074679,-0.00015737507053875552,0.00011477720064432978,0.00012757858753215101,0.04592245817184448,18.229516983032227,-1.0172455310821533,-18.099092483520508,-0.4745383858680725,-2.2882113456726074,0.27591270208358765,0
32,0.15497994422912598,-0.018151462078094482,-18.253320693969727,0.9934418201446533,18.071321487426758,0.4928489327430725,2.2946200370788574,-0.27591270208358765,0.0,0.0,0.0,0.0,0.0,0.0,0.0,0.010948538716816576,0.42288905183778974,0.20281843937486232,0.45136695244998054,0.052839626007364596,0.10119445801472618,-0.2815940890310966,-0.609109812754842,-0.0576431069029005,-0.6665205137265136,-2.5944502577051494,-0.05574309966169814,2.5079971066050812,0.8763268195721837,-0.6090851748156966,-0.05753196718556838,-0.666603097082616,-2.5945565370258534,-0.05562143941554,2.507976027223799,0.8763108487046415,0.0010873710458668675,0.0001906749216972937,0.0002520841132047394,0.0002515164713504953,-0.0006598245965704282,-0.00025324923567857717,-0.0005385170358144437,0.0,0.0,0.0,0.0,0.0,0.0,0.0,2.4637939145422116e-05,0.00011113971733211353,-8.258335610245027e-05,-0.00010627932070406132,0.00012166024615813814,-2.1079381282262943e-05,-1.5970867542236533e-05,-0.0010873710458668675,-0.0001906749216972937,-0.0002520841132047394,-0.0002515164713504953,0.0006598245965704282,0.00025324923567857717,0.0005385170358144437,0.018151462078094482,18.253320693969727,-0.9934418201446533,-18.071321487426758,-0.4928489327430725,-2.2946200370788574,0.27591270208358765,0
33,0.15998029708862305,-0.018151462078094482,-18.253320693969727,0.9934418201446533,18.071321487426758,0.4928489327430725,2.2946200370788574,-0.27591270208358765,0.0,0.0,0.0,0.0,0.0,0.0,0.0,0.010948538716816576,0.42288905183778974,0.20281843937486232,0.45136695244998054,0.052839626007364596,0.10119445801472618,-0.2815940890310966,-0.609109812754842,-0.0576431069029005,-0.6665205137265136,-2.5944502577051494,-0.05574309966169814,2.5079971066050812,0.8763268195721837,-0.6090851748156966,-0.05753196718556838,-0.666603097082616,-2.5945565370258534,-0.05562143941554,2.507976027223799,0.8763108487046415,0.0010873710458668675,0.0001906749216972937,0.0002520841132047394,0.0002515164713504953,-0.0006598245965704282,-0.00025324923567857717,-0.0005385170358144437,0.0,0.0,0.0,0.0,0.0,0.0,0.0,2.4637939145422116e-05,0.00011113971733211353,-8.258335610245027e-05,-0.00010627932070406132,0.00012166024615813814,-2.1079381282262943e-05,-1.5970867542236533e-05,-0.0010873710458668675,-0.0001906749216972937,-0.0002520841132047394,-0.0002515164713504953,0.0006598245965704282,0.00025324923567857717,0.0005385170358144437,0.018151462078094482,18.253320693969727,-0.9934418201446533,-18.071321487426758,-0.4928489327430725,-2.2946200370788574,0.27591270208358765,0
34,0.164994478225708,0.03342324495315552,-18.253320693969727,1.0172455310821533,18.099092483520508,0.4864402413368225,2.2946200370788574,-0.30337852239608765,0.0,0.0,0.0,0.0,0.0,0.0,0.0,0.029108340171740577,0.42280155567596744,0.22003619031343616,0.45227701051818886,0.05185820358593991,0.10140261674600087,-0.28100827666947736,-0.6091134016839532,-0.0576431069029005,-0.6665221841628092,-2.5944521986978537,-0.05574234815460846,2.508000163403328,0.8763298713299962,-0.6090851748156966,-0.05753196718556838,-0.666603097082616,-2.5945565370258534,-0.05562143941554,2.507976027223799,0.8763108487046415,-0.0006283863981322836,-0.000569379116468627,0.0005038563696484516,-0.0002622259434769338,-0.0003908251484764724,-0.00044123932825464716,0.0013426276839513624,0.0,0.0,0.0,0.0,0.0,0.0,0.0,2.8226868256653326e-05,0.00011113971733211353,-8.091291980683035e-05,-0.00010433832799972009,0.00012090873906846211,-2.413617952923275e-05,-1.9022625354692124e-05,0.0006283863981322836,0.000569379116468627,-0.0005038563696484516,0.0002622259434769338,0.0003908251484764724,0.00044123932825464716,-0.0013426276839513624,-0.03342324495315552,18.253320693969727,-1.0172455310821533,-18.099092483520508,-0.4864402413368225,-2.2946200370788574,0.30337852239608765,0
35,0.16998910903930664,0.03342324495315552,-18.253320693969727,1.0172455310821533,18.099092483520508,0.4864402413368225,2.2946200370788574,-0.30337852239608765,0.0,0.0,0.0,0.0,0.0,0.0,0.0,0.029108340171740577,0.42280155567596744,0.22003619031343616,0.45227701051818886,0.05185820358593991,0.10140261674600087,-0.28100827666947736,-0.6091134016839532,-0.0576431069029005,-0.6665221841628092,-2.5944521986978537,-0.05574234815460846,2.508000163403328,0.8763298713299962,-0.6090851748156966,-0.05753196718556838,-0.666603097082616,-2.5945565370258534,-0.05562143941554,2.507976027223799,0.8763108487046415,-0.0006283863981322836,-0.000569379116468627,0.0005038563696484516,-0.0002622259434769338,-0.0003908251484764724,-0.00044123932825464716,0.0013426276839513624,0.0,0.0,0.0,0.0,0.0,0.0,0.0,2.8226868256653326e-05,0.00011113971733211353,-8.091291980683035e-05,-0.00010433832799972009,0.00012090873906846211,-2.413617952923275e-05,-1.9022625354692124e-05,0.0006283863981322836,0.000569379116468627,-0.0005038563696484516,0.0002622259434769338,0.0003908251484764724,0.00044123932825464716,-0.0013426276839513624,-0.03342324495315552,18.253320693969727,-1.0172455310821533,-18.099092483520508,-0.4864402413368225,-2.2946200370788574,0.30337852239608765,0
36,0.17498469352722168,0.05722695589065552,-18.277124404907227,1.0410492420196533,18.099092483520508,0.4809470772743225,2.2882113456726074,-0.28232139348983765,0.0,0.0,0.0,0.0,0.0,0.0,0.0,0.025496139304091305,0.42380743155623724,0.21735866585654448,0.45291940016028254,0.052293755960099816,0.1012503143561669,-0.27928476560966176,-0.6091159209828867,-0.05764143646704523,-0.6665238545986644,-2.5944521986978097,-0.05574296012729283,2.5080009961420773,0.8763275316490067,-0.6090851748156966,-0.05753196718556838,-0.666603097082616,-2.5945565370258534,-0.05562143941554,2.507976027223799,0.8763108487046415,-0.0005757883762809754,0.0007312976662301344,-0.0004947183167816984,5.153469576236335e-05,-9.402889462868774e-05,1.6438707095725672e-06,-0.00040143039313427425,0.0,0.0,0.0,0.0,0.0,0.0,0.0,3.074616719012102e-05,0.0001094692814768497,-7.924248395163591e-05,-0.00010433832804368492,0.00012152071175283025,-2.4968918278300833e-05,-1.6682944365187247e-05,0.0005757883762809754,-0.0007312976662301344,0.0004947183167816984,-5.153469576236335e-05,9.402889462868774e-05,-1.6438707095725672e-06,0.00040143039313427425,-0.05722695589065552,18.277124404907227,-1.0410492420196533,-18.099092483520508,-0.4809470772743225,-2.2882113456726074,0.28232139348983765,0
37,0.17998862266540527,0.05722695589065552,-18.277124404907227,1.0410492420196533,18.099092483520508,0.4809470772743225,2.2882113456726074,-0.28232139348983765,0.0,0.0,0.0,0.0,0.0,0.0,0.0,0.025496139304091305,0.42380743155623724,0.21735866585654448,0.45291940016028254,0.052293755960099816,0.1012503143561669,-0.27928476560966176,-0.6091159209828867,-0.05764143646704523,-0.6665238545986644,-2.5944521986978097,-0.05574296012729283,2.5080009961420773,0.8763275316490067,-0.6090851748156966,-0.05753196718556838,-0.666603097082616,-2.5945565370258534,-0.05562143941554,2.507976027223799,0.8763108487046415,-0.0005757883762809754,0.0007312976662301344,-0.0004947183167816984,5.153469576236335e-05,-9.402889462868774e-05,1.6438707095725672e-06,-0.00040143039313427425,0.0,0.0,0.0,0.0,0.0,0.0,0.0,3.074616719012102e-05,0.0001094692814768497,-7.924248395163591e-05,-0.00010433832804368492,0.00012152071175283025,-2.4968918278300833e-05,-1.6682944365187247e-05,0.0005757883762809754,-0.0007312976662301344,0.0004947183167816984,-5.153469576236335e-05,9.402889462868774e-05,-1.6438707095725672e-06,0.00040143039313427425,-0.05722695589065552,18.277124404907227,-1.0410492420196533,-18.099092483520508,-0.4809470772743225,-2.2882113456726074,0.28232139348983765,0
38,0.18498945236206055,0.10880166292190552,-18.154138565063477,1.0172455310821533,18.047517776489258,0.4745383858680725,2.2818026542663574,-0.24844686686992645,0.0,0.0,0.0,0.0,0.0,0.0,0.0,0.02820225143838456,0.4245397194781163,0.22094010134132142,0.4500641861747657,0.05240269184298992,0.1015358126034423,-0.27899377369872785,-0.6091192671560597,-0.05765006705229742,-0.6665221841628092,-2.5944485794201233,-0.05574102719326428,2.5080016965911796,0.8763237678127155,-0.6090851748156966,-0.05753196718556838,-0.666603097082616,-2.5945565370258534,-0.05562143941554,2.507976027223799,0.8763108487046415,-0.0016677241896544794,-0.002060851181739274,0.0006889161657190517,0.0006124266641707976,0.00026019364730220775,0.000267171921483727,-0.0014257344167105325,0.0,0.0,0.0,0.0,0.0,0.0,0.0,3.409234036311215e-05,0.00011809986672903922,-8.091291980683035e-05,-0.00010795760573012458,0.0001195877777242782,-2.5669367380576347e-05,-1.2919108073994323e-05,0.0016677241896544794,0.002060851181739274,-0.0006889161657190517,-0.0006124266641707976,-0.00026019364730220775,-0.000267171921483727,0.0014257344167105325,-0.10880166292190552,18.154138565063477,-1.0172455310821533,-18.047517776489258,-0.4745383858680725,-2.2818026542663574,0.24844686686992645,0
39,0.19108033180236816,0.10880166292190552,-18.154138565063477,1.0172455310821533,18.047517776489258,0.4745383858680725,2.2818026542663574,-0.24844686686992645,0.0,0.0,0.0,0.0,0.0,0.0,0.0,0.02820225143838456,0.4245397194781163,0.22094010134132142,0.4500641861747657,0.05240269184298992,0.1015358126034423,-0.27899377369872785,-0.6091192671560597,-0.05765006705229742,-0.6665221841628092,-2.5944485794201233,-0.05574102719326428,2.5080016965911796,0.8763237678127155,-0.6090851748156966,-0.05753196718556838,-0.666603097082616,-2.5945565370258534,-0.05562143941554,2.507976027223799,0.8763108487046415,-0.0016677241896544794,-0.002060851181739274,0.0006889161657190517,0.0006124266641707976,0.00026019364730220775,0.000267171921483727,-0.0014257344167105325,0.0,0.0,0.0,0.0,0.0,0.0,0.0,3.409234036311215e-05,0.00011809986672903922,-8.091291980683035e-05,-0.00010795760573012458,0.0001195877777242782,-2.5669367380576347e-05,-1.2919108073994323e-05,0.0016677241896544794,0.002060851181739274,-0.0006889161657190517,-0.0006124266641707976,-0.00026019364730220775,-0.000267171921483727,0.0014257344167105325,-0.10880166292190552,18.154138565063477,-1.0172455310821533,-18.047517776489258,-0.4745383858680725,-2.2818026542663574,0.24844686686992645,0
40,0.19498085975646973,0.03342324495315552,-18.205713272094727,1.0688202381134033,18.099092483520508,0.4745383858680725,2.2818026542663574,-0.24844686686992645,0.0,0.0,0.0,0.0,0.0,0.0,0.0,0.033252606717742744,0.4232658724886265,0.22393563837472447,0.457198635842646,0.05282441633613157,0.10357515643152296,-0.27910397493227945,-0.6091141565405735,-0.057646447774611025,-0.6665258034404955,-2.5944521986978097,-0.05574421954155796,2.5080017096730662,0.8763237678127155,-0.6090851748156966,-0.05753196718556838,-0.666603097082616,-2.5945565370258534,-0.05562143941554,2.507976027223799,0.8763108487046415,0.0005828188695145784,-0.00044115397306521484,-7.999503292143279e-05,-7.045352746376799e-06,2.410575768928208e-05,4.613970808783763e-05,-0.00115022166916524,0.0,0.0,0.0,0.0,0.0,0.0,0.0,2.8981724876975257e-05,0.00011448058904264119,-7.729364212050172e-05,-0.00010433832804368492,0.00012278012601796284,-2.5682449267261376e-05,-1.2919108073994323e-05,-0.0005828188695145784,0.00044115397306521484,7.999503292143279e-05,7.045352746376799e-06,-2.410575768928208e-05,-4.613970808783763e-05,0.00115022166916524,-0.03342324495315552,18.205713272094727,-1.0688202381134033,-18.099092483520508,-0.4745383858680725,-2.2818026542663574,0.24844686686992645,0
41,0.1999802589416504,0.03342324495315552,-18.205713272094727,1.0688202381134033,18.099092483520508,0.4745383858680725,2.2818026542663574,-0.24844686686992645,0.0,0.0,0.0,0.0,0.0,0.0,0.0,0.033252606717742744,0.4232658724886265,0.22393563837472447,0.457198635842646,0.05282441633613157,0.10357515643152296,-0.27910397493227945,-0.6091141565405735,-0.057646447774611025,-0.6665258034404955,-2.5944521986978097,-0.05574421954155796,2.5080017096730662,0.8763237678127155,-0.6090851748156966,-0.05753196718556838,-0.666603097082616,-2.5945565370258534,-0.05562143941554,2.507976027223799,0.8763108487046415,0.0005828188695145784,-0.00044115397306521484,-7.999503292143279e-05,-7.045352746376799e-06,2.410575768928208e-05,4.613970808783763e-05,-0.00115022166916524,0.0,0.0,0.0,0.0,0.0,0.0,0.0,2.8981724876975257e-05,0.00011448058904264119,-7.729364212050172e-05,-0.00010433832804368492,0.00012278012601796284,-2.5682449267261376e-05,-1.2919108073994323e-05,-0.0005828188695145784,0.00044115397306521484,7.999503292143279e-05,7.045352746376799e-06,-2.410575768928208e-05,-4.613970808783763e-05,0.00115022166916524,-0.03342324495315552,18.205713272094727,-1.0688202381134033,-18.099092483520508,-0.4745383858680725,-2.2818026542663574,0.24844686686992645,0
42,0.20498156547546387,0.03342324495315552,-18.205713272094727,1.0688202381134033,18.099092483520508,0.4745383858680725,2.2818026542663574,-0.24844686686992645,0.0,0.0,0.0,0.0,0.0,0.0,0.0,0.033252606717742744,0.4232658724886265,0.22393563837472447,0.457198635842646,0.05282441633613157,0.10357515643152296,-0.27910397493227945,-0.6091141565405735,-0.057646447774611025,-0.6665258034404955,-2.5944521986978097,-0.05574421954155796,2.5080017096730662,0.8763237678127155,-0.6090851748156966,-0.05753196718556838,-0.666603097082616,-2.5945565370258534,-0.05562143941554,2.507976027223799,0.8763108487046415,0.0005828188695145784,-0.00044115397306521484,-7.999503292143279e-05,-7.045352746376799e-06,2.410575768928208e-05,4.613970808783763e-05,-0.00115022166916524,0.0,0.0,0.0,0.0,0.0,0.0,0.0,2.8981724876975257e-05,0.00011448058904264119,-7.729364212050172e-05,-0.00010433832804368492,0.00012278012601796284,-2.5682449267261376e-05,-1.2919108073994323e-05,-0.0005828188695145784,0.00044115397306521484,7.999503292143279e-05,7.045352746376799e-06,-2.410575768928208e-05,-4.613970808783763e-05,0.00115022166916524,-0.03342324495315552,18.205713272094727,-1.0688202381134033,-18.099092483520508,-0.4745383858680725,-2.2818026542663574,0.24844686686992645,0
43,0.20998120307922363,0.03342324495315552,-18.205713272094727,1.0688202381134033,18.099092483520508,0.4745383858680725,2.2818026542663574,-0.24844686686992645,0.0,0.0,0.0,0.0,0.0,0.0,0.0,0.033252606717742744,0.4232658724886265,0.22393563837472447,0.457198635842646,0.05282441633613157,0.10357515643152296,-0.27910397493227945,-0.6091141565405735,-0.057646447774611025,-0.6665258034404955,-2.5944521986978097,-0.05574421954155796,2.5080017096730662,0.8763237678127155,-0.6090851748156966,-0.05753196718556838,-0.666603097082616,-2.5945565370258534,-0.05562143941554,2.507976027223799,0.8763108487046415,0.0005828188695145784,-0.00044115397306521484,-7.999503292143279e-05,-7.045352746376799e-06,2.410575768928208e-05,4.613970808783763e-05,-0.00115022166916524,0.0,0.0,0.0,0.0,0.0,0.0,0.0,2.8981724876975257e-05,0.00011448058904264119,-7.729364212050172e-05,-0.00010433832804368492,0.00012278012601796284,-2.5682449267261376e-05,-1.2919108073994323e-05,-0.0005828188695145784,0.00044115397306521484,7.999503292143279e-05,7.045352746376799e-06,-2.410575768928208e-05,-4.613970808783763e-05,0.00115022166916524,-0.03342324495315552,18.205713272094727,-1.0688202381134033,-18.099092483520508,-0.4745383858680725,-2.2818026542663574,0.24844686686992645,0
44,0.2149803638458252,0.005652248859405518,-18.229516983032227,1.0172455310821533,18.071321487426758,0.4864402413368225,2.2753939628601074,-0.30337852239608765,0.0,0.0,0.0,0.0,0.0,0.0,0.0,0.033399042003983734,0.43321246226969157,0.22066608681919617,0.45171658996137315,0.05217710634833697,0.10140884561923802,-0.27862846583220474,-0.6091119779681559,-0.05764477733875576,-0.6665221841628092,-2.5944502498559783,-0.05574270309489696,2.5080012443742636,0.8763298713299962,-0.6090851748156966,-0.05753196718556838,-0.666603097082616,-2.5945565370258534,-0.05562143941554,2.507976027223799,0.8763108487046415,0.0009779598842282267,0.0004378863445145278,0.0007919586588416113,0.00013397687152421424,-0.00041705748146267797,0.00023204772724375408,0.0005691393550274264,0.0,0.0,0.0,0.0,0.0,0.0,0.0,2.6803152459287105e-05,0.00011281015318737736,-8.091291980683035e-05,-0.00010628716987515219,0.00012126367935696297,-2.5217150464662552e-05,-1.9022625354692124e-05,-0.0009779598842282267,-0.0004378863445145278,-0.0007919586588416113,-0.00013397687152421424,0.00041705748146267797,-0.00023204772724375408,-0.0005691393550274264,-0.005652248859405518,18.229516983032227,-1.0172455310821533,-18.071321487426758,-0.4864402413368225,-2.2753939628601074,0.30337852239608765,0
45,0.21997928619384766,0.005652248859405518,-18.229516983032227,1.0172455310821533,18.071321487426758,0.4864402413368225,2.2753939628601074,-0.30337852239608765,0.0,0.0,0.0,0.0,0.0,0.0,0.0,0.033399042003983734,0.43321246226969157,0.22066608681919617,0.45171658996137315,0.05217710634833697,0.10140884561923802,-0.27862846583220474,-0.6091119779681559,-0.05764477733875576,-0.6665221841628092,-2.5944502498559783,-0.05574270309489696,2.5080012443742636,0.8763298713299962,-0.6090851748156966,-0.05753196718556838,-0.666603097082616,-2.5945565370258534,-0.05562143941554,2.507976027223799,0.8763108487046415,0.0009779598842282267,0.0004378863445145278,0.0007919586588416113,0.00013397687152421424,-0.00041705748146267797,0.00023204772724375408,0.0005691393550274264,0.0,0.0,0.0,0.0,0.0,0.0,0.0,2.6803152459287105e-05,0.00011281015318737736,-8.091291980683035e-05,-0.00010628716987515219,0.00012126367935696297,-2.5217150464662552e-05,-1.9022625354692124e-05,-0.0009779598842282267,-0.0004378863445145278,-0.0007919586588416113,-0.00013397687152421424,0.00041705748146267797,-0.00023204772724375408,-0.0005691393550274264,-0.005652248859405518,18.229516983032227,-1.0172455310821533,-18.071321487426758,-0.4864402413368225,-2.2753939628601074,0.30337852239608765,0
46,0.2249906063079834,0.005652248859405518,-18.205713272094727,1.0688202381134033,18.099092483520508,0.4809470772743225,2.2882113456726074,-0.29605430364608765,0.0,0.0,0.0,0.0,0.0,0.0,0.0,0.032444681801976454,0.42903431346740717,0.21827573282894056,0.458588766795041,0.05229739255779927,0.10173684941837682,-0.2808278929331246,-0.6091098734077967,-0.057646447774611025,-0.6665258034404955,-2.5944521986978097,-0.055741737967089665,2.5079978186752823,0.8763290575279129,-0.6090851748156966,-0.05753196718556838,-0.666603097082616,-2.5945565370258534,-0.05562143941554,2.507976027223799,0.8763108487046415,0.0005472016095524285,-0.00040479458530765774,-0.0011239355848195447,-0.00030211912384677984,-0.00035521838007802225,-0.00027521485167756514,0.0005481067588193134,0.0,0.0,0.0,0.0,0.0,0.0,0.0,2.4698592100080852e-05,0.00011448058904264119,-7.729364212050172e-05,-0.00010433832804368492,0.0001202985515496649,-2.1791451483288427e-05,-1.8208823271415042e-05,-0.0005472016095524285,0.00040479458530765774,0.0011239355848195447,0.00030211912384677984,0.00035521838007802225,0.00027521485167756514,-0.0005481067588193134,-0.005652248859405518,18.205713272094727,-1.0688202381134033,-18.099092483520508,-0.4809470772743225,-2.2882113456726074,0.29605430364608765,0
47,0.23008251190185547,0.005652248859405518,-18.205713272094727,1.0688202381134033,18.099092483520508,0.4809470772743225,2.2882113456726074,-0.29605430364608765,0.0,0.0,0.0,0.0,0.0,0.0,0.0,0.032444681801976454,0.42903431346740717,0.21827573282894056,0.458588766795041,0.05229739255779927,0.10173684941837682,-0.2808278929331246,-0.6091098734077967,-0.057646447774611025,-0.6665258034404955,-2.5944521986978097,-0.055741737967089665,2.5079978186752823,0.8763290575279129,-0.6090851748156966,-0.05753196718556838,-0.666603097082616,-2.5945565370258534,-0.05562143941554,2.507976027223799,0.8763108487046415,0.0005472016095524285,-0.00040479458530765774,-0.0011239355848195447,-0.00030211912384677984,-0.00035521838007802225,-0.00027521485167756514,0.0005481067588193134,0.0,0.0,0.0,0.0,0.0,0.0,0.0,2.4698592100080852e-05,0.00011448058904264119,-7.729364212050172e-05,-0.00010433832804368492,0.0001202985515496649,-2.1791451483288427e-05,-1.8208823271415042e-05,-0.0005472016095524285,0.00040479458530765774,0.0011239355848195447,0.00030211912384677984,0.00035521838007802225,0.00027521485167756514,-0.0005481067588193134,-0.005652248859405518,18.205713272094727,-1.0688202381134033,-18.099092483520508,-0.4809470772743225,-2.2882113456726074,0.29605430364608765,0
48,0.23508477210998535,-0.04592245817184448,-18.277124404907227,1.0172455310821533,18.122896194458008,0.4745383858680725,2.2818026542663574,-0.31711143255233765,0.0,0.0,0.0,0.0,0.0,0.0,0.0,0.02750908120930498,0.432445207925633,0.21441575807151358,0.4558252566357118,0.052210045578914975,0.10122923079484068,-0.2822856735713448,-0.6091083583441872,-0.05764143646704523,-0.6665221841628092,-2.5944538691336647,-0.05574102588826403,2.5080017082016446,0.8763313972089024,-0.6090851748156966,-0.05753196718556838,-0.666603097082616,-2.5945565370258534,-0.05562143941554,2.507976027223799,0.8763108487046415,0.0006835957715393479,0.0010578447415112153,-0.00031972494248422393,-0.0011162350355808425,-1.9957729180179484e-06,0.0002473416760951226,0.001096289479377077,0.0,0.0,0.0,0.0,0.0,0.0,0.0,2.318352849062233e-05,0.0001094692814768497,-8.091291980683035e-05,-0.00010266789218871253,0.00011958647272403145,-2.5680977845610187e-05,-2.054850426091992e-05,-0.0006835957715393479,-0.0010578447415112153,0.00031972494248422393,0.0011162350355808425,1.9957729180179484e-06,-0.0002473416760951226,-0.001096289479377077,0.04592245817184448,18.277124404907227,-1.0172455310821533,-18.122896194458008,-0.4745383858680725,-2.2818026542663574,0.31711143255233765,0
49,0.23996615409851074,-0.04592245817184448,-18.277124404907227,1.0172455310821533,18.122896194458008,0.4745383858680725,2.2818026542663574,-0.31711143255233765,0.0,0.0,0.0,0.0,0.0,0.0,0.0,0.02750908120930498,0.432445207925633,0.21441575807151358,0.4558252566357118,0.052210045578914975,0.10122923079484068,-0.2822856735713448,-0.6091083583441872,-0.05764143646704523,-0.6665221841628092,-2.5944538691336647,-0.05574102588826403,2.5080017082016446,0.8763313972089024,-0.6090851748156966,-0.05753196718556838,-0.666603097082616,-2.5945565370258534,-0.05562143941554,2.507976027223799,0.8763108487046415,0.0006835957715393479,0.0010578447415112153,-0.00031972494248422393,-0.0011162350355808425,-1.9957729180179484e-06,0.0002473416760951226,0.001096289479377077,0.0,0.0,0.0,0.0,0.0,0.0,0.0,2.318352849062233e-05,0.0001094692814768497,-8.091291980683035e-05,-0.00010266789218871253,0.00011958647272403145,-2.5680977845610187e-05,-2.054850426091992e-05,-0.0006835957715393479,-0.0010578447415112153,0.00031972494248422393,0.0011162350355808425,1.9957729180179484e-06,-0.0002473416760951226,-0.001096289479377077,0.04592245817184448,18.277124404907227,-1.0172455310821533,-18.122896194458008,-0.4745383858680725,-2.2818026542663574,0.31711143255233765,0
50,0.2449781894683838,-0.018151462078094482,-18.229516983032227,1.0172455310821533,18.099092483520508,0.4928489327430725,2.2882113456726074,-0.30978721380233765,0.0,0.0,0.0,0.0,0.0,0.0,0.0,-0.01769503750801212,0.4245816253308328,0.1739649357336795,0.45898689026436995,0.053869395948343106,0.1017175995856304,-0.2840433454612281,-0.6091098666846899,-0.05764477733875576,-0.6665221841628092,-2.5944521986978097,-0.05574307337448357,2.508000958350452,0.8763305834068191,-0.6090851748156966,-0.05753196718556838,-0.666603097082616,-2.5945565370258534,-0.05562143941554,2.507976027223799,0.8763108487046415,3.4412979848425835e-05,-0.0008130728767279555,0.000649196872143068,0.00013173672842899974,-0.0006552677324141972,0.00014659575824878195,0.0006301303147416398,0.0,0.0,0.0,0.0,0.0,0.0,0.0,2.4691868993342858e-05,0.00011281015318737736,-8.091291980683035e-05,-0.00010433832804368492,0.00012163395894357332,-2.493112665291619e-05,-1.9734702177642838e-05,-3.4412979848425835e-05,0.0008130728767279555,-0.000649196872143068,-0.00013173672842899974,0.0006552677324141972,-0.00014659575824878195,-0.0006301303147416398,0.018151462078094482,18.229516983032227,-1.0172455310821533,-18.099092483520508,-0.4928489327430725,-2.2882113456726074,0.30978721380233765,0
51,0.24997973442077637,-0.018151462078094482,-18.229516983032227,1.0172455310821533,18.099092483520508,0.4928489327430725,2.2882113456726074,-0.30978721380233765,0.0,0.0,0.0,0.0,0.0,0.0,0.0,-0.01769503750801212,0.4245816253308328,0.1739649357336795,0.45898689026436995,0.053869395948343106,0.1017175995856304,-0.2840433454612281,-0.6091098666846899,-0.05764477733875576,-0.6665221841628092,-2.5944521986978097,-0.05574307337448357,2.508000958350452,0.8763305834068191,-0.6090851748156966,-0.05753196718556838,-0.666603097082616,-2.5945565370258534,-0.05562143941554,2.507976027223799,0.8763108487046415,3.4412979848425835e-05,-0.0008130728767279555,0.000649196872143068,0.00013173672842899974,-0.0006552677324141972,0.00014659575824878195,0.0006301303147416398,0.0,0.0,0.0,0.0,0.0,0.0,0.0,2.4691868993342858e-05,0.00011281015318737736,-8.091291980683035e-05,-0.00010433832804368492,0.00012163395894357332,-2.493112665291619e-05,-1.9734702177642838e-05,-3.4412979848425835e-05,0.0008130728767279555,-0.000649196872143068,-0.00013173672842899974,0.0006552677324141972,-0.00014659575824878195,-0.0006301303147416398,0.018151462078094482,18.229516983032227,-1.0172455310821533,-18.099092483520508,-0.4928489327430725,-2.2882113456726074,0.30978721380233765,0
52,0.25498080253601074,0.005652248859405518,-18.253320693969727,0.9696381092071533,18.099092483520508,0.4809470772743225,2.2946200370788574,-0.27591270208358765,0.0,0.0,0.0,0.0,0.0,0.0,0.0,0.014440730392312811,0.4242260818675271,0.20898199133607928,0.45994771565587683,0.05186976389390645,0.10247763751329132,-0.28571829378026364,-0.6091093027959895,-0.0576431069029005,-0.6665188432910986,-2.5944521986978097,-0.05574493161844679,2.5080002724373203,0.8763299984865718,-0.6090851748156966,-0.05753196718556838,-0.666603097082616,-2.5945565370258534,-0.05562143941554,2.507976027223799,0.8763108487046415,-0.0005122974415928914,-2.6294563693424385e-06,0.0010127883017560769,0.0002446290572482857,-0.00023247115435376945,-0.0004725969978418479,-0.0002948157658158005,0.0,0.0,0.0,0.0,0.0,0.0,0.0,2.412798029294283e-05,0.00011113971733211353,-8.425379151744128e-05,-0.00010433832804368492,0.00012349220290679142,-2.4245213521290054e-05,-1.9149781930294374e-05,0.0005122974415928914,2.6294563693424385e-06,-0.0010127883017560769,-0.0002446290572482857,0.00023247115435376945,0.0004725969978418479,0.0002948157658158005,-0.005652248859405518,18.253320693969727,-0.9696381092071533,-18.099092483520508,-0.4809470772743225,-2.2946200370788574,0.27591270208358765,0
53,0.2599818706512451,0.005652248859405518,-18.253320693969727,0.9696381092071533,18.099092483520508,0.4809470772743225,2.2946200370788574,-0.27591270208358765,0.0,0.0,0.0,0.0,0.0,0.0,0.0,0.014440730392312811,0.4242260818675271,0.20898199133607928,0.45994771565587683,0.05186976389390645,0.10247763751329132,-0.28571829378026364,-0.6091093027959895,-0.0576431069029005,-0.6665188432910986,-2.5944521986978097,-0.05574493161844679,2.5080002724373203,0.8763299984865718,-0.6090851748156966,-0.05753196718556838,-0.666603097082616,-2.5945565370258534,-0.05562143941554,2.507976027223799,0.8763108487046415,-0.0005122974415928914,-2.6294563693424385e-06,0.0010127883017560769,0.0002446290572482857,-0.00023247115435376945,-0.0004725969978418479,-0.0002948157658158005,0.0,0.0,0.0,0.0,0.0,0.0,0.0,2.412798029294283e-05,0.00011113971733211353,-8.425379151744128e-05,-0.00010433832804368492,0.00012349220290679142,-2.4245213521290054e-05,-1.9149781930294374e-05,0.0005122974415928914,2.6294563693424385e-06,-0.0010127883017560769,-0.0002446290572482857,0.00023247115435376945,0.0004725969978418479,0.0002948157658158005,-0.005652248859405518,18.253320693969727,-0.9696381092071533,-18.099092483520508,-0.4809470772743225,-2.2946200370788574,0.27591270208358765,0
54,0.2660791873931885,0.03342324495315552,-18.229516983032227,1.0172455310821533,18.099092483520508,0.4928489327430725,2.2818026542663574,-0.25485557317733765,0.0,0.0,0.0,0.0,0.0,0.0,0.0,0.02153361390775291,0.42951658065517495,0.21561043433343174,0.4527005015318536,0.05101429303556952,0.1005831181827628,-0.2855621669409574,-0.6091141296176833,-0.05764477733875576,-0.6665221841628092,-2.5944521986978097,-0.05574310016584749,2.5080017096730662,0.8763244799091392,-0.6090851748156966,-0.05753196718556838,-0.666603097082616,-2.5945565370258534,-0.05562143941554,2.507976027223799,0.8763108487046415,-0.0005929865513244737,-0.00014401186698424222,-0.00035421076921228755,-0.0007407083321091233,-0.0004726501869939576,-0.00015029731611650504,-0.0012364473641497547,0.0,0.0,0.0,0.0,0.0,0.0,0.0,2.8954801986724732e-05,0.00011281015318737736,-8.091291980683035e-05,-0.00010433832804368492,0.00012166075030749235,-2.5682449267261376e-05,-1.3631204497710492e-05,0.0005929865513244737,0.00014401186698424222,0.00035421076921228755,0.0007407083321091233,0.0004726501869939576,0.00015029731611650504,0.0012364473641497547,-0.03342324495315552,18.229516983032227,-1.0172455310821533,-18.099092483520508,-0.4928489327430725,-2.2818026542663574,0.25485557317733765,0
55,0.2699856758117676,0.03342324495315552,-18.229516983032227,1.0172455310821533,18.099092483520508,0.4928489327430725,2.2818026542663574,-0.25485557317733765,0.0,0.0,0.0,0.0,0.0,0.0,0.0,0.02153361390775291,0.42951658065517495,0.21561043433343174,0.4527005015318536,0.05101429303556952,0.1005831181827628,-0.2855621669409574,-0.6091141296176833,-0.05764477733875576,-0.6665221841628092,-2.5944521986978097,-0.05574310016584749,2.5080017096730662,0.8763244799091392,-0.6090851748156966,-0.05753196718556838,-0.666603097082616,-2.5945565370258534,-0.05562143941554,2.507976027223799,0.8763108487046415,-0.0005929865513244737,-0.00014401186698424222,-0.00035421076921228755,-0.0007407083321091233,-0.0004726501869939576,-0.00015029731611650504,-0.0012364473641497547,0.0,0.0,0.0,0.0,0.0,0.0,0.0,2.8954801986724732e-05,0.00011281015318737736,-8.091291980683035e-05,-0.00010433832804368492,0.00012166075030749235,-2.5682449267261376e-05,-1.3631204497710492e-05,0.0005929865513244737,0.00014401186698424222,0.00035421076921228755,0.0007407083321091233,0.0004726501869939576,0.00015029731611650504,0.0012364473641497547,-0.03342324495315552,18.229516983032227,-1.0172455310821533,-18.099092483520508,-0.4928489327430725,-2.2818026542663574,0.25485557317733765,0
56,0.2749965190887451,0.03342324495315552,-18.229516983032227,1.0172455310821533,18.099092483520508,0.4928489327430725,2.2818026542663574,-0.25485557317733765,0.0,0.0,0.0,0.0,0.0,0.0,0.0,0.02153361390775291,0.42951658065517495,0.21561043433343174,0.4527005015318536,0.05101429303556952,0.1005831181827628,-0.2855621669409574,-0.6091141296176833,-0.05764477733875576,-0.6665221841628092,-2.5944521986978097,-0.05574310016584749,2.5080017096730662,0.8763244799091392,-0.6090851748156966,-0.05753196718556838,-0.666603097082616,-2.5945565370258534,-0.05562143941554,2.507976027223799,0.8763108487046415,-0.0005929865513244737,-0.00014401186698424222,-0.00035421076921228755,-0.0007407083321091233,-0.0004726501869939576,-0.00015029731611650504,-0.0012364473641497547,0.0,0.0,0.0,0.0,0.0,0.0,0.0,2.8954801986724732e-05,0.00011281015318737736,-8.091291980683035e-05,-0.00010433832804368492,0.00012166075030749235,-2.5682449267261376e-05,-1.3631204497710492e-05,0.0005929865513244737,0.00014401186698424222,0.00035421076921228755,0.0007407083321091233,0.0004726501869939576,0.00015029731611650504,0.0012364473641497547,-0.03342324495315552,18.229516983032227,-1.0172455310821533,-18.099092483520508,-0.4928489327430725,-2.2818026542663574,0.25485557317733765,0
57,0.27998828887939453,0.05722695589065552,-18.253320693969727,0.9934418201446533,18.071321487426758,0.4864402413368225,2.2882113456726074,-0.26858848333358765,0.0,0.0,0.0,0.0,0.0,0.0,0.0,0.027352970861088413,0.4281235596403808,0.21615036234986004,0.45769480149089836,0.05150233652405154,0.10045443390734052,-0.28394532797061806,-0.6091128989820112,-0.0576431069029005,-0.6665205137269539,-2.5944502498559783,-0.05574236135197272,2.5080009845143643,0.8763260057701004,-0.6090851748156966,-0.05753196718556838,-0.666603097082616,-2.5945565370258534,-0.05562143941554,2.507976027223799,0.8763108487046415,-0.00021093221582481084,0.0008638080654156119,0.0008388921002530028,0.0003469819599459087,-0.00028085703439825093,-4.7272689649876083e-05,-0.0008239799297667538,0.0,0.0,0.0,0.0,0.0,0.0,0.0,2.7724166314579968e-05,0.00011113971733211353,-8.258335566213582e-05,-0.00010628716987515219,0.00012092193643271909,-2.4957290565286172e-05,-1.5157065458959451e-05,0.00021093221582481084,-0.0008638080654156119,-0.0008388921002530028,-0.0003469819599459087,0.00028085703439825093,4.7272689649876083e-05,0.0008239799297667538,-0.05722695589065552,18.253320693969727,-0.9934418201446533,-18.071321487426758,-0.4864402413368225,-2.2882113456726074,0.26858848333358765,0
58,0.2849862575531006,0.05722695589065552,-18.253320693969727,0.9934418201446533,18.071321487426758,0.4864402413368225,2.2882113456726074,-0.26858848333358765,0.0,0.0,0.0,0.0,0.0,0.0,0.0,0.027352970861088413,0.4281235596403808,0.21615036234986004,0.45769480149089836,0.05150233652405154,0.10045443390734052,-0.28394532797061806,-0.6091128989820112,-0.0576431069029005,-0.6665205137269539,-2.5944502498559783,-0.05574236135197272,2.5080009845143643,0.8763260057701004,-0.6090851748156966,-0.05753196718556838,-0.666603097082616,-2.5945565370258534,-0.05562143941554,2.507976027223799,0.8763108487046415,-0.00021093221582481084,0.0008638080654156119,0.0008388921002530028,0.0003469819599459087,-0.00028085703439825093,-4.7272689649876083e-05,-0.0008239799297667538,0.0,0.0,0.0,0.0,0.0,0.0,0.0,2.7724166314579968e-05,0.00011113971733211353,-8.258335566213582e-05,-0.00010628716987515219,0.00012092193643271909,-2.4957290565286172e-05,-1.5157065458959451e-05,0.00021093221582481084,-0.0008638080654156119,-0.0008388921002530028,-0.0003469819599459087,0.00028085703439825093,4.7272689649876083e-05,0.0008239799297667538,-0.05722695589065552,18.253320693969727,-0.9934418201446533,-18.071321487426758,-0.4864402413368225,-2.2882113456726074,0.26858848333358765,0
59,0.2899303436279297,0.05722695589065552,-18.253320693969727,1.0688202381134033,18.122896194458008,0.4864402413368225,2.2753939628601074,-0.23471395671367645,0.0,0.0,0.0,0.0,0.0,0.0,0.0,0.03156187373716984,0.4273068227950479,0.2142368849279707,0.46193020168759097,0.051899542317778026,0.10115512629408695,-0.28221537515200423,-0.6091136454545327,-0.0576431069029005,-0.6665258034404955,-2.5944538691336647,-0.055742348803510935,2.5079992297535485,0.8763222419338094,-0.6090851748156966,-0.05753196718556838,-0.666603097082616,-2.5945565370258534,-0.05562143941554,2.507976027223799,0.8763108487046415,0.00021403809689843524,0.0006031592202707361,-0.0003245489878330279,-0.00036250053214787267,-0.00039738722810769275,0.00031474625757541274,-0.002042017936895991,0.0,0.0,0.0,0.0,0.0,0.0,0.0,2.8470638836153306e-05,0.00011113971733211353,-7.729364212050172e-05,-0.00010266789218871253,0.00012090938797093553,-2.3202529749521972e-05,-1.139322916787755e-05,-0.00021403809689843524,-0.0006031592202707361,0.0003245489878330279,0.00036250053214787267,0.00039738722810769275,-0.00031474625757541274,0.002042017936895991,-0.05722695589065552,18.253320693969727,-1.0688202381134033,-18.122896194458008,-0.4864402413368225,-2.2753939628601074,0.23471395671367645,0
60,0.2949790954589844,0.05722695589065552,-18.253320693969727,1.0688202381134033,18.122896194458008,0.4864402413368225,2.2753939628601074,-0.23471395671367645,0.0,0.0,0.0,0.0,0.0,0.0,0.0,0.03156187373716984,0.4273068227950479,0.2142368849279707,0.46193020168759097,0.051899542317778026,0.10115512629408695,-0.28221537515200423,-0.6091136454545327,-0.0576431069029005,-0.6665258034404955,-2.5944538691336647,-0.055742348803510935,2.5079992297535485,0.8763222419338094,-0.6090851748156966,-0.05753196718556838,-0.666603097082616,-2.5945565370258534,-0.05562143941554,2.507976027223799,0.8763108487046415,0.00021403809689843524,0.0006031592202707361,-0.0003245489878330279,-0.00036250053214787267,-0.00039738722810769275,0.00031474625757541274,-0.002042017936895991,0.0,0.0,0.0,0.0,0.0,0.0,0.0,2.8470638836153306e-05,0.00011113971733211353,-7.729364212050172e-05,-0.00010266789218871253,0.00012090938797093553,-2.3202529749521972e-05,-1.139322916787755e-05,-0.00021403809689843524,-0.0006031592202707361,0.0003245489878330279,0.00036250053214787267,0.00039738722810769275,-0.00031474625757541274,0.002042017936895991,-0.05722695589065552,18.253320693969727,-1.0688202381134033,-18.122896194458008,-0.4864402413368225,-2.2753939628601074,0.23471395671367645,0
61,0.29997992515563965,0.03342324495315552,-18.277124404907227,1.0410492420196533,18.071321487426758,0.4809470772743225,2.2882113456726074,-0.25485557317733765,0.0,0.0,0.0,0.0,0.0,0.0,0.0,0.06461025230184685,0.4320677776958321,0.24694668788330348,0.4599150364429939,0.05084742148054803,0.10083101414327876,-0.2819449619559185,-0.6091141606118767,-0.05764143646704523,-0.6665238555616414,-2.5944502498559783,-0.055742132750100884,2.50800099754226,0.8763244794066775,-0.6090851748156966,-0.05753196718556838,-0.666603097082616,-2.5945565370258534,-0.05562143941554,2.507976027223799,0.8763108487046415,-0.00045960984660624023,0.0011509298471860903,-0.0008238811793122029,0.0004764085158670906,-0.0001133712872813431,-4.865092612355605e-05,-0.0013882496332425687,0.0,0.0,0.0,0.0,0.0,0.0,0.0,2.898579618015873e-05,0.0001094692814768497,-7.924152097460446e-05,-0.00010628716987515219,0.00012069333456088405,-2.4970318460937335e-05,-1.3630702035971609e-05,0.00045960984660624023,-0.0011509298471860903,0.0008238811793122029,-0.0004764085158670906,0.0001133712872813431,4.865092612355605e-05,0.0013882496332425687,-0.03342324495315552,18.277124404907227,-1.0410492420196533,-18.071321487426758,-0.4809470772743225,-2.2882113456726074,0.25485557317733765,0
62,0.30498695373535156,0.03342324495315552,-18.277124404907227,1.0410492420196533,18.071321487426758,0.4809470772743225,2.2882113456726074,-0.25485557317733765,0.0,0.0,0.0,0.0,0.0,0.0,0.0,0.06461025230184685,0.4320677776958321,0.24694668788330348,0.4599150364429939,0.05084742148054803,0.10083101414327876,-0.2819449619559185,-0.6091141606118767,-0.05764143646704523,-0.6665238555616414,-2.5944502498559783,-0.055742132750100884,2.50800099754226,0.8763244794066775,-0.6090851748156966,-0.05753196718556838,-0.666603097082616,-2.5945565370258534,-0.05562143941554,2.507976027223799,0.8763108487046415,-0.00045960984660624023,0.0011509298471860903,-0.0008238811793122029,0.0004764085158670906,-0.0001133712872813431,-4.865092612355605e-05,-0.0013882496332425687,0.0,0.0,0.0,0.0,0.0,0.0,0.0,2.898579618015873e-05,0.0001094692814768497,-7.924152097460446e-05,-0.00010628716987515219,0.00012069333456088405,-2.4970318460937335e-05,-1.3630702035971609e-05,0.00045960984660624023,-0.0011509298471860903,0.0008238811793122029,-0.0004764085158670906,0.0001133712872813431,4.865092612355605e-05,0.0013882496332425687,-0.03342324495315552,18.277124404907227,-1.0410492420196533,-18.071321487426758,-0.4809470772743225,-2.2882113456726074,0.25485557317733765,0
63,0.3099794387817383,0.05722695589065552,-18.177942276000977,1.0172455310821533,18.071321487426758,0.4809470772743225,2.2882113456726074,-0.22830526530742645,0.0,0.0,0.0,0.0,0.0,0.0,0.0,0.0268397905685025,0.38411656140454836,0.21170264311424056,0.4856516755176259,0.05348180106058259,0.10562652596109774,-0.2820685871712142,-0.6091127551917468,-0.05764839661644216,-0.6665221841628146,-2.5944502498559783,-0.055741737805052864,2.5080009971118,0.8763215298569836,-0.6090851748156966,-0.05753196718556838,-0.666603097082616,-2.5945565370258534,-0.05562143941554,2.507976027223799,0.8763108487046415,-0.0006820424876213842,0.0009735195681336883,0.0005895375594915498,0.000941472175900685,-0.00017829152021489746,0.0002311568552510239,-0.0018892226058991814,0.0,0.0,0.0,0.0,0.0,0.0,0.0,2.7580376050218014e-05,0.00011642943087377539,-8.091291980139026e-05,-0.00010628716987515219,0.00012029838951286426,-2.4969888000825335e-05,-1.0681152342151279e-05,0.0006820424876213842,-0.0009735195681336883,-0.0005895375594915498,-0.000941472175900685,0.00017829152021489746,-0.0002311568552510239,0.0018892226058991814,-0.05722695589065552,18.177942276000977,-1.0172455310821533,-18.071321487426758,-0.4809470772743225,-2.2882113456726074,0.22830526530742645,0
64,0.3149886131286621,0.05722695589065552,-18.177942276000977,1.0172455310821533,18.071321487426758,0.4809470772743225,2.2882113456726074,-0.22830526530742645,0.0,0.0,0.0,0.0,0.0,0.0,0.0,0.0268397905685025,0.38411656140454836,0.21170264311424056,0.4856516755176259,0.05348180106058259,0.10562652596109774,-0.2820685871712142,-0.6091127551917468,-0.05764839661644216,-0.6665221841628146,-2.5944502498559783,-0.055741737805052864,2.5080009971118,0.8763215298569836,-0.6090851748156966,-0.05753196718556838,-0.666603097082616,-2.5945565370258534,-0.05562143941554,2.507976027223799,0.8763108487046415,-0.0006820424876213842,0.0009735195681336883,0.0005895375594915498,0.000941472175900685,-0.00017829152021489746,0.0002311568552510239,-0.0018892226058991814,0.0,0.0,0.0,0.0,0.0,0.0,0.0,2.7580376050218014e-05,0.00011642943087377539,-8.091291980139026e-05,-0.00010628716987515219,0.00012029838951286426,-2.4969888000825335e-05,-1.0681152342151279e-05,0.0006820424876213842,-0.0009735195681336883,-0.0005895375594915498,-0.000941472175900685,0.00017829152021489746,-0.0002311568552510239,0.0018892226058991814,-0.05722695589065552,18.177942276000977,-1.0172455310821533,-18.071321487426758,-0.4809470772743225,-2.2882113456726074,0.22830526530742645,0
65,0.3199911117553711,0.05722695589065552,-18.177942276000977,1.0410492420196533,18.099092483520508,0.4864402413368225,2.2818026542663574,-0.30337852239608765,0.0,0.0,0.0,0.0,0.0,0.0,0.0,0.0202915059362934,0.4234795436519995,0.2046174201764281,0.4641659464585113,0.05373809310620062,0.1022175910622036,-0.28166718028660864,-0.609115911580751,-0.05764839661644216,-0.6665238545986644,-2.5944521986978097,-0.05574238758420748,2.5080016573453303,0.8763298713299962,-0.6090851748156966,-0.05753196718556838,-0.666603097082616,-2.5945565370258534,-0.05562143941554,2.507976027223799,0.8763108487046415,-0.0005424885259647144,-0.0011034799924915526,-0.0003552474530530804,-0.0003062516302041307,-0.00042200704689364664,-7.007445300657422e-05,0.0010371558666228135,0.0,0.0,0.0,0.0,0.0,0.0,0.0,3.0736765054384385e-05,0.00011642943087377539,-7.924248395163591e-05,-0.00010433832804368492,0.00012094816866747848,-2.5630121531339256e-05,-1.9022625354692124e-05,0.0005424885259647144,0.0011034799924915526,0.0003552474530530804,0.0003062516302041307,0.00042200704689364664,7.007445300657422e-05,-0.0010371558666228135,-0.05722695589065552,18.177942276000977,-1.0410492420196533,-18.099092483520508,-0.4864402413368225,-2.2818026542663574,0.30337852239608765,0
66,0.32499146461486816,0.05722695589065552,-18.177942276000977,1.0410492420196533,18.099092483520508,0.4864402413368225,2.2818026542663574,-0.30337852239608765,0.0,0.0,0.0,0.0,0.0,0.0,0.0,0.0202915059362934,0.4234795436519995,0.2046174201764281,0.4641659464585113,0.05373809310620062,0.1022175910622036,-0.28166718028660864,-0.609115911580751,-0.05764839661644216,-0.6665238545986644,-2.5944521986978097,-0.05574238758420748,2.5080016573453303,0.8763298713299962,-0.6090851748156966,-0.05753196718556838,-0.666603097082616,-2.5945565370258534,-0.05562143941554,2.507976027223799,0.8763108487046415,-0.0005424885259647144,-0.0011034799924915526,-0.0003552474530530804,-0.0003062516302041307,-0.00042200704689364664,-7.007445300657422e-05,0.0010371558666228135,0.0,0.0,0.0,0.0,0.0,0.0,0.0,3.0736765054384385e-05,0.00011642943087377539,-7.924248395163591e-05,-0.00010433832804368492,0.00012094816866747848,-2.5630121531339256e-05,-1.9022625354692124e-05,0.0005424885259647144,0.0011034799924915526,0.0003552474530530804,0.0003062516302041307,0.00042200704689364664,7.007445300657422e-05,-0.0010371558666228135,-0.05722695589065552,18.177942276000977,-1.0410492420196533,-18.099092483520508,-0.4864402413368225,-2.2818026542663574,0.30337852239608765,0
67,0.3299827575683594,0.03342324495315552,-18.277124404907227,1.0172455310821533,18.099092483520508,0.4809470772743225,2.2882113456726074,-0.31711143255233765,0.0,0.0,0.0,0.0,0.0,0.0,0.0,0.01784192640006164,0.43842428575055375,0.20346070043340178,0.4569558366125053,0.053787107604387686,0.09947492532111475,-0.2822721365200355,-0.6091120619760511,-0.05764143646704523,-0.6665221841628092,-2.5944521986978097,-0.05574173780349113,2.5079978181965257,0.8763314364547591,-0.6090851748156966,-0.05753196718556838,-0.666603097082616,-2.5945565370258534,-0.05562143941554,2.507976027223799,0.8763108487046415,-0.0006054610599156374,0.0006552776873822246,-0.00017908710236481083,-0.0004476797635185466,1.558539723315365e-05,-0.00035100097487509636,0.0012839708531151898,0.0,0.0,0.0,0.0,0.0,0.0,0.0,2.688716035448291e-05,0.0001094692814768497,-8.091291980683035e-05,-0.00010433832804368492,0.0001202983879511274,-2.17909727266985e-05,-2.0587750117595505e-05,0.0006054610599156374,-0.0006552776873822246,0.00017908710236481083,0.0004476797635185466,-1.558539723315365e-05,0.00035100097487509636,-0.0012839708531151898,-0.03342324495315552,18.277124404907227,-1.0172455310821533,-18.099092483520508,-0.4809470772743225,-2.2882113456726074,0.31711143255233765,0
68,0.33498072624206543,0.03342324495315552,-18.277124404907227,1.0172455310821533,18.099092483520508,0.4809470772743225,2.2882113456726074,-0.31711143255233765,0.0,0.0,0.0,0.0,0.0,0.0,0.0,0.01784192640006164,0.43842428575055375,0.20346070043340178,0.4569558366125053,0.053787107604387686,0.09947492532111475,-0.2822721365200355,-0.6091120619760511,-0.05764143646704523,-0.6665221841628092,-2.5944521986978097,-0.05574173780349113,2.5079978181965257,0.8763314364547591,-0.6090851748156966,-0.05753196718556838,-0.666603097082616,-2.5945565370258534,-0.05562143941554,2.507976027223799,0.8763108487046415,-0.0006054610599156374,0.0006552776873822246,-0.00017908710236481083,-0.0004476797635185466,1.558539723315365e-05,-0.00035100097487509636,0.0012839708531151898,0.0,0.0,0.0,0.0,0.0,0.0,0.0,2.688716035448291e-05,0.0001094692814768497,-8.091291980683035e-05,-0.00010433832804368492,0.0001202983879511274,-2.17909727266985e-05,-2.0587750117595505e-05,0.0006054610599156374,-0.0006552776873822246,0.00017908710236481083,0.0004476797635185466,-1.558539723315365e-05,0.00035100097487509636,-0.0012839708531151898,-0.03342324495315552,18.277124404907227,-1.0172455310821533,-18.099092483520508,-0.4809470772743225,-2.2882113456726074,0.31711143255233765,0
69,0.3399848937988281,0.03342324495315552,-18.277124404907227,1.0172455310821533,18.099092483520508,0.4809470772743225,2.2882113456726074,-0.31711143255233765,0.0,0.0,0.0,0.0,0.0,0.0,0.0,0.01784192640006164,0.43842428575055375,0.20346070043340178,0.4569558366125053,0.053787107604387686,0.09947492532111475,-0.2822721365200355,-0.6091120619760511,-0.05764143646704523,-0.6665221841628092,-2.5944521986978097,-0.05574173780349113,2.5079978181965257,0.8763314364547591,-0.6090851748156966,-0.05753196718556838,-0.666603097082616,-2.5945565370258534,-0.05562143941554,2.507976027223799,0.8763108487046415,-0.0006054610599156374,0.0006552776873822246,-0.00017908710236481083,-0.0004476797635185466,1.558539723315365e-05,-0.00035100097487509636,0.0012839708531151898,0.0,0.0,0.0,0.0,0.0,0.0,0.0,2.688716035448291e-05,0.0001094692814768497,-8.091291980683035e-05,-0.00010433832804368492,0.0001202983879511274,-2.17909727266985e-05,-2.0587750117595505e-05,0.0006054610599156374,-0.0006552776873822246,0.00017908710236481083,0.0004476797635185466,-1.558539723315365e-05,0.00035100097487509636,-0.0012839708531151898,-0.03342324495315552,18.277124404907227,-1.0172455310821533,-18.099092483520508,-0.4809470772743225,-2.2882113456726074,0.31711143255233765,0
70,0.34498071670532227,0.03342324495315552,-18.277124404907227,1.0172455310821533,18.099092483520508,0.4809470772743225,2.2882113456726074,-0.31711143255233765,0.0,0.0,0.0,0.0,0.0,0.0,0.0,0.01784192640006164,0.43842428575055375,0.20346070043340178,0.4569558366125053,0.053787107604387686,0.09947492532111475,-0.2822721365200355,-0.6091120619760511,-0.05764143646704523,-0.6665221841628092,-2.5944521986978097,-0.05574173780349113,2.5079978181965257,0.8763314364547591,-0.6090851748156966,-0.05753196718556838,-0.666603097082616,-2.5945565370258534,-0.05562143941554,2.507976027223799,0.8763108487046415,-0.0006054610599156374,0.0006552776873822246,-0.00017908710236481083,-0.0004476797635185466,1.558539723315365e-05,-0.00035100097487509636,0.0012839708531151898,0.0,0.0,0.0,0.0,0.0,0.0,0.0,2.688716035448291e-05,0.0001094692814768497,-8.091291980683035e-05,-0.00010433832804368492,0.0001202983879511274,-2.17909727266985e-05,-2.0587750117595505e-05,0.0006054610599156374,-0.0006552776873822246,0.00017908710236481083,0.0004476797635185466,-1.558539723315365e-05,0.00035100097487509636,-0.0012839708531151898,-0.03342324495315552,18.277124404907227,-1.0172455310821533,-18.099092483520508,-0.4809470772743225,-2.2882113456726074,0.31711143255233765,0
71,0.34998106956481934,-0.018151462078094482,-18.277124404907227,0.9934418201446533,18.122896194458008,0.4809470772743225,2.3010287284851074,-0.26858848333358765,0.0,0.0,0.0,0.0,0.0,0.0,0.0,0.017770310336845813,0.43158354665141696,0.20666477155047688,0.46094295321936424,0.05421632771346981,0.09982641590662061,-0.283421505045421,-0.609110600167857,-0.05764143646704523,-0.6665205137269539,-2.5944538691336647,-0.055742815551280314,2.5079995690760377,0.8763260072237244,-0.6090851748156966,-0.05753196718556838,-0.666603097082616,-2.5945565370258534,-0.05562143941554,2.507976027223799,0.8763108487046415,0.0002602545409550298,0.0003689789256007783,0.0003396889943281902,-0.0001988989713392275,-0.00023367277564318383,-0.00022553303150824999,-0.0008186855345403947,0.0,0.0,0.0,0.0,0.0,0.0,0.0,2.542535216043529e-05,0.0001094692814768497,-8.258335566213582e-05,-0.00010266789218871253,0.00012137613574031425,-2.3541852238739835e-05,-1.51585190829584e-05,-0.0002602545409550298,-0.0003689789256007783,-0.0003396889943281902,0.0001988989713392275,0.00023367277564318383,0.00022553303150824999,0.0008186855345403947,0.018151462078094482,18.277124404907227,-0.9934418201446533,-18.122896194458008,-0.4809470772743225,-2.3010287284851074,0.26858848333358765,0
72,0.3549842834472656,-0.018151462078094482,-18.277124404907227,0.9934418201446533,18.122896194458008,0.4809470772743225,2.3010287284851074,-0.26858848333358765,0.0,0.0,0.0,0.0,0.0,0.0,0.0,0.017770310336845813,0.43158354665141696,0.20666477155047688,0.46094295321936424,0.05421632771346981,0.09982641590662061,-0.283421505045421,-0.609110600167857,-0.05764143646704523,-0.6665205137269539,-2.5944538691336647,-0.055742815551280314,2.5079995690760377,0.8763260072237244,-0.6090851748156966,-0.05753196718556838,-0.666603097082616,-2.5945565370258534,-0.05562143941554,2.507976027223799,0.8763108487046415,0.0002602545409550298,0.0003689789256007783,0.0003396889943281902,-0.0001988989713392275,-0.00023367277564318383,-0.00022553303150824999,-0.0008186855345403947,0.0,0.0,0.0,0.0,0.0,0.0,0.0,2.542535216043529e-05,0.0001094692814768497,-8.258335566213582e-05,-0.00010266789218871253,0.00012137613574031425,-2.3541852238739835e-05,-1.51585190829584e-05,-0.0002602545409550298,-0.0003689789256007783,-0.0003396889943281902,0.0001988989713392275,0.00023367277564318383,0.00022553303150824999,0.0008186855345403947,0.018151462078094482,18.277124404907227,-0.9934418201446533,-18.122896194458008,-0.4809470772743225,-2.3010287284851074,0.26858848333358765,0
73,0.3599872589111328,-0.018151462078094482,-18.205713272094727,1.0410492420196533,18.071321487426758,0.4745383858680725,2.2753939628601074,-0.30337852239608765,0.0,0.0,0.0,0.0,0.0,0.0,0.0,0.02116715908495325,0.4317542554438158,0.21184967123944617,0.45330898153671917,0.053551874921466014,0.10076017064324883,-0.28444173491025043,-0.6091098997748001,-0.057646447774611025,-0.6665238545986644,-2.5944502498559783,-0.055741082686271134,2.5079981831974205,0.8763298713300044,-0.6090851748156966,-0.05753196718556838,-0.666603097082616,-2.5945565370258534,-0.05562143941554,2.507976027223799,0.8763108487046415,0.000581925452691961,-0.0010382267622205234,-0.0004099029372599838,0.00020964154735666975,7.348664559108777e-05,0.0005734228704357132,-0.00014461956746681108,0.0,0.0,0.0,0.0,0.0,0.0,0.0,2.4724959103550326e-05,0.00011448058904264119,-7.924248395163591e-05,-0.00010628716987515219,0.00011964327073113457,-2.2155973621540426e-05,-1.9022625362907775e-05,-0.000581925452691961,0.0010382267622205234,0.0004099029372599838,-0.00020964154735666975,-7.348664559108777e-05,-0.0005734228704357132,0.00014461956746681108,0.018151462078094482,18.205713272094727,-1.0410492420196533,-18.071321487426758,-0.4745383858680725,-2.2753939628601074,0.30337852239608765,0
74,0.3649888038635254,-0.018151462078094482,-18.205713272094727,1.0410492420196533,18.071321487426758,0.4745383858680725,2.2753939628601074,-0.30337852239608765,0.0,0.0,0.0,0.0,0.0,0.0,0.0,0.02116715908495325,0.4317542554438158,0.21184967123944617,0.45330898153671917,0.053551874921466014,0.10076017064324883,-0.28444173491025043,-0.6091098997748001,-0.057646447774611025,-0.6665238545986644,-2.5944502498559783,-0.055741082686271134,2.5079981831974205,0.8763298713300044,-0.6090851748156966,-0.05753196718556838,-0.666603097082616,-2.5945565370258534,-0.05562143941554,2.507976027223799,0.8763108487046415,0.000581925452691961,-0.0010382267622205234,-0.0004099029372599838,0.00020964154735666975,7.348664559108777e-05,0.0005734228704357132,-0.00014461956746681108,0.0,0.0,0.0,0.0,0.0,0.0,0.0,2.4724959103550326e-05,0.00011448058904264119,-7.924248395163591e-05,-0.00010628716987515219,0.00011964327073113457,-2.2155973621540426e-05,-1.9022625362907775e-05,-0.000581925452691961,0.0010382267622205234,0.0004099029372599838,-0.00020964154735666975,-7.348664559108777e-05,-0.0005734228704357132,0.00014461956746681108,0.018151462078094482,18.205713272094727,-1.0410492420196533,-18.071321487426758,-0.4745383858680725,-2.2753939628601074,0.30337852239608765,0
75,0.3699839115142822,0.03342324495315552,-18.205713272094727,1.0172455310821533,18.047517776489258,0.4690452218055725,2.2882113456726074,-0.26217979192733765,0.0,0.0,0.0,0.0,0.0,0.0,0.0,0.019552345219920025,0.47978128796423536,0.21308928242996694,0.4338926674276475,0.05305734833770746,0.09805493479674748,-0.28590084886391787,-0.6091138877960607,-0.057646447774611025,-0.6665221841628092,-2.5944485794201233,-0.05574360919030872,2.5080009974108846,0.8763252936932776,-0.6090851748156966,-0.05753196718556838,-0.666603097082616,-2.5945565370258534,-0.05562143941554,2.507976027223799,0.8763108487046415,-0.0004616906737516538,-0.0018655501193812988,-4.570133857478746e-05,0.0012259392514415474,0.00032996436534355253,-0.0003581016475893711,-0.00132556809785773,0.0,0.0,0.0,0.0,0.0,0.0,0.0,2.871298036410952e-05,0.00011448058904264119,-8.091291980683035e-05,-0.00010795760573012458,0.00012216977476871976,-2.4970187085582296e-05,-1.444498863611976e-05,0.0004616906737516538,0.0018655501193812988,4.570133857478746e-05,-0.0012259392514415474,-0.00032996436534355253,0.0003581016475893711,0.00132556809785773,-0.03342324495315552,18.205713272094727,-1.0172455310821533,-18.047517776489258,-0.4690452218055725,-2.2882113456726074,0.26217979192733765,0
76,0.37497687339782715,0.03342324495315552,-18.205713272094727,1.0172455310821533,18.047517776489258,0.4690452218055725,2.2882113456726074,-0.26217979192733765,0.0,0.0,0.0,0.0,0.0,0.0,0.0,0.019552345219920025,0.47978128796423536,0.21308928242996694,0.4338926674276475,0.05305734833770746,0.09805493479674748,-0.28590084886391787,-0.6091138877960607,-0.057646447774611025,-0.6665221841628092,-2.5944485794201233,-0.05574360919030872,2.5080009974108846,0.8763252936932776,-0.6090851748156966,-0.05753196718556838,-0.666603097082616,-2.5945565370258534,-0.05562143941554,2.507976027223799,0.8763108487046415,-0.0004616906737516538,-0.0018655501193812988,-4.570133857478746e-05,0.0012259392514415474,0.00032996436534355253,-0.0003581016475893711,-0.00132556809785773,0.0,0.0,0.0,0.0,0.0,0.0,0.0,2.871298036410952e-05,0.00011448058904264119,-8.091291980683035e-05,-0.00010795760573012458,0.00012216977476871976,-2.4970187085582296e-05,-1.444498863611976e-05,0.0004616906737516538,0.0018655501193812988,4.570133857478746e-05,-0.0012259392514415474,-0.00032996436534355253,0.0003581016475893711,0.00132556809785773,-0.03342324495315552,18.205713272094727,-1.0172455310821533,-18.047517776489258,-0.4690452218055725,-2.2882113456726074,0.26217979192733765,0
77,0.37997865676879883,0.05722695589065552,-18.205713272094727,1.0172455310821533,18.071321487426758,0.4809470772743225,2.2882113456726074,-0.31711143255233765,0.0,0.0,0.0,0.0,0.0,0.0,0.0,0.01541949527896903,0.4421564602455933,0.20739054603538157,0.4506783830702671,0.05259310123800973,0.10050715019798333,-0.2857333438936919,-0.6091155701517638,-0.057646447774611025,-0.6665221838418168,-2.5944502498559783,-0.05574173782085256,2.508000997596316,0.8763313972089025,-0.6090851748156966,-0.05753196718556838,-0.666603097082616,-2.5945565370258534,-0.05562143941554,2.507976027223799,0.8763108487046415,-0.0008986045253433287,2.679798150382469e-05,0.000494156287289472,-3.574750817575734e-05,-0.00028308982237877384,-0.00012356514410696878,0.001277615561535546,0.0,0.0,0.0,0.0,0.0,0.0,0.0,3.039533606719047e-05,0.00011448058904264119,-8.091324079917417e-05,-0.00010628716987515219,0.00012029840531255914,-2.4970372516808226e-05,-2.0548504261030942e-05,0.0008986045253433287,-2.679798150382469e-05,-0.000494156287289472,3.574750817575734e-05,0.00028308982237877384,0.00012356514410696878,-0.001277615561535546,-0.05722695589065552,18.205713272094727,-1.0172455310821533,-18.071321487426758,-0.4809470772743225,-2.2882113456726074,0.31711143255233765,0
78,0.38498735427856445,0.05722695589065552,-18.205713272094727,1.0172455310821533,18.071321487426758,0.4809470772743225,2.2882113456726074,-0.31711143255233765,0.0,0.0,0.0,0.0,0.0,0.0,0.0,0.01541949527896903,0.4421564602455933,0.20739054603538157,0.4506783830702671,0.05259310123800973,0.10050715019798333,-0.2857333438936919,-0.6091155701517638,-0.057646447774611025,-0.6665221838418168,-2.5944502498559783,-0.05574173782085256,2.508000997596316,0.8763313972089025,-0.6090851748156966,-0.05753196718556838,-0.666603097082616,-2.5945565370258534,-0.05562143941554,2.507976027223799,0.8763108487046415,-0.0008986045253433287,2.679798150382469e-05,0.000494156287289472,-3.574750817575734e-05,-0.00028308982237877384,-0.00012356514410696878,0.001277615561535546,0.0,0.0,0.0,0.0,0.0,0.0,0.0,3.039533606719047e-05,0.00011448058904264119,-8.091324079917417e-05,-0.00010628716987515219,0.00012029840531255914,-2.4970372516808226e-05,-2.0548504261030942e-05,0.0008986045253433287,-2.679798150382469e-05,-0.000494156287289472,3.574750817575734e-05,0.00028308982237877384,0.00012356514410696878,-0.001277615561535546,-0.05722695589065552,18.205713272094727,-1.0172455310821533,-18.071321487426758,-0.4809470772743225,-2.2882113456726074,0.31711143255233765,0
79,0.389998197555542,0.08103066682815552,-18.229516983032227,1.0410492420196533,18.099092483520508,0.4809470772743225,2.2882113456726074,-0.25485557317733765,0.0,0.0,0.0,0.0,0.0,0.0,0.0,0.023237882233327792,0.4274485718394919,0.21270133546277664,0.4598527330740009,0.05199367630671448,0.10149812384372917,-0.2844385363394717,-0.6091167730202502,-0.05764477733875576,-0.6665238545986638,-2.5944521986978097,-0.05574189557619734,2.5080009975424815,0.8763244798911942,-0.6090851748156966,-0.05753196718556838,-0.666603097082616,-2.5945565370258534,-0.05562143941554,2.507976027223799,0.8763108487046415,-0.0006061414145569058,0.0004606460760937823,0.0003854253738804734,-0.0008430099322668513,-0.00021832907585855982,-0.00022271756547646255,-0.0013691820987573882,0.0,0.0,0.0,0.0,0.0,0.0,0.0,3.159820455367335e-05,0.00011281015318737736,-7.924248395219102e-05,-0.00010433832804368492,0.00012045616065733955,-2.497031868253785e-05,-1.3631186552731656e-05,0.0006061414145569058,-0.0004606460760937823,-0.0003854253738804734,0.0008430099322668513,0.00021832907585855982,0.00022271756547646255,0.0013691820987573882,-0.08103066682815552,18.229516983032227,-1.0410492420196533,-18.099092483520508,-0.4809470772743225,-2.2882113456726074,0.25485557317733765,0
