rezayati/contactInterpretation/dataset/franka_main/labeled_data/link3/e5_7.csv
index,time,tau_J0,tau_J1,tau_J2,tau_J3,tau_J4,tau_J5,tau_J6,tau_J_d0,tau_J_d1,tau_J_d2,tau_J_d3,tau_J_d4,tau_J_d5,tau_J_d6,tau_ext0,tau_ext1,tau_ext2,tau_ext3,tau_ext4,tau_ext5,tau_ext6,q0,q1,q2,q3,q4,q5,q6,q_d0,q_d1,q_d2,q_d3,q_d4,q_d5,q_d6,dq0,dq1,dq2,dq3,dq4,dq5,dq6,dq_d0,dq_d1,dq_d2,dq_d3,dq_d4,dq_d5,dq_d6,e0,e1,e2,e3,e4,e5,e6,de0,de1,de2,de3,de4,de5,de6,etau_J0,etau_J1,etau_J2,etau_J3,etau_J4,etau_J5,etau_J6,label
1,0.0,-0.17287558317184448,-11.973108291625977,1.3147919178009033,21.717256546020508,0.3738303780555725,2.5335726737976074,-0.19351522624492645,0.0,0.0,0.0,0.0,0.0,0.0,0.0,-0.19111287174870964,0.3996916878086329,0.12347382239976383,0.438788726827532,-0.1634458213876842,0.1287161465181989,-0.20778319307253476,0.1729716679338823,-0.4873622587339598,-0.11147525706272338,-1.946461604787592,0.13361134407917655,2.5955496477021085,0.9452460848407613,0.1728802376190821,-0.48752024683155326,-0.11147110072896137,-1.9463801863486305,0.1336059019074957,2.595550359778934,0.9452445589611904,-0.0006152616332440781,-0.0004923324737270477,0.0002930438446900334,-9.489227961763394e-05,-0.00018362955327952738,-0.00021343489401553072,-0.0005228215978197555,0.0,0.0,0.0,0.0,0.0,0.0,0.0,-9.143031480018937e-05,-0.00015798809759348664,4.156333762009301e-06,8.141843896147805e-05,-5.442171680858365e-06,7.120768255042265e-07,-1.5258795709183204e-06,0.0006152616332440781,0.0004923324737270477,-0.0002930438446900334,9.489227961763394e-05,0.00018362955327952738,0.00021343489401553072,0.0005228215978197555,0.17287558317184448,11.973108291625977,-1.3147919178009033,-21.717256546020508,-0.3738303780555725,-2.5335726737976074,0.19351522624492645,0
2,0.004996061325073242,-0.19667929410934448,-12.072290420532227,1.3147919178009033,21.717256546020508,0.3738303780555725,2.5271639823913574,-0.23471395671367645,0.0,0.0,0.0,0.0,0.0,0.0,0.0,-0.19319390309424322,0.398224630895742,0.12201617906732586,0.42978967687126274,-0.1630972469039846,0.12817301660256575,-0.2101644313742561,0.17297333836973755,-0.4873550489642105,-0.11147501030792234,-1.946461604787592,0.13361134407917655,2.595550242041364,0.94525066247748,0.1728802376190821,-0.48752024683155326,-0.11147110072896137,-1.9463801863486305,0.1336059019074957,2.595550359778934,0.9452445589611904,-0.00032946124020800406,0.0011633878642792598,0.0003244017771379073,0.00014122479621362838,-0.0001377009240022753,0.00022702085406013994,0.0011351647212585012,0.0,0.0,0.0,0.0,0.0,0.0,0.0,-9.310075065543932e-05,-0.00016519786734275899,3.9095789609727705e-06,8.141843896147805e-05,-5.442171680858365e-06,1.1773756991573237e-07,-6.103516289601707e-06,0.00032946124020800406,-0.0011633878642792598,-0.0003244017771379073,-0.00014122479621362838,0.0001377009240022753,-0.00022702085406013994,-0.0011351647212585012,0.19667929410934448,12.072290420532227,-1.3147919178009033,-21.717256546020508,-0.3738303780555725,-2.5271639823913574,0.23471395671367645,0
3,0.009998559951782227,-0.19667929410934448,-12.072290420532227,1.3147919178009033,21.717256546020508,0.3738303780555725,2.5271639823913574,-0.23471395671367645,0.0,0.0,0.0,0.0,0.0,0.0,0.0,-0.19319390309424322,0.398224630895742,0.12201617906732586,0.42978967687126274,-0.1630972469039846,0.12817301660256575,-0.2101644313742561,0.17297333836973755,-0.4873550489642105,-0.11147501030792234,-1.946461604787592,0.13361134407917655,2.595550242041364,0.94525066247748,0.1728802376190821,-0.48752024683155326,-0.11147110072896137,-1.9463801863486305,0.1336059019074957,2.595550359778934,0.9452445589611904,-0.00032946124020800406,0.0011633878642792598,0.0003244017771379073,0.00014122479621362838,-0.0001377009240022753,0.00022702085406013994,0.0011351647212585012,0.0,0.0,0.0,0.0,0.0,0.0,0.0,-9.310075065543932e-05,-0.00016519786734275899,3.9095789609727705e-06,8.141843896147805e-05,-5.442171680858365e-06,1.1773756991573237e-07,-6.103516289601707e-06,0.00032946124020800406,-0.0011633878642792598,-0.0003244017771379073,-0.00014122479621362838,0.0001377009240022753,-0.00022702085406013994,-0.0011351647212585012,0.19667929410934448,12.072290420532227,-1.3147919178009033,-21.717256546020508,-0.3738303780555725,-2.5271639823913574,0.23471395671367645,0
4,0.014994621276855469,-0.14510458707809448,-12.048486709594727,1.3147919178009033,21.741060256958008,0.3674216866493225,2.5271639823913574,-0.22830526530742645,0.0,0.0,0.0,0.0,0.0,0.0,0.0,-0.19611371752671616,0.4004661852504349,0.12194283614792972,0.4149966312970244,-0.16316533006515116,0.12713839054205378,-0.21142914344369454,0.17296971909205117,-0.4873567064018314,-0.11147278431671859,-1.9464632752234474,0.13361205615599947,2.595550359778269,0.9452499504006571,0.1728802376190821,-0.48752024683155326,-0.11147110072896137,-1.9463801863486305,0.1336059019074957,2.595550359778934,0.9452445589611904,-0.0013811379485126826,0.0009665527636187327,-6.793385455092155e-05,-0.0005139622082870856,0.00016092026611425124,-2.2546734384375693e-05,0.0011129224155860663,0.0,0.0,0.0,0.0,0.0,0.0,0.0,-8.948147296905518e-05,-0.00016354042972188676,1.6835877572202174e-06,8.308887481689453e-05,-6.154248503781323e-06,6.648015471455437e-13,-5.3914394666509935e-06,0.0013811379485126826,-0.0009665527636187327,6.793385455092155e-05,0.0005139622082870856,-0.00016092026611425124,2.2546734384375693e-05,-0.0011129224155860663,0.14510458707809448,12.048486709594727,-1.3147919178009033,-21.741060256958008,-0.3674216866493225,-2.5271639823913574,0.22830526530742645,0
5,0.020000457763671875,-0.14510458707809448,-12.048486709594727,1.3147919178009033,21.741060256958008,0.3674216866493225,2.5271639823913574,-0.22830526530742645,0.0,0.0,0.0,0.0,0.0,0.0,0.0,-0.19611371752671616,0.4004661852504349,0.12194283614792972,0.4149966312970244,-0.16316533006515116,0.12713839054205378,-0.21142914344369454,0.17296971909205117,-0.4873567064018314,-0.11147278431671859,-1.9464632752234474,0.13361205615599947,2.595550359778269,0.9452499504006571,0.1728802376190821,-0.48752024683155326,-0.11147110072896137,-1.9463801863486305,0.1336059019074957,2.595550359778934,0.9452445589611904,-0.0013811379485126826,0.0009665527636187327,-6.793385455092155e-05,-0.0005139622082870856,0.00016092026611425124,-2.2546734384375693e-05,0.0011129224155860663,0.0,0.0,0.0,0.0,0.0,0.0,0.0,-8.948147296905518e-05,-0.00016354042972188676,1.6835877572202174e-06,8.308887481689453e-05,-6.154248503781323e-06,6.648015471455437e-13,-5.3914394666509935e-06,0.0013811379485126826,-0.0009665527636187327,6.793385455092155e-05,0.0005139622082870856,-0.00016092026611425124,2.2546734384375693e-05,-0.0011129224155860663,0.14510458707809448,12.048486709594727,-1.3147919178009033,-21.741060256958008,-0.3674216866493225,-2.5271639823913574,0.22830526530742645,0
6,0.0250089168548584,-0.19667929410934448,-12.000879287719727,1.2909882068634033,21.717256546020508,0.3619285225868225,2.5335726737976074,-0.20083944499492645,0.0,0.0,0.0,0.0,0.0,0.0,0.0,-0.1912647791515607,0.3697261116845932,0.13283864813519192,0.42072007852496895,-0.16358062707866716,0.1277852996173871,-0.2114445380156778,0.17297333836973755,-0.48736004727346854,-0.11147327104133654,-1.946461604787592,0.13361266650756198,2.595549647702111,0.9452468986428446,0.1728802376190821,-0.48752024683155326,-0.11147110072896137,-1.9463801863486305,0.1336059019074957,2.595550359778934,0.9452445589611904,0.00047750242367709214,-0.0007509118691864198,0.0009113015539532727,-8.687706393014029e-07,0.0002278212124811474,-4.2748834189957295e-05,-0.0003263382739815224,0.0,0.0,0.0,0.0,0.0,0.0,0.0,-9.310075065543932e-05,-0.00016019955808471709,2.1703123751770637e-06,8.141843896147805e-05,-6.764600066294646e-06,7.120768228396912e-07,-2.3396816541954024e-06,-0.00047750242367709214,0.0007509118691864198,-0.0009113015539532727,8.687706393014029e-07,-0.0002278212124811474,4.2748834189957295e-05,0.0003263382739815224,0.19667929410934448,12.000879287719727,-1.2909882068634033,-21.717256546020508,-0.3619285225868225,-2.5335726737976074,0.20083944499492645,0
7,0.03000330924987793,-0.19667929410934448,-12.000879287719727,1.2909882068634033,21.717256546020508,0.3619285225868225,2.5335726737976074,-0.20083944499492645,0.0,0.0,0.0,0.0,0.0,0.0,0.0,-0.1912647791515607,0.3697261116845932,0.13283864813519192,0.42072007852496895,-0.16358062707866716,0.1277852996173871,-0.2114445380156778,0.17297333836973755,-0.48736004727346854,-0.11147327104133654,-1.946461604787592,0.13361266650756198,2.595549647702111,0.9452468986428446,0.1728802376190821,-0.48752024683155326,-0.11147110072896137,-1.9463801863486305,0.1336059019074957,2.595550359778934,0.9452445589611904,0.00047750242367709214,-0.0007509118691864198,0.0009113015539532727,-8.687706393014029e-07,0.0002278212124811474,-4.2748834189957295e-05,-0.0003263382739815224,0.0,0.0,0.0,0.0,0.0,0.0,0.0,-9.310075065543932e-05,-0.00016019955808471709,2.1703123751770637e-06,8.141843896147805e-05,-6.764600066294646e-06,7.120768228396912e-07,-2.3396816541954024e-06,-0.00047750242367709214,0.0007509118691864198,-0.0009113015539532727,8.687706393014029e-07,-0.0002278212124811474,4.2748834189957295e-05,0.0003263382739815224,0.19667929410934448,12.000879287719727,-1.2909882068634033,-21.717256546020508,-0.3619285225868225,-2.5335726737976074,0.20083944499492645,0
8,0.03499960899353027,-0.17287558317184448,-11.949304580688477,1.3425629138946533,21.717256546020508,0.3793235421180725,2.5271639823913574,-0.15231649577617645,0.0,0.0,0.0,0.0,0.0,0.0,0.0,-0.19164798102025318,0.37757551056514604,0.1303108330383089,0.41556056236904865,-0.1639786449793121,0.12675815033532858,-0.21099279870753432,0.1729716679338823,-0.487363666551155,-0.11147411629717673,-1.946461604787592,0.13360753494501112,2.595550359778934,0.9452415072040425,0.1728802376190821,-0.48752024683155326,-0.11147110072896137,-1.9463801863486305,0.1336059019074957,2.595550359778934,0.9452445589611904,-0.0005053188044244828,-0.0003010478935603086,-0.00021656362420889973,0.0005906858169490716,-0.0003884198376108253,-4.967116272916581e-05,-0.001882924284060105,0.0,0.0,0.0,0.0,0.0,0.0,0.0,-9.143031480018937e-05,-0.00015658028039827743,3.015568215358755e-06,8.141843896147805e-05,-1.6330375154360866e-06,0.0,3.0517571478760885e-06,0.0005053188044244828,0.0003010478935603086,0.00021656362420889973,-0.0005906858169490716,0.0003884198376108253,4.967116272916581e-05,0.001882924284060105,0.17287558317184448,11.949304580688477,-1.3425629138946533,-21.717256546020508,-0.3793235421180725,-2.5271639823913574,0.15231649577617645,0
9,0.03999662399291992,-0.17287558317184448,-11.949304580688477,1.3425629138946533,21.717256546020508,0.3793235421180725,2.5271639823913574,-0.15231649577617645,0.0,0.0,0.0,0.0,0.0,0.0,0.0,-0.19164798102025318,0.37757551056514604,0.1303108330383089,0.41556056236904865,-0.1639786449793121,0.12675815033532858,-0.21099279870753432,0.1729716679338823,-0.487363666551155,-0.11147411629717673,-1.946461604787592,0.13360753494501112,2.595550359778934,0.9452415072040425,0.1728802376190821,-0.48752024683155326,-0.11147110072896137,-1.9463801863486305,0.1336059019074957,2.595550359778934,0.9452445589611904,-0.0005053188044244828,-0.0003010478935603086,-0.00021656362420889973,0.0005906858169490716,-0.0003884198376108253,-4.967116272916581e-05,-0.001882924284060105,0.0,0.0,0.0,0.0,0.0,0.0,0.0,-9.143031480018937e-05,-0.00015658028039827743,3.015568215358755e-06,8.141843896147805e-05,-1.6330375154360866e-06,0.0,3.0517571478760885e-06,0.0005053188044244828,0.0003010478935603086,0.00021656362420889973,-0.0005906858169490716,0.0003884198376108253,4.967116272916581e-05,0.001882924284060105,0.17287558317184448,11.949304580688477,-1.3425629138946533,-21.717256546020508,-0.3793235421180725,-2.5271639823913574,0.15231649577617645,0
10,0.04499650001525879,-0.22445029020309448,-11.873926162719727,1.2909882068634033,21.717256546020508,0.3674216866493225,2.5271639823913574,-0.19351522624492645,0.0,0.0,0.0,0.0,0.0,0.0,0.0,-0.19222966526463212,0.3772565019585446,0.13024071709261248,0.41817580545661454,-0.16378038841899437,0.1265406165717555,-0.210285137291717,0.1729752872115687,-0.48736895658871715,-0.1114728761082525,-1.946461604787592,0.13361205613794228,2.595550359778934,0.9452460848407613,0.1728802376190821,-0.48752024683155326,-0.11147110072896137,-1.9463801863486305,0.1336059019074957,2.595550359778934,0.9452445589611904,0.0010131568433098903,-0.001002670693826787,0.0006907569969950839,-3.791480284798494e-05,1.1212694225288586e-05,-9.264535199679127e-05,-0.00015241663608298527,0.0,0.0,0.0,0.0,0.0,0.0,0.0,-9.504959248660128e-05,-0.0001512902428361107,1.7753792911356925e-06,8.141843896147805e-05,-6.154230446586695e-06,0.0,-1.5258795709183204e-06,-0.0010131568433098903,0.001002670693826787,-0.0006907569969950839,3.791480284798494e-05,-1.1212694225288586e-05,9.264535199679127e-05,0.00015241663608298527,0.22445029020309448,11.873926162719727,-1.2909882068634033,-21.717256546020508,-0.3674216866493225,-2.5271639823913574,0.19351522624492645,0
11,0.04999351501464844,-0.22445029020309448,-11.873926162719727,1.2909882068634033,21.717256546020508,0.3674216866493225,2.5271639823913574,-0.19351522624492645,0.0,0.0,0.0,0.0,0.0,0.0,0.0,-0.19222966526463212,0.3772565019585446,0.13024071709261248,0.41817580545661454,-0.16378038841899437,0.1265406165717555,-0.210285137291717,0.1729752872115687,-0.48736895658871715,-0.1114728761082525,-1.946461604787592,0.13361205613794228,2.595550359778934,0.9452460848407613,0.1728802376190821,-0.48752024683155326,-0.11147110072896137,-1.9463801863486305,0.1336059019074957,2.595550359778934,0.9452445589611904,0.0010131568433098903,-0.001002670693826787,0.0006907569969950839,-3.791480284798494e-05,1.1212694225288586e-05,-9.264535199679127e-05,-0.00015241663608298527,0.0,0.0,0.0,0.0,0.0,0.0,0.0,-9.504959248660128e-05,-0.0001512902428361107,1.7753792911356925e-06,8.141843896147805e-05,-6.154230446586695e-06,0.0,-1.5258795709183204e-06,-0.0010131568433098903,0.001002670693826787,-0.0006907569969950839,3.791480284798494e-05,-1.1212694225288586e-05,9.264535199679127e-05,0.00015241663608298527,0.22445029020309448,11.873926162719727,-1.2909882068634033,-21.717256546020508,-0.3674216866493225,-2.5271639823913574,0.19351522624492645,0
12,0.05499577522277832,-0.19667929410934448,-11.901697158813477,1.3425629138946533,21.717256546020508,0.3674216866493225,2.5335726737976074,-0.22098104655742645,0.0,0.0,0.0,0.0,0.0,0.0,0.0,-0.1939007489118653,0.3813053720325331,0.12908836392252176,0.4247242295815544,-0.1639386168678077,0.12743728392673892,-0.20975079439683347,0.17297333836973755,-0.48736945122205133,-0.11147717970584187,-1.946461604787592,0.1336120561559994,2.595549647702111,0.9452491365985738,0.1728802376190821,-0.48752024683155326,-0.11147110072896137,-1.9463801863486305,0.1336059019074957,2.595550359778934,0.9452445589611904,9.799450902785017e-05,0.000745765334938137,-0.0006579099666787943,-0.00010968093673308814,4.538737064128741e-05,-0.0002193565652963702,0.0011358367204986652,0.0,0.0,0.0,0.0,0.0,0.0,0.0,-9.310075065543932e-05,-0.00015079560950193027,6.078976880499742e-06,8.141843896147805e-05,-6.1542485036980565e-06,7.120768228396912e-07,-4.5776373833739115e-06,-9.799450902785017e-05,-0.000745765334938137,0.0006579099666787943,0.00010968093673308814,-4.538737064128741e-05,0.0002193565652963702,-0.0011358367204986652,0.19667929410934448,11.901697158813477,-1.3425629138946533,-21.717256546020508,-0.3674216866493225,-2.5335726737976074,0.22098104655742645,0
13,0.05999350547790527,-0.19667929410934448,-11.901697158813477,1.3425629138946533,21.717256546020508,0.3674216866493225,2.5335726737976074,-0.22098104655742645,0.0,0.0,0.0,0.0,0.0,0.0,0.0,-0.1939007489118653,0.3813053720325331,0.12908836392252176,0.4247242295815544,-0.1639386168678077,0.12743728392673892,-0.20975079439683347,0.17297333836973755,-0.48736945122205133,-0.11147717970584187,-1.946461604787592,0.1336120561559994,2.595549647702111,0.9452491365985738,0.1728802376190821,-0.48752024683155326,-0.11147110072896137,-1.9463801863486305,0.1336059019074957,2.595550359778934,0.9452445589611904,9.799450902785017e-05,0.000745765334938137,-0.0006579099666787943,-0.00010968093673308814,4.538737064128741e-05,-0.0002193565652963702,0.0011358367204986652,0.0,0.0,0.0,0.0,0.0,0.0,0.0,-9.310075065543932e-05,-0.00015079560950193027,6.078976880499742e-06,8.141843896147805e-05,-6.1542485036980565e-06,7.120768228396912e-07,-4.5776373833739115e-06,-9.799450902785017e-05,-0.000745765334938137,0.0006579099666787943,0.00010968093673308814,-4.538737064128741e-05,0.0002193565652963702,-0.0011358367204986652,0.19667929410934448,11.901697158813477,-1.3425629138946533,-21.717256546020508,-0.3674216866493225,-2.5335726737976074,0.22098104655742645,0
14,0.06499218940734863,-0.19667929410934448,-11.901697158813477,1.3425629138946533,21.717256546020508,0.3674216866493225,2.5335726737976074,-0.22098104655742645,0.0,0.0,0.0,0.0,0.0,0.0,0.0,-0.1939007489118653,0.3813053720325331,0.12908836392252176,0.4247242295815544,-0.1639386168678077,0.12743728392673892,-0.20975079439683347,0.17297333836973755,-0.48736945122205133,-0.11147717970584187,-1.946461604787592,0.1336120561559994,2.595549647702111,0.9452491365985738,0.1728802376190821,-0.48752024683155326,-0.11147110072896137,-1.9463801863486305,0.1336059019074957,2.595550359778934,0.9452445589611904,9.799450902785017e-05,0.000745765334938137,-0.0006579099666787943,-0.00010968093673308814,4.538737064128741e-05,-0.0002193565652963702,0.0011358367204986652,0.0,0.0,0.0,0.0,0.0,0.0,0.0,-9.310075065543932e-05,-0.00015079560950193027,6.078976880499742e-06,8.141843896147805e-05,-6.1542485036980565e-06,7.120768228396912e-07,-4.5776373833739115e-06,-9.799450902785017e-05,-0.000745765334938137,0.0006579099666787943,0.00010968093673308814,-4.538737064128741e-05,0.0002193565652963702,-0.0011358367204986652,0.19667929410934448,11.901697158813477,-1.3425629138946533,-21.717256546020508,-0.3674216866493225,-2.5335726737976074,0.22098104655742645,0
15,0.07042622566223145,-0.19667929410934448,-11.901697158813477,1.3425629138946533,21.717256546020508,0.3674216866493225,2.5335726737976074,-0.22098104655742645,0.0,0.0,0.0,0.0,0.0,0.0,0.0,-0.1939007489118653,0.3813053720325331,0.12908836392252176,0.4247242295815544,-0.1639386168678077,0.12743728392673892,-0.20975079439683347,0.17297333836973755,-0.48736945122205133,-0.11147717970584187,-1.946461604787592,0.1336120561559994,2.595549647702111,0.9452491365985738,0.1728802376190821,-0.48752024683155326,-0.11147110072896137,-1.9463801863486305,0.1336059019074957,2.595550359778934,0.9452445589611904,9.799450902785017e-05,0.000745765334938137,-0.0006579099666787943,-0.00010968093673308814,4.538737064128741e-05,-0.0002193565652963702,0.0011358367204986652,0.0,0.0,0.0,0.0,0.0,0.0,0.0,-9.310075065543932e-05,-0.00015079560950193027,6.078976880499742e-06,8.141843896147805e-05,-6.1542485036980565e-06,7.120768228396912e-07,-4.5776373833739115e-06,-9.799450902785017e-05,-0.000745765334938137,0.0006579099666787943,0.00010968093673308814,-4.538737064128741e-05,0.0002193565652963702,-0.0011358367204986652,0.19667929410934448,11.901697158813477,-1.3425629138946533,-21.717256546020508,-0.3674216866493225,-2.5335726737976074,0.22098104655742645,0
16,0.07499575614929199,-0.24825400114059448,-11.873926162719727,1.3147919178009033,21.693452835083008,0.3619285225868225,2.5271639823913574,-0.21457235515117645,0.0,0.0,0.0,0.0,0.0,0.0,0.0,-0.19780312881682327,0.3960605466661328,0.12338097547058062,0.4277205927729373,-0.16368723117862913,0.12804703914251614,-0.2085084389723335,0.17297695764742396,-0.4873700148537126,-0.11147515194690888,-1.9464599343517368,0.133612666020017,2.595550359778934,0.9452484245217508,0.1728802376190821,-0.48752024683155326,-0.11147110072896137,-1.9463801863486305,0.1336059019074957,2.595550359778934,0.9452445589611904,0.0009966267631546016,0.00040390683914873725,-0.00017950879920746913,0.0007996023701497957,0.00046966901268597096,-0.00010678676267772369,0.00023473431796572906,0.0,0.0,0.0,0.0,0.0,0.0,0.0,-9.672002834185123e-05,-0.00015023197784064246,4.051217947512176e-06,7.97480031062836e-05,-6.764112521318033e-06,0.0,-3.865560560423198e-06,-0.0009966267631546016,-0.00040390683914873725,0.00017950879920746913,-0.0007996023701497957,-0.00046966901268597096,0.00010678676267772369,-0.00023473431796572906,0.24825400114059448,11.873926162719727,-1.3147919178009033,-21.693452835083008,-0.3619285225868225,-2.5271639823913574,0.21457235515117645,0
17,0.07999515533447266,-0.24825400114059448,-11.873926162719727,1.3147919178009033,21.693452835083008,0.3619285225868225,2.5271639823913574,-0.21457235515117645,0.0,0.0,0.0,0.0,0.0,0.0,0.0,-0.19780312881682327,0.3960605466661328,0.12338097547058062,0.4277205927729373,-0.16368723117862913,0.12804703914251614,-0.2085084389723335,0.17297695764742396,-0.4873700148537126,-0.11147515194690888,-1.9464599343517368,0.133612666020017,2.595550359778934,0.9452484245217508,0.1728802376190821,-0.48752024683155326,-0.11147110072896137,-1.9463801863486305,0.1336059019074957,2.595550359778934,0.9452445589611904,0.0009966267631546016,0.00040390683914873725,-0.00017950879920746913,0.0007996023701497957,0.00046966901268597096,-0.00010678676267772369,0.00023473431796572906,0.0,0.0,0.0,0.0,0.0,0.0,0.0,-9.672002834185123e-05,-0.00015023197784064246,4.051217947512176e-06,7.97480031062836e-05,-6.764112521318033e-06,0.0,-3.865560560423198e-06,-0.0009966267631546016,-0.00040390683914873725,0.00017950879920746913,-0.0007996023701497957,-0.00046966901268597096,0.00010678676267772369,-0.00023473431796572906,0.24825400114059448,11.873926162719727,-1.3147919178009033,-21.693452835083008,-0.3619285225868225,-2.5271639823913574,0.21457235515117645,0
18,0.0850074291229248,-0.17287558317184448,-11.873926162719727,1.3147919178009033,21.693452835083008,0.3619285225868225,2.5143465995788574,-0.22098104655742645,0.0,0.0,0.0,0.0,0.0,0.0,0.0,-0.19406500961750875,0.4100063135453871,0.12956935505549683,0.42967161339453636,-0.16330525413490152,0.12794036395060102,-0.20997652117545448,0.1729716679338823,-0.4873699897162973,-0.11147445580365006,-1.9464599343517368,0.13361266650755924,2.5955517839325797,0.9452491365985738,0.1728802376190821,-0.48752024683155326,-0.11147110072896137,-1.9463801863486305,0.1336059019074957,2.595550359778934,0.9452445589611904,-0.00038428792705341,0.00049364141458391,-3.0937080116814148e-06,0.0006774770249413789,0.00037870098175562785,0.000523456160168383,0.0010620031889732708,0.0,0.0,0.0,0.0,0.0,0.0,0.0,-9.143031480018937e-05,-0.00015025711525595842,3.3550746886962246e-06,7.97480031062836e-05,-6.764600063546844e-06,-1.4241536456793824e-06,-4.5776373833739115e-06,0.00038428792705341,-0.00049364141458391,3.0937080116814148e-06,-0.0006774770249413789,-0.00037870098175562785,-0.000523456160168383,-0.0010620031889732708,0.17287558317184448,11.873926162719727,-1.3147919178009033,-21.693452835083008,-0.3619285225868225,-2.5143465995788574,0.22098104655742645,0
19,0.09001493453979492,-0.17287558317184448,-11.873926162719727,1.3147919178009033,21.693452835083008,0.3619285225868225,2.5143465995788574,-0.22098104655742645,0.0,0.0,0.0,0.0,0.0,0.0,0.0,-0.19406500961750875,0.4100063135453871,0.12956935505549683,0.42967161339453636,-0.16330525413490152,0.12794036395060102,-0.20997652117545448,0.1729716679338823,-0.4873699897162973,-0.11147445580365006,-1.9464599343517368,0.13361266650755924,2.5955517839325797,0.9452491365985738,0.1728802376190821,-0.48752024683155326,-0.11147110072896137,-1.9463801863486305,0.1336059019074957,2.595550359778934,0.9452445589611904,-0.00038428792705341,0.00049364141458391,-3.0937080116814148e-06,0.0006774770249413789,0.00037870098175562785,0.000523456160168383,0.0010620031889732708,0.0,0.0,0.0,0.0,0.0,0.0,0.0,-9.143031480018937e-05,-0.00015025711525595842,3.3550746886962246e-06,7.97480031062836e-05,-6.764600063546844e-06,-1.4241536456793824e-06,-4.5776373833739115e-06,0.00038428792705341,-0.00049364141458391,3.0937080116814148e-06,-0.0006774770249413789,-0.00037870098175562785,-0.000523456160168383,-0.0010620031889732708,0.17287558317184448,11.873926162719727,-1.3147919178009033,-21.693452835083008,-0.3619285225868225,-2.5143465995788574,0.22098104655742645,0
20,0.09500837326049805,-0.19667929410934448,-11.901697158813477,1.3425629138946533,21.693452835083008,0.3619285225868225,2.5335726737976074,-0.21457235515117645,0.0,0.0,0.0,0.0,0.0,0.0,0.0,-0.19751568396839322,0.4143070693829312,0.12398871804856332,0.4301596982783703,-0.1628674106560707,0.12731984626542533,-0.21064462380089619,0.17297333836973755,-0.48736804281844776,-0.11147649280063564,-1.9464599343517368,0.13361266650756198,2.595549647702111,0.9452484245217508,0.1728802376190821,-0.48752024683155326,-0.11147110072896137,-1.9463801863486305,0.1336059019074957,2.595550359778934,0.9452445589611904,0.00015282509734555812,-0.000135511579373928,-0.0005178340744481514,0.00020844832691382654,0.00040256508781936817,-0.00041204075831010727,0.0008319693500770581,0.0,0.0,0.0,0.0,0.0,0.0,0.0,-9.310075065543932e-05,-0.0001522040131055058,5.392071674270582e-06,7.97480031062836e-05,-6.764600066294646e-06,7.120768228396912e-07,-3.865560560423198e-06,-0.00015282509734555812,0.000135511579373928,0.0005178340744481514,-0.00020844832691382654,-0.00040256508781936817,0.00041204075831010727,-0.0008319693500770581,0.19667929410934448,11.901697158813477,-1.3425629138946533,-21.693452835083008,-0.3619285225868225,-2.5335726737976074,0.21457235515117645,0
21,0.10000252723693848,-0.19667929410934448,-11.901697158813477,1.3425629138946533,21.693452835083008,0.3619285225868225,2.5335726737976074,-0.21457235515117645,0.0,0.0,0.0,0.0,0.0,0.0,0.0,-0.19751568396839322,0.4143070693829312,0.12398871804856332,0.4301596982783703,-0.1628674106560707,0.12731984626542533,-0.21064462380089619,0.17297333836973755,-0.48736804281844776,-0.11147649280063564,-1.9464599343517368,0.13361266650756198,2.595549647702111,0.9452484245217508,0.1728802376190821,-0.48752024683155326,-0.11147110072896137,-1.9463801863486305,0.1336059019074957,2.595550359778934,0.9452445589611904,0.00015282509734555812,-0.000135511579373928,-0.0005178340744481514,0.00020844832691382654,0.00040256508781936817,-0.00041204075831010727,0.0008319693500770581,0.0,0.0,0.0,0.0,0.0,0.0,0.0,-9.310075065543932e-05,-0.0001522040131055058,5.392071674270582e-06,7.97480031062836e-05,-6.764600066294646e-06,7.120768228396912e-07,-3.865560560423198e-06,-0.00015282509734555812,0.000135511579373928,0.0005178340744481514,-0.00020844832691382654,-0.00040256508781936817,0.00041204075831010727,-0.0008319693500770581,0.19667929410934448,11.901697158813477,-1.3425629138946533,-21.693452835083008,-0.3619285225868225,-2.5335726737976074,0.21457235515117645,0
22,0.10495877265930176,-0.19667929410934448,-11.901697158813477,1.3425629138946533,21.693452835083008,0.3619285225868225,2.5335726737976074,-0.21457235515117645,0.0,0.0,0.0,0.0,0.0,0.0,0.0,-0.19751568396839322,0.4143070693829312,0.12398871804856332,0.4301596982783703,-0.1628674106560707,0.12731984626542533,-0.21064462380089619,0.17297333836973755,-0.48736804281844776,-0.11147649280063564,-1.9464599343517368,0.13361266650756198,2.595549647702111,0.9452484245217508,0.1728802376190821,-0.48752024683155326,-0.11147110072896137,-1.9463801863486305,0.1336059019074957,2.595550359778934,0.9452445589611904,0.00015282509734555812,-0.000135511579373928,-0.0005178340744481514,0.00020844832691382654,0.00040256508781936817,-0.00041204075831010727,0.0008319693500770581,0.0,0.0,0.0,0.0,0.0,0.0,0.0,-9.310075065543932e-05,-0.0001522040131055058,5.392071674270582e-06,7.97480031062836e-05,-6.764600066294646e-06,7.120768228396912e-07,-3.865560560423198e-06,-0.00015282509734555812,0.000135511579373928,0.0005178340744481514,-0.00020844832691382654,-0.00040256508781936817,0.00041204075831010727,-0.0008319693500770581,0.19667929410934448,11.901697158813477,-1.3425629138946533,-21.693452835083008,-0.3619285225868225,-2.5335726737976074,0.21457235515117645,0
23,0.1100003719329834,-0.19667929410934448,-11.949304580688477,1.2909882068634033,21.741060256958008,0.3674216866493225,2.5271639823913574,-0.19351522624492645,0.0,0.0,0.0,0.0,0.0,0.0,0.0,-0.1987604931374149,0.4154753322222489,0.12335224773722074,0.42906590147045465,-0.16279983719193902,0.1267015024502706,-0.21138790848333763,0.17297333836973755,-0.4873637457620294,-0.11147358576079625,-1.9464632752234474,0.13361209564714274,2.595550359778934,0.9452460848407613,0.1728802376190821,-0.48752024683155326,-0.11147110072896137,-1.9463801863486305,0.1336059019074957,2.595550359778934,0.9452445589611904,7.526157854936724e-05,0.0006710886641308309,0.0005506806735828644,-0.0006872659759666976,0.00020511680233912318,-0.00029377964651237356,-0.00045598739448911367,0.0,0.0,0.0,0.0,0.0,0.0,0.0,-9.310075065543932e-05,-0.00015650106952386222,2.4850318348784706e-06,8.308887481689453e-05,-6.193739647053498e-06,0.0,-1.5258795709183204e-06,-7.526157854936724e-05,-0.0006710886641308309,-0.0005506806735828644,0.0006872659759666976,-0.00020511680233912318,0.00029377964651237356,0.00045598739448911367,0.19667929410934448,11.949304580688477,-1.2909882068634033,-21.741060256958008,-0.3674216866493225,-2.5271639823913574,0.19351522624492645,0
24,0.11499786376953125,-0.19667929410934448,-11.949304580688477,1.2909882068634033,21.741060256958008,0.3674216866493225,2.5271639823913574,-0.19351522624492645,0.0,0.0,0.0,0.0,0.0,0.0,0.0,-0.1987604931374149,0.4154753322222489,0.12335224773722074,0.42906590147045465,-0.16279983719193902,0.1267015024502706,-0.21138790848333763,0.17297333836973755,-0.4873637457620294,-0.11147358576079625,-1.9464632752234474,0.13361209564714274,2.595550359778934,0.9452460848407613,0.1728802376190821,-0.48752024683155326,-0.11147110072896137,-1.9463801863486305,0.1336059019074957,2.595550359778934,0.9452445589611904,7.526157854936724e-05,0.0006710886641308309,0.0005506806735828644,-0.0006872659759666976,0.00020511680233912318,-0.00029377964651237356,-0.00045598739448911367,0.0,0.0,0.0,0.0,0.0,0.0,0.0,-9.310075065543932e-05,-0.00015650106952386222,2.4850318348784706e-06,8.308887481689453e-05,-6.193739647053498e-06,0.0,-1.5258795709183204e-06,-7.526157854936724e-05,-0.0006710886641308309,-0.0005506806735828644,0.0006872659759666976,-0.00020511680233912318,0.00029377964651237356,0.00045598739448911367,0.19667929410934448,11.949304580688477,-1.2909882068634033,-21.741060256958008,-0.3674216866493225,-2.5271639823913574,0.19351522624492645,0
25,0.1199946403503418,-0.19667929410934448,-11.973108291625977,1.3663666248321533,21.693452835083008,0.3619285225868225,2.5335726737976074,-0.20083944499492645,0.0,0.0,0.0,0.0,0.0,0.0,0.0,-0.18998631524056345,0.40860553332774163,0.13438687402046381,0.42909407074712336,-0.16321366569493925,0.12605810849040588,-0.21138766079939184,0.17297333836973755,-0.48736506793970535,-0.1114787972069379,-1.9464599343517368,0.13361266650823078,2.595549647702111,0.9452468986428446,0.1728802376190821,-0.48752024683155326,-0.11147110072896137,-1.9463801863486305,0.1336059019074957,2.595550359778934,0.9452445589611904,0.0003359637593218802,-9.499759800071995e-05,-0.0006187768424783001,0.0006552772999880045,0.00041633429995853466,-0.0002204818793229903,-0.00011880974202002048,0.0,0.0,0.0,0.0,0.0,0.0,0.0,-9.310075065543932e-05,-0.0001551788918479069,7.696477976534832e-06,7.97480031062836e-05,-6.764600735092996e-06,7.120768228396912e-07,-2.3396816541954024e-06,-0.0003359637593218802,9.499759800071995e-05,0.0006187768424783001,-0.0006552772999880045,-0.00041633429995853466,0.0002204818793229903,0.00011880974202002048,0.19667929410934448,11.973108291625977,-1.3663666248321533,-21.693452835083008,-0.3619285225868225,-2.5335726737976074,0.20083944499492645,0
26,0.12499594688415527,-0.19667929410934448,-11.973108291625977,1.3663666248321533,21.693452835083008,0.3619285225868225,2.5335726737976074,-0.20083944499492645,0.0,0.0,0.0,0.0,0.0,0.0,0.0,-0.18998631524056345,0.40860553332774163,0.13438687402046381,0.42909407074712336,-0.16321366569493925,0.12605810849040588,-0.21138766079939184,0.17297333836973755,-0.48736506793970535,-0.1114787972069379,-1.9464599343517368,0.13361266650823078,2.595549647702111,0.9452468986428446,0.1728802376190821,-0.48752024683155326,-0.11147110072896137,-1.9463801863486305,0.1336059019074957,2.595550359778934,0.9452445589611904,0.0003359637593218802,-9.499759800071995e-05,-0.0006187768424783001,0.0006552772999880045,0.00041633429995853466,-0.0002204818793229903,-0.00011880974202002048,0.0,0.0,0.0,0.0,0.0,0.0,0.0,-9.310075065543932e-05,-0.0001551788918479069,7.696477976534832e-06,7.97480031062836e-05,-6.764600735092996e-06,7.120768228396912e-07,-2.3396816541954024e-06,-0.0003359637593218802,9.499759800071995e-05,0.0006187768424783001,-0.0006552772999880045,-0.00041633429995853466,0.0002204818793229903,0.00011880974202002048,0.19667929410934448,11.973108291625977,-1.3663666248321533,-21.693452835083008,-0.3619285225868225,-2.5335726737976074,0.20083944499492645,0
27,0.12999725341796875,-0.22445029020309448,-12.024682998657227,1.3147919178009033,21.717256546020508,0.3793235421180725,2.5207552909851074,-0.21457235515117645,0.0,0.0,0.0,0.0,0.0,0.0,0.0,-0.19347430361978404,0.40754831168447103,0.12507574975085908,0.42217708008418886,-0.16279251985327384,0.12527719853103575,-0.2107317725124966,0.1729752872115687,-0.4873584588205991,-0.1114731262967819,-1.946463750554804,0.1336107337276141,2.5955510718019217,0.9452484245217508,0.1728802376190821,-0.48752024683155326,-0.11147110072896137,-1.9463801863486305,0.1336059019074957,2.595550359778934,0.9452445589611904,0.000856011797919936,0.0009114218145388545,0.00024189347185681487,0.00020017210265659203,-0.00044264017747036095,0.0003449135675179632,0.0005758197237113311,0.0,0.0,0.0,0.0,0.0,0.0,0.0,-9.504959248660128e-05,-0.00016178801095417805,2.025567820529428e-06,8.356420617339211e-05,-4.831820118400554e-06,-7.120229876811379e-07,-3.865560560423198e-06,-0.000856011797919936,-0.0009114218145388545,-0.00024189347185681487,-0.00020017210265659203,0.00044264017747036095,-0.0003449135675179632,-0.0005758197237113311,0.22445029020309448,12.024682998657227,-1.3147919178009033,-21.717256546020508,-0.3793235421180725,-2.5207552909851074,0.21457235515117645,0
28,0.13499665260314941,-0.22445029020309448,-12.024682998657227,1.3147919178009033,21.717256546020508,0.3793235421180725,2.5207552909851074,-0.21457235515117645,0.0,0.0,0.0,0.0,0.0,0.0,0.0,-0.19347430361978404,0.40754831168447103,0.12507574975085908,0.42217708008418886,-0.16279251985327384,0.12527719853103575,-0.2107317725124966,0.1729752872115687,-0.4873584588205991,-0.1114731262967819,-1.946463750554804,0.1336107337276141,2.5955510718019217,0.9452484245217508,0.1728802376190821,-0.48752024683155326,-0.11147110072896137,-1.9463801863486305,0.1336059019074957,2.595550359778934,0.9452445589611904,0.000856011797919936,0.0009114218145388545,0.00024189347185681487,0.00020017210265659203,-0.00044264017747036095,0.0003449135675179632,0.0005758197237113311,0.0,0.0,0.0,0.0,0.0,0.0,0.0,-9.504959248660128e-05,-0.00016178801095417805,2.025567820529428e-06,8.356420617339211e-05,-4.831820118400554e-06,-7.120229876811379e-07,-3.865560560423198e-06,-0.000856011797919936,-0.0009114218145388545,-0.00024189347185681487,-0.00020017210265659203,0.00044264017747036095,-0.0003449135675179632,-0.0005758197237113311,0.22445029020309448,12.024682998657227,-1.3147919178009033,-21.717256546020508,-0.3793235421180725,-2.5207552909851074,0.21457235515117645,0
29,0.1400151252746582,-0.14510458707809448,-12.000879287719727,1.3425629138946533,21.717256546020508,0.3738303780555725,2.5143465995788574,-0.15964071452617645,0.0,0.0,0.0,0.0,0.0,0.0,0.0,-0.1860242493836958,0.395134504414833,0.13481510905015273,0.41955331786921435,-0.16309776361480002,0.12515938011526379,-0.2100133172939192,0.17296971909205117,-0.4873600472739313,-0.11147717092882843,-1.946461604799705,0.13361134407917657,2.5955517839325792,0.9452423210061258,0.1728802376190821,-0.48752024683155326,-0.11147110072896137,-1.9463801863486305,0.1336059019074957,2.595550359778934,0.9452445589611904,-0.0008092314161853182,-0.00012351507077311766,-0.0002431006902026826,-0.00042194503736309,-0.00010876174934265357,0.0005677577466961627,-0.0016279873111655718,0.0,0.0,0.0,0.0,0.0,0.0,0.0,-8.948147296905518e-05,-0.00016019955762197613,6.070199867064252e-06,8.141845107445533e-05,-5.442171680886121e-06,-1.4241536452352932e-06,2.2379550645990065e-06,0.0008092314161853182,0.00012351507077311766,0.0002431006902026826,0.00042194503736309,0.00010876174934265357,-0.0005677577466961627,0.0016279873111655718,0.14510458707809448,12.000879287719727,-1.3425629138946533,-21.717256546020508,-0.3738303780555725,-2.5143465995788574,0.15964071452617645,0
30,0.14513325691223145,-0.14510458707809448,-12.000879287719727,1.3425629138946533,21.717256546020508,0.3738303780555725,2.5143465995788574,-0.15964071452617645,0.0,0.0,0.0,0.0,0.0,0.0,0.0,-0.1860242493836958,0.395134504414833,0.13481510905015273,0.41955331786921435,-0.16309776361480002,0.12515938011526379,-0.2100133172939192,0.17296971909205117,-0.4873600472739313,-0.11147717092882843,-1.946461604799705,0.13361134407917657,2.5955517839325792,0.9452423210061258,0.1728802376190821,-0.48752024683155326,-0.11147110072896137,-1.9463801863486305,0.1336059019074957,2.595550359778934,0.9452445589611904,-0.0008092314161853182,-0.00012351507077311766,-0.0002431006902026826,-0.00042194503736309,-0.00010876174934265357,0.0005677577466961627,-0.0016279873111655718,0.0,0.0,0.0,0.0,0.0,0.0,0.0,-8.948147296905518e-05,-0.00016019955762197613,6.070199867064252e-06,8.141845107445533e-05,-5.442171680886121e-06,-1.4241536452352932e-06,2.2379550645990065e-06,0.0008092314161853182,0.00012351507077311766,0.0002431006902026826,0.00042194503736309,0.00010876174934265357,-0.0005677577466961627,0.0016279873111655718,0.14510458707809448,12.000879287719727,-1.3425629138946533,-21.717256546020508,-0.3738303780555725,-2.5143465995788574,0.15964071452617645,0
31,0.14999604225158691,-0.12130087614059448,-12.000879287719727,1.3425629138946533,21.717256546020508,0.3674216866493225,2.5271639823913574,-0.17337362468242645,0.0,0.0,0.0,0.0,0.0,0.0,0.0,-0.18543102430701128,0.39187811815301143,0.131234413074448,0.4149339326490612,-0.1629568803123201,0.1250846243546141,-0.20990412590655225,0.1729680486561959,-0.48736227815513206,-0.11147624983520538,-1.946461604787592,0.1336120561559995,2.595550359778934,0.9452438468850322,0.1728802376190821,-0.48752024683155326,-0.11147110072896137,-1.9463801863486305,0.1336059019074957,2.595550359778934,0.9452445589611904,-0.00136748893797927,0.0006251021775608901,-0.0005959533493388111,-0.0002798186910781865,2.1278159139798628e-05,0.00012875051257673945,-0.000994891453468238,0.0,0.0,0.0,0.0,0.0,0.0,0.0,-8.781103711377747e-05,-0.00015796867642120516,5.149106244009549e-06,8.141843896147805e-05,-6.154248503809079e-06,0.0,7.120761582601887e-07,0.00136748893797927,-0.0006251021775608901,0.0005959533493388111,0.0002798186910781865,-2.1278159139798628e-05,-0.00012875051257673945,0.000994891453468238,0.12130087614059448,12.000879287719727,-1.3425629138946533,-21.717256546020508,-0.3674216866493225,-2.5271639823913574,0.17337362468242645,0
32,0.15500140190124512,-0.12130087614059448,-12.000879287719727,1.3425629138946533,21.717256546020508,0.3674216866493225,2.5271639823913574,-0.17337362468242645,0.0,0.0,0.0,0.0,0.0,0.0,0.0,-0.18543102430701128,0.39187811815301143,0.131234413074448,0.4149339326490612,-0.1629568803123201,0.1250846243546141,-0.20990412590655225,0.1729680486561959,-0.48736227815513206,-0.11147624983520538,-1.946461604787592,0.1336120561559995,2.595550359778934,0.9452438468850322,0.1728802376190821,-0.48752024683155326,-0.11147110072896137,-1.9463801863486305,0.1336059019074957,2.595550359778934,0.9452445589611904,-0.00136748893797927,0.0006251021775608901,-0.0005959533493388111,-0.0002798186910781865,2.1278159139798628e-05,0.00012875051257673945,-0.000994891453468238,0.0,0.0,0.0,0.0,0.0,0.0,0.0,-8.781103711377747e-05,-0.00015796867642120516,5.149106244009549e-06,8.141843896147805e-05,-6.154248503809079e-06,0.0,7.120761582601887e-07,0.00136748893797927,-0.0006251021775608901,0.0005959533493388111,0.0002798186910781865,-2.1278159139798628e-05,-0.00012875051257673945,0.000994891453468238,0.12130087614059448,12.000879287719727,-1.3425629138946533,-21.717256546020508,-0.3674216866493225,-2.5271639823913574,0.17337362468242645,0
33,0.16001629829406738,-0.22445029020309448,-11.949304580688477,1.2909882068634033,21.693452835083008,0.3674216866493225,2.5271639823913574,-0.22830526530742645,0.0,0.0,0.0,0.0,0.0,0.0,0.0,-0.18602788695297967,0.3792360850299038,0.12486208123571431,0.4178139027861671,-0.1634158162326306,0.12661305827619407,-0.2091907169334151,0.1729752872115687,-0.4873643839453029,-0.11147145294470817,-1.9464599343517368,0.1336120561559995,2.595550359778934,0.9452499504006571,0.1728802376190821,-0.48752024683155326,-0.11147110072896137,-1.9463801863486305,0.1336059019074957,2.595550359778934,0.9452445589611904,0.0008509662871896435,5.2765786700662426e-05,0.0007915398549417832,0.00017211895479542726,0.00010648652305489684,0.0001364416909433319,0.0017444384190293772,0.0,0.0,0.0,0.0,0.0,0.0,0.0,-9.504959248660128e-05,-0.0001558628862503575,3.522157468044407e-07,7.97480031062836e-05,-6.154248503809079e-06,0.0,-5.3914394666509935e-06,-0.0008509662871896435,-5.2765786700662426e-05,-0.0007915398549417832,-0.00017211895479542726,-0.00010648652305489684,-0.0001364416909433319,-0.0017444384190293772,0.22445029020309448,11.949304580688477,-1.2909882068634033,-21.693452835083008,-0.3674216866493225,-2.5271639823913574,0.22830526530742645,0
34,0.16499781608581543,-0.22445029020309448,-11.949304580688477,1.2909882068634033,21.693452835083008,0.3674216866493225,2.5271639823913574,-0.22830526530742645,0.0,0.0,0.0,0.0,0.0,0.0,0.0,-0.18602788695297967,0.3792360850299038,0.12486208123571431,0.4178139027861671,-0.1634158162326306,0.12661305827619407,-0.2091907169334151,0.1729752872115687,-0.4873643839453029,-0.11147145294470817,-1.9464599343517368,0.1336120561559995,2.595550359778934,0.9452499504006571,0.1728802376190821,-0.48752024683155326,-0.11147110072896137,-1.9463801863486305,0.1336059019074957,2.595550359778934,0.9452445589611904,0.0008509662871896435,5.2765786700662426e-05,0.0007915398549417832,0.00017211895479542726,0.00010648652305489684,0.0001364416909433319,0.0017444384190293772,0.0,0.0,0.0,0.0,0.0,0.0,0.0,-9.504959248660128e-05,-0.0001558628862503575,3.522157468044407e-07,7.97480031062836e-05,-6.154248503809079e-06,0.0,-5.3914394666509935e-06,-0.0008509662871896435,-5.2765786700662426e-05,-0.0007915398549417832,-0.00017211895479542726,-0.00010648652305489684,-0.0001364416909433319,-0.0017444384190293772,0.22445029020309448,11.949304580688477,-1.2909882068634033,-21.693452835083008,-0.3674216866493225,-2.5271639823913574,0.22830526530742645,0
35,0.17000484466552734,-0.22445029020309448,-11.826318740844727,1.3147919178009033,21.741060256958008,0.3738303780555725,2.5271639823913574,-0.19351522624492645,0.0,0.0,0.0,0.0,0.0,0.0,0.0,-0.18682976992009775,0.4012339022721196,0.12315452219923957,0.40593933229096407,-0.16418534943126814,0.12589564996151495,-0.20873113718003092,0.1729752872115687,-0.48737537695602867,-0.11147422209664853,-1.9464632752234474,0.13361134407917657,2.595550359778934,0.9452460848407613,0.1728802376190821,-0.48752024683155326,-0.11147110072896137,-1.9463801863486305,0.1336059019074957,2.595550359778934,0.9452445589611904,0.0007904770978455888,-0.0012091775426943674,-0.00042949788307005375,-0.001212059904339334,-3.586953900310799e-05,0.00019195415667896262,-0.006866879343322345,0.0,0.0,0.0,0.0,0.0,0.0,0.0,-9.504959248660128e-05,-0.0001448698755245892,3.121367687167198e-06,8.308887481689453e-05,-5.442171680886121e-06,0.0,-1.5258795709183204e-06,-0.0007904770978455888,0.0012091775426943674,0.00042949788307005375,0.001212059904339334,3.586953900310799e-05,-0.00019195415667896262,0.006866879343322345,0.22445029020309448,11.826318740844727,-1.3147919178009033,-21.741060256958008,-0.3738303780555725,-2.5271639823913574,0.19351522624492645,0
36,0.17502045631408691,-0.22445029020309448,-11.826318740844727,1.3147919178009033,21.741060256958008,0.3738303780555725,2.5271639823913574,-0.19351522624492645,0.0,0.0,0.0,0.0,0.0,0.0,0.0,-0.18682976992009775,0.4012339022721196,0.12315452219923957,0.40593933229096407,-0.16418534943126814,0.12589564996151495,-0.20873113718003092,0.1729752872115687,-0.48737537695602867,-0.11147422209664853,-1.9464632752234474,0.13361134407917657,2.595550359778934,0.9452460848407613,0.1728802376190821,-0.48752024683155326,-0.11147110072896137,-1.9463801863486305,0.1336059019074957,2.595550359778934,0.9452445589611904,0.0007904770978455888,-0.0012091775426943674,-0.00042949788307005375,-0.001212059904339334,-3.586953900310799e-05,0.00019195415667896262,-0.006866879343322345,0.0,0.0,0.0,0.0,0.0,0.0,0.0,-9.504959248660128e-05,-0.0001448698755245892,3.121367687167198e-06,8.308887481689453e-05,-5.442171680886121e-06,0.0,-1.5258795709183204e-06,-0.0007904770978455888,0.0012091775426943674,0.00042949788307005375,0.001212059904339334,3.586953900310799e-05,-0.00019195415667896262,0.006866879343322345,0.22445029020309448,11.826318740844727,-1.3147919178009033,-21.741060256958008,-0.3738303780555725,-2.5271639823913574,0.19351522624492645,0
37,0.1804332733154297,-0.17287558317184448,-11.873926162719727,1.2909882068634033,21.741060256958008,0.3738303780555725,2.5271639823913574,-0.19351522624492645,0.0,0.0,0.0,0.0,0.0,0.0,0.0,-0.1839956560723757,0.3870581601029843,0.13207820540899035,0.4189773131054014,-0.16420799498019203,0.12829528279896693,-0.207921308230283,0.1729716679338823,-0.4873697450561703,-0.11147357698998323,-1.9464632752234474,0.13361134407917657,2.595550359778934,0.9452460455949047,0.1728802376190821,-0.48752024683155326,-0.11147110072896137,-1.9463801863486305,0.1336059019074957,2.595550359778934,0.9452445589611904,-0.0003139591246159916,-0.00044036808811186,0.001020071535662874,-0.001048578288700509,-0.00012038878769434912,-0.00019300531731113275,-0.0006574377414481971,0.0,0.0,0.0,0.0,0.0,0.0,0.0,-9.143031480018937e-05,-0.00015050177538294962,2.4762610218581615e-06,8.308887481689453e-05,-5.442171680886121e-06,0.0,-1.4866337142427355e-06,0.0003139591246159916,0.00044036808811186,-0.001020071535662874,0.001048578288700509,0.00012038878769434912,0.00019300531731113275,0.0006574377414481971,0.17287558317184448,11.873926162719727,-1.2909882068634033,-21.741060256958008,-0.3738303780555725,-2.5271639823913574,0.19351522624492645,0
38,0.18504977226257324,-0.17287558317184448,-11.873926162719727,1.2909882068634033,21.741060256958008,0.3738303780555725,2.5271639823913574,-0.19351522624492645,0.0,0.0,0.0,0.0,0.0,0.0,0.0,-0.1839956560723757,0.3870581601029843,0.13207820540899035,0.4189773131054014,-0.16420799498019203,0.12829528279896693,-0.207921308230283,0.1729716679338823,-0.4873697450561703,-0.11147357698998323,-1.9464632752234474,0.13361134407917657,2.595550359778934,0.9452460455949047,0.1728802376190821,-0.48752024683155326,-0.11147110072896137,-1.9463801863486305,0.1336059019074957,2.595550359778934,0.9452445589611904,-0.0003139591246159916,-0.00044036808811186,0.001020071535662874,-0.001048578288700509,-0.00012038878769434912,-0.00019300531731113275,-0.0006574377414481971,0.0,0.0,0.0,0.0,0.0,0.0,0.0,-9.143031480018937e-05,-0.00015050177538294962,2.4762610218581615e-06,8.308887481689453e-05,-5.442171680886121e-06,0.0,-1.4866337142427355e-06,0.0003139591246159916,0.00044036808811186,-0.001020071535662874,0.001048578288700509,0.00012038878769434912,0.00019300531731113275,0.0006574377414481971,0.17287558317184448,11.873926162719727,-1.2909882068634033,-21.741060256958008,-0.3738303780555725,-2.5271639823913574,0.19351522624492645,0
39,0.18999862670898438,-0.17287558317184448,-11.873926162719727,1.2909882068634033,21.741060256958008,0.3738303780555725,2.5271639823913574,-0.19351522624492645,0.0,0.0,0.0,0.0,0.0,0.0,0.0,-0.1839956560723757,0.3870581601029843,0.13207820540899035,0.4189773131054014,-0.16420799498019203,0.12829528279896693,-0.207921308230283,0.1729716679338823,-0.4873697450561703,-0.11147357698998323,-1.9464632752234474,0.13361134407917657,2.595550359778934,0.9452460455949047,0.1728802376190821,-0.48752024683155326,-0.11147110072896137,-1.9463801863486305,0.1336059019074957,2.595550359778934,0.9452445589611904,-0.0003139591246159916,-0.00044036808811186,0.001020071535662874,-0.001048578288700509,-0.00012038878769434912,-0.00019300531731113275,-0.0006574377414481971,0.0,0.0,0.0,0.0,0.0,0.0,0.0,-9.143031480018937e-05,-0.00015050177538294962,2.4762610218581615e-06,8.308887481689453e-05,-5.442171680886121e-06,0.0,-1.4866337142427355e-06,0.0003139591246159916,0.00044036808811186,-0.001020071535662874,0.001048578288700509,0.00012038878769434912,0.00019300531731113275,0.0006574377414481971,0.17287558317184448,11.873926162719727,-1.2909882068634033,-21.741060256958008,-0.3738303780555725,-2.5271639823913574,0.19351522624492645,0
40,0.19499468803405762,-0.17287558317184448,-11.873926162719727,1.2909882068634033,21.741060256958008,0.3738303780555725,2.5271639823913574,-0.19351522624492645,0.0,0.0,0.0,0.0,0.0,0.0,0.0,-0.1839956560723757,0.3870581601029843,0.13207820540899035,0.4189773131054014,-0.16420799498019203,0.12829528279896693,-0.207921308230283,0.1729716679338823,-0.4873697450561703,-0.11147357698998323,-1.9464632752234474,0.13361134407917657,2.595550359778934,0.9452460455949047,0.1728802376190821,-0.48752024683155326,-0.11147110072896137,-1.9463801863486305,0.1336059019074957,2.595550359778934,0.9452445589611904,-0.0003139591246159916,-0.00044036808811186,0.001020071535662874,-0.001048578288700509,-0.00012038878769434912,-0.00019300531731113275,-0.0006574377414481971,0.0,0.0,0.0,0.0,0.0,0.0,0.0,-9.143031480018937e-05,-0.00015050177538294962,2.4762610218581615e-06,8.308887481689453e-05,-5.442171680886121e-06,0.0,-1.4866337142427355e-06,0.0003139591246159916,0.00044036808811186,-0.001020071535662874,0.001048578288700509,0.00012038878769434912,0.00019300531731113275,0.0006574377414481971,0.17287558317184448,11.873926162719727,-1.2909882068634033,-21.741060256958008,-0.3738303780555725,-2.5271639823913574,0.19351522624492645,0
41,0.1999976634979248,-0.19667929410934448,-11.873926162719727,1.2909882068634033,21.717256546020508,0.3738303780555725,2.5207552909851074,-0.23471395671367645,0.0,0.0,0.0,0.0,0.0,0.0,0.0,-0.18648892713905244,0.40277354828450196,0.1249683010371184,0.41722871258499006,-0.1643329364439914,0.12718475674892607,-0.20875939896449244,0.17297333836973755,-0.4873721450996437,-0.11147357786184492,-1.946461604787592,0.13361134407917657,2.595551071855757,0.9452506624772585,0.1728802376190821,-0.48752024683155326,-0.11147110072896137,-1.9463801863486305,0.1336059019074957,2.595550359778934,0.9452445589611904,0.0005318869501435796,-0.00038255879424806187,0.0009986116274972462,-0.0002290802355848723,-0.00030046685064734433,0.0002737689259499228,0.0013846207440290762,0.0,0.0,0.0,0.0,0.0,0.0,0.0,-9.310075065543932e-05,-0.00014810173190954457,2.4771328835521134e-06,8.141843896147805e-05,-5.442171680886121e-06,-7.120768228396912e-07,-6.103516068112214e-06,-0.0005318869501435796,0.00038255879424806187,-0.0009986116274972462,0.0002290802355848723,0.00030046685064734433,-0.0002737689259499228,-0.0013846207440290762,0.19667929410934448,11.873926162719727,-1.2909882068634033,-21.717256546020508,-0.3738303780555725,-2.5207552909851074,0.23471395671367645,0
42,0.2050032615661621,-0.19667929410934448,-11.873926162719727,1.2909882068634033,21.717256546020508,0.3738303780555725,2.5207552909851074,-0.23471395671367645,0.0,0.0,0.0,0.0,0.0,0.0,0.0,-0.18648892713905244,0.40277354828450196,0.1249683010371184,0.41722871258499006,-0.1643329364439914,0.12718475674892607,-0.20875939896449244,0.17297333836973755,-0.4873721450996437,-0.11147357786184492,-1.946461604787592,0.13361134407917657,2.595551071855757,0.9452506624772585,0.1728802376190821,-0.48752024683155326,-0.11147110072896137,-1.9463801863486305,0.1336059019074957,2.595550359778934,0.9452445589611904,0.0005318869501435796,-0.00038255879424806187,0.0009986116274972462,-0.0002290802355848723,-0.00030046685064734433,0.0002737689259499228,0.0013846207440290762,0.0,0.0,0.0,0.0,0.0,0.0,0.0,-9.310075065543932e-05,-0.00014810173190954457,2.4771328835521134e-06,8.141843896147805e-05,-5.442171680886121e-06,-7.120768228396912e-07,-6.103516068112214e-06,-0.0005318869501435796,0.00038255879424806187,-0.0009986116274972462,0.0002290802355848723,0.00030046685064734433,-0.0002737689259499228,-0.0013846207440290762,0.19667929410934448,11.873926162719727,-1.2909882068634033,-21.717256546020508,-0.3738303780555725,-2.5207552909851074,0.23471395671367645,0
43,0.20999693870544434,-0.17287558317184448,-11.901697158813477,1.3147919178009033,21.717256546020508,0.3555198311805725,2.5399813652038574,-0.20724813640117645,0.0,0.0,0.0,0.0,0.0,0.0,0.0,-0.18940354362711545,0.40708005198151764,0.11915645484018228,0.41944909860312624,-0.16408223870520974,0.12762132738079712,-0.20953974590699628,0.1729716679338823,-0.4873698714587349,-0.11147523086797213,-1.946461604787592,0.1336133785843849,2.5955489356252883,0.9452476107196676,0.1728802376190821,-0.48752024683155326,-0.11147110072896137,-1.9463801863486305,0.1336059019074957,2.595550359778934,0.9452445589611904,-0.0003438703677602166,0.00028176896138570054,0.0002113201591714438,-7.24844579166272e-05,0.0005263806055245271,-0.000485332346703164,0.0005384016359401575,0.0,0.0,0.0,0.0,0.0,0.0,0.0,-9.143031480018937e-05,-0.00015037537281836766,4.130139010766198e-06,8.141843896147805e-05,-7.476676889217604e-06,1.4241536456793824e-06,-3.051758477146116e-06,0.0003438703677602166,-0.00028176896138570054,-0.0002113201591714438,7.24844579166272e-05,-0.0005263806055245271,0.000485332346703164,-0.0005384016359401575,0.17287558317184448,11.901697158813477,-1.3147919178009033,-21.717256546020508,-0.3555198311805725,-2.5399813652038574,0.20724813640117645,0
44,0.2153487205505371,-0.17287558317184448,-11.901697158813477,1.3147919178009033,21.717256546020508,0.3555198311805725,2.5399813652038574,-0.20724813640117645,0.0,0.0,0.0,0.0,0.0,0.0,0.0,-0.18940354362711545,0.40708005198151764,0.11915645484018228,0.41944909860312624,-0.16408223870520974,0.12762132738079712,-0.20953974590699628,0.1729716679338823,-0.4873698714587349,-0.11147523086797213,-1.946461604787592,0.1336133785843849,2.5955489356252883,0.9452476107196676,0.1728802376190821,-0.48752024683155326,-0.11147110072896137,-1.9463801863486305,0.1336059019074957,2.595550359778934,0.9452445589611904,-0.0003438703677602166,0.00028176896138570054,0.0002113201591714438,-7.24844579166272e-05,0.0005263806055245271,-0.000485332346703164,0.0005384016359401575,0.0,0.0,0.0,0.0,0.0,0.0,0.0,-9.143031480018937e-05,-0.00015037537281836766,4.130139010766198e-06,8.141843896147805e-05,-7.476676889217604e-06,1.4241536456793824e-06,-3.051758477146116e-06,0.0003438703677602166,-0.00028176896138570054,-0.0002113201591714438,7.24844579166272e-05,-0.0005263806055245271,0.000485332346703164,-0.0005384016359401575,0.17287558317184448,11.901697158813477,-1.3147919178009033,-21.717256546020508,-0.3555198311805725,-2.5399813652038574,0.20724813640117645,0
45,0.21999454498291016,-0.19667929410934448,-11.901697158813477,1.3425629138946533,21.741060256958008,0.3738303780555725,2.5399813652038574,-0.16604940593242645,0.0,0.0,0.0,0.0,0.0,0.0,0.0,-0.1870764095334777,0.41560310681414114,0.12311977909353711,0.4173456746594851,-0.16425600984489802,0.12681144087918192,-0.2086713616679769,0.17297333739767584,-0.48736993377685883,-0.11147720565582914,-1.9464632752234474,0.13361134407917657,2.5955489356252883,0.9452430330829488,0.1728802376190821,-0.48752024683155326,-0.11147110072896137,-1.9463801863486305,0.1336059019074957,2.595550359778934,0.9452445589611904,0.0002776601420061972,-0.00017049336560122973,-0.0004079309811464031,-0.0006897028947955806,-0.0001634663661311318,-0.0006562427096149676,-0.0016890564916109809,0.0,0.0,0.0,0.0,0.0,0.0,0.0,-9.309977859373042e-05,-0.00015031305469442868,6.1049268677698665e-06,8.308887481689453e-05,-5.442171680886121e-06,1.4241536456793824e-06,1.525878241648293e-06,-0.0002776601420061972,0.00017049336560122973,0.0004079309811464031,0.0006897028947955806,0.0001634663661311318,0.0006562427096149676,0.0016890564916109809,0.19667929410934448,11.901697158813477,-1.3425629138946533,-21.741060256958008,-0.3738303780555725,-2.5399813652038574,0.16604940593242645,0
46,0.22504019737243652,-0.19667929410934448,-11.901697158813477,1.3425629138946533,21.741060256958008,0.3738303780555725,2.5399813652038574,-0.16604940593242645,0.0,0.0,0.0,0.0,0.0,0.0,0.0,-0.1870764095334777,0.41560310681414114,0.12311977909353711,0.4173456746594851,-0.16425600984489802,0.12681144087918192,-0.2086713616679769,0.17297333739767584,-0.48736993377685883,-0.11147720565582914,-1.9464632752234474,0.13361134407917657,2.5955489356252883,0.9452430330829488,0.1728802376190821,-0.48752024683155326,-0.11147110072896137,-1.9463801863486305,0.1336059019074957,2.595550359778934,0.9452445589611904,0.0002776601420061972,-0.00017049336560122973,-0.0004079309811464031,-0.0006897028947955806,-0.0001634663661311318,-0.0006562427096149676,-0.0016890564916109809,0.0,0.0,0.0,0.0,0.0,0.0,0.0,-9.309977859373042e-05,-0.00015031305469442868,6.1049268677698665e-06,8.308887481689453e-05,-5.442171680886121e-06,1.4241536456793824e-06,1.525878241648293e-06,-0.0002776601420061972,0.00017049336560122973,0.0004079309811464031,0.0006897028947955806,0.0001634663661311318,0.0006562427096149676,0.0016890564916109809,0.19667929410934448,11.901697158813477,-1.3425629138946533,-21.741060256958008,-0.3738303780555725,-2.5399813652038574,0.16604940593242645,0
47,0.23010921478271484,-0.19667929410934448,-11.925500869750977,1.3147919178009033,21.741060256958008,0.3674216866493225,2.5335726737976074,-0.21457235515117645,0.0,0.0,0.0,0.0,0.0,0.0,0.0,-0.19145304538913427,0.414149118021822,0.11894265029538156,0.4189305055473681,-0.16422742336323023,0.12610736764667374,-0.2088471766890806,0.1729733383697211,-0.48736828864799897,-0.11147524710689778,-1.9464632752234474,0.1336120561559995,2.595549647702111,0.9452484245217508,0.1728802376190821,-0.48752024683155326,-0.11147110072896137,-1.9463801863486305,0.1336059019074957,2.595550359778934,0.9452445589611904,6.566464309447066e-05,-0.0002661572660628306,-5.6032938376648014e-05,0.005660813728918012,-2.3011326337758117e-05,-0.0003634813732690911,0.00033651377905129356,0.0,0.0,0.0,0.0,0.0,0.0,0.0,-9.310075063898027e-05,-0.00015195818355429047,4.1463779364148134e-06,8.308887481689453e-05,-6.154248503809079e-06,7.120768228396912e-07,-3.865560560423198e-06,-6.566464309447066e-05,0.0002661572660628306,5.6032938376648014e-05,-0.005660813728918012,2.3011326337758117e-05,0.0003634813732690911,-0.00033651377905129356,0.19667929410934448,11.925500869750977,-1.3147919178009033,-21.741060256958008,-0.3674216866493225,-2.5335726737976074,0.21457235515117645,0
48,0.23499751091003418,-0.19667929410934448,-11.925500869750977,1.3147919178009033,21.741060256958008,0.3674216866493225,2.5335726737976074,-0.21457235515117645,0.0,0.0,0.0,0.0,0.0,0.0,0.0,-0.19145304538913427,0.414149118021822,0.11894265029538156,0.4189305055473681,-0.16422742336323023,0.12610736764667374,-0.2088471766890806,0.1729733383697211,-0.48736828864799897,-0.11147524710689778,-1.9464632752234474,0.1336120561559995,2.595549647702111,0.9452484245217508,0.1728802376190821,-0.48752024683155326,-0.11147110072896137,-1.9463801863486305,0.1336059019074957,2.595550359778934,0.9452445589611904,6.566464309447066e-05,-0.0002661572660628306,-5.6032938376648014e-05,0.005660813728918012,-2.3011326337758117e-05,-0.0003634813732690911,0.00033651377905129356,0.0,0.0,0.0,0.0,0.0,0.0,0.0,-9.310075063898027e-05,-0.00015195818355429047,4.1463779364148134e-06,8.308887481689453e-05,-6.154248503809079e-06,7.120768228396912e-07,-3.865560560423198e-06,-6.566464309447066e-05,0.0002661572660628306,5.6032938376648014e-05,-0.005660813728918012,2.3011326337758117e-05,0.0003634813732690911,-0.00033651377905129356,0.19667929410934448,11.925500869750977,-1.3147919178009033,-21.741060256958008,-0.3674216866493225,-2.5335726737976074,0.21457235515117645,0
49,0.23999643325805664,-0.19667929410934448,-11.973108291625977,1.3147919178009033,21.717256546020508,0.3674216866493225,2.5335726737976074,-0.17978231608867645,0.0,0.0,0.0,0.0,0.0,0.0,0.0,-0.1917284660278284,0.4246517647394956,0.12265191947543523,0.40364316790031796,-0.16572365406802253,0.12335065437741677,-0.20988685136438007,0.17297333836973755,-0.4873623376385405,-0.11147241600822849,-1.946461604787592,0.13361205469336454,2.595549647702111,0.945244558961855,0.1728802376190821,-0.48752024683155326,-0.11147110072896137,-1.9463801863486305,0.1336059019074957,2.595550359778934,0.9452445589611904,-0.0004137718365039522,-9.126851612424108e-05,0.00038176322724695695,0.0001965458585433205,-0.00013153369904003197,-0.00024089736190232428,-0.0004768740290809065,0.0,0.0,0.0,0.0,0.0,0.0,0.0,-9.310075065543932e-05,-0.00015790919301278405,1.3152792671250468e-06,8.141843896147805e-05,-6.152785868851485e-06,7.120768228396912e-07,-6.645795025406187e-13,0.0004137718365039522,9.126851612424108e-05,-0.00038176322724695695,-0.0001965458585433205,0.00013153369904003197,0.00024089736190232428,0.0004768740290809065,0.19667929410934448,11.973108291625977,-1.3147919178009033,-21.717256546020508,-0.3674216866493225,-2.5335726737976074,0.17978231608867645,0
50,0.24580740928649902,-0.19667929410934448,-11.973108291625977,1.3147919178009033,21.717256546020508,0.3674216866493225,2.5335726737976074,-0.17978231608867645,0.0,0.0,0.0,0.0,0.0,0.0,0.0,-0.1917284660278284,0.4246517647394956,0.12265191947543523,0.40364316790031796,-0.16572365406802253,0.12335065437741677,-0.20988685136438007,0.17297333836973755,-0.4873623376385405,-0.11147241600822849,-1.946461604787592,0.13361205469336454,2.595549647702111,0.945244558961855,0.1728802376190821,-0.48752024683155326,-0.11147110072896137,-1.9463801863486305,0.1336059019074957,2.595550359778934,0.9452445589611904,-0.0004137718365039522,-9.126851612424108e-05,0.00038176322724695695,0.0001965458585433205,-0.00013153369904003197,-0.00024089736190232428,-0.0004768740290809065,0.0,0.0,0.0,0.0,0.0,0.0,0.0,-9.310075065543932e-05,-0.00015790919301278405,1.3152792671250468e-06,8.141843896147805e-05,-6.152785868851485e-06,7.120768228396912e-07,-6.645795025406187e-13,0.0004137718365039522,9.126851612424108e-05,-0.00038176322724695695,-0.0001965458585433205,0.00013153369904003197,0.00024089736190232428,0.0004768740290809065,0.19667929410934448,11.973108291625977,-1.3147919178009033,-21.717256546020508,-0.3674216866493225,-2.5335726737976074,0.17978231608867645,0
51,0.2499532699584961,-0.19667929410934448,-11.973108291625977,1.2909882068634033,21.741060256958008,0.3619285225868225,2.5335726737976074,-0.16604940593242645,0.0,0.0,0.0,0.0,0.0,0.0,0.0,-0.19178647838819785,0.39254542948455295,0.1255886530938544,0.428210661980525,-0.1660857587595223,0.1269903677259726,-0.2086957350261212,0.17297333836973755,-0.4873619964412481,-0.11147287351143452,-1.9464632752234474,0.13361266650755374,2.595549647702111,0.9452430330829488,0.1728802376190821,-0.48752024683155326,-0.11147110072896137,-1.9463801863486305,0.1336059019074957,2.595550359778934,0.9452445589611904,0.0002661619193103353,-0.0003046037479145732,0.0008316005734154155,-0.00044481808490289183,0.0003730626083506999,-0.00029742058721469626,-0.001275876156478661,0.0,0.0,0.0,0.0,0.0,0.0,0.0,-9.310075065543932e-05,-0.00015825039030514798,1.772782473152823e-06,8.308887481689453e-05,-6.76460005805124e-06,7.120768228396912e-07,1.525878241648293e-06,-0.0002661619193103353,0.0003046037479145732,-0.0008316005734154155,0.00044481808490289183,-0.0003730626083506999,0.00029742058721469626,0.001275876156478661,0.19667929410934448,11.973108291625977,-1.2909882068634033,-21.741060256958008,-0.3619285225868225,-2.5335726737976074,0.16604940593242645,0
52,0.25495147705078125,-0.19667929410934448,-11.973108291625977,1.2909882068634033,21.741060256958008,0.3619285225868225,2.5335726737976074,-0.16604940593242645,0.0,0.0,0.0,0.0,0.0,0.0,0.0,-0.19178647838819785,0.39254542948455295,0.1255886530938544,0.428210661980525,-0.1660857587595223,0.1269903677259726,-0.2086957350261212,0.17297333836973755,-0.4873619964412481,-0.11147287351143452,-1.9464632752234474,0.13361266650755374,2.595549647702111,0.9452430330829488,0.1728802376190821,-0.48752024683155326,-0.11147110072896137,-1.9463801863486305,0.1336059019074957,2.595550359778934,0.9452445589611904,0.0002661619193103353,-0.0003046037479145732,0.0008316005734154155,-0.00044481808490289183,0.0003730626083506999,-0.00029742058721469626,-0.001275876156478661,0.0,0.0,0.0,0.0,0.0,0.0,0.0,-9.310075065543932e-05,-0.00015825039030514798,1.772782473152823e-06,8.308887481689453e-05,-6.76460005805124e-06,7.120768228396912e-07,1.525878241648293e-06,-0.0002661619193103353,0.0003046037479145732,-0.0008316005734154155,0.00044481808490289183,-0.0003730626083506999,0.00029742058721469626,0.001275876156478661,0.19667929410934448,11.973108291625977,-1.2909882068634033,-21.741060256958008,-0.3619285225868225,-2.5335726737976074,0.16604940593242645,0
53,0.25999999046325684,-0.17287558317184448,-12.000879287719727,1.3147919178009033,21.717256546020508,0.3738303780555725,2.5399813652038574,-0.19351522624492645,0.0,0.0,0.0,0.0,0.0,0.0,0.0,-0.19113273692970673,0.37234125837111415,0.12601094791786654,0.4320699161331083,-0.1656225230828085,0.12815152989579512,-0.20754023146010356,0.1729716679338823,-0.48736099308953074,-0.11147304738396878,-1.946461604787592,0.13361134407917655,2.5955489356252883,0.9452460848407613,0.1728802376190821,-0.48752024683155326,-0.11147110072896137,-1.9463801863486305,0.1336059019074957,2.595550359778934,0.9452445589611904,-0.00038173000489315234,0.0002595863952751074,0.0003079339955145262,-8.496321548009197e-05,-2.731167516110593e-05,-0.00016844694487259091,-8.749656396681156e-05,0.0,0.0,0.0,0.0,0.0,0.0,0.0,-9.143031480018937e-05,-0.00015925374202252485,1.9466550074120903e-06,8.141843896147805e-05,-5.442171680858365e-06,1.4241536456793824e-06,-1.5258795709183204e-06,0.00038173000489315234,-0.0002595863952751074,-0.0003079339955145262,8.496321548009197e-05,2.731167516110593e-05,0.00016844694487259091,8.749656396681156e-05,0.17287558317184448,12.000879287719727,-1.3147919178009033,-21.717256546020508,-0.3738303780555725,-2.5399813652038574,0.19351522624492645,0
54,0.2649979591369629,-0.17287558317184448,-12.000879287719727,1.3147919178009033,21.717256546020508,0.3738303780555725,2.5399813652038574,-0.19351522624492645,0.0,0.0,0.0,0.0,0.0,0.0,0.0,-0.19113273692970673,0.37234125837111415,0.12601094791786654,0.4320699161331083,-0.1656225230828085,0.12815152989579512,-0.20754023146010356,0.1729716679338823,-0.48736099308953074,-0.11147304738396878,-1.946461604787592,0.13361134407917655,2.5955489356252883,0.9452460848407613,0.1728802376190821,-0.48752024683155326,-0.11147110072896137,-1.9463801863486305,0.1336059019074957,2.595550359778934,0.9452445589611904,-0.00038173000489315234,0.0002595863952751074,0.0003079339955145262,-8.496321548009197e-05,-2.731167516110593e-05,-0.00016844694487259091,-8.749656396681156e-05,0.0,0.0,0.0,0.0,0.0,0.0,0.0,-9.143031480018937e-05,-0.00015925374202252485,1.9466550074120903e-06,8.141843896147805e-05,-5.442171680858365e-06,1.4241536456793824e-06,-1.5258795709183204e-06,0.00038173000489315234,-0.0002595863952751074,-0.0003079339955145262,8.496321548009197e-05,2.731167516110593e-05,0.00016844694487259091,8.749656396681156e-05,0.17287558317184448,12.000879287719727,-1.3147919178009033,-21.717256546020508,-0.3738303780555725,-2.5399813652038574,0.19351522624492645,0
55,0.26999735832214355,-0.19667929410934448,-11.973108291625977,1.3425629138946533,21.768831253051758,0.3674216866493225,2.5207552909851074,-0.22098104655742645,0.0,0.0,0.0,0.0,0.0,0.0,0.0,-0.1925657978274462,0.37748470039469334,0.1242212118616553,0.4257745777872158,-0.16449942399315517,0.12799075210492078,-0.20723300880817538,0.17297333836973755,-0.487361999036824,-0.1114771269751433,-1.9464652240652784,0.13361205615599947,2.595551071855757,0.9452491365985738,0.1728802376190821,-0.48752024683155326,-0.11147110072896137,-1.9463801863486305,0.1336059019074957,2.595550359778934,0.9452445589611904,-0.0002575508203841147,0.0001693905649861053,-0.0006041359338605583,-0.0011355622001017899,0.0001769131542556538,0.0002363923279428884,0.0009157613252821883,0.0,0.0,0.0,0.0,0.0,0.0,0.0,-9.310075065543932e-05,-0.00015824779472928263,6.026246181928263e-06,8.50377166479177e-05,-6.154248503781323e-06,-7.120768228396912e-07,-4.5776373833739115e-06,0.0002575508203841147,-0.0001693905649861053,0.0006041359338605583,0.0011355622001017899,-0.0001769131542556538,-0.0002363923279428884,-0.0009157613252821883,0.19667929410934448,11.973108291625977,-1.3425629138946533,-21.768831253051758,-0.3674216866493225,-2.5207552909851074,0.22098104655742645,0
56,0.27499866485595703,-0.19667929410934448,-11.973108291625977,1.3425629138946533,21.768831253051758,0.3674216866493225,2.5207552909851074,-0.22098104655742645,0.0,0.0,0.0,0.0,0.0,0.0,0.0,-0.1925657978274462,0.37748470039469334,0.1242212118616553,0.4257745777872158,-0.16449942399315517,0.12799075210492078,-0.20723300880817538,0.17297333836973755,-0.487361999036824,-0.1114771269751433,-1.9464652240652784,0.13361205615599947,2.595551071855757,0.9452491365985738,0.1728802376190821,-0.48752024683155326,-0.11147110072896137,-1.9463801863486305,0.1336059019074957,2.595550359778934,0.9452445589611904,-0.0002575508203841147,0.0001693905649861053,-0.0006041359338605583,-0.0011355622001017899,0.0001769131542556538,0.0002363923279428884,0.0009157613252821883,0.0,0.0,0.0,0.0,0.0,0.0,0.0,-9.310075065543932e-05,-0.00015824779472928263,6.026246181928263e-06,8.50377166479177e-05,-6.154248503781323e-06,-7.120768228396912e-07,-4.5776373833739115e-06,0.0002575508203841147,-0.0001693905649861053,0.0006041359338605583,0.0011355622001017899,-0.0001769131542556538,-0.0002363923279428884,-0.0009157613252821883,0.19667929410934448,11.973108291625977,-1.3425629138946533,-21.768831253051758,-0.3674216866493225,-2.5207552909851074,0.22098104655742645,0
57,0.27999448776245117,-0.19667929410934448,-11.901697158813477,1.3425629138946533,21.741060256958008,0.3738303780555725,2.5207552909851074,-0.17337362468242645,0.0,0.0,0.0,0.0,0.0,0.0,0.0,-0.19481739960694439,0.3795989889432453,0.12449851522729599,0.42434544844579086,-0.1640350833777565,0.12685432519538706,-0.20687790579984655,0.17297333836973755,-0.4873670074588842,-0.11147506237575786,-1.9464625864586633,0.13361134407917655,2.595551071855757,0.9452438468850322,0.1728802376190821,-0.48752024683155326,-0.11147110072896137,-1.9463801863486305,0.1336059019074957,2.595550359778934,0.9452445589611904,0.0003808960217092985,-0.0007987989100351715,-0.0009807334799255352,-0.000586058183295375,-7.818378617011958e-05,0.00011357199276720013,-0.0012588915374504984,0.0,0.0,0.0,0.0,0.0,0.0,0.0,-9.310075065543932e-05,-0.00015323937266903398,3.9616467964881386e-06,8.240011003279868e-05,-5.442171680858365e-06,-7.120768228396912e-07,7.120761582601887e-07,-0.0003808960217092985,0.0007987989100351715,0.0009807334799255352,0.000586058183295375,7.818378617011958e-05,-0.00011357199276720013,0.0012588915374504984,0.19667929410934448,11.901697158813477,-1.3425629138946533,-21.741060256958008,-0.3738303780555725,-2.5207552909851074,0.17337362468242645,0
58,0.28499555587768555,-0.19667929410934448,-11.901697158813477,1.3425629138946533,21.741060256958008,0.3738303780555725,2.5207552909851074,-0.17337362468242645,0.0,0.0,0.0,0.0,0.0,0.0,0.0,-0.19481739960694439,0.3795989889432453,0.12449851522729599,0.42434544844579086,-0.1640350833777565,0.12685432519538706,-0.20687790579984655,0.17297333836973755,-0.4873670074588842,-0.11147506237575786,-1.9464625864586633,0.13361134407917655,2.595551071855757,0.9452438468850322,0.1728802376190821,-0.48752024683155326,-0.11147110072896137,-1.9463801863486305,0.1336059019074957,2.595550359778934,0.9452445589611904,0.0003808960217092985,-0.0007987989100351715,-0.0009807334799255352,-0.000586058183295375,-7.818378617011958e-05,0.00011357199276720013,-0.0012588915374504984,0.0,0.0,0.0,0.0,0.0,0.0,0.0,-9.310075065543932e-05,-0.00015323937266903398,3.9616467964881386e-06,8.240011003279868e-05,-5.442171680858365e-06,-7.120768228396912e-07,7.120761582601887e-07,-0.0003808960217092985,0.0007987989100351715,0.0009807334799255352,0.000586058183295375,7.818378617011958e-05,-0.00011357199276720013,0.0012588915374504984,0.19667929410934448,11.901697158813477,-1.3425629138946533,-21.741060256958008,-0.3738303780555725,-2.5207552909851074,0.17337362468242645,0
59,0.2899963855743408,-0.19667929410934448,-11.901697158813477,1.3147919178009033,21.693452835083008,0.3793235421180725,2.5271639823913574,-0.17337362468242645,0.0,0.0,0.0,0.0,0.0,0.0,0.0,-0.1925219539697582,0.3843714008023107,0.12542160784850281,0.4253477893075379,-0.16358370313394982,0.12615837895445284,-0.20740949477903936,0.17297333836973755,-0.48736937050492407,-0.11147517528285966,-1.9464599343478488,0.13361073372761406,2.595550359778934,0.9452438468850322,0.1728802376190821,-0.48752024683155326,-0.11147110072896137,-1.9463801863486305,0.1336059019074957,2.595550359778934,0.9452445589611904,0.00038392847383863235,1.2434426931546707e-05,-0.00044841556055785244,0.000530894332325686,-0.00018822968774881262,4.275522925461962e-06,-0.0011238341346346613,0.0,0.0,0.0,0.0,0.0,0.0,0.0,-9.310075065543932e-05,-0.00015087632662919015,4.07455389829503e-06,7.974799921828257e-05,-4.831820118372798e-06,0.0,7.120761582601887e-07,-0.00038392847383863235,-1.2434426931546707e-05,0.00044841556055785244,-0.000530894332325686,0.00018822968774881262,-4.275522925461962e-06,0.0011238341346346613,0.19667929410934448,11.901697158813477,-1.3147919178009033,-21.693452835083008,-0.3793235421180725,-2.5271639823913574,0.17337362468242645,0
60,0.29500722885131836,-0.19667929410934448,-11.901697158813477,1.3147919178009033,21.693452835083008,0.3793235421180725,2.5271639823913574,-0.17337362468242645,0.0,0.0,0.0,0.0,0.0,0.0,0.0,-0.1925219539697582,0.3843714008023107,0.12542160784850281,0.4253477893075379,-0.16358370313394982,0.12615837895445284,-0.20740949477903936,0.17297333836973755,-0.48736937050492407,-0.11147517528285966,-1.9464599343478488,0.13361073372761406,2.595550359778934,0.9452438468850322,0.1728802376190821,-0.48752024683155326,-0.11147110072896137,-1.9463801863486305,0.1336059019074957,2.595550359778934,0.9452445589611904,0.00038392847383863235,1.2434426931546707e-05,-0.00044841556055785244,0.000530894332325686,-0.00018822968774881262,4.275522925461962e-06,-0.0011238341346346613,0.0,0.0,0.0,0.0,0.0,0.0,0.0,-9.310075065543932e-05,-0.00015087632662919015,4.07455389829503e-06,7.974799921828257e-05,-4.831820118372798e-06,0.0,7.120761582601887e-07,-0.00038392847383863235,-1.2434426931546707e-05,0.00044841556055785244,-0.000530894332325686,0.00018822968774881262,-4.275522925461962e-06,0.0011238341346346613,0.19667929410934448,11.901697158813477,-1.3147919178009033,-21.693452835083008,-0.3793235421180725,-2.5271639823913574,0.17337362468242645,0
61,0.300004243850708,-0.19667929410934448,-11.901697158813477,1.2909882068634033,21.693452835083008,0.3738303780555725,2.5271639823913574,-0.22098104655742645,0.0,0.0,0.0,0.0,0.0,0.0,0.0,-0.19073143452609248,0.40216014568264596,0.12220220728606268,0.42192085569559995,-0.16303421451937386,0.12601670669286277,-0.20759449784777995,0.17297333836973755,-0.4873700898799438,-0.11147346873615295,-1.9464599343517368,0.13361134407917655,2.595550359778934,0.9452491365985738,0.1728802376190821,-0.48752024683155326,-0.11147110072896137,-1.9463801863486305,0.1336059019074957,2.595550359778934,0.9452445589611904,0.00017360669250872192,0.0010028261449422078,0.00040295037239963143,0.00020574470875101277,-8.763483240313357e-05,-8.697695668114328e-05,0.001302014786269651,0.0,0.0,0.0,0.0,0.0,0.0,0.0,-9.310075065543932e-05,-0.0001501569516094703,2.3680071915832546e-06,7.97480031062836e-05,-5.442171680858365e-06,0.0,-4.5776373833739115e-06,-0.00017360669250872192,-0.0010028261449422078,-0.00040295037239963143,-0.00020574470875101277,8.763483240313357e-05,8.697695668114328e-05,-0.001302014786269651,0.19667929410934448,11.901697158813477,-1.2909882068634033,-21.693452835083008,-0.3738303780555725,-2.5271639823913574,0.22098104655742645,0
62,0.3049962520599365,-0.19667929410934448,-11.901697158813477,1.2909882068634033,21.693452835083008,0.3738303780555725,2.5271639823913574,-0.22098104655742645,0.0,0.0,0.0,0.0,0.0,0.0,0.0,-0.19073143452609248,0.40216014568264596,0.12220220728606268,0.42192085569559995,-0.16303421451937386,0.12601670669286277,-0.20759449784777995,0.17297333836973755,-0.4873700898799438,-0.11147346873615295,-1.9464599343517368,0.13361134407917655,2.595550359778934,0.9452491365985738,0.1728802376190821,-0.48752024683155326,-0.11147110072896137,-1.9463801863486305,0.1336059019074957,2.595550359778934,0.9452445589611904,0.00017360669250872192,0.0010028261449422078,0.00040295037239963143,0.00020574470875101277,-8.763483240313357e-05,-8.697695668114328e-05,0.001302014786269651,0.0,0.0,0.0,0.0,0.0,0.0,0.0,-9.310075065543932e-05,-0.0001501569516094703,2.3680071915832546e-06,7.97480031062836e-05,-5.442171680858365e-06,0.0,-4.5776373833739115e-06,-0.00017360669250872192,-0.0010028261449422078,-0.00040295037239963143,-0.00020574470875101277,8.763483240313357e-05,8.697695668114328e-05,-0.001302014786269651,0.19667929410934448,11.901697158813477,-1.2909882068634033,-21.693452835083008,-0.3738303780555725,-2.5271639823913574,0.22098104655742645,0
63,0.31003451347351074,-0.19667929410934448,-11.901697158813477,1.3147919178009033,21.693452835083008,0.3555198311805725,2.5335726737976074,-0.20083944499492645,0.0,0.0,0.0,0.0,0.0,0.0,0.0,-0.19645049126213457,0.35545607939164203,0.11348381547904106,0.4661722377188815,-0.16202373075356694,0.13363385174118964,-0.20731237765034358,0.17297333836973755,-0.48736995581149095,-0.11147502008667225,-1.9464599343517368,0.13361337853021324,2.595549647702111,0.9452468986428446,0.1728802376190821,-0.48752024683155326,-0.11147110072896137,-1.9463801863486305,0.1336059019074957,2.595550359778934,0.9452445589611904,-0.0004357978661779633,0.0001563672522294868,-0.00015420295286368939,-1.920627204474542e-05,0.0005600070007327886,6.249759149832919e-05,-0.00017970732239685927,0.0,0.0,0.0,0.0,0.0,0.0,0.0,-9.310075065543932e-05,-0.00015029102006230977,3.919357710879812e-06,7.97480031062836e-05,-7.476622717550452e-06,7.120768228396912e-07,-2.3396816541954024e-06,0.0004357978661779633,-0.0001563672522294868,0.00015420295286368939,1.920627204474542e-05,-0.0005600070007327886,-6.249759149832919e-05,0.00017970732239685927,0.19667929410934448,11.901697158813477,-1.3147919178009033,-21.693452835083008,-0.3555198311805725,-2.5335726737976074,0.20083944499492645,0
64,0.3150010108947754,-0.19667929410934448,-11.901697158813477,1.3147919178009033,21.693452835083008,0.3555198311805725,2.5335726737976074,-0.20083944499492645,0.0,0.0,0.0,0.0,0.0,0.0,0.0,-0.19645049126213457,0.35545607939164203,0.11348381547904106,0.4661722377188815,-0.16202373075356694,0.13363385174118964,-0.20731237765034358,0.17297333836973755,-0.48736995581149095,-0.11147502008667225,-1.9464599343517368,0.13361337853021324,2.595549647702111,0.9452468986428446,0.1728802376190821,-0.48752024683155326,-0.11147110072896137,-1.9463801863486305,0.1336059019074957,2.595550359778934,0.9452445589611904,-0.0004357978661779633,0.0001563672522294868,-0.00015420295286368939,-1.920627204474542e-05,0.0005600070007327886,6.249759149832919e-05,-0.00017970732239685927,0.0,0.0,0.0,0.0,0.0,0.0,0.0,-9.310075065543932e-05,-0.00015029102006230977,3.919357710879812e-06,7.97480031062836e-05,-7.476622717550452e-06,7.120768228396912e-07,-2.3396816541954024e-06,0.0004357978661779633,-0.0001563672522294868,0.00015420295286368939,1.920627204474542e-05,-0.0005600070007327886,-6.249759149832919e-05,0.00017970732239685927,0.19667929410934448,11.901697158813477,-1.3147919178009033,-21.693452835083008,-0.3555198311805725,-2.5335726737976074,0.20083944499492645,0
65,0.3200373649597168,-0.19667929410934448,-11.925500869750977,1.2671844959259033,21.741060256958008,0.3674216866493225,2.5335726737976074,-0.23471395671367645,0.0,0.0,0.0,0.0,0.0,0.0,0.0,-0.18880470035360508,0.40830504101008747,0.12157548587804776,0.4260773744417622,-0.16317996372412277,0.12818779239175454,-0.20771913789152618,0.17297333836973755,-0.4873656620295788,-0.11147112708963647,-1.9464632752234474,0.13361205615599855,2.595549647702111,0.94525066247748,0.1728802376190821,-0.48752024683155326,-0.11147110072896137,-1.9463801863486305,0.1336059019074957,2.595550359778934,0.9452445589611904,0.00019431274446970586,0.00030246165707550356,0.0015612584532271822,-0.0002930774871469134,0.0002823035157286456,-9.260321603321465e-05,0.0013114150085282456,0.0,0.0,0.0,0.0,0.0,0.0,0.0,-9.310075065543932e-05,-0.00015458480197444446,2.6360675101089193e-08,8.308887481689453e-05,-6.154248502865389e-06,7.120768228396912e-07,-6.103516289601707e-06,-0.00019431274446970586,-0.00030246165707550356,-0.0015612584532271822,0.0002930774871469134,-0.0002823035157286456,9.260321603321465e-05,-0.0013114150085282456,0.19667929410934448,11.925500869750977,-1.2671844959259033,-21.741060256958008,-0.3674216866493225,-2.5335726737976074,0.23471395671367645,0
66,0.32500576972961426,-0.19667929410934448,-11.925500869750977,1.2671844959259033,21.741060256958008,0.3674216866493225,2.5335726737976074,-0.23471395671367645,0.0,0.0,0.0,0.0,0.0,0.0,0.0,-0.18880470035360508,0.40830504101008747,0.12157548587804776,0.4260773744417622,-0.16317996372412277,0.12818779239175454,-0.20771913789152618,0.17297333836973755,-0.4873656620295788,-0.11147112708963647,-1.9464632752234474,0.13361205615599855,2.595549647702111,0.94525066247748,0.1728802376190821,-0.48752024683155326,-0.11147110072896137,-1.9463801863486305,0.1336059019074957,2.595550359778934,0.9452445589611904,0.00019431274446970586,0.00030246165707550356,0.0015612584532271822,-0.0002930774871469134,0.0002823035157286456,-9.260321603321465e-05,0.0013114150085282456,0.0,0.0,0.0,0.0,0.0,0.0,0.0,-9.310075065543932e-05,-0.00015458480197444446,2.6360675101089193e-08,8.308887481689453e-05,-6.154248502865389e-06,7.120768228396912e-07,-6.103516289601707e-06,-0.00019431274446970586,-0.00030246165707550356,-0.0015612584532271822,0.0002930774871469134,-0.0002823035157286456,9.260321603321465e-05,-0.0013114150085282456,0.19667929410934448,11.925500869750977,-1.2671844959259033,-21.741060256958008,-0.3674216866493225,-2.5335726737976074,0.23471395671367645,0
67,0.3300056457519531,-0.19667929410934448,-11.925500869750977,1.2671844959259033,21.741060256958008,0.3674216866493225,2.5335726737976074,-0.23471395671367645,0.0,0.0,0.0,0.0,0.0,0.0,0.0,-0.18880470035360508,0.40830504101008747,0.12157548587804776,0.4260773744417622,-0.16317996372412277,0.12818779239175454,-0.20771913789152618,0.17297333836973755,-0.4873656620295788,-0.11147112708963647,-1.9464632752234474,0.13361205615599855,2.595549647702111,0.94525066247748,0.1728802376190821,-0.48752024683155326,-0.11147110072896137,-1.9463801863486305,0.1336059019074957,2.595550359778934,0.9452445589611904,0.00019431274446970586,0.00030246165707550356,0.0015612584532271822,-0.0002930774871469134,0.0002823035157286456,-9.260321603321465e-05,0.0013114150085282456,0.0,0.0,0.0,0.0,0.0,0.0,0.0,-9.310075065543932e-05,-0.00015458480197444446,2.6360675101089193e-08,8.308887481689453e-05,-6.154248502865389e-06,7.120768228396912e-07,-6.103516289601707e-06,-0.00019431274446970586,-0.00030246165707550356,-0.0015612584532271822,0.0002930774871469134,-0.0002823035157286456,9.260321603321465e-05,-0.0013114150085282456,0.19667929410934448,11.925500869750977,-1.2671844959259033,-21.741060256958008,-0.3674216866493225,-2.5335726737976074,0.23471395671367645,0
68,0.33499622344970703,-0.19667929410934448,-11.925500869750977,1.2671844959259033,21.741060256958008,0.3674216866493225,2.5335726737976074,-0.23471395671367645,0.0,0.0,0.0,0.0,0.0,0.0,0.0,-0.18880470035360508,0.40830504101008747,0.12157548587804776,0.4260773744417622,-0.16317996372412277,0.12818779239175454,-0.20771913789152618,0.17297333836973755,-0.4873656620295788,-0.11147112708963647,-1.9464632752234474,0.13361205615599855,2.595549647702111,0.94525066247748,0.1728802376190821,-0.48752024683155326,-0.11147110072896137,-1.9463801863486305,0.1336059019074957,2.595550359778934,0.9452445589611904,0.00019431274446970586,0.00030246165707550356,0.0015612584532271822,-0.0002930774871469134,0.0002823035157286456,-9.260321603321465e-05,0.0013114150085282456,0.0,0.0,0.0,0.0,0.0,0.0,0.0,-9.310075065543932e-05,-0.00015458480197444446,2.6360675101089193e-08,8.308887481689453e-05,-6.154248502865389e-06,7.120768228396912e-07,-6.103516289601707e-06,-0.00019431274446970586,-0.00030246165707550356,-0.0015612584532271822,0.0002930774871469134,-0.0002823035157286456,9.260321603321465e-05,-0.0013114150085282456,0.19667929410934448,11.925500869750977,-1.2671844959259033,-21.741060256958008,-0.3674216866493225,-2.5335726737976074,0.23471395671367645,0
69,0.3400082588195801,-0.22445029020309448,-11.949304580688477,1.2433807849884033,21.669649124145508,0.3738303780555725,2.5335726737976074,-0.17978231608867645,0.0,0.0,0.0,0.0,0.0,0.0,0.0,-0.1865153976650925,0.42706190080071976,0.12410715503405367,0.41346458786914947,-0.16349962474658464,0.1261152570731049,-0.2084960455529214,0.1729752872115687,-0.4873639854000138,-0.11147016694499487,-1.9464582639158816,0.13361134407917655,2.595549647702111,0.9452445589802487,0.1728802376190821,-0.48752024683155326,-0.11147110072896137,-1.9463801863486305,0.1336059019074957,2.595550359778934,0.9452445589611904,0.000972337638128727,0.0005841725875781966,0.002063572362867259,0.0011801584023215564,-0.00023791192825034995,-0.00030222699039656484,-0.0005026303452768738,0.0,0.0,0.0,0.0,0.0,0.0,0.0,-9.504959248660128e-05,-0.0001562614315394617,-9.33783966497459e-07,7.807756725108916e-05,-5.442171680858365e-06,7.120768228396912e-07,-1.9058310485320362e-11,-0.000972337638128727,-0.0005841725875781966,-0.002063572362867259,-0.0011801584023215564,0.00023791192825034995,0.00030222699039656484,0.0005026303452768738,0.22445029020309448,11.949304580688477,-1.2433807849884033,-21.669649124145508,-0.3738303780555725,-2.5335726737976074,0.17978231608867645,0
70,0.34499239921569824,-0.22445029020309448,-11.949304580688477,1.2433807849884033,21.669649124145508,0.3738303780555725,2.5335726737976074,-0.17978231608867645,0.0,0.0,0.0,0.0,0.0,0.0,0.0,-0.1865153976650925,0.42706190080071976,0.12410715503405367,0.41346458786914947,-0.16349962474658464,0.1261152570731049,-0.2084960455529214,0.1729752872115687,-0.4873639854000138,-0.11147016694499487,-1.9464582639158816,0.13361134407917655,2.595549647702111,0.9452445589802487,0.1728802376190821,-0.48752024683155326,-0.11147110072896137,-1.9463801863486305,0.1336059019074957,2.595550359778934,0.9452445589611904,0.000972337638128727,0.0005841725875781966,0.002063572362867259,0.0011801584023215564,-0.00023791192825034995,-0.00030222699039656484,-0.0005026303452768738,0.0,0.0,0.0,0.0,0.0,0.0,0.0,-9.504959248660128e-05,-0.0001562614315394617,-9.33783966497459e-07,7.807756725108916e-05,-5.442171680858365e-06,7.120768228396912e-07,-1.9058310485320362e-11,-0.000972337638128727,-0.0005841725875781966,-0.002063572362867259,-0.0011801584023215564,0.00023791192825034995,0.00030222699039656484,0.0005026303452768738,0.22445029020309448,11.949304580688477,-1.2433807849884033,-21.669649124145508,-0.3738303780555725,-2.5335726737976074,0.17978231608867645,0
71,0.34999561309814453,-0.14510458707809448,-11.949304580688477,1.3147919178009033,21.717256546020508,0.3738303780555725,2.5271639823913574,-0.20724813640117645,0.0,0.0,0.0,0.0,0.0,0.0,0.0,-0.19128927639643728,0.41260250883030947,0.11876472526393454,0.41856745379718857,-0.16303387704323674,0.12711943083892346,-0.20786369361888457,0.17296971909205117,-0.4873644145472535,-0.11147523083178734,-1.946461604787592,0.13361133091546215,2.595550359778934,0.9452476107196676,0.1728802376190821,-0.48752024683155326,-0.11147110072896137,-1.9463801863486305,0.1336059019074957,2.595550359778934,0.9452445589611904,-0.001162317432944651,7.933305357503526e-05,0.00021746415881166516,-0.000325948526680598,4.0690104254304e-05,9.523129731718858e-05,0.00019540719426152216,0.0,0.0,0.0,0.0,0.0,0.0,0.0,-8.948147296905518e-05,-0.0001558322842997728,4.130102825974924e-06,8.141843896147805e-05,-5.429007966462063e-06,0.0,-3.051758477146116e-06,0.001162317432944651,-7.933305357503526e-05,-0.00021746415881166516,0.000325948526680598,-4.0690104254304e-05,-9.523129731718858e-05,-0.00019540719426152216,0.14510458707809448,11.949304580688477,-1.3147919178009033,-21.717256546020508,-0.3738303780555725,-2.5271639823913574,0.20724813640117645,0
72,0.3553013801574707,-0.14510458707809448,-11.949304580688477,1.3147919178009033,21.717256546020508,0.3738303780555725,2.5271639823913574,-0.20724813640117645,0.0,0.0,0.0,0.0,0.0,0.0,0.0,-0.19128927639643728,0.41260250883030947,0.11876472526393454,0.41856745379718857,-0.16303387704323674,0.12711943083892346,-0.20786369361888457,0.17296971909205117,-0.4873644145472535,-0.11147523083178734,-1.946461604787592,0.13361133091546215,2.595550359778934,0.9452476107196676,0.1728802376190821,-0.48752024683155326,-0.11147110072896137,-1.9463801863486305,0.1336059019074957,2.595550359778934,0.9452445589611904,-0.001162317432944651,7.933305357503526e-05,0.00021746415881166516,-0.000325948526680598,4.0690104254304e-05,9.523129731718858e-05,0.00019540719426152216,0.0,0.0,0.0,0.0,0.0,0.0,0.0,-8.948147296905518e-05,-0.0001558322842997728,4.130102825974924e-06,8.141843896147805e-05,-5.429007966462063e-06,0.0,-3.051758477146116e-06,0.001162317432944651,-7.933305357503526e-05,-0.00021746415881166516,0.000325948526680598,-4.0690104254304e-05,-9.523129731718858e-05,-0.00019540719426152216,0.14510458707809448,11.949304580688477,-1.3147919178009033,-21.717256546020508,-0.3738303780555725,-2.5271639823913574,0.20724813640117645,0
73,0.360004186630249,-0.17287558317184448,-11.973108291625977,1.2909882068634033,21.693452835083008,0.3857322335243225,2.5335726737976074,-0.20724813640117645,0.0,0.0,0.0,0.0,0.0,0.0,0.0,-0.19092994989371606,0.40014308407480537,0.12124389640430294,0.4227970008926087,-0.16257966631450108,0.12800319578860384,-0.20810939811642887,0.1729716679338823,-0.48736200825229253,-0.11147350392071012,-1.9464599343517368,0.13361002165071684,2.595549647702111,0.9452476107196676,0.1728802376190821,-0.48752024683155326,-0.11147110072896137,-1.9463801863486305,0.1336059019074957,2.595550359778934,0.9452445589611904,-0.00029735832997872285,0.00029938474704347876,0.0003501856457111829,0.0008871264491830955,-0.0005152121695633764,-9.685094483072102e-05,1.4211380966994086e-05,0.0,0.0,0.0,0.0,0.0,0.0,0.0,-9.143031480018937e-05,-0.0001582385792607277,2.403191748753808e-06,7.97480031062836e-05,-4.119743221148164e-06,7.120768228396912e-07,-3.051758477146116e-06,0.00029735832997872285,-0.00029938474704347876,-0.0003501856457111829,-0.0008871264491830955,0.0005152121695633764,9.685094483072102e-05,-1.4211380966994086e-05,0.17287558317184448,11.973108291625977,-1.2909882068634033,-21.693452835083008,-0.3857322335243225,-2.5335726737976074,0.20724813640117645,0
74,0.36501073837280273,-0.17287558317184448,-11.973108291625977,1.2909882068634033,21.693452835083008,0.3857322335243225,2.5335726737976074,-0.20724813640117645,0.0,0.0,0.0,0.0,0.0,0.0,0.0,-0.19092994989371606,0.40014308407480537,0.12124389640430294,0.4227970008926087,-0.16257966631450108,0.12800319578860384,-0.20810939811642887,0.1729716679338823,-0.48736200825229253,-0.11147350392071012,-1.9464599343517368,0.13361002165071684,2.595549647702111,0.9452476107196676,0.1728802376190821,-0.48752024683155326,-0.11147110072896137,-1.9463801863486305,0.1336059019074957,2.595550359778934,0.9452445589611904,-0.00029735832997872285,0.00029938474704347876,0.0003501856457111829,0.0008871264491830955,-0.0005152121695633764,-9.685094483072102e-05,1.4211380966994086e-05,0.0,0.0,0.0,0.0,0.0,0.0,0.0,-9.143031480018937e-05,-0.0001582385792607277,2.403191748753808e-06,7.97480031062836e-05,-4.119743221148164e-06,7.120768228396912e-07,-3.051758477146116e-06,0.00029735832997872285,-0.00029938474704347876,-0.0003501856457111829,-0.0008871264491830955,0.0005152121695633764,9.685094483072102e-05,-1.4211380966994086e-05,0.17287558317184448,11.973108291625977,-1.2909882068634033,-21.693452835083008,-0.3857322335243225,-2.5335726737976074,0.20724813640117645,0
75,0.37003374099731445,-0.19667929410934448,-11.973108291625977,1.2909882068634033,21.741060256958008,0.3674216866493225,2.5335726737976074,-0.20083944499492645,0.0,0.0,0.0,0.0,0.0,0.0,0.0,-0.1930772971361223,0.38841178909921364,0.11925740286722696,0.42191053091095454,-0.16169900816802188,0.128376501506429,-0.20859982189586243,0.17297333836973755,-0.4873627867615751,-0.11147324146397737,-1.9464632752234474,0.13361205615599947,2.595549647702111,0.9452468986428446,0.1728802376190821,-0.48752024683155326,-0.11147110072896137,-1.9463801863486305,0.1336059019074957,2.595550359778934,0.9452445589611904,9.809766249344057e-05,-0.0006558448688281267,0.0005626096567878768,-0.0008928789876619088,0.00013596180762930898,-8.556141822341748e-05,0.00032241401885034975,0.0,0.0,0.0,0.0,0.0,0.0,0.0,-9.310075065543932e-05,-0.00015746006997818807,2.1407350160040917e-06,8.308887481689453e-05,-6.154248503781323e-06,7.120768228396912e-07,-2.3396816541954024e-06,-9.809766249344057e-05,0.0006558448688281267,-0.0005626096567878768,0.0008928789876619088,-0.00013596180762930898,8.556141822341748e-05,-0.00032241401885034975,0.19667929410934448,11.973108291625977,-1.2909882068634033,-21.741060256958008,-0.3674216866493225,-2.5335726737976074,0.20083944499492645,0
76,0.3750002384185791,-0.19667929410934448,-11.973108291625977,1.2909882068634033,21.741060256958008,0.3674216866493225,2.5335726737976074,-0.20083944499492645,0.0,0.0,0.0,0.0,0.0,0.0,0.0,-0.1930772971361223,0.38841178909921364,0.11925740286722696,0.42191053091095454,-0.16169900816802188,0.128376501506429,-0.20859982189586243,0.17297333836973755,-0.4873627867615751,-0.11147324146397737,-1.9464632752234474,0.13361205615599947,2.595549647702111,0.9452468986428446,0.1728802376190821,-0.48752024683155326,-0.11147110072896137,-1.9463801863486305,0.1336059019074957,2.595550359778934,0.9452445589611904,9.809766249344057e-05,-0.0006558448688281267,0.0005626096567878768,-0.0008928789876619088,0.00013596180762930898,-8.556141822341748e-05,0.00032241401885034975,0.0,0.0,0.0,0.0,0.0,0.0,0.0,-9.310075065543932e-05,-0.00015746006997818807,2.1407350160040917e-06,8.308887481689453e-05,-6.154248503781323e-06,7.120768228396912e-07,-2.3396816541954024e-06,-9.809766249344057e-05,0.0006558448688281267,-0.0005626096567878768,0.0008928789876619088,-0.00013596180762930898,8.556141822341748e-05,-0.00032241401885034975,0.19667929410934448,11.973108291625977,-1.2909882068634033,-21.741060256958008,-0.3674216866493225,-2.5335726737976074,0.20083944499492645,0
77,0.38001132011413574,-0.22445029020309448,-11.973108291625977,1.3663666248321533,21.717256546020508,0.3738303780555725,2.5143465995788574,-0.22098104655742645,0.0,0.0,0.0,0.0,0.0,0.0,0.0,-0.1878588983687469,0.39846837999145257,0.1264135674258679,0.41257069072894675,-0.16213701637222544,0.12750550298634847,-0.20864914891911748,0.1729752872115687,-0.48736210142645,-0.11147673569702253,-1.946461604787592,0.13361134407917655,2.5955517839325797,0.9452491365985738,0.1728802376190821,-0.48752024683155326,-0.11147110072896137,-1.9463801863486305,0.1336059019074957,2.595550359778934,0.9452445589611904,0.0006805552057798324,0.00045514057569283366,-0.0007883263554051586,-0.00038420858393811713,-6.589814089637989e-05,0.0005352742472859716,0.0010504421028403276,0.0,0.0,0.0,0.0,0.0,0.0,0.0,-9.504959248660128e-05,-0.00015814540510328268,5.63496806116337e-06,8.141843896147805e-05,-5.442171680858365e-06,-1.4241536456793824e-06,-4.5776373833739115e-06,-0.0006805552057798324,-0.00045514057569283366,0.0007883263554051586,0.00038420858393811713,6.589814089637989e-05,-0.0005352742472859716,-0.0010504421028403276,0.22445029020309448,11.973108291625977,-1.3663666248321533,-21.717256546020508,-0.3738303780555725,-2.5143465995788574,0.22098104655742645,0
78,0.38500046730041504,-0.22445029020309448,-11.973108291625977,1.3663666248321533,21.717256546020508,0.3738303780555725,2.5143465995788574,-0.22098104655742645,0.0,0.0,0.0,0.0,0.0,0.0,0.0,-0.1878588983687469,0.39846837999145257,0.1264135674258679,0.41257069072894675,-0.16213701637222544,0.12750550298634847,-0.20864914891911748,0.1729752872115687,-0.48736210142645,-0.11147673569702253,-1.946461604787592,0.13361134407917655,2.5955517839325797,0.9452491365985738,0.1728802376190821,-0.48752024683155326,-0.11147110072896137,-1.9463801863486305,0.1336059019074957,2.595550359778934,0.9452445589611904,0.0006805552057798324,0.00045514057569283366,-0.0007883263554051586,-0.00038420858393811713,-6.589814089637989e-05,0.0005352742472859716,0.0010504421028403276,0.0,0.0,0.0,0.0,0.0,0.0,0.0,-9.504959248660128e-05,-0.00015814540510328268,5.63496806116337e-06,8.141843896147805e-05,-5.442171680858365e-06,-1.4241536456793824e-06,-4.5776373833739115e-06,-0.0006805552057798324,-0.00045514057569283366,0.0007883263554051586,0.00038420858393811713,6.589814089637989e-05,-0.0005352742472859716,-0.0010504421028403276,0.22445029020309448,11.973108291625977,-1.3663666248321533,-21.717256546020508,-0.3738303780555725,-2.5143465995788574,0.22098104655742645,0
79,0.3902888298034668,-0.17287558317184448,-11.949304580688477,1.3425629138946533,21.741060256958008,0.3738303780555725,2.5079379081726074,-0.18710653483867645,0.0,0.0,0.0,0.0,0.0,0.0,0.0,-0.19310037336778407,0.39255131391456904,0.12082007984965709,0.41371905868034403,-0.16166071695653275,0.12757442401011038,-0.20779269948058704,0.1729716679338823,-0.487364611503755,-0.11147507178267078,-1.9464632752234474,0.13361134407917655,2.595552456763546,0.9452453727639384,0.1728802376190821,-0.48752024683155326,-0.11147110072896137,-1.9463801863486305,0.1336059019074957,2.595550359778934,0.9452445589611904,-0.0005967681281756964,0.00010806403491505853,-0.0005314305431578037,-0.000743944014097182,-0.00012912390291269137,0.0007397142290569062,-0.0005493715375857087,0.0,0.0,0.0,0.0,0.0,0.0,0.0,-9.143031480018937e-05,-0.00015563532779827582,3.971053709417305e-06,8.308887481689453e-05,-5.442171680858365e-06,-2.0969846121765556e-06,-8.138027479676069e-07,0.0005967681281756964,-0.00010806403491505853,0.0005314305431578037,0.000743944014097182,0.00012912390291269137,-0.0007397142290569062,0.0005493715375857087,0.17287558317184448,11.949304580688477,-1.3425629138946533,-21.741060256958008,-0.3738303780555725,-2.5079379081726074,0.18710653483867645,0
80,0.3950321674346924,-0.17287558317184448,-11.949304580688477,1.3425629138946533,21.741060256958008,0.3738303780555725,2.5079379081726074,-0.18710653483867645,0.0,0.0,0.0,0.0,0.0,0.0,0.0,-0.19310037336778407,0.39255131391456904,0.12082007984965709,0.41371905868034403,-0.16166071695653275,0.12757442401011038,-0.20779269948058704,0.1729716679338823,-0.487364611503755,-0.11147507178267078,-1.9464632752234474,0.13361134407917655,2.595552456763546,0.9452453727639384,0.1728802376190821,-0.48752024683155326,-0.11147110072896137,-1.9463801863486305,0.1336059019074957,2.595550359778934,0.9452445589611904,-0.0005967681281756964,0.00010806403491505853,-0.0005314305431578037,-0.000743944014097182,-0.00012912390291269137,0.0007397142290569062,-0.0005493715375857087,0.0,0.0,0.0,0.0,0.0,0.0,0.0,-9.143031480018937e-05,-0.00015563532779827582,3.971053709417305e-06,8.308887481689453e-05,-5.442171680858365e-06,-2.0969846121765556e-06,-8.138027479676069e-07,0.0005967681281756964,-0.00010806403491505853,0.0005314305431578037,0.000743944014097182,0.00012912390291269137,-0.0007397142290569062,0.0005493715375857087,0.17287558317184448,11.949304580688477,-1.3425629138946533,-21.741060256958008,-0.3738303780555725,-2.5079379081726074,0.18710653483867645,0
