rezayati/contactInterpretation/dataset/franka_main/labeled_data/link3/e5_8.csv
index,time,tau_J0,tau_J1,tau_J2,tau_J3,tau_J4,tau_J5,tau_J6,tau_J_d0,tau_J_d1,tau_J_d2,tau_J_d3,tau_J_d4,tau_J_d5,tau_J_d6,tau_ext0,tau_ext1,tau_ext2,tau_ext3,tau_ext4,tau_ext5,tau_ext6,q0,q1,q2,q3,q4,q5,q6,q_d0,q_d1,q_d2,q_d3,q_d4,q_d5,q_d6,dq0,dq1,dq2,dq3,dq4,dq5,dq6,dq_d0,dq_d1,dq_d2,dq_d3,dq_d4,dq_d5,dq_d6,e0,e1,e2,e3,e4,e5,e6,de0,de1,de2,de3,de4,de5,de6,etau_J0,etau_J1,etau_J2,etau_J3,etau_J4,etau_J5,etau_J6,label
1,0.0,-0.2998287081718445,-22.772058486938477,-0.07375786453485489,14.179414749145508,0.08177715539932251,2.1453890800476074,-0.39218467473983765,0.0,0.0,0.0,0.0,0.0,0.0,0.0,-0.31460052217091017,0.027922575096424502,-0.18635301466360263,0.298021395511003,-0.15204223480465706,-0.038033962333291475,-0.368705582990002,1.6755723358915564,0.052296107184991496,0.029812341255576986,-2.7523847885466455,0.03425621204574903,2.7663727226787143,0.7691816161894001,1.6754973547542302,0.052104326824870026,0.029969505109285054,-2.752394845125968,0.0342448039870148,2.7663679543071322,0.7691630533470046,-6.424014409750936e-05,0.0008907778455516388,-0.00028207984630125344,-0.0003238397685754023,0.00011470842196171438,0.00019934443117181874,0.0006081412295246667,0.0,0.0,0.0,0.0,0.0,0.0,0.0,-7.498113732617995e-05,-0.00019178036012146987,0.00015716385370806787,-1.0056579322625936e-05,-1.1408058734230231e-05,-4.76837158203125e-06,-1.8562842395430934e-05,6.424014409750936e-05,-0.0008907778455516388,0.00028207984630125344,0.0003238397685754023,-0.00011470842196171438,-0.00019934443117181874,-0.0006081412295246667,0.2998287081718445,22.772058486938477,0.07375786453485489,-14.179414749145508,-0.08177715539932251,-2.1453890800476074,0.39218467473983765,0
2,0.005019426345825195,-0.2998287081718445,-22.795862197875977,-0.1253325641155243,14.155611038208008,0.07628399133682251,2.1325716972351074,-0.38577598333358765,0.0,0.0,0.0,0.0,0.0,0.0,0.0,-0.31860981688728873,0.028028484347084378,-0.1901489079883942,0.29941790090146986,-0.1507425108942188,-0.03784622916346666,-0.3699605447584246,1.6755723358915564,0.05229777762084676,0.02981596053274054,-2.7523831170933053,0.03425682239731153,2.7663741468323604,0.7691809021565758,1.6754973547542302,0.052104326824870026,0.029969505109285054,-2.752394845125968,0.0342448039870148,2.7663679543071322,0.7691630533470046,1.4126319512396152e-05,0.0006468191622193062,0.0007499657541693013,0.0004822465775905763,0.00011085018835728288,0.00024097554110451372,0.0009115217182419102,0.0,0.0,0.0,0.0,0.0,0.0,0.0,-7.498113732617995e-05,-0.0001934507959767337,0.00015354457654451203,-1.1728032662805532e-05,-1.2018410296729676e-05,-6.192525228154722e-06,-1.784880957111934e-05,-1.4126319512396152e-05,-0.0006468191622193062,-0.0007499657541693013,-0.0004822465775905763,-0.00011085018835728288,-0.00024097554110451372,-0.0009115217182419102,0.2998287081718445,22.795862197875977,0.1253325641155243,-14.155611038208008,-0.07628399133682251,-2.1325716972351074,0.38577598333358765,0
3,0.009992361068725586,-0.2998287081718445,-22.795862197875977,-0.1253325641155243,14.155611038208008,0.07628399133682251,2.1325716972351074,-0.38577598333358765,0.0,0.0,0.0,0.0,0.0,0.0,0.0,-0.31860981688728873,0.028028484347084378,-0.1901489079883942,0.29941790090146986,-0.1507425108942188,-0.03784622916346666,-0.3699605447584246,1.6755723358915564,0.05229777762084676,0.02981596053274054,-2.7523831170933053,0.03425682239731153,2.7663741468323604,0.7691809021565758,1.6754973547542302,0.052104326824870026,0.029969505109285054,-2.752394845125968,0.0342448039870148,2.7663679543071322,0.7691630533470046,1.4126319512396152e-05,0.0006468191622193062,0.0007499657541693013,0.0004822465775905763,0.00011085018835728288,0.00024097554110451372,0.0009115217182419102,0.0,0.0,0.0,0.0,0.0,0.0,0.0,-7.498113732617995e-05,-0.0001934507959767337,0.00015354457654451203,-1.1728032662805532e-05,-1.2018410296729676e-05,-6.192525228154722e-06,-1.784880957111934e-05,-1.4126319512396152e-05,-0.0006468191622193062,-0.0007499657541693013,-0.0004822465775905763,-0.00011085018835728288,-0.00024097554110451372,-0.0009115217182419102,0.2998287081718445,22.795862197875977,0.1253325641155243,-14.155611038208008,-0.07628399133682251,-2.1325716972351074,0.38577598333358765,0
4,0.01499319076538086,-0.2998287081718445,-22.795862197875977,-0.09756157547235489,14.179414749145508,0.08177715539932251,2.1325716972351074,-0.39218467473983765,0.0,0.0,0.0,0.0,0.0,0.0,0.0,-0.3152225814052255,0.030633253440224238,-0.19167732985675723,0.29973277879785737,-0.15001163585968394,-0.03945279898964872,-0.3689832263642855,1.6755723358915564,0.05229777762084676,0.02981401169143225,-2.752384788508955,0.03425621204574903,2.7663741468323604,0.7691847933092814,1.6754973547542302,0.052104326824870026,0.029969505109285054,-2.752394845125968,0.0342448039870148,2.7663679543071322,0.7691630533470046,0.0002646369689293478,0.0002618712377150875,-0.00023649596370432,-0.0004022103539430516,-0.001817472260612416,0.0004836970810717179,0.0014883460746409943,0.0,0.0,0.0,0.0,0.0,0.0,0.0,-7.498113732617995e-05,-0.0001934507959767337,0.00015549341785280404,-1.0056617012921265e-05,-1.1408058734230231e-05,-6.192525228154722e-06,-2.1739962276723368e-05,-0.0002646369689293478,-0.0002618712377150875,0.00023649596370432,0.0004022103539430516,0.001817472260612416,-0.0004836970810717179,-0.0014883460746409943,0.2998287081718445,22.795862197875977,0.09756157547235489,-14.179414749145508,-0.08177715539932251,-2.1325716972351074,0.39218467473983765,0
5,0.019993305206298828,-0.2998287081718445,-22.795862197875977,-0.09756157547235489,14.179414749145508,0.08177715539932251,2.1325716972351074,-0.39218467473983765,0.0,0.0,0.0,0.0,0.0,0.0,0.0,-0.3152225814052255,0.030633253440224238,-0.19167732985675723,0.29973277879785737,-0.15001163585968394,-0.03945279898964872,-0.3689832263642855,1.6755723358915564,0.05229777762084676,0.02981401169143225,-2.752384788508955,0.03425621204574903,2.7663741468323604,0.7691847933092814,1.6754973547542302,0.052104326824870026,0.029969505109285054,-2.752394845125968,0.0342448039870148,2.7663679543071322,0.7691630533470046,0.0002646369689293478,0.0002618712377150875,-0.00023649596370432,-0.0004022103539430516,-0.001817472260612416,0.0004836970810717179,0.0014883460746409943,0.0,0.0,0.0,0.0,0.0,0.0,0.0,-7.498113732617995e-05,-0.0001934507959767337,0.00015549341785280404,-1.0056617012921265e-05,-1.1408058734230231e-05,-6.192525228154722e-06,-2.1739962276723368e-05,-0.0002646369689293478,-0.0002618712377150875,0.00023649596370432,0.0004022103539430516,0.001817472260612416,-0.0004836970810717179,-0.0014883460746409943,0.2998287081718445,22.795862197875977,0.09756157547235489,-14.179414749145508,-0.08177715539932251,-2.1325716972351074,0.39218467473983765,0
6,0.024993181228637695,-0.2998287081718445,-22.795862197875977,-0.09756157547235489,14.179414749145508,0.08177715539932251,2.1325716972351074,-0.39218467473983765,0.0,0.0,0.0,0.0,0.0,0.0,0.0,-0.3152225814052255,0.030633253440224238,-0.19167732985675723,0.29973277879785737,-0.15001163585968394,-0.03945279898964872,-0.3689832263642855,1.6755723358915564,0.05229777762084676,0.02981401169143225,-2.752384788508955,0.03425621204574903,2.7663741468323604,0.7691847933092814,1.6754973547542302,0.052104326824870026,0.029969505109285054,-2.752394845125968,0.0342448039870148,2.7663679543071322,0.7691630533470046,0.0002646369689293478,0.0002618712377150875,-0.00023649596370432,-0.0004022103539430516,-0.001817472260612416,0.0004836970810717179,0.0014883460746409943,0.0,0.0,0.0,0.0,0.0,0.0,0.0,-7.498113732617995e-05,-0.0001934507959767337,0.00015549341785280404,-1.0056617012921265e-05,-1.1408058734230231e-05,-6.192525228154722e-06,-2.1739962276723368e-05,-0.0002646369689293478,-0.0002618712377150875,0.00023649596370432,0.0004022103539430516,0.001817472260612416,-0.0004836970810717179,-0.0014883460746409943,0.2998287081718445,22.795862197875977,0.09756157547235489,-14.179414749145508,-0.08177715539932251,-2.1325716972351074,0.39218467473983765,0
7,0.029996156692504883,-0.2998287081718445,-22.795862197875977,-0.09756157547235489,14.179414749145508,0.08177715539932251,2.1325716972351074,-0.39218467473983765,0.0,0.0,0.0,0.0,0.0,0.0,0.0,-0.3152225814052255,0.030633253440224238,-0.19167732985675723,0.29973277879785737,-0.15001163585968394,-0.03945279898964872,-0.3689832263642855,1.6755723358915564,0.05229777762084676,0.02981401169143225,-2.752384788508955,0.03425621204574903,2.7663741468323604,0.7691847933092814,1.6754973547542302,0.052104326824870026,0.029969505109285054,-2.752394845125968,0.0342448039870148,2.7663679543071322,0.7691630533470046,0.0002646369689293478,0.0002618712377150875,-0.00023649596370432,-0.0004022103539430516,-0.001817472260612416,0.0004836970810717179,0.0014883460746409943,0.0,0.0,0.0,0.0,0.0,0.0,0.0,-7.498113732617995e-05,-0.0001934507959767337,0.00015549341785280404,-1.0056617012921265e-05,-1.1408058734230231e-05,-6.192525228154722e-06,-2.1739962276723368e-05,-0.0002646369689293478,-0.0002618712377150875,0.00023649596370432,0.0004022103539430516,0.001817472260612416,-0.0004836970810717179,-0.0014883460746409943,0.2998287081718445,22.795862197875977,0.09756157547235489,-14.179414749145508,-0.08177715539932251,-2.1325716972351074,0.39218467473983765,0
8,0.03499484062194824,-0.2998287081718445,-22.819665908813477,-0.09756157547235489,14.207185745239258,0.09367901086807251,2.1453890800476074,-0.39950889348983765,0.0,0.0,0.0,0.0,0.0,0.0,0.0,-0.3106078118018868,0.028245637783685985,-0.19117075265967592,0.2963074431772068,-0.15125639205496041,-0.04040243546435699,-0.3682567137666663,1.6755723358915564,0.05229944805670202,0.02981401169143225,-2.7523867373884765,0.034254889617363615,2.7663726834328575,0.7691827812661268,1.6754973547542302,0.052104326824870026,0.029969505109285054,-2.752394845125968,0.0342448039870148,2.7663679543071322,0.7691630533470046,-0.0003431630406466186,0.0010989094981457845,-1.2147975634269815e-05,-0.0009956364314615475,-0.0005318149238838296,5.645787966366346e-05,0.001040639970245287,0.0,0.0,0.0,0.0,0.0,0.0,0.0,-7.498113732617995e-05,-0.00019512123183199753,0.00015549341785280404,-8.107737491602762e-06,-1.0085630348814767e-05,-4.729125725244643e-06,-1.9727919122192183e-05,0.0003431630406466186,-0.0010989094981457845,1.2147975634269815e-05,0.0009956364314615475,0.0005318149238838296,-5.645787966366346e-05,-0.001040639970245287,0.2998287081718445,22.819665908813477,0.09756157547235489,-14.207185745239258,-0.09367901086807251,-2.1453890800476074,0.39950889348983765,0
9,0.0399928092956543,-0.2998287081718445,-22.819665908813477,-0.09756157547235489,14.207185745239258,0.09367901086807251,2.1453890800476074,-0.39950889348983765,0.0,0.0,0.0,0.0,0.0,0.0,0.0,-0.3106078118018868,0.028245637783685985,-0.19117075265967592,0.2963074431772068,-0.15125639205496041,-0.04040243546435699,-0.3682567137666663,1.6755723358915564,0.05229944805670202,0.02981401169143225,-2.7523867373884765,0.034254889617363615,2.7663726834328575,0.7691827812661268,1.6754973547542302,0.052104326824870026,0.029969505109285054,-2.752394845125968,0.0342448039870148,2.7663679543071322,0.7691630533470046,-0.0003431630406466186,0.0010989094981457845,-1.2147975634269815e-05,-0.0009956364314615475,-0.0005318149238838296,5.645787966366346e-05,0.001040639970245287,0.0,0.0,0.0,0.0,0.0,0.0,0.0,-7.498113732617995e-05,-0.00019512123183199753,0.00015549341785280404,-8.107737491602762e-06,-1.0085630348814767e-05,-4.729125725244643e-06,-1.9727919122192183e-05,0.0003431630406466186,-0.0010989094981457845,1.2147975634269815e-05,0.0009956364314615475,0.0005318149238838296,-5.645787966366346e-05,-0.001040639970245287,0.2998287081718445,22.819665908813477,0.09756157547235489,-14.207185745239258,-0.09367901086807251,-2.1453890800476074,0.39950889348983765,0
10,0.04499053955078125,-0.3514034152030945,-22.748254776000977,-0.09756157547235489,14.155611038208008,0.09367901086807251,2.1325716972351074,-0.38577598333358765,0.0,0.0,0.0,0.0,0.0,0.0,0.0,-0.30702243022452835,0.019407907003269272,-0.18814502686453483,0.2940095346302469,-0.15243790349829653,-0.040232988610451666,-0.3702633642501297,1.6755759551692426,0.05229443674913623,0.029814248592300488,-2.7523831089534236,0.03425524448575797,2.766374146832139,0.7691840810729468,1.6754973547542302,0.052104326824870026,0.029969505109285054,-2.752394845125968,0.0342448039870148,2.7663679543071322,0.7691630533470046,0.00032310984757525437,-0.0014726271286631116,-0.000531990410426592,7.373891708621092e-06,0.0011367148186590492,0.00021877342049934947,-7.955271172387995e-05,0.0,0.0,0.0,0.0,0.0,0.0,0.0,-7.860041501239756e-05,-0.00019010992426620604,0.00015525651698456572,-1.173617254446313e-05,-1.044049874317221e-05,-6.192525006554206e-06,-2.1027725942146525e-05,-0.00032310984757525437,0.0014726271286631116,0.000531990410426592,-7.373891708621092e-06,-0.0011367148186590492,-0.00021877342049934947,7.955271172387995e-05,0.3514034152030945,22.748254776000977,0.09756157547235489,-14.155611038208008,-0.09367901086807251,-2.1325716972351074,0.38577598333358765,0
11,0.049989938735961914,-0.3514034152030945,-22.748254776000977,-0.09756157547235489,14.155611038208008,0.09367901086807251,2.1325716972351074,-0.38577598333358765,0.0,0.0,0.0,0.0,0.0,0.0,0.0,-0.30702243022452835,0.019407907003269272,-0.18814502686453483,0.2940095346302469,-0.15243790349829653,-0.040232988610451666,-0.3702633642501297,1.6755759551692426,0.05229443674913623,0.029814248592300488,-2.7523831089534236,0.03425524448575797,2.766374146832139,0.7691840810729468,1.6754973547542302,0.052104326824870026,0.029969505109285054,-2.752394845125968,0.0342448039870148,2.7663679543071322,0.7691630533470046,0.00032310984757525437,-0.0014726271286631116,-0.000531990410426592,7.373891708621092e-06,0.0011367148186590492,0.00021877342049934947,-7.955271172387995e-05,0.0,0.0,0.0,0.0,0.0,0.0,0.0,-7.860041501239756e-05,-0.00019010992426620604,0.00015525651698456572,-1.173617254446313e-05,-1.044049874317221e-05,-6.192525006554206e-06,-2.1027725942146525e-05,-0.00032310984757525437,0.0014726271286631116,0.000531990410426592,-7.373891708621092e-06,-0.0011367148186590492,-0.00021877342049934947,7.955271172387995e-05,0.3514034152030945,22.748254776000977,0.09756157547235489,-14.155611038208008,-0.09367901086807251,-2.1325716972351074,0.38577598333358765,0
12,0.05499386787414551,-0.2720577120780945,-22.748254776000977,-0.09756157547235489,14.179414749145508,0.10008770227432251,2.1389803886413574,-0.38577598333358765,0.0,0.0,0.0,0.0,0.0,0.0,0.0,-0.3102482234271623,0.028830768455156704,-0.1894665744063744,0.28997396790266583,-0.15059975790284855,-0.042393723151404654,-0.3723855361391155,1.6755703870497252,0.05229443674913623,0.029814011692769562,-2.752384788546594,0.03425417754254394,2.7663734347555367,0.769180915256462,1.6754973547542302,0.052104326824870026,0.029969505109285054,-2.752394845125968,0.0342448039870148,2.7663679543071322,0.7691630533470046,-0.0014609279223294308,-0.0001426375630829908,9.566802340512068e-05,-0.0005484286018650237,-0.0005081512426479549,0.00012966414289069636,0.000490516080914226,0.0,0.0,0.0,0.0,0.0,0.0,0.0,-7.303229549493473e-05,-0.00019010992426620604,0.00015549341651549184,-1.0056579374140284e-05,-9.373555529136601e-06,-5.480448404426852e-06,-1.7861909457406178e-05,0.0014609279223294308,0.0001426375630829908,-9.566802340512068e-05,0.0005484286018650237,0.0005081512426479549,-0.00012966414289069636,-0.000490516080914226,0.2720577120780945,22.748254776000977,0.09756157547235489,-14.179414749145508,-0.10008770227432251,-2.1389803886413574,0.38577598333358765,0
13,0.060025930404663086,-0.2720577120780945,-22.748254776000977,-0.09756157547235489,14.179414749145508,0.10008770227432251,2.1389803886413574,-0.38577598333358765,0.0,0.0,0.0,0.0,0.0,0.0,0.0,-0.3102482234271623,0.028830768455156704,-0.1894665744063744,0.28997396790266583,-0.15059975790284855,-0.042393723151404654,-0.3723855361391155,1.6755703870497252,0.05229443674913623,0.029814011692769562,-2.752384788546594,0.03425417754254394,2.7663734347555367,0.769180915256462,1.6754973547542302,0.052104326824870026,0.029969505109285054,-2.752394845125968,0.0342448039870148,2.7663679543071322,0.7691630533470046,-0.0014609279223294308,-0.0001426375630829908,9.566802340512068e-05,-0.0005484286018650237,-0.0005081512426479549,0.00012966414289069636,0.000490516080914226,0.0,0.0,0.0,0.0,0.0,0.0,0.0,-7.303229549493473e-05,-0.00019010992426620604,0.00015549341651549184,-1.0056579374140284e-05,-9.373555529136601e-06,-5.480448404426852e-06,-1.7861909457406178e-05,0.0014609279223294308,0.0001426375630829908,-9.566802340512068e-05,0.0005484286018650237,0.0005081512426479549,-0.00012966414289069636,-0.000490516080914226,0.2720577120780945,22.748254776000977,0.09756157547235489,-14.179414749145508,-0.10008770227432251,-2.1389803886413574,0.38577598333358765,0
14,0.06501388549804688,-0.2998287081718445,-22.696680068969727,-0.1491362750530243,14.179414749145508,0.08818584680557251,2.1453890800476074,-0.34457725286483765,0.0,0.0,0.0,0.0,0.0,0.0,0.0,-0.31525234410606584,0.02647704575684916,-0.19041523798132018,0.29513144885586884,-0.14941815695146465,-0.042119191180365854,-0.3720750408923371,1.6755723358915564,0.05229081747144983,0.02981763096859581,-2.7523847875291607,0.03425549996892612,2.766372722678714,0.7691763380863397,1.6754973547542302,0.052104326824870026,0.029969505109285054,-2.752394845125968,0.0342448039870148,2.7663679543071322,0.7691630533470046,-0.0005389195140693885,-0.0011360657228558391,0.0008916163650521691,0.0002377805616596477,-0.0003001632079262948,-0.000262223628799567,-0.0013210022004510739,0.0,0.0,0.0,0.0,0.0,0.0,0.0,-7.498113732617995e-05,-0.00018649064657980108,0.00015187414068924474,-1.0057596807389046e-05,-1.069598191132115e-05,-4.768371581587161e-06,-1.328473933503993e-05,0.0005389195140693885,0.0011360657228558391,-0.0008916163650521691,-0.0002377805616596477,0.0003001632079262948,0.000262223628799567,0.0013210022004510739,0.2998287081718445,22.696680068969727,0.1491362750530243,-14.179414749145508,-0.08818584680557251,-2.1453890800476074,0.34457725286483765,0
15,0.0699930191040039,-0.2998287081718445,-22.696680068969727,-0.1491362750530243,14.179414749145508,0.08818584680557251,2.1453890800476074,-0.34457725286483765,0.0,0.0,0.0,0.0,0.0,0.0,0.0,-0.31525234410606584,0.02647704575684916,-0.19041523798132018,0.29513144885586884,-0.14941815695146465,-0.042119191180365854,-0.3720750408923371,1.6755723358915564,0.05229081747144983,0.02981763096859581,-2.7523847875291607,0.03425549996892612,2.766372722678714,0.7691763380863397,1.6754973547542302,0.052104326824870026,0.029969505109285054,-2.752394845125968,0.0342448039870148,2.7663679543071322,0.7691630533470046,-0.0005389195140693885,-0.0011360657228558391,0.0008916163650521691,0.0002377805616596477,-0.0003001632079262948,-0.000262223628799567,-0.0013210022004510739,0.0,0.0,0.0,0.0,0.0,0.0,0.0,-7.498113732617995e-05,-0.00018649064657980108,0.00015187414068924474,-1.0057596807389046e-05,-1.069598191132115e-05,-4.768371581587161e-06,-1.328473933503993e-05,0.0005389195140693885,0.0011360657228558391,-0.0008916163650521691,-0.0002377805616596477,0.0003001632079262948,0.000262223628799567,0.0013210022004510739,0.2998287081718445,22.696680068969727,0.1491362750530243,-14.179414749145508,-0.08818584680557251,-2.1453890800476074,0.34457725286483765,0
16,0.07500171661376953,-0.3236324191093445,-22.795862197875977,-0.09756157547235489,14.131807327270508,0.09367901086807251,2.1453890800476074,-0.35831016302108765,0.0,0.0,0.0,0.0,0.0,0.0,0.0,-0.3188507794402058,0.02915386472720593,-0.19351146788315188,0.29783959879529925,-0.14918541842564137,-0.042273957604380394,-0.37229013842645337,1.6755740063274116,0.05229777762084676,0.02981401169143225,-2.752381447637245,0.034254889617363615,2.766372722678714,0.7691778518523791,1.6754973547542302,0.052104326824870026,0.029969505109285054,-2.752394845125968,0.0342448039870148,2.7663679543071322,0.7691630533470046,0.00012291501124443743,0.001069887437394813,-0.00048543265017659014,0.0009998725919452365,-0.00030748875676307654,-8.330085222067832e-05,-0.0006762597869960685,0.0,0.0,0.0,0.0,0.0,0.0,0.0,-7.665157318137439e-05,-0.0001934507959767337,0.00015549341785280404,-1.3397488723310147e-05,-1.0085630348814767e-05,-4.768371581587161e-06,-1.4798505374447046e-05,-0.00012291501124443743,-0.001069887437394813,0.00048543265017659014,-0.0009998725919452365,0.00030748875676307654,8.330085222067832e-05,0.0006762597869960685,0.3236324191093445,22.795862197875977,0.09756157547235489,-14.131807327270508,-0.09367901086807251,-2.1453890800476074,0.35831016302108765,0
17,0.07999086380004883,-0.3236324191093445,-22.795862197875977,-0.09756157547235489,14.131807327270508,0.09367901086807251,2.1453890800476074,-0.35831016302108765,0.0,0.0,0.0,0.0,0.0,0.0,0.0,-0.3188507794402058,0.02915386472720593,-0.19351146788315188,0.29783959879529925,-0.14918541842564137,-0.042273957604380394,-0.37229013842645337,1.6755740063274116,0.05229777762084676,0.02981401169143225,-2.752381447637245,0.034254889617363615,2.766372722678714,0.7691778518523791,1.6754973547542302,0.052104326824870026,0.029969505109285054,-2.752394845125968,0.0342448039870148,2.7663679543071322,0.7691630533470046,0.00012291501124443743,0.001069887437394813,-0.00048543265017659014,0.0009998725919452365,-0.00030748875676307654,-8.330085222067832e-05,-0.0006762597869960685,0.0,0.0,0.0,0.0,0.0,0.0,0.0,-7.665157318137439e-05,-0.0001934507959767337,0.00015549341785280404,-1.3397488723310147e-05,-1.0085630348814767e-05,-4.768371581587161e-06,-1.4798505374447046e-05,-0.00012291501124443743,-0.001069887437394813,0.00048543265017659014,-0.0009998725919452365,0.00030748875676307654,8.330085222067832e-05,0.0006762597869960685,0.3236324191093445,22.795862197875977,0.09756157547235489,-14.131807327270508,-0.09367901086807251,-2.1453890800476074,0.35831016302108765,0
18,0.07999086380004883,-0.3236324191093445,-22.795862197875977,-0.09756157547235489,14.131807327270508,0.09367901086807251,2.1453890800476074,-0.35831016302108765,0.0,0.0,0.0,0.0,0.0,0.0,0.0,-0.3188507794402058,0.02915386472720593,-0.19351146788315188,0.29783959879529925,-0.14918541842564137,-0.042273957604380394,-0.37229013842645337,1.6755740063274116,0.05229777762084676,0.02981401169143225,-2.752381447637245,0.034254889617363615,2.766372722678714,0.7691778518523791,1.6754973547542302,0.052104326824870026,0.029969505109285054,-2.752394845125968,0.0342448039870148,2.7663679543071322,0.7691630533470046,0.00012291501124443743,0.001069887437394813,-0.00048543265017659014,0.0009998725919452365,-0.00030748875676307654,-8.330085222067832e-05,-0.0006762597869960685,0.0,0.0,0.0,0.0,0.0,0.0,0.0,-7.665157318137439e-05,-0.0001934507959767337,0.00015549341785280404,-1.3397488723310147e-05,-1.0085630348814767e-05,-4.768371581587161e-06,-1.4798505374447046e-05,-0.00012291501124443743,-0.001069887437394813,0.00048543265017659014,-0.0009998725919452365,0.00030748875676307654,8.330085222067832e-05,0.0006762597869960685,0.3236324191093445,22.795862197875977,0.09756157547235489,-14.131807327270508,-0.09367901086807251,-2.1453890800476074,0.35831016302108765,0
19,0.08998727798461914,-0.2998287081718445,-22.748254776000977,-0.1491362750530243,14.155611038208008,0.08177715539932251,2.1517977714538574,-0.33725303411483765,0.0,0.0,0.0,0.0,0.0,0.0,0.0,-0.31387230441499037,0.03244752972816568,-0.18878135231989107,0.2983493512341445,-0.14947692536659055,-0.04184644103860786,-0.3719714716503425,1.6755723358915564,0.05229443674913623,0.029817630968595805,-2.75238311811079,0.03425621204574903,2.766372010601891,0.7691755121713212,1.6754973547542302,0.052104326824870026,0.029969505109285054,-2.752394845125968,0.0342448039870148,2.7663679543071322,0.7691630533470046,-8.324317309043691e-05,-0.00045978348059575944,0.0014388999538848981,0.0002456696983122619,-3.093695774092534e-05,-0.00015251356513483604,-0.0012700988009018007,0.0,0.0,0.0,0.0,0.0,0.0,0.0,-7.498113732617995e-05,-0.00019010992426620604,0.0001518741406892482,-1.1727015178042421e-05,-1.1408058734230231e-05,-4.05629475874747e-06,-1.245882431655243e-05,8.324317309043691e-05,0.00045978348059575944,-0.0014388999538848981,-0.0002456696983122619,3.093695774092534e-05,0.00015251356513483604,0.0012700988009018007,0.2998287081718445,22.748254776000977,0.1491362750530243,-14.155611038208008,-0.08177715539932251,-2.1517977714538574,0.33725303411483765,0
20,0.095001220703125,-0.2998287081718445,-22.748254776000977,-0.1491362750530243,14.155611038208008,0.08177715539932251,2.1517977714538574,-0.33725303411483765,0.0,0.0,0.0,0.0,0.0,0.0,0.0,-0.31387230441499037,0.03244752972816568,-0.18878135231989107,0.2983493512341445,-0.14947692536659055,-0.04184644103860786,-0.3719714716503425,1.6755723358915564,0.05229443674913623,0.029817630968595805,-2.75238311811079,0.03425621204574903,2.766372010601891,0.7691755121713212,1.6754973547542302,0.052104326824870026,0.029969505109285054,-2.752394845125968,0.0342448039870148,2.7663679543071322,0.7691630533470046,-8.324317309043691e-05,-0.00045978348059575944,0.0014388999538848981,0.0002456696983122619,-3.093695774092534e-05,-0.00015251356513483604,-0.0012700988009018007,0.0,0.0,0.0,0.0,0.0,0.0,0.0,-7.498113732617995e-05,-0.00019010992426620604,0.0001518741406892482,-1.1727015178042421e-05,-1.1408058734230231e-05,-4.05629475874747e-06,-1.245882431655243e-05,8.324317309043691e-05,0.00045978348059575944,-0.0014388999538848981,-0.0002456696983122619,3.093695774092534e-05,0.00015251356513483604,0.0012700988009018007,0.2998287081718445,22.748254776000977,0.1491362750530243,-14.155611038208008,-0.08177715539932251,-2.1517977714538574,0.33725303411483765,0
21,0.10000109672546387,-0.2720577120780945,-22.795862197875977,-0.07375786453485489,14.179414749145508,0.07628399133682251,2.1582064628601074,-0.37204307317733765,0.0,0.0,0.0,0.0,0.0,0.0,0.0,-0.3142661763703589,0.027220067741395047,-0.1912244787726662,0.30163135940031693,-0.14944672949940435,-0.04033382409510391,-0.3696165261653635,1.6755703870497252,0.05229777762084676,0.029812341255576986,-2.7523847885466455,0.03425788716475724,2.766371298525068,0.7691793762776832,1.6754973547542302,0.052104326824870026,0.029969505109285054,-2.752394845125968,0.0342448039870148,2.7663679543071322,0.7691630533470046,-0.0006913410122013051,-2.9096219417425713e-06,-0.000560808191094131,6.849041271565578e-05,7.158728945512898e-05,-0.00036644325025737725,-0.00011495275397583848,0.0,0.0,0.0,0.0,0.0,0.0,0.0,-7.303229549493473e-05,-0.0001934507959767337,0.00015716385370806787,-1.0056579322625936e-05,-1.308317774244283e-05,-3.3442179359077784e-06,-1.6322930678547287e-05,0.0006913410122013051,2.9096219417425713e-06,0.000560808191094131,-6.849041271565578e-05,-7.158728945512898e-05,0.00036644325025737725,0.00011495275397583848,0.2720577120780945,22.795862197875977,0.07375786453485489,-14.179414749145508,-0.07628399133682251,-2.1582064628601074,0.37204307317733765,0
22,0.10498905181884766,-0.2720577120780945,-22.795862197875977,-0.07375786453485489,14.179414749145508,0.07628399133682251,2.1582064628601074,-0.37204307317733765,0.0,0.0,0.0,0.0,0.0,0.0,0.0,-0.3142661763703589,0.027220067741395047,-0.1912244787726662,0.30163135940031693,-0.14944672949940435,-0.04033382409510391,-0.3696165261653635,1.6755703870497252,0.05229777762084676,0.029812341255576986,-2.7523847885466455,0.03425788716475724,2.766371298525068,0.7691793762776832,1.6754973547542302,0.052104326824870026,0.029969505109285054,-2.752394845125968,0.0342448039870148,2.7663679543071322,0.7691630533470046,-0.0006913410122013051,-2.9096219417425713e-06,-0.000560808191094131,6.849041271565578e-05,7.158728945512898e-05,-0.00036644325025737725,-0.00011495275397583848,0.0,0.0,0.0,0.0,0.0,0.0,0.0,-7.303229549493473e-05,-0.0001934507959767337,0.00015716385370806787,-1.0056579322625936e-05,-1.308317774244283e-05,-3.3442179359077784e-06,-1.6322930678547287e-05,0.0006913410122013051,2.9096219417425713e-06,0.000560808191094131,-6.849041271565578e-05,-7.158728945512898e-05,0.00036644325025737725,0.00011495275397583848,0.2720577120780945,22.795862197875977,0.07375786453485489,-14.179414749145508,-0.07628399133682251,-2.1582064628601074,0.37204307317733765,0
23,0.1100008487701416,-0.2720577120780945,-22.795862197875977,-0.1253325641155243,14.155611038208008,0.08177715539932251,2.1517977714538574,-0.35831016302108765,0.0,0.0,0.0,0.0,0.0,0.0,0.0,-0.31566591805378263,0.029057029823406334,-0.19541076988493272,0.29710033669078906,-0.14857349445225346,-0.0400996336611878,-0.3684240779215312,1.6755703870497252,0.05229777762084676,0.02981596053274054,-2.75238311811079,0.03425621204775258,2.766372010601891,0.7691778503987523,1.6754973547542302,0.052104326824870026,0.029969505109285054,-2.752394845125968,0.0342448039870148,2.7663679543071322,0.7691630533470046,-0.0006868575542899146,0.0001249834245990475,0.0008529733932257248,1.63948527265524e-05,-0.0016165388425075052,-0.000295141849326352,-0.0007190901579651161,0.0,0.0,0.0,0.0,0.0,0.0,0.0,-7.303229549493473e-05,-0.0001934507959767337,0.00015354457654451203,-1.1727015178042421e-05,-1.1408060737780334e-05,-4.05629475874747e-06,-1.479705174767254e-05,0.0006868575542899146,-0.0001249834245990475,-0.0008529733932257248,-1.63948527265524e-05,0.0016165388425075052,0.000295141849326352,0.0007190901579651161,0.2720577120780945,22.795862197875977,0.1253325641155243,-14.155611038208008,-0.08177715539932251,-2.1517977714538574,0.35831016302108765,0
24,0.1150214672088623,-0.2720577120780945,-22.795862197875977,-0.1253325641155243,14.155611038208008,0.08177715539932251,2.1517977714538574,-0.35831016302108765,0.0,0.0,0.0,0.0,0.0,0.0,0.0,-0.31566591805378263,0.029057029823406334,-0.19541076988493272,0.29710033669078906,-0.14857349445225346,-0.0400996336611878,-0.3684240779215312,1.6755703870497252,0.05229777762084676,0.02981596053274054,-2.75238311811079,0.03425621204775258,2.766372010601891,0.7691778503987523,1.6754973547542302,0.052104326824870026,0.029969505109285054,-2.752394845125968,0.0342448039870148,2.7663679543071322,0.7691630533470046,-0.0006868575542899146,0.0001249834245990475,0.0008529733932257248,1.63948527265524e-05,-0.0016165388425075052,-0.000295141849326352,-0.0007190901579651161,0.0,0.0,0.0,0.0,0.0,0.0,0.0,-7.303229549493473e-05,-0.0001934507959767337,0.00015354457654451203,-1.1727015178042421e-05,-1.1408060737780334e-05,-4.05629475874747e-06,-1.479705174767254e-05,0.0006868575542899146,-0.0001249834245990475,-0.0008529733932257248,-1.63948527265524e-05,0.0016165388425075052,0.000295141849326352,0.0007190901579651161,0.2720577120780945,22.795862197875977,0.1253325641155243,-14.155611038208008,-0.08177715539932251,-2.1517977714538574,0.35831016302108765,0
25,0.12001156806945801,-0.3236324191093445,-22.772058486938477,-0.1253325641155243,14.155611038208008,0.08177715539932251,2.1517977714538574,-0.34457725286483765,0.0,0.0,0.0,0.0,0.0,0.0,0.0,-0.30879627152656974,0.029048700795993507,-0.19087921381906245,0.2921918016950192,-0.14947697067997925,-0.0397000691053421,-0.37027246775641875,1.6755740063650963,0.052296107184991496,0.02981596053274054,-2.75238311811079,0.034256212045749045,2.766372010601891,0.7691763245198461,1.6754973547542302,0.052104326824870026,0.029969505109285054,-2.752394845125968,0.0342448039870148,2.7663679543071322,0.7691630533470046,0.0006549925635849325,-0.00016280086974882344,0.00030656850985523785,-0.00027699529377904535,6.784227989498491e-05,-0.0002926251409250601,-0.0007188759622291801,0.0,0.0,0.0,0.0,0.0,0.0,0.0,-7.66516108661186e-05,-0.00019178036012146987,0.00015354457654451203,-1.1727015178042421e-05,-1.1408058734244109e-05,-4.05629475874747e-06,-1.3271172841444745e-05,-0.0006549925635849325,0.00016280086974882344,-0.00030656850985523785,0.00027699529377904535,-6.784227989498491e-05,0.0002926251409250601,0.0007188759622291801,0.3236324191093445,22.772058486938477,0.1253325641155243,-14.155611038208008,-0.08177715539932251,-2.1517977714538574,0.34457725286483765,0
26,0.12501311302185059,-0.3236324191093445,-22.772058486938477,-0.1253325641155243,14.155611038208008,0.08177715539932251,2.1517977714538574,-0.34457725286483765,0.0,0.0,0.0,0.0,0.0,0.0,0.0,-0.30879627152656974,0.029048700795993507,-0.19087921381906245,0.2921918016950192,-0.14947697067997925,-0.0397000691053421,-0.37027246775641875,1.6755740063650963,0.052296107184991496,0.02981596053274054,-2.75238311811079,0.034256212045749045,2.766372010601891,0.7691763245198461,1.6754973547542302,0.052104326824870026,0.029969505109285054,-2.752394845125968,0.0342448039870148,2.7663679543071322,0.7691630533470046,0.0006549925635849325,-0.00016280086974882344,0.00030656850985523785,-0.00027699529377904535,6.784227989498491e-05,-0.0002926251409250601,-0.0007188759622291801,0.0,0.0,0.0,0.0,0.0,0.0,0.0,-7.66516108661186e-05,-0.00019178036012146987,0.00015354457654451203,-1.1727015178042421e-05,-1.1408058734244109e-05,-4.05629475874747e-06,-1.3271172841444745e-05,-0.0006549925635849325,0.00016280086974882344,-0.00030656850985523785,0.00027699529377904535,-6.784227989498491e-05,0.0002926251409250601,0.0007188759622291801,0.3236324191093445,22.772058486938477,0.1253325641155243,-14.155611038208008,-0.08177715539932251,-2.1517977714538574,0.34457725286483765,0
27,0.13002967834472656,-0.3514034152030945,-22.696680068969727,-0.1253325641155243,14.179414749145508,0.08818584680557251,2.1453890800476074,-0.35831016302108765,0.0,0.0,0.0,0.0,0.0,0.0,0.0,-0.3044906514945802,0.03492696044945805,-0.18930934983411832,0.28851118954012156,-0.14994426417741158,-0.03948484945769628,-0.36949738206989885,1.6755759551692428,0.05229081747144983,0.02981596053274054,-2.7523847885466455,0.034255499968926115,2.766372722678714,0.7691778505602579,1.6754973547542302,0.052104326824870026,0.029969505109285054,-2.752394845125968,0.0342448039870148,2.7663679543071322,0.7691630533470046,0.0007409217003503606,-0.0009403265520441365,0.000663851279392436,-0.0006398457954678972,-0.0002116494739348196,6.415988171887884e-05,1.0651108139417538e-05,0.0,0.0,0.0,0.0,0.0,0.0,0.0,-7.86004150126196e-05,-0.00018649064657980108,0.00015354457654451203,-1.0056579322625936e-05,-1.0695981911314212e-05,-4.768371581587161e-06,-1.4797213253259223e-05,-0.0007409217003503606,0.0009403265520441365,-0.000663851279392436,0.0006398457954678972,0.0002116494739348196,-6.415988171887884e-05,-1.0651108139417538e-05,0.3514034152030945,22.696680068969727,0.1253325641155243,-14.179414749145508,-0.08818584680557251,-2.1453890800476074,0.35831016302108765,0
28,0.13503122329711914,-0.3514034152030945,-22.696680068969727,-0.1253325641155243,14.179414749145508,0.08818584680557251,2.1453890800476074,-0.35831016302108765,0.0,0.0,0.0,0.0,0.0,0.0,0.0,-0.3044906514945802,0.03492696044945805,-0.18930934983411832,0.28851118954012156,-0.14994426417741158,-0.03948484945769628,-0.36949738206989885,1.6755759551692428,0.05229081747144983,0.02981596053274054,-2.7523847885466455,0.034255499968926115,2.766372722678714,0.7691778505602579,1.6754973547542302,0.052104326824870026,0.029969505109285054,-2.752394845125968,0.0342448039870148,2.7663679543071322,0.7691630533470046,0.0007409217003503606,-0.0009403265520441365,0.000663851279392436,-0.0006398457954678972,-0.0002116494739348196,6.415988171887884e-05,1.0651108139417538e-05,0.0,0.0,0.0,0.0,0.0,0.0,0.0,-7.86004150126196e-05,-0.00018649064657980108,0.00015354457654451203,-1.0056579322625936e-05,-1.0695981911314212e-05,-4.768371581587161e-06,-1.4797213253259223e-05,-0.0007409217003503606,0.0009403265520441365,-0.000663851279392436,0.0006398457954678972,0.0002116494739348196,-6.415988171887884e-05,-1.0651108139417538e-05,0.3514034152030945,22.696680068969727,0.1253325641155243,-14.179414749145508,-0.08818584680557251,-2.1453890800476074,0.35831016302108765,0
29,0.13999652862548828,-0.3514034152030945,-22.696680068969727,-0.1253325641155243,14.179414749145508,0.08818584680557251,2.1453890800476074,-0.35831016302108765,0.0,0.0,0.0,0.0,0.0,0.0,0.0,-0.3044906514945802,0.03492696044945805,-0.18930934983411832,0.28851118954012156,-0.14994426417741158,-0.03948484945769628,-0.36949738206989885,1.6755759551692428,0.05229081747144983,0.02981596053274054,-2.7523847885466455,0.034255499968926115,2.766372722678714,0.7691778505602579,1.6754973547542302,0.052104326824870026,0.029969505109285054,-2.752394845125968,0.0342448039870148,2.7663679543071322,0.7691630533470046,0.0007409217003503606,-0.0009403265520441365,0.000663851279392436,-0.0006398457954678972,-0.0002116494739348196,6.415988171887884e-05,1.0651108139417538e-05,0.0,0.0,0.0,0.0,0.0,0.0,0.0,-7.86004150126196e-05,-0.00018649064657980108,0.00015354457654451203,-1.0056579322625936e-05,-1.0695981911314212e-05,-4.768371581587161e-06,-1.4797213253259223e-05,-0.0007409217003503606,0.0009403265520441365,-0.000663851279392436,0.0006398457954678972,0.0002116494739348196,-6.415988171887884e-05,-1.0651108139417538e-05,0.3514034152030945,22.696680068969727,0.1253325641155243,-14.179414749145508,-0.08818584680557251,-2.1453890800476074,0.35831016302108765,0
30,0.14499306678771973,-0.3514034152030945,-22.696680068969727,-0.1253325641155243,14.179414749145508,0.08818584680557251,2.1453890800476074,-0.35831016302108765,0.0,0.0,0.0,0.0,0.0,0.0,0.0,-0.3044906514945802,0.03492696044945805,-0.18930934983411832,0.28851118954012156,-0.14994426417741158,-0.03948484945769628,-0.36949738206989885,1.6755759551692428,0.05229081747144983,0.02981596053274054,-2.7523847885466455,0.034255499968926115,2.766372722678714,0.7691778505602579,1.6754973547542302,0.052104326824870026,0.029969505109285054,-2.752394845125968,0.0342448039870148,2.7663679543071322,0.7691630533470046,0.0007409217003503606,-0.0009403265520441365,0.000663851279392436,-0.0006398457954678972,-0.0002116494739348196,6.415988171887884e-05,1.0651108139417538e-05,0.0,0.0,0.0,0.0,0.0,0.0,0.0,-7.86004150126196e-05,-0.00018649064657980108,0.00015354457654451203,-1.0056579322625936e-05,-1.0695981911314212e-05,-4.768371581587161e-06,-1.4797213253259223e-05,-0.0007409217003503606,0.0009403265520441365,-0.000663851279392436,0.0006398457954678972,0.0002116494739348196,-6.415988171887884e-05,-1.0651108139417538e-05,0.3514034152030945,22.696680068969727,0.1253325641155243,-14.179414749145508,-0.08818584680557251,-2.1453890800476074,0.35831016302108765,0
31,0.15002179145812988,-0.3236324191093445,-22.748254776000977,-0.09756157547235489,14.131807327270508,0.08177715539932251,2.1453890800476074,-0.38577598333358765,0.0,0.0,0.0,0.0,0.0,0.0,0.0,-0.31029557434678867,0.030175842925172242,-0.19092014115250044,0.29487148300674965,-0.15000363242737674,-0.03812473134601864,-0.3682874804675604,1.6755740063274116,0.05229443674913623,0.029814722394036968,-2.752381447674935,0.03425621204574903,2.766372722678714,0.7691809021565656,1.6754973547542302,0.052104326824870026,0.029969505109285054,-2.752394845125968,0.0342448039870148,2.7663679543071322,0.7691630533470046,-0.00022994799167193767,-2.525450766772489e-05,-0.00045948613652731956,0.0007866649096328868,0.00011904048213832118,9.74586936890603e-06,0.0008421779309738214,0.0,0.0,0.0,0.0,0.0,0.0,0.0,-7.665157318137439e-05,-0.00019010992426620604,0.0001547827152480856,-1.3397451033014818e-05,-1.1408058734230231e-05,-4.768371581587161e-06,-1.784880956101631e-05,0.00022994799167193767,2.525450766772489e-05,0.00045948613652731956,-0.0007866649096328868,-0.00011904048213832118,-9.74586936890603e-06,-0.0008421779309738214,0.3236324191093445,22.748254776000977,0.09756157547235489,-14.131807327270508,-0.08177715539932251,-2.1453890800476074,0.38577598333358765,0
32,0.15500354766845703,-0.3236324191093445,-22.748254776000977,-0.09756157547235489,14.131807327270508,0.08177715539932251,2.1453890800476074,-0.38577598333358765,0.0,0.0,0.0,0.0,0.0,0.0,0.0,-0.31029557434678867,0.030175842925172242,-0.19092014115250044,0.29487148300674965,-0.15000363242737674,-0.03812473134601864,-0.3682874804675604,1.6755740063274116,0.05229443674913623,0.029814722394036968,-2.752381447674935,0.03425621204574903,2.766372722678714,0.7691809021565656,1.6754973547542302,0.052104326824870026,0.029969505109285054,-2.752394845125968,0.0342448039870148,2.7663679543071322,0.7691630533470046,-0.00022994799167193767,-2.525450766772489e-05,-0.00045948613652731956,0.0007866649096328868,0.00011904048213832118,9.74586936890603e-06,0.0008421779309738214,0.0,0.0,0.0,0.0,0.0,0.0,0.0,-7.665157318137439e-05,-0.00019010992426620604,0.0001547827152480856,-1.3397451033014818e-05,-1.1408058734230231e-05,-4.768371581587161e-06,-1.784880956101631e-05,0.00022994799167193767,2.525450766772489e-05,0.00045948613652731956,-0.0007866649096328868,-0.00011904048213832118,-9.74586936890603e-06,-0.0008421779309738214,0.3236324191093445,22.748254776000977,0.09756157547235489,-14.131807327270508,-0.08177715539932251,-2.1453890800476074,0.38577598333358765,0
33,0.16001200675964355,-0.3236324191093445,-22.720483779907227,-0.1491362750530243,14.179414749145508,0.08818584680557251,2.1517977714538574,-0.40591758489608765,0.0,0.0,0.0,0.0,0.0,0.0,0.0,-0.3159329952023352,0.03187494806216175,-0.18967537541127916,0.2945383691617778,-0.15049140741313227,-0.03842063737354307,-0.36977115201147953,1.6755740063274116,0.05229248790730509,0.029817630972607742,-2.7523847885466455,0.034255499968926115,2.766372010601891,0.7691843174879932,1.6754973547542302,0.052104326824870026,0.029969505109285054,-2.752394845125968,0.0342448039870148,2.7663679543071322,0.7691630533470046,-0.00023948746975015146,-0.0012185615154101102,0.0007154312482681278,-0.0004949677889445712,-0.00024179591007508525,-3.8565402602906357e-05,0.0013388650777748556,0.0,0.0,0.0,0.0,0.0,0.0,0.0,-7.665157318137439e-05,-0.0001881610824350649,0.0001518741366773116,-1.0056579322625936e-05,-1.0695981911314212e-05,-4.05629475874747e-06,-2.1264140988574987e-05,0.00023948746975015146,0.0012185615154101102,-0.0007154312482681278,0.0004949677889445712,0.00024179591007508525,3.8565402602906357e-05,-0.0013388650777748556,0.3236324191093445,22.720483779907227,0.1491362750530243,-14.179414749145508,-0.08818584680557251,-2.1517977714538574,0.40591758489608765,0
34,0.1650104522705078,-0.3236324191093445,-22.720483779907227,-0.1491362750530243,14.179414749145508,0.08818584680557251,2.1517977714538574,-0.40591758489608765,0.0,0.0,0.0,0.0,0.0,0.0,0.0,-0.3159329952023352,0.03187494806216175,-0.18967537541127916,0.2945383691617778,-0.15049140741313227,-0.03842063737354307,-0.36977115201147953,1.6755740063274116,0.05229248790730509,0.029817630972607742,-2.7523847885466455,0.034255499968926115,2.766372010601891,0.7691843174879932,1.6754973547542302,0.052104326824870026,0.029969505109285054,-2.752394845125968,0.0342448039870148,2.7663679543071322,0.7691630533470046,-0.00023948746975015146,-0.0012185615154101102,0.0007154312482681278,-0.0004949677889445712,-0.00024179591007508525,-3.8565402602906357e-05,0.0013388650777748556,0.0,0.0,0.0,0.0,0.0,0.0,0.0,-7.665157318137439e-05,-0.0001881610824350649,0.0001518741366773116,-1.0056579322625936e-05,-1.0695981911314212e-05,-4.05629475874747e-06,-2.1264140988574987e-05,0.00023948746975015146,0.0012185615154101102,-0.0007154312482681278,0.0004949677889445712,0.00024179591007508525,3.8565402602906357e-05,-0.0013388650777748556,0.3236324191093445,22.720483779907227,0.1491362750530243,-14.179414749145508,-0.08818584680557251,-2.1517977714538574,0.40591758489608765,0
35,0.1700575351715088,-0.2998287081718445,-22.795862197875977,-0.09756157547235489,14.131807327270508,0.07628399133682251,2.1517977714538574,-0.39950889348983765,0.0,0.0,0.0,0.0,0.0,0.0,0.0,-0.312044745836187,0.02967681486759299,-0.18601350957456717,0.29629515110321153,-0.1512006344597483,-0.037734384536838556,-0.3701607754828133,1.6755723358915564,0.05229777762084676,0.02981472239403699,-2.752381447674935,0.03425682239731153,2.766372010601891,0.7691824280421174,1.6754973547542302,0.052104326824870026,0.029969505109285054,-2.752394845125968,0.0342448039870148,2.7663679543071322,0.7691630533470046,0.00015948742808777368,0.00020870360297826646,-4.589283503126069e-05,0.001065859435059127,0.00035031218376431656,-1.3381232313708854e-05,0.001494307602148343,0.0,0.0,0.0,0.0,0.0,0.0,0.0,-7.498113732617995e-05,-0.0001934507959767337,0.00015478271524806478,-1.3397451033014818e-05,-1.2018410296729676e-05,-4.05629475874747e-06,-1.9374695112817086e-05,-0.00015948742808777368,-0.00020870360297826646,4.589283503126069e-05,-0.001065859435059127,-0.00035031218376431656,1.3381232313708854e-05,-0.001494307602148343,0.2998287081718445,22.795862197875977,0.09756157547235489,-14.131807327270508,-0.07628399133682251,-2.1517977714538574,0.39950889348983765,0
36,0.17503595352172852,-0.2998287081718445,-22.795862197875977,-0.09756157547235489,14.131807327270508,0.07628399133682251,2.1517977714538574,-0.39950889348983765,0.0,0.0,0.0,0.0,0.0,0.0,0.0,-0.312044745836187,0.02967681486759299,-0.18601350957456717,0.29629515110321153,-0.1512006344597483,-0.037734384536838556,-0.3701607754828133,1.6755723358915564,0.05229777762084676,0.02981472239403699,-2.752381447674935,0.03425682239731153,2.766372010601891,0.7691824280421174,1.6754973547542302,0.052104326824870026,0.029969505109285054,-2.752394845125968,0.0342448039870148,2.7663679543071322,0.7691630533470046,0.00015948742808777368,0.00020870360297826646,-4.589283503126069e-05,0.001065859435059127,0.00035031218376431656,-1.3381232313708854e-05,0.001494307602148343,0.0,0.0,0.0,0.0,0.0,0.0,0.0,-7.498113732617995e-05,-0.0001934507959767337,0.00015478271524806478,-1.3397451033014818e-05,-1.2018410296729676e-05,-4.05629475874747e-06,-1.9374695112817086e-05,-0.00015948742808777368,-0.00020870360297826646,4.589283503126069e-05,-0.001065859435059127,-0.00035031218376431656,1.3381232313708854e-05,-0.001494307602148343,0.2998287081718445,22.795862197875977,0.09756157547235489,-14.131807327270508,-0.07628399133682251,-2.1517977714538574,0.39950889348983765,0
37,0.17999935150146484,-0.3236324191093445,-22.772058486938477,-0.07375786453485489,14.155611038208008,0.09367901086807251,2.1453890800476074,-0.39950889348983765,0.0,0.0,0.0,0.0,0.0,0.0,0.0,-0.3175609679144565,0.026897677528589927,-0.19350608721681606,0.2966591962978417,-0.15032176345662865,-0.03720218552817658,-0.3694693422810233,1.6755740063274116,0.052296107184991496,0.029812341259588922,-2.75238311811079,0.034251693318287535,2.766372722678714,0.7691824280354711,1.6754973547542302,0.052104326824870026,0.029969505109285054,-2.752394845125968,0.0342448039870148,2.7663679543071322,0.7691630533470046,0.00038150077990216607,-0.0005934379147223729,-0.0009139202434308961,0.0004075100136114344,-0.0005883238072240208,6.322784230030158e-05,0.0009529578120012489,0.0,0.0,0.0,0.0,0.0,0.0,0.0,-7.665157318137439e-05,-0.00019178036012146987,0.00015716384969613126,-1.1727015178042421e-05,-6.889331272734445e-06,-4.768371581587161e-06,-1.937468846646695e-05,-0.00038150077990216607,0.0005934379147223729,0.0009139202434308961,-0.0004075100136114344,0.0005883238072240208,-6.322784230030158e-05,-0.0009529578120012489,0.3236324191093445,22.772058486938477,0.07375786453485489,-14.155611038208008,-0.09367901086807251,-2.1453890800476074,0.39950889348983765,0
38,0.18500447273254395,-0.3236324191093445,-22.772058486938477,-0.07375786453485489,14.155611038208008,0.09367901086807251,2.1453890800476074,-0.39950889348983765,0.0,0.0,0.0,0.0,0.0,0.0,0.0,-0.3175609679144565,0.026897677528589927,-0.19350608721681606,0.2966591962978417,-0.15032176345662865,-0.03720218552817658,-0.3694693422810233,1.6755740063274116,0.052296107184991496,0.029812341259588922,-2.75238311811079,0.034251693318287535,2.766372722678714,0.7691824280354711,1.6754973547542302,0.052104326824870026,0.029969505109285054,-2.752394845125968,0.0342448039870148,2.7663679543071322,0.7691630533470046,0.00038150077990216607,-0.0005934379147223729,-0.0009139202434308961,0.0004075100136114344,-0.0005883238072240208,6.322784230030158e-05,0.0009529578120012489,0.0,0.0,0.0,0.0,0.0,0.0,0.0,-7.665157318137439e-05,-0.00019178036012146987,0.00015716384969613126,-1.1727015178042421e-05,-6.889331272734445e-06,-4.768371581587161e-06,-1.937468846646695e-05,-0.00038150077990216607,0.0005934379147223729,0.0009139202434308961,-0.0004075100136114344,0.0005883238072240208,-6.322784230030158e-05,-0.0009529578120012489,0.3236324191093445,22.772058486938477,0.07375786453485489,-14.155611038208008,-0.09367901086807251,-2.1453890800476074,0.39950889348983765,0
39,0.18999481201171875,-0.3752071261405945,-22.795862197875977,-0.07375786453485489,14.207185745239258,0.07628399133682251,2.1453890800476074,-0.39218467473983765,0.0,0.0,0.0,0.0,0.0,0.0,0.0,-0.31057947872629654,0.03502777867856766,-0.18792099850312294,0.28509908270216044,-0.15099033417592647,-0.04057004624012604,-0.3715236122875252,1.675577625605098,0.05229777762084676,0.02981234125557701,-2.7523867373884765,0.03425682237926833,2.766372722678714,0.7691816142333877,1.6754973547542302,0.052104326824870026,0.029969505109285054,-2.752394845125968,0.0342448039870148,2.7663679543071322,0.7691630533470046,0.001675618053840584,0.0005899235299414797,-0.000449714492610308,-0.0015404846039320382,0.00012953033533309098,0.0006050263881763561,0.00023936624712497134,0.0,0.0,0.0,0.0,0.0,0.0,0.0,-8.027085086781405e-05,-0.0001934507959767337,0.0001571638537080436,-8.107737491602762e-06,-1.2018392253530796e-05,-4.768371581587161e-06,-1.8560886383078845e-05,-0.001675618053840584,-0.0005899235299414797,0.000449714492610308,0.0015404846039320382,-0.00012953033533309098,-0.0006050263881763561,-0.00023936624712497134,0.3752071261405945,22.795862197875977,0.07375786453485489,-14.207185745239258,-0.07628399133682251,-2.1453890800476074,0.39218467473983765,0
40,0.1949915885925293,-0.3752071261405945,-22.795862197875977,-0.07375786453485489,14.207185745239258,0.07628399133682251,2.1453890800476074,-0.39218467473983765,0.0,0.0,0.0,0.0,0.0,0.0,0.0,-0.31057947872629654,0.03502777867856766,-0.18792099850312294,0.28509908270216044,-0.15099033417592647,-0.04057004624012604,-0.3715236122875252,1.675577625605098,0.05229777762084676,0.02981234125557701,-2.7523867373884765,0.03425682237926833,2.766372722678714,0.7691816142333877,1.6754973547542302,0.052104326824870026,0.029969505109285054,-2.752394845125968,0.0342448039870148,2.7663679543071322,0.7691630533470046,0.001675618053840584,0.0005899235299414797,-0.000449714492610308,-0.0015404846039320382,0.00012953033533309098,0.0006050263881763561,0.00023936624712497134,0.0,0.0,0.0,0.0,0.0,0.0,0.0,-8.027085086781405e-05,-0.0001934507959767337,0.0001571638537080436,-8.107737491602762e-06,-1.2018392253530796e-05,-4.768371581587161e-06,-1.8560886383078845e-05,-0.001675618053840584,-0.0005899235299414797,0.000449714492610308,0.0015404846039320382,-0.00012953033533309098,-0.0006050263881763561,-0.00023936624712497134,0.3752071261405945,22.795862197875977,0.07375786453485489,-14.207185745239258,-0.07628399133682251,-2.1453890800476074,0.39218467473983765,0
41,0.20003914833068848,-0.2998287081718445,-22.795862197875977,-0.09756157547235489,14.155611038208008,0.08818584680557251,2.1582064628601074,-0.42605918645858765,0.0,0.0,0.0,0.0,0.0,0.0,0.0,-0.31101636286266865,0.023470222111469628,-0.187740736971135,0.29653626907493685,-0.1509827397494226,-0.0375577402273834,-0.37348135038288965,1.6755723358915564,0.05229777762084676,0.02981401169143225,-2.75238311811079,0.03425549996892581,2.766371298525068,0.7691885962282679,1.6754973547542302,0.052104326824870026,0.029969505109285054,-2.752394845125968,0.0342448039870148,2.7663679543071322,0.7691630533470046,-7.16604103296557e-05,0.0003572227793073205,-0.00047977663527364647,0.00015915365453444247,-0.00029188340657509753,-0.0003394193728846725,0.0022343716653854873,0.0,0.0,0.0,0.0,0.0,0.0,0.0,-7.498113732617995e-05,-0.0001934507959767337,0.00015549341785280404,-1.1727015178042421e-05,-1.06959819110089e-05,-3.3442179359077784e-06,-2.5542881263218575e-05,7.16604103296557e-05,-0.0003572227793073205,0.00047977663527364647,-0.00015915365453444247,0.00029188340657509753,0.0003394193728846725,-0.0022343716653854873,0.2998287081718445,22.795862197875977,0.09756157547235489,-14.155611038208008,-0.08818584680557251,-2.1582064628601074,0.42605918645858765,0
42,0.2050623893737793,-0.2998287081718445,-22.795862197875977,-0.09756157547235489,14.155611038208008,0.08818584680557251,2.1582064628601074,-0.42605918645858765,0.0,0.0,0.0,0.0,0.0,0.0,0.0,-0.31101636286266865,0.023470222111469628,-0.187740736971135,0.29653626907493685,-0.1509827397494226,-0.0375577402273834,-0.37348135038288965,1.6755723358915564,0.05229777762084676,0.02981401169143225,-2.75238311811079,0.03425549996892581,2.766371298525068,0.7691885962282679,1.6754973547542302,0.052104326824870026,0.029969505109285054,-2.752394845125968,0.0342448039870148,2.7663679543071322,0.7691630533470046,-7.16604103296557e-05,0.0003572227793073205,-0.00047977663527364647,0.00015915365453444247,-0.00029188340657509753,-0.0003394193728846725,0.0022343716653854873,0.0,0.0,0.0,0.0,0.0,0.0,0.0,-7.498113732617995e-05,-0.0001934507959767337,0.00015549341785280404,-1.1727015178042421e-05,-1.06959819110089e-05,-3.3442179359077784e-06,-2.5542881263218575e-05,7.16604103296557e-05,-0.0003572227793073205,0.00047977663527364647,-0.00015915365453444247,0.00029188340657509753,0.0003394193728846725,-0.0022343716653854873,0.2998287081718445,22.795862197875977,0.09756157547235489,-14.155611038208008,-0.08818584680557251,-2.1582064628601074,0.42605918645858765,0
43,0.21003937721252441,-0.3236324191093445,-22.772058486938477,-0.1491362750530243,14.179414749145508,0.06987529993057251,2.1453890800476074,-0.36471885442733765,0.0,0.0,0.0,0.0,0.0,0.0,0.0,-0.3070169316317274,0.02265037801253234,-0.18824861737573506,0.29835592231041186,-0.15043494643561509,-0.0371263545856625,-0.37302499207610934,1.6755740063274116,0.052296107184991496,0.029819763076409957,-2.7523847885466455,0.034257534474134446,2.766372722678714,0.7691785624816307,1.6754973547542302,0.052104326824870026,0.029969505109285054,-2.752394845125968,0.0342448039870148,2.7663679543071322,0.7691630533470046,0.0006073432477571907,1.8733369070509538e-05,0.0011082490611218165,-0.0002552286482637733,0.00038518631154484166,5.662683888894995e-07,-0.00013290513364349593,0.0,0.0,0.0,0.0,0.0,0.0,0.0,-7.665157318137439e-05,-0.00019178036012146987,0.00014974203287509633,-1.0056579322625936e-05,-1.2730487119645695e-05,-4.768371581587161e-06,-1.5509134626112697e-05,-0.0006073432477571907,-1.8733369070509538e-05,-0.0011082490611218165,0.0002552286482637733,-0.00038518631154484166,-5.662683888894995e-07,0.00013290513364349593,0.3236324191093445,22.772058486938477,0.1491362750530243,-14.179414749145508,-0.06987529993057251,-2.1453890800476074,0.36471885442733765,0
44,0.2150418758392334,-0.3236324191093445,-22.772058486938477,-0.1491362750530243,14.179414749145508,0.06987529993057251,2.1453890800476074,-0.36471885442733765,0.0,0.0,0.0,0.0,0.0,0.0,0.0,-0.3070169316317274,0.02265037801253234,-0.18824861737573506,0.29835592231041186,-0.15043494643561509,-0.0371263545856625,-0.37302499207610934,1.6755740063274116,0.052296107184991496,0.029819763076409957,-2.7523847885466455,0.034257534474134446,2.766372722678714,0.7691785624816307,1.6754973547542302,0.052104326824870026,0.029969505109285054,-2.752394845125968,0.0342448039870148,2.7663679543071322,0.7691630533470046,0.0006073432477571907,1.8733369070509538e-05,0.0011082490611218165,-0.0002552286482637733,0.00038518631154484166,5.662683888894995e-07,-0.00013290513364349593,0.0,0.0,0.0,0.0,0.0,0.0,0.0,-7.665157318137439e-05,-0.00019178036012146987,0.00014974203287509633,-1.0056579322625936e-05,-1.2730487119645695e-05,-4.768371581587161e-06,-1.5509134626112697e-05,-0.0006073432477571907,-1.8733369070509538e-05,-0.0011082490611218165,0.0002552286482637733,-0.00038518631154484166,-5.662683888894995e-07,0.00013290513364349593,0.3236324191093445,22.772058486938477,0.1491362750530243,-14.179414749145508,-0.06987529993057251,-2.1453890800476074,0.36471885442733765,0
45,0.22000789642333984,-0.2998287081718445,-22.772058486938477,-0.09756157547235489,14.131807327270508,0.07628399133682251,2.1453890800476074,-0.37845176458358765,0.0,0.0,0.0,0.0,0.0,0.0,0.0,-0.30757638456589553,0.02532005283872938,-0.19160160881119795,0.2975432090510879,-0.15027886642558957,-0.03877649731501387,-0.3721581277346919,1.6755723358915564,0.052296107184991496,0.029814014628170137,-2.752381447674935,0.03425682239731153,2.766372722678714,0.7691800883544815,1.6754973547542302,0.052104326824870026,0.029969505109285054,-2.752394845125968,0.0342448039870148,2.7663679543071322,0.7691630533470046,-0.0004621323315410431,-1.996918047898226e-05,-0.00040509579345530917,0.0009068228253605495,0.00026375674840256293,-0.00011077150893855199,-0.0001656422698948109,0.0,0.0,0.0,0.0,0.0,0.0,0.0,-7.498113732617995e-05,-0.00019178036012146987,0.00015549048111491645,-1.3397451033014818e-05,-1.2018410296729676e-05,-4.768371581587161e-06,-1.703500747685105e-05,0.0004621323315410431,1.996918047898226e-05,0.00040509579345530917,-0.0009068228253605495,-0.00026375674840256293,0.00011077150893855199,0.0001656422698948109,0.2998287081718445,22.772058486938477,0.09756157547235489,-14.131807327270508,-0.07628399133682251,-2.1453890800476074,0.37845176458358765,0
46,0.2250044345855713,-0.2998287081718445,-22.772058486938477,-0.09756157547235489,14.131807327270508,0.07628399133682251,2.1453890800476074,-0.37845176458358765,0.0,0.0,0.0,0.0,0.0,0.0,0.0,-0.30757638456589553,0.02532005283872938,-0.19160160881119795,0.2975432090510879,-0.15027886642558957,-0.03877649731501387,-0.3721581277346919,1.6755723358915564,0.052296107184991496,0.029814014628170137,-2.752381447674935,0.03425682239731153,2.766372722678714,0.7691800883544815,1.6754973547542302,0.052104326824870026,0.029969505109285054,-2.752394845125968,0.0342448039870148,2.7663679543071322,0.7691630533470046,-0.0004621323315410431,-1.996918047898226e-05,-0.00040509579345530917,0.0009068228253605495,0.00026375674840256293,-0.00011077150893855199,-0.0001656422698948109,0.0,0.0,0.0,0.0,0.0,0.0,0.0,-7.498113732617995e-05,-0.00019178036012146987,0.00015549048111491645,-1.3397451033014818e-05,-1.2018410296729676e-05,-4.768371581587161e-06,-1.703500747685105e-05,0.0004621323315410431,1.996918047898226e-05,0.00040509579345530917,-0.0009068228253605495,-0.00026375674840256293,0.00011077150893855199,0.0001656422698948109,0.2998287081718445,22.772058486938477,0.09756157547235489,-14.131807327270508,-0.07628399133682251,-2.1453890800476074,0.37845176458358765,0
47,0.23000025749206543,-0.2998287081718445,-22.772058486938477,-0.1253325641155243,14.155611038208008,0.08177715539932251,2.1389803886413574,-0.33725303411483765,0.0,0.0,0.0,0.0,0.0,0.0,0.0,-0.3055483400196243,0.03106776145440873,-0.1905703617784128,0.29758971012683677,-0.15044671976610396,-0.0399753851090877,-0.3743278376726967,1.6755723358915564,0.052296107184991496,0.02981596053275712,-2.75238311811079,0.03425621204574903,2.7663734347555367,0.7691755237997149,1.6754973547542302,0.052104326824870026,0.029969505109285054,-2.752394845125968,0.0342448039870148,2.7663679543071322,0.7691630533470046,0.00017481249135340959,0.00013674436683619635,0.00024361525819329298,0.0003201475216022681,-2.168905145456444e-05,0.0002973235930612324,-0.0015722287514056406,0.0,0.0,0.0,0.0,0.0,0.0,0.0,-7.498113732617995e-05,-0.00019178036012146987,0.00015354457652793502,-1.1727015178042421e-05,-1.1408058734230231e-05,-5.480448404426852e-06,-1.2470452710244828e-05,-0.00017481249135340959,-0.00013674436683619635,-0.00024361525819329298,-0.0003201475216022681,2.168905145456444e-05,-0.0002973235930612324,0.0015722287514056406,0.2998287081718445,22.772058486938477,0.1253325641155243,-14.155611038208008,-0.08177715539932251,-2.1389803886413574,0.33725303411483765,0
48,0.23499369621276855,-0.2998287081718445,-22.772058486938477,-0.1253325641155243,14.155611038208008,0.08177715539932251,2.1389803886413574,-0.33725303411483765,0.0,0.0,0.0,0.0,0.0,0.0,0.0,-0.3055483400196243,0.03106776145440873,-0.1905703617784128,0.29758971012683677,-0.15044671976610396,-0.0399753851090877,-0.3743278376726967,1.6755723358915564,0.052296107184991496,0.02981596053275712,-2.75238311811079,0.03425621204574903,2.7663734347555367,0.7691755237997149,1.6754973547542302,0.052104326824870026,0.029969505109285054,-2.752394845125968,0.0342448039870148,2.7663679543071322,0.7691630533470046,0.00017481249135340959,0.00013674436683619635,0.00024361525819329298,0.0003201475216022681,-2.168905145456444e-05,0.0002973235930612324,-0.0015722287514056406,0.0,0.0,0.0,0.0,0.0,0.0,0.0,-7.498113732617995e-05,-0.00019178036012146987,0.00015354457652793502,-1.1727015178042421e-05,-1.1408058734230231e-05,-5.480448404426852e-06,-1.2470452710244828e-05,-0.00017481249135340959,-0.00013674436683619635,-0.00024361525819329298,-0.0003201475216022681,2.168905145456444e-05,-0.0002973235930612324,0.0015722287514056406,0.2998287081718445,22.772058486938477,0.1253325641155243,-14.155611038208008,-0.08177715539932251,-2.1389803886413574,0.33725303411483765,0
49,0.23999762535095215,-0.2998287081718445,-22.795862197875977,-0.1253325641155243,14.179414749145508,0.09367901086807251,2.1389803886413574,-0.37845176458358765,0.0,0.0,0.0,0.0,0.0,0.0,0.0,-0.30219923025882367,0.02515756053277924,-0.18820143353543203,0.2977677757820021,-0.15093049920712617,-0.040499797777545234,-0.37349979973391767,1.6755723358915564,0.05229777762084676,0.02981596053274054,-2.7523847610619847,0.03425488956323401,2.7663734347555367,0.7691800888390229,1.6754973547542302,0.052104326824870026,0.029969505109285054,-2.752394845125968,0.0342448039870148,2.7663679543071322,0.7691630533470046,-5.6513048972699965e-05,-0.00011251059388360483,0.0007395377648520415,-0.0005468290253741911,-0.0005133322764619716,-1.9933781481811064e-06,0.0009301555305510609,0.0,0.0,0.0,0.0,0.0,0.0,0.0,-7.498113732617995e-05,-0.0001934507959767337,0.00015354457654451203,-1.0084063983395453e-05,-1.008557621921119e-05,-5.480448404426852e-06,-1.7035492018258047e-05,5.6513048972699965e-05,0.00011251059388360483,-0.0007395377648520415,0.0005468290253741911,0.0005133322764619716,1.9933781481811064e-06,-0.0009301555305510609,0.2998287081718445,22.795862197875977,0.1253325641155243,-14.179414749145508,-0.09367901086807251,-2.1389803886413574,0.37845176458358765,0
50,0.2450416088104248,-0.2998287081718445,-22.795862197875977,-0.1253325641155243,14.179414749145508,0.09367901086807251,2.1389803886413574,-0.37845176458358765,0.0,0.0,0.0,0.0,0.0,0.0,0.0,-0.30219923025882367,0.02515756053277924,-0.18820143353543203,0.2977677757820021,-0.15093049920712617,-0.040499797777545234,-0.37349979973391767,1.6755723358915564,0.05229777762084676,0.02981596053274054,-2.7523847610619847,0.03425488956323401,2.7663734347555367,0.7691800888390229,1.6754973547542302,0.052104326824870026,0.029969505109285054,-2.752394845125968,0.0342448039870148,2.7663679543071322,0.7691630533470046,-5.6513048972699965e-05,-0.00011251059388360483,0.0007395377648520415,-0.0005468290253741911,-0.0005133322764619716,-1.9933781481811064e-06,0.0009301555305510609,0.0,0.0,0.0,0.0,0.0,0.0,0.0,-7.498113732617995e-05,-0.0001934507959767337,0.00015354457654451203,-1.0084063983395453e-05,-1.008557621921119e-05,-5.480448404426852e-06,-1.7035492018258047e-05,5.6513048972699965e-05,0.00011251059388360483,-0.0007395377648520415,0.0005468290253741911,0.0005133322764619716,1.9933781481811064e-06,-0.0009301555305510609,0.2998287081718445,22.795862197875977,0.1253325641155243,-14.179414749145508,-0.09367901086807251,-2.1389803886413574,0.37845176458358765,0
51,0.2500150203704834,-0.2998287081718445,-22.772058486938477,-0.07375786453485489,14.155611038208008,0.08177715539932251,2.1517977714538574,-0.37845176458358765,0.0,0.0,0.0,0.0,0.0,0.0,0.0,-0.3150881704951648,0.023475821714651617,-0.19643223459064704,0.29598886040438327,-0.14983528921147737,-0.04185371569976957,-0.3702135451226057,1.6755723358915564,0.052296107184991496,0.029812341255576986,-2.752383118110635,0.034256212045748725,2.766372010601891,0.7691832672688723,1.6754973547542302,0.052104326824870026,0.029969505109285054,-2.752394845125968,0.0342448039870148,2.7663679543071322,0.7691630533470046,-0.0007549695141900068,-0.0007141829799780315,-0.0010704734298241667,6.403592995706293e-05,0.00016911214051538442,-0.0003670291917767499,0.0004892700398936325,0.0,0.0,0.0,0.0,0.0,0.0,0.0,-7.498113732617995e-05,-0.00019178036012146987,0.00015716385370806787,-1.1727015333029556e-05,-1.140805873392492e-05,-4.05629475874747e-06,-2.0213921867684448e-05,0.0007549695141900068,0.0007141829799780315,0.0010704734298241667,-6.403592995706293e-05,-0.00016911214051538442,0.0003670291917767499,-0.0004892700398936325,0.2998287081718445,22.772058486938477,0.07375786453485489,-14.155611038208008,-0.08177715539932251,-2.1517977714538574,0.37845176458358765,0
52,0.2550694942474365,-0.2998287081718445,-22.772058486938477,-0.07375786453485489,14.155611038208008,0.08177715539932251,2.1517977714538574,-0.37845176458358765,0.0,0.0,0.0,0.0,0.0,0.0,0.0,-0.3150881704951648,0.023475821714651617,-0.19643223459064704,0.29598886040438327,-0.14983528921147737,-0.04185371569976957,-0.3702135451226057,1.6755723358915564,0.052296107184991496,0.029812341255576986,-2.752383118110635,0.034256212045748725,2.766372010601891,0.7691832672688723,1.6754973547542302,0.052104326824870026,0.029969505109285054,-2.752394845125968,0.0342448039870148,2.7663679543071322,0.7691630533470046,-0.0007549695141900068,-0.0007141829799780315,-0.0010704734298241667,6.403592995706293e-05,0.00016911214051538442,-0.0003670291917767499,0.0004892700398936325,0.0,0.0,0.0,0.0,0.0,0.0,0.0,-7.498113732617995e-05,-0.00019178036012146987,0.00015716385370806787,-1.1727015333029556e-05,-1.140805873392492e-05,-4.05629475874747e-06,-2.0213921867684448e-05,0.0007549695141900068,0.0007141829799780315,0.0010704734298241667,-6.403592995706293e-05,-0.00016911214051538442,0.0003670291917767499,-0.0004892700398936325,0.2998287081718445,22.772058486938477,0.07375786453485489,-14.155611038208008,-0.08177715539932251,-2.1517977714538574,0.37845176458358765,0
53,0.2600569725036621,-0.2998287081718445,-22.772058486938477,-0.07375786453485489,14.155611038208008,0.08177715539932251,2.1517977714538574,-0.37845176458358765,0.0,0.0,0.0,0.0,0.0,0.0,0.0,-0.3150881704951648,0.023475821714651617,-0.19643223459064704,0.29598886040438327,-0.14983528921147737,-0.04185371569976957,-0.3702135451226057,1.6755723358915564,0.052296107184991496,0.029812341255576986,-2.752383118110635,0.034256212045748725,2.766372010601891,0.7691832672688723,1.6754973547542302,0.052104326824870026,0.029969505109285054,-2.752394845125968,0.0342448039870148,2.7663679543071322,0.7691630533470046,-0.0007549695141900068,-0.0007141829799780315,-0.0010704734298241667,6.403592995706293e-05,0.00016911214051538442,-0.0003670291917767499,0.0004892700398936325,0.0,0.0,0.0,0.0,0.0,0.0,0.0,-7.498113732617995e-05,-0.00019178036012146987,0.00015716385370806787,-1.1727015333029556e-05,-1.140805873392492e-05,-4.05629475874747e-06,-2.0213921867684448e-05,0.0007549695141900068,0.0007141829799780315,0.0010704734298241667,-6.403592995706293e-05,-0.00016911214051538442,0.0003670291917767499,-0.0004892700398936325,0.2998287081718445,22.772058486938477,0.07375786453485489,-14.155611038208008,-0.08177715539932251,-2.1517977714538574,0.37845176458358765,0
54,0.26500415802001953,-0.2998287081718445,-22.772058486938477,-0.07375786453485489,14.155611038208008,0.08177715539932251,2.1517977714538574,-0.37845176458358765,0.0,0.0,0.0,0.0,0.0,0.0,0.0,-0.3150881704951648,0.023475821714651617,-0.19643223459064704,0.29598886040438327,-0.14983528921147737,-0.04185371569976957,-0.3702135451226057,1.6755723358915564,0.052296107184991496,0.029812341255576986,-2.752383118110635,0.034256212045748725,2.766372010601891,0.7691832672688723,1.6754973547542302,0.052104326824870026,0.029969505109285054,-2.752394845125968,0.0342448039870148,2.7663679543071322,0.7691630533470046,-0.0007549695141900068,-0.0007141829799780315,-0.0010704734298241667,6.403592995706293e-05,0.00016911214051538442,-0.0003670291917767499,0.0004892700398936325,0.0,0.0,0.0,0.0,0.0,0.0,0.0,-7.498113732617995e-05,-0.00019178036012146987,0.00015716385370806787,-1.1727015333029556e-05,-1.140805873392492e-05,-4.05629475874747e-06,-2.0213921867684448e-05,0.0007549695141900068,0.0007141829799780315,0.0010704734298241667,-6.403592995706293e-05,-0.00016911214051538442,0.0003670291917767499,-0.0004892700398936325,0.2998287081718445,22.772058486938477,0.07375786453485489,-14.155611038208008,-0.08177715539932251,-2.1517977714538574,0.37845176458358765,0
55,0.26999783515930176,-0.3514034152030945,-22.748254776000977,-0.09756157547235489,14.179414749145508,0.08177715539932251,2.1517977714538574,-0.36471885442733765,0.0,0.0,0.0,0.0,0.0,0.0,0.0,-0.31143871550397567,0.018408457336870087,-0.18953631742991342,0.2978943137175829,-0.14982725264277738,-0.04103950735376108,-0.3694656605308322,1.6755759551692426,0.05229443674913623,0.02981401169143225,-2.7523847885466455,0.03425621204574903,2.766372010601891,0.7691785624935203,1.6754973547542302,0.052104326824870026,0.029969505109285054,-2.752394845125968,0.0342448039870148,2.7663679543071322,0.7691630533470046,0.0009956059346605207,-0.0008622349184755732,-0.00010459151541352198,-0.0003247809478850189,-6.16088946596113e-05,-8.316189400265336e-05,-0.00033927869317640575,0.0,0.0,0.0,0.0,0.0,0.0,0.0,-7.860041501239756e-05,-0.00019010992426620604,0.00015549341785280404,-1.0056579322625936e-05,-1.1408058734230231e-05,-4.05629475874747e-06,-1.5509146515713113e-05,-0.0009956059346605207,0.0008622349184755732,0.00010459151541352198,0.0003247809478850189,6.16088946596113e-05,8.316189400265336e-05,0.00033927869317640575,0.3514034152030945,22.748254776000977,0.09756157547235489,-14.179414749145508,-0.08177715539932251,-2.1517977714538574,0.36471885442733765,0
56,0.27500128746032715,-0.3514034152030945,-22.748254776000977,-0.09756157547235489,14.179414749145508,0.08177715539932251,2.1517977714538574,-0.36471885442733765,0.0,0.0,0.0,0.0,0.0,0.0,0.0,-0.31143871550397567,0.018408457336870087,-0.18953631742991342,0.2978943137175829,-0.14982725264277738,-0.04103950735376108,-0.3694656605308322,1.6755759551692426,0.05229443674913623,0.02981401169143225,-2.7523847885466455,0.03425621204574903,2.766372010601891,0.7691785624935203,1.6754973547542302,0.052104326824870026,0.029969505109285054,-2.752394845125968,0.0342448039870148,2.7663679543071322,0.7691630533470046,0.0009956059346605207,-0.0008622349184755732,-0.00010459151541352198,-0.0003247809478850189,-6.16088946596113e-05,-8.316189400265336e-05,-0.00033927869317640575,0.0,0.0,0.0,0.0,0.0,0.0,0.0,-7.860041501239756e-05,-0.00019010992426620604,0.00015549341785280404,-1.0056579322625936e-05,-1.1408058734230231e-05,-4.05629475874747e-06,-1.5509146515713113e-05,-0.0009956059346605207,0.0008622349184755732,0.00010459151541352198,0.0003247809478850189,6.16088946596113e-05,8.316189400265336e-05,0.00033927869317640575,0.3514034152030945,22.748254776000977,0.09756157547235489,-14.179414749145508,-0.08177715539932251,-2.1517977714538574,0.36471885442733765,0
57,0.2800312042236328,-0.2998287081718445,-22.748254776000977,-0.1253325641155243,14.131807327270508,0.08177715539932251,2.1453890800476074,-0.33084434270858765,0.0,0.0,0.0,0.0,0.0,0.0,0.0,-0.3112330331470145,0.02714516532838796,-0.18748626892685133,0.291104931263773,-0.15040681367244313,-0.040976173304070246,-0.3705788351720627,1.6755723358915564,0.05229443674913623,0.02981596053274054,-2.752381447674935,0.03425621204574903,2.766372722678714,0.7691747986409402,1.6754973547542302,0.052104326824870026,0.029969505109285054,-2.752394845125968,0.0342448039870148,2.7663679543071322,0.7691630533470046,-3.855825293050841e-05,-0.00011667963711570568,0.0007038121853296696,0.0006535575642044378,-0.00022637514084447143,6.828346645774789e-05,-0.0016783940825855458,0.0,0.0,0.0,0.0,0.0,0.0,0.0,-7.498113732617995e-05,-0.00019010992426620604,0.00015354457654451203,-1.3397451033014818e-05,-1.1408058734230231e-05,-4.768371581587161e-06,-1.1745293935550016e-05,3.855825293050841e-05,0.00011667963711570568,-0.0007038121853296696,-0.0006535575642044378,0.00022637514084447143,-6.828346645774789e-05,0.0016783940825855458,0.2998287081718445,22.748254776000977,0.1253325641155243,-14.131807327270508,-0.08177715539932251,-2.1453890800476074,0.33084434270858765,0
58,0.2850031852722168,-0.2998287081718445,-22.748254776000977,-0.1253325641155243,14.131807327270508,0.08177715539932251,2.1453890800476074,-0.33084434270858765,0.0,0.0,0.0,0.0,0.0,0.0,0.0,-0.3112330331470145,0.02714516532838796,-0.18748626892685133,0.291104931263773,-0.15040681367244313,-0.040976173304070246,-0.3705788351720627,1.6755723358915564,0.05229443674913623,0.02981596053274054,-2.752381447674935,0.03425621204574903,2.766372722678714,0.7691747986409402,1.6754973547542302,0.052104326824870026,0.029969505109285054,-2.752394845125968,0.0342448039870148,2.7663679543071322,0.7691630533470046,-3.855825293050841e-05,-0.00011667963711570568,0.0007038121853296696,0.0006535575642044378,-0.00022637514084447143,6.828346645774789e-05,-0.0016783940825855458,0.0,0.0,0.0,0.0,0.0,0.0,0.0,-7.498113732617995e-05,-0.00019010992426620604,0.00015354457654451203,-1.3397451033014818e-05,-1.1408058734230231e-05,-4.768371581587161e-06,-1.1745293935550016e-05,3.855825293050841e-05,0.00011667963711570568,-0.0007038121853296696,-0.0006535575642044378,0.00022637514084447143,-6.828346645774789e-05,0.0016783940825855458,0.2998287081718445,22.748254776000977,0.1253325641155243,-14.131807327270508,-0.08177715539932251,-2.1453890800476074,0.33084434270858765,0
59,0.2900385856628418,-0.2998287081718445,-22.748254776000977,-0.09756157547235489,14.179414749145508,0.08818584680557251,2.1453890800476074,-0.37204307317733765,0.0,0.0,0.0,0.0,0.0,0.0,0.0,-0.309315324081226,0.019773836115637794,-0.18906505656776962,0.2991508337111751,-0.15044769346275946,-0.0387890879319359,-0.3701428087741153,1.6755723358915564,0.05229443674913623,0.029814722394036968,-2.7523847885466455,0.034255499968926115,2.766372722678714,0.7691793893596107,1.6754973547542302,0.052104326824870026,0.029969505109285054,-2.752394845125968,0.0342448039870148,2.7663679543071322,0.7691630533470046,-0.00020849620102136786,-0.0007346210802096656,5.547092507044273e-05,-0.0001864084631623442,-0.00014135161313389954,1.5680532638367046e-05,0.0006030688193147273,0.0,0.0,0.0,0.0,0.0,0.0,0.0,-7.498113732617995e-05,-0.00019010992426620604,0.0001547827152480856,-1.0056579322625936e-05,-1.0695981911314212e-05,-4.768371581587161e-06,-1.6336012606088524e-05,0.00020849620102136786,0.0007346210802096656,-5.547092507044273e-05,0.0001864084631623442,0.00014135161313389954,-1.5680532638367046e-05,-0.0006030688193147273,0.2998287081718445,22.748254776000977,0.09756157547235489,-14.179414749145508,-0.08818584680557251,-2.1453890800476074,0.37204307317733765,0
60,0.2950632572174072,-0.2998287081718445,-22.748254776000977,-0.09756157547235489,14.179414749145508,0.08818584680557251,2.1453890800476074,-0.37204307317733765,0.0,0.0,0.0,0.0,0.0,0.0,0.0,-0.309315324081226,0.019773836115637794,-0.18906505656776962,0.2991508337111751,-0.15044769346275946,-0.0387890879319359,-0.3701428087741153,1.6755723358915564,0.05229443674913623,0.029814722394036968,-2.7523847885466455,0.034255499968926115,2.766372722678714,0.7691793893596107,1.6754973547542302,0.052104326824870026,0.029969505109285054,-2.752394845125968,0.0342448039870148,2.7663679543071322,0.7691630533470046,-0.00020849620102136786,-0.0007346210802096656,5.547092507044273e-05,-0.0001864084631623442,-0.00014135161313389954,1.5680532638367046e-05,0.0006030688193147273,0.0,0.0,0.0,0.0,0.0,0.0,0.0,-7.498113732617995e-05,-0.00019010992426620604,0.0001547827152480856,-1.0056579322625936e-05,-1.0695981911314212e-05,-4.768371581587161e-06,-1.6336012606088524e-05,0.00020849620102136786,0.0007346210802096656,-5.547092507044273e-05,0.0001864084631623442,0.00014135161313389954,-1.5680532638367046e-05,-0.0006030688193147273,0.2998287081718445,22.748254776000977,0.09756157547235489,-14.179414749145508,-0.08818584680557251,-2.1453890800476074,0.37204307317733765,0
61,0.30002856254577637,-0.2998287081718445,-22.748254776000977,-0.07375786453485489,14.155611038208008,0.07628399133682251,2.1453890800476074,-0.35831016302108765,0.0,0.0,0.0,0.0,0.0,0.0,0.0,-0.3078391602571873,0.028989843230331193,-0.1877859636896246,0.2973173006875635,-0.15039327760656884,-0.03946077606251922,-0.3681940587060893,1.6755723358915564,0.05229443674913623,0.029814473367403074,-2.7523831179977365,0.03425682239731153,2.766372722678714,0.7691778503988261,1.6754973547542302,0.052104326824870026,0.029969505109285054,-2.752394845125968,0.0342448039870148,2.7663679543071322,0.7691630533470046,-0.00046177156650075286,-0.0003850664129350404,-0.00042675169046936474,0.0005425869158955041,0.00014876097845262752,4.4948620680379635e-05,-0.0002975094319367161,0.0,0.0,0.0,0.0,0.0,0.0,0.0,-7.498113732617995e-05,-0.00019010992426620604,0.00015503174188197938,-1.172712823160893e-05,-1.2018410296729676e-05,-4.768371581587161e-06,-1.4797051821502372e-05,0.00046177156650075286,0.0003850664129350404,0.00042675169046936474,-0.0005425869158955041,-0.00014876097845262752,-4.4948620680379635e-05,0.0002975094319367161,0.2998287081718445,22.748254776000977,0.07375786453485489,-14.155611038208008,-0.07628399133682251,-2.1453890800476074,0.35831016302108765,0
62,0.3050215244293213,-0.2998287081718445,-22.748254776000977,-0.07375786453485489,14.155611038208008,0.07628399133682251,2.1453890800476074,-0.35831016302108765,0.0,0.0,0.0,0.0,0.0,0.0,0.0,-0.3078391602571873,0.028989843230331193,-0.1877859636896246,0.2973173006875635,-0.15039327760656884,-0.03946077606251922,-0.3681940587060893,1.6755723358915564,0.05229443674913623,0.029814473367403074,-2.7523831179977365,0.03425682239731153,2.766372722678714,0.7691778503988261,1.6754973547542302,0.052104326824870026,0.029969505109285054,-2.752394845125968,0.0342448039870148,2.7663679543071322,0.7691630533470046,-0.00046177156650075286,-0.0003850664129350404,-0.00042675169046936474,0.0005425869158955041,0.00014876097845262752,4.4948620680379635e-05,-0.0002975094319367161,0.0,0.0,0.0,0.0,0.0,0.0,0.0,-7.498113732617995e-05,-0.00019010992426620604,0.00015503174188197938,-1.172712823160893e-05,-1.2018410296729676e-05,-4.768371581587161e-06,-1.4797051821502372e-05,0.00046177156650075286,0.0003850664129350404,0.00042675169046936474,-0.0005425869158955041,-0.00014876097845262752,-4.4948620680379635e-05,0.0002975094319367161,0.2998287081718445,22.748254776000977,0.07375786453485489,-14.155611038208008,-0.07628399133682251,-2.1453890800476074,0.35831016302108765,0
63,0.30998873710632324,-0.2998287081718445,-22.772058486938477,-0.09756157547235489,14.155611038208008,0.08818584680557251,2.1453890800476074,-0.37204307317733765,0.0,0.0,0.0,0.0,0.0,0.0,0.0,-0.3093285829891389,0.02923543471458608,-0.18628645076189718,0.2974717883341777,-0.1505500902044945,-0.039262897041588835,-0.36828521629055316,1.6755723358915564,0.052296107184991496,0.029814011703468084,-2.7523831181107896,0.03425550045571404,2.766372722678714,0.7691793762776585,1.6754973547542302,0.052104326824870026,0.029969505109285054,-2.752394845125968,0.0342448039870148,2.7663679543071322,0.7691630533470046,-0.00043306946755466497,-5.401404973809389e-05,-0.00039560911879580815,0.00019179197514042774,-7.863329032370161e-05,0.00020188624825237726,7.158004611699518e-05,0.0,0.0,0.0,0.0,0.0,0.0,0.0,-7.498113732617995e-05,-0.00019178036012146987,0.0001554934058169699,-1.172701517848651e-05,-1.0696468699236683e-05,-4.768371581587161e-06,-1.6322930653900336e-05,0.00043306946755466497,5.401404973809389e-05,0.00039560911879580815,-0.00019179197514042774,7.863329032370161e-05,-0.00020188624825237726,-7.158004611699518e-05,0.2998287081718445,22.772058486938477,0.09756157547235489,-14.155611038208008,-0.08818584680557251,-2.1453890800476074,0.37204307317733765,0
64,0.3152172565460205,-0.2998287081718445,-22.772058486938477,-0.09756157547235489,14.155611038208008,0.08818584680557251,2.1453890800476074,-0.37204307317733765,0.0,0.0,0.0,0.0,0.0,0.0,0.0,-0.3093285829891389,0.02923543471458608,-0.18628645076189718,0.2974717883341777,-0.1505500902044945,-0.039262897041588835,-0.36828521629055316,1.6755723358915564,0.052296107184991496,0.029814011703468084,-2.7523831181107896,0.03425550045571404,2.766372722678714,0.7691793762776585,1.6754973547542302,0.052104326824870026,0.029969505109285054,-2.752394845125968,0.0342448039870148,2.7663679543071322,0.7691630533470046,-0.00043306946755466497,-5.401404973809389e-05,-0.00039560911879580815,0.00019179197514042774,-7.863329032370161e-05,0.00020188624825237726,7.158004611699518e-05,0.0,0.0,0.0,0.0,0.0,0.0,0.0,-7.498113732617995e-05,-0.00019178036012146987,0.0001554934058169699,-1.172701517848651e-05,-1.0696468699236683e-05,-4.768371581587161e-06,-1.6322930653900336e-05,0.00043306946755466497,5.401404973809389e-05,0.00039560911879580815,-0.00019179197514042774,7.863329032370161e-05,-0.00020188624825237726,-7.158004611699518e-05,0.2998287081718445,22.772058486938477,0.09756157547235489,-14.155611038208008,-0.08818584680557251,-2.1453890800476074,0.37204307317733765,0
65,0.3203747272491455,-0.3236324191093445,-22.772058486938477,-0.09756157547235489,14.207185745239258,0.08818584680557251,2.1453890800476074,-0.35098594427108765,0.0,0.0,0.0,0.0,0.0,0.0,0.0,-0.30520822605699555,0.027778917940928734,-0.18174837587972423,0.2972320593252856,-0.1510101295511947,-0.03895798403114234,-0.3697282756246306,1.6755740063274116,0.052296107148947155,0.02981401169143232,-2.7523867373884765,0.03425585483732322,2.766372722678714,0.769177036596669,1.6754973547542302,0.052104326824870026,0.029969505109285054,-2.752394845125968,0.0342448039870148,2.7663679543071322,0.7691630533470046,0.0005057979192989626,-0.0003430625348312147,0.00010901290809786561,-0.0010235834608081841,-0.0002970658162970444,-0.00012999433224381897,-0.0004367328618186232,0.0,0.0,0.0,0.0,0.0,0.0,0.0,-7.665157318137439e-05,-0.00019178032407712875,0.00015549341785273466,-8.107737491602762e-06,-1.1050850308419458e-05,-4.768371581587161e-06,-1.3983249664395458e-05,-0.0005057979192989626,0.0003430625348312147,-0.00010901290809786561,0.0010235834608081841,0.0002970658162970444,0.00012999433224381897,0.0004367328618186232,0.3236324191093445,22.772058486938477,0.09756157547235489,-14.207185745239258,-0.08818584680557251,-2.1453890800476074,0.35098594427108765,0
66,0.32500290870666504,-0.3236324191093445,-22.772058486938477,-0.09756157547235489,14.207185745239258,0.08818584680557251,2.1453890800476074,-0.35098594427108765,0.0,0.0,0.0,0.0,0.0,0.0,0.0,-0.30520822605699555,0.027778917940928734,-0.18174837587972423,0.2972320593252856,-0.1510101295511947,-0.03895798403114234,-0.3697282756246306,1.6755740063274116,0.052296107148947155,0.02981401169143232,-2.7523867373884765,0.03425585483732322,2.766372722678714,0.769177036596669,1.6754973547542302,0.052104326824870026,0.029969505109285054,-2.752394845125968,0.0342448039870148,2.7663679543071322,0.7691630533470046,0.0005057979192989626,-0.0003430625348312147,0.00010901290809786561,-0.0010235834608081841,-0.0002970658162970444,-0.00012999433224381897,-0.0004367328618186232,0.0,0.0,0.0,0.0,0.0,0.0,0.0,-7.665157318137439e-05,-0.00019178032407712875,0.00015549341785273466,-8.107737491602762e-06,-1.1050850308419458e-05,-4.768371581587161e-06,-1.3983249664395458e-05,-0.0005057979192989626,0.0003430625348312147,-0.00010901290809786561,0.0010235834608081841,0.0002970658162970444,0.00012999433224381897,0.0004367328618186232,0.3236324191093445,22.772058486938477,0.09756157547235489,-14.207185745239258,-0.08818584680557251,-2.1453890800476074,0.35098594427108765,0
67,0.3299906253814697,-0.3236324191093445,-22.795862197875977,-0.09756157547235489,14.179414749145508,0.08177715539932251,2.1453890800476074,-0.35098594427108765,0.0,0.0,0.0,0.0,0.0,0.0,0.0,-0.3115192860443987,0.027787624387241288,-0.18580532761595006,0.2983041833016311,-0.1506268600356024,-0.039650247311162554,-0.36866417522738704,1.6755740063274116,0.052297777620846156,0.029814012016399147,-2.7523847885466455,0.0342551466187334,2.766372722678714,0.769177036596669,1.6754973547542302,0.052104326824870026,0.029969505109285054,-2.752394845125968,0.0342448039870148,2.7663679543071322,0.7691630533470046,0.0004293718329762531,0.000488400659368601,-0.00023565673396770762,-0.00024205380887481855,9.270616431811141e-05,-9.627897482597372e-05,-0.000412198936321815,0.0,0.0,0.0,0.0,0.0,0.0,0.0,-7.665157318137439e-05,-0.00019345079597613002,0.0001554930928859069,-1.0056579322625936e-05,-1.0342631718597561e-05,-4.768371581587161e-06,-1.3983249664395458e-05,-0.0004293718329762531,-0.000488400659368601,0.00023565673396770762,0.00024205380887481855,-9.270616431811141e-05,9.627897482597372e-05,0.000412198936321815,0.3236324191093445,22.795862197875977,0.09756157547235489,-14.179414749145508,-0.08177715539932251,-2.1453890800476074,0.35098594427108765,0
68,0.3349940776824951,-0.3236324191093445,-22.795862197875977,-0.09756157547235489,14.179414749145508,0.08177715539932251,2.1453890800476074,-0.35098594427108765,0.0,0.0,0.0,0.0,0.0,0.0,0.0,-0.3115192860443987,0.027787624387241288,-0.18580532761595006,0.2983041833016311,-0.1506268600356024,-0.039650247311162554,-0.36866417522738704,1.6755740063274116,0.052297777620846156,0.029814012016399147,-2.7523847885466455,0.0342551466187334,2.766372722678714,0.769177036596669,1.6754973547542302,0.052104326824870026,0.029969505109285054,-2.752394845125968,0.0342448039870148,2.7663679543071322,0.7691630533470046,0.0004293718329762531,0.000488400659368601,-0.00023565673396770762,-0.00024205380887481855,9.270616431811141e-05,-9.627897482597372e-05,-0.000412198936321815,0.0,0.0,0.0,0.0,0.0,0.0,0.0,-7.665157318137439e-05,-0.00019345079597613002,0.0001554930928859069,-1.0056579322625936e-05,-1.0342631718597561e-05,-4.768371581587161e-06,-1.3983249664395458e-05,-0.0004293718329762531,-0.000488400659368601,0.00023565673396770762,0.00024205380887481855,-9.270616431811141e-05,9.627897482597372e-05,0.000412198936321815,0.3236324191093445,22.795862197875977,0.09756157547235489,-14.179414749145508,-0.08177715539932251,-2.1453890800476074,0.35098594427108765,0
69,0.34000420570373535,-0.3236324191093445,-22.772058486938477,-0.09756157547235489,14.131807327270508,0.06987529993057251,2.1517977714538574,-0.37845176458358765,0.0,0.0,0.0,0.0,0.0,0.0,0.0,-0.3123837798482645,0.03017488026882653,-0.1853148958135319,0.29738836809098895,-0.15025059170165028,-0.040593780389731556,-0.3658090953515308,1.6755740063274116,0.052296107184991496,0.02981472239403758,-2.7523813652586364,0.034257534472129654,2.766372010601891,0.7691800888569433,1.6754973547542302,0.052104326824870026,0.029969505109285054,-2.752394845125968,0.0342448039870148,2.7663679543071322,0.7691630533470046,8.769638632712282e-05,0.00013536459830711535,0.00015790328611727956,0.0007458655276876183,0.0004776158602611718,-0.0002801416413598862,0.0006597579489961273,0.0,0.0,0.0,0.0,0.0,0.0,0.0,-7.665157318137439e-05,-0.00019178036012146987,0.00015478271524747497,-1.3479867331689377e-05,-1.273048511485353e-05,-4.05629475874747e-06,-1.7035509938700955e-05,-8.769638632712282e-05,-0.00013536459830711535,-0.00015790328611727956,-0.0007458655276876183,-0.0004776158602611718,0.0002801416413598862,-0.0006597579489961273,0.3236324191093445,22.772058486938477,0.09756157547235489,-14.131807327270508,-0.06987529993057251,-2.1517977714538574,0.37845176458358765,0
70,0.3450047969818115,-0.3236324191093445,-22.772058486938477,-0.09756157547235489,14.131807327270508,0.06987529993057251,2.1517977714538574,-0.37845176458358765,0.0,0.0,0.0,0.0,0.0,0.0,0.0,-0.3123837798482645,0.03017488026882653,-0.1853148958135319,0.29738836809098895,-0.15025059170165028,-0.040593780389731556,-0.3658090953515308,1.6755740063274116,0.052296107184991496,0.02981472239403758,-2.7523813652586364,0.034257534472129654,2.766372010601891,0.7691800888569433,1.6754973547542302,0.052104326824870026,0.029969505109285054,-2.752394845125968,0.0342448039870148,2.7663679543071322,0.7691630533470046,8.769638632712282e-05,0.00013536459830711535,0.00015790328611727956,0.0007458655276876183,0.0004776158602611718,-0.0002801416413598862,0.0006597579489961273,0.0,0.0,0.0,0.0,0.0,0.0,0.0,-7.665157318137439e-05,-0.00019178036012146987,0.00015478271524747497,-1.3479867331689377e-05,-1.273048511485353e-05,-4.05629475874747e-06,-1.7035509938700955e-05,-8.769638632712282e-05,-0.00013536459830711535,-0.00015790328611727956,-0.0007458655276876183,-0.0004776158602611718,0.0002801416413598862,-0.0006597579489961273,0.3236324191093445,22.772058486938477,0.09756157547235489,-14.131807327270508,-0.06987529993057251,-2.1517977714538574,0.37845176458358765,0
71,0.35005688667297363,-0.2998287081718445,-22.696680068969727,-0.1253325641155243,14.179414749145508,0.07628399133682251,2.1453890800476074,-0.40591758489608765,0.0,0.0,0.0,0.0,0.0,0.0,0.0,-0.3177923741333274,0.029689289298511463,-0.1870731466494982,0.2990836271642167,-0.1496163352016323,-0.04004885263806096,-0.36699351951658754,1.6755723358915564,0.05229081747144983,0.029815960534077854,-2.7523847885464905,0.03425682239731152,2.766372722678714,0.7691831924401037,1.6754973547542302,0.052104326824870026,0.029969505109285054,-2.752394845125968,0.0342448039870148,2.7663679543071322,0.7691630533470046,-0.0008539692148130985,-0.0015018165064281256,0.00017302536600618453,-0.0005045436550680121,0.00017639900176004284,0.0002353324421557189,0.001219569832215274,0.0,0.0,0.0,0.0,0.0,0.0,0.0,-7.498113732617995e-05,-0.00018649064657980108,0.00015354457520719983,-1.005657947761307e-05,-1.2018410296722737e-05,-4.768371581587161e-06,-2.013909309905859e-05,0.0008539692148130985,0.0015018165064281256,-0.00017302536600618453,0.0005045436550680121,-0.00017639900176004284,-0.0002353324421557189,-0.001219569832215274,0.2998287081718445,22.696680068969727,0.1253325641155243,-14.179414749145508,-0.07628399133682251,-2.1453890800476074,0.40591758489608765,0
72,0.35506653785705566,-0.2998287081718445,-22.696680068969727,-0.1253325641155243,14.179414749145508,0.07628399133682251,2.1453890800476074,-0.40591758489608765,0.0,0.0,0.0,0.0,0.0,0.0,0.0,-0.3177923741333274,0.029689289298511463,-0.1870731466494982,0.2990836271642167,-0.1496163352016323,-0.04004885263806096,-0.36699351951658754,1.6755723358915564,0.05229081747144983,0.029815960534077854,-2.7523847885464905,0.03425682239731152,2.766372722678714,0.7691831924401037,1.6754973547542302,0.052104326824870026,0.029969505109285054,-2.752394845125968,0.0342448039870148,2.7663679543071322,0.7691630533470046,-0.0008539692148130985,-0.0015018165064281256,0.00017302536600618453,-0.0005045436550680121,0.00017639900176004284,0.0002353324421557189,0.001219569832215274,0.0,0.0,0.0,0.0,0.0,0.0,0.0,-7.498113732617995e-05,-0.00018649064657980108,0.00015354457520719983,-1.005657947761307e-05,-1.2018410296722737e-05,-4.768371581587161e-06,-2.013909309905859e-05,0.0008539692148130985,0.0015018165064281256,-0.00017302536600618453,0.0005045436550680121,-0.00017639900176004284,-0.0002353324421557189,-0.001219569832215274,0.2998287081718445,22.696680068969727,0.1253325641155243,-14.179414749145508,-0.07628399133682251,-2.1453890800476074,0.40591758489608765,0
73,0.36003899574279785,-0.3514034152030945,-22.720483779907227,-0.09756157547235489,14.155611038208008,0.07628399133682251,2.1325716972351074,-0.37204307317733765,0.0,0.0,0.0,0.0,0.0,0.0,0.0,-0.31536273559377864,0.03275006909984768,-0.18480783233905526,0.297167630114888,-0.15043335677530373,-0.039429764128566205,-0.37034330197516624,1.6755759551692426,0.05229248790730509,0.029814012666332948,-2.75238311811079,0.03425682239731153,2.76637414683236,0.769179376277954,1.6754973547542302,0.052104326824870026,0.029969505109285054,-2.752394845125968,0.0342448039870148,2.7663679543071322,0.7691630533470046,0.0010804363157761237,-0.0005265578461135203,-0.00033567250509352936,-2.061175540506074e-06,0.0003377785936940224,0.0007365480729538505,0.00021160314108375756,0.0,0.0,0.0,0.0,0.0,0.0,0.0,-7.860041501239756e-05,-0.0001881610824350649,0.00015549244295210568,-1.1727015178042421e-05,-1.2018410296729676e-05,-6.192525227710632e-06,-1.6322930949330683e-05,-0.0010804363157761237,0.0005265578461135203,0.00033567250509352936,2.061175540506074e-06,-0.0003377785936940224,-0.0007365480729538505,-0.00021160314108375756,0.3514034152030945,22.720483779907227,0.09756157547235489,-14.155611038208008,-0.07628399133682251,-2.1325716972351074,0.37204307317733765,0
74,0.3650627136230469,-0.3514034152030945,-22.720483779907227,-0.09756157547235489,14.155611038208008,0.07628399133682251,2.1325716972351074,-0.37204307317733765,0.0,0.0,0.0,0.0,0.0,0.0,0.0,-0.31536273559377864,0.03275006909984768,-0.18480783233905526,0.297167630114888,-0.15043335677530373,-0.039429764128566205,-0.37034330197516624,1.6755759551692426,0.05229248790730509,0.029814012666332948,-2.75238311811079,0.03425682239731153,2.76637414683236,0.769179376277954,1.6754973547542302,0.052104326824870026,0.029969505109285054,-2.752394845125968,0.0342448039870148,2.7663679543071322,0.7691630533470046,0.0010804363157761237,-0.0005265578461135203,-0.00033567250509352936,-2.061175540506074e-06,0.0003377785936940224,0.0007365480729538505,0.00021160314108375756,0.0,0.0,0.0,0.0,0.0,0.0,0.0,-7.860041501239756e-05,-0.0001881610824350649,0.00015549244295210568,-1.1727015178042421e-05,-1.2018410296729676e-05,-6.192525227710632e-06,-1.6322930949330683e-05,-0.0010804363157761237,0.0005265578461135203,0.00033567250509352936,2.061175540506074e-06,-0.0003377785936940224,-0.0007365480729538505,-0.00021160314108375756,0.3514034152030945,22.720483779907227,0.09756157547235489,-14.155611038208008,-0.07628399133682251,-2.1325716972351074,0.37204307317733765,0
75,0.37001919746398926,-0.3514034152030945,-22.720483779907227,-0.09756157547235489,14.155611038208008,0.07628399133682251,2.1325716972351074,-0.37204307317733765,0.0,0.0,0.0,0.0,0.0,0.0,0.0,-0.31536273559377864,0.03275006909984768,-0.18480783233905526,0.297167630114888,-0.15043335677530373,-0.039429764128566205,-0.37034330197516624,1.6755759551692426,0.05229248790730509,0.029814012666332948,-2.75238311811079,0.03425682239731153,2.76637414683236,0.769179376277954,1.6754973547542302,0.052104326824870026,0.029969505109285054,-2.752394845125968,0.0342448039870148,2.7663679543071322,0.7691630533470046,0.0010804363157761237,-0.0005265578461135203,-0.00033567250509352936,-2.061175540506074e-06,0.0003377785936940224,0.0007365480729538505,0.00021160314108375756,0.0,0.0,0.0,0.0,0.0,0.0,0.0,-7.860041501239756e-05,-0.0001881610824350649,0.00015549244295210568,-1.1727015178042421e-05,-1.2018410296729676e-05,-6.192525227710632e-06,-1.6322930949330683e-05,-0.0010804363157761237,0.0005265578461135203,0.00033567250509352936,2.061175540506074e-06,-0.0003377785936940224,-0.0007365480729538505,-0.00021160314108375756,0.3514034152030945,22.720483779907227,0.09756157547235489,-14.155611038208008,-0.07628399133682251,-2.1325716972351074,0.37204307317733765,0
76,0.37500715255737305,-0.3514034152030945,-22.720483779907227,-0.09756157547235489,14.155611038208008,0.07628399133682251,2.1325716972351074,-0.37204307317733765,0.0,0.0,0.0,0.0,0.0,0.0,0.0,-0.31536273559377864,0.03275006909984768,-0.18480783233905526,0.297167630114888,-0.15043335677530373,-0.039429764128566205,-0.37034330197516624,1.6755759551692426,0.05229248790730509,0.029814012666332948,-2.75238311811079,0.03425682239731153,2.76637414683236,0.769179376277954,1.6754973547542302,0.052104326824870026,0.029969505109285054,-2.752394845125968,0.0342448039870148,2.7663679543071322,0.7691630533470046,0.0010804363157761237,-0.0005265578461135203,-0.00033567250509352936,-2.061175540506074e-06,0.0003377785936940224,0.0007365480729538505,0.00021160314108375756,0.0,0.0,0.0,0.0,0.0,0.0,0.0,-7.860041501239756e-05,-0.0001881610824350649,0.00015549244295210568,-1.1727015178042421e-05,-1.2018410296729676e-05,-6.192525227710632e-06,-1.6322930949330683e-05,-0.0010804363157761237,0.0005265578461135203,0.00033567250509352936,2.061175540506074e-06,-0.0003377785936940224,-0.0007365480729538505,-0.00021160314108375756,0.3514034152030945,22.720483779907227,0.09756157547235489,-14.155611038208008,-0.07628399133682251,-2.1325716972351074,0.37204307317733765,0
77,0.3799901008605957,-0.24825400114059448,-22.772058486938477,-0.07375786453485489,14.155611038208008,0.08177715539932251,2.1517977714538574,-0.36471885442733765,0.0,0.0,0.0,0.0,0.0,0.0,0.0,-0.3143499914711297,0.03226180424103629,-0.1819063403794407,0.2972239847558123,-0.15064554701419394,-0.03874602434960371,-0.37051619168295447,1.67556871661387,0.052296107184991496,0.02981234125558249,-2.75238311811079,0.03425621204574903,2.766372010601891,0.7691785624755753,1.6754973547542302,0.052104326824870026,0.029969505109285054,-2.752394845125968,0.0342448039870148,2.7663679543071322,0.7691630533470046,-0.0011284852561111705,-2.563996403686393e-06,-0.00047031881358997697,-2.972894111082954e-07,-0.0001911063942775989,-9.333175277498402e-05,0.00021671444112929494,0.0,0.0,0.0,0.0,0.0,0.0,0.0,-7.136185963974029e-05,-0.00019178036012146987,0.00015716385370256533,-1.1727015178042421e-05,-1.1408058734230231e-05,-4.05629475874747e-06,-1.5509128570623254e-05,0.0011284852561111705,2.563996403686393e-06,0.00047031881358997697,2.972894111082954e-07,0.0001911063942775989,9.333175277498402e-05,-0.00021671444112929494,0.24825400114059448,22.772058486938477,0.07375786453485489,-14.155611038208008,-0.08177715539932251,-2.1517977714538574,0.36471885442733765,0
78,0.3849964141845703,-0.24825400114059448,-22.772058486938477,-0.07375786453485489,14.155611038208008,0.08177715539932251,2.1517977714538574,-0.36471885442733765,0.0,0.0,0.0,0.0,0.0,0.0,0.0,-0.3143499914711297,0.03226180424103629,-0.1819063403794407,0.2972239847558123,-0.15064554701419394,-0.03874602434960371,-0.37051619168295447,1.67556871661387,0.052296107184991496,0.02981234125558249,-2.75238311811079,0.03425621204574903,2.766372010601891,0.7691785624755753,1.6754973547542302,0.052104326824870026,0.029969505109285054,-2.752394845125968,0.0342448039870148,2.7663679543071322,0.7691630533470046,-0.0011284852561111705,-2.563996403686393e-06,-0.00047031881358997697,-2.972894111082954e-07,-0.0001911063942775989,-9.333175277498402e-05,0.00021671444112929494,0.0,0.0,0.0,0.0,0.0,0.0,0.0,-7.136185963974029e-05,-0.00019178036012146987,0.00015716385370256533,-1.1727015178042421e-05,-1.1408058734230231e-05,-4.05629475874747e-06,-1.5509128570623254e-05,0.0011284852561111705,2.563996403686393e-06,0.00047031881358997697,2.972894111082954e-07,0.0001911063942775989,9.333175277498402e-05,-0.00021671444112929494,0.24825400114059448,22.772058486938477,0.07375786453485489,-14.155611038208008,-0.08177715539932251,-2.1517977714538574,0.36471885442733765,0
79,0.3900017738342285,-0.3236324191093445,-22.720483779907227,-0.09756157547235489,14.131807327270508,0.07628399133682251,2.1517977714538574,-0.38577598333358765,0.0,0.0,0.0,0.0,0.0,0.0,0.0,-0.3095694386657975,0.03308500323759509,-0.1803013644094979,0.2927440560814292,-0.15084388700367568,-0.03919801326550892,-0.36812802196368105,1.6755740063274116,0.05229248790730509,0.02981401169143225,-2.752381447674935,0.03425682239731153,2.766372010601891,0.7691809023180703,1.6754973547542302,0.052104326824870026,0.029969505109285054,-2.752394845125968,0.0342448039870148,2.7663679543071322,0.7691630533470046,0.0008686017268138621,-0.0016292432909201478,0.0005601901386688762,0.00019654009738865106,0.0002699868089816324,-0.00012869301430664393,5.497808144567671e-06,0.0,0.0,0.0,0.0,0.0,0.0,0.0,-7.665157318137439e-05,-0.0001881610824350649,0.00015549341785280404,-1.3397451033014818e-05,-1.2018410296729676e-05,-4.05629475874747e-06,-1.7848971065714814e-05,-0.0008686017268138621,0.0016292432909201478,-0.0005601901386688762,-0.00019654009738865106,-0.0002699868089816324,0.00012869301430664393,-5.497808144567671e-06,0.3236324191093445,22.720483779907227,0.09756157547235489,-14.131807327270508,-0.07628399133682251,-2.1517977714538574,0.38577598333358765,0
