rezayati/contactInterpretation/dataset/franka_main/labeled_data/link7/a1_3.csv
index,time,tau_J0,tau_J1,tau_J2,tau_J3,tau_J4,tau_J5,tau_J6,tau_J_d0,tau_J_d1,tau_J_d2,tau_J_d3,tau_J_d4,tau_J_d5,tau_J_d6,tau_ext0,tau_ext1,tau_ext2,tau_ext3,tau_ext4,tau_ext5,tau_ext6,q0,q1,q2,q3,q4,q5,q6,q_d0,q_d1,q_d2,q_d3,q_d4,q_d5,q_d6,dq0,dq1,dq2,dq3,dq4,dq5,dq6,dq_d0,dq_d1,dq_d2,dq_d3,dq_d4,dq_d5,dq_d6,e0,e1,e2,e3,e4,e5,e6,de0,de1,de2,de3,de4,de5,de6,etau_J0,etau_J1,etau_J2,etau_J3,etau_J4,etau_J5,etau_J6,label
1,0.0,-0.6053096652030945,-34.23751449584961,-4.096584796905518,19.487642288208008,0.1293845772743225,1.835025429725647,-0.10470907390117645,0.0,0.0,0.0,0.0,0.0,0.0,0.0,-0.6353890301439883,-0.12833449091252702,-0.466082779753,0.4584517036694983,0.07889213035781023,-0.07610773076979557,-0.13958502330831057,1.0547565703731796,0.32406881368369395,-0.39221670580328555,-2.153469308987015,0.8646234756509463,2.4658430410191343,0.5444928579221113,1.0544104758940245,0.3238615046091247,-0.39250456234122666,-2.153291787532338,0.8647539153680389,2.46587817577521,0.5445020185570556,-0.00022620259788196572,0.0007921226882476668,0.0013152435081986318,-0.00010476043428870269,0.0001601308216533023,-0.00018341962454368797,-0.0010645193856017455,0.0,0.0,0.0,0.0,0.0,0.0,0.0,-0.0003460944791551235,-0.00020730907456922854,-0.0002878565379411113,0.00017752145467708758,0.00013043971709258972,3.513475607563876e-05,9.160634944271884e-06,0.00022620259788196572,-0.0007921226882476668,-0.0013152435081986318,0.00010476043428870269,-0.0001601308216533023,0.00018341962454368797,0.0010645193856017455,0.6053096652030945,34.23751449584961,4.096584796905518,-19.487642288208008,-0.1293845772743225,-1.835025429725647,0.10470907390117645,0
2,0.005001068115234375,-0.6053096652030945,-34.23751449584961,-4.096584796905518,19.487642288208008,0.1293845772743225,1.835025429725647,-0.10470907390117645,0.0,0.0,0.0,0.0,0.0,0.0,0.0,-0.6353890301439883,-0.12833449091252702,-0.466082779753,0.4584517036694983,0.07889213035781023,-0.07610773076979557,-0.13958502330831057,1.0547565703731796,0.32406881368369395,-0.39221670580328555,-2.153469308987015,0.8646234756509463,2.4658430410191343,0.5444928579221113,1.0544104758940245,0.3238615046091247,-0.39250456234122666,-2.153291787532338,0.8647539153680389,2.46587817577521,0.5445020185570556,-0.00022620259788196572,0.0007921226882476668,0.0013152435081986318,-0.00010476043428870269,0.0001601308216533023,-0.00018341962454368797,-0.0010645193856017455,0.0,0.0,0.0,0.0,0.0,0.0,0.0,-0.0003460944791551235,-0.00020730907456922854,-0.0002878565379411113,0.00017752145467708758,0.00013043971709258972,3.513475607563876e-05,9.160634944271884e-06,0.00022620259788196572,-0.0007921226882476668,-0.0013152435081986318,0.00010476043428870269,-0.0001601308216533023,0.00018341962454368797,0.0010645193856017455,0.6053096652030945,34.23751449584961,4.096584796905518,-19.487642288208008,-0.1293845772743225,-1.835025429725647,0.10470907390117645,0
3,0.009997844696044922,-0.6053096652030945,-34.23751449584961,-4.096584796905518,19.487642288208008,0.1293845772743225,1.835025429725647,-0.10470907390117645,0.0,0.0,0.0,0.0,0.0,0.0,0.0,-0.6353890301439883,-0.12833449091252702,-0.466082779753,0.4584517036694983,0.07889213035781023,-0.07610773076979557,-0.13958502330831057,1.0547565703731796,0.32406881368369395,-0.39221670580328555,-2.153469308987015,0.8646234756509463,2.4658430410191343,0.5444928579221113,1.0544104758940245,0.3238615046091247,-0.39250456234122666,-2.153291787532338,0.8647539153680389,2.46587817577521,0.5445020185570556,-0.00022620259788196572,0.0007921226882476668,0.0013152435081986318,-0.00010476043428870269,0.0001601308216533023,-0.00018341962454368797,-0.0010645193856017455,0.0,0.0,0.0,0.0,0.0,0.0,0.0,-0.0003460944791551235,-0.00020730907456922854,-0.0002878565379411113,0.00017752145467708758,0.00013043971709258972,3.513475607563876e-05,9.160634944271884e-06,0.00022620259788196572,-0.0007921226882476668,-0.0013152435081986318,0.00010476043428870269,-0.0001601308216533023,0.00018341962454368797,0.0010645193856017455,0.6053096652030945,34.23751449584961,4.096584796905518,-19.487642288208008,-0.1293845772743225,-1.835025429725647,0.10470907390117645,0
4,0.014998912811279297,-0.6806880831718445,-34.26528549194336,-4.048977375030518,19.511445999145508,0.1357932686805725,1.815799355506897,-0.16604940593242645,0.0,0.0,0.0,0.0,0.0,0.0,0.0,-0.6645555816412745,-0.15066838408545613,-0.5016183198859847,0.4678871408280616,0.08014035940225252,-0.07235776293498501,-0.13867897420937797,1.0547618512564036,0.324070762525525,-0.3922200466749961,-2.153470979422854,0.8646227636293043,2.465845068233362,0.5444997849567336,1.0544104758940245,0.3238615046091247,-0.39250456234122666,-2.153291787532338,0.8647539153680389,2.46587817577521,0.5445020185570556,0.00013636861561449752,0.00046207842666036447,-2.1297050342924687e-05,-8.141038978044453e-05,-8.92843867349802e-05,0.0004545087387233316,0.0011676766897916239,0.0,0.0,0.0,0.0,0.0,0.0,0.0,-0.00035137536237916933,-0.00020925791640030722,-0.0002845156662305559,0.00017919189051607276,0.00013115173873456953,3.31075418480431e-05,2.2336003220324585e-06,-0.00013636861561449752,-0.00046207842666036447,2.1297050342924687e-05,8.141038978044453e-05,8.92843867349802e-05,-0.0004545087387233316,-0.0011676766897916239,0.6806880831718445,34.26528549194336,4.048977375030518,-19.511445999145508,-0.1357932686805725,-1.815799355506897,0.16604940593242645,0
5,0.020005464553833008,-0.6806880831718445,-34.26528549194336,-4.048977375030518,19.511445999145508,0.1357932686805725,1.815799355506897,-0.16604940593242645,0.0,0.0,0.0,0.0,0.0,0.0,0.0,-0.6645555816412745,-0.15066838408545613,-0.5016183198859847,0.4678871408280616,0.08014035940225252,-0.07235776293498501,-0.13867897420937797,1.0547618512564036,0.324070762525525,-0.3922200466749961,-2.153470979422854,0.8646227636293043,2.465845068233362,0.5444997849567336,1.0544104758940245,0.3238615046091247,-0.39250456234122666,-2.153291787532338,0.8647539153680389,2.46587817577521,0.5445020185570556,0.00013636861561449752,0.00046207842666036447,-2.1297050342924687e-05,-8.141038978044453e-05,-8.92843867349802e-05,0.0004545087387233316,0.0011676766897916239,0.0,0.0,0.0,0.0,0.0,0.0,0.0,-0.00035137536237916933,-0.00020925791640030722,-0.0002845156662305559,0.00017919189051607276,0.00013115173873456953,3.31075418480431e-05,2.2336003220324585e-06,-0.00013636861561449752,-0.00046207842666036447,2.1297050342924687e-05,8.141038978044453e-05,8.92843867349802e-05,-0.0004545087387233316,-0.0011676766897916239,0.6806880831718445,34.26528549194336,4.048977375030518,-19.511445999145508,-0.1357932686805725,-1.815799355506897,0.16604940593242645,0
6,0.025017499923706055,-0.6291133761405945,-34.21371078491211,-4.025173664093018,19.459871292114258,0.11748272180557251,1.822208046913147,-0.15964071452617645,0.0,0.0,0.0,0.0,0.0,0.0,0.0,-0.6506082430381325,-0.13450184717376001,-0.4857161067706636,0.4573971303205307,0.0794032886681222,-0.0756452206167912,-0.1391632511927363,1.0547582319786675,0.3240671432478386,-0.39222171711085135,-2.1534673629795904,0.864624802548999,2.4658443425894547,0.5444993147620677,1.0544104758940245,0.3238615046091247,-0.39250456234122666,-2.153291787532338,0.8647539153680389,2.46587817577521,0.5445020185570556,-0.0007737913197966522,-0.0003256452298138828,-0.0005355662442320236,0.0008496282258251584,0.0004768870629228956,0.000497783732900143,0.0010833084948665252,0.0,0.0,0.0,0.0,0.0,0.0,0.0,-0.0003477560846429917,-0.00020563863871386756,-0.00028284523037530596,0.0001755754472525517,0.00012911281903993377,3.3833185755227646e-05,2.703794987901631e-06,0.0007737913197966522,0.0003256452298138828,0.0005355662442320236,-0.0008496282258251584,-0.0004768870629228956,-0.000497783732900143,-0.0010833084948665252,0.6291133761405945,34.21371078491211,4.025173664093018,-19.459871292114258,-0.11748272180557251,-1.822208046913147,0.15964071452617645,0
7,0.030001401901245117,-0.6291133761405945,-34.21371078491211,-4.025173664093018,19.459871292114258,0.11748272180557251,1.822208046913147,-0.15964071452617645,0.0,0.0,0.0,0.0,0.0,0.0,0.0,-0.6506082430381325,-0.13450184717376001,-0.4857161067706636,0.4573971303205307,0.0794032886681222,-0.0756452206167912,-0.1391632511927363,1.0547582319786675,0.3240671432478386,-0.39222171711085135,-2.1534673629795904,0.864624802548999,2.4658443425894547,0.5444993147620677,1.0544104758940245,0.3238615046091247,-0.39250456234122666,-2.153291787532338,0.8647539153680389,2.46587817577521,0.5445020185570556,-0.0007737913197966522,-0.0003256452298138828,-0.0005355662442320236,0.0008496282258251584,0.0004768870629228956,0.000497783732900143,0.0010833084948665252,0.0,0.0,0.0,0.0,0.0,0.0,0.0,-0.0003477560846429917,-0.00020563863871386756,-0.00028284523037530596,0.0001755754472525517,0.00012911281903993377,3.3833185755227646e-05,2.703794987901631e-06,0.0007737913197966522,0.0003256452298138828,0.0005355662442320236,-0.0008496282258251584,-0.0004768870629228956,-0.000497783732900143,-0.0010833084948665252,0.6291133761405945,34.21371078491211,4.025173664093018,-19.459871292114258,-0.11748272180557251,-1.822208046913147,0.15964071452617645,0
8,0.03511834144592285,-0.6053096652030945,-34.16213607788086,-4.048977375030518,19.487642288208008,0.1412864327430725,1.828616738319397,-0.13217489421367645,0.0,0.0,0.0,0.0,0.0,0.0,0.0,-0.641948707534399,-0.13043393076888668,-0.4762938772160872,0.456502062622717,0.07854276449073878,-0.07644456920378813,-0.13855480316922308,1.0547587076734115,0.3240635328004699,-0.3922200466749961,-2.1534693089870145,0.8646221532225861,2.465843674657415,0.54449492870033,1.0544104758940245,0.3238615046091247,-0.39250456234122666,-2.153291787532338,0.8647539153680389,2.46587817577521,0.5445020185570556,-0.0004791133441960192,-0.0003839686538009074,0.0003447309971902761,-0.00032093373220374303,-0.00020409309500506967,0.00011675875148787869,-1.2256691282009812e-05,0.0,0.0,0.0,0.0,0.0,0.0,0.0,-0.00034823177938703154,-0.00020202819134518268,-0.0002845156662305559,0.00017752145467664349,0.0001317621454528517,3.45011177951271e-05,7.089856725595034e-06,0.0004791133441960192,0.0003839686538009074,-0.0003447309971902761,0.00032093373220374303,0.00020409309500506967,-0.00011675875148787869,1.2256691282009812e-05,0.6053096652030945,34.16213607788086,4.048977375030518,-19.487642288208008,-0.1412864327430725,-1.828616738319397,0.13217489421367645,0
9,0.04000663757324219,-0.6053096652030945,-34.16213607788086,-4.048977375030518,19.487642288208008,0.1412864327430725,1.828616738319397,-0.13217489421367645,0.0,0.0,0.0,0.0,0.0,0.0,0.0,-0.641948707534399,-0.13043393076888668,-0.4762938772160872,0.456502062622717,0.07854276449073878,-0.07644456920378813,-0.13855480316922308,1.0547587076734115,0.3240635328004699,-0.3922200466749961,-2.1534693089870145,0.8646221532225861,2.465843674657415,0.54449492870033,1.0544104758940245,0.3238615046091247,-0.39250456234122666,-2.153291787532338,0.8647539153680389,2.46587817577521,0.5445020185570556,-0.0004791133441960192,-0.0003839686538009074,0.0003447309971902761,-0.00032093373220374303,-0.00020409309500506967,0.00011675875148787869,-1.2256691282009812e-05,0.0,0.0,0.0,0.0,0.0,0.0,0.0,-0.00034823177938703154,-0.00020202819134518268,-0.0002845156662305559,0.00017752145467664349,0.0001317621454528517,3.45011177951271e-05,7.089856725595034e-06,0.0004791133441960192,0.0003839686538009074,-0.0003447309971902761,0.00032093373220374303,0.00020409309500506967,-0.00011675875148787869,1.2256691282009812e-05,0.6053096652030945,34.16213607788086,4.048977375030518,-19.487642288208008,-0.1412864327430725,-1.828616738319397,0.13217489421367645,0
10,0.04500174522399902,-0.6291133761405945,-34.18990707397461,-4.025173664093018,19.487642288208008,0.1357932686805725,1.822208046913147,-0.10470907390117645,0.0,0.0,0.0,0.0,0.0,0.0,0.0,-0.6523130807891317,-0.1416989678698233,-0.4879611475777599,0.46609315326765555,0.07941871793812144,-0.07394425898363591,-0.1373789249150091,1.0547591856650986,0.32406547281203313,-0.39222171711085135,-2.1534693089869985,0.8646227635741234,2.465847521665521,0.5444890890256135,1.0544104758940245,0.3238615046091247,-0.39250456234122666,-2.153291787532338,0.8647539153680389,2.46587817577521,0.5445020185570556,-0.00018421222326338998,0.00021772370374330762,2.9321099282595003e-05,-0.00010948752442868214,-0.00034277826430713604,0.0002316662864496911,-0.0011405192695093725,0.0,0.0,0.0,0.0,0.0,0.0,0.0,-0.0003487097710741516,-0.0002039682029084111,-0.00028284523037530596,0.00017752145466065627,0.00013115179391554044,3.065410968883242e-05,1.292953144205189e-05,0.00018421222326338998,-0.00021772370374330762,-2.9321099282595003e-05,0.00010948752442868214,0.00034277826430713604,-0.0002316662864496911,0.0011405192695093725,0.6291133761405945,34.18990707397461,4.025173664093018,-19.487642288208008,-0.1357932686805725,-1.822208046913147,0.10470907390117645,0
11,0.05040621757507324,-0.6291133761405945,-34.18990707397461,-4.025173664093018,19.487642288208008,0.1357932686805725,1.822208046913147,-0.10470907390117645,0.0,0.0,0.0,0.0,0.0,0.0,0.0,-0.6523130807891317,-0.1416989678698233,-0.4879611475777599,0.46609315326765555,0.07941871793812144,-0.07394425898363591,-0.1373789249150091,1.0547591856650986,0.32406547281203313,-0.39222171711085135,-2.1534693089869985,0.8646227635741234,2.465847521665521,0.5444890890256135,1.0544104758940245,0.3238615046091247,-0.39250456234122666,-2.153291787532338,0.8647539153680389,2.46587817577521,0.5445020185570556,-0.00018421222326338998,0.00021772370374330762,2.9321099282595003e-05,-0.00010948752442868214,-0.00034277826430713604,0.0002316662864496911,-0.0011405192695093725,0.0,0.0,0.0,0.0,0.0,0.0,0.0,-0.0003487097710741516,-0.0002039682029084111,-0.00028284523037530596,0.00017752145466065627,0.00013115179391554044,3.065410968883242e-05,1.292953144205189e-05,0.00018421222326338998,-0.00021772370374330762,-2.9321099282595003e-05,0.00010948752442868214,0.00034277826430713604,-0.0002316662864496911,0.0011405192695093725,0.6291133761405945,34.18990707397461,4.025173664093018,-19.487642288208008,-0.1357932686805725,-1.822208046913147,0.10470907390117645,0
12,0.05496501922607422,-0.6053096652030945,-34.23751449584961,-3.9497954845428467,19.487642288208008,0.1293845772743225,1.828616738319397,-0.12485067546367645,0.0,0.0,0.0,0.0,0.0,0.0,0.0,-0.5863097807371528,-0.12762661588351729,-0.42375592136937873,0.4636830012551786,0.07664087633529246,-0.08002422538815297,-0.1374392459186752,1.0547565615481955,0.3240688136836939,-0.39222700680766187,-2.1534693089869985,0.8646235158779493,2.4658437497216212,0.5444923875727677,1.0544104758940245,0.3238615046091247,-0.39250456234122666,-2.153291787532338,0.8647539153680389,2.46587817577521,0.5445020185570556,-0.00045141522799207345,0.00081669275099436,-0.0038706540534661606,-9.46194144813923e-05,3.6125350703971976e-06,-6.503747511504683e-05,-0.0009010252540036606,0.0,0.0,0.0,0.0,0.0,0.0,0.0,-0.00034608565417104664,-0.00020730907456917302,-0.00027755553356478835,0.00017752145466065627,0.0001303994900896388,3.442605358872086e-05,9.630984287856137e-06,0.00045141522799207345,-0.00081669275099436,0.0038706540534661606,9.46194144813923e-05,-3.6125350703971976e-06,6.503747511504683e-05,0.0009010252540036606,0.6053096652030945,34.23751449584961,3.9497954845428467,-19.487642288208008,-0.1293845772743225,-1.828616738319397,0.12485067546367645,0
13,0.0600430965423584,-0.6053096652030945,-34.23751449584961,-3.9497954845428467,19.487642288208008,0.1293845772743225,1.828616738319397,-0.12485067546367645,0.0,0.0,0.0,0.0,0.0,0.0,0.0,-0.5863097807371528,-0.12762661588351729,-0.42375592136937873,0.4636830012551786,0.07664087633529246,-0.08002422538815297,-0.1374392459186752,1.0547565615481955,0.3240688136836939,-0.39222700680766187,-2.1534693089869985,0.8646235158779493,2.4658437497216212,0.5444923875727677,1.0544104758940245,0.3238615046091247,-0.39250456234122666,-2.153291787532338,0.8647539153680389,2.46587817577521,0.5445020185570556,-0.00045141522799207345,0.00081669275099436,-0.0038706540534661606,-9.46194144813923e-05,3.6125350703971976e-06,-6.503747511504683e-05,-0.0009010252540036606,0.0,0.0,0.0,0.0,0.0,0.0,0.0,-0.00034608565417104664,-0.00020730907456917302,-0.00027755553356478835,0.00017752145466065627,0.0001303994900896388,3.442605358872086e-05,9.630984287856137e-06,0.00045141522799207345,-0.00081669275099436,0.0038706540534661606,9.46194144813923e-05,-3.6125350703971976e-06,6.503747511504683e-05,0.0009010252540036606,0.6053096652030945,34.23751449584961,3.9497954845428467,-19.487642288208008,-0.1293845772743225,-1.828616738319397,0.12485067546367645,0
14,0.06529402732849121,-0.6291133761405945,-34.23751449584961,-4.048977375030518,19.511445999145508,0.1412864327430725,1.828616738319397,-0.15231649577617645,0.0,0.0,0.0,0.0,0.0,0.0,0.0,-0.6250977682330913,-0.13091046890172967,-0.456988638238475,0.46208613031795487,0.07832503571293123,-0.07691444353523527,-0.13807203995725803,1.0547582319786675,0.3240688136836939,-0.3922200466749961,-2.153470979422854,0.8646221532227879,2.4658436353583957,0.5444975532831416,1.0544104758940245,0.3238615046091247,-0.39250456234122666,-2.153291787532338,0.8647539153680389,2.46587817577521,0.5445020185570556,2.4263009334352127e-05,0.0008006845126881518,0.0005640959916773308,-0.00018814061872827586,-0.00025289291835664025,-0.00012312345943813727,0.000966920266775901,0.0,0.0,0.0,0.0,0.0,0.0,0.0,-0.0003477560846429917,-0.00020730907456917302,-0.0002845156662305559,0.00017919189051607276,0.00013176214525101315,3.454041681427711e-05,4.465273913956125e-06,-2.4263009334352127e-05,-0.0008006845126881518,-0.0005640959916773308,0.00018814061872827586,0.00025289291835664025,0.00012312345943813727,-0.000966920266775901,0.6291133761405945,34.23751449584961,4.048977375030518,-19.511445999145508,-0.1412864327430725,-1.828616738319397,0.15231649577617645,0
15,0.06996393203735352,-0.6291133761405945,-34.23751449584961,-4.048977375030518,19.511445999145508,0.1412864327430725,1.828616738319397,-0.15231649577617645,0.0,0.0,0.0,0.0,0.0,0.0,0.0,-0.6250977682330913,-0.13091046890172967,-0.456988638238475,0.46208613031795487,0.07832503571293123,-0.07691444353523527,-0.13807203995725803,1.0547582319786675,0.3240688136836939,-0.3922200466749961,-2.153470979422854,0.8646221532227879,2.4658436353583957,0.5444975532831416,1.0544104758940245,0.3238615046091247,-0.39250456234122666,-2.153291787532338,0.8647539153680389,2.46587817577521,0.5445020185570556,2.4263009334352127e-05,0.0008006845126881518,0.0005640959916773308,-0.00018814061872827586,-0.00025289291835664025,-0.00012312345943813727,0.000966920266775901,0.0,0.0,0.0,0.0,0.0,0.0,0.0,-0.0003477560846429917,-0.00020730907456917302,-0.0002845156662305559,0.00017919189051607276,0.00013176214525101315,3.454041681427711e-05,4.465273913956125e-06,-2.4263009334352127e-05,-0.0008006845126881518,-0.0005640959916773308,0.00018814061872827586,0.00025289291835664025,0.00012312345943813727,-0.000966920266775901,0.6291133761405945,34.23751449584961,4.048977375030518,-19.511445999145508,-0.1412864327430725,-1.828616738319397,0.15231649577617645,0
16,0.07539057731628418,-0.6806880831718445,-34.21371078491211,-4.072781085968018,19.487642288208008,0.1357932686805725,1.835025429725647,-0.10470907390117645,0.0,0.0,0.0,0.0,0.0,0.0,0.0,-0.6650228403771837,-0.12827696591994325,-0.49683019064271217,0.4554371060643733,0.08024875877450324,-0.07404620029058978,-0.136938604722029,1.0547621161658862,0.3240671432478386,-0.39221837623914085,-2.1534693089869985,0.8646227635741234,2.4658429184358144,0.5444933290218344,1.0544104758940245,0.3238615046091247,-0.39250456234122666,-2.153291787532338,0.8647539153680389,2.46587817577521,0.5445020185570556,0.0005458133920494595,0.0005080086711862054,-1.4070451492142025e-05,-0.00035420156134811524,-0.00023029869809239136,3.716540404445061e-05,-0.0008874980057337378,0.0,0.0,0.0,0.0,0.0,0.0,0.0,-0.00035164027186174174,-0.00020563863871386756,-0.00028618610208580586,0.00017752145466065627,0.00013115179391554044,3.525733939557796e-05,8.689535221151345e-06,-0.0005458133920494595,-0.0005080086711862054,1.4070451492142025e-05,0.00035420156134811524,0.00023029869809239136,-3.716540404445061e-05,0.0008874980057337378,0.6806880831718445,34.21371078491211,4.072781085968018,-19.487642288208008,-0.1357932686805725,-1.835025429725647,0.10470907390117645,0
17,0.08001351356506348,-0.6806880831718445,-34.21371078491211,-4.072781085968018,19.487642288208008,0.1357932686805725,1.835025429725647,-0.10470907390117645,0.0,0.0,0.0,0.0,0.0,0.0,0.0,-0.6650228403771837,-0.12827696591994325,-0.49683019064271217,0.4554371060643733,0.08024875877450324,-0.07404620029058978,-0.136938604722029,1.0547621161658862,0.3240671432478386,-0.39221837623914085,-2.1534693089869985,0.8646227635741234,2.4658429184358144,0.5444933290218344,1.0544104758940245,0.3238615046091247,-0.39250456234122666,-2.153291787532338,0.8647539153680389,2.46587817577521,0.5445020185570556,0.0005458133920494595,0.0005080086711862054,-1.4070451492142025e-05,-0.00035420156134811524,-0.00023029869809239136,3.716540404445061e-05,-0.0008874980057337378,0.0,0.0,0.0,0.0,0.0,0.0,0.0,-0.00035164027186174174,-0.00020563863871386756,-0.00028618610208580586,0.00017752145466065627,0.00013115179391554044,3.525733939557796e-05,8.689535221151345e-06,-0.0005458133920494595,-0.0005080086711862054,1.4070451492142025e-05,0.00035420156134811524,0.00023029869809239136,-3.716540404445061e-05,0.0008874980057337378,0.6806880831718445,34.21371078491211,4.072781085968018,-19.487642288208008,-0.1357932686805725,-1.835025429725647,0.10470907390117645,0
18,0.08500003814697266,-0.6568843722343445,-34.23751449584961,-4.025173664093018,19.487642288208008,0.1357932686805725,1.828616738319397,-0.15231649577617645,0.0,0.0,0.0,0.0,0.0,0.0,0.0,-0.6445435619122635,-0.14747341743046502,-0.4832985547970009,0.4678043298159901,0.07890529738800853,-0.07376220189039895,-0.13448468366191793,1.0547604192395759,0.3240688136836939,-0.39222171711085135,-2.1534693089869985,0.8646227635741234,2.465843752664611,0.5444982087984154,1.0544104758940245,0.3238615046091247,-0.39250456234122666,-2.153291787532338,0.8647539153680389,2.46587817577521,0.5445020185570556,0.00019293511737220192,-0.0001432580085388228,-0.0004352678169133538,0.0001082539924812067,-0.0001865582428490827,4.0834445046713074e-05,0.00027430962100179836,0.0,0.0,0.0,0.0,0.0,0.0,0.0,-0.0003499433455513845,-0.00020730907456917302,-0.00028284523037530596,0.00017752145466065627,0.00013115179391554044,3.4423110598869044e-05,3.8097586402274786e-06,-0.00019293511737220192,0.0001432580085388228,0.0004352678169133538,-0.0001082539924812067,0.0001865582428490827,-4.0834445046713074e-05,-0.00027430962100179836,0.6568843722343445,34.23751449584961,4.025173664093018,-19.487642288208008,-0.1357932686805725,-1.828616738319397,0.15231649577617645,0
19,0.08999800682067871,-0.6568843722343445,-34.23751449584961,-4.025173664093018,19.487642288208008,0.1357932686805725,1.828616738319397,-0.15231649577617645,0.0,0.0,0.0,0.0,0.0,0.0,0.0,-0.6445435619122635,-0.14747341743046502,-0.4832985547970009,0.4678043298159901,0.07890529738800853,-0.07376220189039895,-0.13448468366191793,1.0547604192395759,0.3240688136836939,-0.39222171711085135,-2.1534693089869985,0.8646227635741234,2.465843752664611,0.5444982087984154,1.0544104758940245,0.3238615046091247,-0.39250456234122666,-2.153291787532338,0.8647539153680389,2.46587817577521,0.5445020185570556,0.00019293511737220192,-0.0001432580085388228,-0.0004352678169133538,0.0001082539924812067,-0.0001865582428490827,4.0834445046713074e-05,0.00027430962100179836,0.0,0.0,0.0,0.0,0.0,0.0,0.0,-0.0003499433455513845,-0.00020730907456917302,-0.00028284523037530596,0.00017752145466065627,0.00013115179391554044,3.4423110598869044e-05,3.8097586402274786e-06,-0.00019293511737220192,0.0001432580085388228,0.0004352678169133538,-0.0001082539924812067,0.0001865582428490827,-4.0834445046713074e-05,-0.00027430962100179836,0.6568843722343445,34.23751449584961,4.025173664093018,-19.487642288208008,-0.1357932686805725,-1.828616738319397,0.15231649577617645,0
20,0.09499454498291016,-0.6568843722343445,-34.21371078491211,-4.048977375030518,19.436067581176758,0.1293845772743225,1.828616738319397,-0.15964071452617645,0.0,0.0,0.0,0.0,0.0,0.0,0.0,-0.6553611913595867,-0.13302116269418982,-0.48512363347728166,0.45587054489545953,0.07877483828014381,-0.07513288861323192,-0.1370906602487815,1.0547608960775816,0.3240671432478386,-0.3922200466749961,-2.153466378474096,0.8646234756509463,2.4658436309977616,0.5444962129393941,1.0544104758940245,0.3238615046091247,-0.39250456234122666,-2.153291787532338,0.8647539153680389,2.46587817577521,0.5445020185570556,3.774262364758831e-05,-0.0004912676934771056,0.0005936660437537149,0.0008746360001971833,6.002155380165249e-05,-0.00013149850254151306,0.0003769661367022587,0.0,0.0,0.0,0.0,0.0,0.0,0.0,-0.0003504201835571319,-0.00020563863871386756,-0.0002845156662305559,0.00017459094175809042,0.00013043971709258972,3.454477744835316e-05,5.805617661502893e-06,-3.774262364758831e-05,0.0004912676934771056,-0.0005936660437537149,-0.0008746360001971833,-6.002155380165249e-05,0.00013149850254151306,-0.0003769661367022587,0.6568843722343445,34.21371078491211,4.048977375030518,-19.436067581176758,-0.1293845772743225,-1.828616738319397,0.15964071452617645,0
21,0.10001492500305176,-0.6568843722343445,-34.21371078491211,-4.048977375030518,19.436067581176758,0.1293845772743225,1.828616738319397,-0.15964071452617645,0.0,0.0,0.0,0.0,0.0,0.0,0.0,-0.6553611913595867,-0.13302116269418982,-0.48512363347728166,0.45587054489545953,0.07877483828014381,-0.07513288861323192,-0.1370906602487815,1.0547608960775816,0.3240671432478386,-0.3922200466749961,-2.153466378474096,0.8646234756509463,2.4658436309977616,0.5444962129393941,1.0544104758940245,0.3238615046091247,-0.39250456234122666,-2.153291787532338,0.8647539153680389,2.46587817577521,0.5445020185570556,3.774262364758831e-05,-0.0004912676934771056,0.0005936660437537149,0.0008746360001971833,6.002155380165249e-05,-0.00013149850254151306,0.0003769661367022587,0.0,0.0,0.0,0.0,0.0,0.0,0.0,-0.0003504201835571319,-0.00020563863871386756,-0.0002845156662305559,0.00017459094175809042,0.00013043971709258972,3.454477744835316e-05,5.805617661502893e-06,-3.774262364758831e-05,0.0004912676934771056,-0.0005936660437537149,-0.0008746360001971833,-6.002155380165249e-05,0.00013149850254151306,-0.0003769661367022587,0.6568843722343445,34.21371078491211,4.048977375030518,-19.436067581176758,-0.1293845772743225,-1.828616738319397,0.15964071452617645,0
22,0.10500454902648926,-0.6291133761405945,-34.21371078491211,-4.048977375030518,19.487642288208008,0.1531882882118225,1.828616738319397,-0.11111776530742645,0.0,0.0,0.0,0.0,0.0,0.0,0.0,-0.6529745421847462,-0.1263960914709478,-0.4791457348277003,0.4515255840833711,0.07807979418638579,-0.0766746019849006,-0.13935013531071205,1.0547582319800133,0.3240671461912778,-0.3922200466749961,-2.1534693089882944,0.8646219184315407,2.465843669812248,0.5444940410926978,1.0544104758940245,0.3238615046091247,-0.39250456234122666,-2.153291787532338,0.8647539153680389,2.46587817577521,0.5445020185570556,-0.0003667067294775579,0.0008858061159492191,0.000175142209752277,-0.0005872504039196735,-0.0007020033178429287,-2.9890989882056593e-05,-0.0011168002120201545,0.0,0.0,0.0,0.0,0.0,0.0,0.0,-0.00034775608598880403,-0.00020564158215308215,-0.0002845156662305559,0.0001775214559565086,0.0001319969364982354,3.450596296206143e-05,7.977464357766806e-06,0.0003667067294775579,-0.0008858061159492191,-0.000175142209752277,0.0005872504039196735,0.0007020033178429287,2.9890989882056593e-05,0.0011168002120201545,0.6291133761405945,34.21371078491211,4.048977375030518,-19.487642288208008,-0.1531882882118225,-1.828616738319397,0.11111776530742645,0
23,0.11001181602478027,-0.6291133761405945,-34.21371078491211,-4.048977375030518,19.487642288208008,0.1531882882118225,1.828616738319397,-0.11111776530742645,0.0,0.0,0.0,0.0,0.0,0.0,0.0,-0.6529745421847462,-0.1263960914709478,-0.4791457348277003,0.4515255840833711,0.07807979418638579,-0.0766746019849006,-0.13935013531071205,1.0547582319800133,0.3240671461912778,-0.3922200466749961,-2.1534693089882944,0.8646219184315407,2.465843669812248,0.5444940410926978,1.0544104758940245,0.3238615046091247,-0.39250456234122666,-2.153291787532338,0.8647539153680389,2.46587817577521,0.5445020185570556,-0.0003667067294775579,0.0008858061159492191,0.000175142209752277,-0.0005872504039196735,-0.0007020033178429287,-2.9890989882056593e-05,-0.0011168002120201545,0.0,0.0,0.0,0.0,0.0,0.0,0.0,-0.00034775608598880403,-0.00020564158215308215,-0.0002845156662305559,0.0001775214559565086,0.0001319969364982354,3.450596296206143e-05,7.977464357766806e-06,0.0003667067294775579,-0.0008858061159492191,-0.000175142209752277,0.0005872504039196735,0.0007020033178429287,2.9890989882056593e-05,0.0011168002120201545,0.6291133761405945,34.21371078491211,4.048977375030518,-19.487642288208008,-0.1531882882118225,-1.828616738319397,0.11111776530742645,0
24,0.11496138572692871,-0.5815059542655945,-34.21371078491211,-3.9735991954803467,19.511445999145508,0.1412864327430725,1.841434121131897,-0.13858358561992645,0.0,0.0,0.0,0.0,0.0,0.0,0.0,-0.6427631128214093,-0.14529455851761575,-0.47338833906380845,0.4631941946386327,0.07866867058883514,-0.07618149728498183,-0.13906980181945247,1.0547548911069569,0.3240671432478552,-0.3922253363718066,-2.153470979422854,0.8646221547185896,2.4658455030110895,0.5444970400621879,1.0544104758940245,0.3238615046091247,-0.39250456234122666,-2.153291787532338,0.8647539153680389,2.46587817577521,0.5445020185570556,-0.0012311324747822966,-0.0003758565776913298,-0.0007995760240007046,-0.0007917376275577395,-0.00034365240822325897,-0.0006610024611071438,4.8289647836033426e-05,0.0,0.0,0.0,0.0,0.0,0.0,0.0,-0.00034441521293238075,-0.0002056386387304654,-0.0002792259694200383,0.00017919189051607276,0.00013176064944930843,3.267276412044495e-05,4.978494867691197e-06,0.0012311324747822966,0.0003758565776913298,0.0007995760240007046,0.0007917376275577395,0.00034365240822325897,0.0006610024611071438,-4.8289647836033426e-05,0.5815059542655945,34.21371078491211,3.9735991954803467,-19.511445999145508,-0.1412864327430725,-1.841434121131897,0.13858358561992645,0
25,0.12001156806945801,-0.5815059542655945,-34.21371078491211,-3.9735991954803467,19.511445999145508,0.1412864327430725,1.841434121131897,-0.13858358561992645,0.0,0.0,0.0,0.0,0.0,0.0,0.0,-0.6427631128214093,-0.14529455851761575,-0.47338833906380845,0.4631941946386327,0.07866867058883514,-0.07618149728498183,-0.13906980181945247,1.0547548911069569,0.3240671432478552,-0.3922253363718066,-2.153470979422854,0.8646221547185896,2.4658455030110895,0.5444970400621879,1.0544104758940245,0.3238615046091247,-0.39250456234122666,-2.153291787532338,0.8647539153680389,2.46587817577521,0.5445020185570556,-0.0012311324747822966,-0.0003758565776913298,-0.0007995760240007046,-0.0007917376275577395,-0.00034365240822325897,-0.0006610024611071438,4.8289647836033426e-05,0.0,0.0,0.0,0.0,0.0,0.0,0.0,-0.00034441521293238075,-0.0002056386387304654,-0.0002792259694200383,0.00017919189051607276,0.00013176064944930843,3.267276412044495e-05,4.978494867691197e-06,0.0012311324747822966,0.0003758565776913298,0.0007995760240007046,0.0007917376275577395,0.00034365240822325897,0.0006610024611071438,-4.8289647836033426e-05,0.5815059542655945,34.21371078491211,3.9735991954803467,-19.511445999145508,-0.1412864327430725,-1.841434121131897,0.13858358561992645,0
26,0.12499833106994629,-0.5815059542655945,-34.21371078491211,-3.9735991954803467,19.511445999145508,0.1412864327430725,1.841434121131897,-0.13858358561992645,0.0,0.0,0.0,0.0,0.0,0.0,0.0,-0.6427631128214093,-0.14529455851761575,-0.47338833906380845,0.4631941946386327,0.07866867058883514,-0.07618149728498183,-0.13906980181945247,1.0547548911069569,0.3240671432478552,-0.3922253363718066,-2.153470979422854,0.8646221547185896,2.4658455030110895,0.5444970400621879,1.0544104758940245,0.3238615046091247,-0.39250456234122666,-2.153291787532338,0.8647539153680389,2.46587817577521,0.5445020185570556,-0.0012311324747822966,-0.0003758565776913298,-0.0007995760240007046,-0.0007917376275577395,-0.00034365240822325897,-0.0006610024611071438,4.8289647836033426e-05,0.0,0.0,0.0,0.0,0.0,0.0,0.0,-0.00034441521293238075,-0.0002056386387304654,-0.0002792259694200383,0.00017919189051607276,0.00013176064944930843,3.267276412044495e-05,4.978494867691197e-06,0.0012311324747822966,0.0003758565776913298,0.0007995760240007046,0.0007917376275577395,0.00034365240822325897,0.0006610024611071438,-4.8289647836033426e-05,0.5815059542655945,34.21371078491211,3.9735991954803467,-19.511445999145508,-0.1412864327430725,-1.841434121131897,0.13858358561992645,0
27,0.12999939918518066,-0.5815059542655945,-34.21371078491211,-3.9735991954803467,19.511445999145508,0.1412864327430725,1.841434121131897,-0.13858358561992645,0.0,0.0,0.0,0.0,0.0,0.0,0.0,-0.6427631128214093,-0.14529455851761575,-0.47338833906380845,0.4631941946386327,0.07866867058883514,-0.07618149728498183,-0.13906980181945247,1.0547548911069569,0.3240671432478552,-0.3922253363718066,-2.153470979422854,0.8646221547185896,2.4658455030110895,0.5444970400621879,1.0544104758940245,0.3238615046091247,-0.39250456234122666,-2.153291787532338,0.8647539153680389,2.46587817577521,0.5445020185570556,-0.0012311324747822966,-0.0003758565776913298,-0.0007995760240007046,-0.0007917376275577395,-0.00034365240822325897,-0.0006610024611071438,4.8289647836033426e-05,0.0,0.0,0.0,0.0,0.0,0.0,0.0,-0.00034441521293238075,-0.0002056386387304654,-0.0002792259694200383,0.00017919189051607276,0.00013176064944930843,3.267276412044495e-05,4.978494867691197e-06,0.0012311324747822966,0.0003758565776913298,0.0007995760240007046,0.0007917376275577395,0.00034365240822325897,0.0006610024611071438,-4.8289647836033426e-05,0.5815059542655945,34.21371078491211,3.9735991954803467,-19.511445999145508,-0.1412864327430725,-1.841434121131897,0.13858358561992645,0
28,0.13501977920532227,-0.6568843722343445,-34.21371078491211,-4.025173664093018,19.459871292114258,0.12389141321182251,1.828616738319397,-0.15231649577617645,0.0,0.0,0.0,0.0,0.0,0.0,0.0,-0.6530667107453129,-0.14326852879355062,-0.47807741279186305,0.46067887191727597,0.0789876222986557,-0.07559326225619364,-0.13885781761951688,1.054760184745084,0.32406714357488736,-0.39222171711085135,-2.1534673601451675,0.8646244659242128,2.4658437489147573,0.5444981069419296,1.0544104758940245,0.3238615046091247,-0.39250456234122666,-2.153291787532338,0.8647539153680389,2.46587817577521,0.5445020185570556,0.0005141530967128389,-0.00037266777748249074,0.00015051208444004726,0.0008565978699286758,0.00028392099373296154,5.9004881598831365e-06,0.0004927669988123533,0.0,0.0,0.0,0.0,0.0,0.0,0.0,-0.0003497088510595603,-0.0002056389657626445,-0.00028284523037530596,0.0001755726128296331,0.0001294494438260907,3.442686045262988e-05,3.911615126028778e-06,-0.0005141530967128389,0.00037266777748249074,-0.00015051208444004726,-0.0008565978699286758,-0.00028392099373296154,-5.9004881598831365e-06,-0.0004927669988123533,0.6568843722343445,34.21371078491211,4.025173664093018,-19.459871292114258,-0.12389141321182251,-1.828616738319397,0.15231649577617645,0
29,0.14005112648010254,-0.6568843722343445,-34.21371078491211,-4.025173664093018,19.459871292114258,0.12389141321182251,1.828616738319397,-0.15231649577617645,0.0,0.0,0.0,0.0,0.0,0.0,0.0,-0.6530667107453129,-0.14326852879355062,-0.47807741279186305,0.46067887191727597,0.0789876222986557,-0.07559326225619364,-0.13885781761951688,1.054760184745084,0.32406714357488736,-0.39222171711085135,-2.1534673601451675,0.8646244659242128,2.4658437489147573,0.5444981069419296,1.0544104758940245,0.3238615046091247,-0.39250456234122666,-2.153291787532338,0.8647539153680389,2.46587817577521,0.5445020185570556,0.0005141530967128389,-0.00037266777748249074,0.00015051208444004726,0.0008565978699286758,0.00028392099373296154,5.9004881598831365e-06,0.0004927669988123533,0.0,0.0,0.0,0.0,0.0,0.0,0.0,-0.0003497088510595603,-0.0002056389657626445,-0.00028284523037530596,0.0001755726128296331,0.0001294494438260907,3.442686045262988e-05,3.911615126028778e-06,-0.0005141530967128389,0.00037266777748249074,-0.00015051208444004726,-0.0008565978699286758,-0.00028392099373296154,-5.9004881598831365e-06,-0.0004927669988123533,0.6568843722343445,34.21371078491211,4.025173664093018,-19.459871292114258,-0.12389141321182251,-1.828616738319397,0.15231649577617645,0
30,0.14499711990356445,-0.6806880831718445,-34.21371078491211,-4.072781085968018,19.487642288208008,0.1293845772743225,1.841434121131897,-0.15231649577617645,0.0,0.0,0.0,0.0,0.0,0.0,0.0,-0.6524332362077412,-0.13665003574337545,-0.4736311874966948,0.45832608435734395,0.07838595198216329,-0.07537661665140517,-0.13951537357355281,1.054761851256376,0.32406714335685666,-0.392218375912092,-2.15346961510468,0.864623475653091,2.465845437601775,0.5444954398361427,1.0544104758940245,0.3238615046091247,-0.39250456234122666,-2.153291787532338,0.8647539153680389,2.46587817577521,0.5445020185570556,0.0009220119606385967,0.00018601982361737674,0.0005534600089301723,0.00024484624963136414,0.00013253339619078425,-0.0003239352404196716,0.00033358796401273253,0.0,0.0,0.0,0.0,0.0,0.0,0.0,-0.00035137536235141376,-0.0002056387477319399,-0.0002861864291346383,0.0001778275723420819,0.0001304397149479719,3.273817343485419e-05,6.578720912919778e-06,-0.0009220119606385967,-0.00018601982361737674,-0.0005534600089301723,-0.00024484624963136414,-0.00013253339619078425,0.0003239352404196716,-0.00033358796401273253,0.6806880831718445,34.21371078491211,4.072781085968018,-19.487642288208008,-0.1293845772743225,-1.841434121131897,0.15231649577617645,0
31,0.14998579025268555,-0.6806880831718445,-34.21371078491211,-4.072781085968018,19.487642288208008,0.1293845772743225,1.841434121131897,-0.15231649577617645,0.0,0.0,0.0,0.0,0.0,0.0,0.0,-0.6524332362077412,-0.13665003574337545,-0.4736311874966948,0.45832608435734395,0.07838595198216329,-0.07537661665140517,-0.13951537357355281,1.054761851256376,0.32406714335685666,-0.392218375912092,-2.15346961510468,0.864623475653091,2.465845437601775,0.5444954398361427,1.0544104758940245,0.3238615046091247,-0.39250456234122666,-2.153291787532338,0.8647539153680389,2.46587817577521,0.5445020185570556,0.0009220119606385967,0.00018601982361737674,0.0005534600089301723,0.00024484624963136414,0.00013253339619078425,-0.0003239352404196716,0.00033358796401273253,0.0,0.0,0.0,0.0,0.0,0.0,0.0,-0.00035137536235141376,-0.0002056387477319399,-0.0002861864291346383,0.0001778275723420819,0.0001304397149479719,3.273817343485419e-05,6.578720912919778e-06,-0.0009220119606385967,-0.00018601982361737674,-0.0005534600089301723,-0.00024484624963136414,-0.00013253339619078425,0.0003239352404196716,-0.00033358796401273253,0.6806880831718445,34.21371078491211,4.072781085968018,-19.487642288208008,-0.1293845772743225,-1.841434121131897,0.15231649577617645,0
32,0.15540480613708496,-0.6568843722343445,-34.16213607788086,-3.9974029064178467,19.487642288208008,0.1293845772743225,1.828616738319397,-0.11111776530742645,0.0,0.0,0.0,0.0,0.0,0.0,0.0,-0.6334377695272929,-0.13361413118539106,-0.4607868580673572,0.45843473398954215,0.0775625718090706,-0.07579567835505145,-0.1401305946050757,1.0547601808204985,0.3240635239701528,-0.39222366593594954,-2.1534693090237194,0.8646234756509463,2.465844105841726,0.5444936467021226,1.0544104758940245,0.3238615046091247,-0.39250456234122666,-2.153291787532338,0.8647539153680389,2.46587817577521,0.5445020185570556,0.000783880459647274,-0.0008775187626609166,-0.0008529048500737089,0.00022340611940145242,0.0001296565382101022,-2.4205266818096395e-05,-0.0008655826321484527,0.0,0.0,0.0,0.0,0.0,0.0,0.0,-0.00034970492647401485,-0.00020201936102809404,-0.0002808964052771201,0.00017752149138150486,0.00013043971709258972,3.4069933483760195e-05,8.371854932964773e-06,-0.000783880459647274,0.0008775187626609166,0.0008529048500737089,-0.00022340611940145242,-0.0001296565382101022,2.4205266818096395e-05,0.0008655826321484527,0.6568843722343445,34.16213607788086,3.9974029064178467,-19.487642288208008,-0.1293845772743225,-1.828616738319397,0.11111776530742645,0
33,0.16000103950500488,-0.6568843722343445,-34.16213607788086,-3.9974029064178467,19.487642288208008,0.1293845772743225,1.828616738319397,-0.11111776530742645,0.0,0.0,0.0,0.0,0.0,0.0,0.0,-0.6334377695272929,-0.13361413118539106,-0.4607868580673572,0.45843473398954215,0.0775625718090706,-0.07579567835505145,-0.1401305946050757,1.0547601808204985,0.3240635239701528,-0.39222366593594954,-2.1534693090237194,0.8646234756509463,2.465844105841726,0.5444936467021226,1.0544104758940245,0.3238615046091247,-0.39250456234122666,-2.153291787532338,0.8647539153680389,2.46587817577521,0.5445020185570556,0.000783880459647274,-0.0008775187626609166,-0.0008529048500737089,0.00022340611940145242,0.0001296565382101022,-2.4205266818096395e-05,-0.0008655826321484527,0.0,0.0,0.0,0.0,0.0,0.0,0.0,-0.00034970492647401485,-0.00020201936102809404,-0.0002808964052771201,0.00017752149138150486,0.00013043971709258972,3.4069933483760195e-05,8.371854932964773e-06,-0.000783880459647274,0.0008775187626609166,0.0008529048500737089,-0.00022340611940145242,-0.0001296565382101022,2.4205266818096395e-05,0.0008655826321484527,0.6568843722343445,34.16213607788086,3.9974029064178467,-19.487642288208008,-0.1293845772743225,-1.828616738319397,0.11111776530742645,0
34,0.1650390625,-0.6291133761405945,-34.13833236694336,-4.025173664093018,19.459871292114258,0.1412864327430725,1.828616738319397,-0.10470907390117645,0.0,0.0,0.0,0.0,0.0,0.0,0.0,-0.6464230808321308,-0.1407054755620978,-0.4734156316675461,0.46333481302191987,0.07776104785064165,-0.07444435010153401,-0.13886148656283323,1.0547582319786675,0.32406186236461465,-0.39222171711085135,-2.1534673601451675,0.864623239848273,2.4658436496267324,0.5444929627429899,1.0544104758940245,0.3238615046091247,-0.39250456234122666,-2.153291787532338,0.8647539153680389,2.46587817577521,0.5445020185570556,-0.0007495159140778132,-0.0017493843762308127,-6.730624268896264e-05,0.0006815842795106232,-0.00047301621266875043,-0.0003454711034023281,-0.001594834744275555,0.0,0.0,0.0,0.0,0.0,0.0,0.0,-0.0003477560846429917,-0.00020035775548993273,-0.00028284523037530596,0.0001755726128296331,0.000130675519765866,3.452614847754276e-05,9.055814065739298e-06,0.0007495159140778132,0.0017493843762308127,6.730624268896264e-05,-0.0006815842795106232,0.00047301621266875043,0.0003454711034023281,0.001594834744275555,0.6291133761405945,34.13833236694336,4.025173664093018,-19.459871292114258,-0.1412864327430725,-1.828616738319397,0.10470907390117645,0
35,0.17003679275512695,-0.6291133761405945,-34.13833236694336,-4.025173664093018,19.459871292114258,0.1412864327430725,1.828616738319397,-0.10470907390117645,0.0,0.0,0.0,0.0,0.0,0.0,0.0,-0.6464230808321308,-0.1407054755620978,-0.4734156316675461,0.46333481302191987,0.07776104785064165,-0.07444435010153401,-0.13886148656283323,1.0547582319786675,0.32406186236461465,-0.39222171711085135,-2.1534673601451675,0.864623239848273,2.4658436496267324,0.5444929627429899,1.0544104758940245,0.3238615046091247,-0.39250456234122666,-2.153291787532338,0.8647539153680389,2.46587817577521,0.5445020185570556,-0.0007495159140778132,-0.0017493843762308127,-6.730624268896264e-05,0.0006815842795106232,-0.00047301621266875043,-0.0003454711034023281,-0.001594834744275555,0.0,0.0,0.0,0.0,0.0,0.0,0.0,-0.0003477560846429917,-0.00020035775548993273,-0.00028284523037530596,0.0001755726128296331,0.000130675519765866,3.452614847754276e-05,9.055814065739298e-06,0.0007495159140778132,0.0017493843762308127,6.730624268896264e-05,-0.0006815842795106232,0.00047301621266875043,0.0003454711034023281,0.001594834744275555,0.6291133761405945,34.13833236694336,4.025173664093018,-19.459871292114258,-0.1412864327430725,-1.828616738319397,0.10470907390117645,0
36,0.17503571510314941,-0.6291133761405945,-34.23751449584961,-4.048977375030518,19.487642288208008,0.1357932686805725,1.835025429725647,-0.17978231608867645,0.0,0.0,0.0,0.0,0.0,0.0,0.0,-0.6482611527155746,-0.14722026554930293,-0.4709017826223922,0.46653671610460384,0.07774268378403071,-0.07527362395503713,-0.14009727883088394,1.0547582319786675,0.324069528939481,-0.392219808256417,-2.153469334531798,0.8646227635802574,2.465843991155922,0.5445016698093071,1.0544104758940245,0.3238615046091247,-0.39250456234122666,-2.153291787532338,0.8647539153680389,2.46587817577521,0.5445020185570556,-0.0009040191766112188,-2.223318509312469e-05,0.0002482667860496817,-5.851346095622793e-06,-4.8919150526021305e-05,3.9442820531364e-05,0.0010938046630292375,0.0,0.0,0.0,0.0,0.0,0.0,0.0,-0.0003477560846429917,-0.00020802433035627121,-0.00028475408480965747,0.0001775469994602652,0.00013115178778155823,3.418461928816896e-05,3.487477484576118e-07,0.0009040191766112188,2.223318509312469e-05,-0.0002482667860496817,5.851346095622793e-06,4.8919150526021305e-05,-3.9442820531364e-05,-0.0010938046630292375,0.6291133761405945,34.23751449584961,4.048977375030518,-19.487642288208008,-0.1357932686805725,-1.835025429725647,0.17978231608867645,0
37,0.18001008033752441,-0.6291133761405945,-34.23751449584961,-4.048977375030518,19.487642288208008,0.1357932686805725,1.835025429725647,-0.17978231608867645,0.0,0.0,0.0,0.0,0.0,0.0,0.0,-0.6482611527155746,-0.14722026554930293,-0.4709017826223922,0.46653671610460384,0.07774268378403071,-0.07527362395503713,-0.14009727883088394,1.0547582319786675,0.324069528939481,-0.392219808256417,-2.153469334531798,0.8646227635802574,2.465843991155922,0.5445016698093071,1.0544104758940245,0.3238615046091247,-0.39250456234122666,-2.153291787532338,0.8647539153680389,2.46587817577521,0.5445020185570556,-0.0009040191766112188,-2.223318509312469e-05,0.0002482667860496817,-5.851346095622793e-06,-4.8919150526021305e-05,3.9442820531364e-05,0.0010938046630292375,0.0,0.0,0.0,0.0,0.0,0.0,0.0,-0.0003477560846429917,-0.00020802433035627121,-0.00028475408480965747,0.0001775469994602652,0.00013115178778155823,3.418461928816896e-05,3.487477484576118e-07,0.0009040191766112188,2.223318509312469e-05,-0.0002482667860496817,5.851346095622793e-06,4.8919150526021305e-05,-3.9442820531364e-05,-0.0010938046630292375,0.6291133761405945,34.23751449584961,4.048977375030518,-19.487642288208008,-0.1357932686805725,-1.835025429725647,0.17978231608867645,0
38,0.18500471115112305,-0.6568843722343445,-34.21371078491211,-3.9974029064178467,19.511445999145508,0.1357932686805725,1.835025429725647,-0.10470907390117645,0.0,0.0,0.0,0.0,0.0,0.0,0.0,-0.6356422775554054,-0.13324578773582466,-0.45845850021658685,0.4621138205555938,0.07742247921185515,-0.07603717269309501,-0.14302531396021684,1.0547623265877104,0.32406714324918445,-0.39222366593550273,-2.1534732753055152,0.8646231390261518,2.4658461017127897,0.5444890365444949,1.0544104758940245,0.3238615046091247,-0.39250456234122666,-2.153291787532338,0.8647539153680389,2.46587817577521,0.5445020185570556,0.0007727567935224858,0.0002685173531087436,-0.0009458842021151323,-6.784644416884939e-05,-8.142211750973691e-05,-0.00024731052206910354,-0.0011887958632534055,0.0,0.0,0.0,0.0,0.0,0.0,0.0,-0.0003518506936859289,-0.00020563864005973542,-0.0002808964057239294,0.00018148777317739118,0.00013077634188707332,3.20740624202287e-05,1.2982012560724954e-05,-0.0007727567935224858,-0.0002685173531087436,0.0009458842021151323,6.784644416884939e-05,8.142211750973691e-05,0.00024731052206910354,0.0011887958632534055,0.6568843722343445,34.21371078491211,3.9974029064178467,-19.511445999145508,-0.1357932686805725,-1.835025429725647,0.10470907390117645,0
39,0.18999910354614258,-0.6568843722343445,-34.21371078491211,-3.9974029064178467,19.511445999145508,0.1357932686805725,1.835025429725647,-0.10470907390117645,0.0,0.0,0.0,0.0,0.0,0.0,0.0,-0.6356422775554054,-0.13324578773582466,-0.45845850021658685,0.4621138205555938,0.07742247921185515,-0.07603717269309501,-0.14302531396021684,1.0547623265877104,0.32406714324918445,-0.39222366593550273,-2.1534732753055152,0.8646231390261518,2.4658461017127897,0.5444890365444949,1.0544104758940245,0.3238615046091247,-0.39250456234122666,-2.153291787532338,0.8647539153680389,2.46587817577521,0.5445020185570556,0.0007727567935224858,0.0002685173531087436,-0.0009458842021151323,-6.784644416884939e-05,-8.142211750973691e-05,-0.00024731052206910354,-0.0011887958632534055,0.0,0.0,0.0,0.0,0.0,0.0,0.0,-0.0003518506936859289,-0.00020563864005973542,-0.0002808964057239294,0.00018148777317739118,0.00013077634188707332,3.20740624202287e-05,1.2982012560724954e-05,-0.0007727567935224858,-0.0002685173531087436,0.0009458842021151323,6.784644416884939e-05,8.142211750973691e-05,0.00024731052206910354,0.0011887958632534055,0.6568843722343445,34.21371078491211,3.9974029064178467,-19.511445999145508,-0.1357932686805725,-1.835025429725647,0.10470907390117645,0
40,0.19501709938049316,-0.6806880831718445,-34.21371078491211,-4.025173664093018,19.511445999145508,0.1293845772743225,1.835025429725647,-0.11111776530742645,0.0,0.0,0.0,0.0,0.0,0.0,0.0,-0.6431389057741685,-0.13520289004977243,-0.46823195114458815,0.4631718278708602,0.07822571210315951,-0.07521791398510237,-0.14218817454755672,1.0547618515955155,0.3240671432478386,-0.39222171711085135,-2.1534709794358142,0.8646234890620668,2.4658461498574047,0.5444898023246117,1.0544104758940245,0.3238615046091247,-0.39250456234122666,-2.153291787532338,0.8647539153680389,2.46587817577521,0.5445020185570556,0.0008019524873749307,0.0003167583767992542,0.00014619505907022032,-0.00045784310337863366,0.00011252316838032384,-0.00024835396453333735,-0.0008252298577392368,0.0,0.0,0.0,0.0,0.0,0.0,0.0,-0.00035137570149101904,-0.00020563863871386756,-0.00028284523037530596,0.00017919190347637226,0.00013042630597215332,3.202591780526731e-05,1.2216232443851283e-05,-0.0008019524873749307,-0.0003167583767992542,-0.00014619505907022032,0.00045784310337863366,-0.00011252316838032384,0.00024835396453333735,0.0008252298577392368,0.6806880831718445,34.21371078491211,4.025173664093018,-19.511445999145508,-0.1293845772743225,-1.835025429725647,0.11111776530742645,0
41,0.20000100135803223,-0.6806880831718445,-34.21371078491211,-4.025173664093018,19.511445999145508,0.1293845772743225,1.835025429725647,-0.11111776530742645,0.0,0.0,0.0,0.0,0.0,0.0,0.0,-0.6431389057741685,-0.13520289004977243,-0.46823195114458815,0.4631718278708602,0.07822571210315951,-0.07521791398510237,-0.14218817454755672,1.0547618515955155,0.3240671432478386,-0.39222171711085135,-2.1534709794358142,0.8646234890620668,2.4658461498574047,0.5444898023246117,1.0544104758940245,0.3238615046091247,-0.39250456234122666,-2.153291787532338,0.8647539153680389,2.46587817577521,0.5445020185570556,0.0008019524873749307,0.0003167583767992542,0.00014619505907022032,-0.00045784310337863366,0.00011252316838032384,-0.00024835396453333735,-0.0008252298577392368,0.0,0.0,0.0,0.0,0.0,0.0,0.0,-0.00035137570149101904,-0.00020563863871386756,-0.00028284523037530596,0.00017919190347637226,0.00013042630597215332,3.202591780526731e-05,1.2216232443851283e-05,-0.0008019524873749307,-0.0003167583767992542,-0.00014619505907022032,0.00045784310337863366,-0.00011252316838032384,0.00024835396453333735,0.0008252298577392368,0.6806880831718445,34.21371078491211,4.025173664093018,-19.511445999145508,-0.1293845772743225,-1.835025429725647,0.11111776530742645,0
42,0.20500898361206055,-0.6568843722343445,-34.21371078491211,-3.9974029064178467,19.459871292114258,0.1357932686805725,1.828616738319397,-0.15964071452617645,0.0,0.0,0.0,0.0,0.0,0.0,0.0,-0.6426314121991171,-0.13050619671795313,-0.4664131467530378,0.46076030052434336,0.07864026960563361,-0.07580744908308525,-0.1398861605802288,1.0547602074204698,0.3240673816664177,-0.39222366593595137,-2.1534673601451675,0.8646260224580764,2.46584364942695,0.5444980194653952,1.0544104758940245,0.3238615046091247,-0.39250456234122666,-2.153291787532338,0.8647539153680389,2.46587817577521,0.5445020185570556,7.236838226818053e-05,0.00023086026098322518,-0.0005779323424210671,0.0006000579897298959,6.394409776844865e-06,-0.00010608090131118567,0.00109038401377426,0.0,0.0,0.0,0.0,0.0,0.0,0.0,-0.00034973152644535155,-0.00020587705729296912,-0.00028089640527528825,0.0001755726128296331,0.00012789290996251257,3.45263482599556e-05,3.999091660378262e-06,-7.236838226818053e-05,-0.00023086026098322518,0.0005779323424210671,-0.0006000579897298959,-6.394409776844865e-06,0.00010608090131118567,-0.00109038401377426,0.6568843722343445,34.21371078491211,3.9974029064178467,-19.459871292114258,-0.1357932686805725,-1.828616738319397,0.15964071452617645,0
43,0.21000385284423828,-0.6568843722343445,-34.21371078491211,-3.9974029064178467,19.459871292114258,0.1357932686805725,1.828616738319397,-0.15964071452617645,0.0,0.0,0.0,0.0,0.0,0.0,0.0,-0.6426314121991171,-0.13050619671795313,-0.4664131467530378,0.46076030052434336,0.07864026960563361,-0.07580744908308525,-0.1398861605802288,1.0547602074204698,0.3240673816664177,-0.39222366593595137,-2.1534673601451675,0.8646260224580764,2.46584364942695,0.5444980194653952,1.0544104758940245,0.3238615046091247,-0.39250456234122666,-2.153291787532338,0.8647539153680389,2.46587817577521,0.5445020185570556,7.236838226818053e-05,0.00023086026098322518,-0.0005779323424210671,0.0006000579897298959,6.394409776844865e-06,-0.00010608090131118567,0.00109038401377426,0.0,0.0,0.0,0.0,0.0,0.0,0.0,-0.00034973152644535155,-0.00020587705729296912,-0.00028089640527528825,0.0001755726128296331,0.00012789290996251257,3.45263482599556e-05,3.999091660378262e-06,-7.236838226818053e-05,-0.00023086026098322518,0.0005779323424210671,-0.0006000579897298959,-6.394409776844865e-06,0.00010608090131118567,-0.00109038401377426,0.6568843722343445,34.21371078491211,3.9974029064178467,-19.459871292114258,-0.1357932686805725,-1.828616738319397,0.15964071452617645,0
44,0.2163999080657959,-0.6568843722343445,-34.18990707397461,-4.048977375030518,19.459871292114258,0.11748272180557251,1.822208046913147,-0.15964071452617645,0.0,0.0,0.0,0.0,0.0,0.0,0.0,-0.6460377324810421,-0.13364504284871226,-0.468754773332182,0.46199314853588974,0.07939785388258955,-0.07552672169422764,-0.13944815229845964,1.0547601808206486,0.32406548164364696,-0.3922200466749961,-2.1534680489099514,0.8646247980977281,2.465844355832943,0.544499419465574,1.0544104758940245,0.3238615046091247,-0.39250456234122666,-2.153291787532338,0.8647539153680389,2.46587817577521,0.5445020185570556,0.0004725726462890105,-3.401710940861346e-05,0.00043803634761684437,0.0004841000452897587,0.0006443804221457208,0.00012648331078144202,0.000717218775788089,0.0,0.0,0.0,0.0,0.0,0.0,0.0,-0.000349704926624117,-0.00020397703452224025,-0.0002845156662305559,0.0001762613776135069,0.0001291172703108412,3.381994226714369e-05,2.5990914815920974e-06,-0.0004725726462890105,3.401710940861346e-05,-0.00043803634761684437,-0.0004841000452897587,-0.0006443804221457208,-0.00012648331078144202,-0.000717218775788089,0.6568843722343445,34.18990707397461,4.048977375030518,-19.459871292114258,-0.11748272180557251,-1.822208046913147,0.15964071452617645,0
45,0.22002339363098145,-0.6568843722343445,-34.18990707397461,-4.048977375030518,19.459871292114258,0.11748272180557251,1.822208046913147,-0.15964071452617645,0.0,0.0,0.0,0.0,0.0,0.0,0.0,-0.6460377324810421,-0.13364504284871226,-0.468754773332182,0.46199314853588974,0.07939785388258955,-0.07552672169422764,-0.13944815229845964,1.0547601808206486,0.32406548164364696,-0.3922200466749961,-2.1534680489099514,0.8646247980977281,2.465844355832943,0.544499419465574,1.0544104758940245,0.3238615046091247,-0.39250456234122666,-2.153291787532338,0.8647539153680389,2.46587817577521,0.5445020185570556,0.0004725726462890105,-3.401710940861346e-05,0.00043803634761684437,0.0004841000452897587,0.0006443804221457208,0.00012648331078144202,0.000717218775788089,0.0,0.0,0.0,0.0,0.0,0.0,0.0,-0.000349704926624117,-0.00020397703452224025,-0.0002845156662305559,0.0001762613776135069,0.0001291172703108412,3.381994226714369e-05,2.5990914815920974e-06,-0.0004725726462890105,3.401710940861346e-05,-0.00043803634761684437,-0.0004841000452897587,-0.0006443804221457208,-0.00012648331078144202,-0.000717218775788089,0.6568843722343445,34.18990707397461,4.048977375030518,-19.459871292114258,-0.11748272180557251,-1.822208046913147,0.15964071452617645,0
46,0.22499680519104004,-0.6291133761405945,-34.18990707397461,-4.048977375030518,19.511445999145508,0.1357932686805725,1.841434121131897,-0.11111776530742645,0.0,0.0,0.0,0.0,0.0,0.0,0.0,-0.6428226113943839,-0.13708941366620409,-0.46928732861818495,0.46380584068277836,0.07922116203488652,-0.07544884322724624,-0.14020165002833657,1.0547582319786675,0.3240654728120332,-0.3922200466749961,-2.1534709879300107,0.8646227635741234,2.465842210719635,0.5444940410627921,1.0544104758940245,0.3238615046091247,-0.39250456234122666,-2.153291787532338,0.8647539153680389,2.46587817577521,0.5445020185570556,-0.0001871247964478263,-0.00019137216219700914,1.4361791016549939e-05,-0.00031239028049264594,-0.0002704955272603035,-0.0005420004213328645,-0.0010247565002838306,0.0,0.0,0.0,0.0,0.0,0.0,0.0,-0.0003477560846429917,-0.00020396820290846662,-0.0002845156662305559,0.00017920039767282958,0.00013115179391554044,3.5965055575015725e-05,7.977494263511353e-06,0.0001871247964478263,0.00019137216219700914,-1.4361791016549939e-05,0.00031239028049264594,0.0002704955272603035,0.0005420004213328645,0.0010247565002838306,0.6291133761405945,34.18990707397461,4.048977375030518,-19.511445999145508,-0.1357932686805725,-1.841434121131897,0.11111776530742645,0
47,0.22999787330627441,-0.6291133761405945,-34.18990707397461,-4.048977375030518,19.511445999145508,0.1357932686805725,1.841434121131897,-0.11111776530742645,0.0,0.0,0.0,0.0,0.0,0.0,0.0,-0.6428226113943839,-0.13708941366620409,-0.46928732861818495,0.46380584068277836,0.07922116203488652,-0.07544884322724624,-0.14020165002833657,1.0547582319786675,0.3240654728120332,-0.3922200466749961,-2.1534709879300107,0.8646227635741234,2.465842210719635,0.5444940410627921,1.0544104758940245,0.3238615046091247,-0.39250456234122666,-2.153291787532338,0.8647539153680389,2.46587817577521,0.5445020185570556,-0.0001871247964478263,-0.00019137216219700914,1.4361791016549939e-05,-0.00031239028049264594,-0.0002704955272603035,-0.0005420004213328645,-0.0010247565002838306,0.0,0.0,0.0,0.0,0.0,0.0,0.0,-0.0003477560846429917,-0.00020396820290846662,-0.0002845156662305559,0.00017920039767282958,0.00013115179391554044,3.5965055575015725e-05,7.977494263511353e-06,0.0001871247964478263,0.00019137216219700914,-1.4361791016549939e-05,0.00031239028049264594,0.0002704955272603035,0.0005420004213328645,0.0010247565002838306,0.6291133761405945,34.18990707397461,4.048977375030518,-19.511445999145508,-0.1357932686805725,-1.841434121131897,0.11111776530742645,0
48,0.23499846458435059,-0.6291133761405945,-34.18990707397461,-4.048977375030518,19.511445999145508,0.1357932686805725,1.841434121131897,-0.11111776530742645,0.0,0.0,0.0,0.0,0.0,0.0,0.0,-0.6428226113943839,-0.13708941366620409,-0.46928732861818495,0.46380584068277836,0.07922116203488652,-0.07544884322724624,-0.14020165002833657,1.0547582319786675,0.3240654728120332,-0.3922200466749961,-2.1534709879300107,0.8646227635741234,2.465842210719635,0.5444940410627921,1.0544104758940245,0.3238615046091247,-0.39250456234122666,-2.153291787532338,0.8647539153680389,2.46587817577521,0.5445020185570556,-0.0001871247964478263,-0.00019137216219700914,1.4361791016549939e-05,-0.00031239028049264594,-0.0002704955272603035,-0.0005420004213328645,-0.0010247565002838306,0.0,0.0,0.0,0.0,0.0,0.0,0.0,-0.0003477560846429917,-0.00020396820290846662,-0.0002845156662305559,0.00017920039767282958,0.00013115179391554044,3.5965055575015725e-05,7.977494263511353e-06,0.0001871247964478263,0.00019137216219700914,-1.4361791016549939e-05,0.00031239028049264594,0.0002704955272603035,0.0005420004213328645,0.0010247565002838306,0.6291133761405945,34.18990707397461,4.048977375030518,-19.511445999145508,-0.1357932686805725,-1.841434121131897,0.11111776530742645,0
49,0.240006685256958,-0.6291133761405945,-34.18990707397461,-4.048977375030518,19.511445999145508,0.1357932686805725,1.841434121131897,-0.11111776530742645,0.0,0.0,0.0,0.0,0.0,0.0,0.0,-0.6428226113943839,-0.13708941366620409,-0.46928732861818495,0.46380584068277836,0.07922116203488652,-0.07544884322724624,-0.14020165002833657,1.0547582319786675,0.3240654728120332,-0.3922200466749961,-2.1534709879300107,0.8646227635741234,2.465842210719635,0.5444940410627921,1.0544104758940245,0.3238615046091247,-0.39250456234122666,-2.153291787532338,0.8647539153680389,2.46587817577521,0.5445020185570556,-0.0001871247964478263,-0.00019137216219700914,1.4361791016549939e-05,-0.00031239028049264594,-0.0002704955272603035,-0.0005420004213328645,-0.0010247565002838306,0.0,0.0,0.0,0.0,0.0,0.0,0.0,-0.0003477560846429917,-0.00020396820290846662,-0.0002845156662305559,0.00017920039767282958,0.00013115179391554044,3.5965055575015725e-05,7.977494263511353e-06,0.0001871247964478263,0.00019137216219700914,-1.4361791016549939e-05,0.00031239028049264594,0.0002704955272603035,0.0005420004213328645,0.0010247565002838306,0.6291133761405945,34.18990707397461,4.048977375030518,-19.511445999145508,-0.1357932686805725,-1.841434121131897,0.11111776530742645,0
50,0.24495482444763184,-0.6053096652030945,-34.26528549194336,-3.9974029064178467,19.487642288208008,0.1293845772743225,1.828616738319397,-0.15231649577617645,0.0,0.0,0.0,0.0,0.0,0.0,0.0,-0.6398671703404069,-0.13877285091890088,-0.4703856693939402,0.46195253472162034,0.07892020503418609,-0.07569459568045239,-0.14060355148910886,1.0547565625239583,0.324070762525525,-0.39222366593595137,-2.1534693089870465,0.8646234756509463,2.465844807888279,0.5444986185919141,1.0544104758940245,0.3238615046091247,-0.39250456234122666,-2.153291787532338,0.8647539153680389,2.46587817577521,0.5445020185570556,-0.0008325517239660047,0.0010884549405694183,-0.001256769038855819,-0.00012765243185903385,0.0001825522472303726,0.00016309571100305516,-2.3410742951287322e-05,0.0,0.0,0.0,0.0,0.0,0.0,0.0,-0.00034608662993385053,-0.00020925791640030722,-0.00028089640527528825,0.0001775214547086179,0.00013043971709258972,3.336788693086845e-05,3.3999651415372867e-06,0.0008325517239660047,-0.0010884549405694183,0.001256769038855819,0.00012765243185903385,-0.0001825522472303726,-0.00016309571100305516,2.3410742951287322e-05,0.6053096652030945,34.26528549194336,3.9974029064178467,-19.487642288208008,-0.1293845772743225,-1.828616738319397,0.15231649577617645,0
51,0.24996113777160645,-0.6053096652030945,-34.26528549194336,-3.9974029064178467,19.487642288208008,0.1293845772743225,1.828616738319397,-0.15231649577617645,0.0,0.0,0.0,0.0,0.0,0.0,0.0,-0.6398671703404069,-0.13877285091890088,-0.4703856693939402,0.46195253472162034,0.07892020503418609,-0.07569459568045239,-0.14060355148910886,1.0547565625239583,0.324070762525525,-0.39222366593595137,-2.1534693089870465,0.8646234756509463,2.465844807888279,0.5444986185919141,1.0544104758940245,0.3238615046091247,-0.39250456234122666,-2.153291787532338,0.8647539153680389,2.46587817577521,0.5445020185570556,-0.0008325517239660047,0.0010884549405694183,-0.001256769038855819,-0.00012765243185903385,0.0001825522472303726,0.00016309571100305516,-2.3410742951287322e-05,0.0,0.0,0.0,0.0,0.0,0.0,0.0,-0.00034608662993385053,-0.00020925791640030722,-0.00028089640527528825,0.0001775214547086179,0.00013043971709258972,3.336788693086845e-05,3.3999651415372867e-06,0.0008325517239660047,-0.0010884549405694183,0.001256769038855819,0.00012765243185903385,-0.0001825522472303726,-0.00016309571100305516,2.3410742951287322e-05,0.6053096652030945,34.26528549194336,3.9974029064178467,-19.487642288208008,-0.1293845772743225,-1.828616738319397,0.15231649577617645,0
52,0.25499510765075684,-0.7084590792655945,-34.21371078491211,-4.048977375030518,19.459871292114258,0.1293845772743225,1.841434121131897,-0.14590780436992645,0.0,0.0,0.0,0.0,0.0,0.0,0.0,-0.6447867665958852,-0.13268426831754201,-0.4754188879921326,0.4578543410244802,0.07890747590943334,-0.07502884909275749,-0.14173758441480389,1.0547638000981903,0.3240671432478386,-0.3922200466749961,-2.1534673601451675,0.8646234801206133,2.4658453896405947,0.5444945969426859,1.0544104758940245,0.3238615046091247,-0.39250456234122666,-2.153291787532338,0.8647539153680389,2.46587817577521,0.5445020185570556,0.001132028418680281,-1.0563021075339284e-05,0.0001649419335186019,0.0006681777490161806,1.5154973089879053e-05,-0.0005009661710346322,0.0006976981916133937,0.0,0.0,0.0,0.0,0.0,0.0,0.0,-0.0003533242041657836,-0.00020563863871386756,-0.0002845156662305559,0.0001755726128296331,0.00013043524742561985,3.2786134615214735e-05,7.4216143697292125e-06,-0.001132028418680281,1.0563021075339284e-05,-0.0001649419335186019,-0.0006681777490161806,-1.5154973089879053e-05,0.0005009661710346322,-0.0006976981916133937,0.7084590792655945,34.21371078491211,4.048977375030518,-19.459871292114258,-0.1293845772743225,-1.841434121131897,0.14590780436992645,0
53,0.26005029678344727,-0.7084590792655945,-34.21371078491211,-4.048977375030518,19.459871292114258,0.1293845772743225,1.841434121131897,-0.14590780436992645,0.0,0.0,0.0,0.0,0.0,0.0,0.0,-0.6447867665958852,-0.13268426831754201,-0.4754188879921326,0.4578543410244802,0.07890747590943334,-0.07502884909275749,-0.14173758441480389,1.0547638000981903,0.3240671432478386,-0.3922200466749961,-2.1534673601451675,0.8646234801206133,2.4658453896405947,0.5444945969426859,1.0544104758940245,0.3238615046091247,-0.39250456234122666,-2.153291787532338,0.8647539153680389,2.46587817577521,0.5445020185570556,0.001132028418680281,-1.0563021075339284e-05,0.0001649419335186019,0.0006681777490161806,1.5154973089879053e-05,-0.0005009661710346322,0.0006976981916133937,0.0,0.0,0.0,0.0,0.0,0.0,0.0,-0.0003533242041657836,-0.00020563863871386756,-0.0002845156662305559,0.0001755726128296331,0.00013043524742561985,3.2786134615214735e-05,7.4216143697292125e-06,-0.001132028418680281,1.0563021075339284e-05,-0.0001649419335186019,-0.0006681777490161806,-1.5154973089879053e-05,0.0005009661710346322,-0.0006976981916133937,0.7084590792655945,34.21371078491211,4.048977375030518,-19.459871292114258,-0.1293845772743225,-1.841434121131897,0.14590780436992645,0
54,0.26505017280578613,-0.6568843722343445,-34.23751449584961,-4.048977375030518,19.459871292114258,0.1357932686805725,1.835025429725647,-0.13858358561992645,0.0,0.0,0.0,0.0,0.0,0.0,0.0,-0.6335706535384344,-0.13228364786845778,-0.46423822110402707,0.4574634047464787,0.07802105811414398,-0.07623600487303155,-0.14165913430186952,1.054760189650816,0.3240688136836939,-0.3922200466749961,-2.1534673601451675,0.864622763574199,2.465842962096149,0.5444970797365108,1.0544104758940245,0.3238615046091247,-0.39250456234122666,-2.153291787532338,0.8647539153680389,2.46587817577521,0.5445020185570556,0.0006275848136329702,0.000605625282509092,0.0003449575780171822,0.0005217412219827024,-0.00014455472360179198,-0.0002618197420613933,-0.00023423691322948539,0.0,0.0,0.0,0.0,0.0,0.0,0.0,-0.0003497137567916031,-0.00020730907456917302,-0.0002845156662305559,0.0001755726128296331,0.00013115179383993425,3.521367906111905e-05,4.938820544753142e-06,-0.0006275848136329702,-0.000605625282509092,-0.0003449575780171822,-0.0005217412219827024,0.00014455472360179198,0.0002618197420613933,0.00023423691322948539,0.6568843722343445,34.23751449584961,4.048977375030518,-19.459871292114258,-0.1357932686805725,-1.835025429725647,0.13858358561992645,0
55,0.270033597946167,-0.6568843722343445,-34.23751449584961,-4.048977375030518,19.459871292114258,0.1357932686805725,1.835025429725647,-0.13858358561992645,0.0,0.0,0.0,0.0,0.0,0.0,0.0,-0.6335706535384344,-0.13228364786845778,-0.46423822110402707,0.4574634047464787,0.07802105811414398,-0.07623600487303155,-0.14165913430186952,1.054760189650816,0.3240688136836939,-0.3922200466749961,-2.1534673601451675,0.864622763574199,2.465842962096149,0.5444970797365108,1.0544104758940245,0.3238615046091247,-0.39250456234122666,-2.153291787532338,0.8647539153680389,2.46587817577521,0.5445020185570556,0.0006275848136329702,0.000605625282509092,0.0003449575780171822,0.0005217412219827024,-0.00014455472360179198,-0.0002618197420613933,-0.00023423691322948539,0.0,0.0,0.0,0.0,0.0,0.0,0.0,-0.0003497137567916031,-0.00020730907456917302,-0.0002845156662305559,0.0001755726128296331,0.00013115179383993425,3.521367906111905e-05,4.938820544753142e-06,-0.0006275848136329702,-0.000605625282509092,-0.0003449575780171822,-0.0005217412219827024,0.00014455472360179198,0.0002618197420613933,0.00023423691322948539,0.6568843722343445,34.23751449584961,4.048977375030518,-19.459871292114258,-0.1357932686805725,-1.835025429725647,0.13858358561992645,0
56,0.27501940727233887,-0.6053096652030945,-34.18990707397461,-3.9974029064178467,19.487642288208008,0.1357932686805725,1.828616738319397,-0.15231649577617645,0.0,0.0,0.0,0.0,0.0,0.0,0.0,-0.6460682101851287,-0.13294238998128247,-0.4783108983033491,0.45652215005879904,0.0790070184629105,-0.07466218643930851,-0.14199361679178632,1.0547565880337817,0.32406547281198333,-0.39222366593595137,-2.1534693089986625,0.8646260219613711,2.4658439837253474,0.544498617299845,1.0544104758940245,0.3238615046091247,-0.39250456234122666,-2.153291787532338,0.8647539153680389,2.46587817577521,0.5445020185570556,-0.0012647937925494362,-0.00015924486033841182,-0.0006803247022735058,-7.671969340125306e-05,4.465202614687341e-06,0.0001725694560369548,0.0007506217455412023,0.0,0.0,0.0,0.0,0.0,0.0,0.0,-0.00034611213975721533,-0.0002039682028586176,-0.00028089640527528825,0.00017752146632465937,0.0001278934066678561,3.419204986254698e-05,3.4012572106556505e-06,0.0012647937925494362,0.00015924486033841182,0.0006803247022735058,7.671969340125306e-05,-4.465202614687341e-06,-0.0001725694560369548,-0.0007506217455412023,0.6053096652030945,34.18990707397461,3.9974029064178467,-19.487642288208008,-0.1357932686805725,-1.828616738319397,0.15231649577617645,0
57,0.2799973487854004,-0.6053096652030945,-34.18990707397461,-3.9974029064178467,19.487642288208008,0.1357932686805725,1.828616738319397,-0.15231649577617645,0.0,0.0,0.0,0.0,0.0,0.0,0.0,-0.6460682101851287,-0.13294238998128247,-0.4783108983033491,0.45652215005879904,0.0790070184629105,-0.07466218643930851,-0.14199361679178632,1.0547565880337817,0.32406547281198333,-0.39222366593595137,-2.1534693089986625,0.8646260219613711,2.4658439837253474,0.544498617299845,1.0544104758940245,0.3238615046091247,-0.39250456234122666,-2.153291787532338,0.8647539153680389,2.46587817577521,0.5445020185570556,-0.0012647937925494362,-0.00015924486033841182,-0.0006803247022735058,-7.671969340125306e-05,4.465202614687341e-06,0.0001725694560369548,0.0007506217455412023,0.0,0.0,0.0,0.0,0.0,0.0,0.0,-0.00034611213975721533,-0.0002039682028586176,-0.00028089640527528825,0.00017752146632465937,0.0001278934066678561,3.419204986254698e-05,3.4012572106556505e-06,0.0012647937925494362,0.00015924486033841182,0.0006803247022735058,7.671969340125306e-05,-4.465202614687341e-06,-0.0001725694560369548,-0.0007506217455412023,0.6053096652030945,34.18990707397461,3.9974029064178467,-19.487642288208008,-0.1357932686805725,-1.828616738319397,0.15231649577617645,0
58,0.2850041389465332,-0.6806880831718445,-34.21371078491211,-4.025173664093018,19.459871292114258,0.12389141321182251,1.841434121131897,-0.15964071452617645,0.0,0.0,0.0,0.0,0.0,0.0,0.0,-0.6422003878579677,-0.13498001985448035,-0.4725565569672988,0.4557273521884093,0.07933841464299833,-0.07510071977275998,-0.14222790994015935,1.054761930729662,0.3240692919584897,-0.39222171711085135,-2.1534673601451675,0.8646240860576898,2.4658432660030205,0.5444982551797793,1.0544104758940245,0.3238615046091247,-0.39250456234122666,-2.153291787532338,0.8647539153680389,2.46587817577521,0.5445020185570556,0.0008742000672912293,-3.3273290672458322e-06,-0.00014647277752314654,0.0004575026399837067,0.00040789324273287763,-0.0005713574116224349,0.0007527280036272281,0.0,0.0,0.0,0.0,0.0,0.0,0.0,-0.00035145483563758795,-0.0002077873493649962,-0.00028284523037530596,0.0001755726128296331,0.0001298293103491055,3.4909772189450905e-05,3.7633772762557527e-06,-0.0008742000672912293,3.3273290672458322e-06,0.00014647277752314654,-0.0004575026399837067,-0.00040789324273287763,0.0005713574116224349,-0.0007527280036272281,0.6806880831718445,34.21371078491211,4.025173664093018,-19.459871292114258,-0.12389141321182251,-1.841434121131897,0.15964071452617645,0
59,0.28999996185302734,-0.6806880831718445,-34.21371078491211,-4.025173664093018,19.459871292114258,0.12389141321182251,1.841434121131897,-0.15964071452617645,0.0,0.0,0.0,0.0,0.0,0.0,0.0,-0.6422003878579677,-0.13498001985448035,-0.4725565569672988,0.4557273521884093,0.07933841464299833,-0.07510071977275998,-0.14222790994015935,1.054761930729662,0.3240692919584897,-0.39222171711085135,-2.1534673601451675,0.8646240860576898,2.4658432660030205,0.5444982551797793,1.0544104758940245,0.3238615046091247,-0.39250456234122666,-2.153291787532338,0.8647539153680389,2.46587817577521,0.5445020185570556,0.0008742000672912293,-3.3273290672458322e-06,-0.00014647277752314654,0.0004575026399837067,0.00040789324273287763,-0.0005713574116224349,0.0007527280036272281,0.0,0.0,0.0,0.0,0.0,0.0,0.0,-0.00035145483563758795,-0.0002077873493649962,-0.00028284523037530596,0.0001755726128296331,0.0001298293103491055,3.4909772189450905e-05,3.7633772762557527e-06,-0.0008742000672912293,3.3273290672458322e-06,0.00014647277752314654,-0.0004575026399837067,-0.00040789324273287763,0.0005713574116224349,-0.0007527280036272281,0.6806880831718445,34.21371078491211,4.025173664093018,-19.459871292114258,-0.12389141321182251,-1.841434121131897,0.15964071452617645,0
60,0.2950122356414795,-0.6291133761405945,-34.26528549194336,-4.025173664093018,19.487642288208008,0.1293845772743225,1.828616738319397,-0.15231649577617645,0.0,0.0,0.0,0.0,0.0,0.0,0.0,-0.6319505059304542,-0.14106747861577063,-0.4618514430528548,0.46203745157126297,0.07866412743888744,-0.07593960747617391,-0.14315043595592106,1.054758231978817,0.32407084200242786,-0.39222171711085135,-2.1534693089869985,0.8646234890783411,2.465846810882488,0.5444982640849445,1.0544104758940245,0.3238615046091247,-0.39250456234122666,-2.153291787532338,0.8647539153680389,2.46587817577521,0.5445020185570556,0.00018879619496486397,0.0012356332421460932,0.0002525588240378235,7.08245620839585e-05,3.194737413788743e-05,0.00022247192807614254,0.0004003988666628462,0.0,0.0,0.0,0.0,0.0,0.0,0.0,-0.0003477560847924277,-0.00020933739330314394,-0.00028284523037530596,0.00017752145466065627,0.0001304262896978381,3.136489272215215e-05,3.7544721110949197e-06,-0.00018879619496486397,-0.0012356332421460932,-0.0002525588240378235,-7.08245620839585e-05,-3.194737413788743e-05,-0.00022247192807614254,-0.0004003988666628462,0.6291133761405945,34.26528549194336,4.025173664093018,-19.487642288208008,-0.1293845772743225,-1.828616738319397,0.15231649577617645,0
61,0.3000032901763916,-0.6291133761405945,-34.26528549194336,-4.025173664093018,19.487642288208008,0.1293845772743225,1.828616738319397,-0.15231649577617645,0.0,0.0,0.0,0.0,0.0,0.0,0.0,-0.6319505059304542,-0.14106747861577063,-0.4618514430528548,0.46203745157126297,0.07866412743888744,-0.07593960747617391,-0.14315043595592106,1.054758231978817,0.32407084200242786,-0.39222171711085135,-2.1534693089869985,0.8646234890783411,2.465846810882488,0.5444982640849445,1.0544104758940245,0.3238615046091247,-0.39250456234122666,-2.153291787532338,0.8647539153680389,2.46587817577521,0.5445020185570556,0.00018879619496486397,0.0012356332421460932,0.0002525588240378235,7.08245620839585e-05,3.194737413788743e-05,0.00022247192807614254,0.0004003988666628462,0.0,0.0,0.0,0.0,0.0,0.0,0.0,-0.0003477560847924277,-0.00020933739330314394,-0.00028284523037530596,0.00017752145466065627,0.0001304262896978381,3.136489272215215e-05,3.7544721110949197e-06,-0.00018879619496486397,-0.0012356332421460932,-0.0002525588240378235,-7.08245620839585e-05,-3.194737413788743e-05,-0.00022247192807614254,-0.0004003988666628462,0.6291133761405945,34.26528549194336,4.025173664093018,-19.487642288208008,-0.1293845772743225,-1.828616738319397,0.15231649577617645,0
62,0.30499982833862305,-0.6291133761405945,-34.18990707397461,-4.072781085968018,19.511445999145508,0.1293845772743225,1.828616738319397,-0.16604940593242645,0.0,0.0,0.0,0.0,0.0,0.0,0.0,-0.637668004548292,-0.13056070901406022,-0.46692367121904804,0.45704501814260584,0.07870152782124645,-0.07609573236383788,-0.14319464289682346,1.0547583115605432,0.324065472812432,-0.39221837623914085,-2.153470979422854,0.864623475651022,2.4658436350526647,0.5444990848306891,1.0544104758940245,0.3238615046091247,-0.39250456234122666,-2.153291787532338,0.8647539153680389,2.46587817577521,0.5445020185570556,0.000506952338676494,-0.0001801606805619888,0.0009839563966155603,-0.0003901914481825498,-3.2800026362021985e-05,0.00013049878009801382,0.001035924713332586,0.0,0.0,0.0,0.0,0.0,0.0,0.0,-0.00034783566651874764,-0.00020396820330725873,-0.00028618610208580586,0.00017919189051607276,0.00013043971701687251,3.4540722545273184e-05,2.9337263665052404e-06,-0.000506952338676494,0.0001801606805619888,-0.0009839563966155603,0.0003901914481825498,3.2800026362021985e-05,-0.00013049878009801382,-0.001035924713332586,0.6291133761405945,34.18990707397461,4.072781085968018,-19.511445999145508,-0.1293845772743225,-1.828616738319397,0.16604940593242645,0
63,0.3099682331085205,-0.6291133761405945,-34.18990707397461,-4.072781085968018,19.511445999145508,0.1293845772743225,1.828616738319397,-0.16604940593242645,0.0,0.0,0.0,0.0,0.0,0.0,0.0,-0.637668004548292,-0.13056070901406022,-0.46692367121904804,0.45704501814260584,0.07870152782124645,-0.07609573236383788,-0.14319464289682346,1.0547583115605432,0.324065472812432,-0.39221837623914085,-2.153470979422854,0.864623475651022,2.4658436350526647,0.5444990848306891,1.0544104758940245,0.3238615046091247,-0.39250456234122666,-2.153291787532338,0.8647539153680389,2.46587817577521,0.5445020185570556,0.000506952338676494,-0.0001801606805619888,0.0009839563966155603,-0.0003901914481825498,-3.2800026362021985e-05,0.00013049878009801382,0.001035924713332586,0.0,0.0,0.0,0.0,0.0,0.0,0.0,-0.00034783566651874764,-0.00020396820330725873,-0.00028618610208580586,0.00017919189051607276,0.00013043971701687251,3.4540722545273184e-05,2.9337263665052404e-06,-0.000506952338676494,0.0001801606805619888,-0.0009839563966155603,0.0003901914481825498,3.2800026362021985e-05,-0.00013049878009801382,-0.001035924713332586,0.6291133761405945,34.18990707397461,4.072781085968018,-19.511445999145508,-0.1293845772743225,-1.828616738319397,0.16604940593242645,0
64,0.31499719619750977,-0.6291133761405945,-34.23751449584961,-4.025173664093018,19.511445999145508,0.1293845772743225,1.828616738319397,-0.13217489421367645,0.0,0.0,0.0,0.0,0.0,0.0,0.0,-0.6379474154054416,-0.14501963523838096,-0.4708432398731418,0.4682239246337365,0.07844510466979912,-0.07440957635698002,-0.14271330519915815,1.0547582408094343,0.3240688931565536,-0.39222171711085135,-2.153471209011115,0.8646234756509463,2.465843631158603,0.5444963802533562,1.0544104758940245,0.3238615046091247,-0.39250456234122666,-2.153291787532338,0.8647539153680389,2.46587817577521,0.5445020185570556,-0.0001799301193961211,0.00041109968336029733,-0.00010853283430805221,2.9384197292646046e-06,-4.479108364586713e-05,0.00017184325375385688,-0.00021908430764986764,0.0,0.0,0.0,0.0,0.0,0.0,0.0,-0.00034776491540977617,-0.00020738854742885504,-0.00028284523037530596,0.00017942147877736403,0.00013043971709258972,3.454461660679087e-05,5.638303699373459e-06,0.0001799301193961211,-0.00041109968336029733,0.00010853283430805221,-2.9384197292646046e-06,4.479108364586713e-05,-0.00017184325375385688,0.00021908430764986764,0.6291133761405945,34.23751449584961,4.025173664093018,-19.511445999145508,-0.1293845772743225,-1.828616738319397,0.13217489421367645,0
65,0.3199961185455322,-0.6291133761405945,-34.23751449584961,-4.025173664093018,19.511445999145508,0.1293845772743225,1.828616738319397,-0.13217489421367645,0.0,0.0,0.0,0.0,0.0,0.0,0.0,-0.6379474154054416,-0.14501963523838096,-0.4708432398731418,0.4682239246337365,0.07844510466979912,-0.07440957635698002,-0.14271330519915815,1.0547582408094343,0.3240688931565536,-0.39222171711085135,-2.153471209011115,0.8646234756509463,2.465843631158603,0.5444963802533562,1.0544104758940245,0.3238615046091247,-0.39250456234122666,-2.153291787532338,0.8647539153680389,2.46587817577521,0.5445020185570556,-0.0001799301193961211,0.00041109968336029733,-0.00010853283430805221,2.9384197292646046e-06,-4.479108364586713e-05,0.00017184325375385688,-0.00021908430764986764,0.0,0.0,0.0,0.0,0.0,0.0,0.0,-0.00034776491540977617,-0.00020738854742885504,-0.00028284523037530596,0.00017942147877736403,0.00013043971709258972,3.454461660679087e-05,5.638303699373459e-06,0.0001799301193961211,-0.00041109968336029733,0.00010853283430805221,-2.9384197292646046e-06,4.479108364586713e-05,-0.00017184325375385688,0.00021908430764986764,0.6291133761405945,34.23751449584961,4.025173664093018,-19.511445999145508,-0.1293845772743225,-1.828616738319397,0.13217489421367645,0
66,0.32501649856567383,-0.6053096652030945,-34.21371078491211,-4.025173664093018,19.459871292114258,0.1293845772743225,1.847842812538147,-0.15964071452617645,0.0,0.0,0.0,0.0,0.0,0.0,0.0,-0.6350911391105067,-0.13960925438997895,-0.46647395501667316,0.46187832529670636,0.07792556898138772,-0.0753357363192438,-0.143076759576751,1.0547566410156883,0.3240671432479881,-0.3922210015280652,-2.153467360145599,0.864623475724521,2.465841612199108,0.5444962534257733,1.0544104758940245,0.3238615046091247,-0.39250456234122666,-2.153291787532338,0.8647539153680389,2.46587817577521,0.5445020185570556,-0.0010767707995139554,-0.0004226372073997785,0.0006309509324658265,0.0006862330988596282,5.839629815647272e-05,-0.0008638745902675447,0.0006762685229950101,0.0,0.0,0.0,0.0,0.0,0.0,0.0,-0.00034616512166385505,-0.0002056386388633591,-0.0002835608131614431,0.0001755726132612878,0.00013043964351788784,3.656357610193339e-05,5.765131282253755e-06,0.0010767707995139554,0.0004226372073997785,-0.0006309509324658265,-0.0006862330988596282,-5.839629815647272e-05,0.0008638745902675447,-0.0006762685229950101,0.6053096652030945,34.21371078491211,4.025173664093018,-19.459871292114258,-0.1293845772743225,-1.847842812538147,0.15964071452617645,0
67,0.33000659942626953,-0.6053096652030945,-34.21371078491211,-4.025173664093018,19.459871292114258,0.1293845772743225,1.847842812538147,-0.15964071452617645,0.0,0.0,0.0,0.0,0.0,0.0,0.0,-0.6350911391105067,-0.13960925438997895,-0.46647395501667316,0.46187832529670636,0.07792556898138772,-0.0753357363192438,-0.143076759576751,1.0547566410156883,0.3240671432479881,-0.3922210015280652,-2.153467360145599,0.864623475724521,2.465841612199108,0.5444962534257733,1.0544104758940245,0.3238615046091247,-0.39250456234122666,-2.153291787532338,0.8647539153680389,2.46587817577521,0.5445020185570556,-0.0010767707995139554,-0.0004226372073997785,0.0006309509324658265,0.0006862330988596282,5.839629815647272e-05,-0.0008638745902675447,0.0006762685229950101,0.0,0.0,0.0,0.0,0.0,0.0,0.0,-0.00034616512166385505,-0.0002056386388633591,-0.0002835608131614431,0.0001755726132612878,0.00013043964351788784,3.656357610193339e-05,5.765131282253755e-06,0.0010767707995139554,0.0004226372073997785,-0.0006309509324658265,-0.0006862330988596282,-5.839629815647272e-05,0.0008638745902675447,-0.0006762685229950101,0.6053096652030945,34.21371078491211,4.025173664093018,-19.459871292114258,-0.1293845772743225,-1.847842812538147,0.15964071452617645,0
68,0.33499765396118164,-0.6291133761405945,-34.21371078491211,-4.048977375030518,19.459871292114258,0.1412864327430725,1.822208046913147,-0.17337362468242645,0.0,0.0,0.0,0.0,0.0,0.0,0.0,-0.6395490763708263,-0.13782096297434154,-0.4661129911067209,0.46091521272109337,0.0783132452469675,-0.07502952717718774,-0.14351613870888155,1.054758231979116,0.3240671432478386,-0.3922200466709566,-2.1534673601451675,0.8646232393516438,2.465844395402369,0.5445008406788934,1.0544104758940245,0.3238615046091247,-0.39250456234122666,-2.153291787532338,0.8647539153680389,2.46587817577521,0.5445020185570556,-0.00034859549165297603,0.00013740744158899845,0.0002645251942107179,0.0008294250414588134,-0.000292755687373578,0.00022024073154885013,0.0013345920290610226,0.0,0.0,0.0,0.0,0.0,0.0,0.0,-0.0003477560850915218,-0.00020563863871386756,-0.00028451567027004687,0.0001755726128296331,0.00013067601639515924,3.3780372840741535e-05,1.177878162228474e-06,0.00034859549165297603,-0.00013740744158899845,-0.0002645251942107179,-0.0008294250414588134,0.000292755687373578,-0.00022024073154885013,-0.0013345920290610226,0.6291133761405945,34.21371078491211,4.048977375030518,-19.459871292114258,-0.1412864327430725,-1.822208046913147,0.17337362468242645,0
69,0.3399991989135742,-0.6291133761405945,-34.21371078491211,-4.048977375030518,19.459871292114258,0.1412864327430725,1.822208046913147,-0.17337362468242645,0.0,0.0,0.0,0.0,0.0,0.0,0.0,-0.6395490763708263,-0.13782096297434154,-0.4661129911067209,0.46091521272109337,0.0783132452469675,-0.07502952717718774,-0.14351613870888155,1.054758231979116,0.3240671432478386,-0.3922200466709566,-2.1534673601451675,0.8646232393516438,2.465844395402369,0.5445008406788934,1.0544104758940245,0.3238615046091247,-0.39250456234122666,-2.153291787532338,0.8647539153680389,2.46587817577521,0.5445020185570556,-0.00034859549165297603,0.00013740744158899845,0.0002645251942107179,0.0008294250414588134,-0.000292755687373578,0.00022024073154885013,0.0013345920290610226,0.0,0.0,0.0,0.0,0.0,0.0,0.0,-0.0003477560850915218,-0.00020563863871386756,-0.00028451567027004687,0.0001755726128296331,0.00013067601639515924,3.3780372840741535e-05,1.177878162228474e-06,0.00034859549165297603,-0.00013740744158899845,-0.0002645251942107179,-0.0008294250414588134,0.000292755687373578,-0.00022024073154885013,-0.0013345920290610226,0.6291133761405945,34.21371078491211,4.048977375030518,-19.459871292114258,-0.1412864327430725,-1.822208046913147,0.17337362468242645,0
70,0.3450026512145996,-0.6291133761405945,-34.21371078491211,-4.048977375030518,19.459871292114258,0.1412864327430725,1.822208046913147,-0.17337362468242645,0.0,0.0,0.0,0.0,0.0,0.0,0.0,-0.6395490763708263,-0.13782096297434154,-0.4661129911067209,0.46091521272109337,0.0783132452469675,-0.07502952717718774,-0.14351613870888155,1.054758231979116,0.3240671432478386,-0.3922200466709566,-2.1534673601451675,0.8646232393516438,2.465844395402369,0.5445008406788934,1.0544104758940245,0.3238615046091247,-0.39250456234122666,-2.153291787532338,0.8647539153680389,2.46587817577521,0.5445020185570556,-0.00034859549165297603,0.00013740744158899845,0.0002645251942107179,0.0008294250414588134,-0.000292755687373578,0.00022024073154885013,0.0013345920290610226,0.0,0.0,0.0,0.0,0.0,0.0,0.0,-0.0003477560850915218,-0.00020563863871386756,-0.00028451567027004687,0.0001755726128296331,0.00013067601639515924,3.3780372840741535e-05,1.177878162228474e-06,0.00034859549165297603,-0.00013740744158899845,-0.0002645251942107179,-0.0008294250414588134,0.000292755687373578,-0.00022024073154885013,-0.0013345920290610226,0.6291133761405945,34.21371078491211,4.048977375030518,-19.459871292114258,-0.1412864327430725,-1.822208046913147,0.17337362468242645,0
71,0.35039281845092773,-0.6291133761405945,-34.21371078491211,-4.048977375030518,19.459871292114258,0.1412864327430725,1.822208046913147,-0.17337362468242645,0.0,0.0,0.0,0.0,0.0,0.0,0.0,-0.6395490763708263,-0.13782096297434154,-0.4661129911067209,0.46091521272109337,0.0783132452469675,-0.07502952717718774,-0.14351613870888155,1.054758231979116,0.3240671432478386,-0.3922200466709566,-2.1534673601451675,0.8646232393516438,2.465844395402369,0.5445008406788934,1.0544104758940245,0.3238615046091247,-0.39250456234122666,-2.153291787532338,0.8647539153680389,2.46587817577521,0.5445020185570556,-0.00034859549165297603,0.00013740744158899845,0.0002645251942107179,0.0008294250414588134,-0.000292755687373578,0.00022024073154885013,0.0013345920290610226,0.0,0.0,0.0,0.0,0.0,0.0,0.0,-0.0003477560850915218,-0.00020563863871386756,-0.00028451567027004687,0.0001755726128296331,0.00013067601639515924,3.3780372840741535e-05,1.177878162228474e-06,0.00034859549165297603,-0.00013740744158899845,-0.0002645251942107179,-0.0008294250414588134,0.000292755687373578,-0.00022024073154885013,-0.0013345920290610226,0.6291133761405945,34.21371078491211,4.048977375030518,-19.459871292114258,-0.1412864327430725,-1.822208046913147,0.17337362468242645,0
72,0.35500502586364746,-0.6568843722343445,-34.21371078491211,-4.048977375030518,19.487642288208008,0.1357932686805725,1.828616738319397,-0.09738485515117645,0.0,0.0,0.0,0.0,0.0,0.0,0.0,-0.6459869487191015,-0.14157006716283352,-0.4734881872537321,0.46100296550117786,0.07920898405392797,-0.07460670367209246,-0.14305962898888505,1.0547601808204985,0.3240671461912778,-0.3922200466749961,-2.1534693089869985,0.8646238497093371,2.4658439885707306,0.5444893232407899,1.0544104758940245,0.3238615046091247,-0.39250456234122666,-2.153291787532338,0.8647539153680389,2.46587817577521,0.5445020185570556,2.9124562652486127e-05,0.0002766611614887966,0.00016311666711284857,-2.5212729794559886e-05,-2.4115841641707664e-05,1.3528012884329837e-05,-0.001834117185653627,0.0,0.0,0.0,0.0,0.0,0.0,0.0,-0.00034970492647401485,-0.00020564158215308215,-0.0002845156662305559,0.00017752145466065627,0.00013006565870177234,3.4187204479341204e-05,1.2695316265687318e-05,-2.9124562652486127e-05,-0.0002766611614887966,-0.00016311666711284857,2.5212729794559886e-05,2.4115841641707664e-05,-1.3528012884329837e-05,0.001834117185653627,0.6568843722343445,34.21371078491211,4.048977375030518,-19.487642288208008,-0.1357932686805725,-1.828616738319397,0.09738485515117645,0
73,0.36000585556030273,-0.6568843722343445,-34.21371078491211,-4.048977375030518,19.487642288208008,0.1357932686805725,1.828616738319397,-0.09738485515117645,0.0,0.0,0.0,0.0,0.0,0.0,0.0,-0.6459869487191015,-0.14157006716283352,-0.4734881872537321,0.46100296550117786,0.07920898405392797,-0.07460670367209246,-0.14305962898888505,1.0547601808204985,0.3240671461912778,-0.3922200466749961,-2.1534693089869985,0.8646238497093371,2.4658439885707306,0.5444893232407899,1.0544104758940245,0.3238615046091247,-0.39250456234122666,-2.153291787532338,0.8647539153680389,2.46587817577521,0.5445020185570556,2.9124562652486127e-05,0.0002766611614887966,0.00016311666711284857,-2.5212729794559886e-05,-2.4115841641707664e-05,1.3528012884329837e-05,-0.001834117185653627,0.0,0.0,0.0,0.0,0.0,0.0,0.0,-0.00034970492647401485,-0.00020564158215308215,-0.0002845156662305559,0.00017752145466065627,0.00013006565870177234,3.4187204479341204e-05,1.2695316265687318e-05,-2.9124562652486127e-05,-0.0002766611614887966,-0.00016311666711284857,2.5212729794559886e-05,2.4115841641707664e-05,-1.3528012884329837e-05,0.001834117185653627,0.6568843722343445,34.21371078491211,4.048977375030518,-19.487642288208008,-0.1357932686805725,-1.828616738319397,0.09738485515117645,0
74,0.36500048637390137,-0.6568843722343445,-34.16213607788086,-4.025173664093018,19.511445999145508,0.1293845772743225,1.835025429725647,-0.16604940593242645,0.0,0.0,0.0,0.0,0.0,0.0,0.0,-0.6357770326106651,-0.14252460219008709,-0.46629194543665614,0.46447754167996386,0.07947039844273944,-0.07515797994222914,-0.14309051740319112,1.0547601808204985,0.324063526913608,-0.39222171711085135,-2.153471209011115,0.8646246020131632,2.4658429320042226,0.5445001446143073,1.0544104758940245,0.3238615046091247,-0.39250456234122666,-2.153291787532338,0.8647539153680389,2.46587817577521,0.5445020185570556,0.00033334512767888084,-0.0011180964461401882,-0.0003656732618598259,-0.0002621656963938659,0.0002462783467632994,-0.0001544973288540519,0.0009577831440609713,0.0,0.0,0.0,0.0,0.0,0.0,0.0,-0.00034970492647401485,-0.00020202230448329583,-0.00028284523037530596,0.00017942147877736403,0.00012931335487575968,3.524377098740317e-05,1.8739427483094317e-06,-0.00033334512767888084,0.0011180964461401882,0.0003656732618598259,0.0002621656963938659,-0.0002462783467632994,0.0001544973288540519,-0.0009577831440609713,0.6568843722343445,34.16213607788086,4.025173664093018,-19.511445999145508,-0.1293845772743225,-1.835025429725647,0.16604940593242645,0
75,0.3699512481689453,-0.6568843722343445,-34.16213607788086,-4.025173664093018,19.511445999145508,0.1293845772743225,1.835025429725647,-0.16604940593242645,0.0,0.0,0.0,0.0,0.0,0.0,0.0,-0.6357770326106651,-0.14252460219008709,-0.46629194543665614,0.46447754167996386,0.07947039844273944,-0.07515797994222914,-0.14309051740319112,1.0547601808204985,0.324063526913608,-0.39222171711085135,-2.153471209011115,0.8646246020131632,2.4658429320042226,0.5445001446143073,1.0544104758940245,0.3238615046091247,-0.39250456234122666,-2.153291787532338,0.8647539153680389,2.46587817577521,0.5445020185570556,0.00033334512767888084,-0.0011180964461401882,-0.0003656732618598259,-0.0002621656963938659,0.0002462783467632994,-0.0001544973288540519,0.0009577831440609713,0.0,0.0,0.0,0.0,0.0,0.0,0.0,-0.00034970492647401485,-0.00020202230448329583,-0.00028284523037530596,0.00017942147877736403,0.00012931335487575968,3.524377098740317e-05,1.8739427483094317e-06,-0.00033334512767888084,0.0011180964461401882,0.0003656732618598259,0.0002621656963938659,-0.0002462783467632994,0.0001544973288540519,-0.0009577831440609713,0.6568843722343445,34.16213607788086,4.025173664093018,-19.511445999145508,-0.1293845772743225,-1.835025429725647,0.16604940593242645,0
76,0.3750126361846924,-0.6291133761405945,-34.21371078491211,-4.072781085968018,19.487642288208008,0.1357932686805725,1.828616738319397,-0.15964071452617645,0.0,0.0,0.0,0.0,0.0,0.0,0.0,-0.6450416748587234,-0.1332056950528471,-0.47193504133829345,0.458796791913354,0.08015046157688699,-0.07539508754196192,-0.14476170357003704,1.0547582319786675,0.3240671432478552,-0.3922183762028021,-2.153469309933102,0.8646227635804816,2.465848261523716,0.5444989615513882,1.0544104758940245,0.3238615046091247,-0.39250456234122666,-2.153291787532338,0.8647539153680389,2.46587817577521,0.5445020185570556,-0.001016119432543797,0.00014244301768319068,0.0012264869293138788,-0.00013794575321846977,-6.001160534515832e-05,-4.205946597060737e-05,0.0006509382580884769,0.0,0.0,0.0,0.0,0.0,0.0,0.0,-0.0003477560846429917,-0.0002056386387304654,-0.0002861861384245712,0.00017752240076429615,0.00013115178755729318,2.991425149412308e-05,3.057005667383983e-06,0.001016119432543797,-0.00014244301768319068,-0.0012264869293138788,0.00013794575321846977,6.001160534515832e-05,4.205946597060737e-05,-0.0006509382580884769,0.6291133761405945,34.21371078491211,4.072781085968018,-19.487642288208008,-0.1357932686805725,-1.828616738319397,0.15964071452617645,0
77,0.38001465797424316,-0.6291133761405945,-34.21371078491211,-4.072781085968018,19.487642288208008,0.1357932686805725,1.828616738319397,-0.15964071452617645,0.0,0.0,0.0,0.0,0.0,0.0,0.0,-0.6450416748587234,-0.1332056950528471,-0.47193504133829345,0.458796791913354,0.08015046157688699,-0.07539508754196192,-0.14476170357003704,1.0547582319786675,0.3240671432478552,-0.3922183762028021,-2.153469309933102,0.8646227635804816,2.465848261523716,0.5444989615513882,1.0544104758940245,0.3238615046091247,-0.39250456234122666,-2.153291787532338,0.8647539153680389,2.46587817577521,0.5445020185570556,-0.001016119432543797,0.00014244301768319068,0.0012264869293138788,-0.00013794575321846977,-6.001160534515832e-05,-4.205946597060737e-05,0.0006509382580884769,0.0,0.0,0.0,0.0,0.0,0.0,0.0,-0.0003477560846429917,-0.0002056386387304654,-0.0002861861384245712,0.00017752240076429615,0.00013115178755729318,2.991425149412308e-05,3.057005667383983e-06,0.001016119432543797,-0.00014244301768319068,-0.0012264869293138788,0.00013794575321846977,6.001160534515832e-05,4.205946597060737e-05,-0.0006509382580884769,0.6291133761405945,34.21371078491211,4.072781085968018,-19.487642288208008,-0.1357932686805725,-1.828616738319397,0.15964071452617645,0
78,0.38499903678894043,-0.6291133761405945,-34.21371078491211,-3.9974029064178467,19.459871292114258,0.1357932686805725,1.835025429725647,-0.15231649577617645,0.0,0.0,0.0,0.0,0.0,0.0,0.0,-0.6392419320719116,-0.141859341957554,-0.4663173663624044,0.4655716255370995,0.0799162768437621,-0.07543988393700064,-0.1446875808513624,1.0547582319786675,0.3240671432478386,-0.3922236658269349,-2.153467360250151,0.8646238497032059,2.4658439824606546,0.544498604053753,1.0544104758940245,0.3238615046091247,-0.39250456234122666,-2.153291787532338,0.8647539153680389,2.46587817577521,0.5445020185570556,-0.0003664958745605476,-0.00015330137497936188,-0.0008367998314988958,0.0007671063173552673,-8.685077895545442e-05,-0.0003096449745897563,0.0012269991829067844,0.0,0.0,0.0,0.0,0.0,0.0,0.0,-0.0003477560846429917,-0.00020563863871386756,-0.0002808965142917508,0.0001755727178132105,0.000130065664832979,3.4193314555341914e-05,3.4145033025456684e-06,0.0003664958745605476,0.00015330137497936188,0.0008367998314988958,-0.0007671063173552673,8.685077895545442e-05,0.0003096449745897563,-0.0012269991829067844,0.6291133761405945,34.21371078491211,3.9974029064178467,-19.459871292114258,-0.1357932686805725,-1.835025429725647,0.15231649577617645,0
79,0.39000415802001953,-0.6291133761405945,-34.21371078491211,-3.9974029064178467,19.459871292114258,0.1357932686805725,1.835025429725647,-0.15231649577617645,0.0,0.0,0.0,0.0,0.0,0.0,0.0,-0.6392419320719116,-0.141859341957554,-0.4663173663624044,0.4655716255370995,0.0799162768437621,-0.07543988393700064,-0.1446875808513624,1.0547582319786675,0.3240671432478386,-0.3922236658269349,-2.153467360250151,0.8646238497032059,2.4658439824606546,0.544498604053753,1.0544104758940245,0.3238615046091247,-0.39250456234122666,-2.153291787532338,0.8647539153680389,2.46587817577521,0.5445020185570556,-0.0003664958745605476,-0.00015330137497936188,-0.0008367998314988958,0.0007671063173552673,-8.685077895545442e-05,-0.0003096449745897563,0.0012269991829067844,0.0,0.0,0.0,0.0,0.0,0.0,0.0,-0.0003477560846429917,-0.00020563863871386756,-0.0002808965142917508,0.0001755727178132105,0.000130065664832979,3.4193314555341914e-05,3.4145033025456684e-06,0.0003664958745605476,0.00015330137497936188,0.0008367998314988958,-0.0007671063173552673,8.685077895545442e-05,0.0003096449745897563,-0.0012269991829067844,0.6291133761405945,34.21371078491211,3.9974029064178467,-19.459871292114258,-0.1357932686805725,-1.835025429725647,0.15231649577617645,0
80,0.3949472904205322,-0.6291133761405945,-34.21371078491211,-3.9974029064178467,19.459871292114258,0.1357932686805725,1.835025429725647,-0.15231649577617645,0.0,0.0,0.0,0.0,0.0,0.0,0.0,-0.6392419320719116,-0.141859341957554,-0.4663173663624044,0.4655716255370995,0.0799162768437621,-0.07543988393700064,-0.1446875808513624,1.0547582319786675,0.3240671432478386,-0.3922236658269349,-2.153467360250151,0.8646238497032059,2.4658439824606546,0.544498604053753,1.0544104758940245,0.3238615046091247,-0.39250456234122666,-2.153291787532338,0.8647539153680389,2.46587817577521,0.5445020185570556,-0.0003664958745605476,-0.00015330137497936188,-0.0008367998314988958,0.0007671063173552673,-8.685077895545442e-05,-0.0003096449745897563,0.0012269991829067844,0.0,0.0,0.0,0.0,0.0,0.0,0.0,-0.0003477560846429917,-0.00020563863871386756,-0.0002808965142917508,0.0001755727178132105,0.000130065664832979,3.4193314555341914e-05,3.4145033025456684e-06,0.0003664958745605476,0.00015330137497936188,0.0008367998314988958,-0.0007671063173552673,8.685077895545442e-05,0.0003096449745897563,-0.0012269991829067844,0.6291133761405945,34.21371078491211,3.9974029064178467,-19.459871292114258,-0.1357932686805725,-1.835025429725647,0.15231649577617645,0
