rezayati/contactInterpretation/dataset/franka_main/labeled_data/link7/a1_4.csv
index,time,tau_J0,tau_J1,tau_J2,tau_J3,tau_J4,tau_J5,tau_J6,tau_J_d0,tau_J_d1,tau_J_d2,tau_J_d3,tau_J_d4,tau_J_d5,tau_J_d6,tau_ext0,tau_ext1,tau_ext2,tau_ext3,tau_ext4,tau_ext5,tau_ext6,q0,q1,q2,q3,q4,q5,q6,q_d0,q_d1,q_d2,q_d3,q_d4,q_d5,q_d6,dq0,dq1,dq2,dq3,dq4,dq5,dq6,dq_d0,dq_d1,dq_d2,dq_d3,dq_d4,dq_d5,dq_d6,e0,e1,e2,e3,e4,e5,e6,de0,de1,de2,de3,de4,de5,de6,etau_J0,etau_J1,etau_J2,etau_J3,etau_J4,etau_J5,etau_J6,label
1,0.0,-0.3752071261405945,-19.868005752563477,-0.3475005328655243,19.955781936645508,0.5285544991493225,2.4493441581726074,-0.23471395671367645,0.0,0.0,0.0,0.0,0.0,0.0,0.0,-0.441527403218724,-0.12201950250902614,-0.23890354168124053,0.2054826437493823,-0.05540179896400884,0.06952033248529366,-0.21680624120768122,1.2135170548882401,-0.2201456189076838,-0.007370680318595294,-2.6037628795682473,-0.10895219725303631,2.4682482928039384,0.8264726125316487,1.2134413937687574,-0.2202432315892585,-0.0075118285948192216,-2.6038483821997875,-0.10888392708698907,2.4681821257803174,0.826474908251239,-0.0004944758845887373,-0.00016660014269432742,-0.0014221938525398375,0.0006805799171334772,-0.00010218206057399118,-0.00025268546657647206,0.0010059717415971036,0.0,0.0,0.0,0.0,0.0,0.0,0.0,-7.566111948276166e-05,-9.76126815746825e-05,-0.0001411482762239272,-8.55026315402796e-05,6.827016604724068e-05,-6.616702362105542e-05,2.295719590317269e-06,0.0004944758845887373,0.00016660014269432742,0.0014221938525398375,-0.0006805799171334772,0.00010218206057399118,0.00025268546657647206,-0.0010059717415971036,0.3752071261405945,19.868005752563477,0.3475005328655243,-19.955781936645508,-0.5285544991493225,-2.4493441581726074,0.23471395671367645,0
2,0.0049991607666015625,-0.4267818331718445,-19.868005752563477,-0.3990752398967743,19.983552932739258,0.5285544991493225,2.4365267753601074,-0.22098104655742645,0.0,0.0,0.0,0.0,0.0,0.0,0.0,-0.44839869643225283,-0.12176804383934978,-0.24932021368579613,0.20747176428354216,-0.05457301106028208,0.07010634593510794,-0.21606233477379652,1.2135206741659266,-0.22014775441525347,-0.007367772308541069,-2.60376285957627,-0.10894900338406731,2.46824967787279,0.8264710866527425,1.2134413937687574,-0.2202432315892585,-0.0075118285948192216,-2.6038483821997875,-0.10888392708698907,2.4681821257803174,0.826474908251239,-0.0001315931675023886,0.0007200510815766456,-0.000274695233845594,7.875409014126277e-05,-3.6376051221486225e-05,0.00015248295915094127,2.2510787390230866e-05,0.0,0.0,0.0,0.0,0.0,0.0,0.0,-7.928039716920132e-05,-9.547717400501532e-05,-0.00014405628627815227,-8.552262351768647e-05,6.507629707823426e-05,-6.755209247266691e-05,3.8215984965450644e-06,0.0001315931675023886,-0.0007200510815766456,0.000274695233845594,-7.875409014126277e-05,3.6376051221486225e-05,-0.00015248295915094127,-2.2510787390230866e-05,0.4267818331718445,19.868005752563477,0.3990752398967743,-19.983552932739258,-0.5285544991493225,-2.4365267753601074,0.22098104655742645,0
3,0.009997844696044922,-0.4267818331718445,-19.868005752563477,-0.3990752398967743,19.983552932739258,0.5285544991493225,2.4365267753601074,-0.22098104655742645,0.0,0.0,0.0,0.0,0.0,0.0,0.0,-0.44839869643225283,-0.12176804383934978,-0.24932021368579613,0.20747176428354216,-0.05457301106028208,0.07010634593510794,-0.21606233477379652,1.2135206741659266,-0.22014775441525347,-0.007367772308541069,-2.60376285957627,-0.10894900338406731,2.46824967787279,0.8264710866527425,1.2134413937687574,-0.2202432315892585,-0.0075118285948192216,-2.6038483821997875,-0.10888392708698907,2.4681821257803174,0.826474908251239,-0.0001315931675023886,0.0007200510815766456,-0.000274695233845594,7.875409014126277e-05,-3.6376051221486225e-05,0.00015248295915094127,2.2510787390230866e-05,0.0,0.0,0.0,0.0,0.0,0.0,0.0,-7.928039716920132e-05,-9.547717400501532e-05,-0.00014405628627815227,-8.552262351768647e-05,6.507629707823426e-05,-6.755209247266691e-05,3.8215984965450644e-06,0.0001315931675023886,-0.0007200510815766456,0.000274695233845594,-7.875409014126277e-05,3.6376051221486225e-05,-0.00015248295915094127,-2.2510787390230866e-05,0.4267818331718445,19.868005752563477,0.3990752398967743,-19.983552932739258,-0.5285544991493225,-2.4365267753601074,0.22098104655742645,0
4,0.014997005462646484,-0.4267818331718445,-19.844202041625977,-0.4228789508342743,19.983552932739258,0.5340476632118225,2.4365267753601074,-0.22098104655742645,0.0,0.0,0.0,0.0,0.0,0.0,0.0,-0.4365874909140413,-0.12477841295513471,-0.2329756947845626,0.21131691418221352,-0.055044350446063116,0.07068864794747878,-0.2155769680113614,1.2135206741659266,-0.22014942518869843,-0.007366100794266543,-2.6037626031588923,-0.10895243957556885,2.468249677711064,0.8264710866527425,1.2134413937687574,-0.2202432315892585,-0.0075118285948192216,-2.6038483821997875,-0.10888392708698907,2.4681821257803174,0.826474908251239,0.0004234215300990798,-0.0002401281382095362,0.0004776708593908924,0.0003154807684930397,-0.00017285165681482954,0.00015757023733630287,3.91433268749035e-05,0.0,0.0,0.0,0.0,0.0,0.0,0.0,-7.928039716920132e-05,-9.380640056005918e-05,-0.00014572780055267884,-8.577904089523969e-05,6.851248857978054e-05,-6.755193074647892e-05,3.8215984965450644e-06,-0.0004234215300990798,0.0002401281382095362,-0.0004776708593908924,-0.0003154807684930397,0.00017285165681482954,-0.00015757023733630287,-3.91433268749035e-05,0.4267818331718445,19.844202041625977,0.4228789508342743,-19.983552932739258,-0.5340476632118225,-2.4365267753601074,0.22098104655742645,0
5,0.01999950408935547,-0.4267818331718445,-19.844202041625977,-0.4228789508342743,19.983552932739258,0.5340476632118225,2.4365267753601074,-0.22098104655742645,0.0,0.0,0.0,0.0,0.0,0.0,0.0,-0.4365874909140413,-0.12477841295513471,-0.2329756947845626,0.21131691418221352,-0.055044350446063116,0.07068864794747878,-0.2155769680113614,1.2135206741659266,-0.22014942518869843,-0.007366100794266543,-2.6037626031588923,-0.10895243957556885,2.468249677711064,0.8264710866527425,1.2134413937687574,-0.2202432315892585,-0.0075118285948192216,-2.6038483821997875,-0.10888392708698907,2.4681821257803174,0.826474908251239,0.0004234215300990798,-0.0002401281382095362,0.0004776708593908924,0.0003154807684930397,-0.00017285165681482954,0.00015757023733630287,3.91433268749035e-05,0.0,0.0,0.0,0.0,0.0,0.0,0.0,-7.928039716920132e-05,-9.380640056005918e-05,-0.00014572780055267884,-8.577904089523969e-05,6.851248857978054e-05,-6.755193074647892e-05,3.8215984965450644e-06,-0.0004234215300990798,0.0002401281382095362,-0.0004776708593908924,-0.0003154807684930397,0.00017285165681482954,-0.00015757023733630287,-3.91433268749035e-05,0.4267818331718445,19.844202041625977,0.4228789508342743,-19.983552932739258,-0.5340476632118225,-2.4365267753601074,0.22098104655742645,0
6,0.02500605583190918,-0.4505855441093445,-19.891809463500977,-0.4228789508342743,20.007356643676758,0.5285544991493225,2.4493441581726074,-0.20083944499492645,0.0,0.0,0.0,0.0,0.0,0.0,0.0,-0.4357682772614004,-0.12481086573684515,-0.23007660286738585,0.21260835967450228,-0.05455667053939696,0.07048214059535567,-0.21660668926069876,1.2135223446017818,-0.22014608431698982,-0.007366101118990772,-2.603764356009599,-0.10895219725162653,2.4682482535574173,0.8264688486970133,1.2134413937687574,-0.2202432315892585,-0.0075118285948192216,-2.6038483821997875,-0.10888392708698907,2.4681821257803174,0.826474908251239,0.0004958598256463529,0.0005089243354886175,-0.00022014510071394718,-0.00029575383284270566,0.0001572516185773062,-0.0002629113879117569,-0.0008484380341485331,0.0,0.0,0.0,0.0,0.0,0.0,0.0,-8.095083302439576e-05,-9.71472722686717e-05,-0.00014572747582844957,-8.402619018843538e-05,6.827016463745172e-05,-6.612777709991136e-05,6.0595542257235735e-06,-0.0004958598256463529,-0.0005089243354886175,0.00022014510071394718,0.00029575383284270566,-0.0001572516185773062,0.0002629113879117569,0.0008484380341485331,0.4505855441093445,19.891809463500977,0.4228789508342743,-20.007356643676758,-0.5285544991493225,-2.4493441581726074,0.20083944499492645,0
7,0.03001117706298828,-0.4505855441093445,-19.891809463500977,-0.4228789508342743,20.007356643676758,0.5285544991493225,2.4493441581726074,-0.20083944499492645,0.0,0.0,0.0,0.0,0.0,0.0,0.0,-0.4357682772614004,-0.12481086573684515,-0.23007660286738585,0.21260835967450228,-0.05455667053939696,0.07048214059535567,-0.21660668926069876,1.2135223446017818,-0.22014608431698982,-0.007366101118990772,-2.603764356009599,-0.10895219725162653,2.4682482535574173,0.8264688486970133,1.2134413937687574,-0.2202432315892585,-0.0075118285948192216,-2.6038483821997875,-0.10888392708698907,2.4681821257803174,0.826474908251239,0.0004958598256463529,0.0005089243354886175,-0.00022014510071394718,-0.00029575383284270566,0.0001572516185773062,-0.0002629113879117569,-0.0008484380341485331,0.0,0.0,0.0,0.0,0.0,0.0,0.0,-8.095083302439576e-05,-9.71472722686717e-05,-0.00014572747582844957,-8.402619018843538e-05,6.827016463745172e-05,-6.612777709991136e-05,6.0595542257235735e-06,-0.0004958598256463529,-0.0005089243354886175,0.00022014510071394718,0.00029575383284270566,-0.0001572516185773062,0.0002629113879117569,0.0008484380341485331,0.4505855441093445,19.891809463500977,0.4228789508342743,-20.007356643676758,-0.5285544991493225,-2.4493441581726074,0.20083944499492645,0
8,0.03500080108642578,-0.4267818331718445,-19.868005752563477,-0.4466826617717743,19.983552932739258,0.5340476632118225,2.4429354667663574,-0.20083944499492645,0.0,0.0,0.0,0.0,0.0,0.0,0.0,-0.42949737436148,-0.11806470768512682,-0.22585887153601603,0.20705832033253957,-0.0545350360937024,0.07009514808823183,-0.21804042857734496,1.2135206741659266,-0.22014775475284507,-0.007363720497934054,-2.60376260315791,-0.1089524527368722,2.46824896563424,0.8264688486970133,1.2134413937687574,-0.2202432315892585,-0.0075118285948192216,-2.6038483821997875,-0.10888392708698907,2.4681821257803174,0.826474908251239,-0.00011679634755522668,0.00022591535439940396,0.0008674682685329709,4.7651818785773396e-05,-9.849980399839498e-05,8.227562091179013e-05,-0.0005366730465178158,0.0,0.0,0.0,0.0,0.0,0.0,0.0,-7.928039716920132e-05,-9.547683641342175e-05,-0.00014810809688516752,-8.577904187756502e-05,6.852564988311938e-05,-6.683985392275105e-05,6.0595542257235735e-06,0.00011679634755522668,-0.00022591535439940396,-0.0008674682685329709,-4.7651818785773396e-05,9.849980399839498e-05,-8.227562091179013e-05,0.0005366730465178158,0.4267818331718445,19.868005752563477,0.4466826617717743,-19.983552932739258,-0.5340476632118225,-2.4429354667663574,0.20083944499492645,0
9,0.03996706008911133,-0.4267818331718445,-19.868005752563477,-0.4466826617717743,19.983552932739258,0.5340476632118225,2.4429354667663574,-0.20083944499492645,0.0,0.0,0.0,0.0,0.0,0.0,0.0,-0.42949737436148,-0.11806470768512682,-0.22585887153601603,0.20705832033253957,-0.0545350360937024,0.07009514808823183,-0.21804042857734496,1.2135206741659266,-0.22014775475284507,-0.007363720497934054,-2.60376260315791,-0.1089524527368722,2.46824896563424,0.8264688486970133,1.2134413937687574,-0.2202432315892585,-0.0075118285948192216,-2.6038483821997875,-0.10888392708698907,2.4681821257803174,0.826474908251239,-0.00011679634755522668,0.00022591535439940396,0.0008674682685329709,4.7651818785773396e-05,-9.849980399839498e-05,8.227562091179013e-05,-0.0005366730465178158,0.0,0.0,0.0,0.0,0.0,0.0,0.0,-7.928039716920132e-05,-9.547683641342175e-05,-0.00014810809688516752,-8.577904187756502e-05,6.852564988311938e-05,-6.683985392275105e-05,6.0595542257235735e-06,0.00011679634755522668,-0.00022591535439940396,-0.0008674682685329709,-4.7651818785773396e-05,9.849980399839498e-05,-8.227562091179013e-05,0.0005366730465178158,0.4267818331718445,19.868005752563477,0.4466826617717743,-19.983552932739258,-0.5340476632118225,-2.4429354667663574,0.20083944499492645,0
10,0.04500436782836914,-0.4267818331718445,-19.891809463500977,-0.4466826617717743,19.983552932739258,0.5340476632118225,2.4429354667663574,-0.24844686686992645,0.0,0.0,0.0,0.0,0.0,0.0,0.0,-0.42511798721229005,-0.12398808756258571,-0.2187278878293762,0.21030683273082407,-0.05488208965914254,0.07136233583173804,-0.21841908351238412,1.2135206741659266,-0.22014537237262166,-0.0073639569336769635,-2.603762603157445,-0.10895268769117214,2.46824943658452,0.826474138410555,1.2134413937687574,-0.2202432315892585,-0.0075118285948192216,-2.6038483821997875,-0.10888392708698907,2.4681821257803174,0.826474908251239,0.00028445325869124485,0.0005682499247730443,0.001420729422744738,1.978740859066263e-05,-0.00013827924995228282,-6.449067494014794e-06,0.0013959464745635524,0.0,0.0,0.0,0.0,0.0,0.0,0.0,-7.928039716920132e-05,-9.785921663682529e-05,-0.00014787166114225807,-8.577904234252642e-05,6.876060418306573e-05,-6.731080420241398e-05,7.698406840894734e-07,-0.00028445325869124485,-0.0005682499247730443,-0.001420729422744738,-1.978740859066263e-05,0.00013827924995228282,6.449067494014794e-06,-0.0013959464745635524,0.4267818331718445,19.891809463500977,0.4466826617717743,-19.983552932739258,-0.5340476632118225,-2.4429354667663574,0.24844686686992645,0
11,0.04999542236328125,-0.4267818331718445,-19.891809463500977,-0.4466826617717743,19.983552932739258,0.5340476632118225,2.4429354667663574,-0.24844686686992645,0.0,0.0,0.0,0.0,0.0,0.0,0.0,-0.42511798721229005,-0.12398808756258571,-0.2187278878293762,0.21030683273082407,-0.05488208965914254,0.07136233583173804,-0.21841908351238412,1.2135206741659266,-0.22014537237262166,-0.0073639569336769635,-2.603762603157445,-0.10895268769117214,2.46824943658452,0.826474138410555,1.2134413937687574,-0.2202432315892585,-0.0075118285948192216,-2.6038483821997875,-0.10888392708698907,2.4681821257803174,0.826474908251239,0.00028445325869124485,0.0005682499247730443,0.001420729422744738,1.978740859066263e-05,-0.00013827924995228282,-6.449067494014794e-06,0.0013959464745635524,0.0,0.0,0.0,0.0,0.0,0.0,0.0,-7.928039716920132e-05,-9.785921663682529e-05,-0.00014787166114225807,-8.577904234252642e-05,6.876060418306573e-05,-6.731080420241398e-05,7.698406840894734e-07,-0.00028445325869124485,-0.0005682499247730443,-0.001420729422744738,-1.978740859066263e-05,0.00013827924995228282,6.449067494014794e-06,-0.0013959464745635524,0.4267818331718445,19.891809463500977,0.4466826617717743,-19.983552932739258,-0.5340476632118225,-2.4429354667663574,0.24844686686992645,0
12,0.05499529838562012,-0.4267818331718445,-19.891809463500977,-0.4466826617717743,19.983552932739258,0.5340476632118225,2.4429354667663574,-0.24844686686992645,0.0,0.0,0.0,0.0,0.0,0.0,0.0,-0.42511798721229005,-0.12398808756258571,-0.2187278878293762,0.21030683273082407,-0.05488208965914254,0.07136233583173804,-0.21841908351238412,1.2135206741659266,-0.22014537237262166,-0.0073639569336769635,-2.603762603157445,-0.10895268769117214,2.46824943658452,0.826474138410555,1.2134413937687574,-0.2202432315892585,-0.0075118285948192216,-2.6038483821997875,-0.10888392708698907,2.4681821257803174,0.826474908251239,0.00028445325869124485,0.0005682499247730443,0.001420729422744738,1.978740859066263e-05,-0.00013827924995228282,-6.449067494014794e-06,0.0013959464745635524,0.0,0.0,0.0,0.0,0.0,0.0,0.0,-7.928039716920132e-05,-9.785921663682529e-05,-0.00014787166114225807,-8.577904234252642e-05,6.876060418306573e-05,-6.731080420241398e-05,7.698406840894734e-07,-0.00028445325869124485,-0.0005682499247730443,-0.001420729422744738,-1.978740859066263e-05,0.00013827924995228282,6.449067494014794e-06,-0.0013959464745635524,0.4267818331718445,19.891809463500977,0.4466826617717743,-19.983552932739258,-0.5340476632118225,-2.4429354667663574,0.24844686686992645,0
13,0.059996604919433594,-0.4267818331718445,-19.891809463500977,-0.4466826617717743,19.983552932739258,0.5340476632118225,2.4429354667663574,-0.24844686686992645,0.0,0.0,0.0,0.0,0.0,0.0,0.0,-0.42511798721229005,-0.12398808756258571,-0.2187278878293762,0.21030683273082407,-0.05488208965914254,0.07136233583173804,-0.21841908351238412,1.2135206741659266,-0.22014537237262166,-0.0073639569336769635,-2.603762603157445,-0.10895268769117214,2.46824943658452,0.826474138410555,1.2134413937687574,-0.2202432315892585,-0.0075118285948192216,-2.6038483821997875,-0.10888392708698907,2.4681821257803174,0.826474908251239,0.00028445325869124485,0.0005682499247730443,0.001420729422744738,1.978740859066263e-05,-0.00013827924995228282,-6.449067494014794e-06,0.0013959464745635524,0.0,0.0,0.0,0.0,0.0,0.0,0.0,-7.928039716920132e-05,-9.785921663682529e-05,-0.00014787166114225807,-8.577904234252642e-05,6.876060418306573e-05,-6.731080420241398e-05,7.698406840894734e-07,-0.00028445325869124485,-0.0005682499247730443,-0.001420729422744738,-1.978740859066263e-05,0.00013827924995228282,6.449067494014794e-06,-0.0013959464745635524,0.4267818331718445,19.891809463500977,0.4466826617717743,-19.983552932739258,-0.5340476632118225,-2.4429354667663574,0.24844686686992645,0
14,0.06495189666748047,-0.4505855441093445,-19.844202041625977,-0.4466826617717743,19.983552932739258,0.5404563546180725,2.4429354667663574,-0.20724813640117645,0.0,0.0,0.0,0.0,0.0,0.0,0.0,-0.4324909505896884,-0.1163717691912444,-0.22563223021551895,0.2041301102785408,-0.05444788480771506,0.06988553249780483,-0.2186684310796667,1.2135223446017818,-0.2201487122637092,-0.0073637204952597245,-2.603762603157445,-0.10895350653813869,2.4682489656368984,0.8264695607738363,1.2134413937687574,-0.2202432315892585,-0.0075118285948192216,-2.6038483821997875,-0.10888392708698907,2.4681821257803174,0.826474908251239,0.00022822837746715798,-0.00022645619180301083,0.00032332277263050435,-0.0003455474140902812,-0.000440212783528923,0.00012097681956864315,-0.00029048499364780025,0.0,0.0,0.0,0.0,0.0,0.0,0.0,-8.095083302439576e-05,-9.45193255492971e-05,-0.00014810809955949703,-8.577904234252642e-05,6.957945114961783e-05,-6.683985658106906e-05,5.34747740277286e-06,-0.00022822837746715798,0.00022645619180301083,-0.00032332277263050435,0.0003455474140902812,0.000440212783528923,-0.00012097681956864315,0.00029048499364780025,0.4505855441093445,19.844202041625977,0.4466826617717743,-19.983552932739258,-0.5404563546180725,-2.4429354667663574,0.20724813640117645,0
15,0.07000327110290527,-0.4505855441093445,-19.844202041625977,-0.4466826617717743,19.983552932739258,0.5404563546180725,2.4429354667663574,-0.20724813640117645,0.0,0.0,0.0,0.0,0.0,0.0,0.0,-0.4324909505896884,-0.1163717691912444,-0.22563223021551895,0.2041301102785408,-0.05444788480771506,0.06988553249780483,-0.2186684310796667,1.2135223446017818,-0.2201487122637092,-0.0073637204952597245,-2.603762603157445,-0.10895350653813869,2.4682489656368984,0.8264695607738363,1.2134413937687574,-0.2202432315892585,-0.0075118285948192216,-2.6038483821997875,-0.10888392708698907,2.4681821257803174,0.826474908251239,0.00022822837746715798,-0.00022645619180301083,0.00032332277263050435,-0.0003455474140902812,-0.000440212783528923,0.00012097681956864315,-0.00029048499364780025,0.0,0.0,0.0,0.0,0.0,0.0,0.0,-8.095083302439576e-05,-9.45193255492971e-05,-0.00014810809955949703,-8.577904234252642e-05,6.957945114961783e-05,-6.683985658106906e-05,5.34747740277286e-06,-0.00022822837746715798,0.00022645619180301083,-0.00032332277263050435,0.0003455474140902812,0.000440212783528923,-0.00012097681956864315,0.00029048499364780025,0.4505855441093445,19.844202041625977,0.4466826617717743,-19.983552932739258,-0.5404563546180725,-2.4429354667663574,0.20724813640117645,0
16,0.07500147819519043,-0.5021602511405945,-19.868005752563477,-0.4704863727092743,19.983552932739258,0.5340476632118225,2.4493441581726074,-0.24112264811992645,0.0,0.0,0.0,0.0,0.0,0.0,0.0,-0.43567225524508113,-0.12589490415584192,-0.2290927649475252,0.214062019719992,-0.054068117571042996,0.07178664531733928,-0.21833013145118776,1.2135259638794682,-0.2201477547407716,-0.007364972306196159,-2.603762612653973,-0.10895280614468021,2.4682482535574173,0.8264733246084717,1.2134413937687574,-0.2202432315892585,-0.0075118285948192216,-2.6038483821997875,-0.10888392708698907,2.4681821257803174,0.826474908251239,0.0011485251597232442,-0.000145485142172486,0.00042267131252550207,0.0005083861641047528,-2.9734817799099616e-05,-0.00010133283623631153,0.0013479813564273855,0.0,0.0,0.0,0.0,0.0,0.0,0.0,-8.457011071083542e-05,-9.54768484868751e-05,-0.00014685628862306285,-8.576954581451801e-05,6.887905769113745e-05,-6.612777709991136e-05,1.5836427673665554e-06,-0.0011485251597232442,0.000145485142172486,-0.00042267131252550207,-0.0005083861641047528,2.9734817799099616e-05,0.00010133283623631153,-0.0013479813564273855,0.5021602511405945,19.868005752563477,0.4704863727092743,-19.983552932739258,-0.5340476632118225,-2.4493441581726074,0.24112264811992645,0
17,0.08002424240112305,-0.5021602511405945,-19.868005752563477,-0.4704863727092743,19.983552932739258,0.5340476632118225,2.4493441581726074,-0.24112264811992645,0.0,0.0,0.0,0.0,0.0,0.0,0.0,-0.43567225524508113,-0.12589490415584192,-0.2290927649475252,0.214062019719992,-0.054068117571042996,0.07178664531733928,-0.21833013145118776,1.2135259638794682,-0.2201477547407716,-0.007364972306196159,-2.603762612653973,-0.10895280614468021,2.4682482535574173,0.8264733246084717,1.2134413937687574,-0.2202432315892585,-0.0075118285948192216,-2.6038483821997875,-0.10888392708698907,2.4681821257803174,0.826474908251239,0.0011485251597232442,-0.000145485142172486,0.00042267131252550207,0.0005083861641047528,-2.9734817799099616e-05,-0.00010133283623631153,0.0013479813564273855,0.0,0.0,0.0,0.0,0.0,0.0,0.0,-8.457011071083542e-05,-9.54768484868751e-05,-0.00014685628862306285,-8.576954581451801e-05,6.887905769113745e-05,-6.612777709991136e-05,1.5836427673665554e-06,-0.0011485251597232442,0.000145485142172486,-0.00042267131252550207,-0.0005083861641047528,2.9734817799099616e-05,0.00010133283623631153,-0.0013479813564273855,0.5021602511405945,19.868005752563477,0.4704863727092743,-19.983552932739258,-0.5340476632118225,-2.4493441581726074,0.24112264811992645,0
18,0.08500289916992188,-0.4505855441093445,-19.891809463500977,-0.4704863727092743,20.054964065551758,0.5285544991493225,2.4429354667663574,-0.20724813640117645,0.0,0.0,0.0,0.0,0.0,0.0,0.0,-0.43894283100654435,-0.11743050414645573,-0.23240258873644096,0.20986730391307565,-0.054465424564915633,0.07157576559788019,-0.21756822620791622,1.2135223446017818,-0.2201460843169898,-0.007362076041992616,-2.6037698675163616,-0.10895219287261003,2.4682489670877903,0.8264695607738363,1.2134413937687574,-0.2202432315892585,-0.0075118285948192216,-2.6038483821997875,-0.10888392708698907,2.4681821257803174,0.826474908251239,-0.0003587532325969101,0.0010686436820942537,0.00023447292024752011,-0.0016838068271936297,0.0001203490253510877,-3.714852340114538e-05,-0.000516156029485955,0.0,0.0,0.0,0.0,0.0,0.0,0.0,-8.095083302439576e-05,-9.714727226869946e-05,-0.0001497525528266052,-7.851468342590096e-05,6.826578562095509e-05,-6.684130747292016e-05,5.34747740277286e-06,0.0003587532325969101,-0.0010686436820942537,-0.00023447292024752011,0.0016838068271936297,-0.0001203490253510877,3.714852340114538e-05,0.000516156029485955,0.4505855441093445,19.891809463500977,0.4704863727092743,-20.054964065551758,-0.5285544991493225,-2.4429354667663574,0.20724813640117645,0
19,0.0899956226348877,-0.4505855441093445,-19.891809463500977,-0.4704863727092743,20.054964065551758,0.5285544991493225,2.4429354667663574,-0.20724813640117645,0.0,0.0,0.0,0.0,0.0,0.0,0.0,-0.43894283100654435,-0.11743050414645573,-0.23240258873644096,0.20986730391307565,-0.054465424564915633,0.07157576559788019,-0.21756822620791622,1.2135223446017818,-0.2201460843169898,-0.007362076041992616,-2.6037698675163616,-0.10895219287261003,2.4682489670877903,0.8264695607738363,1.2134413937687574,-0.2202432315892585,-0.0075118285948192216,-2.6038483821997875,-0.10888392708698907,2.4681821257803174,0.826474908251239,-0.0003587532325969101,0.0010686436820942537,0.00023447292024752011,-0.0016838068271936297,0.0001203490253510877,-3.714852340114538e-05,-0.000516156029485955,0.0,0.0,0.0,0.0,0.0,0.0,0.0,-8.095083302439576e-05,-9.714727226869946e-05,-0.0001497525528266052,-7.851468342590096e-05,6.826578562095509e-05,-6.684130747292016e-05,5.34747740277286e-06,0.0003587532325969101,-0.0010686436820942537,-0.00023447292024752011,0.0016838068271936297,-0.0001203490253510877,3.714852340114538e-05,0.000516156029485955,0.4505855441093445,19.891809463500977,0.4704863727092743,-20.054964065551758,-0.5285544991493225,-2.4429354667663574,0.20724813640117645,0
20,0.09494233131408691,-0.4783565402030945,-19.844202041625977,-0.4704863727092743,19.983552932739258,0.5285544991493225,2.4429354667663574,-0.20083944499492645,0.0,0.0,0.0,0.0,0.0,0.0,0.0,-0.44347170099453354,-0.119856887166249,-0.23714167637595196,0.21061899845911683,-0.054451329938534215,0.07109721225538551,-0.21757197052589972,1.2135242934436128,-0.22014942518870034,-0.007362058501501701,-2.603764828435672,-0.10895219238575066,2.4682489656342645,0.8264699083351427,1.2134413937687574,-0.2202432315892585,-0.0075118285948192216,-2.6038483821997875,-0.10888392708698907,2.4681821257803174,0.826474908251239,0.0002168655497032299,-0.0005566961599765709,0.0008230885380996838,-0.0003405388474338403,9.703681442673905e-05,-4.576930277086723e-05,-0.0006567390773094383,0.0,0.0,0.0,0.0,0.0,0.0,0.0,-8.289967485541894e-05,-9.380640055814404e-05,-0.00014977009331752084,-8.355376411550708e-05,6.826529876158283e-05,-6.683985394717595e-05,4.99991609637096e-06,-0.0002168655497032299,0.0005566961599765709,-0.0008230885380996838,0.0003405388474338403,-9.703681442673905e-05,4.576930277086723e-05,0.0006567390773094383,0.4783565402030945,19.844202041625977,0.4704863727092743,-19.983552932739258,-0.5285544991493225,-2.4429354667663574,0.20083944499492645,0
21,0.10001111030578613,-0.4783565402030945,-19.844202041625977,-0.4704863727092743,19.983552932739258,0.5285544991493225,2.4429354667663574,-0.20083944499492645,0.0,0.0,0.0,0.0,0.0,0.0,0.0,-0.44347170099453354,-0.119856887166249,-0.23714167637595196,0.21061899845911683,-0.054451329938534215,0.07109721225538551,-0.21757197052589972,1.2135242934436128,-0.22014942518870034,-0.007362058501501701,-2.603764828435672,-0.10895219238575066,2.4682489656342645,0.8264699083351427,1.2134413937687574,-0.2202432315892585,-0.0075118285948192216,-2.6038483821997875,-0.10888392708698907,2.4681821257803174,0.826474908251239,0.0002168655497032299,-0.0005566961599765709,0.0008230885380996838,-0.0003405388474338403,9.703681442673905e-05,-4.576930277086723e-05,-0.0006567390773094383,0.0,0.0,0.0,0.0,0.0,0.0,0.0,-8.289967485541894e-05,-9.380640055814404e-05,-0.00014977009331752084,-8.355376411550708e-05,6.826529876158283e-05,-6.683985394717595e-05,4.99991609637096e-06,-0.0002168655497032299,0.0005566961599765709,-0.0008230885380996838,0.0003405388474338403,-9.703681442673905e-05,4.576930277086723e-05,0.0006567390773094383,0.4783565402030945,19.844202041625977,0.4704863727092743,-19.983552932739258,-0.5285544991493225,-2.4429354667663574,0.20083944499492645,0
22,0.1050119400024414,-0.3514034152030945,-19.868005752563477,-0.3990752398967743,20.007356643676758,0.5285544991493225,2.4429354667663574,-0.20083944499492645,0.0,0.0,0.0,0.0,0.0,0.0,0.0,-0.4419835445531715,-0.12120485522645412,-0.23354971872434285,0.21710735159067726,-0.05475744442023085,0.0721528047585405,-0.21807931812528117,1.2135153844523847,-0.22014775475284507,-0.007367064937683695,-2.603765015344178,-0.1089521972536949,2.468248983076843,0.8264688486990072,1.2134413937687574,-0.2202432315892585,-0.0075118285948192216,-2.6038483821997875,-0.10888392708698907,2.4681821257803174,0.826474908251239,-0.0017227392432385277,0.00019790953400652118,-0.0004020107103522537,7.3519285969961885e-06,8.792971063916365e-05,0.00012041092220680526,-0.0010331001718222957,0.0,0.0,0.0,0.0,0.0,0.0,0.0,-7.399068362734518e-05,-9.547683641342175e-05,-0.00014476365713552656,-8.33668556095013e-05,6.827016670582498e-05,-6.685729652566863e-05,6.0595522318740436e-06,0.0017227392432385277,-0.00019790953400652118,0.0004020107103522537,-7.3519285969961885e-06,-8.792971063916365e-05,-0.00012041092220680526,0.0010331001718222957,0.3514034152030945,19.868005752563477,0.3990752398967743,-20.007356643676758,-0.5285544991493225,-2.4429354667663574,0.20083944499492645,0
23,0.10999870300292969,-0.3514034152030945,-19.868005752563477,-0.3990752398967743,20.007356643676758,0.5285544991493225,2.4429354667663574,-0.20083944499492645,0.0,0.0,0.0,0.0,0.0,0.0,0.0,-0.4419835445531715,-0.12120485522645412,-0.23354971872434285,0.21710735159067726,-0.05475744442023085,0.0721528047585405,-0.21807931812528117,1.2135153844523847,-0.22014775475284507,-0.007367064937683695,-2.603765015344178,-0.1089521972536949,2.468248983076843,0.8264688486990072,1.2134413937687574,-0.2202432315892585,-0.0075118285948192216,-2.6038483821997875,-0.10888392708698907,2.4681821257803174,0.826474908251239,-0.0017227392432385277,0.00019790953400652118,-0.0004020107103522537,7.3519285969961885e-06,8.792971063916365e-05,0.00012041092220680526,-0.0010331001718222957,0.0,0.0,0.0,0.0,0.0,0.0,0.0,-7.399068362734518e-05,-9.547683641342175e-05,-0.00014476365713552656,-8.33668556095013e-05,6.827016670582498e-05,-6.685729652566863e-05,6.0595522318740436e-06,0.0017227392432385277,-0.00019790953400652118,0.0004020107103522537,-7.3519285969961885e-06,-8.792971063916365e-05,-0.00012041092220680526,0.0010331001718222957,0.3514034152030945,19.868005752563477,0.3990752398967743,-20.007356643676758,-0.5285544991493225,-2.4429354667663574,0.20083944499492645,0
24,0.11500263214111328,-0.3514034152030945,-19.844202041625977,-0.3713042438030243,20.007356643676758,0.5221458077430725,2.4429354667663574,-0.17337362468242645,0.0,0.0,0.0,0.0,0.0,0.0,0.0,-0.43403526160914707,-0.10965051145472282,-0.2303968672104895,0.2039168034067932,-0.05509938956526228,0.0701959145441807,-0.21886801899027333,1.2135153844523847,-0.22014942518870034,-0.007369959718933766,-2.603764276649943,-0.10894829136133193,2.4682489656343383,0.8264658012998516,1.2134413937687574,-0.2202432315892585,-0.0075118285948192216,-2.6038483821997875,-0.10888392708698907,2.4681821257803174,0.826474908251239,-0.0004616427260187958,-0.00012971776441138473,-0.0007410380372225732,-0.001246124632243444,0.0002886814006296292,4.503791603531928e-05,-0.0017253001311065507,0.0,0.0,0.0,0.0,0.0,0.0,0.0,-7.399068362734518e-05,-9.380640055814404e-05,-0.00014186887588545517,-8.410554984461527e-05,6.43642743428513e-05,-6.683985402089476e-05,9.106951387449769e-06,0.0004616427260187958,0.00012971776441138473,0.0007410380372225732,0.001246124632243444,-0.0002886814006296292,-4.503791603531928e-05,0.0017253001311065507,0.3514034152030945,19.844202041625977,0.3713042438030243,-20.007356643676758,-0.5221458077430725,-2.4429354667663574,0.17337362468242645,0
25,0.12001681327819824,-0.3514034152030945,-19.844202041625977,-0.3713042438030243,20.007356643676758,0.5221458077430725,2.4429354667663574,-0.17337362468242645,0.0,0.0,0.0,0.0,0.0,0.0,0.0,-0.43403526160914707,-0.10965051145472282,-0.2303968672104895,0.2039168034067932,-0.05509938956526228,0.0701959145441807,-0.21886801899027333,1.2135153844523847,-0.22014942518870034,-0.007369959718933766,-2.603764276649943,-0.10894829136133193,2.4682489656343383,0.8264658012998516,1.2134413937687574,-0.2202432315892585,-0.0075118285948192216,-2.6038483821997875,-0.10888392708698907,2.4681821257803174,0.826474908251239,-0.0004616427260187958,-0.00012971776441138473,-0.0007410380372225732,-0.001246124632243444,0.0002886814006296292,4.503791603531928e-05,-0.0017253001311065507,0.0,0.0,0.0,0.0,0.0,0.0,0.0,-7.399068362734518e-05,-9.380640055814404e-05,-0.00014186887588545517,-8.410554984461527e-05,6.43642743428513e-05,-6.683985402089476e-05,9.106951387449769e-06,0.0004616427260187958,0.00012971776441138473,0.0007410380372225732,0.001246124632243444,-0.0002886814006296292,-4.503791603531928e-05,0.0017253001311065507,0.3514034152030945,19.844202041625977,0.3713042438030243,-20.007356643676758,-0.5221458077430725,-2.4429354667663574,0.17337362468242645,0
26,0.12499523162841797,-0.4505855441093445,-19.868005752563477,-0.3990752398967743,19.983552932739258,0.5404563546180725,2.4566683769226074,-0.23471395671367645,0.0,0.0,0.0,0.0,0.0,0.0,0.0,-0.4362673662451815,-0.12255064398612325,-0.23781702980884833,0.2110414187789423,-0.054968692245761404,0.07161256335879575,-0.2178008281830649,1.2135223446017818,-0.22014775475284507,-0.007367090271993775,-2.603762603157462,-0.1089534802342387,2.468247439755334,0.826472612693179,1.2134413937687574,-0.2202432315892585,-0.0075118285948192216,-2.6038483821997875,-0.10888392708698907,2.4681821257803174,0.826474908251239,0.00048272010184689703,-0.0002188910350655182,-0.00040288093185810543,-0.00011666169712898473,-0.00041728855001131414,-0.00040289183683073047,0.00044419066829169435,0.0,0.0,0.0,0.0,0.0,0.0,0.0,-8.095083302439576e-05,-9.547683641342175e-05,-0.00014473832282544622,-8.577904232565103e-05,6.955314724962913e-05,-6.531397501641223e-05,2.2955580600836356e-06,-0.00048272010184689703,0.0002188910350655182,0.00040288093185810543,0.00011666169712898473,0.00041728855001131414,0.00040289183683073047,-0.00044419066829169435,0.4505855441093445,19.868005752563477,0.3990752398967743,-19.983552932739258,-0.5404563546180725,-2.4566683769226074,0.23471395671367645,0
27,0.12994742393493652,-0.4505855441093445,-19.868005752563477,-0.3990752398967743,19.983552932739258,0.5404563546180725,2.4566683769226074,-0.23471395671367645,0.0,0.0,0.0,0.0,0.0,0.0,0.0,-0.4362673662451815,-0.12255064398612325,-0.23781702980884833,0.2110414187789423,-0.054968692245761404,0.07161256335879575,-0.2178008281830649,1.2135223446017818,-0.22014775475284507,-0.007367090271993775,-2.603762603157462,-0.1089534802342387,2.468247439755334,0.826472612693179,1.2134413937687574,-0.2202432315892585,-0.0075118285948192216,-2.6038483821997875,-0.10888392708698907,2.4681821257803174,0.826474908251239,0.00048272010184689703,-0.0002188910350655182,-0.00040288093185810543,-0.00011666169712898473,-0.00041728855001131414,-0.00040289183683073047,0.00044419066829169435,0.0,0.0,0.0,0.0,0.0,0.0,0.0,-8.095083302439576e-05,-9.547683641342175e-05,-0.00014473832282544622,-8.577904232565103e-05,6.955314724962913e-05,-6.531397501641223e-05,2.2955580600836356e-06,-0.00048272010184689703,0.0002188910350655182,0.00040288093185810543,0.00011666169712898473,0.00041728855001131414,0.00040289183683073047,-0.00044419066829169435,0.4505855441093445,19.868005752563477,0.3990752398967743,-19.983552932739258,-0.5404563546180725,-2.4566683769226074,0.23471395671367645,0
28,0.13500189781188965,-0.4505855441093445,-19.868005752563477,-0.4228789508342743,20.054964065551758,0.5404563546180725,2.4429354667663574,-0.24112264811992645,0.0,0.0,0.0,0.0,0.0,0.0,0.0,-0.4297968948972901,-0.1252885855421348,-0.22589199269737192,0.21205165844533497,-0.055276735737726894,0.07255874185128237,-0.21900656018254655,1.2135223446017818,-0.22014772838453514,-0.007365420155671986,-2.603768356211701,-0.10895347976525728,2.4682490048800965,0.8264733246084726,1.2134413937687574,-0.2202432315892585,-0.0075118285948192216,-2.6038483821997875,-0.10888392708698907,2.4681821257803174,0.826474908251239,-1.1670824956795851e-05,-0.0001266154902946258,2.2980616907601663e-05,-0.001470649950692135,-0.0004252963858150308,-9.036059867067889e-05,0.0009117463025031436,0.0,0.0,0.0,0.0,0.0,0.0,0.0,-8.095083302439576e-05,-9.550320472334617e-05,-0.00014640843914723572,-8.002598808642958e-05,6.955267826820599e-05,-6.687909977909356e-05,1.583642766478377e-06,1.1670824956795851e-05,0.0001266154902946258,-2.2980616907601663e-05,0.001470649950692135,0.0004252963858150308,9.036059867067889e-05,-0.0009117463025031436,0.4505855441093445,19.868005752563477,0.4228789508342743,-20.054964065551758,-0.5404563546180725,-2.4429354667663574,0.24112264811992645,0
29,0.14000773429870605,-0.4505855441093445,-19.868005752563477,-0.4228789508342743,20.054964065551758,0.5404563546180725,2.4429354667663574,-0.24112264811992645,0.0,0.0,0.0,0.0,0.0,0.0,0.0,-0.4297968948972901,-0.1252885855421348,-0.22589199269737192,0.21205165844533497,-0.055276735737726894,0.07255874185128237,-0.21900656018254655,1.2135223446017818,-0.22014772838453514,-0.007365420155671986,-2.603768356211701,-0.10895347976525728,2.4682490048800965,0.8264733246084726,1.2134413937687574,-0.2202432315892585,-0.0075118285948192216,-2.6038483821997875,-0.10888392708698907,2.4681821257803174,0.826474908251239,-1.1670824956795851e-05,-0.0001266154902946258,2.2980616907601663e-05,-0.001470649950692135,-0.0004252963858150308,-9.036059867067889e-05,0.0009117463025031436,0.0,0.0,0.0,0.0,0.0,0.0,0.0,-8.095083302439576e-05,-9.550320472334617e-05,-0.00014640843914723572,-8.002598808642958e-05,6.955267826820599e-05,-6.687909977909356e-05,1.583642766478377e-06,1.1670824956795851e-05,0.0001266154902946258,-2.2980616907601663e-05,0.001470649950692135,0.0004252963858150308,9.036059867067889e-05,-0.0009117463025031436,0.4505855441093445,19.868005752563477,0.4228789508342743,-20.054964065551758,-0.5404563546180725,-2.4429354667663574,0.24112264811992645,0
30,0.14500141143798828,-0.4505855441093445,-19.868005752563477,-0.4704863727092743,19.983552932739258,0.5404563546180725,2.4493441581726074,-0.20083944499492645,0.0,0.0,0.0,0.0,0.0,0.0,0.0,-0.43303596195216665,-0.12290671342826645,-0.22338517513218045,0.21053141114503965,-0.05528572971694748,0.07127968598907582,-0.22019704224508405,1.2135223446017818,-0.2201477547526962,-0.007362049733504417,-2.603762603161632,-0.10895348025204254,2.4682482535576384,0.8264688486970133,1.2134413937687574,-0.2202432315892585,-0.0075118285948192216,-2.6038483821997875,-0.10888392708698907,2.4681821257803174,0.826474908251239,0.0002510869130973586,-1.6208648127279637e-05,0.0004534362458052555,0.00024376558475407368,-0.00048328519879778056,-0.00019918344234610738,-0.0006878651247097198,0.0,0.0,0.0,0.0,0.0,0.0,0.0,-8.095083302439576e-05,-9.54768365622749e-05,-0.00014977886131480479,-8.577903815565335e-05,6.955316505347087e-05,-6.612777732106778e-05,6.0595542257235735e-06,-0.0002510869130973586,1.6208648127279637e-05,-0.0004534362458052555,-0.00024376558475407368,0.00048328519879778056,0.00019918344234610738,0.0006878651247097198,0.4505855441093445,19.868005752563477,0.4704863727092743,-19.983552932739258,-0.5404563546180725,-2.4493441581726074,0.20083944499492645,0
31,0.15004181861877441,-0.4505855441093445,-19.868005752563477,-0.4704863727092743,19.983552932739258,0.5404563546180725,2.4493441581726074,-0.20083944499492645,0.0,0.0,0.0,0.0,0.0,0.0,0.0,-0.43303596195216665,-0.12290671342826645,-0.22338517513218045,0.21053141114503965,-0.05528572971694748,0.07127968598907582,-0.22019704224508405,1.2135223446017818,-0.2201477547526962,-0.007362049733504417,-2.603762603161632,-0.10895348025204254,2.4682482535576384,0.8264688486970133,1.2134413937687574,-0.2202432315892585,-0.0075118285948192216,-2.6038483821997875,-0.10888392708698907,2.4681821257803174,0.826474908251239,0.0002510869130973586,-1.6208648127279637e-05,0.0004534362458052555,0.00024376558475407368,-0.00048328519879778056,-0.00019918344234610738,-0.0006878651247097198,0.0,0.0,0.0,0.0,0.0,0.0,0.0,-8.095083302439576e-05,-9.54768365622749e-05,-0.00014977886131480479,-8.577903815565335e-05,6.955316505347087e-05,-6.612777732106778e-05,6.0595542257235735e-06,-0.0002510869130973586,1.6208648127279637e-05,-0.0004534362458052555,-0.00024376558475407368,0.00048328519879778056,0.00019918344234610738,0.0006878651247097198,0.4505855441093445,19.868005752563477,0.4704863727092743,-19.983552932739258,-0.5404563546180725,-2.4493441581726074,0.20083944499492645,0
32,0.15496397018432617,-0.4267818331718445,-19.891809463500977,-0.5220611095428467,20.007356643676758,0.5340476632118225,2.4301180839538574,-0.21457235515117645,0.0,0.0,0.0,0.0,0.0,0.0,0.0,-0.43631581354579635,-0.12311014450293921,-0.22872712374728588,0.21284064564019603,-0.055288824322624094,0.07123057337183172,-0.21957969295371413,1.2135206741659266,-0.22014608431698982,-0.007358668156151856,-2.6037643560472836,-0.10895174137723451,2.468250389787886,0.8264703876578717,1.2134413937687574,-0.2202432315892585,-0.0075118285948192216,-2.6038483821997875,-0.10888392708698907,2.4681821257803174,0.826474908251239,-0.00044406302980829653,0.0006006610721612473,0.002026278185319951,-0.00040225169558029845,-1.3071940994816094e-05,0.00030266341914408283,-8.909973432476118e-05,0.0,0.0,0.0,0.0,0.0,0.0,0.0,-7.928039716920132e-05,-9.71472722686717e-05,-0.00015316043866736573,-8.402615250391321e-05,6.781429024543817e-05,-6.826400756843043e-05,4.5205933673075904e-06,0.00044406302980829653,-0.0006006610721612473,-0.002026278185319951,0.00040225169558029845,1.3071940994816094e-05,-0.00030266341914408283,8.909973432476118e-05,0.4267818331718445,19.891809463500977,0.5220611095428467,-20.007356643676758,-0.5340476632118225,-2.4301180839538574,0.21457235515117645,0
33,0.15999507904052734,-0.4267818331718445,-19.891809463500977,-0.5220611095428467,20.007356643676758,0.5340476632118225,2.4301180839538574,-0.21457235515117645,0.0,0.0,0.0,0.0,0.0,0.0,0.0,-0.43631581354579635,-0.12311014450293921,-0.22872712374728588,0.21284064564019603,-0.055288824322624094,0.07123057337183172,-0.21957969295371413,1.2135206741659266,-0.22014608431698982,-0.007358668156151856,-2.6037643560472836,-0.10895174137723451,2.468250389787886,0.8264703876578717,1.2134413937687574,-0.2202432315892585,-0.0075118285948192216,-2.6038483821997875,-0.10888392708698907,2.4681821257803174,0.826474908251239,-0.00044406302980829653,0.0006006610721612473,0.002026278185319951,-0.00040225169558029845,-1.3071940994816094e-05,0.00030266341914408283,-8.909973432476118e-05,0.0,0.0,0.0,0.0,0.0,0.0,0.0,-7.928039716920132e-05,-9.71472722686717e-05,-0.00015316043866736573,-8.402615250391321e-05,6.781429024543817e-05,-6.826400756843043e-05,4.5205933673075904e-06,0.00044406302980829653,-0.0006006610721612473,-0.002026278185319951,0.00040225169558029845,1.3071940994816094e-05,-0.00030266341914408283,8.909973432476118e-05,0.4267818331718445,19.891809463500977,0.5220611095428467,-20.007356643676758,-0.5340476632118225,-2.4301180839538574,0.21457235515117645,0
34,0.16501116752624512,-0.4267818331718445,-19.891809463500977,-0.5220611095428467,20.007356643676758,0.5340476632118225,2.4301180839538574,-0.21457235515117645,0.0,0.0,0.0,0.0,0.0,0.0,0.0,-0.43631581354579635,-0.12311014450293921,-0.22872712374728588,0.21284064564019603,-0.055288824322624094,0.07123057337183172,-0.21957969295371413,1.2135206741659266,-0.22014608431698982,-0.007358668156151856,-2.6037643560472836,-0.10895174137723451,2.468250389787886,0.8264703876578717,1.2134413937687574,-0.2202432315892585,-0.0075118285948192216,-2.6038483821997875,-0.10888392708698907,2.4681821257803174,0.826474908251239,-0.00044406302980829653,0.0006006610721612473,0.002026278185319951,-0.00040225169558029845,-1.3071940994816094e-05,0.00030266341914408283,-8.909973432476118e-05,0.0,0.0,0.0,0.0,0.0,0.0,0.0,-7.928039716920132e-05,-9.71472722686717e-05,-0.00015316043866736573,-8.402615250391321e-05,6.781429024543817e-05,-6.826400756843043e-05,4.5205933673075904e-06,0.00044406302980829653,-0.0006006610721612473,-0.002026278185319951,0.00040225169558029845,1.3071940994816094e-05,-0.00030266341914408283,8.909973432476118e-05,0.4267818331718445,19.891809463500977,0.5220611095428467,-20.007356643676758,-0.5340476632118225,-2.4301180839538574,0.21457235515117645,0
35,0.17004060745239258,-0.4267818331718445,-19.891809463500977,-0.5220611095428467,20.007356643676758,0.5340476632118225,2.4301180839538574,-0.21457235515117645,0.0,0.0,0.0,0.0,0.0,0.0,0.0,-0.43631581354579635,-0.12311014450293921,-0.22872712374728588,0.21284064564019603,-0.055288824322624094,0.07123057337183172,-0.21957969295371413,1.2135206741659266,-0.22014608431698982,-0.007358668156151856,-2.6037643560472836,-0.10895174137723451,2.468250389787886,0.8264703876578717,1.2134413937687574,-0.2202432315892585,-0.0075118285948192216,-2.6038483821997875,-0.10888392708698907,2.4681821257803174,0.826474908251239,-0.00044406302980829653,0.0006006610721612473,0.002026278185319951,-0.00040225169558029845,-1.3071940994816094e-05,0.00030266341914408283,-8.909973432476118e-05,0.0,0.0,0.0,0.0,0.0,0.0,0.0,-7.928039716920132e-05,-9.71472722686717e-05,-0.00015316043866736573,-8.402615250391321e-05,6.781429024543817e-05,-6.826400756843043e-05,4.5205933673075904e-06,0.00044406302980829653,-0.0006006610721612473,-0.002026278185319951,0.00040225169558029845,1.3071940994816094e-05,-0.00030266341914408283,8.909973432476118e-05,0.4267818331718445,19.891809463500977,0.5220611095428467,-20.007356643676758,-0.5340476632118225,-2.4301180839538574,0.21457235515117645,0
36,0.17501068115234375,-0.4505855441093445,-19.868005752563477,-0.4466826617717743,19.955781936645508,0.5340476632118225,2.4429354667663574,-0.22830526530742645,0.0,0.0,0.0,0.0,0.0,0.0,0.0,-0.4375959904883637,-0.1180713530930216,-0.23341374685989083,0.2120038017128578,-0.054896747098218866,0.07045751057715062,-0.21962855295618555,1.2135223446017818,-0.22014775475284507,-0.007363799080001735,-2.6037614052201365,-0.10895280759924768,2.46824896563424,0.8264719004548996,1.2134413937687574,-0.2202432315892585,-0.0075118285948192216,-2.6038483821997875,-0.10888392708698907,2.4681821257803174,0.826474908251239,1.6177208464424225e-05,0.0004419815862439218,9.49193720369885e-06,0.0005301621167423482,-5.4187303992535674e-05,3.476543018833934e-05,0.0003152526351214033,0.0,0.0,0.0,0.0,0.0,0.0,0.0,-8.095083302439576e-05,-9.547683641342175e-05,-0.00014802951481748643,-8.697697965098783e-05,6.888051225860392e-05,-6.683985392275105e-05,3.0077963394381513e-06,-1.6177208464424225e-05,-0.0004419815862439218,-9.49193720369885e-06,-0.0005301621167423482,5.4187303992535674e-05,-3.476543018833934e-05,-0.0003152526351214033,0.4505855441093445,19.868005752563477,0.4466826617717743,-19.955781936645508,-0.5340476632118225,-2.4429354667663574,0.22830526530742645,0
37,0.1800086498260498,-0.4505855441093445,-19.868005752563477,-0.4466826617717743,19.955781936645508,0.5340476632118225,2.4429354667663574,-0.22830526530742645,0.0,0.0,0.0,0.0,0.0,0.0,0.0,-0.4375959904883637,-0.1180713530930216,-0.23341374685989083,0.2120038017128578,-0.054896747098218866,0.07045751057715062,-0.21962855295618555,1.2135223446017818,-0.22014775475284507,-0.007363799080001735,-2.6037614052201365,-0.10895280759924768,2.46824896563424,0.8264719004548996,1.2134413937687574,-0.2202432315892585,-0.0075118285948192216,-2.6038483821997875,-0.10888392708698907,2.4681821257803174,0.826474908251239,1.6177208464424225e-05,0.0004419815862439218,9.49193720369885e-06,0.0005301621167423482,-5.4187303992535674e-05,3.476543018833934e-05,0.0003152526351214033,0.0,0.0,0.0,0.0,0.0,0.0,0.0,-8.095083302439576e-05,-9.547683641342175e-05,-0.00014802951481748643,-8.697697965098783e-05,6.888051225860392e-05,-6.683985392275105e-05,3.0077963394381513e-06,-1.6177208464424225e-05,-0.0004419815862439218,-9.49193720369885e-06,-0.0005301621167423482,5.4187303992535674e-05,-3.476543018833934e-05,-0.0003152526351214033,0.4505855441093445,19.868005752563477,0.4466826617717743,-19.955781936645508,-0.5340476632118225,-2.4429354667663574,0.22830526530742645,0
38,0.18503475189208984,-0.4267818331718445,-19.868005752563477,-0.4466826617717743,20.007356643676758,0.5340476632118225,2.4301180839538574,-0.22830526530742645,0.0,0.0,0.0,0.0,0.0,0.0,0.0,-0.44042069550800217,-0.11426922718794456,-0.23645046524474772,0.21138747781176168,-0.05433937892679201,0.07090358422309667,-0.22023060867242972,1.2135206741659266,-0.22014775475284507,-0.007365851049681529,-2.603764276684853,-0.10895280760526656,2.4682536864398434,0.8264719006163314,1.2134413937687574,-0.2202432315892585,-0.0075118285948192216,-2.6038483821997875,-0.10888392708698907,2.4681821257803174,0.826474908251239,-0.0004792194740669549,0.0006197007478808705,0.00025545033391731557,-0.0004846667187139579,-8.348497598034729e-06,0.0003888558369538344,0.0003254838038557726,0.0,0.0,0.0,0.0,0.0,0.0,0.0,-7.928039716920132e-05,-9.547683641342175e-05,-0.0001459775451376922,-8.410551493431839e-05,6.888051827748376e-05,-7.156065952607094e-05,3.0076349076813003e-06,0.0004792194740669549,-0.0006197007478808705,-0.00025545033391731557,0.0004846667187139579,8.348497598034729e-06,-0.0003888558369538344,-0.0003254838038557726,0.4267818331718445,19.868005752563477,0.4466826617717743,-20.007356643676758,-0.5340476632118225,-2.4301180839538574,0.22830526530742645,0
39,0.19000554084777832,-0.4267818331718445,-19.868005752563477,-0.4466826617717743,20.007356643676758,0.5340476632118225,2.4301180839538574,-0.22830526530742645,0.0,0.0,0.0,0.0,0.0,0.0,0.0,-0.44042069550800217,-0.11426922718794456,-0.23645046524474772,0.21138747781176168,-0.05433937892679201,0.07090358422309667,-0.22023060867242972,1.2135206741659266,-0.22014775475284507,-0.007365851049681529,-2.603764276684853,-0.10895280760526656,2.4682536864398434,0.8264719006163314,1.2134413937687574,-0.2202432315892585,-0.0075118285948192216,-2.6038483821997875,-0.10888392708698907,2.4681821257803174,0.826474908251239,-0.0004792194740669549,0.0006197007478808705,0.00025545033391731557,-0.0004846667187139579,-8.348497598034729e-06,0.0003888558369538344,0.0003254838038557726,0.0,0.0,0.0,0.0,0.0,0.0,0.0,-7.928039716920132e-05,-9.547683641342175e-05,-0.0001459775451376922,-8.410551493431839e-05,6.888051827748376e-05,-7.156065952607094e-05,3.0076349076813003e-06,0.0004792194740669549,-0.0006197007478808705,-0.00025545033391731557,0.0004846667187139579,8.348497598034729e-06,-0.0003888558369538344,-0.0003254838038557726,0.4267818331718445,19.868005752563477,0.4466826617717743,-20.007356643676758,-0.5340476632118225,-2.4301180839538574,0.22830526530742645,0
40,0.19500207901000977,-0.4029781222343445,-19.891809463500977,-0.4704863727092743,19.983552932739258,0.5285544991493225,2.4429354667663574,-0.20083944499492645,0.0,0.0,0.0,0.0,0.0,0.0,0.0,-0.43919393823689384,-0.11710597299587808,-0.23455278391722162,0.21487593791961912,-0.0536525413467309,0.07072945533856595,-0.22104695107079214,1.2135190037300712,-0.22014608431698982,-0.007364417462351199,-2.603762850519413,-0.10895112680706595,2.4682489656528497,0.8264688486970142,1.2134413937687574,-0.2202432315892585,-0.0075118285948192216,-2.6038483821997875,-0.10888392708698907,2.4681821257803174,0.826474908251239,-0.0004417751642368955,0.0012033213692002641,0.0009508509077911626,0.0001937208965922451,-0.0005138593668310361,4.206765464774192e-05,-0.0010270751962827766,0.0,0.0,0.0,0.0,0.0,0.0,0.0,-7.760996131378484e-05,-9.71472722686717e-05,-0.00014741113246802273,-8.553168037472858e-05,6.719972007687702e-05,-6.683987253230939e-05,6.059554224835395e-06,0.0004417751642368955,-0.0012033213692002641,-0.0009508509077911626,-0.0001937208965922451,0.0005138593668310361,-4.206765464774192e-05,0.0010270751962827766,0.4029781222343445,19.891809463500977,0.4704863727092743,-19.983552932739258,-0.5285544991493225,-2.4429354667663574,0.20083944499492645,0
41,0.20001482963562012,-0.4029781222343445,-19.891809463500977,-0.4704863727092743,19.983552932739258,0.5285544991493225,2.4429354667663574,-0.20083944499492645,0.0,0.0,0.0,0.0,0.0,0.0,0.0,-0.43919393823689384,-0.11710597299587808,-0.23455278391722162,0.21487593791961912,-0.0536525413467309,0.07072945533856595,-0.22104695107079214,1.2135190037300712,-0.22014608431698982,-0.007364417462351199,-2.603762850519413,-0.10895112680706595,2.4682489656528497,0.8264688486970142,1.2134413937687574,-0.2202432315892585,-0.0075118285948192216,-2.6038483821997875,-0.10888392708698907,2.4681821257803174,0.826474908251239,-0.0004417751642368955,0.0012033213692002641,0.0009508509077911626,0.0001937208965922451,-0.0005138593668310361,4.206765464774192e-05,-0.0010270751962827766,0.0,0.0,0.0,0.0,0.0,0.0,0.0,-7.760996131378484e-05,-9.71472722686717e-05,-0.00014741113246802273,-8.553168037472858e-05,6.719972007687702e-05,-6.683987253230939e-05,6.059554224835395e-06,0.0004417751642368955,-0.0012033213692002641,-0.0009508509077911626,-0.0001937208965922451,0.0005138593668310361,-4.206765464774192e-05,0.0010270751962827766,0.4029781222343445,19.891809463500977,0.4704863727092743,-19.983552932739258,-0.5285544991493225,-2.4429354667663574,0.20083944499492645,0
42,0.205000638961792,-0.4505855441093445,-19.891809463500977,-0.4466826617717743,19.983552932739258,0.5340476632118225,2.4493441581726074,-0.18710653483867645,0.0,0.0,0.0,0.0,0.0,0.0,0.0,-0.4390275835959579,-0.11608244412946692,-0.23503669320312626,0.2115870695796624,-0.0539280318311221,0.07033306522507789,-0.22194868863248995,1.2135223446017818,-0.22014608431698982,-0.007363991981834097,-2.6037649108152117,-0.10895174283177815,2.4682482535574173,0.8264673228181071,1.2134413937687574,-0.2202432315892585,-0.0075118285948192216,-2.6038483821997875,-0.10888392708698907,2.4681821257803174,0.826474908251239,9.660564850908498e-05,0.00036671603845896155,0.0005407793545214218,-0.00022508590032309698,2.2165750220520695e-05,-0.0002071630338730579,-0.0016674715447951636,0.0,0.0,0.0,0.0,0.0,0.0,0.0,-8.095083302439576e-05,-9.71472722686717e-05,-0.0001478366129851246,-8.347138457587278e-05,6.781574478907648e-05,-6.612777709991136e-05,7.585433131951369e-06,-9.660564850908498e-05,-0.00036671603845896155,-0.0005407793545214218,0.00022508590032309698,-2.2165750220520695e-05,0.0002071630338730579,0.0016674715447951636,0.4505855441093445,19.891809463500977,0.4466826617717743,-19.983552932739258,-0.5340476632118225,-2.4493441581726074,0.18710653483867645,0
43,0.20999503135681152,-0.4505855441093445,-19.891809463500977,-0.4466826617717743,19.983552932739258,0.5340476632118225,2.4493441581726074,-0.18710653483867645,0.0,0.0,0.0,0.0,0.0,0.0,0.0,-0.4390275835959579,-0.11608244412946692,-0.23503669320312626,0.2115870695796624,-0.0539280318311221,0.07033306522507789,-0.22194868863248995,1.2135223446017818,-0.22014608431698982,-0.007363991981834097,-2.6037649108152117,-0.10895174283177815,2.4682482535574173,0.8264673228181071,1.2134413937687574,-0.2202432315892585,-0.0075118285948192216,-2.6038483821997875,-0.10888392708698907,2.4681821257803174,0.826474908251239,9.660564850908498e-05,0.00036671603845896155,0.0005407793545214218,-0.00022508590032309698,2.2165750220520695e-05,-0.0002071630338730579,-0.0016674715447951636,0.0,0.0,0.0,0.0,0.0,0.0,0.0,-8.095083302439576e-05,-9.71472722686717e-05,-0.0001478366129851246,-8.347138457587278e-05,6.781574478907648e-05,-6.612777709991136e-05,7.585433131951369e-06,-9.660564850908498e-05,-0.00036671603845896155,-0.0005407793545214218,0.00022508590032309698,-2.2165750220520695e-05,0.0002071630338730579,0.0016674715447951636,0.4505855441093445,19.891809463500977,0.4466826617717743,-19.983552932739258,-0.5340476632118225,-2.4493441581726074,0.18710653483867645,0
44,0.21500420570373535,-0.4505855441093445,-19.868005752563477,-0.4228789508342743,19.983552932739258,0.5404563546180725,2.4365267753601074,-0.19351522624492645,0.0,0.0,0.0,0.0,0.0,0.0,0.0,-0.4327413154327042,-0.11828790965165965,-0.22831211208895827,0.21208644542616256,-0.053738502030170505,0.07078580936105763,-0.22193222763138834,1.2135223446017818,-0.22014775475284507,-0.007365416949632344,-2.603762630981268,-0.10895351951980119,2.468249677711063,0.8264694477457691,1.2134413937687574,-0.2202432315892585,-0.0075118285948192216,-2.6038483821997875,-0.10888392708698907,2.4681821257803174,0.826474908251239,0.0006634400772755932,-0.0001819885289685109,0.00013821673650031032,8.779606929031834e-05,-0.0004586201442778515,0.00028929382077734554,-0.0011354798002398737,0.0,0.0,0.0,0.0,0.0,0.0,0.0,-8.095083302439576e-05,-9.547683641342175e-05,-0.00014641164518687782,-8.575121851972511e-05,6.95924328121128e-05,-6.755193074559074e-05,5.460505469900845e-06,-0.0006634400772755932,0.0001819885289685109,-0.00013821673650031032,-8.779606929031834e-05,0.0004586201442778515,-0.00028929382077734554,0.0011354798002398737,0.4505855441093445,19.868005752563477,0.4228789508342743,-19.983552932739258,-0.5404563546180725,-2.4365267753601074,0.19351522624492645,0
45,0.2200469970703125,-0.4505855441093445,-19.868005752563477,-0.4228789508342743,19.983552932739258,0.5404563546180725,2.4365267753601074,-0.19351522624492645,0.0,0.0,0.0,0.0,0.0,0.0,0.0,-0.4327413154327042,-0.11828790965165965,-0.22831211208895827,0.21208644542616256,-0.053738502030170505,0.07078580936105763,-0.22193222763138834,1.2135223446017818,-0.22014775475284507,-0.007365416949632344,-2.603762630981268,-0.10895351951980119,2.468249677711063,0.8264694477457691,1.2134413937687574,-0.2202432315892585,-0.0075118285948192216,-2.6038483821997875,-0.10888392708698907,2.4681821257803174,0.826474908251239,0.0006634400772755932,-0.0001819885289685109,0.00013821673650031032,8.779606929031834e-05,-0.0004586201442778515,0.00028929382077734554,-0.0011354798002398737,0.0,0.0,0.0,0.0,0.0,0.0,0.0,-8.095083302439576e-05,-9.547683641342175e-05,-0.00014641164518687782,-8.575121851972511e-05,6.95924328121128e-05,-6.755193074559074e-05,5.460505469900845e-06,-0.0006634400772755932,0.0001819885289685109,-0.00013821673650031032,-8.779606929031834e-05,0.0004586201442778515,-0.00028929382077734554,0.0011354798002398737,0.4505855441093445,19.868005752563477,0.4228789508342743,-19.983552932739258,-0.5404563546180725,-2.4365267753601074,0.19351522624492645,0
46,0.22499752044677734,-0.4029781222343445,-19.915613174438477,-0.3990752398967743,20.007356643676758,0.5285544991493225,2.4429354667663574,-0.17978231608867645,0.0,0.0,0.0,0.0,0.0,0.0,0.0,-0.4330538554791621,-0.12267211057804123,-0.22810431951049362,0.21043153072738147,-0.053767327409501006,0.07050795572766416,-0.22160359899821466,1.2135190037300712,-0.22014441388113454,-0.007369192606801875,-2.6037645208422147,-0.10895219725370396,2.46824896563424,0.8264665090169099,1.2134413937687574,-0.2202432315892585,-0.0075118285948192216,-2.6038483821997875,-0.10888392708698907,2.4681821257803174,0.826474908251239,-0.00037881359995809723,0.0008184509544271127,-0.00023682711908736245,-0.00033985271461186775,1.75734489039108e-05,-1.822076376905244e-05,-0.0018246350401593737,0.0,0.0,0.0,0.0,0.0,0.0,0.0,-7.760996131378484e-05,-9.881770812394941e-05,-0.00014263598801734622,-8.38613575728786e-05,6.827016671488717e-05,-6.683985392275105e-05,8.399234329159455e-06,0.00037881359995809723,-0.0008184509544271127,0.00023682711908736245,0.00033985271461186775,-1.75734489039108e-05,1.822076376905244e-05,0.0018246350401593737,0.4029781222343445,19.915613174438477,0.3990752398967743,-20.007356643676758,-0.5285544991493225,-2.4429354667663574,0.17978231608867645,0
47,0.2300100326538086,-0.4029781222343445,-19.915613174438477,-0.3990752398967743,20.007356643676758,0.5285544991493225,2.4429354667663574,-0.17978231608867645,0.0,0.0,0.0,0.0,0.0,0.0,0.0,-0.4330538554791621,-0.12267211057804123,-0.22810431951049362,0.21043153072738147,-0.053767327409501006,0.07050795572766416,-0.22160359899821466,1.2135190037300712,-0.22014441388113454,-0.007369192606801875,-2.6037645208422147,-0.10895219725370396,2.46824896563424,0.8264665090169099,1.2134413937687574,-0.2202432315892585,-0.0075118285948192216,-2.6038483821997875,-0.10888392708698907,2.4681821257803174,0.826474908251239,-0.00037881359995809723,0.0008184509544271127,-0.00023682711908736245,-0.00033985271461186775,1.75734489039108e-05,-1.822076376905244e-05,-0.0018246350401593737,0.0,0.0,0.0,0.0,0.0,0.0,0.0,-7.760996131378484e-05,-9.881770812394941e-05,-0.00014263598801734622,-8.38613575728786e-05,6.827016671488717e-05,-6.683985392275105e-05,8.399234329159455e-06,0.00037881359995809723,-0.0008184509544271127,0.00023682711908736245,0.00033985271461186775,-1.75734489039108e-05,1.822076376905244e-05,0.0018246350401593737,0.4029781222343445,19.915613174438477,0.3990752398967743,-20.007356643676758,-0.5285544991493225,-2.4429354667663574,0.17978231608867645,0
48,0.2350006103515625,-0.4267818331718445,-19.844202041625977,-0.3990752398967743,19.983552932739258,0.5340476632118225,2.4429354667663574,-0.20083944499492645,0.0,0.0,0.0,0.0,0.0,0.0,0.0,-0.42625434298370074,-0.12388806353608424,-0.22463861351828776,0.20826033086969076,-0.05375279700853483,0.07052999599628487,-0.22019341361005051,1.2135206741659266,-0.2201487132443322,-0.007367325058683868,-2.6037648650283787,-0.10895245273687221,2.46824896563424,0.8264689664345832,1.2134413937687574,-0.2202432315892585,-0.0075118285948192216,-2.6038483821997875,-0.10888392708698907,2.4681821257803174,0.826474908251239,0.0007560565430025496,-0.0008822064551983238,-0.0006462650616850702,0.00021118977350219483,-9.501010454968887e-05,6.242020950772842e-05,-0.0008066688305084891,0.0,0.0,0.0,0.0,0.0,0.0,0.0,-7.928039716920132e-05,-9.451834492629763e-05,-0.0001445035361353538,-8.35171714088645e-05,6.852564988313326e-05,-6.683985392275105e-05,5.941816655807841e-06,-0.0007560565430025496,0.0008822064551983238,0.0006462650616850702,-0.00021118977350219483,9.501010454968887e-05,-6.242020950772842e-05,0.0008066688305084891,0.4267818331718445,19.844202041625977,0.3990752398967743,-19.983552932739258,-0.5340476632118225,-2.4429354667663574,0.20083944499492645,0
49,0.23999691009521484,-0.4267818331718445,-19.844202041625977,-0.3990752398967743,19.983552932739258,0.5340476632118225,2.4429354667663574,-0.20083944499492645,0.0,0.0,0.0,0.0,0.0,0.0,0.0,-0.42625434298370074,-0.12388806353608424,-0.22463861351828776,0.20826033086969076,-0.05375279700853483,0.07052999599628487,-0.22019341361005051,1.2135206741659266,-0.2201487132443322,-0.007367325058683868,-2.6037648650283787,-0.10895245273687221,2.46824896563424,0.8264689664345832,1.2134413937687574,-0.2202432315892585,-0.0075118285948192216,-2.6038483821997875,-0.10888392708698907,2.4681821257803174,0.826474908251239,0.0007560565430025496,-0.0008822064551983238,-0.0006462650616850702,0.00021118977350219483,-9.501010454968887e-05,6.242020950772842e-05,-0.0008066688305084891,0.0,0.0,0.0,0.0,0.0,0.0,0.0,-7.928039716920132e-05,-9.451834492629763e-05,-0.0001445035361353538,-8.35171714088645e-05,6.852564988313326e-05,-6.683985392275105e-05,5.941816655807841e-06,-0.0007560565430025496,0.0008822064551983238,0.0006462650616850702,-0.00021118977350219483,9.501010454968887e-05,-6.242020950772842e-05,0.0008066688305084891,0.4267818331718445,19.844202041625977,0.3990752398967743,-19.983552932739258,-0.5340476632118225,-2.4429354667663574,0.20083944499492645,0
50,0.2449495792388916,-0.4267818331718445,-19.844202041625977,-0.3990752398967743,19.983552932739258,0.5340476632118225,2.4429354667663574,-0.20083944499492645,0.0,0.0,0.0,0.0,0.0,0.0,0.0,-0.42625434298370074,-0.12388806353608424,-0.22463861351828776,0.20826033086969076,-0.05375279700853483,0.07052999599628487,-0.22019341361005051,1.2135206741659266,-0.2201487132443322,-0.007367325058683868,-2.6037648650283787,-0.10895245273687221,2.46824896563424,0.8264689664345832,1.2134413937687574,-0.2202432315892585,-0.0075118285948192216,-2.6038483821997875,-0.10888392708698907,2.4681821257803174,0.826474908251239,0.0007560565430025496,-0.0008822064551983238,-0.0006462650616850702,0.00021118977350219483,-9.501010454968887e-05,6.242020950772842e-05,-0.0008066688305084891,0.0,0.0,0.0,0.0,0.0,0.0,0.0,-7.928039716920132e-05,-9.451834492629763e-05,-0.0001445035361353538,-8.35171714088645e-05,6.852564988313326e-05,-6.683985392275105e-05,5.941816655807841e-06,-0.0007560565430025496,0.0008822064551983238,0.0006462650616850702,-0.00021118977350219483,9.501010454968887e-05,-6.242020950772842e-05,0.0008066688305084891,0.4267818331718445,19.844202041625977,0.3990752398967743,-19.983552932739258,-0.5340476632118225,-2.4429354667663574,0.20083944499492645,0
51,0.24999785423278809,-0.4267818331718445,-19.844202041625977,-0.3990752398967743,19.983552932739258,0.5340476632118225,2.4429354667663574,-0.20083944499492645,0.0,0.0,0.0,0.0,0.0,0.0,0.0,-0.42625434298370074,-0.12388806353608424,-0.22463861351828776,0.20826033086969076,-0.05375279700853483,0.07052999599628487,-0.22019341361005051,1.2135206741659266,-0.2201487132443322,-0.007367325058683868,-2.6037648650283787,-0.10895245273687221,2.46824896563424,0.8264689664345832,1.2134413937687574,-0.2202432315892585,-0.0075118285948192216,-2.6038483821997875,-0.10888392708698907,2.4681821257803174,0.826474908251239,0.0007560565430025496,-0.0008822064551983238,-0.0006462650616850702,0.00021118977350219483,-9.501010454968887e-05,6.242020950772842e-05,-0.0008066688305084891,0.0,0.0,0.0,0.0,0.0,0.0,0.0,-7.928039716920132e-05,-9.451834492629763e-05,-0.0001445035361353538,-8.35171714088645e-05,6.852564988313326e-05,-6.683985392275105e-05,5.941816655807841e-06,-0.0007560565430025496,0.0008822064551983238,0.0006462650616850702,-0.00021118977350219483,9.501010454968887e-05,-6.242020950772842e-05,0.0008066688305084891,0.4267818331718445,19.844202041625977,0.3990752398967743,-19.983552932739258,-0.5340476632118225,-2.4429354667663574,0.20083944499492645,0
52,0.24999785423278809,-0.4267818331718445,-19.844202041625977,-0.3990752398967743,19.983552932739258,0.5340476632118225,2.4429354667663574,-0.20083944499492645,0.0,0.0,0.0,0.0,0.0,0.0,0.0,-0.42625434298370074,-0.12388806353608424,-0.22463861351828776,0.20826033086969076,-0.05375279700853483,0.07052999599628487,-0.22019341361005051,1.2135206741659266,-0.2201487132443322,-0.007367325058683868,-2.6037648650283787,-0.10895245273687221,2.46824896563424,0.8264689664345832,1.2134413937687574,-0.2202432315892585,-0.0075118285948192216,-2.6038483821997875,-0.10888392708698907,2.4681821257803174,0.826474908251239,0.0007560565430025496,-0.0008822064551983238,-0.0006462650616850702,0.00021118977350219483,-9.501010454968887e-05,6.242020950772842e-05,-0.0008066688305084891,0.0,0.0,0.0,0.0,0.0,0.0,0.0,-7.928039716920132e-05,-9.451834492629763e-05,-0.0001445035361353538,-8.35171714088645e-05,6.852564988313326e-05,-6.683985392275105e-05,5.941816655807841e-06,-0.0007560565430025496,0.0008822064551983238,0.0006462650616850702,-0.00021118977350219483,9.501010454968887e-05,-6.242020950772842e-05,0.0008066688305084891,0.4267818331718445,19.844202041625977,0.3990752398967743,-19.983552932739258,-0.5340476632118225,-2.4429354667663574,0.20083944499492645,0
53,0.2599968910217285,-0.4267818331718445,-19.844202041625977,-0.4228789508342743,19.983552932739258,0.5340476632118225,2.4429354667663574,-0.23471395671367645,0.0,0.0,0.0,0.0,0.0,0.0,0.0,-0.43256086543117234,-0.11786319823807272,-0.23118670828472374,0.20994500177586753,-0.053704894478320164,0.06990073358321372,-0.21907303341449322,1.2135206741659266,-0.22014942518870032,-0.007365390605071967,-2.603763345356885,-0.10895174300008256,2.46824896563424,0.8264726125316487,1.2134413937687574,-0.2202432315892585,-0.0075118285948192216,-2.6038483821997875,-0.10888392708698907,2.4681821257803174,0.826474908251239,-0.0009307071662014725,0.00018993329964038703,-0.0004761577918015682,0.0004058320173689769,-0.0001314424379643914,-0.00020566800598556312,0.0009041229969656121,0.0,0.0,0.0,0.0,0.0,0.0,0.0,-7.928039716920132e-05,-9.38064005581718e-05,-0.00014643798974725477,-8.503684290239732e-05,6.781591309348856e-05,-6.683985392275105e-05,2.295719590317269e-06,0.0009307071662014725,-0.00018993329964038703,0.0004761577918015682,-0.0004058320173689769,0.0001314424379643914,0.00020566800598556312,-0.0009041229969656121,0.4267818331718445,19.844202041625977,0.4228789508342743,-19.983552932739258,-0.5340476632118225,-2.4429354667663574,0.23471395671367645,0
54,0.2655761241912842,-0.4505855441093445,-19.868005752563477,-0.4466826617717743,19.931978225708008,0.5404563546180725,2.4493441581726074,-0.22830526530742645,0.0,0.0,0.0,0.0,0.0,0.0,0.0,-0.43417793373945196,-0.11633271186053039,-0.22850746147229506,0.21194766296846673,-0.054452303273087053,0.06943059670349933,-0.21798669792823816,1.2135223446017818,-0.22014775475284507,-0.007363746580591982,-2.6037612925954887,-0.10894997099213619,2.4682482535574173,0.8264719004548258,1.2134413937687574,-0.2202432315892585,-0.0075118285948192216,-2.6038483821997875,-0.10888392708698907,2.4681821257803174,0.826474908251239,-1.06499114185914e-05,0.0009162582748882104,2.412940621930225e-05,0.0014180893193967915,-0.0003752598934764265,-0.000572123488988595,0.0005955558602890506,0.0,0.0,0.0,0.0,0.0,0.0,0.0,-8.095083302439576e-05,-9.547683641342175e-05,-0.00014808201422723995,-8.708960429881785e-05,6.604390514711178e-05,-6.612777709991136e-05,3.0077964132679824e-06,1.06499114185914e-05,-0.0009162582748882104,-2.412940621930225e-05,-0.0014180893193967915,0.0003752598934764265,0.000572123488988595,-0.0005955558602890506,0.4505855441093445,19.868005752563477,0.4466826617717743,-19.931978225708008,-0.5404563546180725,-2.4493441581726074,0.22830526530742645,0
55,0.2700183391571045,-0.4505855441093445,-19.868005752563477,-0.4466826617717743,19.931978225708008,0.5404563546180725,2.4493441581726074,-0.22830526530742645,0.0,0.0,0.0,0.0,0.0,0.0,0.0,-0.43417793373945196,-0.11633271186053039,-0.22850746147229506,0.21194766296846673,-0.054452303273087053,0.06943059670349933,-0.21798669792823816,1.2135223446017818,-0.22014775475284507,-0.007363746580591982,-2.6037612925954887,-0.10894997099213619,2.4682482535574173,0.8264719004548258,1.2134413937687574,-0.2202432315892585,-0.0075118285948192216,-2.6038483821997875,-0.10888392708698907,2.4681821257803174,0.826474908251239,-1.06499114185914e-05,0.0009162582748882104,2.412940621930225e-05,0.0014180893193967915,-0.0003752598934764265,-0.000572123488988595,0.0005955558602890506,0.0,0.0,0.0,0.0,0.0,0.0,0.0,-8.095083302439576e-05,-9.547683641342175e-05,-0.00014808201422723995,-8.708960429881785e-05,6.604390514711178e-05,-6.612777709991136e-05,3.0077964132679824e-06,1.06499114185914e-05,-0.0009162582748882104,-2.412940621930225e-05,-0.0014180893193967915,0.0003752598934764265,0.000572123488988595,-0.0005955558602890506,0.4505855441093445,19.868005752563477,0.4466826617717743,-19.931978225708008,-0.5404563546180725,-2.4493441581726074,0.22830526530742645,0
56,0.2749967575073242,-0.4505855441093445,-19.868005752563477,-0.4466826617717743,19.931978225708008,0.5404563546180725,2.4493441581726074,-0.22830526530742645,0.0,0.0,0.0,0.0,0.0,0.0,0.0,-0.43417793373945196,-0.11633271186053039,-0.22850746147229506,0.21194766296846673,-0.054452303273087053,0.06943059670349933,-0.21798669792823816,1.2135223446017818,-0.22014775475284507,-0.007363746580591982,-2.6037612925954887,-0.10894997099213619,2.4682482535574173,0.8264719004548258,1.2134413937687574,-0.2202432315892585,-0.0075118285948192216,-2.6038483821997875,-0.10888392708698907,2.4681821257803174,0.826474908251239,-1.06499114185914e-05,0.0009162582748882104,2.412940621930225e-05,0.0014180893193967915,-0.0003752598934764265,-0.000572123488988595,0.0005955558602890506,0.0,0.0,0.0,0.0,0.0,0.0,0.0,-8.095083302439576e-05,-9.547683641342175e-05,-0.00014808201422723995,-8.708960429881785e-05,6.604390514711178e-05,-6.612777709991136e-05,3.0077964132679824e-06,1.06499114185914e-05,-0.0009162582748882104,-2.412940621930225e-05,-0.0014180893193967915,0.0003752598934764265,0.000572123488988595,-0.0005955558602890506,0.4505855441093445,19.868005752563477,0.4466826617717743,-19.931978225708008,-0.5404563546180725,-2.4493441581726074,0.22830526530742645,0
57,0.27996039390563965,-0.4267818331718445,-19.891809463500977,-0.4228789508342743,20.007356643676758,0.5285544991493225,2.4429354667663574,-0.24844686686992645,0.0,0.0,0.0,0.0,0.0,0.0,0.0,-0.44104793352022625,-0.12028962657905813,-0.23524592778359701,0.21545314618220054,-0.054124486275743226,0.06983273706543709,-0.21773833370694337,1.2135206741659266,-0.22014534600431174,-0.007365390605495408,-2.603764282789765,-0.10895219719360669,2.468248978716192,0.826474138410555,1.2134413937687574,-0.2202432315892585,-0.0075118285948192216,-2.6038483821997875,-0.10888392708698907,2.4681821257803174,0.826474908251239,-0.00017051262161648972,0.0007537224415393862,-0.000917870070377632,-0.0005170949398883703,0.00014741111595245284,-6.932454203139462e-05,0.0011354196696969634,0.0,0.0,0.0,0.0,0.0,0.0,0.0,-7.928039716920132e-05,-9.78855849467497e-05,-0.00014643798932381397,-8.40994100226311e-05,6.827010661761279e-05,-6.685293587471719e-05,7.698406840894734e-07,0.00017051262161648972,-0.0007537224415393862,0.000917870070377632,0.0005170949398883703,-0.00014741111595245284,6.932454203139462e-05,-0.0011354196696969634,0.4267818331718445,19.891809463500977,0.4228789508342743,-20.007356643676758,-0.5285544991493225,-2.4429354667663574,0.24844686686992645,0
58,0.2850189208984375,-0.4267818331718445,-19.891809463500977,-0.4228789508342743,20.007356643676758,0.5285544991493225,2.4429354667663574,-0.24844686686992645,0.0,0.0,0.0,0.0,0.0,0.0,0.0,-0.44104793352022625,-0.12028962657905813,-0.23524592778359701,0.21545314618220054,-0.054124486275743226,0.06983273706543709,-0.21773833370694337,1.2135206741659266,-0.22014534600431174,-0.007365390605495408,-2.603764282789765,-0.10895219719360669,2.468248978716192,0.826474138410555,1.2134413937687574,-0.2202432315892585,-0.0075118285948192216,-2.6038483821997875,-0.10888392708698907,2.4681821257803174,0.826474908251239,-0.00017051262161648972,0.0007537224415393862,-0.000917870070377632,-0.0005170949398883703,0.00014741111595245284,-6.932454203139462e-05,0.0011354196696969634,0.0,0.0,0.0,0.0,0.0,0.0,0.0,-7.928039716920132e-05,-9.78855849467497e-05,-0.00014643798932381397,-8.40994100226311e-05,6.827010661761279e-05,-6.685293587471719e-05,7.698406840894734e-07,0.00017051262161648972,-0.0007537224415393862,0.000917870070377632,0.0005170949398883703,-0.00014741111595245284,6.932454203139462e-05,-0.0011354196696969634,0.4267818331718445,19.891809463500977,0.4228789508342743,-20.007356643676758,-0.5285544991493225,-2.4429354667663574,0.24844686686992645,0
59,0.29001617431640625,-0.4029781222343445,-19.891809463500977,-0.3990752398967743,19.955781936645508,0.5285544991493225,2.4429354667663574,-0.20083944499492645,0.0,0.0,0.0,0.0,0.0,0.0,0.0,-0.4356532234036478,-0.11824389086514293,-0.23520556936943934,0.20872008034950243,-0.053992036098167766,0.0692600162845959,-0.21913384915987108,1.2135190037300712,-0.220146084312822,-0.007367140058613866,-2.603760654692512,-0.10895218411042987,2.468248965634314,0.8264688486970133,1.2134413937687574,-0.2202432315892585,-0.0075118285948192216,-2.6038483821997875,-0.10888392708698907,2.4681821257803174,0.826474908251239,-0.0005908535228384042,0.0005538424040657523,-0.0008170076881836715,0.0002949128535549612,0.00011982581716386351,4.9392462901884444e-05,-0.0006609307943347204,0.0,0.0,0.0,0.0,0.0,0.0,0.0,-7.760996131378484e-05,-9.714727643647669e-05,-0.00014468853620535575,-8.772750727548129e-05,6.82570234407931e-05,-6.683985399646986e-05,6.0595542257235735e-06,0.0005908535228384042,-0.0005538424040657523,0.0008170076881836715,-0.0002949128535549612,-0.00011982581716386351,-4.9392462901884444e-05,0.0006609307943347204,0.4029781222343445,19.891809463500977,0.3990752398967743,-19.955781936645508,-0.5285544991493225,-2.4429354667663574,0.20083944499492645,0
60,0.29500675201416016,-0.4029781222343445,-19.891809463500977,-0.3990752398967743,19.955781936645508,0.5285544991493225,2.4429354667663574,-0.20083944499492645,0.0,0.0,0.0,0.0,0.0,0.0,0.0,-0.4356532234036478,-0.11824389086514293,-0.23520556936943934,0.20872008034950243,-0.053992036098167766,0.0692600162845959,-0.21913384915987108,1.2135190037300712,-0.220146084312822,-0.007367140058613866,-2.603760654692512,-0.10895218411042987,2.468248965634314,0.8264688486970133,1.2134413937687574,-0.2202432315892585,-0.0075118285948192216,-2.6038483821997875,-0.10888392708698907,2.4681821257803174,0.826474908251239,-0.0005908535228384042,0.0005538424040657523,-0.0008170076881836715,0.0002949128535549612,0.00011982581716386351,4.9392462901884444e-05,-0.0006609307943347204,0.0,0.0,0.0,0.0,0.0,0.0,0.0,-7.760996131378484e-05,-9.714727643647669e-05,-0.00014468853620535575,-8.772750727548129e-05,6.82570234407931e-05,-6.683985399646986e-05,6.0595542257235735e-06,0.0005908535228384042,-0.0005538424040657523,0.0008170076881836715,-0.0002949128535549612,-0.00011982581716386351,-4.9392462901884444e-05,0.0006609307943347204,0.4029781222343445,19.891809463500977,0.3990752398967743,-19.955781936645508,-0.5285544991493225,-2.4429354667663574,0.20083944499492645,0
61,0.30001235008239746,-0.4029781222343445,-19.891809463500977,-0.3990752398967743,19.955781936645508,0.5285544991493225,2.4429354667663574,-0.20083944499492645,0.0,0.0,0.0,0.0,0.0,0.0,0.0,-0.4356532234036478,-0.11824389086514293,-0.23520556936943934,0.20872008034950243,-0.053992036098167766,0.0692600162845959,-0.21913384915987108,1.2135190037300712,-0.220146084312822,-0.007367140058613866,-2.603760654692512,-0.10895218411042987,2.468248965634314,0.8264688486970133,1.2134413937687574,-0.2202432315892585,-0.0075118285948192216,-2.6038483821997875,-0.10888392708698907,2.4681821257803174,0.826474908251239,-0.0005908535228384042,0.0005538424040657523,-0.0008170076881836715,0.0002949128535549612,0.00011982581716386351,4.9392462901884444e-05,-0.0006609307943347204,0.0,0.0,0.0,0.0,0.0,0.0,0.0,-7.760996131378484e-05,-9.714727643647669e-05,-0.00014468853620535575,-8.772750727548129e-05,6.82570234407931e-05,-6.683985399646986e-05,6.0595542257235735e-06,0.0005908535228384042,-0.0005538424040657523,0.0008170076881836715,-0.0002949128535549612,-0.00011982581716386351,-4.9392462901884444e-05,0.0006609307943347204,0.4029781222343445,19.891809463500977,0.3990752398967743,-19.955781936645508,-0.5285544991493225,-2.4429354667663574,0.20083944499492645,0
62,0.30501842498779297,-0.4029781222343445,-19.891809463500977,-0.3990752398967743,19.955781936645508,0.5285544991493225,2.4429354667663574,-0.20083944499492645,0.0,0.0,0.0,0.0,0.0,0.0,0.0,-0.4356532234036478,-0.11824389086514293,-0.23520556936943934,0.20872008034950243,-0.053992036098167766,0.0692600162845959,-0.21913384915987108,1.2135190037300712,-0.220146084312822,-0.007367140058613866,-2.603760654692512,-0.10895218411042987,2.468248965634314,0.8264688486970133,1.2134413937687574,-0.2202432315892585,-0.0075118285948192216,-2.6038483821997875,-0.10888392708698907,2.4681821257803174,0.826474908251239,-0.0005908535228384042,0.0005538424040657523,-0.0008170076881836715,0.0002949128535549612,0.00011982581716386351,4.9392462901884444e-05,-0.0006609307943347204,0.0,0.0,0.0,0.0,0.0,0.0,0.0,-7.760996131378484e-05,-9.714727643647669e-05,-0.00014468853620535575,-8.772750727548129e-05,6.82570234407931e-05,-6.683985399646986e-05,6.0595542257235735e-06,0.0005908535228384042,-0.0005538424040657523,0.0008170076881836715,-0.0002949128535549612,-0.00011982581716386351,-4.9392462901884444e-05,0.0006609307943347204,0.4029781222343445,19.891809463500977,0.3990752398967743,-19.955781936645508,-0.5285544991493225,-2.4429354667663574,0.20083944499492645,0
63,0.31000638008117676,-0.4029781222343445,-19.891809463500977,-0.4228789508342743,19.983552932739258,0.5285544991493225,2.4429354667663574,-0.19351522624492645,0.0,0.0,0.0,0.0,0.0,0.0,0.0,-0.43487680605463724,-0.12462010997536614,-0.23613143232850303,0.2088045586858802,-0.05362614386070758,0.07025322233835458,-0.21795464643572723,1.2135190037300712,-0.22014608431698982,-0.007365469514663846,-2.603762685586306,-0.10895219725367933,2.46824896563424,0.82646803489493,1.2134413937687574,-0.2202432315892585,-0.0075118285948192216,-2.6038483821997875,-0.10888392708698907,2.4681821257803174,0.826474908251239,-0.00029317692463176593,0.00024071736222689707,0.0002643279738967205,0.00015150049716268564,-9.467742960547732e-05,-0.00010469585231930286,-0.00031079525162678234,0.0,0.0,0.0,0.0,0.0,0.0,0.0,-7.760996131378484e-05,-9.71472722686717e-05,-0.0001463590801553758,-8.56966134814563e-05,6.82701666902541e-05,-6.683985392275105e-05,6.8733563090006555e-06,0.00029317692463176593,-0.00024071736222689707,-0.0002643279738967205,-0.00015150049716268564,9.467742960547732e-05,0.00010469585231930286,0.00031079525162678234,0.4029781222343445,19.891809463500977,0.4228789508342743,-19.983552932739258,-0.5285544991493225,-2.4429354667663574,0.19351522624492645,0
64,0.31499814987182617,-0.4029781222343445,-19.891809463500977,-0.4228789508342743,19.983552932739258,0.5285544991493225,2.4429354667663574,-0.19351522624492645,0.0,0.0,0.0,0.0,0.0,0.0,0.0,-0.43487680605463724,-0.12462010997536614,-0.23613143232850303,0.2088045586858802,-0.05362614386070758,0.07025322233835458,-0.21795464643572723,1.2135190037300712,-0.22014608431698982,-0.007365469514663846,-2.603762685586306,-0.10895219725367933,2.46824896563424,0.82646803489493,1.2134413937687574,-0.2202432315892585,-0.0075118285948192216,-2.6038483821997875,-0.10888392708698907,2.4681821257803174,0.826474908251239,-0.00029317692463176593,0.00024071736222689707,0.0002643279738967205,0.00015150049716268564,-9.467742960547732e-05,-0.00010469585231930286,-0.00031079525162678234,0.0,0.0,0.0,0.0,0.0,0.0,0.0,-7.760996131378484e-05,-9.71472722686717e-05,-0.0001463590801553758,-8.56966134814563e-05,6.82701666902541e-05,-6.683985392275105e-05,6.8733563090006555e-06,0.00029317692463176593,-0.00024071736222689707,-0.0002643279738967205,-0.00015150049716268564,9.467742960547732e-05,0.00010469585231930286,0.00031079525162678234,0.4029781222343445,19.891809463500977,0.4228789508342743,-19.983552932739258,-0.5285544991493225,-2.4429354667663574,0.19351522624492645,0
65,0.32001280784606934,-0.4505855441093445,-19.891809463500977,-0.3990752398967743,19.983552932739258,0.5404563546180725,2.4365267753601074,-0.22830526530742645,0.0,0.0,0.0,0.0,0.0,0.0,0.0,-0.4324729569343148,-0.1286047455658311,-0.23212537145544326,0.20987670786112905,-0.05392833387676722,0.07048341441230808,-0.21615067410111757,1.2135223446017818,-0.22014608431698982,-0.0073670610769846065,-2.603762932860331,-0.10895351968208947,2.468249677711063,0.8264719004548258,1.2134413937687574,-0.2202432315892585,-0.0075118285948192216,-2.6038483821997875,-0.10888392708698907,2.4681821257803174,0.826474908251239,0.000755045269006944,0.0001408798236573969,-0.00018235432366455316,0.000357160865860459,-0.0003788129519127816,0.0003449571086091126,0.0005971849122561828,0.0,0.0,0.0,0.0,0.0,0.0,0.0,-8.095083302439576e-05,-9.71472722686717e-05,-0.0001447675178346151,-8.544933945664468e-05,6.959259510039284e-05,-6.755193074559074e-05,3.0077964132679824e-06,-0.000755045269006944,-0.0001408798236573969,0.00018235432366455316,-0.000357160865860459,0.0003788129519127816,-0.0003449571086091126,-0.0005971849122561828,0.4505855441093445,19.891809463500977,0.3990752398967743,-19.983552932739258,-0.5404563546180725,-2.4365267753601074,0.22830526530742645,0
66,0.3249506950378418,-0.4505855441093445,-19.891809463500977,-0.3990752398967743,19.983552932739258,0.5404563546180725,2.4365267753601074,-0.22830526530742645,0.0,0.0,0.0,0.0,0.0,0.0,0.0,-0.4324729569343148,-0.1286047455658311,-0.23212537145544326,0.20987670786112905,-0.05392833387676722,0.07048341441230808,-0.21615067410111757,1.2135223446017818,-0.22014608431698982,-0.0073670610769846065,-2.603762932860331,-0.10895351968208947,2.468249677711063,0.8264719004548258,1.2134413937687574,-0.2202432315892585,-0.0075118285948192216,-2.6038483821997875,-0.10888392708698907,2.4681821257803174,0.826474908251239,0.000755045269006944,0.0001408798236573969,-0.00018235432366455316,0.000357160865860459,-0.0003788129519127816,0.0003449571086091126,0.0005971849122561828,0.0,0.0,0.0,0.0,0.0,0.0,0.0,-8.095083302439576e-05,-9.71472722686717e-05,-0.0001447675178346151,-8.544933945664468e-05,6.959259510039284e-05,-6.755193074559074e-05,3.0077964132679824e-06,-0.000755045269006944,-0.0001408798236573969,0.00018235432366455316,-0.000357160865860459,0.0003788129519127816,-0.0003449571086091126,-0.0005971849122561828,0.4505855441093445,19.891809463500977,0.3990752398967743,-19.983552932739258,-0.5404563546180725,-2.4365267753601074,0.22830526530742645,0
67,0.33002567291259766,-0.4505855441093445,-19.816431045532227,-0.4466826617717743,19.983552932739258,0.5285544991493225,2.4429354667663574,-0.20083944499492645,0.0,0.0,0.0,0.0,0.0,0.0,0.0,-0.43401252741084523,-0.12102989326645117,-0.2298604890340374,0.2041281019155153,-0.05477524055936063,0.06910506836810931,-0.21525948823141822,1.2135223446017818,-0.22015137403053148,-0.007363746488384609,-2.6037626031574526,-0.10895219725370406,2.46824896563424,0.8264688486970133,1.2134413937687574,-0.2202432315892585,-0.0075118285948192216,-2.6038483821997875,-0.10888392708698907,2.4681821257803174,0.826474908251239,0.00058315580420835,-0.0007172034861719133,6.11470221266949e-05,6.815875992670231e-06,-2.5730213088291453e-06,7.94300833185398e-06,-0.0010696676046804913,0.0,0.0,0.0,0.0,0.0,0.0,0.0,-8.095083302439576e-05,-9.185755872700985e-05,-0.00014808210643461276,-8.577904233497691e-05,6.827016671498431e-05,-6.683985392275105e-05,6.0595542257235735e-06,-0.00058315580420835,0.0007172034861719133,-6.11470221266949e-05,-6.815875992670231e-06,2.5730213088291453e-06,-7.94300833185398e-06,0.0010696676046804913,0.4505855441093445,19.816431045532227,0.4466826617717743,-19.983552932739258,-0.5285544991493225,-2.4429354667663574,0.20083944499492645,0
68,0.33500194549560547,-0.4505855441093445,-19.816431045532227,-0.4466826617717743,19.983552932739258,0.5285544991493225,2.4429354667663574,-0.20083944499492645,0.0,0.0,0.0,0.0,0.0,0.0,0.0,-0.43401252741084523,-0.12102989326645117,-0.2298604890340374,0.2041281019155153,-0.05477524055936063,0.06910506836810931,-0.21525948823141822,1.2135223446017818,-0.22015137403053148,-0.007363746488384609,-2.6037626031574526,-0.10895219725370406,2.46824896563424,0.8264688486970133,1.2134413937687574,-0.2202432315892585,-0.0075118285948192216,-2.6038483821997875,-0.10888392708698907,2.4681821257803174,0.826474908251239,0.00058315580420835,-0.0007172034861719133,6.11470221266949e-05,6.815875992670231e-06,-2.5730213088291453e-06,7.94300833185398e-06,-0.0010696676046804913,0.0,0.0,0.0,0.0,0.0,0.0,0.0,-8.095083302439576e-05,-9.185755872700985e-05,-0.00014808210643461276,-8.577904233497691e-05,6.827016671498431e-05,-6.683985392275105e-05,6.0595542257235735e-06,-0.00058315580420835,0.0007172034861719133,-6.11470221266949e-05,-6.815875992670231e-06,2.5730213088291453e-06,-7.94300833185398e-06,0.0010696676046804913,0.4505855441093445,19.816431045532227,0.4466826617717743,-19.983552932739258,-0.5285544991493225,-2.4429354667663574,0.20083944499492645,0
69,0.3399977684020996,-0.4505855441093445,-19.844202041625977,-0.4228789508342743,20.007356643676758,0.5166526436805725,2.4301180839538574,-0.22830526530742645,0.0,0.0,0.0,0.0,0.0,0.0,0.0,-0.42841786568500506,-0.12447793541694366,-0.22426242915524142,0.2120510683582843,-0.05537339967809258,0.07098234197464814,-0.21636864038902354,1.2135223446017818,-0.22014942518870034,-0.007365390605196701,-2.603764273630985,-0.10895087482531864,2.468250389787886,0.8264719004548258,1.2134413937687574,-0.2202432315892585,-0.0075118285948192216,-2.6038483821997875,-0.10888392708698907,2.4681821257803174,0.826474908251239,0.0003876435334751291,-0.00019158846441789658,0.0003562836578859952,-0.0005343094234708205,0.00038734763869316597,0.0006764186377290183,0.0008947155170787409,0.0,0.0,0.0,0.0,0.0,0.0,0.0,-8.095083302439576e-05,-9.380640055814404e-05,-0.00014643798962252035,-8.410856880258777e-05,6.694773832956191e-05,-6.826400756843043e-05,3.0077964132679824e-06,-0.0003876435334751291,0.00019158846441789658,-0.0003562836578859952,0.0005343094234708205,-0.00038734763869316597,-0.0006764186377290183,-0.0008947155170787409,0.4505855441093445,19.844202041625977,0.4228789508342743,-20.007356643676758,-0.5166526436805725,-2.4301180839538574,0.22830526530742645,0
70,0.34499454498291016,-0.4505855441093445,-19.844202041625977,-0.4228789508342743,20.007356643676758,0.5166526436805725,2.4301180839538574,-0.22830526530742645,0.0,0.0,0.0,0.0,0.0,0.0,0.0,-0.42841786568500506,-0.12447793541694366,-0.22426242915524142,0.2120510683582843,-0.05537339967809258,0.07098234197464814,-0.21636864038902354,1.2135223446017818,-0.22014942518870034,-0.007365390605196701,-2.603764273630985,-0.10895087482531864,2.468250389787886,0.8264719004548258,1.2134413937687574,-0.2202432315892585,-0.0075118285948192216,-2.6038483821997875,-0.10888392708698907,2.4681821257803174,0.826474908251239,0.0003876435334751291,-0.00019158846441789658,0.0003562836578859952,-0.0005343094234708205,0.00038734763869316597,0.0006764186377290183,0.0008947155170787409,0.0,0.0,0.0,0.0,0.0,0.0,0.0,-8.095083302439576e-05,-9.380640055814404e-05,-0.00014643798962252035,-8.410856880258777e-05,6.694773832956191e-05,-6.826400756843043e-05,3.0077964132679824e-06,-0.0003876435334751291,0.00019158846441789658,-0.0003562836578859952,0.0005343094234708205,-0.00038734763869316597,-0.0006764186377290183,-0.0008947155170787409,0.4505855441093445,19.844202041625977,0.4228789508342743,-20.007356643676758,-0.5166526436805725,-2.4301180839538574,0.22830526530742645,0
71,0.350292444229126,-0.4505855441093445,-19.844202041625977,-0.4228789508342743,19.983552932739258,0.5340476632118225,2.4301180839538574,-0.23471395671367645,0.0,0.0,0.0,0.0,0.0,0.0,0.0,-0.4327653010787806,-0.12109317895378306,-0.22624893122876827,0.21384454791416618,-0.05594275253870932,0.07112528598722992,-0.21587256736826932,1.2135223446017818,-0.22014942518870034,-0.0073654199390200984,-2.6037626859505902,-0.10894961378971735,2.468250389787886,0.8264727302692186,1.2134413937687574,-0.2202432315892585,-0.0075118285948192216,-2.6038483821997875,-0.10888392708698907,2.4681821257803174,0.826474908251239,0.0006227654553249664,-0.00031173095156188926,-0.0001729888584181618,0.000182519750266179,-0.0002387145324105718,0.00045603210572332033,0.01024802981057277,0.0,0.0,0.0,0.0,0.0,0.0,0.0,-8.095083302439576e-05,-9.380640055814404e-05,-0.00014640865579912312,-8.56962491972979e-05,6.56867027282737e-05,-6.826400756843043e-05,2.1779820204015365e-06,-0.0006227654553249664,0.00031173095156188926,0.0001729888584181618,-0.000182519750266179,0.0002387145324105718,-0.00045603210572332033,-0.01024802981057277,0.4505855441093445,19.844202041625977,0.4228789508342743,-19.983552932739258,-0.5340476632118225,-2.4301180839538574,0.23471395671367645,0
72,0.35500216484069824,-0.4505855441093445,-19.844202041625977,-0.4228789508342743,19.983552932739258,0.5340476632118225,2.4301180839538574,-0.23471395671367645,0.0,0.0,0.0,0.0,0.0,0.0,0.0,-0.4327653010787806,-0.12109317895378306,-0.22624893122876827,0.21384454791416618,-0.05594275253870932,0.07112528598722992,-0.21587256736826932,1.2135223446017818,-0.22014942518870034,-0.0073654199390200984,-2.6037626859505902,-0.10894961378971735,2.468250389787886,0.8264727302692186,1.2134413937687574,-0.2202432315892585,-0.0075118285948192216,-2.6038483821997875,-0.10888392708698907,2.4681821257803174,0.826474908251239,0.0006227654553249664,-0.00031173095156188926,-0.0001729888584181618,0.000182519750266179,-0.0002387145324105718,0.00045603210572332033,0.01024802981057277,0.0,0.0,0.0,0.0,0.0,0.0,0.0,-8.095083302439576e-05,-9.380640055814404e-05,-0.00014640865579912312,-8.56962491972979e-05,6.56867027282737e-05,-6.826400756843043e-05,2.1779820204015365e-06,-0.0006227654553249664,0.00031173095156188926,0.0001729888584181618,-0.000182519750266179,0.0002387145324105718,-0.00045603210572332033,-0.01024802981057277,0.4505855441093445,19.844202041625977,0.4228789508342743,-19.983552932739258,-0.5340476632118225,-2.4301180839538574,0.23471395671367645,0
73,0.3599977493286133,-0.4783565402030945,-19.868005752563477,-0.4466826617717743,19.983552932739258,0.5340476632118225,2.4493441581726074,-0.18710653483867645,0.0,0.0,0.0,0.0,0.0,0.0,0.0,-0.4369133541676741,-0.12181482152148643,-0.2284579481237165,0.2156836550516761,-0.056039633142069875,0.07110667184051539,-0.21690470676700596,1.2135242934436128,-0.22014775475284507,-0.007363720277601895,-2.603762603157912,-0.10895280758723738,2.4682482535574173,0.8264673620646283,1.2134413937687574,-0.2202432315892585,-0.0075118285948192216,-2.6038483821997875,-0.10888392708698907,2.4681821257803174,0.826474908251239,0.0006674755490065481,-9.161093795531276e-05,0.000277627189113749,0.00025014787258823034,-0.00018531708073768878,-0.00019627930603026428,-0.0008636786968024401,0.0,0.0,0.0,0.0,0.0,0.0,0.0,-8.289967485541894e-05,-9.547683641342175e-05,-0.00014810831721732629,-8.577904187534457e-05,6.888050024830839e-05,-6.612777709991136e-05,7.546186610696282e-06,-0.0006674755490065481,9.161093795531276e-05,-0.000277627189113749,-0.00025014787258823034,0.00018531708073768878,0.00019627930603026428,0.0008636786968024401,0.4783565402030945,19.868005752563477,0.4466826617717743,-19.983552932739258,-0.5340476632118225,-2.4493441581726074,0.18710653483867645,0
74,0.3650050163269043,-0.4783565402030945,-19.868005752563477,-0.4466826617717743,19.983552932739258,0.5340476632118225,2.4493441581726074,-0.18710653483867645,0.0,0.0,0.0,0.0,0.0,0.0,0.0,-0.4369133541676741,-0.12181482152148643,-0.2284579481237165,0.2156836550516761,-0.056039633142069875,0.07110667184051539,-0.21690470676700596,1.2135242934436128,-0.22014775475284507,-0.007363720277601895,-2.603762603157912,-0.10895280758723738,2.4682482535574173,0.8264673620646283,1.2134413937687574,-0.2202432315892585,-0.0075118285948192216,-2.6038483821997875,-0.10888392708698907,2.4681821257803174,0.826474908251239,0.0006674755490065481,-9.161093795531276e-05,0.000277627189113749,0.00025014787258823034,-0.00018531708073768878,-0.00019627930603026428,-0.0008636786968024401,0.0,0.0,0.0,0.0,0.0,0.0,0.0,-8.289967485541894e-05,-9.547683641342175e-05,-0.00014810831721732629,-8.577904187534457e-05,6.888050024830839e-05,-6.612777709991136e-05,7.546186610696282e-06,-0.0006674755490065481,9.161093795531276e-05,-0.000277627189113749,-0.00025014787258823034,0.00018531708073768878,0.00019627930603026428,0.0008636786968024401,0.4783565402030945,19.868005752563477,0.4466826617717743,-19.983552932739258,-0.5340476632118225,-2.4493441581726074,0.18710653483867645,0
75,0.370009183883667,-0.4783565402030945,-19.868005752563477,-0.4704863727092743,19.955781936645508,0.5221458077430725,2.4429354667663574,-0.24112264811992645,0.0,0.0,0.0,0.0,0.0,0.0,0.0,-0.4391052927860783,-0.1258580387909075,-0.22954693501110462,0.21592806844133677,-0.05570033149809824,0.0714447209770443,-0.21730360804729387,1.2135242934436128,-0.22014775475284507,-0.0073620585010579975,-2.603760654315614,-0.10895148517688083,2.46824896563424,0.8264733246091364,1.2134413937687574,-0.2202432315892585,-0.0075118285948192216,-2.6038483821997875,-0.10888392708698907,2.4681821257803174,0.826474908251239,0.0007625389690252902,-0.0007165077229872947,0.00038581043439070407,0.0008786795308654913,0.0003099004219606743,-2.94152266152897e-05,0.001170709693333619,0.0,0.0,0.0,0.0,0.0,0.0,0.0,-8.289967485541894e-05,-9.547683641342175e-05,-0.00014977009376122407,-8.77278841735496e-05,6.755808989175605e-05,-6.683985392275105e-05,1.5836421026760306e-06,-0.0007625389690252902,0.0007165077229872947,-0.00038581043439070407,-0.0008786795308654913,-0.0003099004219606743,2.94152266152897e-05,-0.001170709693333619,0.4783565402030945,19.868005752563477,0.4704863727092743,-19.955781936645508,-0.5221458077430725,-2.4429354667663574,0.24112264811992645,0
76,0.37501955032348633,-0.4783565402030945,-19.868005752563477,-0.4704863727092743,19.955781936645508,0.5221458077430725,2.4429354667663574,-0.24112264811992645,0.0,0.0,0.0,0.0,0.0,0.0,0.0,-0.4391052927860783,-0.1258580387909075,-0.22954693501110462,0.21592806844133677,-0.05570033149809824,0.0714447209770443,-0.21730360804729387,1.2135242934436128,-0.22014775475284507,-0.0073620585010579975,-2.603760654315614,-0.10895148517688083,2.46824896563424,0.8264733246091364,1.2134413937687574,-0.2202432315892585,-0.0075118285948192216,-2.6038483821997875,-0.10888392708698907,2.4681821257803174,0.826474908251239,0.0007625389690252902,-0.0007165077229872947,0.00038581043439070407,0.0008786795308654913,0.0003099004219606743,-2.94152266152897e-05,0.001170709693333619,0.0,0.0,0.0,0.0,0.0,0.0,0.0,-8.289967485541894e-05,-9.547683641342175e-05,-0.00014977009376122407,-8.77278841735496e-05,6.755808989175605e-05,-6.683985392275105e-05,1.5836421026760306e-06,-0.0007625389690252902,0.0007165077229872947,-0.00038581043439070407,-0.0008786795308654913,-0.0003099004219606743,2.94152266152897e-05,-0.001170709693333619,0.4783565402030945,19.868005752563477,0.4704863727092743,-19.955781936645508,-0.5221458077430725,-2.4429354667663574,0.24112264811992645,0
77,0.3800079822540283,-0.4505855441093445,-19.891809463500977,-0.4466826617717743,19.983552932739258,0.5340476632118225,2.4365267753601074,-0.20083944499492645,0.0,0.0,0.0,0.0,0.0,0.0,0.0,-0.43982300786927453,-0.12117922207508369,-0.23276197369689824,0.208423082657308,-0.05613031864357333,0.07052553539850388,-0.21628260009357847,1.2135223446017818,-0.22014608301485106,-0.0073637201692423595,-2.6037628504063415,-0.10894957419763313,2.468249677711063,0.8264688486970133,1.2134413937687574,-0.2202432315892585,-0.0075118285948192216,-2.6038483821997875,-0.10888392708698907,2.4681821257803174,0.826474908251239,0.0002201846845627599,0.0004391632031669412,-0.0002336668240688714,-0.0002748341613146476,-0.00010461133240444116,0.00015244449851327697,-0.0007907549723225462,0.0,0.0,0.0,0.0,0.0,0.0,0.0,-8.095083302439576e-05,-9.714857440742963e-05,-0.00014810842557686204,-8.553179344605866e-05,6.564711064405149e-05,-6.755193074559074e-05,6.0595542257235735e-06,-0.0002201846845627599,-0.0004391632031669412,0.0002336668240688714,0.0002748341613146476,0.00010461133240444116,-0.00015244449851327697,0.0007907549723225462,0.4505855441093445,19.891809463500977,0.4466826617717743,-19.983552932739258,-0.5340476632118225,-2.4365267753601074,0.20083944499492645,0
78,0.38501811027526855,-0.4505855441093445,-19.891809463500977,-0.4466826617717743,19.983552932739258,0.5340476632118225,2.4365267753601074,-0.20083944499492645,0.0,0.0,0.0,0.0,0.0,0.0,0.0,-0.43982300786927453,-0.12117922207508369,-0.23276197369689824,0.208423082657308,-0.05613031864357333,0.07052553539850388,-0.21628260009357847,1.2135223446017818,-0.22014608301485106,-0.0073637201692423595,-2.6037628504063415,-0.10894957419763313,2.468249677711063,0.8264688486970133,1.2134413937687574,-0.2202432315892585,-0.0075118285948192216,-2.6038483821997875,-0.10888392708698907,2.4681821257803174,0.826474908251239,0.0002201846845627599,0.0004391632031669412,-0.0002336668240688714,-0.0002748341613146476,-0.00010461133240444116,0.00015244449851327697,-0.0007907549723225462,0.0,0.0,0.0,0.0,0.0,0.0,0.0,-8.095083302439576e-05,-9.714857440742963e-05,-0.00014810842557686204,-8.553179344605866e-05,6.564711064405149e-05,-6.755193074559074e-05,6.0595542257235735e-06,-0.0002201846845627599,-0.0004391632031669412,0.0002336668240688714,0.0002748341613146476,0.00010461133240444116,-0.00015244449851327697,0.0007907549723225462,0.4505855441093445,19.891809463500977,0.4466826617717743,-19.983552932739258,-0.5340476632118225,-2.4365267753601074,0.20083944499492645,0
79,0.3900177478790283,-0.4783565402030945,-19.868005752563477,-0.4228789508342743,19.983552932739258,0.5285544991493225,2.4365267753601074,-0.23471395671367645,0.0,0.0,0.0,0.0,0.0,0.0,0.0,-0.43950374935887604,-0.12838925511976765,-0.2344209832243121,0.21225354872647587,-0.05563077845861637,0.0707282904640212,-0.21583807652127351,1.2135242934436128,-0.22014775475284262,-0.007365390605048128,-2.6037633449046007,-0.1089521577637107,2.468249677711063,0.8264726125316487,1.2134413937687574,-0.2202432315892585,-0.0075118285948192216,-2.6038483821997875,-0.10888392708698907,2.4681821257803174,0.826474908251239,0.0009622864786145611,-0.0002009559339051487,-0.00038149875563104897,0.000161102873822984,2.018418608982573e-05,0.00012406906276896988,0.0009495987181163441,0.0,0.0,0.0,0.0,0.0,0.0,0.0,-8.289967485541894e-05,-9.547683641586424e-05,-0.00014643798977109334,-8.503729518682945e-05,6.823067672162564e-05,-6.755193074559074e-05,2.295719590317269e-06,-0.0009622864786145611,0.0002009559339051487,0.00038149875563104897,-0.000161102873822984,-2.018418608982573e-05,-0.00012406906276896988,-0.0009495987181163441,0.4783565402030945,19.868005752563477,0.4228789508342743,-19.983552932739258,-0.5285544991493225,-2.4365267753601074,0.23471395671367645,0
