rezayati/contactInterpretation/dataset/franka_main/labeled_data/link7/a1_5.csv
index,time,tau_J0,tau_J1,tau_J2,tau_J3,tau_J4,tau_J5,tau_J6,tau_J_d0,tau_J_d1,tau_J_d2,tau_J_d3,tau_J_d4,tau_J_d5,tau_J_d6,tau_ext0,tau_ext1,tau_ext2,tau_ext3,tau_ext4,tau_ext5,tau_ext6,q0,q1,q2,q3,q4,q5,q6,q_d0,q_d1,q_d2,q_d3,q_d4,q_d5,q_d6,dq0,dq1,dq2,dq3,dq4,dq5,dq6,dq_d0,dq_d1,dq_d2,dq_d3,dq_d4,dq_d5,dq_d6,e0,e1,e2,e3,e4,e5,e6,de0,de1,de2,de3,de4,de5,de6,etau_J0,etau_J1,etau_J2,etau_J3,etau_J4,etau_J5,etau_J6,label
1,0.0,-0.8592159152030945,-46.64718246459961,-5.735073566436768,19.535249710083008,0.8261008858680725,2.3852572441101074,-0.41965049505233765,0.0,0.0,0.0,0.0,0.0,0.0,0.0,-0.8096427791619804,-0.3329981805512877,-0.5724039125079481,0.33279464595460206,0.2370759741288109,0.12123629290860725,-0.41687882687253264,0.8781844733096006,0.754968881004735,-0.28240182958271254,-1.6688912985784965,0.14132206504872336,2.4034267784009407,1.0273679664863478,0.878092876070424,0.7554597494309409,-0.2825552651693207,-1.6690993614607135,0.1414185955172306,2.4034451173676383,1.0273381002308042,0.0009130192175922427,-0.000180557884784814,0.00013964596437316253,0.0004710958338895556,-0.0001340777941342589,-4.043711492912315e-05,-0.00010246352812820297,0.0,0.0,0.0,0.0,0.0,0.0,0.0,-9.159723917662177e-05,0.000490868426205826,-0.00015343558660818601,-0.000208062882216975,9.653046850724434e-05,1.8338966697672987e-05,-2.9866255543575804e-05,-0.0009130192175922427,0.000180557884784814,-0.00013964596437316253,-0.0004710958338895556,0.0001340777941342589,4.043711492912315e-05,0.00010246352812820297,0.8592159152030945,46.64718246459961,5.735073566436768,-19.535249710083008,-0.8261008858680725,-2.3852572441101074,0.41965049505233765,0
2,0.005003690719604492,-0.8592159152030945,-46.64718246459961,-5.735073566436768,19.535249710083008,0.8141990303993225,2.3788485527038574,-0.44711631536483765,0.0,0.0,0.0,0.0,0.0,0.0,0.0,-0.8175541738403206,-0.33235391307800294,-0.5751525785635775,0.3301288304407258,0.23707100880008908,0.12058540867232621,-0.41648600104514133,0.8781844733096006,0.754968881004735,-0.2824018291626883,-1.6688912985784965,0.1413238993983783,2.403430910661529,1.027371005162208,0.878092876070424,0.7554597494309409,-0.2825552651693207,-1.6690993614607135,0.1414185955172306,2.4034451173676383,1.0273381002308042,0.0011791825395645837,-0.0006562841914382053,-2.0931865596922163e-05,-0.00022888068516815782,0.00023716637317958695,0.0003592147702371956,0.0010396481234974091,0.0,0.0,0.0,0.0,0.0,0.0,0.0,-9.159723917662177e-05,0.000490868426205826,-0.00015343600663242363,-0.000208062882216975,9.469611885229434e-05,1.420670610929875e-05,-3.290493140384321e-05,-0.0011791825395645837,0.0006562841914382053,2.0931865596922163e-05,0.00022888068516815782,-0.00023716637317958695,-0.0003592147702371956,-0.0010396481234974091,0.8592159152030945,46.64718246459961,5.735073566436768,-19.535249710083008,-0.8141990303993225,-2.3788485527038574,0.44711631536483765,0
3,0.010001659393310547,-0.8592159152030945,-46.64718246459961,-5.735073566436768,19.535249710083008,0.8141990303993225,2.3788485527038574,-0.44711631536483765,0.0,0.0,0.0,0.0,0.0,0.0,0.0,-0.8175541738403206,-0.33235391307800294,-0.5751525785635775,0.3301288304407258,0.23707100880008908,0.12058540867232621,-0.41648600104514133,0.8781844733096006,0.754968881004735,-0.2824018291626883,-1.6688912985784965,0.1413238993983783,2.403430910661529,1.027371005162208,0.878092876070424,0.7554597494309409,-0.2825552651693207,-1.6690993614607135,0.1414185955172306,2.4034451173676383,1.0273381002308042,0.0011791825395645837,-0.0006562841914382053,-2.0931865596922163e-05,-0.00022888068516815782,0.00023716637317958695,0.0003592147702371956,0.0010396481234974091,0.0,0.0,0.0,0.0,0.0,0.0,0.0,-9.159723917662177e-05,0.000490868426205826,-0.00015343600663242363,-0.000208062882216975,9.469611885229434e-05,1.420670610929875e-05,-3.290493140384321e-05,-0.0011791825395645837,0.0006562841914382053,2.0931865596922163e-05,0.00022888068516815782,-0.00023716637317958695,-0.0003592147702371956,-0.0010396481234974091,0.8592159152030945,46.64718246459961,5.735073566436768,-19.535249710083008,-0.8141990303993225,-2.3788485527038574,0.44711631536483765,0
4,0.014998674392700195,-0.8354122042655945,-46.67495346069336,-5.711269855499268,19.559053421020508,0.8141990303993225,2.3916659355163574,-0.42605918645858765,0.0,0.0,0.0,0.0,0.0,0.0,0.0,-0.8230758741671345,-0.34000070910066443,-0.5785550161233225,0.3317692562206887,0.23640531187508368,0.1209219908373861,-0.41601355242949023,0.8781828028737453,0.7549708298465662,-0.28240234482521176,-1.668892969014352,0.14132354885642867,2.403429564857398,1.027368678563097,0.878092876070424,0.7554597494309409,-0.2825552651693207,-1.6690993614607135,0.1414185955172306,2.4034451173676383,1.0273381002308042,9.538298412184358e-05,-0.0001138910070867629,-0.0009633308162271438,-0.0004404746049266884,0.00021329520619840046,-0.0001477473466203331,0.0003311607411435124,0.0,0.0,0.0,0.0,0.0,0.0,0.0,-8.99268033213163e-05,0.0004889195843746919,-0.00015292034410896438,-0.0002063924463615585,9.504666080192847e-05,1.555251024054627e-05,-3.057833229291873e-05,-9.538298412184358e-05,0.0001138910070867629,0.0009633308162271438,0.0004404746049266884,-0.00021329520619840046,0.0001477473466203331,-0.0003311607411435124,0.8354122042655945,46.67495346069336,5.711269855499268,-19.559053421020508,-0.8141990303993225,-2.3916659355163574,0.42605918645858765,0
5,0.02000141143798828,-0.8354122042655945,-46.67495346069336,-5.711269855499268,19.559053421020508,0.8141990303993225,2.3916659355163574,-0.42605918645858765,0.0,0.0,0.0,0.0,0.0,0.0,0.0,-0.8230758741671345,-0.34000070910066443,-0.5785550161233225,0.3317692562206887,0.23640531187508368,0.1209219908373861,-0.41601355242949023,0.8781828028737453,0.7549708298465662,-0.28240234482521176,-1.668892969014352,0.14132354885642867,2.403429564857398,1.027368678563097,0.878092876070424,0.7554597494309409,-0.2825552651693207,-1.6690993614607135,0.1414185955172306,2.4034451173676383,1.0273381002308042,9.538298412184358e-05,-0.0001138910070867629,-0.0009633308162271438,-0.0004404746049266884,0.00021329520619840046,-0.0001477473466203331,0.0003311607411435124,0.0,0.0,0.0,0.0,0.0,0.0,0.0,-8.99268033213163e-05,0.0004889195843746919,-0.00015292034410896438,-0.0002063924463615585,9.504666080192847e-05,1.555251024054627e-05,-3.057833229291873e-05,-9.538298412184358e-05,0.0001138910070867629,0.0009633308162271438,0.0004404746049266884,-0.00021329520619840046,0.0001477473466203331,-0.0003311607411435124,0.8354122042655945,46.67495346069336,5.711269855499268,-19.559053421020508,-0.8141990303993225,-2.3916659355163574,0.42605918645858765,0
6,0.025002717971801758,-0.8354122042655945,-46.64718246459961,-5.735073566436768,19.559053421020508,0.8206077218055725,2.3980746269226074,-0.39218467473983765,0.0,0.0,0.0,0.0,0.0,0.0,0.0,-0.8183018913139093,-0.32446527455114715,-0.5713261307704933,0.32225952667370955,0.23537581638625663,0.11925677287850554,-0.41604149977174787,0.8781828028737453,0.754968881004735,-0.2824004118901692,-1.668892969014352,0.14132386062208147,2.4034246534743566,1.0273649147285353,0.878092876070424,0.7554597494309409,-0.2825552651693207,-1.6690993614607135,0.1414185955172306,2.4034451173676383,1.0273381002308042,-4.9053633212322006e-05,-0.0005368694810764907,-0.00021444839924461754,-0.0006343429301566251,0.00012489776544163977,-0.000644666285881472,-0.0010564416703685864,0.0,0.0,0.0,0.0,0.0,0.0,0.0,-8.99268033213163e-05,0.000490868426205826,-0.00015485327915154556,-0.0002063924463615585,9.473489514913447e-05,2.0463893281696954e-05,-2.6814497731120213e-05,4.9053633212322006e-05,0.0005368694810764907,0.00021444839924461754,0.0006343429301566251,-0.00012489776544163977,0.000644666285881472,0.0010564416703685864,0.8354122042655945,46.64718246459961,5.735073566436768,-19.559053421020508,-0.8206077218055725,-2.3980746269226074,0.39218467473983765,0
7,0.029999494552612305,-0.8354122042655945,-46.64718246459961,-5.735073566436768,19.559053421020508,0.8206077218055725,2.3980746269226074,-0.39218467473983765,0.0,0.0,0.0,0.0,0.0,0.0,0.0,-0.8183018913139093,-0.32446527455114715,-0.5713261307704933,0.32225952667370955,0.23537581638625663,0.11925677287850554,-0.41604149977174787,0.8781828028737453,0.754968881004735,-0.2824004118901692,-1.668892969014352,0.14132386062208147,2.4034246534743566,1.0273649147285353,0.878092876070424,0.7554597494309409,-0.2825552651693207,-1.6690993614607135,0.1414185955172306,2.4034451173676383,1.0273381002308042,-4.9053633212322006e-05,-0.0005368694810764907,-0.00021444839924461754,-0.0006343429301566251,0.00012489776544163977,-0.000644666285881472,-0.0010564416703685864,0.0,0.0,0.0,0.0,0.0,0.0,0.0,-8.99268033213163e-05,0.000490868426205826,-0.00015485327915154556,-0.0002063924463615585,9.473489514913447e-05,2.0463893281696954e-05,-2.6814497731120213e-05,4.9053633212322006e-05,0.0005368694810764907,0.00021444839924461754,0.0006343429301566251,-0.00012489776544163977,0.000644666285881472,0.0010564416703685864,0.8354122042655945,46.64718246459961,5.735073566436768,-19.559053421020508,-0.8206077218055725,-2.3980746269226074,0.39218467473983765,0
8,0.03548121452331543,-0.8354122042655945,-46.64718246459961,-5.735073566436768,19.535249710083008,0.8141990303993225,2.3916659355163574,-0.38577598333358765,0.0,0.0,0.0,0.0,0.0,0.0,0.0,-0.8344310311393488,-0.31433446686214656,-0.5802153083624438,0.3159291547368808,0.23558490608100457,0.11810639399798226,-0.4168438279181858,0.8781828028737453,0.754968881004735,-0.28239970325568836,-1.6688912985784965,0.14132769055482056,2.403429604241497,1.0273642026517125,0.878092876070424,0.7554597494309409,-0.2825552651693207,-1.6690993614607135,0.1414185955172306,2.4034451173676383,1.0273381002308042,-0.0001613679467824446,0.0007522961756530636,-0.0005658683813337693,-0.0002685540730775049,0.00034787557426370884,-0.00014173491450512524,-0.001666610122263856,0.0,0.0,0.0,0.0,0.0,0.0,0.0,-8.99268033213163e-05,0.000490868426205826,-0.00015556191363236271,-0.000208062882216975,9.090496241004331e-05,1.551312614145317e-05,-2.610242090828052e-05,0.0001613679467824446,-0.0007522961756530636,0.0005658683813337693,0.0002685540730775049,-0.00034787557426370884,0.00014173491450512524,0.001666610122263856,0.8354122042655945,46.64718246459961,5.735073566436768,-19.535249710083008,-0.8141990303993225,-2.3916659355163574,0.38577598333358765,0
9,0.04000592231750488,-0.8354122042655945,-46.64718246459961,-5.735073566436768,19.535249710083008,0.8141990303993225,2.3916659355163574,-0.38577598333358765,0.0,0.0,0.0,0.0,0.0,0.0,0.0,-0.8344310311393488,-0.31433446686214656,-0.5802153083624438,0.3159291547368808,0.23558490608100457,0.11810639399798226,-0.4168438279181858,0.8781828028737453,0.754968881004735,-0.28239970325568836,-1.6688912985784965,0.14132769055482056,2.403429604241497,1.0273642026517125,0.878092876070424,0.7554597494309409,-0.2825552651693207,-1.6690993614607135,0.1414185955172306,2.4034451173676383,1.0273381002308042,-0.0001613679467824446,0.0007522961756530636,-0.0005658683813337693,-0.0002685540730775049,0.00034787557426370884,-0.00014173491450512524,-0.001666610122263856,0.0,0.0,0.0,0.0,0.0,0.0,0.0,-8.99268033213163e-05,0.000490868426205826,-0.00015556191363236271,-0.000208062882216975,9.090496241004331e-05,1.551312614145317e-05,-2.610242090828052e-05,0.0001613679467824446,-0.0007522961756530636,0.0005658683813337693,0.0002685540730775049,-0.00034787557426370884,0.00014173491450512524,0.001666610122263856,0.8354122042655945,46.64718246459961,5.735073566436768,-19.535249710083008,-0.8141990303993225,-2.3916659355163574,0.38577598333358765,0
10,0.045006752014160156,-0.8076412081718445,-46.67495346069336,-5.762844562530518,19.511445999145508,0.8206077218055725,2.3852572441101074,-0.39218467473983765,0.0,0.0,0.0,0.0,0.0,0.0,0.0,-0.8066109244499912,-0.3308291850598517,-0.5627597911385958,0.3284363158210745,0.2357579903640788,0.11996638826492183,-0.4177601936921064,0.8781808540319141,0.7549708298465662,-0.28239799062085663,-1.6688896278155925,0.14132374027602349,2.4034303163422472,1.0273649147285353,0.878092876070424,0.7554597494309409,-0.2825552651693207,-1.6690993614607135,0.1414185955172306,2.4034451173676383,1.0273381002308042,0.0002899572313940978,0.0008029103652744721,0.0008252718049835997,0.0005418163923875913,8.70411213571238e-05,-1.7150601277706712e-05,-0.00042256021734527285,0.0,0.0,0.0,0.0,0.0,0.0,0.0,-8.797796149018211e-05,0.0004889195843746919,-0.0001572745484640925,-0.0002097336451210019,9.485524120711464e-05,1.4801025391086853e-05,-2.6814497731120213e-05,-0.0002899572313940978,-0.0008029103652744721,-0.0008252718049835997,-0.0005418163923875913,-8.70411213571238e-05,1.7150601277706712e-05,0.00042256021734527285,0.8076412081718445,46.67495346069336,5.762844562530518,-19.511445999145508,-0.8206077218055725,-2.3852572441101074,0.39218467473983765,0
11,0.050011634826660156,-0.8076412081718445,-46.67495346069336,-5.762844562530518,19.511445999145508,0.8206077218055725,2.3852572441101074,-0.39218467473983765,0.0,0.0,0.0,0.0,0.0,0.0,0.0,-0.8066109244499912,-0.3308291850598517,-0.5627597911385958,0.3284363158210745,0.2357579903640788,0.11996638826492183,-0.4177601936921064,0.8781808540319141,0.7549708298465662,-0.28239799062085663,-1.6688896278155925,0.14132374027602349,2.4034303163422472,1.0273649147285353,0.878092876070424,0.7554597494309409,-0.2825552651693207,-1.6690993614607135,0.1414185955172306,2.4034451173676383,1.0273381002308042,0.0002899572313940978,0.0008029103652744721,0.0008252718049835997,0.0005418163923875913,8.70411213571238e-05,-1.7150601277706712e-05,-0.00042256021734527285,0.0,0.0,0.0,0.0,0.0,0.0,0.0,-8.797796149018211e-05,0.0004889195843746919,-0.0001572745484640925,-0.0002097336451210019,9.485524120711464e-05,1.4801025391086853e-05,-2.6814497731120213e-05,-0.0002899572313940978,-0.0008029103652744721,-0.0008252718049835997,-0.0005418163923875913,-8.70411213571238e-05,1.7150601277706712e-05,0.00042256021734527285,0.8076412081718445,46.67495346069336,5.762844562530518,-19.511445999145508,-0.8206077218055725,-2.3852572441101074,0.39218467473983765,0
12,0.055004119873046875,-0.7838374972343445,-46.67495346069336,-5.687466144561768,19.535249710083008,0.8261008858680725,2.3788485527038574,-0.41965049505233765,0.0,0.0,0.0,0.0,0.0,0.0,0.0,-0.8233005948839016,-0.325941009773332,-0.5765502125411182,0.3245990449607735,0.2360565982713789,0.11978064009320576,-0.416402801124732,0.8781791835960588,0.7549708298465662,-0.282403044124732,-1.6688912985784947,0.1413220637536569,2.403430544386839,1.0273679664863478,0.878092876070424,0.7554597494309409,-0.2825552651693207,-1.6690993614607135,0.1414185955172306,2.4034451173676383,1.0273381002308042,-0.0005401073528565906,0.0007837859573921414,-0.0012319883900095815,0.00018051462424437153,-0.00012212729498148773,0.000317980640296206,0.00020702732491343002,0.0,0.0,0.0,0.0,0.0,0.0,0.0,-8.630752563487665e-05,0.0004889195843746919,-0.00015222104458872954,-0.00020806288221875135,9.653176357368731e-05,1.4572980799432145e-05,-2.9866255543575804e-05,0.0005401073528565906,-0.0007837859573921414,0.0012319883900095815,-0.00018051462424437153,0.00012212729498148773,-0.000317980640296206,-0.00020702732491343002,0.7838374972343445,46.67495346069336,5.687466144561768,-19.535249710083008,-0.8261008858680725,-2.3788485527038574,0.41965049505233765,0
13,0.06000256538391113,-0.7838374972343445,-46.67495346069336,-5.687466144561768,19.535249710083008,0.8261008858680725,2.3788485527038574,-0.41965049505233765,0.0,0.0,0.0,0.0,0.0,0.0,0.0,-0.8233005948839016,-0.325941009773332,-0.5765502125411182,0.3245990449607735,0.2360565982713789,0.11978064009320576,-0.416402801124732,0.8781791835960588,0.7549708298465662,-0.282403044124732,-1.6688912985784947,0.1413220637536569,2.403430544386839,1.0273679664863478,0.878092876070424,0.7554597494309409,-0.2825552651693207,-1.6690993614607135,0.1414185955172306,2.4034451173676383,1.0273381002308042,-0.0005401073528565906,0.0007837859573921414,-0.0012319883900095815,0.00018051462424437153,-0.00012212729498148773,0.000317980640296206,0.00020702732491343002,0.0,0.0,0.0,0.0,0.0,0.0,0.0,-8.630752563487665e-05,0.0004889195843746919,-0.00015222104458872954,-0.00020806288221875135,9.653176357368731e-05,1.4572980799432145e-05,-2.9866255543575804e-05,0.0005401073528565906,-0.0007837859573921414,0.0012319883900095815,-0.00018051462424437153,0.00012212729498148773,-0.000317980640296206,-0.00020702732491343002,0.7838374972343445,46.67495346069336,5.687466144561768,-19.535249710083008,-0.8261008858680725,-2.3788485527038574,0.41965049505233765,0
14,0.06495356559753418,-0.8354122042655945,-46.62337875366211,-5.762844562530518,19.535249710083008,0.8261008858680725,2.3788485527038574,-0.39950889348983765,0.0,0.0,0.0,0.0,0.0,0.0,0.0,-0.8192102897000392,-0.33589793586551064,-0.5756187605858978,0.3287732232324252,0.23652947068353075,0.12020449362365333,-0.41649327273341014,0.8781828028737453,0.7549672105688798,-0.282397754409857,-1.6688912985784965,0.1413253808953277,2.4034308713790766,1.0273657285306186,0.878092876070424,0.7554597494309409,-0.2825552651693207,-1.6690993614607135,0.1414185955172306,2.4034451173676383,1.0273381002308042,0.000556373286782583,-0.0014460529349893416,0.0007001715200462631,-0.00026425379363723595,1.8778435176028455e-05,0.0003109496680650673,-0.0006349945807250606,0.0,0.0,0.0,0.0,0.0,0.0,0.0,-8.99268033213163e-05,0.0004925388620610205,-0.0001575107594637415,-0.000208062882216975,9.321462190289842e-05,1.4245988561700784e-05,-2.7628299814397295e-05,-0.000556373286782583,0.0014460529349893416,-0.0007001715200462631,0.00026425379363723595,-1.8778435176028455e-05,-0.0003109496680650673,0.0006349945807250606,0.8354122042655945,46.62337875366211,5.762844562530518,-19.535249710083008,-0.8261008858680725,-2.3788485527038574,0.39950889348983765,0
15,0.07073140144348145,-0.8354122042655945,-46.62337875366211,-5.762844562530518,19.535249710083008,0.8261008858680725,2.3788485527038574,-0.39950889348983765,0.0,0.0,0.0,0.0,0.0,0.0,0.0,-0.8192102897000392,-0.33589793586551064,-0.5756187605858978,0.3287732232324252,0.23652947068353075,0.12020449362365333,-0.41649327273341014,0.8781828028737453,0.7549672105688798,-0.282397754409857,-1.6688912985784965,0.1413253808953277,2.4034308713790766,1.0273657285306186,0.878092876070424,0.7554597494309409,-0.2825552651693207,-1.6690993614607135,0.1414185955172306,2.4034451173676383,1.0273381002308042,0.000556373286782583,-0.0014460529349893416,0.0007001715200462631,-0.00026425379363723595,1.8778435176028455e-05,0.0003109496680650673,-0.0006349945807250606,0.0,0.0,0.0,0.0,0.0,0.0,0.0,-8.99268033213163e-05,0.0004925388620610205,-0.0001575107594637415,-0.000208062882216975,9.321462190289842e-05,1.4245988561700784e-05,-2.7628299814397295e-05,-0.000556373286782583,0.0014460529349893416,-0.0007001715200462631,0.00026425379363723595,-1.8778435176028455e-05,-0.0003109496680650673,0.0006349945807250606,0.8354122042655945,46.62337875366211,5.762844562530518,-19.535249710083008,-0.8261008858680725,-2.3788485527038574,0.39950889348983765,0
16,0.07500338554382324,-0.7838374972343445,-46.69875717163086,-5.711269855499268,19.511445999145508,0.8141990303993225,2.3916659355163574,-0.41965049505233765,0.0,0.0,0.0,0.0,0.0,0.0,0.0,-0.8059319739371764,-0.330611871556264,-0.5684462061443246,0.32568321651567356,0.23707611875482465,0.12021757335569262,-0.41654408118674485,0.8781791835960588,0.7549725002824215,-0.28240145242454323,-1.6688896281426413,0.1413234255233774,2.403426425188645,1.0273679664863478,0.878092876070424,0.7554597494309409,-0.2825552651693207,-1.6690993614607135,0.1414185955172306,2.4034451173676383,1.0273381002308042,-9.936800744509069e-08,0.0005619206229829377,-0.0008919018468661771,0.0005554636767084271,0.0003319607628397419,-7.399324806934493e-05,-0.0003644801314022978,0.0,0.0,0.0,0.0,0.0,0.0,0.0,-8.630752563487665e-05,0.0004872491485193864,-0.00015381274477749285,-0.00020973331807216944,9.516999385320024e-05,1.869217899352904e-05,-2.9866255543575804e-05,9.936800744509069e-08,-0.0005619206229829377,0.0008919018468661771,-0.0005554636767084271,-0.0003319607628397419,7.399324806934493e-05,0.0003644801314022978,0.7838374972343445,46.69875717163086,5.711269855499268,-19.511445999145508,-0.8141990303993225,-2.3916659355163574,0.41965049505233765,0
17,0.0800027847290039,-0.7838374972343445,-46.69875717163086,-5.711269855499268,19.511445999145508,0.8141990303993225,2.3916659355163574,-0.41965049505233765,0.0,0.0,0.0,0.0,0.0,0.0,0.0,-0.8059319739371764,-0.330611871556264,-0.5684462061443246,0.32568321651567356,0.23707611875482465,0.12021757335569262,-0.41654408118674485,0.8781791835960588,0.7549725002824215,-0.28240145242454323,-1.6688896281426413,0.1413234255233774,2.403426425188645,1.0273679664863478,0.878092876070424,0.7554597494309409,-0.2825552651693207,-1.6690993614607135,0.1414185955172306,2.4034451173676383,1.0273381002308042,-9.936800744509069e-08,0.0005619206229829377,-0.0008919018468661771,0.0005554636767084271,0.0003319607628397419,-7.399324806934493e-05,-0.0003644801314022978,0.0,0.0,0.0,0.0,0.0,0.0,0.0,-8.630752563487665e-05,0.0004872491485193864,-0.00015381274477749285,-0.00020973331807216944,9.516999385320024e-05,1.869217899352904e-05,-2.9866255543575804e-05,9.936800744509069e-08,-0.0005619206229829377,0.0008919018468661771,-0.0005554636767084271,-0.0003319607628397419,7.399324806934493e-05,0.0003644801314022978,0.7838374972343445,46.69875717163086,5.711269855499268,-19.511445999145508,-0.8141990303993225,-2.3916659355163574,0.41965049505233765,0
18,0.08500289916992188,-0.8869869112968445,-46.67495346069336,-5.762844562530518,19.535249710083008,0.8206077218055725,2.3916659355163574,-0.37204307317733765,0.0,0.0,0.0,0.0,0.0,0.0,0.0,-0.8208506108596982,-0.3336610989635738,-0.5817328062796072,0.3217065771132524,0.2375670352511249,0.12013589451289003,-0.41821514509167707,0.8781864250948709,0.7549708298465662,-0.28239776315885695,-1.6688912985784965,0.14132267561622955,2.403429591111691,1.0273626767728061,0.878092876070424,0.7554597494309409,-0.2825552651693207,-1.6690993614607135,0.1414185955172306,2.4034451173676383,1.0273381002308042,0.0012823146446844676,-0.0001549833966906624,0.0006115417317071693,5.061853976368376e-05,0.0001447665717058312,-0.00035064121406859006,-0.0023093299728238733,0.0,0.0,0.0,0.0,0.0,0.0,0.0,-9.354902444691504e-05,0.0004889195843746919,-0.00015750201046377255,-0.000208062882216975,9.591990100105141e-05,1.55262559471403e-05,-2.4576542001941704e-05,-0.0012823146446844676,0.0001549833966906624,-0.0006115417317071693,-5.061853976368376e-05,-0.0001447665717058312,0.00035064121406859006,0.0023093299728238733,0.8869869112968445,46.67495346069336,5.762844562530518,-19.535249710083008,-0.8206077218055725,-2.3916659355163574,0.37204307317733765,0
19,0.0900123119354248,-0.8869869112968445,-46.67495346069336,-5.762844562530518,19.535249710083008,0.8206077218055725,2.3916659355163574,-0.37204307317733765,0.0,0.0,0.0,0.0,0.0,0.0,0.0,-0.8208506108596982,-0.3336610989635738,-0.5817328062796072,0.3217065771132524,0.2375670352511249,0.12013589451289003,-0.41821514509167707,0.8781864250948709,0.7549708298465662,-0.28239776315885695,-1.6688912985784965,0.14132267561622955,2.403429591111691,1.0273626767728061,0.878092876070424,0.7554597494309409,-0.2825552651693207,-1.6690993614607135,0.1414185955172306,2.4034451173676383,1.0273381002308042,0.0012823146446844676,-0.0001549833966906624,0.0006115417317071693,5.061853976368376e-05,0.0001447665717058312,-0.00035064121406859006,-0.0023093299728238733,0.0,0.0,0.0,0.0,0.0,0.0,0.0,-9.354902444691504e-05,0.0004889195843746919,-0.00015750201046377255,-0.000208062882216975,9.591990100105141e-05,1.55262559471403e-05,-2.4576542001941704e-05,-0.0012823146446844676,0.0001549833966906624,-0.0006115417317071693,-5.061853976368376e-05,-0.0001447665717058312,0.00035064121406859006,0.0023093299728238733,0.8869869112968445,46.67495346069336,5.762844562530518,-19.535249710083008,-0.8206077218055725,-2.3916659355163574,0.37204307317733765,0
20,0.09577608108520508,-0.8354122042655945,-46.64718246459961,-5.711269855499268,19.559053421020508,0.8206077218055725,2.3788485527038574,-0.38577598333358765,0.0,0.0,0.0,0.0,0.0,0.0,0.0,-0.8144069262763992,-0.3192238665462797,-0.5714962341426396,0.31600700486161554,0.23755811990129108,0.11926204531730171,-0.4173514891838265,0.8781828028737618,0.754968881004735,-0.28240137469565674,-1.668892969014352,0.141325872773469,2.403431026319424,1.0273642026517125,0.878092876070424,0.7554597494309409,-0.2825552651693207,-1.6690993614607135,0.1414185955172306,2.4034451173676383,1.0273381002308042,-0.00022994708759761952,0.0005821776043860164,-0.0005748247993242781,-0.00044253963411739297,0.00019599486958747186,0.000396532905768491,-0.0008635934381516455,0.0,0.0,0.0,0.0,0.0,0.0,0.0,-8.992680333785863e-05,0.000490868426205826,-0.00015389047366398678,-0.0002063924463615585,9.272274376159739e-05,1.4091048214481816e-05,-2.610242090828052e-05,0.00022994708759761952,-0.0005821776043860164,0.0005748247993242781,0.00044253963411739297,-0.00019599486958747186,-0.000396532905768491,0.0008635934381516455,0.8354122042655945,46.64718246459961,5.711269855499268,-19.559053421020508,-0.8206077218055725,-2.3788485527038574,0.38577598333358765,0
21,0.09999942779541016,-0.8354122042655945,-46.64718246459961,-5.711269855499268,19.559053421020508,0.8206077218055725,2.3788485527038574,-0.38577598333358765,0.0,0.0,0.0,0.0,0.0,0.0,0.0,-0.8144069262763992,-0.3192238665462797,-0.5714962341426396,0.31600700486161554,0.23755811990129108,0.11926204531730171,-0.4173514891838265,0.8781828028737618,0.754968881004735,-0.28240137469565674,-1.668892969014352,0.141325872773469,2.403431026319424,1.0273642026517125,0.878092876070424,0.7554597494309409,-0.2825552651693207,-1.6690993614607135,0.1414185955172306,2.4034451173676383,1.0273381002308042,-0.00022994708759761952,0.0005821776043860164,-0.0005748247993242781,-0.00044253963411739297,0.00019599486958747186,0.000396532905768491,-0.0008635934381516455,0.0,0.0,0.0,0.0,0.0,0.0,0.0,-8.992680333785863e-05,0.000490868426205826,-0.00015389047366398678,-0.0002063924463615585,9.272274376159739e-05,1.4091048214481816e-05,-2.610242090828052e-05,0.00022994708759761952,-0.0005821776043860164,0.0005748247993242781,0.00044253963411739297,-0.00019599486958747186,-0.000396532905768491,0.0008635934381516455,0.8354122042655945,46.64718246459961,5.711269855499268,-19.559053421020508,-0.8206077218055725,-2.3788485527038574,0.38577598333358765,0
22,0.10500097274780273,-0.8354122042655945,-46.64718246459961,-5.762844562530518,19.511445999145508,0.8206077218055725,2.3916659355163574,-0.43338340520858765,0.0,0.0,0.0,0.0,0.0,0.0,0.0,-0.8194596456106562,-0.3456589568765803,-0.5737280154850372,0.33050049310558033,0.2379835330426553,0.12140121096785454,-0.4160655765656117,0.8781828823466049,0.754968881004735,-0.2823978331468625,-1.668889625199202,0.14132705763415776,2.403425954400745,1.027369492311419,0.878092876070424,0.7554597494309409,-0.2825552651693207,-1.6690993614607135,0.1414185955172306,2.4034451173676383,1.0273381002308042,0.0003076040853322262,-0.0008412676923018851,0.0002463804869134684,0.0007522268768016851,8.831262970747539e-05,-7.963631448873607e-05,0.0006562361270134456,0.0,0.0,0.0,0.0,0.0,0.0,0.0,-9.000627618094281e-05,0.000490868426205826,-0.00015743202245821486,-0.00020973626151143954,9.153788307283972e-05,1.9162966893304656e-05,-3.139208061475607e-05,-0.0003076040853322262,0.0008412676923018851,-0.0002463804869134684,-0.0007522268768016851,-8.831262970747539e-05,7.963631448873607e-05,-0.0006562361270134456,0.8354122042655945,46.64718246459961,5.762844562530518,-19.511445999145508,-0.8206077218055725,-2.3916659355163574,0.43338340520858765,0
23,0.1100001335144043,-0.8354122042655945,-46.64718246459961,-5.762844562530518,19.511445999145508,0.8206077218055725,2.3916659355163574,-0.43338340520858765,0.0,0.0,0.0,0.0,0.0,0.0,0.0,-0.8194596456106562,-0.3456589568765803,-0.5737280154850372,0.33050049310558033,0.2379835330426553,0.12140121096785454,-0.4160655765656117,0.8781828823466049,0.754968881004735,-0.2823978331468625,-1.668889625199202,0.14132705763415776,2.403425954400745,1.027369492311419,0.878092876070424,0.7554597494309409,-0.2825552651693207,-1.6690993614607135,0.1414185955172306,2.4034451173676383,1.0273381002308042,0.0003076040853322262,-0.0008412676923018851,0.0002463804869134684,0.0007522268768016851,8.831262970747539e-05,-7.963631448873607e-05,0.0006562361270134456,0.0,0.0,0.0,0.0,0.0,0.0,0.0,-9.000627618094281e-05,0.000490868426205826,-0.00015743202245821486,-0.00020973626151143954,9.153788307283972e-05,1.9162966893304656e-05,-3.139208061475607e-05,-0.0003076040853322262,0.0008412676923018851,-0.0002463804869134684,-0.0007522268768016851,-8.831262970747539e-05,7.963631448873607e-05,-0.0006562361270134456,0.8354122042655945,46.64718246459961,5.762844562530518,-19.511445999145508,-0.8206077218055725,-2.3916659355163574,0.43338340520858765,0
24,0.11500334739685059,-0.8354122042655945,-46.64718246459961,-5.762844562530518,19.511445999145508,0.8206077218055725,2.3916659355163574,-0.43338340520858765,0.0,0.0,0.0,0.0,0.0,0.0,0.0,-0.8194596456106562,-0.3456589568765803,-0.5737280154850372,0.33050049310558033,0.2379835330426553,0.12140121096785454,-0.4160655765656117,0.8781828823466049,0.754968881004735,-0.2823978331468625,-1.668889625199202,0.14132705763415776,2.403425954400745,1.027369492311419,0.878092876070424,0.7554597494309409,-0.2825552651693207,-1.6690993614607135,0.1414185955172306,2.4034451173676383,1.0273381002308042,0.0003076040853322262,-0.0008412676923018851,0.0002463804869134684,0.0007522268768016851,8.831262970747539e-05,-7.963631448873607e-05,0.0006562361270134456,0.0,0.0,0.0,0.0,0.0,0.0,0.0,-9.000627618094281e-05,0.000490868426205826,-0.00015743202245821486,-0.00020973626151143954,9.153788307283972e-05,1.9162966893304656e-05,-3.139208061475607e-05,-0.0003076040853322262,0.0008412676923018851,-0.0002463804869134684,-0.0007522268768016851,-8.831262970747539e-05,7.963631448873607e-05,-0.0006562361270134456,0.8354122042655945,46.64718246459961,5.762844562530518,-19.511445999145508,-0.8206077218055725,-2.3916659355163574,0.43338340520858765,0
25,0.11999940872192383,-0.8354122042655945,-46.64718246459961,-5.762844562530518,19.511445999145508,0.8206077218055725,2.3916659355163574,-0.43338340520858765,0.0,0.0,0.0,0.0,0.0,0.0,0.0,-0.8194596456106562,-0.3456589568765803,-0.5737280154850372,0.33050049310558033,0.2379835330426553,0.12140121096785454,-0.4160655765656117,0.8781828823466049,0.754968881004735,-0.2823978331468625,-1.668889625199202,0.14132705763415776,2.403425954400745,1.027369492311419,0.878092876070424,0.7554597494309409,-0.2825552651693207,-1.6690993614607135,0.1414185955172306,2.4034451173676383,1.0273381002308042,0.0003076040853322262,-0.0008412676923018851,0.0002463804869134684,0.0007522268768016851,8.831262970747539e-05,-7.963631448873607e-05,0.0006562361270134456,0.0,0.0,0.0,0.0,0.0,0.0,0.0,-9.000627618094281e-05,0.000490868426205826,-0.00015743202245821486,-0.00020973626151143954,9.153788307283972e-05,1.9162966893304656e-05,-3.139208061475607e-05,-0.0003076040853322262,0.0008412676923018851,-0.0002463804869134684,-0.0007522268768016851,-8.831262970747539e-05,7.963631448873607e-05,-0.0006562361270134456,0.8354122042655945,46.64718246459961,5.762844562530518,-19.511445999145508,-0.8206077218055725,-2.3916659355163574,0.43338340520858765,0
26,0.1249995231628418,-0.8076412081718445,-46.62337875366211,-5.762844562530518,19.559053421020508,0.8261008858680725,2.3852572441101074,-0.41965049505233765,0.0,0.0,0.0,0.0,0.0,0.0,0.0,-0.8133538413064644,-0.32813154826733987,-0.5653857925485487,0.3204655335557153,0.23748992359604215,0.1200096057053996,-0.416150179125786,0.8781808540323627,0.7549672105688798,-0.2823998832254836,-1.6688929690143353,0.14132218647120304,2.4034303148680936,1.0273669068482183,0.878092876070424,0.7554597494309409,-0.2825552651693207,-1.6690993614607135,0.1414185955172306,2.4034451173676383,1.0273381002308042,-0.00027610861842782735,-0.0011337365857918846,0.0006004090625140523,-0.0011646894309803987,-0.00022460446863154098,5.8803943972084764e-05,0.0004991201715056834,0.0,0.0,0.0,0.0,0.0,0.0,0.0,-8.797796193871221e-05,0.0004925388620610205,-0.00015538194383712955,-0.00020639244637821186,9.64090460275624e-05,1.4802499544774861e-05,-2.8806617414112168e-05,0.00027610861842782735,0.0011337365857918846,-0.0006004090625140523,0.0011646894309803987,0.00022460446863154098,-5.8803943972084764e-05,-0.0004991201715056834,0.8076412081718445,46.62337875366211,5.762844562530518,-19.559053421020508,-0.8261008858680725,-2.3852572441101074,0.41965049505233765,0
27,0.1299588680267334,-0.8076412081718445,-46.62337875366211,-5.762844562530518,19.559053421020508,0.8261008858680725,2.3852572441101074,-0.41965049505233765,0.0,0.0,0.0,0.0,0.0,0.0,0.0,-0.8133538413064644,-0.32813154826733987,-0.5653857925485487,0.3204655335557153,0.23748992359604215,0.1200096057053996,-0.416150179125786,0.8781808540323627,0.7549672105688798,-0.2823998832254836,-1.6688929690143353,0.14132218647120304,2.4034303148680936,1.0273669068482183,0.878092876070424,0.7554597494309409,-0.2825552651693207,-1.6690993614607135,0.1414185955172306,2.4034451173676383,1.0273381002308042,-0.00027610861842782735,-0.0011337365857918846,0.0006004090625140523,-0.0011646894309803987,-0.00022460446863154098,5.8803943972084764e-05,0.0004991201715056834,0.0,0.0,0.0,0.0,0.0,0.0,0.0,-8.797796193871221e-05,0.0004925388620610205,-0.00015538194383712955,-0.00020639244637821186,9.64090460275624e-05,1.4802499544774861e-05,-2.8806617414112168e-05,0.00027610861842782735,0.0011337365857918846,-0.0006004090625140523,0.0011646894309803987,0.00022460446863154098,-5.8803943972084764e-05,-0.0004991201715056834,0.8076412081718445,46.62337875366211,5.762844562530518,-19.559053421020508,-0.8261008858680725,-2.3852572441101074,0.41965049505233765,0
28,0.13496112823486328,-0.8076412081718445,-46.62337875366211,-5.762844562530518,19.559053421020508,0.8261008858680725,2.3852572441101074,-0.41965049505233765,0.0,0.0,0.0,0.0,0.0,0.0,0.0,-0.8133538413064644,-0.32813154826733987,-0.5653857925485487,0.3204655335557153,0.23748992359604215,0.1200096057053996,-0.416150179125786,0.8781808540323627,0.7549672105688798,-0.2823998832254836,-1.6688929690143353,0.14132218647120304,2.4034303148680936,1.0273669068482183,0.878092876070424,0.7554597494309409,-0.2825552651693207,-1.6690993614607135,0.1414185955172306,2.4034451173676383,1.0273381002308042,-0.00027610861842782735,-0.0011337365857918846,0.0006004090625140523,-0.0011646894309803987,-0.00022460446863154098,5.8803943972084764e-05,0.0004991201715056834,0.0,0.0,0.0,0.0,0.0,0.0,0.0,-8.797796193871221e-05,0.0004925388620610205,-0.00015538194383712955,-0.00020639244637821186,9.64090460275624e-05,1.4802499544774861e-05,-2.8806617414112168e-05,0.00027610861842782735,0.0011337365857918846,-0.0006004090625140523,0.0011646894309803987,0.00022460446863154098,-5.8803943972084764e-05,-0.0004991201715056834,0.8076412081718445,46.62337875366211,5.762844562530518,-19.559053421020508,-0.8261008858680725,-2.3852572441101074,0.41965049505233765,0
29,0.14000606536865234,-0.8354122042655945,-46.67495346069336,-5.762844562530518,19.535249710083008,0.8206077218055725,2.3852572441101074,-0.41965049505233765,0.0,0.0,0.0,0.0,0.0,0.0,0.0,-0.8303574673940506,-0.32918376182522174,-0.5795357279042006,0.32238151784433927,0.237531645904583,0.1202974753809933,-0.4154992809071355,0.8781828028737453,0.7549708298465662,-0.2823977544218742,-1.6688912985784965,0.1413238718353904,2.4034301797085162,1.027367966480366,0.878092876070424,0.7554597494309409,-0.2825552651693207,-1.6690993614607135,0.1414185955172306,2.4034451173676383,1.0273381002308042,0.00040751828499168785,0.0009773323980193645,-0.00018047942379622586,0.0001617003533377396,-3.860508013934695e-05,-2.094210318669761e-05,-0.00041410340606927735,0.0,0.0,0.0,0.0,0.0,0.0,0.0,-8.99268033213163e-05,0.0004889195843746919,-0.00015751074744652094,-0.000208062882216975,9.472368184018642e-05,1.4937659122082891e-05,-2.986624956191619e-05,-0.00040751828499168785,-0.0009773323980193645,0.00018047942379622586,-0.0001617003533377396,3.860508013934695e-05,2.094210318669761e-05,0.00041410340606927735,0.8354122042655945,46.67495346069336,5.762844562530518,-19.535249710083008,-0.8206077218055725,-2.3852572441101074,0.41965049505233765,0
30,0.14519548416137695,-0.8354122042655945,-46.67495346069336,-5.762844562530518,19.535249710083008,0.8206077218055725,2.3852572441101074,-0.41965049505233765,0.0,0.0,0.0,0.0,0.0,0.0,0.0,-0.8303574673940506,-0.32918376182522174,-0.5795357279042006,0.32238151784433927,0.237531645904583,0.1202974753809933,-0.4154992809071355,0.8781828028737453,0.7549708298465662,-0.2823977544218742,-1.6688912985784965,0.1413238718353904,2.4034301797085162,1.027367966480366,0.878092876070424,0.7554597494309409,-0.2825552651693207,-1.6690993614607135,0.1414185955172306,2.4034451173676383,1.0273381002308042,0.00040751828499168785,0.0009773323980193645,-0.00018047942379622586,0.0001617003533377396,-3.860508013934695e-05,-2.094210318669761e-05,-0.00041410340606927735,0.0,0.0,0.0,0.0,0.0,0.0,0.0,-8.99268033213163e-05,0.0004889195843746919,-0.00015751074744652094,-0.000208062882216975,9.472368184018642e-05,1.4937659122082891e-05,-2.986624956191619e-05,-0.00040751828499168785,-0.0009773323980193645,0.00018047942379622586,-0.0001617003533377396,3.860508013934695e-05,2.094210318669761e-05,0.00041410340606927735,0.8354122042655945,46.67495346069336,5.762844562530518,-19.535249710083008,-0.8206077218055725,-2.3852572441101074,0.41965049505233765,0
31,0.15000081062316895,-0.8076412081718445,-46.69875717163086,-5.711269855499268,19.535249710083008,0.8261008858680725,2.3852572441101074,-0.38577598333358765,0.0,0.0,0.0,0.0,0.0,0.0,0.0,-0.8106251966645736,-0.3296465277418311,-0.5703234589133079,0.32481327630063495,0.2366069140859076,0.12050623453627565,-0.4167182807739997,0.8781808540319141,0.7549725002824215,-0.28240160989854307,-1.6688912985784965,0.1413231342948287,2.4034303030980184,1.0273642026517125,0.878092876070424,0.7554597494309409,-0.2825552651693207,-1.6690993614607135,0.1414185955172306,2.4034451173676383,1.0273381002308042,-6.067078731663543e-05,0.0013437365352019382,-0.0005933497382093561,-0.00033904105150916054,-0.00021673459070750779,0.00014108632711590222,-0.0009347322972005869,0.0,0.0,0.0,0.0,0.0,0.0,0.0,-8.797796149018211e-05,0.0004872491485193864,-0.00015365527077765284,-0.000208062882216975,9.546122240189359e-05,1.4814269619911613e-05,-2.610242090828052e-05,6.067078731663543e-05,-0.0013437365352019382,0.0005933497382093561,0.00033904105150916054,0.00021673459070750779,-0.00014108632711590222,0.0009347322972005869,0.8076412081718445,46.69875717163086,5.711269855499268,-19.535249710083008,-0.8261008858680725,-2.3852572441101074,0.38577598333358765,0
32,0.15577077865600586,-0.8076412081718445,-46.69875717163086,-5.711269855499268,19.535249710083008,0.8261008858680725,2.3852572441101074,-0.38577598333358765,0.0,0.0,0.0,0.0,0.0,0.0,0.0,-0.8106251966645736,-0.3296465277418311,-0.5703234589133079,0.32481327630063495,0.2366069140859076,0.12050623453627565,-0.4167182807739997,0.8781808540319141,0.7549725002824215,-0.28240160989854307,-1.6688912985784965,0.1413231342948287,2.4034303030980184,1.0273642026517125,0.878092876070424,0.7554597494309409,-0.2825552651693207,-1.6690993614607135,0.1414185955172306,2.4034451173676383,1.0273381002308042,-6.067078731663543e-05,0.0013437365352019382,-0.0005933497382093561,-0.00033904105150916054,-0.00021673459070750779,0.00014108632711590222,-0.0009347322972005869,0.0,0.0,0.0,0.0,0.0,0.0,0.0,-8.797796149018211e-05,0.0004872491485193864,-0.00015365527077765284,-0.000208062882216975,9.546122240189359e-05,1.4814269619911613e-05,-2.610242090828052e-05,6.067078731663543e-05,-0.0013437365352019382,0.0005933497382093561,0.00033904105150916054,0.00021673459070750779,-0.00014108632711590222,0.0009347322972005869,0.8076412081718445,46.69875717163086,5.711269855499268,-19.535249710083008,-0.8261008858680725,-2.3852572441101074,0.38577598333358765,0
33,0.16000103950500488,-0.8354122042655945,-46.62337875366211,-5.735073566436768,19.559053421020508,0.8206077218055725,2.3788485527038574,-0.41324180364608765,0.0,0.0,0.0,0.0,0.0,0.0,0.0,-0.8150506843993615,-0.3382135097630526,-0.5746472208543281,0.3294192751427851,0.23638453396564618,0.12135989993557156,-0.4152206345167933,0.8781835181294826,0.7549672105688798,-0.2824018320708705,-1.668892969014352,0.1413226871185319,2.4034306752061365,1.027367254409525,0.878092876070424,0.7554597494309409,-0.2825552651693207,-1.6690993614607135,0.1414185955172306,2.4034451173676383,1.0273381002308042,0.0005244109251524165,-0.0010165956649807958,0.0004563653869920688,-0.0004286582650621225,2.7471071482139325e-05,0.0002645508331226682,-0.00040712210773732535,0.0,0.0,0.0,0.0,0.0,0.0,0.0,-9.0642059058621e-05,0.0004925388620610205,-0.00015343309845022857,-0.0002063924463615585,9.590839869869083e-05,1.444216150181532e-05,-2.9154178720736112e-05,-0.0005244109251524165,0.0010165956649807958,-0.0004563653869920688,0.0004286582650621225,-2.7471071482139325e-05,-0.0002645508331226682,0.00040712210773732535,0.8354122042655945,46.62337875366211,5.735073566436768,-19.559053421020508,-0.8206077218055725,-2.3788485527038574,0.41324180364608765,0
34,0.16499996185302734,-0.8354122042655945,-46.62337875366211,-5.735073566436768,19.559053421020508,0.8206077218055725,2.3788485527038574,-0.41324180364608765,0.0,0.0,0.0,0.0,0.0,0.0,0.0,-0.8150506843993615,-0.3382135097630526,-0.5746472208543281,0.3294192751427851,0.23638453396564618,0.12135989993557156,-0.4152206345167933,0.8781835181294826,0.7549672105688798,-0.2824018320708705,-1.668892969014352,0.1413226871185319,2.4034306752061365,1.027367254409525,0.878092876070424,0.7554597494309409,-0.2825552651693207,-1.6690993614607135,0.1414185955172306,2.4034451173676383,1.0273381002308042,0.0005244109251524165,-0.0010165956649807958,0.0004563653869920688,-0.0004286582650621225,2.7471071482139325e-05,0.0002645508331226682,-0.00040712210773732535,0.0,0.0,0.0,0.0,0.0,0.0,0.0,-9.0642059058621e-05,0.0004925388620610205,-0.00015343309845022857,-0.0002063924463615585,9.590839869869083e-05,1.444216150181532e-05,-2.9154178720736112e-05,-0.0005244109251524165,0.0010165956649807958,-0.0004563653869920688,0.0004286582650621225,-2.7471071482139325e-05,-0.0002645508331226682,0.00040712210773732535,0.8354122042655945,46.62337875366211,5.735073566436768,-19.559053421020508,-0.8206077218055725,-2.3788485527038574,0.41324180364608765,0
35,0.17032766342163086,-0.8076412081718445,-46.67495346069336,-5.786648273468018,19.535249710083008,0.8141990303993225,2.3852572441101074,-0.43338340520858765,0.0,0.0,0.0,0.0,0.0,0.0,0.0,-0.818968877422725,-0.3284190548706108,-0.5748150850745988,0.32448894633706116,0.23670045084352312,0.1205390218019649,-0.4155731326848736,0.87818085403326,0.7549708298465662,-0.2823960839780074,-1.6688912985784965,0.14132339040143746,2.4034303114964155,1.027369492365254,0.878092876070424,0.7554597494309409,-0.2825552651693207,-1.6690993614607135,0.1414185955172306,2.4034451173676383,1.0273381002308042,4.8248059554767784e-05,0.00045353387615074337,0.0007927232713251399,0.00042798050937511165,0.0002771688720496278,4.198804888544706e-05,0.0011224650641689679,0.0,0.0,0.0,0.0,0.0,0.0,0.0,-8.797796283599446e-05,0.0004889195843746919,-0.00015918119131330677,-0.000208062882216975,9.520511579313995e-05,1.480587122282273e-05,-3.139213444991462e-05,-4.8248059554767784e-05,-0.00045353387615074337,-0.0007927232713251399,-0.00042798050937511165,-0.0002771688720496278,-4.198804888544706e-05,-0.0011224650641689679,0.8076412081718445,46.67495346069336,5.786648273468018,-19.535249710083008,-0.8141990303993225,-2.3852572441101074,0.43338340520858765,0
36,0.17500591278076172,-0.8076412081718445,-46.67495346069336,-5.786648273468018,19.535249710083008,0.8141990303993225,2.3852572441101074,-0.43338340520858765,0.0,0.0,0.0,0.0,0.0,0.0,0.0,-0.818968877422725,-0.3284190548706108,-0.5748150850745988,0.32448894633706116,0.23670045084352312,0.1205390218019649,-0.4155731326848736,0.87818085403326,0.7549708298465662,-0.2823960839780074,-1.6688912985784965,0.14132339040143746,2.4034303114964155,1.027369492365254,0.878092876070424,0.7554597494309409,-0.2825552651693207,-1.6690993614607135,0.1414185955172306,2.4034451173676383,1.0273381002308042,4.8248059554767784e-05,0.00045353387615074337,0.0007927232713251399,0.00042798050937511165,0.0002771688720496278,4.198804888544706e-05,0.0011224650641689679,0.0,0.0,0.0,0.0,0.0,0.0,0.0,-8.797796283599446e-05,0.0004889195843746919,-0.00015918119131330677,-0.000208062882216975,9.520511579313995e-05,1.480587122282273e-05,-3.139213444991462e-05,-4.8248059554767784e-05,-0.00045353387615074337,-0.0007927232713251399,-0.00042798050937511165,-0.0002771688720496278,-4.198804888544706e-05,-0.0011224650641689679,0.8076412081718445,46.67495346069336,5.786648273468018,-19.535249710083008,-0.8141990303993225,-2.3852572441101074,0.43338340520858765,0
37,0.18000006675720215,-0.8076412081718445,-46.67495346069336,-5.762844562530518,19.511445999145508,0.8261008858680725,2.3852572441101074,-0.43979209661483765,0.0,0.0,0.0,0.0,0.0,0.0,0.0,-0.8146325775875312,-0.33816643119955514,-0.5756970197930107,0.3273051004802518,0.23663695296082865,0.12040746269371437,-0.41512894119914634,0.8781808540319141,0.7549708298465662,-0.2823977553819187,-1.6688896281426413,0.14132210751836688,2.40343031634222,1.027370204442077,0.878092876070424,0.7554597494309409,-0.2825552651693207,-1.6690993614607135,0.1414185955172306,2.4034451173676383,1.0273381002308042,-0.00013866955111301052,-6.027395859942145e-05,0.0002923656471788532,0.00043369564006336825,-0.0004327734341499731,-0.00012361862355338659,0.000920122547453006,0.0,0.0,0.0,0.0,0.0,0.0,0.0,-8.797796149018211e-05,0.0004889195843746919,-0.00015750978740203259,-0.00020973331807216944,9.648799886372017e-05,1.4801025418176295e-05,-3.210421127275431e-05,0.00013866955111301052,6.027395859942145e-05,-0.0002923656471788532,-0.00043369564006336825,0.0004327734341499731,0.00012361862355338659,-0.000920122547453006,0.8076412081718445,46.67495346069336,5.762844562530518,-19.511445999145508,-0.8261008858680725,-2.3852572441101074,0.43979209661483765,0
38,0.1849994659423828,-0.8076412081718445,-46.67495346069336,-5.762844562530518,19.511445999145508,0.8261008858680725,2.3852572441101074,-0.43979209661483765,0.0,0.0,0.0,0.0,0.0,0.0,0.0,-0.8146325775875312,-0.33816643119955514,-0.5756970197930107,0.3273051004802518,0.23663695296082865,0.12040746269371437,-0.41512894119914634,0.8781808540319141,0.7549708298465662,-0.2823977553819187,-1.6688896281426413,0.14132210751836688,2.40343031634222,1.027370204442077,0.878092876070424,0.7554597494309409,-0.2825552651693207,-1.6690993614607135,0.1414185955172306,2.4034451173676383,1.0273381002308042,-0.00013866955111301052,-6.027395859942145e-05,0.0002923656471788532,0.00043369564006336825,-0.0004327734341499731,-0.00012361862355338659,0.000920122547453006,0.0,0.0,0.0,0.0,0.0,0.0,0.0,-8.797796149018211e-05,0.0004889195843746919,-0.00015750978740203259,-0.00020973331807216944,9.648799886372017e-05,1.4801025418176295e-05,-3.210421127275431e-05,0.00013866955111301052,6.027395859942145e-05,-0.0002923656471788532,-0.00043369564006336825,0.0004327734341499731,0.00012361862355338659,-0.000920122547453006,0.8076412081718445,46.67495346069336,5.762844562530518,-19.511445999145508,-0.8261008858680725,-2.3852572441101074,0.43979209661483765,0
39,0.19001054763793945,-0.8592159152030945,-46.67495346069336,-5.735073566436768,19.511445999145508,0.8325095772743225,2.3852572441101074,-0.43979209661483765,0.0,0.0,0.0,0.0,0.0,0.0,0.0,-0.8154801630361856,-0.3318364469443638,-0.5773074849974963,0.3256470845374573,0.23626303570486004,0.11961119937221289,-0.41592810539551894,0.8781844733096006,0.7549708298465662,-0.28239970325170455,-1.6688896281426413,0.14132459027033467,2.4034292174582617,1.027370204442077,0.878092876070424,0.7554597494309409,-0.2825552651693207,-1.6690993614607135,0.1414185955172306,2.4034451173676383,1.0273381002308042,0.0008454536437484823,0.0005202404677014729,2.3052427893897783e-05,0.0011439080469652228,-0.0006325789342097734,1.3388363518399957e-05,0.0015043521618927044,0.0,0.0,0.0,0.0,0.0,0.0,0.0,-9.159723917662177e-05,0.0004889195843746919,-0.000155561917616176,-0.00020973331807216944,9.400524689592848e-05,1.5899909376670962e-05,-3.210421127275431e-05,-0.0008454536437484823,-0.0005202404677014729,-2.3052427893897783e-05,-0.0011439080469652228,0.0006325789342097734,-1.3388363518399957e-05,-0.0015043521618927044,0.8592159152030945,46.67495346069336,5.735073566436768,-19.511445999145508,-0.8325095772743225,-2.3852572441101074,0.43979209661483765,0
40,0.19501376152038574,-0.8592159152030945,-46.67495346069336,-5.735073566436768,19.511445999145508,0.8325095772743225,2.3852572441101074,-0.43979209661483765,0.0,0.0,0.0,0.0,0.0,0.0,0.0,-0.8154801630361856,-0.3318364469443638,-0.5773074849974963,0.3256470845374573,0.23626303570486004,0.11961119937221289,-0.41592810539551894,0.8781844733096006,0.7549708298465662,-0.28239970325170455,-1.6688896281426413,0.14132459027033467,2.4034292174582617,1.027370204442077,0.878092876070424,0.7554597494309409,-0.2825552651693207,-1.6690993614607135,0.1414185955172306,2.4034451173676383,1.0273381002308042,0.0008454536437484823,0.0005202404677014729,2.3052427893897783e-05,0.0011439080469652228,-0.0006325789342097734,1.3388363518399957e-05,0.0015043521618927044,0.0,0.0,0.0,0.0,0.0,0.0,0.0,-9.159723917662177e-05,0.0004889195843746919,-0.000155561917616176,-0.00020973331807216944,9.400524689592848e-05,1.5899909376670962e-05,-3.210421127275431e-05,-0.0008454536437484823,-0.0005202404677014729,-2.3052427893897783e-05,-0.0011439080469652228,0.0006325789342097734,-1.3388363518399957e-05,-0.0015043521618927044,0.8592159152030945,46.67495346069336,5.735073566436768,-19.511445999145508,-0.8325095772743225,-2.3852572441101074,0.43979209661483765,0
41,0.20001697540283203,-0.8592159152030945,-46.67495346069336,-5.711269855499268,19.535249710083008,0.8261008858680725,2.3852572441101074,-0.37204307317733765,0.0,0.0,0.0,0.0,0.0,0.0,0.0,-0.801107175722752,-0.3849079256681837,-0.5723465975018276,0.36768920545262124,0.2367943052188618,0.12512009488852524,-0.4154713264066261,0.8781844733096006,0.7549708298465662,-0.28240138254410574,-1.6688912985784965,0.141322122168843,2.4034303162683996,1.0273626767728061,0.878092876070424,0.7554597494309409,-0.2825552651693207,-1.6690993614607135,0.1414185955172306,2.4034451173676383,1.0273381002308042,0.001314922817302725,7.536390550603767e-05,-0.0009881464893443843,-0.00034313726039627527,-9.432825537360197e-05,-1.4845905720200063e-06,-0.0021747771916440827,0.0,0.0,0.0,0.0,0.0,0.0,0.0,-9.159723917662177e-05,0.0004889195843746919,-0.00015388262521498497,-0.000208062882216975,9.647334838761012e-05,1.4801099238681559e-05,-2.4576542001941704e-05,-0.001314922817302725,-7.536390550603767e-05,0.0009881464893443843,0.00034313726039627527,9.432825537360197e-05,1.4845905720200063e-06,0.0021747771916440827,0.8592159152030945,46.67495346069336,5.711269855499268,-19.535249710083008,-0.8261008858680725,-2.3852572441101074,0.37204307317733765,0
42,0.20514249801635742,-0.8592159152030945,-46.67495346069336,-5.711269855499268,19.535249710083008,0.8261008858680725,2.3852572441101074,-0.37204307317733765,0.0,0.0,0.0,0.0,0.0,0.0,0.0,-0.801107175722752,-0.3849079256681837,-0.5723465975018276,0.36768920545262124,0.2367943052188618,0.12512009488852524,-0.4154713264066261,0.8781844733096006,0.7549708298465662,-0.28240138254410574,-1.6688912985784965,0.141322122168843,2.4034303162683996,1.0273626767728061,0.878092876070424,0.7554597494309409,-0.2825552651693207,-1.6690993614607135,0.1414185955172306,2.4034451173676383,1.0273381002308042,0.001314922817302725,7.536390550603767e-05,-0.0009881464893443843,-0.00034313726039627527,-9.432825537360197e-05,-1.4845905720200063e-06,-0.0021747771916440827,0.0,0.0,0.0,0.0,0.0,0.0,0.0,-9.159723917662177e-05,0.0004889195843746919,-0.00015388262521498497,-0.000208062882216975,9.647334838761012e-05,1.4801099238681559e-05,-2.4576542001941704e-05,-0.001314922817302725,-7.536390550603767e-05,0.0009881464893443843,0.00034313726039627527,9.432825537360197e-05,1.4845905720200063e-06,0.0021747771916440827,0.8592159152030945,46.67495346069336,5.711269855499268,-19.535249710083008,-0.8261008858680725,-2.3852572441101074,0.37204307317733765,0
43,0.20995783805847168,-0.8354122042655945,-46.64718246459961,-5.735073566436768,19.559053421020508,0.8206077218055725,2.3916659355163574,-0.45352500677108765,0.0,0.0,0.0,0.0,0.0,0.0,0.0,-0.8232620482714684,-0.3243006668741338,-0.5789608272057263,0.32171228410983865,0.2369043830187926,0.11815613185450546,-0.41602636276706983,0.8781828028737453,0.754968881004735,-0.28239970325170477,-1.668892969014352,0.1413237403601778,2.403429599689433,1.0273717303209833,0.878092876070424,0.7554597494309409,-0.2825552651693207,-1.6690993614607135,0.1414185955172306,2.4034451173676383,1.0273381002308042,1.0281249532718655e-05,-4.6395611388483154e-05,-0.0002515722747639374,-0.00023787625184022983,-9.578571334411978e-05,-0.0002208199610408965,0.0017099284488607288,0.0,0.0,0.0,0.0,0.0,0.0,0.0,-8.99268033213163e-05,0.000490868426205826,-0.00015556191761595395,-0.0002063924463615585,9.485515705279224e-05,1.5517678205512198e-05,-3.363009017909313e-05,-1.0281249532718655e-05,4.6395611388483154e-05,0.0002515722747639374,0.00023787625184022983,9.578571334411978e-05,0.0002208199610408965,-0.0017099284488607288,0.8354122042655945,46.64718246459961,5.735073566436768,-19.559053421020508,-0.8206077218055725,-2.3916659355163574,0.45352500677108765,0
44,0.21500587463378906,-0.8354122042655945,-46.64718246459961,-5.735073566436768,19.559053421020508,0.8206077218055725,2.3916659355163574,-0.45352500677108765,0.0,0.0,0.0,0.0,0.0,0.0,0.0,-0.8232620482714684,-0.3243006668741338,-0.5789608272057263,0.32171228410983865,0.2369043830187926,0.11815613185450546,-0.41602636276706983,0.8781828028737453,0.754968881004735,-0.28239970325170477,-1.668892969014352,0.1413237403601778,2.403429599689433,1.0273717303209833,0.878092876070424,0.7554597494309409,-0.2825552651693207,-1.6690993614607135,0.1414185955172306,2.4034451173676383,1.0273381002308042,1.0281249532718655e-05,-4.6395611388483154e-05,-0.0002515722747639374,-0.00023787625184022983,-9.578571334411978e-05,-0.0002208199610408965,0.0017099284488607288,0.0,0.0,0.0,0.0,0.0,0.0,0.0,-8.99268033213163e-05,0.000490868426205826,-0.00015556191761595395,-0.0002063924463615585,9.485515705279224e-05,1.5517678205512198e-05,-3.363009017909313e-05,-1.0281249532718655e-05,4.6395611388483154e-05,0.0002515722747639374,0.00023787625184022983,9.578571334411978e-05,0.0002208199610408965,-0.0017099284488607288,0.8354122042655945,46.64718246459961,5.735073566436768,-19.559053421020508,-0.8206077218055725,-2.3916659355163574,0.45352500677108765,0
45,0.21999883651733398,-0.8354122042655945,-46.64718246459961,-5.735073566436768,19.535249710083008,0.8261008858680725,2.3852572441101074,-0.39218467473983765,0.0,0.0,0.0,0.0,0.0,0.0,0.0,-0.8243365250961895,-0.3036563834477081,-0.5739189553115502,0.30942503457334924,0.23667081607546825,0.11575765848983717,-0.4167877836347859,0.8781828028737453,0.754968881004735,-0.2823997120002436,-1.6688912985784965,0.14132206512199288,2.403430316342239,1.0273649147285353,0.878092876070424,0.7554597494309409,-0.2825552651693207,-1.6690993614607135,0.1414185955172306,2.4034451173676383,1.0273381002308042,0.00014296267750265197,-6.627090553629782e-05,-0.00010868793665134736,0.0051093238945931225,-0.00018211376077726884,0.00016002779272974218,-0.0009756151128572241,0.0,0.0,0.0,0.0,0.0,0.0,0.0,-8.99268033213163e-05,0.000490868426205826,-0.00015555316907711614,-0.000208062882216975,9.6530395237715e-05,1.4801025399524548e-05,-2.6814497731120213e-05,-0.00014296267750265197,6.627090553629782e-05,0.00010868793665134736,-0.0051093238945931225,0.00018211376077726884,-0.00016002779272974218,0.0009756151128572241,0.8354122042655945,46.64718246459961,5.735073566436768,-19.535249710083008,-0.8261008858680725,-2.3852572441101074,0.39218467473983765,0
46,0.22499489784240723,-0.8354122042655945,-46.64718246459961,-5.735073566436768,19.535249710083008,0.8261008858680725,2.3852572441101074,-0.39218467473983765,0.0,0.0,0.0,0.0,0.0,0.0,0.0,-0.8243365250961895,-0.3036563834477081,-0.5739189553115502,0.30942503457334924,0.23667081607546825,0.11575765848983717,-0.4167877836347859,0.8781828028737453,0.754968881004735,-0.2823997120002436,-1.6688912985784965,0.14132206512199288,2.403430316342239,1.0273649147285353,0.878092876070424,0.7554597494309409,-0.2825552651693207,-1.6690993614607135,0.1414185955172306,2.4034451173676383,1.0273381002308042,0.00014296267750265197,-6.627090553629782e-05,-0.00010868793665134736,0.0051093238945931225,-0.00018211376077726884,0.00016002779272974218,-0.0009756151128572241,0.0,0.0,0.0,0.0,0.0,0.0,0.0,-8.99268033213163e-05,0.000490868426205826,-0.00015555316907711614,-0.000208062882216975,9.6530395237715e-05,1.4801025399524548e-05,-2.6814497731120213e-05,-0.00014296267750265197,6.627090553629782e-05,0.00010868793665134736,-0.0051093238945931225,0.00018211376077726884,-0.00016002779272974218,0.0009756151128572241,0.8354122042655945,46.64718246459961,5.735073566436768,-19.535249710083008,-0.8261008858680725,-2.3852572441101074,0.39218467473983765,0
47,0.2300128936767578,-0.8354122042655945,-46.64718246459961,-5.735073566436768,19.535249710083008,0.8261008858680725,2.3852572441101074,-0.39218467473983765,0.0,0.0,0.0,0.0,0.0,0.0,0.0,-0.8243365250961895,-0.3036563834477081,-0.5739189553115502,0.30942503457334924,0.23667081607546825,0.11575765848983717,-0.4167877836347859,0.8781828028737453,0.754968881004735,-0.2823997120002436,-1.6688912985784965,0.14132206512199288,2.403430316342239,1.0273649147285353,0.878092876070424,0.7554597494309409,-0.2825552651693207,-1.6690993614607135,0.1414185955172306,2.4034451173676383,1.0273381002308042,0.00014296267750265197,-6.627090553629782e-05,-0.00010868793665134736,0.0051093238945931225,-0.00018211376077726884,0.00016002779272974218,-0.0009756151128572241,0.0,0.0,0.0,0.0,0.0,0.0,0.0,-8.99268033213163e-05,0.000490868426205826,-0.00015555316907711614,-0.000208062882216975,9.6530395237715e-05,1.4801025399524548e-05,-2.6814497731120213e-05,-0.00014296267750265197,6.627090553629782e-05,0.00010868793665134736,-0.0051093238945931225,0.00018211376077726884,-0.00016002779272974218,0.0009756151128572241,0.8354122042655945,46.64718246459961,5.735073566436768,-19.535249710083008,-0.8261008858680725,-2.3852572441101074,0.39218467473983765,0
48,0.23500895500183105,-0.8354122042655945,-46.64718246459961,-5.735073566436768,19.535249710083008,0.8261008858680725,2.3852572441101074,-0.39218467473983765,0.0,0.0,0.0,0.0,0.0,0.0,0.0,-0.8243365250961895,-0.3036563834477081,-0.5739189553115502,0.30942503457334924,0.23667081607546825,0.11575765848983717,-0.4167877836347859,0.8781828028737453,0.754968881004735,-0.2823997120002436,-1.6688912985784965,0.14132206512199288,2.403430316342239,1.0273649147285353,0.878092876070424,0.7554597494309409,-0.2825552651693207,-1.6690993614607135,0.1414185955172306,2.4034451173676383,1.0273381002308042,0.00014296267750265197,-6.627090553629782e-05,-0.00010868793665134736,0.0051093238945931225,-0.00018211376077726884,0.00016002779272974218,-0.0009756151128572241,0.0,0.0,0.0,0.0,0.0,0.0,0.0,-8.99268033213163e-05,0.000490868426205826,-0.00015555316907711614,-0.000208062882216975,9.6530395237715e-05,1.4801025399524548e-05,-2.6814497731120213e-05,-0.00014296267750265197,6.627090553629782e-05,0.00010868793665134736,-0.0051093238945931225,0.00018211376077726884,-0.00016002779272974218,0.0009756151128572241,0.8354122042655945,46.64718246459961,5.735073566436768,-19.535249710083008,-0.8261008858680725,-2.3852572441101074,0.39218467473983765,0
49,0.24000072479248047,-0.8592159152030945,-46.62337875366211,-5.762844562530518,19.586824417114258,0.8261008858680725,2.3916659355163574,-0.44711631536483765,0.0,0.0,0.0,0.0,0.0,0.0,0.0,-0.8364456186900563,-0.2723728428254717,-0.5755487136722455,0.288161040233203,0.23660077537923632,0.11296639394702386,-0.4161106448043654,0.8781844998005538,0.7549672105688798,-0.282399959046002,-1.668894917856183,0.14132531502260903,2.4034294858818326,1.0273710182441602,0.878092876070424,0.7554597494309409,-0.2825552651693207,-1.6690993614607135,0.1414185955172306,2.4034451173676383,1.0273381002308042,0.0005091253558497877,-0.0002885558245658876,0.000412548710943018,-0.0008003074414137943,-0.00025840413851904227,-0.00015446326329413134,0.0009521837477218221,0.0,0.0,0.0,0.0,0.0,0.0,0.0,-9.16237301298306e-05,0.0004925388620610205,-0.0001553061233187103,-0.00020444360453053534,9.328049462156707e-05,1.5631485805744916e-05,-3.2918013356031395e-05,-0.0005091253558497877,0.0002885558245658876,-0.000412548710943018,0.0008003074414137943,0.00025840413851904227,0.00015446326329413134,-0.0009521837477218221,0.8592159152030945,46.62337875366211,5.762844562530518,-19.586824417114258,-0.8261008858680725,-2.3916659355163574,0.44711631536483765,0
50,0.24499869346618652,-0.8592159152030945,-46.62337875366211,-5.762844562530518,19.586824417114258,0.8261008858680725,2.3916659355163574,-0.44711631536483765,0.0,0.0,0.0,0.0,0.0,0.0,0.0,-0.8364456186900563,-0.2723728428254717,-0.5755487136722455,0.288161040233203,0.23660077537923632,0.11296639394702386,-0.4161106448043654,0.8781844998005538,0.7549672105688798,-0.282399959046002,-1.668894917856183,0.14132531502260903,2.4034294858818326,1.0273710182441602,0.878092876070424,0.7554597494309409,-0.2825552651693207,-1.6690993614607135,0.1414185955172306,2.4034451173676383,1.0273381002308042,0.0005091253558497877,-0.0002885558245658876,0.000412548710943018,-0.0008003074414137943,-0.00025840413851904227,-0.00015446326329413134,0.0009521837477218221,0.0,0.0,0.0,0.0,0.0,0.0,0.0,-9.16237301298306e-05,0.0004925388620610205,-0.0001553061233187103,-0.00020444360453053534,9.328049462156707e-05,1.5631485805744916e-05,-3.2918013356031395e-05,-0.0005091253558497877,0.0002885558245658876,-0.000412548710943018,0.0008003074414137943,0.00025840413851904227,0.00015446326329413134,-0.0009521837477218221,0.8592159152030945,46.62337875366211,5.762844562530518,-19.586824417114258,-0.8261008858680725,-2.3916659355163574,0.44711631536483765,0
51,0.24999713897705078,-0.8592159152030945,-46.64718246459961,-5.762844562530518,19.559053421020508,0.8141990303993225,2.3724398612976074,-0.39218467473983765,0.0,0.0,0.0,0.0,0.0,0.0,0.0,-0.8294529666142549,-0.31901550040184373,-0.5754088402823746,0.32577145996074897,0.2370443221038779,0.1186825587916558,-0.4166419318791964,0.87818447330975,0.754968881004735,-0.2824005980628766,-1.668892969014352,0.14132461025730295,2.403431727413273,1.0273649147285353,0.878092876070424,0.7554597494309409,-0.2825552651693207,-1.6690993614607135,0.1414185955172306,2.4034451173676383,1.0273381002308042,0.0005458503022055754,0.0004399051355537141,0.00027899654907433336,-0.0005530860914704791,0.0005024214083521294,0.0006362643759993624,-0.0008053716406991151,0.0,0.0,0.0,0.0,0.0,0.0,0.0,-9.159723932605779e-05,0.000490868426205826,-0.0001546671064441285,-0.0002063924463615585,9.398525992765361e-05,1.3389954365283785e-05,-2.6814497731120213e-05,-0.0005458503022055754,-0.0004399051355537141,-0.00027899654907433336,0.0005530860914704791,-0.0005024214083521294,-0.0006362643759993624,0.0008053716406991151,0.8592159152030945,46.64718246459961,5.762844562530518,-19.559053421020508,-0.8141990303993225,-2.3724398612976074,0.39218467473983765,0
52,0.25501132011413574,-0.8592159152030945,-46.64718246459961,-5.762844562530518,19.559053421020508,0.8141990303993225,2.3724398612976074,-0.39218467473983765,0.0,0.0,0.0,0.0,0.0,0.0,0.0,-0.8294529666142549,-0.31901550040184373,-0.5754088402823746,0.32577145996074897,0.2370443221038779,0.1186825587916558,-0.4166419318791964,0.87818447330975,0.754968881004735,-0.2824005980628766,-1.668892969014352,0.14132461025730295,2.403431727413273,1.0273649147285353,0.878092876070424,0.7554597494309409,-0.2825552651693207,-1.6690993614607135,0.1414185955172306,2.4034451173676383,1.0273381002308042,0.0005458503022055754,0.0004399051355537141,0.00027899654907433336,-0.0005530860914704791,0.0005024214083521294,0.0006362643759993624,-0.0008053716406991151,0.0,0.0,0.0,0.0,0.0,0.0,0.0,-9.159723932605779e-05,0.000490868426205826,-0.0001546671064441285,-0.0002063924463615585,9.398525992765361e-05,1.3389954365283785e-05,-2.6814497731120213e-05,-0.0005458503022055754,-0.0004399051355537141,-0.00027899654907433336,0.0005530860914704791,-0.0005024214083521294,-0.0006362643759993624,0.0008053716406991151,0.8592159152030945,46.64718246459961,5.762844562530518,-19.559053421020508,-0.8141990303993225,-2.3724398612976074,0.39218467473983765,0
53,0.2600109577178955,-0.8076412081718445,-46.67495346069336,-5.735073566436768,19.559053421020508,0.8206077218055725,2.3852572441101074,-0.40591758489608765,0.0,0.0,0.0,0.0,0.0,0.0,0.0,-0.8234407355293896,-0.3392133910105903,-0.5730690755723418,0.3366041763675097,0.23756415259710076,0.12031458652749766,-0.4149434145443212,0.8781809335047738,0.7549708298465662,-0.2823997061839258,-1.668892969014352,0.14132409567892434,2.4034301985507684,1.027366436246791,0.878092876070424,0.7554597494309409,-0.2825552651693207,-1.6690993614607135,0.1414185955172306,2.4034451173676383,1.0273381002308042,-0.0003785798172442055,0.00020747138629034304,-0.00029296954347048955,-0.0008143253439075132,0.0003503704004406355,8.317534294061352e-05,-0.0007389601221775191,0.0,0.0,0.0,0.0,0.0,0.0,0.0,-8.805743434980862e-05,0.0004889195843746919,-0.0001555589853949324,-0.0002063924463615585,9.449983830625563e-05,1.4918816869879947e-05,-2.8336015986729635e-05,0.0003785798172442055,-0.00020747138629034304,0.00029296954347048955,0.0008143253439075132,-0.0003503704004406355,-8.317534294061352e-05,0.0007389601221775191,0.8076412081718445,46.67495346069336,5.735073566436768,-19.559053421020508,-0.8206077218055725,-2.3852572441101074,0.40591758489608765,0
54,0.2650003433227539,-0.8076412081718445,-46.67495346069336,-5.735073566436768,19.559053421020508,0.8206077218055725,2.3852572441101074,-0.40591758489608765,0.0,0.0,0.0,0.0,0.0,0.0,0.0,-0.8234407355293896,-0.3392133910105903,-0.5730690755723418,0.3366041763675097,0.23756415259710076,0.12031458652749766,-0.4149434145443212,0.8781809335047738,0.7549708298465662,-0.2823997061839258,-1.668892969014352,0.14132409567892434,2.4034301985507684,1.027366436246791,0.878092876070424,0.7554597494309409,-0.2825552651693207,-1.6690993614607135,0.1414185955172306,2.4034451173676383,1.0273381002308042,-0.0003785798172442055,0.00020747138629034304,-0.00029296954347048955,-0.0008143253439075132,0.0003503704004406355,8.317534294061352e-05,-0.0007389601221775191,0.0,0.0,0.0,0.0,0.0,0.0,0.0,-8.805743434980862e-05,0.0004889195843746919,-0.0001555589853949324,-0.0002063924463615585,9.449983830625563e-05,1.4918816869879947e-05,-2.8336015986729635e-05,0.0003785798172442055,-0.00020747138629034304,0.00029296954347048955,0.0008143253439075132,-0.0003503704004406355,-8.317534294061352e-05,0.0007389601221775191,0.8076412081718445,46.67495346069336,5.735073566436768,-19.559053421020508,-0.8206077218055725,-2.3852572441101074,0.40591758489608765,0
55,0.2700026035308838,-0.8076412081718445,-46.64718246459961,-5.663662433624268,19.511445999145508,0.8141990303993225,2.3980746269226074,-0.39950889348983765,0.0,0.0,0.0,0.0,0.0,0.0,0.0,-0.8137559615263943,-0.3283604211183127,-0.5667426577487216,0.32867738395505713,0.2375221023815601,0.11969663856029257,-0.4156875894395941,0.8781808540323627,0.754968881004735,-0.28240471470327955,-1.6688896281426413,0.14132350503668,2.4034277933039507,1.0273657285305942,0.878092876070424,0.7554597494309409,-0.2825552651693207,-1.6690993614607135,0.1414185955172306,2.4034451173676383,1.0273381002308042,8.835450069683236e-05,-0.00012867368337615237,-0.0015268270664565843,0.0005341538455667044,0.0003552151710552555,-0.00039155755716239733,-0.00043550302421129986,0.0,0.0,0.0,0.0,0.0,0.0,0.0,-8.797796193871221e-05,0.000490868426205826,-0.00015055046604117717,-0.00020973331807216944,9.509048055059144e-05,1.732406368759598e-05,-2.7628299789972388e-05,-8.835450069683236e-05,0.00012867368337615237,0.0015268270664565843,-0.0005341538455667044,-0.0003552151710552555,0.00039155755716239733,0.00043550302421129986,0.8076412081718445,46.64718246459961,5.663662433624268,-19.511445999145508,-0.8141990303993225,-2.3980746269226074,0.39950889348983765,0
56,0.27500224113464355,-0.8076412081718445,-46.64718246459961,-5.663662433624268,19.511445999145508,0.8141990303993225,2.3980746269226074,-0.39950889348983765,0.0,0.0,0.0,0.0,0.0,0.0,0.0,-0.8137559615263943,-0.3283604211183127,-0.5667426577487216,0.32867738395505713,0.2375221023815601,0.11969663856029257,-0.4156875894395941,0.8781808540323627,0.754968881004735,-0.28240471470327955,-1.6688896281426413,0.14132350503668,2.4034277933039507,1.0273657285305942,0.878092876070424,0.7554597494309409,-0.2825552651693207,-1.6690993614607135,0.1414185955172306,2.4034451173676383,1.0273381002308042,8.835450069683236e-05,-0.00012867368337615237,-0.0015268270664565843,0.0005341538455667044,0.0003552151710552555,-0.00039155755716239733,-0.00043550302421129986,0.0,0.0,0.0,0.0,0.0,0.0,0.0,-8.797796193871221e-05,0.000490868426205826,-0.00015055046604117717,-0.00020973331807216944,9.509048055059144e-05,1.732406368759598e-05,-2.7628299789972388e-05,-8.835450069683236e-05,0.00012867368337615237,0.0015268270664565843,-0.0005341538455667044,-0.0003552151710552555,0.00039155755716239733,0.00043550302421129986,0.8076412081718445,46.64718246459961,5.663662433624268,-19.511445999145508,-0.8141990303993225,-2.3980746269226074,0.39950889348983765,0
57,0.2799491882324219,-0.7838374972343445,-46.67495346069336,-5.762844562530518,19.559053421020508,0.8206077218055725,2.3852572441101074,-0.38577598333358765,0.0,0.0,0.0,0.0,0.0,0.0,0.0,-0.8173399344464998,-0.3416207123961257,-0.570852473502667,0.33338146389501394,0.23723777509513852,0.12056823571870627,-0.41522180384881713,0.8781791835960588,0.7549708298465662,-0.28239775538192113,-1.668892969014352,0.1413231492950545,2.403430277077781,1.0273642026517125,0.878092876070424,0.7554597494309409,-0.2825552651693207,-1.6690993614607135,0.1414185955172306,2.4034451173676383,1.0273381002308042,-0.00013074705838366386,5.500922092862157e-06,0.0009404538914252707,-0.00023317272147789806,9.467192484391777e-05,-3.4815517197456836e-05,-0.0012657315998581102,0.0,0.0,0.0,0.0,0.0,0.0,0.0,-8.630752563487665e-05,0.0004889195843746919,-0.0001575097873995901,-0.0002063924463615585,9.544622217610987e-05,1.4840289857431799e-05,-2.610242090828052e-05,0.00013074705838366386,-5.500922092862157e-06,-0.0009404538914252707,0.00023317272147789806,-9.467192484391777e-05,3.4815517197456836e-05,0.0012657315998581102,0.7838374972343445,46.67495346069336,5.762844562530518,-19.559053421020508,-0.8206077218055725,-2.3852572441101074,0.38577598333358765,0
58,0.2855358123779297,-0.7838374972343445,-46.67495346069336,-5.762844562530518,19.559053421020508,0.8206077218055725,2.3852572441101074,-0.38577598333358765,0.0,0.0,0.0,0.0,0.0,0.0,0.0,-0.8173399344464998,-0.3416207123961257,-0.570852473502667,0.33338146389501394,0.23723777509513852,0.12056823571870627,-0.41522180384881713,0.8781791835960588,0.7549708298465662,-0.28239775538192113,-1.668892969014352,0.1413231492950545,2.403430277077781,1.0273642026517125,0.878092876070424,0.7554597494309409,-0.2825552651693207,-1.6690993614607135,0.1414185955172306,2.4034451173676383,1.0273381002308042,-0.00013074705838366386,5.500922092862157e-06,0.0009404538914252707,-0.00023317272147789806,9.467192484391777e-05,-3.4815517197456836e-05,-0.0012657315998581102,0.0,0.0,0.0,0.0,0.0,0.0,0.0,-8.630752563487665e-05,0.0004889195843746919,-0.0001575097873995901,-0.0002063924463615585,9.544622217610987e-05,1.4840289857431799e-05,-2.610242090828052e-05,0.00013074705838366386,-5.500922092862157e-06,-0.0009404538914252707,0.00023317272147789806,-9.467192484391777e-05,3.4815517197456836e-05,0.0012657315998581102,0.7838374972343445,46.67495346069336,5.762844562530518,-19.559053421020508,-0.8206077218055725,-2.3852572441101074,0.38577598333358765,0
59,0.28999972343444824,-0.8076412081718445,-46.64718246459961,-5.663662433624268,19.559053421020508,0.8325095772743225,2.3852572441101074,-0.41324180364608765,0.0,0.0,0.0,0.0,0.0,0.0,0.0,-0.8004631566304944,-0.3436431632135828,-0.5589968838953874,0.3335233336412784,0.23707869466326445,0.11935970585122294,-0.415422659597425,0.8781808540319141,0.754968881004735,-0.28240762880164505,-1.668892969014352,0.14132135215845884,2.403430276556037,1.027367254409525,0.878092876070424,0.7554597494309409,-0.2825552651693207,-1.6690993614607135,0.1414185955172306,2.4034451173676383,1.0273381002308042,0.0005142887067458075,-0.0010479692181481978,-0.0008337544640658118,-0.0001392233186064601,-0.00044384435283550104,-0.00015437295255369074,0.0005065940520829409,0.0,0.0,0.0,0.0,0.0,0.0,0.0,-8.797796149018211e-05,0.000490868426205826,-0.00014763636767567423,-0.0002063924463615585,9.724335877175916e-05,1.484081160141315e-05,-2.9154178720736112e-05,-0.0005142887067458075,0.0010479692181481978,0.0008337544640658118,0.0001392233186064601,0.00044384435283550104,0.00015437295255369074,-0.0005065940520829409,0.8076412081718445,46.64718246459961,5.663662433624268,-19.559053421020508,-0.8325095772743225,-2.3852572441101074,0.41324180364608765,0
60,0.29502081871032715,-0.8076412081718445,-46.64718246459961,-5.663662433624268,19.559053421020508,0.8325095772743225,2.3852572441101074,-0.41324180364608765,0.0,0.0,0.0,0.0,0.0,0.0,0.0,-0.8004631566304944,-0.3436431632135828,-0.5589968838953874,0.3335233336412784,0.23707869466326445,0.11935970585122294,-0.415422659597425,0.8781808540319141,0.754968881004735,-0.28240762880164505,-1.668892969014352,0.14132135215845884,2.403430276556037,1.027367254409525,0.878092876070424,0.7554597494309409,-0.2825552651693207,-1.6690993614607135,0.1414185955172306,2.4034451173676383,1.0273381002308042,0.0005142887067458075,-0.0010479692181481978,-0.0008337544640658118,-0.0001392233186064601,-0.00044384435283550104,-0.00015437295255369074,0.0005065940520829409,0.0,0.0,0.0,0.0,0.0,0.0,0.0,-8.797796149018211e-05,0.000490868426205826,-0.00014763636767567423,-0.0002063924463615585,9.724335877175916e-05,1.484081160141315e-05,-2.9154178720736112e-05,-0.0005142887067458075,0.0010479692181481978,0.0008337544640658118,0.0001392233186064601,0.00044384435283550104,0.00015437295255369074,-0.0005065940520829409,0.8076412081718445,46.64718246459961,5.663662433624268,-19.559053421020508,-0.8325095772743225,-2.3852572441101074,0.41324180364608765,0
61,0.30028247833251953,-0.7838374972343445,-46.64718246459961,-5.762844562530518,19.535249710083008,0.8141990303993225,2.3916659355163574,-0.41965049505233765,0.0,0.0,0.0,0.0,0.0,0.0,0.0,-0.8201809545487542,-0.34041653416753426,-0.5705607250843463,0.328599913990576,0.23710779613997626,0.11879589761156835,-0.41440389136629746,0.8781791835960588,0.754968881004735,-0.2823977635348863,-1.6688912720875433,0.14132374311312232,2.403428543119685,1.0273679663248423,0.878092876070424,0.7554597494309409,-0.2825552651693207,-1.6690993614607135,0.1414185955172306,2.4034451173676383,1.0273381002308042,-0.0005771687127543762,-0.0008244665968709922,0.0007081324691157169,2.8546487476089667e-05,0.0003840934287759435,-5.236452477089863e-05,0.00018944710269560284,0.0,0.0,0.0,0.0,0.0,0.0,0.0,-8.630752563487665e-05,0.000490868426205826,-0.00015750163443439824,-0.00020808937317018383,9.4852404108281e-05,1.6574247953204946e-05,-2.9866094038100144e-05,0.0005771687127543762,0.0008244665968709922,-0.0007081324691157169,-2.8546487476089667e-05,-0.0003840934287759435,5.236452477089863e-05,-0.00018944710269560284,0.7838374972343445,46.64718246459961,5.762844562530518,-19.535249710083008,-0.8141990303993225,-2.3916659355163574,0.41965049505233765,0
62,0.30499839782714844,-0.7838374972343445,-46.64718246459961,-5.762844562530518,19.535249710083008,0.8141990303993225,2.3916659355163574,-0.41965049505233765,0.0,0.0,0.0,0.0,0.0,0.0,0.0,-0.8201809545487542,-0.34041653416753426,-0.5705607250843463,0.328599913990576,0.23710779613997626,0.11879589761156835,-0.41440389136629746,0.8781791835960588,0.754968881004735,-0.2823977635348863,-1.6688912720875433,0.14132374311312232,2.403428543119685,1.0273679663248423,0.878092876070424,0.7554597494309409,-0.2825552651693207,-1.6690993614607135,0.1414185955172306,2.4034451173676383,1.0273381002308042,-0.0005771687127543762,-0.0008244665968709922,0.0007081324691157169,2.8546487476089667e-05,0.0003840934287759435,-5.236452477089863e-05,0.00018944710269560284,0.0,0.0,0.0,0.0,0.0,0.0,0.0,-8.630752563487665e-05,0.000490868426205826,-0.00015750163443439824,-0.00020808937317018383,9.4852404108281e-05,1.6574247953204946e-05,-2.9866094038100144e-05,0.0005771687127543762,0.0008244665968709922,-0.0007081324691157169,-2.8546487476089667e-05,-0.0003840934287759435,5.236452477089863e-05,-0.00018944710269560284,0.7838374972343445,46.64718246459961,5.762844562530518,-19.535249710083008,-0.8141990303993225,-2.3916659355163574,0.41965049505233765,0
63,0.31000328063964844,-0.7838374972343445,-46.64718246459961,-5.711269855499268,19.535249710083008,0.8261008858680725,2.3852572441101074,-0.40591758489608765,0.0,0.0,0.0,0.0,0.0,0.0,0.0,-0.8131580687339608,-0.335161690753675,-0.5671340597922456,0.32439935973274,0.23730289540955057,0.11911649106403634,-0.41564324963017807,0.8781791835960588,0.754968881004735,-0.28240145242459475,-1.668891298578347,0.14132313488597067,2.403430303254305,1.0273664406074408,0.878092876070424,0.7554597494309409,-0.2825552651693207,-1.6690993614607135,0.1414185955172306,2.4034451173676383,1.0273381002308042,-0.0008620606278643168,-0.00024010570386902695,-0.0009841733229770252,-6.552671398461582e-05,-5.628099343960686e-05,-6.269760837228152e-05,-0.0005796140646173695,0.0,0.0,0.0,0.0,0.0,0.0,0.0,-8.630752563487665e-05,0.000490868426205826,-0.0001538127447259785,-0.00020806288236641102,9.546063125992488e-05,1.4814113333372347e-05,-2.8340376636570852e-05,0.0008620606278643168,0.00024010570386902695,0.0009841733229770252,6.552671398461582e-05,5.628099343960686e-05,6.269760837228152e-05,0.0005796140646173695,0.7838374972343445,46.64718246459961,5.711269855499268,-19.535249710083008,-0.8261008858680725,-2.3852572441101074,0.40591758489608765,0
64,0.3150053024291992,-0.7838374972343445,-46.64718246459961,-5.711269855499268,19.535249710083008,0.8261008858680725,2.3852572441101074,-0.40591758489608765,0.0,0.0,0.0,0.0,0.0,0.0,0.0,-0.8131580687339608,-0.335161690753675,-0.5671340597922456,0.32439935973274,0.23730289540955057,0.11911649106403634,-0.41564324963017807,0.8781791835960588,0.754968881004735,-0.28240145242459475,-1.668891298578347,0.14132313488597067,2.403430303254305,1.0273664406074408,0.878092876070424,0.7554597494309409,-0.2825552651693207,-1.6690993614607135,0.1414185955172306,2.4034451173676383,1.0273381002308042,-0.0008620606278643168,-0.00024010570386902695,-0.0009841733229770252,-6.552671398461582e-05,-5.628099343960686e-05,-6.269760837228152e-05,-0.0005796140646173695,0.0,0.0,0.0,0.0,0.0,0.0,0.0,-8.630752563487665e-05,0.000490868426205826,-0.0001538127447259785,-0.00020806288236641102,9.546063125992488e-05,1.4814113333372347e-05,-2.8340376636570852e-05,0.0008620606278643168,0.00024010570386902695,0.0009841733229770252,6.552671398461582e-05,5.628099343960686e-05,6.269760837228152e-05,0.0005796140646173695,0.7838374972343445,46.64718246459961,5.711269855499268,-19.535249710083008,-0.8261008858680725,-2.3852572441101074,0.40591758489608765,0
65,0.3200082778930664,-0.8076412081718445,-46.62337875366211,-5.762844562530518,19.535249710083008,0.8325095772743225,2.3852572441101074,-0.41965049505233765,0.0,0.0,0.0,0.0,0.0,0.0,0.0,-0.8153918133738258,-0.3263515933323812,-0.5705617814781746,0.3206742667324447,0.23763792940464318,0.11855261965059172,-0.41604706335607694,0.8781808540319141,0.7549672105688798,-0.2823977545183083,-1.6688912985784965,0.1413217074221812,2.4034299611913967,1.0273679664863478,0.878092876070424,0.7554597494309409,-0.2825552651693207,-1.6690993614607135,0.1414185955172306,2.4034451173676383,1.0273381002308042,-0.0001765883798673763,5.629151899746918e-05,0.000526560441258774,0.00013749067928875934,-0.0004831391913570942,0.00012610053310469453,-3.2974227303765375e-05,0.0,0.0,0.0,0.0,0.0,0.0,0.0,-8.797796149018211e-05,0.0004925388620610205,-0.000157510651012438,-0.000208062882216975,9.688809504940221e-05,1.5156176241593045e-05,-2.9866255543575804e-05,0.0001765883798673763,-5.629151899746918e-05,-0.000526560441258774,-0.00013749067928875934,0.0004831391913570942,-0.00012610053310469453,3.2974227303765375e-05,0.8076412081718445,46.62337875366211,5.762844562530518,-19.535249710083008,-0.8325095772743225,-2.3852572441101074,0.41965049505233765,0
66,0.32500433921813965,-0.8076412081718445,-46.62337875366211,-5.762844562530518,19.535249710083008,0.8325095772743225,2.3852572441101074,-0.41965049505233765,0.0,0.0,0.0,0.0,0.0,0.0,0.0,-0.8153918133738258,-0.3263515933323812,-0.5705617814781746,0.3206742667324447,0.23763792940464318,0.11855261965059172,-0.41604706335607694,0.8781808540319141,0.7549672105688798,-0.2823977545183083,-1.6688912985784965,0.1413217074221812,2.4034299611913967,1.0273679664863478,0.878092876070424,0.7554597494309409,-0.2825552651693207,-1.6690993614607135,0.1414185955172306,2.4034451173676383,1.0273381002308042,-0.0001765883798673763,5.629151899746918e-05,0.000526560441258774,0.00013749067928875934,-0.0004831391913570942,0.00012610053310469453,-3.2974227303765375e-05,0.0,0.0,0.0,0.0,0.0,0.0,0.0,-8.797796149018211e-05,0.0004925388620610205,-0.000157510651012438,-0.000208062882216975,9.688809504940221e-05,1.5156176241593045e-05,-2.9866255543575804e-05,0.0001765883798673763,-5.629151899746918e-05,-0.000526560441258774,-0.00013749067928875934,0.0004831391913570942,-0.00012610053310469453,3.2974227303765375e-05,0.8076412081718445,46.62337875366211,5.762844562530518,-19.535249710083008,-0.8325095772743225,-2.3852572441101074,0.41965049505233765,0
67,0.32999658584594727,-0.8076412081718445,-46.62337875366211,-5.762844562530518,19.535249710083008,0.8325095772743225,2.3788485527038574,-0.46725791692733765,0.0,0.0,0.0,0.0,0.0,0.0,0.0,-0.8213803334108644,-0.3447432572261117,-0.578040895948985,0.3313966500572944,0.23758181004952483,0.12058714492445606,-0.41727600978684254,0.8781808540319141,0.7549672105688798,-0.28239799062085724,-1.6688912985784965,0.14132455045542658,2.403431026478999,1.0273732561998894,0.878092876070424,0.7554597494309409,-0.2825552651693207,-1.6690993614607135,0.1414185955172306,2.4034451173676383,1.0273381002308042,-0.0004237626228551808,-0.001012542529805649,-1.8652707009211593e-05,0.00015998894933530946,-0.0003433513234173887,0.00033061053552320765,0.002040813912778433,0.0,0.0,0.0,0.0,0.0,0.0,0.0,-8.797796149018211e-05,0.0004925388620610205,-0.00015727454846348188,-0.000208062882216975,9.404506180402117e-05,1.4090888639461951e-05,-3.5155969085209904e-05,0.0004237626228551808,0.001012542529805649,1.8652707009211593e-05,-0.00015998894933530946,0.0003433513234173887,-0.00033061053552320765,-0.002040813912778433,0.8076412081718445,46.62337875366211,5.762844562530518,-19.535249710083008,-0.8325095772743225,-2.3788485527038574,0.46725791692733765,0
68,0.335050106048584,-0.8076412081718445,-46.62337875366211,-5.762844562530518,19.535249710083008,0.8325095772743225,2.3788485527038574,-0.46725791692733765,0.0,0.0,0.0,0.0,0.0,0.0,0.0,-0.8213803334108644,-0.3447432572261117,-0.578040895948985,0.3313966500572944,0.23758181004952483,0.12058714492445606,-0.41727600978684254,0.8781808540319141,0.7549672105688798,-0.28239799062085724,-1.6688912985784965,0.14132455045542658,2.403431026478999,1.0273732561998894,0.878092876070424,0.7554597494309409,-0.2825552651693207,-1.6690993614607135,0.1414185955172306,2.4034451173676383,1.0273381002308042,-0.0004237626228551808,-0.001012542529805649,-1.8652707009211593e-05,0.00015998894933530946,-0.0003433513234173887,0.00033061053552320765,0.002040813912778433,0.0,0.0,0.0,0.0,0.0,0.0,0.0,-8.797796149018211e-05,0.0004925388620610205,-0.00015727454846348188,-0.000208062882216975,9.404506180402117e-05,1.4090888639461951e-05,-3.5155969085209904e-05,0.0004237626228551808,0.001012542529805649,1.8652707009211593e-05,-0.00015998894933530946,0.0003433513234173887,-0.00033061053552320765,-0.002040813912778433,0.8076412081718445,46.62337875366211,5.762844562530518,-19.535249710083008,-0.8325095772743225,-2.3788485527038574,0.46725791692733765,0
69,0.34000086784362793,-0.8076412081718445,-46.62337875366211,-5.762844562530518,19.535249710083008,0.8325095772743225,2.3788485527038574,-0.46725791692733765,0.0,0.0,0.0,0.0,0.0,0.0,0.0,-0.8213803334108644,-0.3447432572261117,-0.578040895948985,0.3313966500572944,0.23758181004952483,0.12058714492445606,-0.41727600978684254,0.8781808540319141,0.7549672105688798,-0.28239799062085724,-1.6688912985784965,0.14132455045542658,2.403431026478999,1.0273732561998894,0.878092876070424,0.7554597494309409,-0.2825552651693207,-1.6690993614607135,0.1414185955172306,2.4034451173676383,1.0273381002308042,-0.0004237626228551808,-0.001012542529805649,-1.8652707009211593e-05,0.00015998894933530946,-0.0003433513234173887,0.00033061053552320765,0.002040813912778433,0.0,0.0,0.0,0.0,0.0,0.0,0.0,-8.797796149018211e-05,0.0004925388620610205,-0.00015727454846348188,-0.000208062882216975,9.404506180402117e-05,1.4090888639461951e-05,-3.5155969085209904e-05,0.0004237626228551808,0.001012542529805649,1.8652707009211593e-05,-0.00015998894933530946,0.0003433513234173887,-0.00033061053552320765,-0.002040813912778433,0.8076412081718445,46.62337875366211,5.762844562530518,-19.535249710083008,-0.8325095772743225,-2.3788485527038574,0.46725791692733765,0
70,0.3450031280517578,-0.8076412081718445,-46.62337875366211,-5.762844562530518,19.535249710083008,0.8325095772743225,2.3788485527038574,-0.46725791692733765,0.0,0.0,0.0,0.0,0.0,0.0,0.0,-0.8213803334108644,-0.3447432572261117,-0.578040895948985,0.3313966500572944,0.23758181004952483,0.12058714492445606,-0.41727600978684254,0.8781808540319141,0.7549672105688798,-0.28239799062085724,-1.6688912985784965,0.14132455045542658,2.403431026478999,1.0273732561998894,0.878092876070424,0.7554597494309409,-0.2825552651693207,-1.6690993614607135,0.1414185955172306,2.4034451173676383,1.0273381002308042,-0.0004237626228551808,-0.001012542529805649,-1.8652707009211593e-05,0.00015998894933530946,-0.0003433513234173887,0.00033061053552320765,0.002040813912778433,0.0,0.0,0.0,0.0,0.0,0.0,0.0,-8.797796149018211e-05,0.0004925388620610205,-0.00015727454846348188,-0.000208062882216975,9.404506180402117e-05,1.4090888639461951e-05,-3.5155969085209904e-05,0.0004237626228551808,0.001012542529805649,1.8652707009211593e-05,-0.00015998894933530946,0.0003433513234173887,-0.00033061053552320765,-0.002040813912778433,0.8076412081718445,46.62337875366211,5.762844562530518,-19.535249710083008,-0.8325095772743225,-2.3788485527038574,0.46725791692733765,0
71,0.3499948978424072,-0.8592159152030945,-46.64718246459961,-5.762844562530518,19.559053421020508,0.8206077218055725,2.3788485527038574,-0.43979209661483765,0.0,0.0,0.0,0.0,0.0,0.0,0.0,-0.8163728549474973,-0.32613703309465897,-0.5721520587868032,0.3243231437217204,0.23715708469172622,0.11909536165019603,-0.41783323364472824,0.8781844821399183,0.754968881004735,-0.28239775441119036,-1.668892969014352,0.1413226799677978,2.403430989119368,1.027370204442077,0.878092876070424,0.7554597494309409,-0.2825552651693207,-1.6690993614607135,0.1414185955172306,2.4034451173676383,1.0273381002308042,0.0009537153210413811,0.00020980610213520336,0.00042171288926044043,-0.0005653538008642265,3.3630055259281756e-06,0.00031389740960738983,0.001103094335172763,0.0,0.0,0.0,0.0,0.0,0.0,0.0,-9.160606949432104e-05,0.000490868426205826,-0.00015751075813036364,-0.0002063924463615585,9.591554943280678e-05,1.4128248270406374e-05,-3.210421127275431e-05,-0.0009537153210413811,-0.00020980610213520336,-0.00042171288926044043,0.0005653538008642265,-3.3630055259281756e-06,-0.00031389740960738983,-0.001103094335172763,0.8592159152030945,46.64718246459961,5.762844562530518,-19.559053421020508,-0.8206077218055725,-2.3788485527038574,0.43979209661483765,0
72,0.3552420139312744,-0.8592159152030945,-46.64718246459961,-5.762844562530518,19.559053421020508,0.8206077218055725,2.3788485527038574,-0.43979209661483765,0.0,0.0,0.0,0.0,0.0,0.0,0.0,-0.8163728549474973,-0.32613703309465897,-0.5721520587868032,0.3243231437217204,0.23715708469172622,0.11909536165019603,-0.41783323364472824,0.8781844821399183,0.754968881004735,-0.28239775441119036,-1.668892969014352,0.1413226799677978,2.403430989119368,1.027370204442077,0.878092876070424,0.7554597494309409,-0.2825552651693207,-1.6690993614607135,0.1414185955172306,2.4034451173676383,1.0273381002308042,0.0009537153210413811,0.00020980610213520336,0.00042171288926044043,-0.0005653538008642265,3.3630055259281756e-06,0.00031389740960738983,0.001103094335172763,0.0,0.0,0.0,0.0,0.0,0.0,0.0,-9.160606949432104e-05,0.000490868426205826,-0.00015751075813036364,-0.0002063924463615585,9.591554943280678e-05,1.4128248270406374e-05,-3.210421127275431e-05,-0.0009537153210413811,-0.00020980610213520336,-0.00042171288926044043,0.0005653538008642265,-3.3630055259281756e-06,-0.00031389740960738983,-0.001103094335172763,0.8592159152030945,46.64718246459961,5.762844562530518,-19.559053421020508,-0.8206077218055725,-2.3788485527038574,0.43979209661483765,0
73,0.3600013256072998,-0.8076412081718445,-46.69875717163086,-5.762844562530518,19.511445999145508,0.8087058663368225,2.3788485527038574,-0.43338340520858765,0.0,0.0,0.0,0.0,0.0,0.0,0.0,-0.8275219224552421,-0.3277225379921975,-0.5796737412873872,0.32572984438089087,0.23707015625387023,0.11930692281555379,-0.41771773847004934,0.8781808540319639,0.7549725002824215,-0.2823977545178638,-1.6688896281426413,0.14132510233380194,2.4034299672733344,1.0273691391525444,0.878092876070424,0.7554597494309409,-0.2825552651693207,-1.6690993614607135,0.1414185955172306,2.4034451173676383,1.0273381002308042,-0.0007628159250381126,0.0011583697869592053,-9.294785441071324e-05,0.00045729001487191024,0.0005962933736362222,0.00032231839415488325,-3.00700584634133e-05,0.0,0.0,0.0,0.0,0.0,0.0,0.0,-8.79779615399201e-05,0.0004872491485193864,-0.00015751065145691578,-0.00020973331807216944,9.34931834286612e-05,1.515009430397285e-05,-3.1038921740167424e-05,0.0007628159250381126,-0.0011583697869592053,9.294785441071324e-05,-0.00045729001487191024,-0.0005962933736362222,-0.00032231839415488325,3.00700584634133e-05,0.8076412081718445,46.69875717163086,5.762844562530518,-19.511445999145508,-0.8087058663368225,-2.3788485527038574,0.43338340520858765,0
74,0.36499834060668945,-0.8076412081718445,-46.69875717163086,-5.762844562530518,19.511445999145508,0.8087058663368225,2.3788485527038574,-0.43338340520858765,0.0,0.0,0.0,0.0,0.0,0.0,0.0,-0.8275219224552421,-0.3277225379921975,-0.5796737412873872,0.32572984438089087,0.23707015625387023,0.11930692281555379,-0.41771773847004934,0.8781808540319639,0.7549725002824215,-0.2823977545178638,-1.6688896281426413,0.14132510233380194,2.4034299672733344,1.0273691391525444,0.878092876070424,0.7554597494309409,-0.2825552651693207,-1.6690993614607135,0.1414185955172306,2.4034451173676383,1.0273381002308042,-0.0007628159250381126,0.0011583697869592053,-9.294785441071324e-05,0.00045729001487191024,0.0005962933736362222,0.00032231839415488325,-3.00700584634133e-05,0.0,0.0,0.0,0.0,0.0,0.0,0.0,-8.79779615399201e-05,0.0004872491485193864,-0.00015751065145691578,-0.00020973331807216944,9.34931834286612e-05,1.515009430397285e-05,-3.1038921740167424e-05,0.0007628159250381126,-0.0011583697869592053,9.294785441071324e-05,-0.00045729001487191024,-0.0005962933736362222,-0.00032231839415488325,3.00700584634133e-05,0.8076412081718445,46.69875717163086,5.762844562530518,-19.511445999145508,-0.8087058663368225,-2.3788485527038574,0.43338340520858765,0
75,0.37006640434265137,-0.8354122042655945,-46.64718246459961,-5.735073566436768,19.535249710083008,0.8141990303993225,2.3916659355163574,-0.37845176458358765,0.0,0.0,0.0,0.0,0.0,0.0,0.0,-0.8229828112325712,-0.3388179248819826,-0.5774911600385575,0.33098150370589563,0.23675442256038226,0.12008412105196463,-0.4185884911844405,0.8781828028737453,0.754968881004735,-0.2823997823127092,-1.6688912985784965,0.1413234255108943,2.403429447276008,1.0273633888476352,0.878092876070424,0.7554597494309409,-0.2825552651693207,-1.6690993614607135,0.1414185955172306,2.4034451173676383,1.0273381002308042,-0.0004237459416739729,-0.0006488263187626616,-0.0003714401569377547,-0.00014133503340744784,0.0002689703763258098,-6.570987353911327e-05,-0.0012771191872621664,0.0,0.0,0.0,0.0,0.0,0.0,0.0,-8.99268033213163e-05,0.000490868426205826,-0.00015548285661154404,-0.000208062882216975,9.517000633629813e-05,1.5670091630504146e-05,-2.5288616831042887e-05,0.0004237459416739729,0.0006488263187626616,0.0003714401569377547,0.00014133503340744784,-0.0002689703763258098,6.570987353911327e-05,0.0012771191872621664,0.8354122042655945,46.64718246459961,5.735073566436768,-19.535249710083008,-0.8141990303993225,-2.3916659355163574,0.37845176458358765,0
76,0.3750317096710205,-0.8354122042655945,-46.64718246459961,-5.735073566436768,19.535249710083008,0.8141990303993225,2.3916659355163574,-0.37845176458358765,0.0,0.0,0.0,0.0,0.0,0.0,0.0,-0.8229828112325712,-0.3388179248819826,-0.5774911600385575,0.33098150370589563,0.23675442256038226,0.12008412105196463,-0.4185884911844405,0.8781828028737453,0.754968881004735,-0.2823997823127092,-1.6688912985784965,0.1413234255108943,2.403429447276008,1.0273633888476352,0.878092876070424,0.7554597494309409,-0.2825552651693207,-1.6690993614607135,0.1414185955172306,2.4034451173676383,1.0273381002308042,-0.0004237459416739729,-0.0006488263187626616,-0.0003714401569377547,-0.00014133503340744784,0.0002689703763258098,-6.570987353911327e-05,-0.0012771191872621664,0.0,0.0,0.0,0.0,0.0,0.0,0.0,-8.99268033213163e-05,0.000490868426205826,-0.00015548285661154404,-0.000208062882216975,9.517000633629813e-05,1.5670091630504146e-05,-2.5288616831042887e-05,0.0004237459416739729,0.0006488263187626616,0.0003714401569377547,0.00014133503340744784,-0.0002689703763258098,6.570987353911327e-05,0.0012771191872621664,0.8354122042655945,46.64718246459961,5.735073566436768,-19.535249710083008,-0.8141990303993225,-2.3916659355163574,0.37845176458358765,0
77,0.3800086975097656,-0.8076412081718445,-46.64718246459961,-5.810451984405518,19.535249710083008,0.8206077218055725,2.3980746269226074,-0.42605918645858765,0.0,0.0,0.0,0.0,0.0,0.0,0.0,-0.8333319096797691,-0.32013217216144213,-0.5829821647426967,0.31982793432475554,0.2358904617768455,0.11924710962412068,-0.41657413227724727,0.8781808540319141,0.754968881004735,-0.2823944922755926,-1.6688912897481787,0.14132314799314183,2.403425672573921,1.0273686654812186,0.878092876070424,0.7554597494309409,-0.2825552651693207,-1.6690993614607135,0.1414185955172306,2.4034451173676383,1.0273381002308042,-0.0009320277520700299,3.180172593332607e-05,0.0010074139187780525,0.00018091479716631393,-5.237082594930192e-05,-0.00042026303134818694,-0.0002441739341152311,0.0,0.0,0.0,0.0,0.0,0.0,0.0,-8.797796149018211e-05,0.000490868426205826,-0.00016077289372812276,-0.0002080717125347853,9.544752408877089e-05,1.9444793717404707e-05,-3.056525041444935e-05,0.0009320277520700299,-3.180172593332607e-05,-0.0010074139187780525,-0.00018091479716631393,5.237082594930192e-05,0.00042026303134818694,0.0002441739341152311,0.8076412081718445,46.64718246459961,5.810451984405518,-19.535249710083008,-0.8206077218055725,-2.3980746269226074,0.42605918645858765,0
78,0.38515281677246094,-0.8076412081718445,-46.64718246459961,-5.810451984405518,19.535249710083008,0.8206077218055725,2.3980746269226074,-0.42605918645858765,0.0,0.0,0.0,0.0,0.0,0.0,0.0,-0.8333319096797691,-0.32013217216144213,-0.5829821647426967,0.31982793432475554,0.2358904617768455,0.11924710962412068,-0.41657413227724727,0.8781808540319141,0.754968881004735,-0.2823944922755926,-1.6688912897481787,0.14132314799314183,2.403425672573921,1.0273686654812186,0.878092876070424,0.7554597494309409,-0.2825552651693207,-1.6690993614607135,0.1414185955172306,2.4034451173676383,1.0273381002308042,-0.0009320277520700299,3.180172593332607e-05,0.0010074139187780525,0.00018091479716631393,-5.237082594930192e-05,-0.00042026303134818694,-0.0002441739341152311,0.0,0.0,0.0,0.0,0.0,0.0,0.0,-8.797796149018211e-05,0.000490868426205826,-0.00016077289372812276,-0.0002080717125347853,9.544752408877089e-05,1.9444793717404707e-05,-3.056525041444935e-05,0.0009320277520700299,-3.180172593332607e-05,-0.0010074139187780525,-0.00018091479716631393,5.237082594930192e-05,0.00042026303134818694,0.0002441739341152311,0.8076412081718445,46.64718246459961,5.810451984405518,-19.535249710083008,-0.8206077218055725,-2.3980746269226074,0.42605918645858765,0
79,0.3900129795074463,-0.7838374972343445,-46.69875717163086,-5.762844562530518,19.511445999145508,0.8261008858680725,2.3916659355163574,-0.41965049505233765,0.0,0.0,0.0,0.0,0.0,0.0,0.0,-0.8100002823615668,-0.3318623884292703,-0.5698017746637024,0.3293397339360342,0.2353827706377518,0.12027169247003767,-0.4182489062204836,0.8781791835960588,0.7549725002824215,-0.28239848932496936,-1.6688896281425916,0.14132538084383114,2.4034296041934144,1.027367966486274,0.878092876070424,0.7554597494309409,-0.2825552651693207,-1.6690993614607135,0.1414185955172306,2.4034451173676383,1.0273381002308042,-0.0004506310789392124,0.0008227911119649022,0.0007147362739863582,0.000950639847455662,-0.0001516885494372988,-0.0003050896520508218,0.0005253752949181726,0.0,0.0,0.0,0.0,0.0,0.0,0.0,-8.630752563487665e-05,0.0004872491485193864,-0.0001567758443513645,-0.00020973331812190743,9.321467339945544e-05,1.55131742238801e-05,-2.9866255469856995e-05,0.0004506310789392124,-0.0008227911119649022,-0.0007147362739863582,-0.000950639847455662,0.0001516885494372988,0.0003050896520508218,-0.0005253752949181726,0.7838374972343445,46.69875717163086,5.762844562530518,-19.511445999145508,-0.8261008858680725,-2.3916659355163574,0.41965049505233765,0
80,0.39499878883361816,-0.7838374972343445,-46.69875717163086,-5.762844562530518,19.511445999145508,0.8261008858680725,2.3916659355163574,-0.41965049505233765,0.0,0.0,0.0,0.0,0.0,0.0,0.0,-0.8100002823615668,-0.3318623884292703,-0.5698017746637024,0.3293397339360342,0.2353827706377518,0.12027169247003767,-0.4182489062204836,0.8781791835960588,0.7549725002824215,-0.28239848932496936,-1.6688896281425916,0.14132538084383114,2.4034296041934144,1.027367966486274,0.878092876070424,0.7554597494309409,-0.2825552651693207,-1.6690993614607135,0.1414185955172306,2.4034451173676383,1.0273381002308042,-0.0004506310789392124,0.0008227911119649022,0.0007147362739863582,0.000950639847455662,-0.0001516885494372988,-0.0003050896520508218,0.0005253752949181726,0.0,0.0,0.0,0.0,0.0,0.0,0.0,-8.630752563487665e-05,0.0004872491485193864,-0.0001567758443513645,-0.00020973331812190743,9.321467339945544e-05,1.55131742238801e-05,-2.9866255469856995e-05,0.0004506310789392124,-0.0008227911119649022,-0.0007147362739863582,-0.000950639847455662,0.0001516885494372988,0.0003050896520508218,-0.0005253752949181726,0.7838374972343445,46.69875717163086,5.762844562530518,-19.511445999145508,-0.8261008858680725,-2.3916659355163574,0.41965049505233765,0
