rezayati/contactInterpretation/dataset/franka_main/labeled_data/link7/a1_6.csv
index,time,tau_J0,tau_J1,tau_J2,tau_J3,tau_J4,tau_J5,tau_J6,tau_J_d0,tau_J_d1,tau_J_d2,tau_J_d3,tau_J_d4,tau_J_d5,tau_J_d6,tau_ext0,tau_ext1,tau_ext2,tau_ext3,tau_ext4,tau_ext5,tau_ext6,q0,q1,q2,q3,q4,q5,q6,q_d0,q_d1,q_d2,q_d3,q_d4,q_d5,q_d6,dq0,dq1,dq2,dq3,dq4,dq5,dq6,dq_d0,dq_d1,dq_d2,dq_d3,dq_d4,dq_d5,dq_d6,e0,e1,e2,e3,e4,e5,e6,de0,de1,de2,de3,de4,de5,de6,etau_J0,etau_J1,etau_J2,etau_J3,etau_J4,etau_J5,etau_J6,label
1,0.0,-0.12130087614059448,-18.177942276000977,0.9418671131134033,17.999910354614258,0.6356711983680725,2.3010287284851074,-0.20724813640117645,0.0,0.0,0.0,0.0,0.0,0.0,0.0,-0.06522022127839082,0.48532449625427837,0.09873234907855184,0.4152450791020178,0.21591460933813067,0.09365098672050241,-0.23291594254962403,-0.6089851371405416,-0.057647657631277445,-0.6665296498432493,-2.5944548757099906,-0.05578147450144,2.5079228026602,0.8763191901759969,-0.6090851748156966,-0.05753196718556838,-0.666603097082616,-2.5945565370258534,-0.05562143941554,2.507976027223799,0.8763108487046415,0.0015083930807517048,-0.0014710069894958355,-0.0002733526444689462,0.0017526416046643421,0.00014888787085513868,-0.0003635329448001731,-0.0013421760961349958,0.0,0.0,0.0,0.0,0.0,0.0,0.0,-0.00010003767515498474,0.00011569044570906156,-7.34472393667529e-05,-0.00010166131586286653,0.00016003508589999826,5.322456359913019e-05,-8.341471355421959e-06,-0.0015083930807517048,0.0014710069894958355,0.0002733526444689462,-0.0017526416046643421,-0.00014888787085513868,0.0003635329448001731,0.0013421760961349958,0.12130087614059448,18.177942276000977,-0.9418671131134033,-17.999910354614258,-0.6356711983680725,-2.3010287284851074,0.20724813640117645,0
2,0.0049991607666015625,-0.12130087614059448,-18.177942276000977,0.9418671131134033,17.999910354614258,0.6356711983680725,2.3010287284851074,-0.20724813640117645,0.0,0.0,0.0,0.0,0.0,0.0,0.0,-0.06522022127839082,0.48532449625427837,0.09873234907855184,0.4152450791020178,0.21591460933813067,0.09365098672050241,-0.23291594254962403,-0.6089851371405416,-0.057647657631277445,-0.6665296498432493,-2.5944548757099906,-0.05578147450144,2.5079228026602,0.8763191901759969,-0.6090851748156966,-0.05753196718556838,-0.666603097082616,-2.5945565370258534,-0.05562143941554,2.507976027223799,0.8763108487046415,0.0015083930807517048,-0.0014710069894958355,-0.0002733526444689462,0.0017526416046643421,0.00014888787085513868,-0.0003635329448001731,-0.0013421760961349958,0.0,0.0,0.0,0.0,0.0,0.0,0.0,-0.00010003767515498474,0.00011569044570906156,-7.34472393667529e-05,-0.00010166131586286653,0.00016003508589999826,5.322456359913019e-05,-8.341471355421959e-06,-0.0015083930807517048,0.0014710069894958355,0.0002733526444689462,-0.0017526416046643421,-0.00014888787085513868,0.0003635329448001731,0.0013421760961349958,0.12130087614059448,18.177942276000977,-0.9418671131134033,-17.999910354614258,-0.6356711983680725,-2.3010287284851074,0.20724813640117645,0
3,0.010003805160522461,-0.018151462078094482,-18.130334854125977,0.9696381092071533,18.099092483520508,0.6301780343055725,2.2625765800476074,-0.22830526530742645,0.0,0.0,0.0,0.0,0.0,0.0,0.0,-0.06101147485322885,0.4919679820386775,0.10475489003453142,0.4064284512772095,0.2146034046375868,0.09456440391167088,-0.2329075252789025,-0.6089923756959145,-0.05764959926135107,-0.6665315986850804,-2.5944645038437297,-0.055781926772851036,2.5079270751211373,0.8763215298569864,-0.6090851748156966,-0.05753196718556838,-0.666603097082616,-2.5945565370258534,-0.05562143941554,2.507976027223799,0.8763108487046415,-0.0006150008284263414,-0.0006814044190224547,-0.0006173375194544645,-0.0011631709183390342,0.0003630206258498761,0.0004861436425640452,-3.2976959730767295e-05,0.0,0.0,0.0,0.0,0.0,0.0,0.0,-9.279911978210542e-05,0.00011763207578268514,-7.149839753561871e-05,-9.203318212369638e-05,0.00016048735731103575,4.8952102661647956e-05,-1.0681152344926836e-05,0.0006150008284263414,0.0006814044190224547,0.0006173375194544645,0.0011631709183390342,-0.0003630206258498761,-0.0004861436425640452,3.2976959730767295e-05,0.018151462078094482,18.130334854125977,-0.9696381092071533,-18.099092483520508,-0.6301780343055725,-2.2625765800476074,0.22830526530742645,0
4,0.015032291412353516,-0.018151462078094482,-18.130334854125977,0.9696381092071533,18.099092483520508,0.6301780343055725,2.2625765800476074,-0.22830526530742645,0.0,0.0,0.0,0.0,0.0,0.0,0.0,-0.06101147485322885,0.4919679820386775,0.10475489003453142,0.4064284512772095,0.2146034046375868,0.09456440391167088,-0.2329075252789025,-0.6089923756959145,-0.05764959926135107,-0.6665315986850804,-2.5944645038437297,-0.055781926772851036,2.5079270751211373,0.8763215298569864,-0.6090851748156966,-0.05753196718556838,-0.666603097082616,-2.5945565370258534,-0.05562143941554,2.507976027223799,0.8763108487046415,-0.0006150008284263414,-0.0006814044190224547,-0.0006173375194544645,-0.0011631709183390342,0.0003630206258498761,0.0004861436425640452,-3.2976959730767295e-05,0.0,0.0,0.0,0.0,0.0,0.0,0.0,-9.279911978210542e-05,0.00011763207578268514,-7.149839753561871e-05,-9.203318212369638e-05,0.00016048735731103575,4.8952102661647956e-05,-1.0681152344926836e-05,0.0006150008284263414,0.0006814044190224547,0.0006173375194544645,0.0011631709183390342,-0.0003630206258498761,-0.0004861436425640452,3.2976959730767295e-05,0.018151462078094482,18.130334854125977,-0.9696381092071533,-18.099092483520508,-0.6301780343055725,-2.2625765800476074,0.22830526530742645,0
5,0.020498037338256836,-0.06972616910934448,-18.106531143188477,0.8942596912384033,17.999910354614258,0.6356711983680725,2.2424349784851074,-0.25485557317733765,0.0,0.0,0.0,0.0,0.0,0.0,0.0,-0.06769780445840042,0.48814885769691546,0.0991329377454278,0.4135054135681488,0.21508419363711567,0.09469875329626341,-0.2327342240571294,-0.608988756418228,-0.057653406938740284,-0.6665263089715388,-2.594454660382523,-0.05577849792650685,2.5079293130768665,0.8763244798911942,-0.6090851748156966,-0.05753196718556838,-0.666603097082616,-2.5945565370258534,-0.05562143941554,2.507976027223799,0.8763108487046415,3.6065229852501596e-05,-0.00021524536765087793,0.0010697630440069732,0.0009226599818615578,0.0002824395682612282,0.0009733267402567945,0.0012356919824868973,0.0,0.0,0.0,0.0,0.0,0.0,0.0,-9.641839746854508e-05,0.00012143975317190081,-7.678811107725281e-05,-0.00010187664333027868,0.0001570585109668468,4.671414693246945e-05,-1.3631186552731656e-05,-3.6065229852501596e-05,0.00021524536765087793,-0.0010697630440069732,-0.0009226599818615578,-0.0002824395682612282,-0.0009733267402567945,-0.0012356919824868973,0.06972616910934448,18.106531143188477,-0.8942596912384033,-17.999910354614258,-0.6356711983680725,-2.2424349784851074,0.25485557317733765,0
6,0.025000333786010742,-0.06972616910934448,-18.106531143188477,0.8942596912384033,17.999910354614258,0.6356711983680725,2.2424349784851074,-0.25485557317733765,0.0,0.0,0.0,0.0,0.0,0.0,0.0,-0.06769780445840042,0.48814885769691546,0.0991329377454278,0.4135054135681488,0.21508419363711567,0.09469875329626341,-0.2327342240571294,-0.608988756418228,-0.057653406938740284,-0.6665263089715388,-2.594454660382523,-0.05577849792650685,2.5079293130768665,0.8763244798911942,-0.6090851748156966,-0.05753196718556838,-0.666603097082616,-2.5945565370258534,-0.05562143941554,2.507976027223799,0.8763108487046415,3.6065229852501596e-05,-0.00021524536765087793,0.0010697630440069732,0.0009226599818615578,0.0002824395682612282,0.0009733267402567945,0.0012356919824868973,0.0,0.0,0.0,0.0,0.0,0.0,0.0,-9.641839746854508e-05,0.00012143975317190081,-7.678811107725281e-05,-0.00010187664333027868,0.0001570585109668468,4.671414693246945e-05,-1.3631186552731656e-05,-3.6065229852501596e-05,0.00021524536765087793,-0.0010697630440069732,-0.0009226599818615578,-0.0002824395682612282,-0.0009733267402567945,-0.0012356919824868973,0.06972616910934448,18.106531143188477,-0.8942596912384033,-17.999910354614258,-0.6356711983680725,-2.2424349784851074,0.25485557317733765,0
7,0.02999711036682129,-0.12130087614059448,-18.106531143188477,0.8704559803009033,18.047517776489258,0.6356711983680725,2.2946200370788574,-0.26858848333358765,0.0,0.0,0.0,0.0,0.0,0.0,0.0,-0.07316428788259768,0.49297352381589393,0.09450750918028247,0.41968781421900603,0.21554149311393125,0.09255251694903775,-0.23244548958836922,-0.6089851371405416,-0.057653407924002385,-0.6665246385356836,-2.5944602225211426,-0.05578131207876389,2.5079235147370227,0.8763260057701004,-0.6090851748156966,-0.05753196718556838,-0.666603097082616,-2.5945565370258534,-0.05562143941554,2.507976027223799,0.8763108487046415,0.0007551150177468268,-0.00019332275759574273,0.0005001543975965394,-6.280901478070783e-05,0.0001061017083085601,-0.0006154464359638231,0.0013869229555955164,0.0,0.0,0.0,0.0,0.0,0.0,0.0,-0.00010003767515498474,0.00012144073843400188,-7.845854693244725e-05,-9.631450471081493e-05,0.00015987266322389088,5.25124867762905e-05,-1.5157065458959451e-05,-0.0007551150177468268,0.00019332275759574273,-0.0005001543975965394,6.280901478070783e-05,-0.0001061017083085601,0.0006154464359638231,-0.0013869229555955164,0.12130087614059448,18.106531143188477,-0.8704559803009033,-18.047517776489258,-0.6356711983680725,-2.2946200370788574,0.26858848333358765,0
8,0.03499650955200195,-0.12130087614059448,-18.106531143188477,0.8704559803009033,18.047517776489258,0.6356711983680725,2.2946200370788574,-0.26858848333358765,0.0,0.0,0.0,0.0,0.0,0.0,0.0,-0.07316428788259768,0.49297352381589393,0.09450750918028247,0.41968781421900603,0.21554149311393125,0.09255251694903775,-0.23244548958836922,-0.6089851371405416,-0.057653407924002385,-0.6665246385356836,-2.5944602225211426,-0.05578131207876389,2.5079235147370227,0.8763260057701004,-0.6090851748156966,-0.05753196718556838,-0.666603097082616,-2.5945565370258534,-0.05562143941554,2.507976027223799,0.8763108487046415,0.0007551150177468268,-0.00019332275759574273,0.0005001543975965394,-6.280901478070783e-05,0.0001061017083085601,-0.0006154464359638231,0.0013869229555955164,0.0,0.0,0.0,0.0,0.0,0.0,0.0,-0.00010003767515498474,0.00012144073843400188,-7.845854693244725e-05,-9.631450471081493e-05,0.00015987266322389088,5.25124867762905e-05,-1.5157065458959451e-05,-0.0007551150177468268,0.00019332275759574273,-0.0005001543975965394,6.280901478070783e-05,-0.0001061017083085601,0.0006154464359638231,-0.0013869229555955164,0.12130087614059448,18.106531143188477,-0.8704559803009033,-18.047517776489258,-0.6356711983680725,-2.2946200370788574,0.26858848333358765,0
9,0.03999733924865723,-0.09352988004684448,-18.205713272094727,0.8704559803009033,18.047517776489258,0.6356711983680725,2.2946200370788574,-0.26858848333358765,0.0,0.0,0.0,0.0,0.0,0.0,0.0,-0.06902448968560311,0.5031591158698492,0.09655300034624073,0.42005406300623693,0.21488354432609566,0.0923395644237548,-0.2330167077422466,-0.608987085655324,-0.05764431939208717,-0.6665246385356836,-2.594458879453254,-0.05577826707394181,2.5079235147370227,0.8763260057701004,-0.6090851748156966,-0.05753196718556838,-0.666603097082616,-2.5945565370258534,-0.05562143941554,2.507976027223799,0.8763108487046415,2.0124071429124618e-05,0.001617134527090884,0.00025016763171366844,0.00025339375208846863,0.0001629022025091408,-0.000806045550660373,0.002488716688294962,0.0,0.0,0.0,0.0,0.0,0.0,0.0,-9.808916037257198e-05,0.0001123522065187843,-7.845854693244725e-05,-9.765757259927454e-05,0.0001568276584018105,5.25124867762905e-05,-1.5157065458959451e-05,-2.0124071429124618e-05,-0.001617134527090884,-0.00025016763171366844,-0.00025339375208846863,-0.0001629022025091408,0.000806045550660373,-0.002488716688294962,0.09352988004684448,18.205713272094727,-0.8704559803009033,-18.047517776489258,-0.6356711983680725,-2.2946200370788574,0.26858848333358765,0
10,0.04500007629394531,-0.09352988004684448,-18.205713272094727,0.8704559803009033,18.047517776489258,0.6356711983680725,2.2946200370788574,-0.26858848333358765,0.0,0.0,0.0,0.0,0.0,0.0,0.0,-0.06902448968560311,0.5031591158698492,0.09655300034624073,0.42005406300623693,0.21488354432609566,0.0923395644237548,-0.2330167077422466,-0.608987085655324,-0.05764431939208717,-0.6665246385356836,-2.594458879453254,-0.05577826707394181,2.5079235147370227,0.8763260057701004,-0.6090851748156966,-0.05753196718556838,-0.666603097082616,-2.5945565370258534,-0.05562143941554,2.507976027223799,0.8763108487046415,2.0124071429124618e-05,0.001617134527090884,0.00025016763171366844,0.00025339375208846863,0.0001629022025091408,-0.000806045550660373,0.002488716688294962,0.0,0.0,0.0,0.0,0.0,0.0,0.0,-9.808916037257198e-05,0.0001123522065187843,-7.845854693244725e-05,-9.765757259927454e-05,0.0001568276584018105,5.25124867762905e-05,-1.5157065458959451e-05,-2.0124071429124618e-05,-0.001617134527090884,-0.00025016763171366844,-0.00025339375208846863,-0.0001629022025091408,0.000806045550660373,-0.002488716688294962,0.09352988004684448,18.205713272094727,-0.8704559803009033,-18.047517776489258,-0.6356711983680725,-2.2946200370788574,0.26858848333358765,0
11,0.04999685287475586,-0.06972616910934448,-18.154138565063477,0.9418671131134033,18.047517776489258,0.6301780343055725,2.2753939628601074,-0.23471395671367645,0.0,0.0,0.0,0.0,0.0,0.0,0.0,-0.06329733955719692,0.502363588861974,0.09850607844320938,0.41952940389314425,0.2148244481667712,0.09306548540162113,-0.23397892926837324,-0.6089887563818874,-0.05764935660624404,-0.6665296498432493,-2.594461184954019,-0.05578211243729308,2.5079256509674916,0.8763222419338094,-0.6090851748156966,-0.05753196718556838,-0.666603097082616,-2.5945565370258534,-0.05562143941554,2.507976027223799,0.8763108487046415,-3.9833967556471815e-05,-0.0011884719708127863,-0.000387527134061896,6.65702608085276e-05,0.00044347834057284334,5.043659788361099e-06,-0.0033572934467898195,0.0,0.0,0.0,0.0,0.0,0.0,0.0,-9.641843380914228e-05,0.0001173894206756565,-7.34472393667529e-05,-9.535207183430927e-05,0.00016067302175307857,5.037625630732734e-05,-1.139322916787755e-05,3.9833967556471815e-05,0.0011884719708127863,0.000387527134061896,-6.65702608085276e-05,-0.00044347834057284334,-5.043659788361099e-06,0.0033572934467898195,0.06972616910934448,18.154138565063477,-0.9418671131134033,-18.047517776489258,-0.6301780343055725,-2.2753939628601074,0.23471395671367645,0
12,0.055010080337524414,-0.06972616910934448,-18.154138565063477,0.9418671131134033,18.047517776489258,0.6301780343055725,2.2753939628601074,-0.23471395671367645,0.0,0.0,0.0,0.0,0.0,0.0,0.0,-0.06329733955719692,0.502363588861974,0.09850607844320938,0.41952940389314425,0.2148244481667712,0.09306548540162113,-0.23397892926837324,-0.6089887563818874,-0.05764935660624404,-0.6665296498432493,-2.594461184954019,-0.05578211243729308,2.5079256509674916,0.8763222419338094,-0.6090851748156966,-0.05753196718556838,-0.666603097082616,-2.5945565370258534,-0.05562143941554,2.507976027223799,0.8763108487046415,-3.9833967556471815e-05,-0.0011884719708127863,-0.000387527134061896,6.65702608085276e-05,0.00044347834057284334,5.043659788361099e-06,-0.0033572934467898195,0.0,0.0,0.0,0.0,0.0,0.0,0.0,-9.641843380914228e-05,0.0001173894206756565,-7.34472393667529e-05,-9.535207183430927e-05,0.00016067302175307857,5.037625630732734e-05,-1.139322916787755e-05,3.9833967556471815e-05,0.0011884719708127863,0.000387527134061896,-6.65702608085276e-05,-0.00044347834057284334,-5.043659788361099e-06,0.0033572934467898195,0.06972616910934448,18.154138565063477,-0.9418671131134033,-18.047517776489258,-0.6301780343055725,-2.2753939628601074,0.23471395671367645,0
13,0.05999922752380371,-0.018151462078094482,-18.205713272094727,0.9180634021759033,18.023714065551758,0.6356711983680725,2.2818026542663574,-0.19351522624492645,0.0,0.0,0.0,0.0,0.0,0.0,0.0,-0.07414775604078545,0.49542271766639334,0.08935020137025797,0.4215457328194847,0.21566966679859392,0.09397186877954063,-0.23409399500180428,-0.6089923756959144,-0.05764644668927019,-0.6665279794073941,-2.5944587178026035,-0.05577846287882462,2.507924938890669,0.8763176642970907,-0.6090851748156966,-0.05753196718556838,-0.666603097082616,-2.5945565370258534,-0.05562143941554,2.507976027223799,0.8763108487046415,-0.0010001599960206054,1.3376608757475437e-05,-6.70931466494275e-05,0.0010634073558095614,0.0002124979334023171,-2.66686389288351e-05,-0.001675628583668706,0.0,0.0,0.0,0.0,0.0,0.0,0.0,-9.279911978221644e-05,0.00011447950370180315,-7.511767522194734e-05,-9.781922324991754e-05,0.0001570234632846182,5.108833313016703e-05,-6.815592449194163e-06,0.0010001599960206054,-1.3376608757475437e-05,6.70931466494275e-05,-0.0010634073558095614,-0.0002124979334023171,2.66686389288351e-05,0.001675628583668706,0.018151462078094482,18.205713272094727,-0.9180634021759033,-18.023714065551758,-0.6356711983680725,-2.2818026542663574,0.19351522624492645,0
14,0.0650017261505127,-0.018151462078094482,-18.205713272094727,0.9180634021759033,18.023714065551758,0.6356711983680725,2.2818026542663574,-0.19351522624492645,0.0,0.0,0.0,0.0,0.0,0.0,0.0,-0.07414775604078545,0.49542271766639334,0.08935020137025797,0.4215457328194847,0.21566966679859392,0.09397186877954063,-0.23409399500180428,-0.6089923756959144,-0.05764644668927019,-0.6665279794073941,-2.5944587178026035,-0.05577846287882462,2.507924938890669,0.8763176642970907,-0.6090851748156966,-0.05753196718556838,-0.666603097082616,-2.5945565370258534,-0.05562143941554,2.507976027223799,0.8763108487046415,-0.0010001599960206054,1.3376608757475437e-05,-6.70931466494275e-05,0.0010634073558095614,0.0002124979334023171,-2.66686389288351e-05,-0.001675628583668706,0.0,0.0,0.0,0.0,0.0,0.0,0.0,-9.279911978221644e-05,0.00011447950370180315,-7.511767522194734e-05,-9.781922324991754e-05,0.0001570234632846182,5.108833313016703e-05,-6.815592449194163e-06,0.0010001599960206054,-1.3376608757475437e-05,6.70931466494275e-05,-0.0010634073558095614,-0.0002124979334023171,2.66686389288351e-05,0.001675628583668706,0.018151462078094482,18.205713272094727,-0.9180634021759033,-18.023714065551758,-0.6356711983680725,-2.2818026542663574,0.19351522624492645,0
15,0.06999778747558594,-0.06972616910934448,-18.177942276000977,0.9180634021759033,18.071321487426758,0.6301780343055725,2.2689852714538574,-0.22098104655742645,0.0,0.0,0.0,0.0,0.0,0.0,0.0,-0.07095709397166954,0.48978345503918674,0.09233862652968328,0.4169152268101595,0.2158389389298357,0.09346575167176374,-0.23499730923767734,-0.6089886738929129,-0.05764815039751581,-0.6665279794073941,-2.594460623148977,-0.05577892624919328,2.5079263630443145,0.8763207160549031,-0.6090851748156966,-0.05753196718556838,-0.666603097082616,-2.5945565370258534,-0.05562143941554,2.507976027223799,0.8763108487046415,8.982168386700039e-05,-0.000730837256195094,0.00028760217537592995,-0.0006884113357386817,0.0003273278286986092,0.00023080574176728222,-0.0008499299246400394,0.0,0.0,0.0,0.0,0.0,0.0,0.0,-9.650092278368216e-05,0.00011618321194742376,-7.511767522194734e-05,-9.591387687635233e-05,0.0001574868336532767,4.966417948448765e-05,-9.867350261649754e-06,-8.982168386700039e-05,0.000730837256195094,-0.00028760217537592995,0.0006884113357386817,-0.0003273278286986092,-0.00023080574176728222,0.0008499299246400394,0.06972616910934448,18.177942276000977,-0.9180634021759033,-18.071321487426758,-0.6301780343055725,-2.2689852714538574,0.22098104655742645,0
16,0.07500386238098145,-0.06972616910934448,-18.177942276000977,0.9180634021759033,18.071321487426758,0.6301780343055725,2.2689852714538574,-0.22098104655742645,0.0,0.0,0.0,0.0,0.0,0.0,0.0,-0.07095709397166954,0.48978345503918674,0.09233862652968328,0.4169152268101595,0.2158389389298357,0.09346575167176374,-0.23499730923767734,-0.6089886738929129,-0.05764815039751581,-0.6665279794073941,-2.594460623148977,-0.05577892624919328,2.5079263630443145,0.8763207160549031,-0.6090851748156966,-0.05753196718556838,-0.666603097082616,-2.5945565370258534,-0.05562143941554,2.507976027223799,0.8763108487046415,8.982168386700039e-05,-0.000730837256195094,0.00028760217537592995,-0.0006884113357386817,0.0003273278286986092,0.00023080574176728222,-0.0008499299246400394,0.0,0.0,0.0,0.0,0.0,0.0,0.0,-9.650092278368216e-05,0.00011618321194742376,-7.511767522194734e-05,-9.591387687635233e-05,0.0001574868336532767,4.966417948448765e-05,-9.867350261649754e-06,-8.982168386700039e-05,0.000730837256195094,-0.00028760217537592995,0.0006884113357386817,-0.0003273278286986092,-0.00023080574176728222,0.0008499299246400394,0.06972616910934448,18.177942276000977,-0.9180634021759033,-18.071321487426758,-0.6301780343055725,-2.2689852714538574,0.22098104655742645,0
17,0.08079791069030762,-0.06972616910934448,-18.177942276000977,0.8942596912384033,18.023714065551758,0.6420798897743225,2.2689852714538574,-0.22830526530742645,0.0,0.0,0.0,0.0,0.0,0.0,0.0,-0.07083554186965046,0.4855096621739372,0.0951912391309062,0.41919179287410613,0.21591138331049298,0.09265013160123385,-0.23545610776636547,-0.6089866106505503,-0.05764768701003358,-0.6665263089715388,-2.594457072328056,-0.055778828669186986,2.5079263630443145,0.8763215298569864,-0.6090851748156966,-0.05753196718556838,-0.666603097082616,-2.5945565370258534,-0.05562143941554,2.507976027223799,0.8763108487046415,7.743998182991423e-07,-8.215615597979091e-05,0.0005757713013521562,0.0005814609764169948,4.919530664885519e-05,-6.67236364989022e-05,-0.00021440756242871833,0.0,0.0,0.0,0.0,0.0,0.0,0.0,-9.856416514630872e-05,0.00011571982446519774,-7.678811107725281e-05,-9.946469779764655e-05,0.0001573892536469862,4.966417948448765e-05,-1.0681152344926836e-05,-7.743998182991423e-07,8.215615597979091e-05,-0.0005757713013521562,-0.0005814609764169948,-4.919530664885519e-05,6.67236364989022e-05,0.00021440756242871833,0.06972616910934448,18.177942276000977,-0.8942596912384033,-18.023714065551758,-0.6420798897743225,-2.2689852714538574,0.22830526530742645,0
18,0.08500432968139648,-0.06972616910934448,-18.177942276000977,0.8942596912384033,18.023714065551758,0.6420798897743225,2.2689852714538574,-0.22830526530742645,0.0,0.0,0.0,0.0,0.0,0.0,0.0,-0.07083554186965046,0.4855096621739372,0.0951912391309062,0.41919179287410613,0.21591138331049298,0.09265013160123385,-0.23545610776636547,-0.6089866106505503,-0.05764768701003358,-0.6665263089715388,-2.594457072328056,-0.055778828669186986,2.5079263630443145,0.8763215298569864,-0.6090851748156966,-0.05753196718556838,-0.666603097082616,-2.5945565370258534,-0.05562143941554,2.507976027223799,0.8763108487046415,7.743998182991423e-07,-8.215615597979091e-05,0.0005757713013521562,0.0005814609764169948,4.919530664885519e-05,-6.67236364989022e-05,-0.00021440756242871833,0.0,0.0,0.0,0.0,0.0,0.0,0.0,-9.856416514630872e-05,0.00011571982446519774,-7.678811107725281e-05,-9.946469779764655e-05,0.0001573892536469862,4.966417948448765e-05,-1.0681152344926836e-05,-7.743998182991423e-07,8.215615597979091e-05,-0.0005757713013521562,-0.0005814609764169948,-4.919530664885519e-05,6.67236364989022e-05,0.00021440756242871833,0.06972616910934448,18.177942276000977,-0.8942596912384033,-18.023714065551758,-0.6420798897743225,-2.2689852714538574,0.22830526530742645,0
19,0.09000205993652344,-0.04592245817184448,-18.106531143188477,0.9180634021759033,18.047517776489258,0.6356711983680725,2.2818026542663574,-0.22098104655742645,0.0,0.0,0.0,0.0,0.0,0.0,0.0,-0.07402659972418862,0.48227206501580033,0.09071437793670714,0.42064824647304067,0.21616789424876248,0.09157095850107135,-0.23511468920125883,-0.6089904268419705,-0.05765339591723534,-0.6665279794073941,-2.594458990350785,-0.055778121127702016,2.507924938890669,0.8763207160549031,-0.6090851748156966,-0.05753196718556838,-0.666603097082616,-2.5945565370258534,-0.05562143941554,2.507976027223799,0.8763108487046415,-0.0009597417702690776,-0.0016594854341897246,-0.0006766008929727311,-2.5847917799495546e-06,0.00012316828191532656,-0.00013803592133374023,-0.00033932285434226786,0.0,0.0,0.0,0.0,0.0,0.0,0.0,-9.474797372610588e-05,0.000121428731666956,-7.511767522194734e-05,-9.754667506856052e-05,0.00015668171216201565,5.108833313016703e-05,-9.867350261649754e-06,0.0009597417702690776,0.0016594854341897246,0.0006766008929727311,2.5847917799495546e-06,-0.00012316828191532656,0.00013803592133374023,0.00033932285434226786,0.04592245817184448,18.106531143188477,-0.9180634021759033,-18.047517776489258,-0.6356711983680725,-2.2818026542663574,0.22098104655742645,0
20,0.09500265121459961,-0.04592245817184448,-18.106531143188477,0.9180634021759033,18.047517776489258,0.6356711983680725,2.2818026542663574,-0.22098104655742645,0.0,0.0,0.0,0.0,0.0,0.0,0.0,-0.07402659972418862,0.48227206501580033,0.09071437793670714,0.42064824647304067,0.21616789424876248,0.09157095850107135,-0.23511468920125883,-0.6089904268419705,-0.05765339591723534,-0.6665279794073941,-2.594458990350785,-0.055778121127702016,2.507924938890669,0.8763207160549031,-0.6090851748156966,-0.05753196718556838,-0.666603097082616,-2.5945565370258534,-0.05562143941554,2.507976027223799,0.8763108487046415,-0.0009597417702690776,-0.0016594854341897246,-0.0006766008929727311,-2.5847917799495546e-06,0.00012316828191532656,-0.00013803592133374023,-0.00033932285434226786,0.0,0.0,0.0,0.0,0.0,0.0,0.0,-9.474797372610588e-05,0.000121428731666956,-7.511767522194734e-05,-9.754667506856052e-05,0.00015668171216201565,5.108833313016703e-05,-9.867350261649754e-06,0.0009597417702690776,0.0016594854341897246,0.0006766008929727311,2.5847917799495546e-06,-0.00012316828191532656,0.00013803592133374023,0.00033932285434226786,0.04592245817184448,18.106531143188477,-0.9180634021759033,-18.047517776489258,-0.6356711983680725,-2.2818026542663574,0.22098104655742645,0
21,0.10000324249267578,-0.04592245817184448,-18.106531143188477,0.9180634021759033,18.047517776489258,0.6356711983680725,2.2818026542663574,-0.22098104655742645,0.0,0.0,0.0,0.0,0.0,0.0,0.0,-0.07402659972418862,0.48227206501580033,0.09071437793670714,0.42064824647304067,0.21616789424876248,0.09157095850107135,-0.23511468920125883,-0.6089904268419705,-0.05765339591723534,-0.6665279794073941,-2.594458990350785,-0.055778121127702016,2.507924938890669,0.8763207160549031,-0.6090851748156966,-0.05753196718556838,-0.666603097082616,-2.5945565370258534,-0.05562143941554,2.507976027223799,0.8763108487046415,-0.0009597417702690776,-0.0016594854341897246,-0.0006766008929727311,-2.5847917799495546e-06,0.00012316828191532656,-0.00013803592133374023,-0.00033932285434226786,0.0,0.0,0.0,0.0,0.0,0.0,0.0,-9.474797372610588e-05,0.000121428731666956,-7.511767522194734e-05,-9.754667506856052e-05,0.00015668171216201565,5.108833313016703e-05,-9.867350261649754e-06,0.0009597417702690776,0.0016594854341897246,0.0006766008929727311,2.5847917799495546e-06,-0.00012316828191532656,0.00013803592133374023,0.00033932285434226786,0.04592245817184448,18.106531143188477,-0.9180634021759033,-18.047517776489258,-0.6356711983680725,-2.2818026542663574,0.22098104655742645,0
22,0.10500001907348633,-0.04592245817184448,-18.106531143188477,0.9180634021759033,18.047517776489258,0.6356711983680725,2.2818026542663574,-0.22098104655742645,0.0,0.0,0.0,0.0,0.0,0.0,0.0,-0.07402659972418862,0.48227206501580033,0.09071437793670714,0.42064824647304067,0.21616789424876248,0.09157095850107135,-0.23511468920125883,-0.6089904268419705,-0.05765339591723534,-0.6665279794073941,-2.594458990350785,-0.055778121127702016,2.507924938890669,0.8763207160549031,-0.6090851748156966,-0.05753196718556838,-0.666603097082616,-2.5945565370258534,-0.05562143941554,2.507976027223799,0.8763108487046415,-0.0009597417702690776,-0.0016594854341897246,-0.0006766008929727311,-2.5847917799495546e-06,0.00012316828191532656,-0.00013803592133374023,-0.00033932285434226786,0.0,0.0,0.0,0.0,0.0,0.0,0.0,-9.474797372610588e-05,0.000121428731666956,-7.511767522194734e-05,-9.754667506856052e-05,0.00015668171216201565,5.108833313016703e-05,-9.867350261649754e-06,0.0009597417702690776,0.0016594854341897246,0.0006766008929727311,2.5847917799495546e-06,-0.00012316828191532656,0.00013803592133374023,0.00033932285434226786,0.04592245817184448,18.106531143188477,-0.9180634021759033,-18.047517776489258,-0.6356711983680725,-2.2818026542663574,0.22098104655742645,0
23,0.10999560356140137,-0.04592245817184448,-18.130334854125977,0.8942596912384033,18.047517776489258,0.6356711983680725,2.2753939628601074,-0.20724813640117645,0.0,0.0,0.0,0.0,0.0,0.0,0.0,-0.0717048215736918,0.49007628324792846,0.09057250064527193,0.41781991559519804,0.2155493626008509,0.09193626879250776,-0.23465555145826342,-0.608989711598346,-0.05765173651488759,-0.6665263089715388,-2.594458980026592,-0.055778160449374115,2.5079256509674916,0.8763191901759969,-0.6090851748156966,-0.05753196718556838,-0.666603097082616,-2.5945565370258534,-0.05562143941554,2.507976027223799,0.8763108487046415,-0.0007441478777389044,-0.0007324636326499254,-0.0002005832917413088,-0.00014281378388547407,0.00016256890983199504,0.00022005815849198313,0.002653974812348617,0.0,0.0,0.0,0.0,0.0,0.0,0.0,-9.54632173505443e-05,0.00011976932931920953,-7.678811107725281e-05,-9.755699926161654e-05,0.00015672103383411462,5.037625630732734e-05,-8.341471355421959e-06,0.0007441478777389044,0.0007324636326499254,0.0002005832917413088,0.00014281378388547407,-0.00016256890983199504,-0.00022005815849198313,-0.002653974812348617,0.04592245817184448,18.130334854125977,-0.8942596912384033,-18.047517776489258,-0.6356711983680725,-2.2753939628601074,0.20724813640117645,0
24,0.1150064468383789,-0.04592245817184448,-18.130334854125977,0.8942596912384033,18.047517776489258,0.6356711983680725,2.2753939628601074,-0.20724813640117645,0.0,0.0,0.0,0.0,0.0,0.0,0.0,-0.0717048215736918,0.49007628324792846,0.09057250064527193,0.41781991559519804,0.2155493626008509,0.09193626879250776,-0.23465555145826342,-0.608989711598346,-0.05765173651488759,-0.6665263089715388,-2.594458980026592,-0.055778160449374115,2.5079256509674916,0.8763191901759969,-0.6090851748156966,-0.05753196718556838,-0.666603097082616,-2.5945565370258534,-0.05562143941554,2.507976027223799,0.8763108487046415,-0.0007441478777389044,-0.0007324636326499254,-0.0002005832917413088,-0.00014281378388547407,0.00016256890983199504,0.00022005815849198313,0.002653974812348617,0.0,0.0,0.0,0.0,0.0,0.0,0.0,-9.54632173505443e-05,0.00011976932931920953,-7.678811107725281e-05,-9.755699926161654e-05,0.00015672103383411462,5.037625630732734e-05,-8.341471355421959e-06,0.0007441478777389044,0.0007324636326499254,0.0002005832917413088,0.00014281378388547407,-0.00016256890983199504,-0.00022005815849198313,-0.002653974812348617,0.04592245817184448,18.130334854125977,-0.8942596912384033,-18.047517776489258,-0.6356711983680725,-2.2753939628601074,0.20724813640117645,0
25,0.11999773979187012,-0.09352988004684448,-18.177942276000977,0.9180634021759033,18.071321487426758,0.6301780343055725,2.2753939628601074,-0.25485557317733765,0.0,0.0,0.0,0.0,0.0,0.0,0.0,-0.06686115415949033,0.4941876510984967,0.09299979594369241,0.41586590275482754,0.21520986292984273,0.09331837401284579,-0.23519534082895996,-0.6089870859783352,-0.057645951944786035,-0.6665279794073941,-2.5944628005592962,-0.055778558235817836,2.5079256509674916,0.8763244798911942,-0.6090851748156966,-0.05753196718556838,-0.666603097082616,-2.5945565370258534,-0.05562143941554,2.507976027223799,0.8763108487046415,0.0005711417747058936,0.000489009365580561,8.443391808461255e-05,-0.0007959207051435727,0.0002598485256050442,-0.009176643007988443,0.0007313414844522849,0.0,0.0,0.0,0.0,0.0,0.0,0.0,-9.808883736139862e-05,0.00011398475921765155,-7.511767522194734e-05,-9.37364665571927e-05,0.00015711882027783647,5.037625630732734e-05,-1.3631186552731656e-05,-0.0005711417747058936,-0.000489009365580561,-8.443391808461255e-05,0.0007959207051435727,-0.0002598485256050442,0.009176643007988443,-0.0007313414844522849,0.09352988004684448,18.177942276000977,-0.9180634021759033,-18.071321487426758,-0.6301780343055725,-2.2753939628601074,0.25485557317733765,0
26,0.12499570846557617,-0.09352988004684448,-18.177942276000977,0.9180634021759033,18.071321487426758,0.6301780343055725,2.2753939628601074,-0.25485557317733765,0.0,0.0,0.0,0.0,0.0,0.0,0.0,-0.06686115415949033,0.4941876510984967,0.09299979594369241,0.41586590275482754,0.21520986292984273,0.09331837401284579,-0.23519534082895996,-0.6089870859783352,-0.057645951944786035,-0.6665279794073941,-2.5944628005592962,-0.055778558235817836,2.5079256509674916,0.8763244798911942,-0.6090851748156966,-0.05753196718556838,-0.666603097082616,-2.5945565370258534,-0.05562143941554,2.507976027223799,0.8763108487046415,0.0005711417747058936,0.000489009365580561,8.443391808461255e-05,-0.0007959207051435727,0.0002598485256050442,-0.009176643007988443,0.0007313414844522849,0.0,0.0,0.0,0.0,0.0,0.0,0.0,-9.808883736139862e-05,0.00011398475921765155,-7.511767522194734e-05,-9.37364665571927e-05,0.00015711882027783647,5.037625630732734e-05,-1.3631186552731656e-05,-0.0005711417747058936,-0.000489009365580561,-8.443391808461255e-05,0.0007959207051435727,-0.0002598485256050442,0.009176643007988443,-0.0007313414844522849,0.09352988004684448,18.177942276000977,-0.9180634021759033,-18.071321487426758,-0.6301780343055725,-2.2753939628601074,0.25485557317733765,0
27,0.12999844551086426,-0.04592245817184448,-18.130334854125977,0.9418671131134033,18.023714065551758,0.6420798897743225,2.2753939628601074,-0.23471395671367645,0.0,0.0,0.0,0.0,0.0,0.0,0.0,-0.06940982348393343,0.49165104560462025,0.09065078157330309,0.42264193196560895,0.21475077827883232,0.0955597957653853,-0.23490880640862627,-0.6089904268177446,-0.05765147467503355,-0.6665296498432493,-2.5944573067010985,-0.05578241678087471,2.5079256509674916,0.8763222419338094,-0.6090851748156966,-0.05753196718556838,-0.666603097082616,-2.5945565370258534,-0.05562143941554,2.507976027223799,0.8763108487046415,-0.0002628652490265477,-0.0006812312250516532,-0.0005184094917986612,0.0004310691373723676,-0.00020784551595055023,-0.00036306444273173725,-0.0005130616821400456,0.0,0.0,0.0,0.0,0.0,0.0,0.0,-9.474799795194944e-05,0.00011950748946516765,-7.34472393667529e-05,-9.923032475489535e-05,0.00016097736533471352,5.037625630732734e-05,-1.139322916787755e-05,0.0002628652490265477,0.0006812312250516532,0.0005184094917986612,-0.0004310691373723676,0.00020784551595055023,0.00036306444273173725,0.0005130616821400456,0.04592245817184448,18.130334854125977,-0.9418671131134033,-18.023714065551758,-0.6420798897743225,-2.2753939628601074,0.23471395671367645,0
28,0.13499951362609863,-0.04592245817184448,-18.130334854125977,0.9418671131134033,18.023714065551758,0.6420798897743225,2.2753939628601074,-0.23471395671367645,0.0,0.0,0.0,0.0,0.0,0.0,0.0,-0.06940982348393343,0.49165104560462025,0.09065078157330309,0.42264193196560895,0.21475077827883232,0.0955597957653853,-0.23490880640862627,-0.6089904268177446,-0.05765147467503355,-0.6665296498432493,-2.5944573067010985,-0.05578241678087471,2.5079256509674916,0.8763222419338094,-0.6090851748156966,-0.05753196718556838,-0.666603097082616,-2.5945565370258534,-0.05562143941554,2.507976027223799,0.8763108487046415,-0.0002628652490265477,-0.0006812312250516532,-0.0005184094917986612,0.0004310691373723676,-0.00020784551595055023,-0.00036306444273173725,-0.0005130616821400456,0.0,0.0,0.0,0.0,0.0,0.0,0.0,-9.474799795194944e-05,0.00011950748946516765,-7.34472393667529e-05,-9.923032475489535e-05,0.00016097736533471352,5.037625630732734e-05,-1.139322916787755e-05,0.0002628652490265477,0.0006812312250516532,0.0005184094917986612,-0.0004310691373723676,0.00020784551595055023,0.00036306444273173725,0.0005130616821400456,0.04592245817184448,18.130334854125977,-0.9418671131134033,-18.023714065551758,-0.6420798897743225,-2.2753939628601074,0.23471395671367645,0
29,0.13999581336975098,-0.06972616910934448,-18.154138565063477,0.9180634021759033,18.047517776489258,0.6301780343055725,2.2818026542663574,-0.25485557317733765,0.0,0.0,0.0,0.0,0.0,0.0,0.0,-0.06857101104546504,0.4971780164621076,0.09213540505568843,0.4144362327118061,0.21466017964483994,0.09270490083032544,-0.2351554888996891,-0.6089885149471933,-0.05764935758997255,-0.6665279794073941,-2.5944612154791256,-0.0557807410128627,2.507924938890669,0.8763244798911942,-0.6090851748156966,-0.05753196718556838,-0.666603097082616,-2.5945565370258534,-0.05562143941554,2.507976027223799,0.8763108487046415,0.00029049687383066305,-0.00010526524898566545,-0.00018353496769405304,-0.00035509737097292265,0.00032205936934173984,-6.766272983703799e-05,0.0012055582202510236,0.0,0.0,0.0,0.0,0.0,0.0,0.0,-9.665986850326824e-05,0.00011739040440416487,-7.511767522194734e-05,-9.532154672786675e-05,0.00015930159732269883,5.108833313016703e-05,-1.3631186552731656e-05,-0.00029049687383066305,0.00010526524898566545,0.00018353496769405304,0.00035509737097292265,-0.00032205936934173984,6.766272983703799e-05,-0.0012055582202510236,0.06972616910934448,18.154138565063477,-0.9180634021759033,-18.047517776489258,-0.6301780343055725,-2.2818026542663574,0.25485557317733765,0
30,0.1450052261352539,-0.06972616910934448,-18.154138565063477,0.9180634021759033,18.047517776489258,0.6301780343055725,2.2818026542663574,-0.25485557317733765,0.0,0.0,0.0,0.0,0.0,0.0,0.0,-0.06857101104546504,0.4971780164621076,0.09213540505568843,0.4144362327118061,0.21466017964483994,0.09270490083032544,-0.2351554888996891,-0.6089885149471933,-0.05764935758997255,-0.6665279794073941,-2.5944612154791256,-0.0557807410128627,2.507924938890669,0.8763244798911942,-0.6090851748156966,-0.05753196718556838,-0.666603097082616,-2.5945565370258534,-0.05562143941554,2.507976027223799,0.8763108487046415,0.00029049687383066305,-0.00010526524898566545,-0.00018353496769405304,-0.00035509737097292265,0.00032205936934173984,-6.766272983703799e-05,0.0012055582202510236,0.0,0.0,0.0,0.0,0.0,0.0,0.0,-9.665986850326824e-05,0.00011739040440416487,-7.511767522194734e-05,-9.532154672786675e-05,0.00015930159732269883,5.108833313016703e-05,-1.3631186552731656e-05,-0.00029049687383066305,0.00010526524898566545,0.00018353496769405304,0.00035509737097292265,-0.00032205936934173984,6.766272983703799e-05,-0.0012055582202510236,0.06972616910934448,18.154138565063477,-0.9180634021759033,-18.047517776489258,-0.6301780343055725,-2.2818026542663574,0.25485557317733765,0
31,0.15000200271606445,-0.04592245817184448,-18.205713272094727,0.8704559803009033,18.071321487426758,0.6237693428993225,2.2818026542663574,-0.22098104655742645,0.0,0.0,0.0,0.0,0.0,0.0,0.0,-0.06980337391433362,0.49676776935220907,0.0934130334033457,0.4115298201282699,0.2144796172044737,0.0927005740601193,-0.2348299351528155,-0.6089882810855084,-0.05764644777060609,-0.6665246385356836,-2.5944627628872796,-0.05578140016153088,2.507924938890669,0.8763207160549031,-0.6090851748156966,-0.05753196718556838,-0.666603097082616,-2.5945565370258534,-0.05562143941554,2.507976027223799,0.8763108487046415,-0.001121764932867938,0.0006263692859556706,0.001149258407907019,-0.0009966335066206682,0.0007369098705358134,-0.00013668862135716767,-0.0005242178495655365,0.0,0.0,0.0,0.0,0.0,0.0,0.0,-9.689373018817449e-05,0.00011448058503770592,-7.845854693244725e-05,-9.377413857381e-05,0.00015996074599088084,5.108833313016703e-05,-9.867350261649754e-06,0.001121764932867938,-0.0006263692859556706,-0.001149258407907019,0.0009966335066206682,-0.0007369098705358134,0.00013668862135716767,0.0005242178495655365,0.04592245817184448,18.205713272094727,-0.8704559803009033,-18.071321487426758,-0.6237693428993225,-2.2818026542663574,0.22098104655742645,0
32,0.1560993194580078,-0.04592245817184448,-18.205713272094727,0.8704559803009033,18.071321487426758,0.6237693428993225,2.2818026542663574,-0.22098104655742645,0.0,0.0,0.0,0.0,0.0,0.0,0.0,-0.06980337391433362,0.49676776935220907,0.0934130334033457,0.4115298201282699,0.2144796172044737,0.0927005740601193,-0.2348299351528155,-0.6089882810855084,-0.05764644777060609,-0.6665246385356836,-2.5944627628872796,-0.05578140016153088,2.507924938890669,0.8763207160549031,-0.6090851748156966,-0.05753196718556838,-0.666603097082616,-2.5945565370258534,-0.05562143941554,2.507976027223799,0.8763108487046415,-0.001121764932867938,0.0006263692859556706,0.001149258407907019,-0.0009966335066206682,0.0007369098705358134,-0.00013668862135716767,-0.0005242178495655365,0.0,0.0,0.0,0.0,0.0,0.0,0.0,-9.689373018817449e-05,0.00011448058503770592,-7.845854693244725e-05,-9.377413857381e-05,0.00015996074599088084,5.108833313016703e-05,-9.867350261649754e-06,0.001121764932867938,-0.0006263692859556706,-0.001149258407907019,0.0009966335066206682,-0.0007369098705358134,0.00013668862135716767,0.0005242178495655365,0.04592245817184448,18.205713272094727,-0.8704559803009033,-18.071321487426758,-0.6237693428993225,-2.2818026542663574,0.22098104655742645,0
33,0.16010451316833496,-0.09352988004684448,-18.177942276000977,0.9180634021759033,18.071321487426758,0.6475730538368225,2.2946200370788574,-0.20083944499492645,0.0,0.0,0.0,0.0,0.0,0.0,0.0,-0.06744845396545075,0.4932942235032818,0.096829669271262,0.41168354888154857,0.2138720009175752,0.09333862811595396,-0.23404451777285012,-0.6089870830268206,-0.05764839661644214,-0.6665279794073941,-2.5944628493728246,-0.05578263728946255,2.5079235147370227,0.876318478099174,-0.6090851748156966,-0.05753196718556838,-0.666603097082616,-2.5945565370258534,-0.05562143941554,2.507976027223799,0.8763108487046415,0.0005847113483808995,-0.0002555128452489678,-0.0003942161270910814,-0.0007972484606646557,-0.00031562069598410825,-0.0003870746363399755,-0.0014351633439094208,0.0,0.0,0.0,0.0,0.0,0.0,0.0,-9.809178887598691e-05,0.00011642943087375457,-7.511767522194734e-05,-9.368765302886217e-05,0.00016119787392254725,5.25124867762905e-05,-7.629394532471245e-06,-0.0005847113483808995,0.0002555128452489678,0.0003942161270910814,0.0007972484606646557,0.00031562069598410825,0.0003870746363399755,0.0014351633439094208,0.09352988004684448,18.177942276000977,-0.9180634021759033,-18.071321487426758,-0.6475730538368225,-2.2946200370788574,0.20083944499492645,0
34,0.1650071144104004,-0.09352988004684448,-18.177942276000977,0.9180634021759033,18.071321487426758,0.6475730538368225,2.2946200370788574,-0.20083944499492645,0.0,0.0,0.0,0.0,0.0,0.0,0.0,-0.06744845396545075,0.4932942235032818,0.096829669271262,0.41168354888154857,0.2138720009175752,0.09333862811595396,-0.23404451777285012,-0.6089870830268206,-0.05764839661644214,-0.6665279794073941,-2.5944628493728246,-0.05578263728946255,2.5079235147370227,0.876318478099174,-0.6090851748156966,-0.05753196718556838,-0.666603097082616,-2.5945565370258534,-0.05562143941554,2.507976027223799,0.8763108487046415,0.0005847113483808995,-0.0002555128452489678,-0.0003942161270910814,-0.0007972484606646557,-0.00031562069598410825,-0.0003870746363399755,-0.0014351633439094208,0.0,0.0,0.0,0.0,0.0,0.0,0.0,-9.809178887598691e-05,0.00011642943087375457,-7.511767522194734e-05,-9.368765302886217e-05,0.00016119787392254725,5.25124867762905e-05,-7.629394532471245e-06,-0.0005847113483808995,0.0002555128452489678,0.0003942161270910814,0.0007972484606646557,0.00031562069598410825,0.0003870746363399755,0.0014351633439094208,0.09352988004684448,18.177942276000977,-0.9180634021759033,-18.071321487426758,-0.6475730538368225,-2.2946200370788574,0.20083944499492645,0
35,0.1699972152709961,-0.06972616910934448,-18.154138565063477,0.9696381092071533,18.071321487426758,0.6356711983680725,2.2946200370788574,-0.24844686686992645,0.0,0.0,0.0,0.0,0.0,0.0,0.0,-0.06463890650631171,0.49039582275813365,0.0995715497662968,0.4154719316715668,0.21431071234827404,0.09561700297806547,-0.2334489589703515,-0.6089887564182114,-0.05764997946453924,-0.6665315986850804,-2.594462776152065,-0.055778476068238235,2.5079235147370227,0.8763237678127156,-0.6090851748156966,-0.05753196718556838,-0.666603097082616,-2.5945565370258534,-0.05562143941554,2.507976027223799,0.8763108487046415,0.0003535921581168086,-0.0008847072853559182,-0.0010008623378882757,-0.00013914513757026938,0.00026269318969432615,-0.00033149010355510816,0.0007173766581886531,0.0,0.0,0.0,0.0,0.0,0.0,0.0,-9.641839748519843e-05,0.00011801227897085403,-7.149839753561871e-05,-9.376087378853981e-05,0.00015703665269823502,5.25124867762905e-05,-1.2919108074105345e-05,-0.0003535921581168086,0.0008847072853559182,0.0010008623378882757,0.00013914513757026938,-0.00026269318969432615,0.00033149010355510816,-0.0007173766581886531,0.06972616910934448,18.154138565063477,-0.9696381092071533,-18.071321487426758,-0.6356711983680725,-2.2946200370788574,0.24844686686992645,0
36,0.17499804496765137,-0.06972616910934448,-18.154138565063477,0.9696381092071533,18.071321487426758,0.6356711983680725,2.2946200370788574,-0.24844686686992645,0.0,0.0,0.0,0.0,0.0,0.0,0.0,-0.06463890650631171,0.49039582275813365,0.0995715497662968,0.4154719316715668,0.21431071234827404,0.09561700297806547,-0.2334489589703515,-0.6089887564182114,-0.05764997946453924,-0.6665315986850804,-2.594462776152065,-0.055778476068238235,2.5079235147370227,0.8763237678127156,-0.6090851748156966,-0.05753196718556838,-0.666603097082616,-2.5945565370258534,-0.05562143941554,2.507976027223799,0.8763108487046415,0.0003535921581168086,-0.0008847072853559182,-0.0010008623378882757,-0.00013914513757026938,0.00026269318969432615,-0.00033149010355510816,0.0007173766581886531,0.0,0.0,0.0,0.0,0.0,0.0,0.0,-9.641839748519843e-05,0.00011801227897085403,-7.149839753561871e-05,-9.376087378853981e-05,0.00015703665269823502,5.25124867762905e-05,-1.2919108074105345e-05,-0.0003535921581168086,0.0008847072853559182,0.0010008623378882757,0.00013914513757026938,-0.00026269318969432615,0.00033149010355510816,-0.0007173766581886531,0.06972616910934448,18.154138565063477,-0.9696381092071533,-18.071321487426758,-0.6356711983680725,-2.2946200370788574,0.24844686686992645,0
37,0.18000030517578125,-0.04592245817184448,-18.154138565063477,0.9418671131134033,18.023714065551758,0.6356711983680725,2.2689852714538574,-0.25485557317733765,0.0,0.0,0.0,0.0,0.0,0.0,0.0,-0.07032285741676625,0.49430148685980574,0.09310115687678752,0.4142965051122932,0.21466532137444522,0.09581144548388926,-0.23320912996516177,-0.608990425872937,-0.057649988186776274,-0.6665296498432493,-2.5944595436609545,-0.05577934053347319,2.5079263630443145,0.8763244798911942,-0.6090851748156966,-0.05753196718556838,-0.666603097082616,-2.5945565370258534,-0.05562143941554,2.507976027223799,0.8763108487046415,-0.0006302170058548189,0.00016095477306466772,-0.0005875943004089949,0.001088464669707106,0.00021477555787086566,0.00033362497109778647,0.0009030797492012635,0.0,0.0,0.0,0.0,0.0,0.0,0.0,-9.474894275962598e-05,0.00011802100120789083,-7.34472393667529e-05,-9.699336489887855e-05,0.00015790111793319295,4.966417948448765e-05,-1.3631186552731656e-05,0.0006302170058548189,-0.00016095477306466772,0.0005875943004089949,-0.001088464669707106,-0.00021477555787086566,-0.00033362497109778647,-0.0009030797492012635,0.04592245817184448,18.154138565063477,-0.9418671131134033,-18.023714065551758,-0.6356711983680725,-2.2689852714538574,0.25485557317733765,0
38,0.185089111328125,-0.04592245817184448,-18.154138565063477,0.9418671131134033,18.023714065551758,0.6356711983680725,2.2689852714538574,-0.25485557317733765,0.0,0.0,0.0,0.0,0.0,0.0,0.0,-0.07032285741676625,0.49430148685980574,0.09310115687678752,0.4142965051122932,0.21466532137444522,0.09581144548388926,-0.23320912996516177,-0.608990425872937,-0.057649988186776274,-0.6665296498432493,-2.5944595436609545,-0.05577934053347319,2.5079263630443145,0.8763244798911942,-0.6090851748156966,-0.05753196718556838,-0.666603097082616,-2.5945565370258534,-0.05562143941554,2.507976027223799,0.8763108487046415,-0.0006302170058548189,0.00016095477306466772,-0.0005875943004089949,0.001088464669707106,0.00021477555787086566,0.00033362497109778647,0.0009030797492012635,0.0,0.0,0.0,0.0,0.0,0.0,0.0,-9.474894275962598e-05,0.00011802100120789083,-7.34472393667529e-05,-9.699336489887855e-05,0.00015790111793319295,4.966417948448765e-05,-1.3631186552731656e-05,0.0006302170058548189,-0.00016095477306466772,0.0005875943004089949,-0.001088464669707106,-0.00021477555787086566,-0.00033362497109778647,-0.0009030797492012635,0.04592245817184448,18.154138565063477,-0.9418671131134033,-18.023714065551758,-0.6356711983680725,-2.2689852714538574,0.25485557317733765,0
39,0.19000029563903809,-0.06972616910934448,-18.106531143188477,0.8942596912384033,18.047517776489258,0.6475730538368225,2.2625765800476074,-0.26858848333358765,0.0,0.0,0.0,0.0,0.0,0.0,0.0,-0.07271751225148633,0.4939112208216441,0.0909241435488915,0.41941777580163464,0.21518979599991755,0.09615294077765775,-0.23206402666858336,-0.6089886759642165,-0.05765340792356275,-0.6665263089715388,-2.594458981207369,-0.05578313298273689,2.5079270751211373,0.8763260057701004,-0.6090851748156966,-0.05753196718556838,-0.666603097082616,-2.5945565370258534,-0.05562143941554,2.507976027223799,0.8763108487046415,-0.00016015015821697082,-0.0008517213877685755,2.7229021313100698e-05,-1.6459588876189727e-05,-0.00017183964143997906,0.000656152969507277,0.0013900254052006064,0.0,0.0,0.0,0.0,0.0,0.0,0.0,-9.649885148010906e-05,0.00012144073799436744,-7.678811107725281e-05,-9.755581848436279e-05,0.0001616935671968911,4.8952102661647956e-05,-1.5157065458959451e-05,0.00016015015821697082,0.0008517213877685755,-2.7229021313100698e-05,1.6459588876189727e-05,0.00017183964143997906,-0.000656152969507277,-0.0013900254052006064,0.06972616910934448,18.106531143188477,-0.8942596912384033,-18.047517776489258,-0.6475730538368225,-2.2625765800476074,0.26858848333358765,0
40,0.1951587200164795,-0.06972616910934448,-18.106531143188477,0.8942596912384033,18.047517776489258,0.6475730538368225,2.2625765800476074,-0.26858848333358765,0.0,0.0,0.0,0.0,0.0,0.0,0.0,-0.07271751225148633,0.4939112208216441,0.0909241435488915,0.41941777580163464,0.21518979599991755,0.09615294077765775,-0.23206402666858336,-0.6089886759642165,-0.05765340792356275,-0.6665263089715388,-2.594458981207369,-0.05578313298273689,2.5079270751211373,0.8763260057701004,-0.6090851748156966,-0.05753196718556838,-0.666603097082616,-2.5945565370258534,-0.05562143941554,2.507976027223799,0.8763108487046415,-0.00016015015821697082,-0.0008517213877685755,2.7229021313100698e-05,-1.6459588876189727e-05,-0.00017183964143997906,0.000656152969507277,0.0013900254052006064,0.0,0.0,0.0,0.0,0.0,0.0,0.0,-9.649885148010906e-05,0.00012144073799436744,-7.678811107725281e-05,-9.755581848436279e-05,0.0001616935671968911,4.8952102661647956e-05,-1.5157065458959451e-05,0.00016015015821697082,0.0008517213877685755,-2.7229021313100698e-05,1.6459588876189727e-05,0.00017183964143997906,-0.000656152969507277,-0.0013900254052006064,0.06972616910934448,18.106531143188477,-0.8942596912384033,-18.047517776489258,-0.6475730538368225,-2.2625765800476074,0.26858848333358765,0
41,0.1999974250793457,-0.04592245817184448,-18.154138565063477,0.9180634021759033,18.023714065551758,0.6420798897743225,2.2753939628601074,-0.22098104655742645,0.0,0.0,0.0,0.0,0.0,0.0,0.0,-0.06936471643777958,0.49778037969278244,0.09536558736859992,0.42149787497394775,0.2153809378949759,0.09587665668031557,-0.23244770423755473,-0.6089904268536293,-0.05765006705229742,-0.6665279794073941,-2.5944572343344667,-0.05577918944596048,2.5079256509674916,0.8763207160549031,-0.6090851748156966,-0.05753196718556838,-0.666603097082616,-2.5945565370258534,-0.05562143941554,2.507976027223799,0.8763108487046415,-0.0009481130946714233,5.197407839226867e-05,-0.00019747230846977657,0.0008930436168133779,-0.00018320021233978888,3.512472456825081e-05,-3.5515762728458045e-07,0.0,0.0,0.0,0.0,0.0,0.0,0.0,-9.474796206732083e-05,0.00011809986672903922,-7.511767522194734e-05,-9.930269138669345e-05,0.0001577500304204768,5.037625630732734e-05,-9.867350261649754e-06,0.0009481130946714233,-5.197407839226867e-05,0.00019747230846977657,-0.0008930436168133779,0.00018320021233978888,-3.512472456825081e-05,3.5515762728458045e-07,0.04592245817184448,18.154138565063477,-0.9180634021759033,-18.023714065551758,-0.6420798897743225,-2.2753939628601074,0.22098104655742645,0
42,0.20499873161315918,-0.04592245817184448,-18.154138565063477,0.9180634021759033,18.023714065551758,0.6420798897743225,2.2753939628601074,-0.22098104655742645,0.0,0.0,0.0,0.0,0.0,0.0,0.0,-0.06936471643777958,0.49778037969278244,0.09536558736859992,0.42149787497394775,0.2153809378949759,0.09587665668031557,-0.23244770423755473,-0.6089904268536293,-0.05765006705229742,-0.6665279794073941,-2.5944572343344667,-0.05577918944596048,2.5079256509674916,0.8763207160549031,-0.6090851748156966,-0.05753196718556838,-0.666603097082616,-2.5945565370258534,-0.05562143941554,2.507976027223799,0.8763108487046415,-0.0009481130946714233,5.197407839226867e-05,-0.00019747230846977657,0.0008930436168133779,-0.00018320021233978888,3.512472456825081e-05,-3.5515762728458045e-07,0.0,0.0,0.0,0.0,0.0,0.0,0.0,-9.474796206732083e-05,0.00011809986672903922,-7.511767522194734e-05,-9.930269138669345e-05,0.0001577500304204768,5.037625630732734e-05,-9.867350261649754e-06,0.0009481130946714233,-5.197407839226867e-05,0.00019747230846977657,-0.0008930436168133779,0.00018320021233978888,-3.512472456825081e-05,3.5515762728458045e-07,0.04592245817184448,18.154138565063477,-0.9180634021759033,-18.023714065551758,-0.6420798897743225,-2.2753939628601074,0.22098104655742645,0
43,0.20999765396118164,-0.04592245817184448,-18.154138565063477,0.9180634021759033,18.023714065551758,0.6420798897743225,2.2753939628601074,-0.22098104655742645,0.0,0.0,0.0,0.0,0.0,0.0,0.0,-0.06936471643777958,0.49778037969278244,0.09536558736859992,0.42149787497394775,0.2153809378949759,0.09587665668031557,-0.23244770423755473,-0.6089904268536293,-0.05765006705229742,-0.6665279794073941,-2.5944572343344667,-0.05577918944596048,2.5079256509674916,0.8763207160549031,-0.6090851748156966,-0.05753196718556838,-0.666603097082616,-2.5945565370258534,-0.05562143941554,2.507976027223799,0.8763108487046415,-0.0009481130946714233,5.197407839226867e-05,-0.00019747230846977657,0.0008930436168133779,-0.00018320021233978888,3.512472456825081e-05,-3.5515762728458045e-07,0.0,0.0,0.0,0.0,0.0,0.0,0.0,-9.474796206732083e-05,0.00011809986672903922,-7.511767522194734e-05,-9.930269138669345e-05,0.0001577500304204768,5.037625630732734e-05,-9.867350261649754e-06,0.0009481130946714233,-5.197407839226867e-05,0.00019747230846977657,-0.0008930436168133779,0.00018320021233978888,-3.512472456825081e-05,3.5515762728458045e-07,0.04592245817184448,18.154138565063477,-0.9180634021759033,-18.023714065551758,-0.6420798897743225,-2.2753939628601074,0.22098104655742645,0
44,0.21500945091247559,-0.04592245817184448,-18.154138565063477,0.9180634021759033,18.023714065551758,0.6420798897743225,2.2753939628601074,-0.22098104655742645,0.0,0.0,0.0,0.0,0.0,0.0,0.0,-0.06936471643777958,0.49778037969278244,0.09536558736859992,0.42149787497394775,0.2153809378949759,0.09587665668031557,-0.23244770423755473,-0.6089904268536293,-0.05765006705229742,-0.6665279794073941,-2.5944572343344667,-0.05577918944596048,2.5079256509674916,0.8763207160549031,-0.6090851748156966,-0.05753196718556838,-0.666603097082616,-2.5945565370258534,-0.05562143941554,2.507976027223799,0.8763108487046415,-0.0009481130946714233,5.197407839226867e-05,-0.00019747230846977657,0.0008930436168133779,-0.00018320021233978888,3.512472456825081e-05,-3.5515762728458045e-07,0.0,0.0,0.0,0.0,0.0,0.0,0.0,-9.474796206732083e-05,0.00011809986672903922,-7.511767522194734e-05,-9.930269138669345e-05,0.0001577500304204768,5.037625630732734e-05,-9.867350261649754e-06,0.0009481130946714233,-5.197407839226867e-05,0.00019747230846977657,-0.0008930436168133779,0.00018320021233978888,-3.512472456825081e-05,3.5515762728458045e-07,0.04592245817184448,18.154138565063477,-0.9180634021759033,-18.023714065551758,-0.6420798897743225,-2.2753939628601074,0.22098104655742645,0
45,0.22002863883972168,-0.09352988004684448,-18.177942276000977,0.8942596912384033,18.047517776489258,0.6301780343055725,2.2753939628601074,-0.20724813640117645,0.0,0.0,0.0,0.0,0.0,0.0,0.0,-0.07400054747176539,0.49594076043708674,0.093573625942848,0.4242014333974103,0.21511568622936567,0.09518796907180764,-0.23264528759133887,-0.6089870859823727,-0.0576462679095192,-0.6665263089715388,-2.5944612121624693,-0.05577855769673139,2.5079256509674916,0.8763191901759969,-0.6090851748156966,-0.05753196718556838,-0.666603097082616,-2.5945565370258534,-0.05562143941554,2.507976027223799,0.8763108487046415,0.0005600895828944013,-0.00018240523942529303,0.00011977452862752523,0.000572134166245872,0.0004412342243939884,3.797816219975511e-05,-0.0011555056940055976,0.0,0.0,0.0,0.0,0.0,0.0,0.0,-9.808883332385054e-05,0.0001143007239508137,-7.678811107725281e-05,-9.53248633841497e-05,0.00015711828119138738,5.037625630732734e-05,-8.341471355421959e-06,-0.0005600895828944013,0.00018240523942529303,-0.00011977452862752523,-0.000572134166245872,-0.0004412342243939884,-3.797816219975511e-05,0.0011555056940055976,0.09352988004684448,18.177942276000977,-0.8942596912384033,-18.047517776489258,-0.6301780343055725,-2.2753939628601074,0.20724813640117645,0
46,0.2250049114227295,-0.09352988004684448,-18.177942276000977,0.8942596912384033,18.047517776489258,0.6301780343055725,2.2753939628601074,-0.20724813640117645,0.0,0.0,0.0,0.0,0.0,0.0,0.0,-0.07400054747176539,0.49594076043708674,0.093573625942848,0.4242014333974103,0.21511568622936567,0.09518796907180764,-0.23264528759133887,-0.6089870859823727,-0.0576462679095192,-0.6665263089715388,-2.5944612121624693,-0.05577855769673139,2.5079256509674916,0.8763191901759969,-0.6090851748156966,-0.05753196718556838,-0.666603097082616,-2.5945565370258534,-0.05562143941554,2.507976027223799,0.8763108487046415,0.0005600895828944013,-0.00018240523942529303,0.00011977452862752523,0.000572134166245872,0.0004412342243939884,3.797816219975511e-05,-0.0011555056940055976,0.0,0.0,0.0,0.0,0.0,0.0,0.0,-9.808883332385054e-05,0.0001143007239508137,-7.678811107725281e-05,-9.53248633841497e-05,0.00015711828119138738,5.037625630732734e-05,-8.341471355421959e-06,-0.0005600895828944013,0.00018240523942529303,-0.00011977452862752523,-0.000572134166245872,-0.0004412342243939884,-3.797816219975511e-05,0.0011555056940055976,0.09352988004684448,18.177942276000977,-0.8942596912384033,-18.047517776489258,-0.6301780343055725,-2.2753939628601074,0.20724813640117645,0
47,0.2301013469696045,-0.04592245817184448,-18.205713272094727,0.8704559803009033,18.047517776489258,0.6475730538368225,2.2818026542663574,-0.20083944499492645,0.0,0.0,0.0,0.0,0.0,0.0,0.0,-0.06934557111221201,0.49042484424676264,0.09760427101766553,0.4220507091393008,0.21479759799648787,0.09439532378689593,-0.23291185012414373,-0.6089904268540833,-0.05764337310387936,-0.6665246385356836,-2.5944612063343886,-0.05577942603365129,2.507924938890669,0.876318478099174,-0.6090851748156966,-0.05753196718556838,-0.666603097082616,-2.5945565370258534,-0.05562143941554,2.507976027223799,0.8763108487046415,-0.000551294437245257,-0.0005477372697243712,0.0012681530540261643,-6.562758647155685e-05,-0.0002928250906099857,0.0001330525012570504,-0.0014165676575901161,0.0,0.0,0.0,0.0,0.0,0.0,0.0,-9.474796161323962e-05,0.00011140591831097779,-7.845854693244725e-05,-9.533069146483442e-05,0.00015798661811129017,5.108833313016703e-05,-7.629394532471245e-06,0.000551294437245257,0.0005477372697243712,-0.0012681530540261643,6.562758647155685e-05,0.0002928250906099857,-0.0001330525012570504,0.0014165676575901161,0.04592245817184448,18.205713272094727,-0.8704559803009033,-18.047517776489258,-0.6475730538368225,-2.2818026542663574,0.20083944499492645,0
48,0.23510169982910156,-0.04592245817184448,-18.205713272094727,0.8704559803009033,18.047517776489258,0.6475730538368225,2.2818026542663574,-0.20083944499492645,0.0,0.0,0.0,0.0,0.0,0.0,0.0,-0.06934557111221201,0.49042484424676264,0.09760427101766553,0.4220507091393008,0.21479759799648787,0.09439532378689593,-0.23291185012414373,-0.6089904268540833,-0.05764337310387936,-0.6665246385356836,-2.5944612063343886,-0.05577942603365129,2.507924938890669,0.876318478099174,-0.6090851748156966,-0.05753196718556838,-0.666603097082616,-2.5945565370258534,-0.05562143941554,2.507976027223799,0.8763108487046415,-0.000551294437245257,-0.0005477372697243712,0.0012681530540261643,-6.562758647155685e-05,-0.0002928250906099857,0.0001330525012570504,-0.0014165676575901161,0.0,0.0,0.0,0.0,0.0,0.0,0.0,-9.474796161323962e-05,0.00011140591831097779,-7.845854693244725e-05,-9.533069146483442e-05,0.00015798661811129017,5.108833313016703e-05,-7.629394532471245e-06,0.000551294437245257,0.0005477372697243712,-0.0012681530540261643,6.562758647155685e-05,0.0002928250906099857,-0.0001330525012570504,0.0014165676575901161,0.04592245817184448,18.205713272094727,-0.8704559803009033,-18.047517776489258,-0.6475730538368225,-2.2818026542663574,0.20083944499492645,0
49,0.23999834060668945,0.005652248859405518,-18.177942276000977,0.9418671131134033,17.999910354614258,0.6420798897743225,2.2753939628601074,-0.22098104655742645,0.0,0.0,0.0,0.0,0.0,0.0,0.0,-0.06264264150098965,0.4919000623339809,0.10308983179028974,0.4162071435049636,0.21504207374096893,0.09420034140917727,-0.2325783049223216,-0.6089940451506233,-0.05764735913470539,-0.6665296498432493,-2.5944578711906967,-0.05578319725816275,2.5079256509674916,0.8763207160549031,-0.6090851748156966,-0.05753196718556838,-0.666603097082616,-2.5945565370258534,-0.05562143941554,2.507976027223799,0.8763108487046415,-0.0009565908635567717,-0.0002097678711456748,-0.00023702589351320296,0.0011411541595599368,0.00013519935385350587,-2.081931822999408e-05,-0.00044450851956376547,0.0,0.0,0.0,0.0,0.0,0.0,0.0,-9.112966507329734e-05,0.00011539194913700451,-7.34472393667529e-05,-9.866583515671934e-05,0.00016175784262274784,5.037625630732734e-05,-9.867350261649754e-06,0.0009565908635567717,0.0002097678711456748,0.00023702589351320296,-0.0011411541595599368,-0.00013519935385350587,2.081931822999408e-05,0.00044450851956376547,-0.005652248859405518,18.177942276000977,-0.9418671131134033,-17.999910354614258,-0.6420798897743225,-2.2753939628601074,0.22098104655742645,0
50,0.24500823020935059,0.005652248859405518,-18.177942276000977,0.9418671131134033,17.999910354614258,0.6420798897743225,2.2753939628601074,-0.22098104655742645,0.0,0.0,0.0,0.0,0.0,0.0,0.0,-0.06264264150098965,0.4919000623339809,0.10308983179028974,0.4162071435049636,0.21504207374096893,0.09420034140917727,-0.2325783049223216,-0.6089940451506233,-0.05764735913470539,-0.6665296498432493,-2.5944578711906967,-0.05578319725816275,2.5079256509674916,0.8763207160549031,-0.6090851748156966,-0.05753196718556838,-0.666603097082616,-2.5945565370258534,-0.05562143941554,2.507976027223799,0.8763108487046415,-0.0009565908635567717,-0.0002097678711456748,-0.00023702589351320296,0.0011411541595599368,0.00013519935385350587,-2.081931822999408e-05,-0.00044450851956376547,0.0,0.0,0.0,0.0,0.0,0.0,0.0,-9.112966507329734e-05,0.00011539194913700451,-7.34472393667529e-05,-9.866583515671934e-05,0.00016175784262274784,5.037625630732734e-05,-9.867350261649754e-06,0.0009565908635567717,0.0002097678711456748,0.00023702589351320296,-0.0011411541595599368,-0.00013519935385350587,2.081931822999408e-05,0.00044450851956376547,-0.005652248859405518,18.177942276000977,-0.9418671131134033,-17.999910354614258,-0.6420798897743225,-2.2753939628601074,0.22098104655742645,0
51,0.24999785423278809,-0.018151462078094482,-18.177942276000977,0.9418671131134033,18.071321487426758,0.6420798897743225,2.2753939628601074,-0.26217979192733765,0.0,0.0,0.0,0.0,0.0,0.0,0.0,-0.06982860458251468,0.48106446190717034,0.09319981453787998,0.4200798871520038,0.215891174500544,0.09454002945948736,-0.23267207670418588,-0.6089923756595702,-0.057648370009858986,-0.6665296498432493,-2.5944628754135834,-0.05578201428007392,2.5079256509674916,0.8763252936932776,-0.6090851748156966,-0.05753196718556838,-0.666603097082616,-2.5945565370258534,-0.05562143941554,2.507976027223799,0.8763108487046415,-0.0015720009607924652,0.0001640177856872748,-0.0008078728607306318,-0.0007234803671636828,-0.00011224082574327218,-0.00011980650567828588,0.0011177775847880968,0.0,0.0,0.0,0.0,0.0,0.0,0.0,-9.279915612636636e-05,0.00011640282429060261,-7.34472393667529e-05,-9.36616122699796e-05,0.00016057486453392028,5.037625630732734e-05,-1.444498863611976e-05,0.0015720009607924652,-0.0001640177856872748,0.0008078728607306318,0.0007234803671636828,0.00011224082574327218,0.00011980650567828588,-0.0011177775847880968,0.018151462078094482,18.177942276000977,-0.9418671131134033,-18.071321487426758,-0.6420798897743225,-2.2753939628601074,0.26217979192733765,0
52,0.25510478019714355,-0.018151462078094482,-18.177942276000977,0.9418671131134033,18.071321487426758,0.6420798897743225,2.2753939628601074,-0.26217979192733765,0.0,0.0,0.0,0.0,0.0,0.0,0.0,-0.06982860458251468,0.48106446190717034,0.09319981453787998,0.4200798871520038,0.215891174500544,0.09454002945948736,-0.23267207670418588,-0.6089923756595702,-0.057648370009858986,-0.6665296498432493,-2.5944628754135834,-0.05578201428007392,2.5079256509674916,0.8763252936932776,-0.6090851748156966,-0.05753196718556838,-0.666603097082616,-2.5945565370258534,-0.05562143941554,2.507976027223799,0.8763108487046415,-0.0015720009607924652,0.0001640177856872748,-0.0008078728607306318,-0.0007234803671636828,-0.00011224082574327218,-0.00011980650567828588,0.0011177775847880968,0.0,0.0,0.0,0.0,0.0,0.0,0.0,-9.279915612636636e-05,0.00011640282429060261,-7.34472393667529e-05,-9.36616122699796e-05,0.00016057486453392028,5.037625630732734e-05,-1.444498863611976e-05,0.0015720009607924652,-0.0001640177856872748,0.0008078728607306318,0.0007234803671636828,0.00011224082574327218,0.00011980650567828588,-0.0011177775847880968,0.018151462078094482,18.177942276000977,-0.9418671131134033,-18.071321487426758,-0.6420798897743225,-2.2753939628601074,0.26217979192733765,0
53,0.2600102424621582,-0.06972616910934448,-18.154138565063477,0.9180634021759033,18.071321487426758,0.6475730538368225,2.2689852714538574,-0.21457235515117645,0.0,0.0,0.0,0.0,0.0,0.0,0.0,-0.06363353854633208,0.49067018279105845,0.09787270296416266,0.4184544667622722,0.21564478224604067,0.09370106838478959,-0.23392920402717182,-0.6089887563092112,-0.0576500666193147,-0.6665279794073941,-2.5944618868700515,-0.05577958851072231,2.5079263630443145,0.8763199996174293,-0.6090851748156966,-0.05753196718556838,-0.666603097082616,-2.5945565370258534,-0.05562143941554,2.507976027223799,0.8763108487046415,0.00027040515329944994,0.0007978211759242159,-0.0005071149249348891,-0.0003504298083157846,-0.0001509760272601756,0.00025289963389617834,-0.0005924199248879006,0.0,0.0,0.0,0.0,0.0,0.0,0.0,-9.641850648534067e-05,0.00011809943374631315,-7.511767522194734e-05,-9.465015580190084e-05,0.00015814909518230974,4.966417948448765e-05,-9.150912787858623e-06,-0.00027040515329944994,-0.0007978211759242159,0.0005071149249348891,0.0003504298083157846,0.0001509760272601756,-0.00025289963389617834,0.0005924199248879006,0.06972616910934448,18.154138565063477,-0.9180634021759033,-18.071321487426758,-0.6475730538368225,-2.2689852714538574,0.21457235515117645,0
54,0.2650291919708252,-0.06972616910934448,-18.154138565063477,0.9180634021759033,18.071321487426758,0.6475730538368225,2.2689852714538574,-0.21457235515117645,0.0,0.0,0.0,0.0,0.0,0.0,0.0,-0.06363353854633208,0.49067018279105845,0.09787270296416266,0.4184544667622722,0.21564478224604067,0.09370106838478959,-0.23392920402717182,-0.6089887563092112,-0.0576500666193147,-0.6665279794073941,-2.5944618868700515,-0.05577958851072231,2.5079263630443145,0.8763199996174293,-0.6090851748156966,-0.05753196718556838,-0.666603097082616,-2.5945565370258534,-0.05562143941554,2.507976027223799,0.8763108487046415,0.00027040515329944994,0.0007978211759242159,-0.0005071149249348891,-0.0003504298083157846,-0.0001509760272601756,0.00025289963389617834,-0.0005924199248879006,0.0,0.0,0.0,0.0,0.0,0.0,0.0,-9.641850648534067e-05,0.00011809943374631315,-7.511767522194734e-05,-9.465015580190084e-05,0.00015814909518230974,4.966417948448765e-05,-9.150912787858623e-06,-0.00027040515329944994,-0.0007978211759242159,0.0005071149249348891,0.0003504298083157846,0.0001509760272601756,-0.00025289963389617834,0.0005924199248879006,0.06972616910934448,18.154138565063477,-0.9180634021759033,-18.071321487426758,-0.6475730538368225,-2.2689852714538574,0.21457235515117645,0
55,0.2700529098510742,-0.06972616910934448,-18.154138565063477,0.8942596912384033,18.047517776489258,0.6356711983680725,2.2689852714538574,-0.25485557317733765,0.0,0.0,0.0,0.0,0.0,0.0,0.0,-0.06762268562314588,0.4930137967481702,0.09223716999206286,0.421958272026487,0.2160095834381689,0.09340172803741856,-0.23388703985709122,-0.6089887564182279,-0.057650066727897506,-0.6665263089715388,-2.594461215489882,-0.0557793258378922,2.5079263630443145,0.876324479891186,-0.6090851748156966,-0.05753196718556838,-0.666603097082616,-2.5945565370258534,-0.05562143941554,2.507976027223799,0.8763108487046415,-0.0005603657340265023,0.00010768451242781674,0.00019841740256190416,-4.763006732636932e-05,0.00011920038503097913,0.00010048797629723007,0.0006947708726799659,0.0,0.0,0.0,0.0,0.0,0.0,0.0,-9.64183974686561e-05,0.00011809954232912256,-7.678811107725281e-05,-9.5321535971582e-05,0.0001578864223521978,4.966417948448765e-05,-1.3631186544516005e-05,0.0005603657340265023,-0.00010768451242781674,-0.00019841740256190416,4.763006732636932e-05,-0.00011920038503097913,-0.00010048797629723007,-0.0006947708726799659,0.06972616910934448,18.154138565063477,-0.8942596912384033,-18.047517776489258,-0.6356711983680725,-2.2689852714538574,0.25485557317733765,0
56,0.27502965927124023,-0.06972616910934448,-18.154138565063477,0.8942596912384033,18.047517776489258,0.6356711983680725,2.2689852714538574,-0.25485557317733765,0.0,0.0,0.0,0.0,0.0,0.0,0.0,-0.06762268562314588,0.4930137967481702,0.09223716999206286,0.421958272026487,0.2160095834381689,0.09340172803741856,-0.23388703985709122,-0.6089887564182279,-0.057650066727897506,-0.6665263089715388,-2.594461215489882,-0.0557793258378922,2.5079263630443145,0.876324479891186,-0.6090851748156966,-0.05753196718556838,-0.666603097082616,-2.5945565370258534,-0.05562143941554,2.507976027223799,0.8763108487046415,-0.0005603657340265023,0.00010768451242781674,0.00019841740256190416,-4.763006732636932e-05,0.00011920038503097913,0.00010048797629723007,0.0006947708726799659,0.0,0.0,0.0,0.0,0.0,0.0,0.0,-9.64183974686561e-05,0.00011809954232912256,-7.678811107725281e-05,-9.5321535971582e-05,0.0001578864223521978,4.966417948448765e-05,-1.3631186544516005e-05,0.0005603657340265023,-0.00010768451242781674,-0.00019841740256190416,4.763006732636932e-05,-0.00011920038503097913,-0.00010048797629723007,-0.0006947708726799659,0.06972616910934448,18.154138565063477,-0.8942596912384033,-18.047517776489258,-0.6356711983680725,-2.2689852714538574,0.25485557317733765,0
57,0.2800295352935791,-0.06972616910934448,-18.205713272094727,0.9180634021759033,18.071321487426758,0.6539817452430725,2.2689852714538574,-0.23471395671367645,0.0,0.0,0.0,0.0,0.0,0.0,0.0,-0.06582274375245363,0.49696247804488625,0.096674737993107,0.42422262041283265,0.21596021197061321,0.09286289980702027,-0.23447144343903747,-0.6089887563818893,-0.05764643901583338,-0.6665279794073941,-2.594460660423752,-0.0557833450741945,2.5079263630443145,0.8763222419338093,-0.6090851748156966,-0.05753196718556838,-0.666603097082616,-2.5945565370258534,-0.05562143941554,2.507976027223799,0.8763108487046415,1.6247079475790975e-05,0.0009284963451538657,7.626958472334422e-05,-0.0005472540091476372,-0.00047786253447877034,0.00026858397969176296,1.4608917372442848e-05,0.0,0.0,0.0,0.0,0.0,0.0,0.0,-9.64184338072549e-05,0.00011447183026499358,-7.511767522194734e-05,-9.587660210153004e-05,0.00016190565865450285,4.966417948448765e-05,-1.1393229167766528e-05,-1.6247079475790975e-05,-0.0009284963451538657,-7.626958472334422e-05,0.0005472540091476372,0.00047786253447877034,-0.00026858397969176296,-1.4608917372442848e-05,0.06972616910934448,18.205713272094727,-0.9180634021759033,-18.071321487426758,-0.6539817452430725,-2.2689852714538574,0.23471395671367645,0
58,0.28502917289733887,-0.06972616910934448,-18.205713272094727,0.9180634021759033,18.071321487426758,0.6539817452430725,2.2689852714538574,-0.23471395671367645,0.0,0.0,0.0,0.0,0.0,0.0,0.0,-0.06582274375245363,0.49696247804488625,0.096674737993107,0.42422262041283265,0.21596021197061321,0.09286289980702027,-0.23447144343903747,-0.6089887563818893,-0.05764643901583338,-0.6665279794073941,-2.594460660423752,-0.0557833450741945,2.5079263630443145,0.8763222419338093,-0.6090851748156966,-0.05753196718556838,-0.666603097082616,-2.5945565370258534,-0.05562143941554,2.507976027223799,0.8763108487046415,1.6247079475790975e-05,0.0009284963451538657,7.626958472334422e-05,-0.0005472540091476372,-0.00047786253447877034,0.00026858397969176296,1.4608917372442848e-05,0.0,0.0,0.0,0.0,0.0,0.0,0.0,-9.64184338072549e-05,0.00011447183026499358,-7.511767522194734e-05,-9.587660210153004e-05,0.00016190565865450285,4.966417948448765e-05,-1.1393229167766528e-05,-1.6247079475790975e-05,-0.0009284963451538657,-7.626958472334422e-05,0.0005472540091476372,0.00047786253447877034,-0.00026858397969176296,-1.4608917372442848e-05,0.06972616910934448,18.205713272094727,-0.9180634021759033,-18.071321487426758,-0.6539817452430725,-2.2689852714538574,0.23471395671367645,0
59,0.2900536060333252,-0.06972616910934448,-18.205713272094727,0.9180634021759033,18.099092483520508,0.6356711983680725,2.2689852714538574,-0.21457235515117645,0.0,0.0,0.0,0.0,0.0,0.0,0.0,-0.06953278326218312,0.49107578938884916,0.09541017957985497,0.4239713991232557,0.21659834021856464,0.09294007198177875,-0.2341650060648163,-0.6089887564182279,-0.057646421498234124,-0.6665279794073941,-2.5944648041946445,-0.055779680651968123,2.5079263630443145,0.8763200039780801,-0.6090851748156966,-0.05753196718556838,-0.666603097082616,-2.5945565370258534,-0.05562143941554,2.507976027223799,0.8763108487046415,0.00019229828164204154,-0.0002823111571696842,0.0003406606675936413,-0.001076871319530294,4.922136393204969e-05,0.000480500103232252,-0.0004318180400472594,0.0,0.0,0.0,0.0,0.0,0.0,0.0,-9.64183974686561e-05,0.00011445431266574047,-7.511767522194734e-05,-9.173283120889053e-05,0.00015824123642812354,4.966417948448765e-05,-9.155273438588019e-06,-0.00019229828164204154,0.0002823111571696842,-0.0003406606675936413,0.001076871319530294,-4.922136393204969e-05,-0.000480500103232252,0.0004318180400472594,0.06972616910934448,18.205713272094727,-0.9180634021759033,-18.099092483520508,-0.6356711983680725,-2.2689852714538574,0.21457235515117645,0
60,0.2949957847595215,-0.06972616910934448,-18.205713272094727,0.9180634021759033,18.099092483520508,0.6356711983680725,2.2689852714538574,-0.21457235515117645,0.0,0.0,0.0,0.0,0.0,0.0,0.0,-0.06953278326218312,0.49107578938884916,0.09541017957985497,0.4239713991232557,0.21659834021856464,0.09294007198177875,-0.2341650060648163,-0.6089887564182279,-0.057646421498234124,-0.6665279794073941,-2.5944648041946445,-0.055779680651968123,2.5079263630443145,0.8763200039780801,-0.6090851748156966,-0.05753196718556838,-0.666603097082616,-2.5945565370258534,-0.05562143941554,2.507976027223799,0.8763108487046415,0.00019229828164204154,-0.0002823111571696842,0.0003406606675936413,-0.001076871319530294,4.922136393204969e-05,0.000480500103232252,-0.0004318180400472594,0.0,0.0,0.0,0.0,0.0,0.0,0.0,-9.64183974686561e-05,0.00011445431266574047,-7.511767522194734e-05,-9.173283120889053e-05,0.00015824123642812354,4.966417948448765e-05,-9.155273438588019e-06,-0.00019229828164204154,0.0002823111571696842,-0.0003406606675936413,0.001076871319530294,-4.922136393204969e-05,-0.000480500103232252,0.0004318180400472594,0.06972616910934448,18.205713272094727,-0.9180634021759033,-18.099092483520508,-0.6356711983680725,-2.2689852714538574,0.21457235515117645,0
61,0.3000051975250244,-0.018151462078094482,-18.205713272094727,0.9180634021759033,18.047517776489258,0.6301780343055725,2.2689852714538574,-0.22830526530742645,0.0,0.0,0.0,0.0,0.0,0.0,0.0,-0.06605170989715727,0.49278043818977024,0.09862675265233195,0.4189555658579665,0.21590862184980905,0.0924964695076282,-0.23326683149408256,-0.6089921372773354,-0.05764636505269108,-0.6665279794073941,-2.594458989309401,-0.055777861813147214,2.5079263630443145,0.8763215298569863,-0.6090851748156966,-0.05753196718556838,-0.666603097082616,-2.5945565370258534,-0.05562143941554,2.507976027223799,0.8763108487046415,-0.0006295781530345507,0.0004357104094467004,0.00028742223218009954,0.0001106418984247854,0.0002064359806444855,0.00047392183589913363,-0.0004049503971502159,0.0,0.0,0.0,0.0,0.0,0.0,0.0,-9.303753836120698e-05,0.00011439786712269528,-7.511767522194734e-05,-9.754771645242855e-05,0.00015642239760721433,4.966417948448765e-05,-1.0681152344815814e-05,0.0006295781530345507,-0.0004357104094467004,-0.00028742223218009954,-0.0001106418984247854,-0.0002064359806444855,-0.00047392183589913363,0.0004049503971502159,0.018151462078094482,18.205713272094727,-0.9180634021759033,-18.047517776489258,-0.6301780343055725,-2.2689852714538574,0.22830526530742645,0
62,0.3050107955932617,-0.018151462078094482,-18.205713272094727,0.9180634021759033,18.047517776489258,0.6301780343055725,2.2689852714538574,-0.22830526530742645,0.0,0.0,0.0,0.0,0.0,0.0,0.0,-0.06605170989715727,0.49278043818977024,0.09862675265233195,0.4189555658579665,0.21590862184980905,0.0924964695076282,-0.23326683149408256,-0.6089921372773354,-0.05764636505269108,-0.6665279794073941,-2.594458989309401,-0.055777861813147214,2.5079263630443145,0.8763215298569863,-0.6090851748156966,-0.05753196718556838,-0.666603097082616,-2.5945565370258534,-0.05562143941554,2.507976027223799,0.8763108487046415,-0.0006295781530345507,0.0004357104094467004,0.00028742223218009954,0.0001106418984247854,0.0002064359806444855,0.00047392183589913363,-0.0004049503971502159,0.0,0.0,0.0,0.0,0.0,0.0,0.0,-9.303753836120698e-05,0.00011439786712269528,-7.511767522194734e-05,-9.754771645242855e-05,0.00015642239760721433,4.966417948448765e-05,-1.0681152344815814e-05,0.0006295781530345507,-0.0004357104094467004,-0.00028742223218009954,-0.0001106418984247854,-0.0002064359806444855,-0.00047392183589913363,0.0004049503971502159,0.018151462078094482,18.205713272094727,-0.9180634021759033,-18.047517776489258,-0.6301780343055725,-2.2689852714538574,0.22830526530742645,0
63,0.3099997043609619,-0.09352988004684448,-18.154138565063477,0.9418671131134033,18.071321487426758,0.6420798897743225,2.2753939628601074,-0.20724813640117645,0.0,0.0,0.0,0.0,0.0,0.0,0.0,-0.07248909550063111,0.4896218189083659,0.08964370870127067,0.41978906968216395,0.21579080746619841,0.09199878157885137,-0.23242475830916665,-0.6089870065081672,-0.057649751375457546,-0.6665296498432493,-2.59446040935614,-0.05577992609950218,2.5079256509674916,0.8763191901759968,-0.6090851748156966,-0.05753196718556838,-0.666603097082616,-2.5945565370258534,-0.05562143941554,2.507976027223799,0.8763108487046415,0.0003928281647744784,-0.0002229027542028807,-0.0008304004324746524,-0.0006249256813174473,-0.0001308496094135126,-0.0003112596998251301,-0.0014830067315953872,0.0,0.0,0.0,0.0,0.0,0.0,0.0,-9.816830752940042e-05,0.00011778418988916267,-7.34472393667529e-05,-9.612766971356379e-05,0.0001584866839621779,5.037625630732734e-05,-8.341471355310937e-06,-0.0003928281647744784,0.0002229027542028807,0.0008304004324746524,0.0006249256813174473,0.0001308496094135126,0.0003112596998251301,0.0014830067315953872,0.09352988004684448,18.154138565063477,-0.9418671131134033,-18.071321487426758,-0.6420798897743225,-2.2753939628601074,0.20724813640117645,0
64,0.3150491714477539,-0.09352988004684448,-18.154138565063477,0.9418671131134033,18.071321487426758,0.6420798897743225,2.2753939628601074,-0.20724813640117645,0.0,0.0,0.0,0.0,0.0,0.0,0.0,-0.07248909550063111,0.4896218189083659,0.08964370870127067,0.41978906968216395,0.21579080746619841,0.09199878157885137,-0.23242475830916665,-0.6089870065081672,-0.057649751375457546,-0.6665296498432493,-2.59446040935614,-0.05577992609950218,2.5079256509674916,0.8763191901759968,-0.6090851748156966,-0.05753196718556838,-0.666603097082616,-2.5945565370258534,-0.05562143941554,2.507976027223799,0.8763108487046415,0.0003928281647744784,-0.0002229027542028807,-0.0008304004324746524,-0.0006249256813174473,-0.0001308496094135126,-0.0003112596998251301,-0.0014830067315953872,0.0,0.0,0.0,0.0,0.0,0.0,0.0,-9.816830752940042e-05,0.00011778418988916267,-7.34472393667529e-05,-9.612766971356379e-05,0.0001584866839621779,5.037625630732734e-05,-8.341471355310937e-06,-0.0003928281647744784,0.0002229027542028807,0.0008304004324746524,0.0006249256813174473,0.0001308496094135126,0.0003112596998251301,0.0014830067315953872,0.09352988004684448,18.154138565063477,-0.9418671131134033,-18.071321487426758,-0.6420798897743225,-2.2753939628601074,0.20724813640117645,0
65,0.3200361728668213,-0.06972616910934448,-18.130334854125977,0.8704559803009033,18.023714065551758,0.6356711983680725,2.2882113456726074,-0.23471395671367645,0.0,0.0,0.0,0.0,0.0,0.0,0.0,-0.07202765077593058,0.49050471405704243,0.09188491382464702,0.4175161003749392,0.21513041953799822,0.09078803076013585,-0.23240088199625603,-0.6089887534743402,-0.05764937261689973,-0.6665246385356836,-2.5944570726660108,-0.05577863372157778,2.5079242268138455,0.8763222419338093,-0.6090851748156966,-0.05753196718556838,-0.666603097082616,-2.5945565370258534,-0.05562143941554,2.507976027223799,0.8763108487046415,-0.0005447408745592555,-0.0008477573458644196,0.0008789188008395186,0.00028376507794220424,4.379666730216925e-05,-0.00044247274561864697,-6.825854841685228e-05,0.0,0.0,0.0,0.0,0.0,0.0,0.0,-9.642134135634528e-05,0.00011740543133134662,-7.845854693244725e-05,-9.946435984264923e-05,0.00015719430603777784,5.180040995345081e-05,-1.1393229167766528e-05,0.0005447408745592555,0.0008477573458644196,-0.0008789188008395186,-0.00028376507794220424,-4.379666730216925e-05,0.00044247274561864697,6.825854841685228e-05,0.06972616910934448,18.130334854125977,-0.8704559803009033,-18.023714065551758,-0.6356711983680725,-2.2882113456726074,0.23471395671367645,0
66,0.32503509521484375,-0.06972616910934448,-18.130334854125977,0.8704559803009033,18.023714065551758,0.6356711983680725,2.2882113456726074,-0.23471395671367645,0.0,0.0,0.0,0.0,0.0,0.0,0.0,-0.07202765077593058,0.49050471405704243,0.09188491382464702,0.4175161003749392,0.21513041953799822,0.09078803076013585,-0.23240088199625603,-0.6089887534743402,-0.05764937261689973,-0.6665246385356836,-2.5944570726660108,-0.05577863372157778,2.5079242268138455,0.8763222419338093,-0.6090851748156966,-0.05753196718556838,-0.666603097082616,-2.5945565370258534,-0.05562143941554,2.507976027223799,0.8763108487046415,-0.0005447408745592555,-0.0008477573458644196,0.0008789188008395186,0.00028376507794220424,4.379666730216925e-05,-0.00044247274561864697,-6.825854841685228e-05,0.0,0.0,0.0,0.0,0.0,0.0,0.0,-9.642134135634528e-05,0.00011740543133134662,-7.845854693244725e-05,-9.946435984264923e-05,0.00015719430603777784,5.180040995345081e-05,-1.1393229167766528e-05,0.0005447408745592555,0.0008477573458644196,-0.0008789188008395186,-0.00028376507794220424,-4.379666730216925e-05,0.00044247274561864697,6.825854841685228e-05,0.06972616910934448,18.130334854125977,-0.8704559803009033,-18.023714065551758,-0.6356711983680725,-2.2882113456726074,0.23471395671367645,0
67,0.33002519607543945,-0.06972616910934448,-18.177942276000977,0.8942596912384033,18.023714065551758,0.6301780343055725,2.2753939628601074,-0.19351522624492645,0.0,0.0,0.0,0.0,0.0,0.0,0.0,-0.06809284344250159,0.49502847014393736,0.09614815541955529,0.4162402058562276,0.21472800441979348,0.09159603678014573,-0.2329116835755268,-0.6089887563091619,-0.0576483703000654,-0.6665263089715388,-2.5944588033803977,-0.05577785007622651,2.5079256509674916,0.8763176642970906,-0.6090851748156966,-0.05753196718556838,-0.666603097082616,-2.5945565370258534,-0.05562143941554,2.507976027223799,0.8763108487046415,0.00013104585367474333,0.0005570188337262824,0.00020537201705843203,0.00011705842893319062,0.00031298295542199283,-0.00010471259946017564,0.005710364915190715,0.0,0.0,0.0,0.0,0.0,0.0,0.0,-9.641850653463457e-05,0.00011640311449701707,-7.678811107725281e-05,-9.773364545573315e-05,0.00015641066068650816,5.037625630732734e-05,-6.815592449083141e-06,-0.00013104585367474333,-0.0005570188337262824,-0.00020537201705843203,-0.00011705842893319062,-0.00031298295542199283,0.00010471259946017564,-0.005710364915190715,0.06972616910934448,18.177942276000977,-0.8942596912384033,-18.023714065551758,-0.6301780343055725,-2.2753939628601074,0.19351522624492645,0
68,0.3350956439971924,-0.06972616910934448,-18.177942276000977,0.8942596912384033,18.023714065551758,0.6301780343055725,2.2753939628601074,-0.19351522624492645,0.0,0.0,0.0,0.0,0.0,0.0,0.0,-0.06809284344250159,0.49502847014393736,0.09614815541955529,0.4162402058562276,0.21472800441979348,0.09159603678014573,-0.2329116835755268,-0.6089887563091619,-0.0576483703000654,-0.6665263089715388,-2.5944588033803977,-0.05577785007622651,2.5079256509674916,0.8763176642970906,-0.6090851748156966,-0.05753196718556838,-0.666603097082616,-2.5945565370258534,-0.05562143941554,2.507976027223799,0.8763108487046415,0.00013104585367474333,0.0005570188337262824,0.00020537201705843203,0.00011705842893319062,0.00031298295542199283,-0.00010471259946017564,0.005710364915190715,0.0,0.0,0.0,0.0,0.0,0.0,0.0,-9.641850653463457e-05,0.00011640311449701707,-7.678811107725281e-05,-9.773364545573315e-05,0.00015641066068650816,5.037625630732734e-05,-6.815592449083141e-06,-0.00013104585367474333,-0.0005570188337262824,-0.00020537201705843203,-0.00011705842893319062,-0.00031298295542199283,0.00010471259946017564,-0.005710364915190715,0.06972616910934448,18.177942276000977,-0.8942596912384033,-18.023714065551758,-0.6301780343055725,-2.2753939628601074,0.19351522624492645,0
69,0.3399965763092041,-0.06972616910934448,-18.177942276000977,0.8942596912384033,18.023714065551758,0.6301780343055725,2.2753939628601074,-0.19351522624492645,0.0,0.0,0.0,0.0,0.0,0.0,0.0,-0.06809284344250159,0.49502847014393736,0.09614815541955529,0.4162402058562276,0.21472800441979348,0.09159603678014573,-0.2329116835755268,-0.6089887563091619,-0.0576483703000654,-0.6665263089715388,-2.5944588033803977,-0.05577785007622651,2.5079256509674916,0.8763176642970906,-0.6090851748156966,-0.05753196718556838,-0.666603097082616,-2.5945565370258534,-0.05562143941554,2.507976027223799,0.8763108487046415,0.00013104585367474333,0.0005570188337262824,0.00020537201705843203,0.00011705842893319062,0.00031298295542199283,-0.00010471259946017564,0.005710364915190715,0.0,0.0,0.0,0.0,0.0,0.0,0.0,-9.641850653463457e-05,0.00011640311449701707,-7.678811107725281e-05,-9.773364545573315e-05,0.00015641066068650816,5.037625630732734e-05,-6.815592449083141e-06,-0.00013104585367474333,-0.0005570188337262824,-0.00020537201705843203,-0.00011705842893319062,-0.00031298295542199283,0.00010471259946017564,-0.005710364915190715,0.06972616910934448,18.177942276000977,-0.8942596912384033,-18.023714065551758,-0.6301780343055725,-2.2753939628601074,0.19351522624492645,0
70,0.3449990749359131,-0.06972616910934448,-18.177942276000977,0.8942596912384033,18.023714065551758,0.6301780343055725,2.2753939628601074,-0.19351522624492645,0.0,0.0,0.0,0.0,0.0,0.0,0.0,-0.06809284344250159,0.49502847014393736,0.09614815541955529,0.4162402058562276,0.21472800441979348,0.09159603678014573,-0.2329116835755268,-0.6089887563091619,-0.0576483703000654,-0.6665263089715388,-2.5944588033803977,-0.05577785007622651,2.5079256509674916,0.8763176642970906,-0.6090851748156966,-0.05753196718556838,-0.666603097082616,-2.5945565370258534,-0.05562143941554,2.507976027223799,0.8763108487046415,0.00013104585367474333,0.0005570188337262824,0.00020537201705843203,0.00011705842893319062,0.00031298295542199283,-0.00010471259946017564,0.005710364915190715,0.0,0.0,0.0,0.0,0.0,0.0,0.0,-9.641850653463457e-05,0.00011640311449701707,-7.678811107725281e-05,-9.773364545573315e-05,0.00015641066068650816,5.037625630732734e-05,-6.815592449083141e-06,-0.00013104585367474333,-0.0005570188337262824,-0.00020537201705843203,-0.00011705842893319062,-0.00031298295542199283,0.00010471259946017564,-0.005710364915190715,0.06972616910934448,18.177942276000977,-0.8942596912384033,-18.023714065551758,-0.6301780343055725,-2.2753939628601074,0.19351522624492645,0
71,0.3499619960784912,-0.09352988004684448,-18.229516983032227,0.9180634021759033,18.047517776489258,0.6356711983680725,2.2882113456726074,-0.23471395671367645,0.0,0.0,0.0,0.0,0.0,0.0,0.0,-0.06903417669182996,0.49184584333045517,0.0922554963445032,0.41875943518415054,0.21480219040588863,0.09267824028519285,-0.2315093628420122,-0.6089870859823726,-0.05764476857993042,-0.6665279794073941,-2.5944603914027455,-0.055779682148986834,2.5079242268138455,0.8763222419338093,-0.6090851748156966,-0.05753196718556838,-0.666603097082616,-2.5945565370258534,-0.05562143941554,2.507976027223799,0.8763108487046415,0.0005545781647752484,0.0014551808544607091,-0.0001423514461668166,0.00020686797144506977,0.00027275682222709536,-0.0005899535817893852,3.4851572421998117e-05,0.0,0.0,0.0,0.0,0.0,0.0,0.0,-9.808883332396157e-05,0.00011280139436203873,-7.511767522194734e-05,-9.614562310789054e-05,0.00015824273344683393,5.180040995345081e-05,-1.1393229167766528e-05,-0.0005545781647752484,-0.0014551808544607091,0.0001423514461668166,-0.00020686797144506977,-0.00027275682222709536,0.0005899535817893852,-3.4851572421998117e-05,0.09352988004684448,18.229516983032227,-0.9180634021759033,-18.047517776489258,-0.6356711983680725,-2.2882113456726074,0.23471395671367645,0
72,0.35503554344177246,-0.09352988004684448,-18.229516983032227,0.9180634021759033,18.047517776489258,0.6356711983680725,2.2882113456726074,-0.23471395671367645,0.0,0.0,0.0,0.0,0.0,0.0,0.0,-0.06903417669182996,0.49184584333045517,0.0922554963445032,0.41875943518415054,0.21480219040588863,0.09267824028519285,-0.2315093628420122,-0.6089870859823726,-0.05764476857993042,-0.6665279794073941,-2.5944603914027455,-0.055779682148986834,2.5079242268138455,0.8763222419338093,-0.6090851748156966,-0.05753196718556838,-0.666603097082616,-2.5945565370258534,-0.05562143941554,2.507976027223799,0.8763108487046415,0.0005545781647752484,0.0014551808544607091,-0.0001423514461668166,0.00020686797144506977,0.00027275682222709536,-0.0005899535817893852,3.4851572421998117e-05,0.0,0.0,0.0,0.0,0.0,0.0,0.0,-9.808883332396157e-05,0.00011280139436203873,-7.511767522194734e-05,-9.614562310789054e-05,0.00015824273344683393,5.180040995345081e-05,-1.1393229167766528e-05,-0.0005545781647752484,-0.0014551808544607091,0.0001423514461668166,-0.00020686797144506977,-0.00027275682222709536,0.0005899535817893852,-3.4851572421998117e-05,0.09352988004684448,18.229516983032227,-0.9180634021759033,-18.047517776489258,-0.6356711983680725,-2.2882113456726074,0.23471395671367645,0
73,0.3600335121154785,-0.12130087614059448,-18.177942276000977,0.9180634021759033,17.999910354614258,0.6301780343055725,2.2818026542663574,-0.23471395671367645,0.0,0.0,0.0,0.0,0.0,0.0,0.0,-0.07296315388865489,0.49465700816229924,0.08904292594434733,0.41273269609496827,0.21478359917037007,0.09252479635671733,-0.23220350661606676,-0.6089851371405416,-0.05764839366075643,-0.6665279794073941,-2.5944578644405465,-0.05578175606243555,2.507924938890669,0.8763222419338093,-0.6090851748156966,-0.05753196718556838,-0.666603097082616,-2.5945565370258534,-0.05562143941554,2.507976027223799,0.8763108487046415,0.0011894266838796807,-3.307523889292708e-05,-0.0005254067238309793,0.0009654615679365518,0.0002910984206842472,-0.00017824033739654587,0.0001836148241262202,0.0,0.0,0.0,0.0,0.0,0.0,0.0,-0.00010003767515498474,0.0001164264751880445,-7.511767522194734e-05,-9.86725853069359e-05,0.00016031664689555164,5.108833313016703e-05,-1.1393229167766528e-05,-0.0011894266838796807,3.307523889292708e-05,0.0005254067238309793,-0.0009654615679365518,-0.0002910984206842472,0.00017824033739654587,-0.0001836148241262202,0.12130087614059448,18.177942276000977,-0.9180634021759033,-17.999910354614258,-0.6301780343055725,-2.2818026542663574,0.23471395671367645,0
74,0.36499905586242676,-0.12130087614059448,-18.177942276000977,0.9180634021759033,17.999910354614258,0.6301780343055725,2.2818026542663574,-0.23471395671367645,0.0,0.0,0.0,0.0,0.0,0.0,0.0,-0.07296315388865489,0.49465700816229924,0.08904292594434733,0.41273269609496827,0.21478359917037007,0.09252479635671733,-0.23220350661606676,-0.6089851371405416,-0.05764839366075643,-0.6665279794073941,-2.5944578644405465,-0.05578175606243555,2.507924938890669,0.8763222419338093,-0.6090851748156966,-0.05753196718556838,-0.666603097082616,-2.5945565370258534,-0.05562143941554,2.507976027223799,0.8763108487046415,0.0011894266838796807,-3.307523889292708e-05,-0.0005254067238309793,0.0009654615679365518,0.0002910984206842472,-0.00017824033739654587,0.0001836148241262202,0.0,0.0,0.0,0.0,0.0,0.0,0.0,-0.00010003767515498474,0.0001164264751880445,-7.511767522194734e-05,-9.86725853069359e-05,0.00016031664689555164,5.108833313016703e-05,-1.1393229167766528e-05,-0.0011894266838796807,3.307523889292708e-05,0.0005254067238309793,-0.0009654615679365518,-0.0002910984206842472,0.00017824033739654587,-0.0001836148241262202,0.12130087614059448,18.177942276000977,-0.9180634021759033,-17.999910354614258,-0.6301780343055725,-2.2818026542663574,0.23471395671367645,0
75,0.3700227737426758,-0.09352988004684448,-18.130334854125977,0.8942596912384033,18.023714065551758,0.6356711983680725,2.2753939628601074,-0.21457235515117645,0.0,0.0,0.0,0.0,0.0,0.0,0.0,-0.06576948641823147,0.49617776559026755,0.09706474461108108,0.41422467610638125,0.21400387449602482,0.0936193656940704,-0.23342912281829695,-0.6089870859823727,-0.057651501001188904,-0.6665263089715388,-2.594459287594415,-0.05577847147673281,2.5079256509674916,0.8763200039780801,-0.6090851748156966,-0.05753196718556838,-0.666603097082616,-2.5945565370258534,-0.05562143941554,2.507976027223799,0.8763108487046415,0.0010142881284088056,-0.0007749345980489,0.0006185935424336966,0.0006125571013466356,4.324995203453255e-05,3.0382314274429077e-05,-0.0008276648502539708,0.0,0.0,0.0,0.0,0.0,0.0,0.0,-9.808883332385054e-05,0.00011953381562052057,-7.678811107725281e-05,-9.724943143840648e-05,0.00015703206119280916,5.037625630732734e-05,-9.155273438588019e-06,-0.0010142881284088056,0.0007749345980489,-0.0006185935424336966,-0.0006125571013466356,-4.324995203453255e-05,-3.0382314274429077e-05,0.0008276648502539708,0.09352988004684448,18.130334854125977,-0.8942596912384033,-18.023714065551758,-0.6356711983680725,-2.2753939628601074,0.21457235515117645,0
76,0.37501072883605957,-0.09352988004684448,-18.130334854125977,0.8942596912384033,18.023714065551758,0.6356711983680725,2.2753939628601074,-0.21457235515117645,0.0,0.0,0.0,0.0,0.0,0.0,0.0,-0.06576948641823147,0.49617776559026755,0.09706474461108108,0.41422467610638125,0.21400387449602482,0.0936193656940704,-0.23342912281829695,-0.6089870859823727,-0.057651501001188904,-0.6665263089715388,-2.594459287594415,-0.05577847147673281,2.5079256509674916,0.8763200039780801,-0.6090851748156966,-0.05753196718556838,-0.666603097082616,-2.5945565370258534,-0.05562143941554,2.507976027223799,0.8763108487046415,0.0010142881284088056,-0.0007749345980489,0.0006185935424336966,0.0006125571013466356,4.324995203453255e-05,3.0382314274429077e-05,-0.0008276648502539708,0.0,0.0,0.0,0.0,0.0,0.0,0.0,-9.808883332385054e-05,0.00011953381562052057,-7.678811107725281e-05,-9.724943143840648e-05,0.00015703206119280916,5.037625630732734e-05,-9.155273438588019e-06,-0.0010142881284088056,0.0007749345980489,-0.0006185935424336966,-0.0006125571013466356,-4.324995203453255e-05,-3.0382314274429077e-05,0.0008276648502539708,0.09352988004684448,18.130334854125977,-0.8942596912384033,-18.023714065551758,-0.6356711983680725,-2.2753939628601074,0.21457235515117645,0
77,0.38001108169555664,-0.09352988004684448,-18.130334854125977,0.8942596912384033,18.023714065551758,0.6356711983680725,2.2753939628601074,-0.21457235515117645,0.0,0.0,0.0,0.0,0.0,0.0,0.0,-0.06576948641823147,0.49617776559026755,0.09706474461108108,0.41422467610638125,0.21400387449602482,0.0936193656940704,-0.23342912281829695,-0.6089870859823727,-0.057651501001188904,-0.6665263089715388,-2.594459287594415,-0.05577847147673281,2.5079256509674916,0.8763200039780801,-0.6090851748156966,-0.05753196718556838,-0.666603097082616,-2.5945565370258534,-0.05562143941554,2.507976027223799,0.8763108487046415,0.0010142881284088056,-0.0007749345980489,0.0006185935424336966,0.0006125571013466356,4.324995203453255e-05,3.0382314274429077e-05,-0.0008276648502539708,0.0,0.0,0.0,0.0,0.0,0.0,0.0,-9.808883332385054e-05,0.00011953381562052057,-7.678811107725281e-05,-9.724943143840648e-05,0.00015703206119280916,5.037625630732734e-05,-9.155273438588019e-06,-0.0010142881284088056,0.0007749345980489,-0.0006185935424336966,-0.0006125571013466356,-4.324995203453255e-05,-3.0382314274429077e-05,0.0008276648502539708,0.09352988004684448,18.130334854125977,-0.8942596912384033,-18.023714065551758,-0.6356711983680725,-2.2753939628601074,0.21457235515117645,0
78,0.3850090503692627,-0.06972616910934448,-18.177942276000977,0.9180634021759033,18.071321487426758,0.6356711983680725,2.2689852714538574,-0.26217979192733765,0.0,0.0,0.0,0.0,0.0,0.0,0.0,-0.06943902115423803,0.4959557242436745,0.09278865251742831,0.4163817965747065,0.21452082341108328,0.09402209074185536,-0.2344605334627704,-0.6089887475879103,-0.057648396615107185,-0.6665279794073941,-2.5944628494097506,-0.055778143035161785,2.5079263630443145,0.8763252936932775,-0.6090851748156966,-0.05753196718556838,-0.666603097082616,-2.5945565370258534,-0.05562143941554,2.507976027223799,0.8763108487046415,0.00020391209138794137,0.0005942657004647853,-0.00021471888128832349,-0.00042610733352174343,1.2849663569168865e-05,0.0002640150723704435,0.0011927248686299816,0.0,0.0,0.0,0.0,0.0,0.0,0.0,-9.642722778624435e-05,0.00011642942953880159,-7.511767522194734e-05,-9.368761610284437e-05,0.00015670361962178553,4.966417948448765e-05,-1.4444988636008738e-05,-0.00020391209138794137,-0.0005942657004647853,0.00021471888128832349,0.00042610733352174343,-1.2849663569168865e-05,-0.0002640150723704435,-0.0011927248686299816,0.06972616910934448,18.177942276000977,-0.9180634021759033,-18.071321487426758,-0.6356711983680725,-2.2689852714538574,0.26217979192733765,0
79,0.3900301456451416,-0.06972616910934448,-18.177942276000977,0.9180634021759033,18.071321487426758,0.6356711983680725,2.2689852714538574,-0.26217979192733765,0.0,0.0,0.0,0.0,0.0,0.0,0.0,-0.06943902115423803,0.4959557242436745,0.09278865251742831,0.4163817965747065,0.21452082341108328,0.09402209074185536,-0.2344605334627704,-0.6089887475879103,-0.057648396615107185,-0.6665279794073941,-2.5944628494097506,-0.055778143035161785,2.5079263630443145,0.8763252936932775,-0.6090851748156966,-0.05753196718556838,-0.666603097082616,-2.5945565370258534,-0.05562143941554,2.507976027223799,0.8763108487046415,0.00020391209138794137,0.0005942657004647853,-0.00021471888128832349,-0.00042610733352174343,1.2849663569168865e-05,0.0002640150723704435,0.0011927248686299816,0.0,0.0,0.0,0.0,0.0,0.0,0.0,-9.642722778624435e-05,0.00011642942953880159,-7.511767522194734e-05,-9.368761610284437e-05,0.00015670361962178553,4.966417948448765e-05,-1.4444988636008738e-05,-0.00020391209138794137,-0.0005942657004647853,0.00021471888128832349,0.00042610733352174343,-1.2849663569168865e-05,-0.0002640150723704435,-0.0011927248686299816,0.06972616910934448,18.177942276000977,-0.9180634021759033,-18.071321487426758,-0.6356711983680725,-2.2689852714538574,0.26217979192733765,0
