rezayati/contactInterpretation/dataset/franka_main/labeled_data/link7/a1_8.csv
index,time,tau_J0,tau_J1,tau_J2,tau_J3,tau_J4,tau_J5,tau_J6,tau_J_d0,tau_J_d1,tau_J_d2,tau_J_d3,tau_J_d4,tau_J_d5,tau_J_d6,tau_ext0,tau_ext1,tau_ext2,tau_ext3,tau_ext4,tau_ext5,tau_ext6,q0,q1,q2,q3,q4,q5,q6,q_d0,q_d1,q_d2,q_d3,q_d4,q_d5,q_d6,dq0,dq1,dq2,dq3,dq4,dq5,dq6,dq_d0,dq_d1,dq_d2,dq_d3,dq_d4,dq_d5,dq_d6,e0,e1,e2,e3,e4,e5,e6,de0,de1,de2,de3,de4,de5,de6,etau_J0,etau_J1,etau_J2,etau_J3,etau_J4,etau_J5,etau_J6,label
1,0.0,-0.2720577120780945,-22.819665908813477,0.04922797530889511,13.981050491333008,0.02867656946182251,2.0941195487976074,-0.43979209661483765,0.0,0.0,0.0,0.0,0.0,0.0,0.0,-0.28180384484297344,-0.04746055364488462,-0.03741938908143175,0.12937612642170596,-0.20352657377211228,-0.0907497795233032,-0.4189613592378266,1.6755058948236128,0.05211728881168784,0.029909173638674246,-2.752351784586672,0.03445398311018407,2.76645995844735,0.7692012090616508,1.6754973547542302,0.052104326824870026,0.029969505109285054,-2.752394845125968,0.0342448039870148,2.7663679543071322,0.7691630533470046,-0.0003228846575624673,-0.0006428255818525518,0.0002040298294418897,0.00016855258019680988,7.888258902715578e-05,1.1147674459536711e-05,-4.745436212497979e-05,0.0,0.0,0.0,0.0,0.0,0.0,0.0,-8.540069382556581e-06,-1.2961986817813798e-05,6.033147061080754e-05,-4.306053929603593e-05,-0.00020917912316927023,-9.200414021792724e-05,-3.8155714646159744e-05,0.0003228846575624673,0.0006428255818525518,-0.0002040298294418897,-0.00016855258019680988,-7.888258902715578e-05,-1.1147674459536711e-05,4.745436212497979e-05,0.2720577120780945,22.819665908813477,-0.04922797530889511,-13.981050491333008,-0.02867656946182251,-2.0941195487976074,0.43979209661483765,0
2,0.004991054534912109,-0.24825400114059448,-22.847436904907227,0.04922797530889511,13.957246780395508,0.02867656946182251,2.0877108573913574,-0.43338340520858765,0.0,0.0,0.0,0.0,0.0,0.0,0.0,-0.27817338829690225,-0.05037259759608284,-0.03248572528860387,0.13091950019875878,-0.20340806294479225,-0.09031436136967515,-0.4198408527706864,1.6755049396399224,0.05211923765351898,0.029909173638674246,-2.7523498675425015,0.034453899737698294,2.766460657442221,0.7692004969848526,1.6754973547542302,0.052104326824870026,0.029969505109285054,-2.752394845125968,0.0342448039870148,2.7663679543071322,0.7691630533470046,8.720560744257264e-06,4.88341566800261e-06,3.781431187932318e-05,0.000827754195785793,-4.2071778667666625e-05,0.00037247720040919056,0.00048464872020663723,0.0,0.0,0.0,0.0,0.0,0.0,0.0,-7.584885692191179e-06,-1.4910828648954932e-05,6.033147061080754e-05,-4.497758346655445e-05,-0.00020909575068349395,-9.270313508880079e-05,-3.7443637847967004e-05,-8.720560744257264e-06,-4.88341566800261e-06,-3.781431187932318e-05,-0.000827754195785793,4.2071778667666625e-05,-0.00037247720040919056,-0.00048464872020663723,0.24825400114059448,22.847436904907227,-0.04922797530889511,-13.957246780395508,-0.02867656946182251,-2.0877108573913574,0.43338340520858765,0
3,0.009990453720092773,-0.24825400114059448,-22.847436904907227,0.04922797530889511,13.957246780395508,0.02867656946182251,2.0877108573913574,-0.43338340520858765,0.0,0.0,0.0,0.0,0.0,0.0,0.0,-0.27817338829690225,-0.05037259759608284,-0.03248572528860387,0.13091950019875878,-0.20340806294479225,-0.09031436136967515,-0.4198408527706864,1.6755049396399224,0.05211923765351898,0.029909173638674246,-2.7523498675425015,0.034453899737698294,2.766460657442221,0.7692004969848526,1.6754973547542302,0.052104326824870026,0.029969505109285054,-2.752394845125968,0.0342448039870148,2.7663679543071322,0.7691630533470046,8.720560744257264e-06,4.88341566800261e-06,3.781431187932318e-05,0.000827754195785793,-4.2071778667666625e-05,0.00037247720040919056,0.00048464872020663723,0.0,0.0,0.0,0.0,0.0,0.0,0.0,-7.584885692191179e-06,-1.4910828648954932e-05,6.033147061080754e-05,-4.497758346655445e-05,-0.00020909575068349395,-9.270313508880079e-05,-3.7443637847967004e-05,-8.720560744257264e-06,-4.88341566800261e-06,-3.781431187932318e-05,-0.000827754195785793,4.2071778667666625e-05,-0.00037247720040919056,-0.00048464872020663723,0.24825400114059448,22.847436904907227,-0.04922797530889511,-13.957246780395508,-0.02867656946182251,-2.0877108573913574,0.43338340520858765,0
4,0.014989614486694336,-0.24825400114059448,-22.847436904907227,0.04922797530889511,13.957246780395508,0.02867656946182251,2.0877108573913574,-0.43338340520858765,0.0,0.0,0.0,0.0,0.0,0.0,0.0,-0.27817338829690225,-0.05037259759608284,-0.03248572528860387,0.13091950019875878,-0.20340806294479225,-0.09031436136967515,-0.4198408527706864,1.6755049396399224,0.05211923765351898,0.029909173638674246,-2.7523498675425015,0.034453899737698294,2.766460657442221,0.7692004969848526,1.6754973547542302,0.052104326824870026,0.029969505109285054,-2.752394845125968,0.0342448039870148,2.7663679543071322,0.7691630533470046,8.720560744257264e-06,4.88341566800261e-06,3.781431187932318e-05,0.000827754195785793,-4.2071778667666625e-05,0.00037247720040919056,0.00048464872020663723,0.0,0.0,0.0,0.0,0.0,0.0,0.0,-7.584885692191179e-06,-1.4910828648954932e-05,6.033147061080754e-05,-4.497758346655445e-05,-0.00020909575068349395,-9.270313508880079e-05,-3.7443637847967004e-05,-8.720560744257264e-06,-4.88341566800261e-06,-3.781431187932318e-05,-0.000827754195785793,4.2071778667666625e-05,-0.00037247720040919056,-0.00048464872020663723,0.24825400114059448,22.847436904907227,-0.04922797530889511,-13.957246780395508,-0.02867656946182251,-2.0877108573913574,0.43338340520858765,0
5,0.01999044418334961,-0.3236324191093445,-22.871240615844727,0.02542426437139511,13.981050491333008,0.02226787805557251,2.0941195487976074,-0.43338340520858765,0.0,0.0,0.0,0.0,0.0,0.0,0.0,-0.28652686120853077,-0.05240755254296215,-0.04353246204189132,0.13215758385101106,-0.2027759118366762,-0.0898577994082167,-0.41970781642009175,1.6755102293575017,0.05212090808937424,0.02991084407452951,-2.752351794760074,0.03445894909442606,2.7664599569937263,0.7692004969848526,1.6754973547542302,0.052104326824870026,0.029969505109285054,-2.752394845125968,0.0342448039870148,2.7663679543071322,0.7691630533470046,0.0004101448382224649,0.0005956384532147694,2.614556647376457e-05,0.0006992628217062443,0.00013808625881034465,0.000252048028227619,0.0009666478485588036,0.0,0.0,0.0,0.0,0.0,0.0,0.0,-1.2874603271484375e-05,-1.6581264504211823e-05,5.866103475554371e-05,-4.30503658939152e-05,-0.00021414510741125936,-9.200268659403932e-05,-3.7443637847967004e-05,-0.0004101448382224649,-0.0005956384532147694,-2.614556647376457e-05,-0.0006992628217062443,-0.00013808625881034465,-0.000252048028227619,-0.0009666478485588036,0.3236324191093445,22.871240615844727,-0.02542426437139511,-13.981050491333008,-0.02226787805557251,-2.0941195487976074,0.43338340520858765,0
6,0.024991989135742188,-0.3236324191093445,-22.871240615844727,0.02542426437139511,13.981050491333008,0.02226787805557251,2.0941195487976074,-0.43338340520858765,0.0,0.0,0.0,0.0,0.0,0.0,0.0,-0.28652686120853077,-0.05240755254296215,-0.04353246204189132,0.13215758385101106,-0.2027759118366762,-0.0898577994082167,-0.41970781642009175,1.6755102293575017,0.05212090808937424,0.02991084407452951,-2.752351794760074,0.03445894909442606,2.7664599569937263,0.7692004969848526,1.6754973547542302,0.052104326824870026,0.029969505109285054,-2.752394845125968,0.0342448039870148,2.7663679543071322,0.7691630533470046,0.0004101448382224649,0.0005956384532147694,2.614556647376457e-05,0.0006992628217062443,0.00013808625881034465,0.000252048028227619,0.0009666478485588036,0.0,0.0,0.0,0.0,0.0,0.0,0.0,-1.2874603271484375e-05,-1.6581264504211823e-05,5.866103475554371e-05,-4.30503658939152e-05,-0.00021414510741125936,-9.200268659403932e-05,-3.7443637847967004e-05,-0.0004101448382224649,-0.0005956384532147694,-2.614556647376457e-05,-0.0006992628217062443,-0.00013808625881034465,-0.000252048028227619,-0.0009666478485588036,0.3236324191093445,22.871240615844727,-0.02542426437139511,-13.981050491333008,-0.02226787805557251,-2.0941195487976074,0.43338340520858765,0
7,0.02999138832092285,-0.2720577120780945,-22.871240615844727,0.04922797530889511,13.981050491333008,0.04057842493057251,2.0941195487976074,-0.38577598333358765,0.0,0.0,0.0,0.0,0.0,0.0,0.0,-0.28128394751805064,-0.04485547699182534,-0.03834945425351059,0.12365283134654603,-0.20400711001106628,-0.09096633515268031,-0.4192593576166627,1.6755066100798153,0.05212090808937424,0.029909173638674246,-2.7523514650963277,0.03445719073062805,2.766458898809213,0.7691952072713109,1.6754973547542302,0.052104326824870026,0.029969505109285054,-2.752394845125968,0.0342448039870148,2.7663679543071322,0.7691630533470046,-0.0006848791522309539,0.0008148948337706724,-0.00018949791288928723,0.00011203675550404704,-0.00027558563646574926,-4.216694162023775e-05,-0.000804092137649632,0.0,0.0,0.0,0.0,0.0,0.0,0.0,-9.255325585044716e-06,-1.6581264504211823e-05,6.033147061080754e-05,-4.338002964043852e-05,-0.00021238674361324927,-9.094450208069205e-05,-3.215392430622188e-05,0.0006848791522309539,-0.0008148948337706724,0.00018949791288928723,-0.00011203675550404704,0.00027558563646574926,4.216694162023775e-05,0.000804092137649632,0.2720577120780945,22.871240615844727,-0.04922797530889511,-13.981050491333008,-0.04057842493057251,-2.0941195487976074,0.38577598333358765,0
8,0.03499293327331543,-0.2720577120780945,-22.871240615844727,0.04922797530889511,13.981050491333008,0.04057842493057251,2.0941195487976074,-0.38577598333358765,0.0,0.0,0.0,0.0,0.0,0.0,0.0,-0.28128394751805064,-0.04485547699182534,-0.03834945425351059,0.12365283134654603,-0.20400711001106628,-0.09096633515268031,-0.4192593576166627,1.6755066100798153,0.05212090808937424,0.029909173638674246,-2.7523514650963277,0.03445719073062805,2.766458898809213,0.7691952072713109,1.6754973547542302,0.052104326824870026,0.029969505109285054,-2.752394845125968,0.0342448039870148,2.7663679543071322,0.7691630533470046,-0.0006848791522309539,0.0008148948337706724,-0.00018949791288928723,0.00011203675550404704,-0.00027558563646574926,-4.216694162023775e-05,-0.000804092137649632,0.0,0.0,0.0,0.0,0.0,0.0,0.0,-9.255325585044716e-06,-1.6581264504211823e-05,6.033147061080754e-05,-4.338002964043852e-05,-0.00021238674361324927,-9.094450208069205e-05,-3.215392430622188e-05,0.0006848791522309539,-0.0008148948337706724,0.00018949791288928723,-0.00011203675550404704,0.00027558563646574926,4.216694162023775e-05,0.000804092137649632,0.2720577120780945,22.871240615844727,-0.04922797530889511,-13.981050491333008,-0.04057842493057251,-2.0941195487976074,0.38577598333358765,0
9,0.04000353813171387,-0.3236324191093445,-22.847436904907227,0.07303168624639511,14.032625198364258,0.02867656946182251,2.0877108573913574,-0.36471885442733765,0.0,0.0,0.0,0.0,0.0,0.0,0.0,-0.31841317776057326,-0.05374008741316056,-0.07490334229561721,0.129168166312992,-0.1998233693448281,-0.08991411049801716,-0.4175488048458397,1.6755102293575017,0.05211924642251507,0.029907503202818986,-2.752355414037349,0.0344539785688262,2.7664606705181916,0.7691928675903213,1.6754973547542302,0.052104326824870026,0.029969505109285054,-2.752394845125968,0.0342448039870148,2.7663679543071322,0.7691630533470046,0.00038005128569634664,-0.00047212339583036314,-0.0007876732580587634,-0.0011774608727095272,-6.60069852864816e-05,0.0003631622101552035,-0.002082712899024019,0.0,0.0,0.0,0.0,0.0,0.0,0.0,-1.2874603271484375e-05,-1.491959764504669e-05,6.20019064660679e-05,-3.943108861914624e-05,-0.00020917458181139714,-9.271621105932937e-05,-2.9814243316717004e-05,-0.00038005128569634664,0.00047212339583036314,0.0007876732580587634,0.0011774608727095272,6.60069852864816e-05,-0.0003631622101552035,0.002082712899024019,0.3236324191093445,22.847436904907227,-0.07303168624639511,-14.032625198364258,-0.02867656946182251,-2.0877108573913574,0.36471885442733765,0
10,0.045794010162353516,-0.22445029020309448,-22.819665908813477,0.07303168624639511,14.008821487426758,0.02226787805557251,2.0941195487976074,-0.42605918645858765,0.0,0.0,0.0,0.0,0.0,0.0,0.0,-0.27205706501696386,-0.0504126245822927,-0.0278707959580663,0.1284546186325125,-0.20441983697939928,-0.09035837627795795,-0.41653587175297846,1.6755032690990883,0.05211728881173734,0.029907503202818986,-2.752353743603355,0.03445473004987282,2.76645995844735,0.7691996831827692,1.6754973547542302,0.052104326824870026,0.029969505109285054,-2.752394845125968,0.0342448039870148,2.7663679543071322,0.7691630533470046,-0.0013808388861499801,-0.0005401686299702157,-0.004840714559021916,0.00022813238351267998,0.00011418407606258237,0.00021835980952402258,2.6440305137437687e-06,0.0,0.0,0.0,0.0,0.0,0.0,0.0,-5.914344858082288e-06,-1.2961986867315867e-05,6.20019064660679e-05,-4.1101522612940755e-05,-0.00020992606285801657,-9.200414021792724e-05,-3.66298357645789e-05,0.0013808388861499801,0.0005401686299702157,0.004840714559021916,-0.00022813238351267998,-0.00011418407606258237,-0.00021835980952402258,-2.6440305137437687e-06,0.22445029020309448,22.819665908813477,-0.07303168624639511,-14.008821487426758,-0.02226787805557251,-2.0941195487976074,0.42605918645858765,0
11,0.04999971389770508,-0.22445029020309448,-22.819665908813477,0.07303168624639511,14.008821487426758,0.02226787805557251,2.0941195487976074,-0.42605918645858765,0.0,0.0,0.0,0.0,0.0,0.0,0.0,-0.27205706501696386,-0.0504126245822927,-0.0278707959580663,0.1284546186325125,-0.20441983697939928,-0.09035837627795795,-0.41653587175297846,1.6755032690990883,0.05211728881173734,0.029907503202818986,-2.752353743603355,0.03445473004987282,2.76645995844735,0.7691996831827692,1.6754973547542302,0.052104326824870026,0.029969505109285054,-2.752394845125968,0.0342448039870148,2.7663679543071322,0.7691630533470046,-0.0013808388861499801,-0.0005401686299702157,-0.004840714559021916,0.00022813238351267998,0.00011418407606258237,0.00021835980952402258,2.6440305137437687e-06,0.0,0.0,0.0,0.0,0.0,0.0,0.0,-5.914344858082288e-06,-1.2961986867315867e-05,6.20019064660679e-05,-4.1101522612940755e-05,-0.00020992606285801657,-9.200414021792724e-05,-3.66298357645789e-05,0.0013808388861499801,0.0005401686299702157,0.004840714559021916,-0.00022813238351267998,-0.00011418407606258237,-0.00021835980952402258,-2.6440305137437687e-06,0.22445029020309448,22.819665908813477,-0.07303168624639511,-14.008821487426758,-0.02226787805557251,-2.0941195487976074,0.42605918645858765,0
12,0.0554964542388916,-0.2998287081718445,-22.847436904907227,0.04922797530889511,14.008821487426758,0.01677471399307251,2.1005282402038574,-0.43979209661483765,0.0,0.0,0.0,0.0,0.0,0.0,0.0,-0.25654900858846674,-0.05368464559161132,-0.012374048789923315,0.13108797695871896,-0.20609110679477013,-0.09001006230475875,-0.4172548417066964,1.6755085589216459,0.05211923765351898,0.029909173638674246,-2.752353661187056,0.03445530097183616,2.766459246370527,0.7692012089001699,1.6754973547542302,0.052104326824870026,0.029969505109285054,-2.752394845125968,0.0342448039870148,2.7663679543071322,0.7691630533470046,0.0008356710585633925,-0.00011398818741731923,1.1575454166828572e-05,7.050523586045061e-06,0.0003909714684315564,-0.00011625751058320096,0.0011010449901152043,0.0,0.0,0.0,0.0,0.0,0.0,0.0,-1.12041674156238e-05,-1.4910828648954932e-05,6.033147061080754e-05,-4.1183938912059403e-05,-0.00021049698482136087,-9.129206339464346e-05,-3.815555316522001e-05,-0.0008356710585633925,0.00011398818741731923,-1.1575454166828572e-05,-7.050523586045061e-06,-0.0003909714684315564,0.00011625751058320096,-0.0011010449901152043,0.2998287081718445,22.847436904907227,-0.04922797530889511,-14.008821487426758,-0.01677471399307251,-2.1005282402038574,0.43979209661483765,0
13,0.060205698013305664,-0.2998287081718445,-22.847436904907227,0.04922797530889511,14.008821487426758,0.01677471399307251,2.1005282402038574,-0.43979209661483765,0.0,0.0,0.0,0.0,0.0,0.0,0.0,-0.25654900858846674,-0.05368464559161132,-0.012374048789923315,0.13108797695871896,-0.20609110679477013,-0.09001006230475875,-0.4172548417066964,1.6755085589216459,0.05211923765351898,0.029909173638674246,-2.752353661187056,0.03445530097183616,2.766459246370527,0.7692012089001699,1.6754973547542302,0.052104326824870026,0.029969505109285054,-2.752394845125968,0.0342448039870148,2.7663679543071322,0.7691630533470046,0.0008356710585633925,-0.00011398818741731923,1.1575454166828572e-05,7.050523586045061e-06,0.0003909714684315564,-0.00011625751058320096,0.0011010449901152043,0.0,0.0,0.0,0.0,0.0,0.0,0.0,-1.12041674156238e-05,-1.4910828648954932e-05,6.033147061080754e-05,-4.1183938912059403e-05,-0.00021049698482136087,-9.129206339464346e-05,-3.815555316522001e-05,-0.0008356710585633925,0.00011398818741731923,-1.1575454166828572e-05,-7.050523586045061e-06,-0.0003909714684315564,0.00011625751058320096,-0.0011010449901152043,0.2998287081718445,22.847436904907227,-0.04922797530889511,-14.008821487426758,-0.01677471399307251,-2.1005282402038574,0.43979209661483765,0
14,0.0649881362915039,-0.2998287081718445,-22.847436904907227,0.04922797530889511,14.008821487426758,0.01677471399307251,2.1005282402038574,-0.43979209661483765,0.0,0.0,0.0,0.0,0.0,0.0,0.0,-0.25654900858846674,-0.05368464559161132,-0.012374048789923315,0.13108797695871896,-0.20609110679477013,-0.09001006230475875,-0.4172548417066964,1.6755085589216459,0.05211923765351898,0.029909173638674246,-2.752353661187056,0.03445530097183616,2.766459246370527,0.7692012089001699,1.6754973547542302,0.052104326824870026,0.029969505109285054,-2.752394845125968,0.0342448039870148,2.7663679543071322,0.7691630533470046,0.0008356710585633925,-0.00011398818741731923,1.1575454166828572e-05,7.050523586045061e-06,0.0003909714684315564,-0.00011625751058320096,0.0011010449901152043,0.0,0.0,0.0,0.0,0.0,0.0,0.0,-1.12041674156238e-05,-1.4910828648954932e-05,6.033147061080754e-05,-4.1183938912059403e-05,-0.00021049698482136087,-9.129206339464346e-05,-3.815555316522001e-05,-0.0008356710585633925,0.00011398818741731923,-1.1575454166828572e-05,-7.050523586045061e-06,-0.0003909714684315564,0.00011625751058320096,-0.0011010449901152043,0.2998287081718445,22.847436904907227,-0.04922797530889511,-14.008821487426758,-0.01677471399307251,-2.1005282402038574,0.43979209661483765,0
15,0.07001304626464844,-0.2998287081718445,-22.847436904907227,0.04922797530889511,14.008821487426758,0.01677471399307251,2.1005282402038574,-0.43979209661483765,0.0,0.0,0.0,0.0,0.0,0.0,0.0,-0.25654900858846674,-0.05368464559161132,-0.012374048789923315,0.13108797695871896,-0.20609110679477013,-0.09001006230475875,-0.4172548417066964,1.6755085589216459,0.05211923765351898,0.029909173638674246,-2.752353661187056,0.03445530097183616,2.766459246370527,0.7692012089001699,1.6754973547542302,0.052104326824870026,0.029969505109285054,-2.752394845125968,0.0342448039870148,2.7663679543071322,0.7691630533470046,0.0008356710585633925,-0.00011398818741731923,1.1575454166828572e-05,7.050523586045061e-06,0.0003909714684315564,-0.00011625751058320096,0.0011010449901152043,0.0,0.0,0.0,0.0,0.0,0.0,0.0,-1.12041674156238e-05,-1.4910828648954932e-05,6.033147061080754e-05,-4.1183938912059403e-05,-0.00021049698482136087,-9.129206339464346e-05,-3.815555316522001e-05,-0.0008356710585633925,0.00011398818741731923,-1.1575454166828572e-05,-7.050523586045061e-06,-0.0003909714684315564,0.00011625751058320096,-0.0011010449901152043,0.2998287081718445,22.847436904907227,-0.04922797530889511,-14.008821487426758,-0.01677471399307251,-2.1005282402038574,0.43979209661483765,0
16,0.07499480247497559,-0.2998287081718445,-22.847436904907227,0.04922797530889511,14.008821487426758,0.01677471399307251,2.1005282402038574,-0.43979209661483765,0.0,0.0,0.0,0.0,0.0,0.0,0.0,-0.25654900858846674,-0.05368464559161132,-0.012374048789923315,0.13108797695871896,-0.20609110679477013,-0.09001006230475875,-0.4172548417066964,1.6755085589216459,0.05211923765351898,0.029909173638674246,-2.752353661187056,0.03445530097183616,2.766459246370527,0.7692012089001699,1.6754973547542302,0.052104326824870026,0.029969505109285054,-2.752394845125968,0.0342448039870148,2.7663679543071322,0.7691630533470046,0.0008356710585633925,-0.00011398818741731923,1.1575454166828572e-05,7.050523586045061e-06,0.0003909714684315564,-0.00011625751058320096,0.0011010449901152043,0.0,0.0,0.0,0.0,0.0,0.0,0.0,-1.12041674156238e-05,-1.4910828648954932e-05,6.033147061080754e-05,-4.1183938912059403e-05,-0.00021049698482136087,-9.129206339464346e-05,-3.815555316522001e-05,-0.0008356710585633925,0.00011398818741731923,-1.1575454166828572e-05,-7.050523586045061e-06,-0.0003909714684315564,0.00011625751058320096,-0.0011010449901152043,0.2998287081718445,22.847436904907227,-0.04922797530889511,-14.008821487426758,-0.01677471399307251,-2.1005282402038574,0.43979209661483765,0
17,0.07998871803283691,-0.3236324191093445,-22.819665908813477,0.04922797530889511,14.008821487426758,0.03416973352432251,2.1005282402038574,-0.37204307317733765,0.0,0.0,0.0,0.0,0.0,0.0,0.0,-0.2811507950432417,-0.04949795144812606,-0.03649431738688975,0.1310714466755303,-0.20385047471219955,-0.09027850311107208,-0.41707960002188854,1.6755102293575017,0.05211728881168784,0.029909173638674246,-2.7523537436028898,0.03445360482468278,2.7664580297489714,0.7691936813924037,1.6754973547542302,0.052104326824870026,0.029969505109285054,-2.752394845125968,0.0342448039870148,2.7663679543071322,0.7691630533470046,0.0011162773048167332,-0.0005987527437085502,9.385044905913198e-05,-0.00013552641908830097,-0.00028251085129920407,-0.0003215529198643842,-0.001721303266636755,0.0,0.0,0.0,0.0,0.0,0.0,0.0,-1.2874603271484375e-05,-1.2961986817813798e-05,6.033147061080754e-05,-4.110152307834625e-05,-0.0002088008376679787,-9.007544183914362e-05,-3.062804539910591e-05,-0.0011162773048167332,0.0005987527437085502,-9.385044905913198e-05,0.00013552641908830097,0.00028251085129920407,0.0003215529198643842,0.001721303266636755,0.3236324191093445,22.819665908813477,-0.04922797530889511,-14.008821487426758,-0.03416973352432251,-2.1005282402038574,0.37204307317733765,0
18,0.0849907398223877,-0.3236324191093445,-22.819665908813477,0.04922797530889511,14.008821487426758,0.03416973352432251,2.1005282402038574,-0.37204307317733765,0.0,0.0,0.0,0.0,0.0,0.0,0.0,-0.2811507950432417,-0.04949795144812606,-0.03649431738688975,0.1310714466755303,-0.20385047471219955,-0.09027850311107208,-0.41707960002188854,1.6755102293575017,0.05211728881168784,0.029909173638674246,-2.7523537436028898,0.03445360482468278,2.7664580297489714,0.7691936813924037,1.6754973547542302,0.052104326824870026,0.029969505109285054,-2.752394845125968,0.0342448039870148,2.7663679543071322,0.7691630533470046,0.0011162773048167332,-0.0005987527437085502,9.385044905913198e-05,-0.00013552641908830097,-0.00028251085129920407,-0.0003215529198643842,-0.001721303266636755,0.0,0.0,0.0,0.0,0.0,0.0,0.0,-1.2874603271484375e-05,-1.2961986817813798e-05,6.033147061080754e-05,-4.110152307834625e-05,-0.0002088008376679787,-9.007544183914362e-05,-3.062804539910591e-05,-0.0011162773048167332,0.0005987527437085502,-9.385044905913198e-05,0.00013552641908830097,0.00028251085129920407,0.0003215529198643842,0.001721303266636755,0.3236324191093445,22.819665908813477,-0.04922797530889511,-14.008821487426758,-0.03416973352432251,-2.1005282402038574,0.37204307317733765,0
19,0.09000253677368164,-0.2998287081718445,-22.871240615844727,0.04922797530889511,13.981050491333008,0.02226787805557251,2.1005282402038574,-0.39950889348983765,0.0,0.0,0.0,0.0,0.0,0.0,0.0,-0.2874593695235995,-0.04681460309453,-0.04144570388831666,0.1310576821677586,-0.2031866086045843,-0.0908351658239653,-0.4159728124599881,1.675508479448787,0.05212090808937424,0.029909173638674246,-2.752350805765936,0.034458160606614205,2.7664592449146874,0.7691967331502172,1.6754973547542302,0.052104326824870026,0.029969505109285054,-2.752394845125968,0.0342448039870148,2.7663679543071322,0.7691630533470046,0.00012215758884178988,0.0007071306500021647,-0.0006280586355849383,0.0004669965900549164,4.156318384669641e-05,-0.00032594179693184024,-0.000542506933520154,0.0,0.0,0.0,0.0,0.0,0.0,0.0,-1.1124694556663428e-05,-1.6581264504211823e-05,6.033147061080754e-05,-4.403936003205544e-05,-0.00021335661959940438,-9.129060755519447e-05,-3.36798032125607e-05,-0.00012215758884178988,-0.0007071306500021647,0.0006280586355849383,-0.0004669965900549164,-4.156318384669641e-05,0.00032594179693184024,0.000542506933520154,0.2998287081718445,22.871240615844727,-0.04922797530889511,-13.981050491333008,-0.02226787805557251,-2.1005282402038574,0.39950889348983765,0
20,0.09500288963317871,-0.2998287081718445,-22.871240615844727,0.04922797530889511,13.981050491333008,0.02226787805557251,2.1005282402038574,-0.39950889348983765,0.0,0.0,0.0,0.0,0.0,0.0,0.0,-0.2874593695235995,-0.04681460309453,-0.04144570388831666,0.1310576821677586,-0.2031866086045843,-0.0908351658239653,-0.4159728124599881,1.675508479448787,0.05212090808937424,0.029909173638674246,-2.752350805765936,0.034458160606614205,2.7664592449146874,0.7691967331502172,1.6754973547542302,0.052104326824870026,0.029969505109285054,-2.752394845125968,0.0342448039870148,2.7663679543071322,0.7691630533470046,0.00012215758884178988,0.0007071306500021647,-0.0006280586355849383,0.0004669965900549164,4.156318384669641e-05,-0.00032594179693184024,-0.000542506933520154,0.0,0.0,0.0,0.0,0.0,0.0,0.0,-1.1124694556663428e-05,-1.6581264504211823e-05,6.033147061080754e-05,-4.403936003205544e-05,-0.00021335661959940438,-9.129060755519447e-05,-3.36798032125607e-05,-0.00012215758884178988,-0.0007071306500021647,0.0006280586355849383,-0.0004669965900549164,-4.156318384669641e-05,0.00032594179693184024,0.000542506933520154,0.2998287081718445,22.871240615844727,-0.04922797530889511,-13.981050491333008,-0.02226787805557251,-2.1005282402038574,0.39950889348983765,0
21,0.10008406639099121,-0.24825400114059448,-22.847436904907227,0.04922797530889511,13.981050491333008,0.02867656946182251,2.0941195487976074,-0.38577598333358765,0.0,0.0,0.0,0.0,0.0,0.0,0.0,-0.28340494998840976,-0.05341448173677247,-0.040359648029466434,0.132777265819942,-0.20416374857585262,-0.09058238694543992,-0.41583612762201483,1.6755049396435115,0.05211923765351898,0.029909173638674246,-2.7523510526324038,0.03445390408426443,2.766459958447342,0.7691952072713109,1.6754973547542302,0.052104326824870026,0.029969505109285054,-2.752394845125968,0.0342448039870148,2.7663679543071322,0.7691630533470046,-0.0009079384994740553,-0.0005277783938445904,-0.00038112684388537474,0.000424632179520834,-6.746782891499652e-05,9.372143127505127e-05,-0.0016375587145558085,0.0,0.0,0.0,0.0,0.0,0.0,0.0,-7.584889281320173e-06,-1.4910828648954932e-05,6.033147061080754e-05,-4.3792493564343005e-05,-0.00020910009724962875,-9.200414020993364e-05,-3.215392430622188e-05,0.0009079384994740553,0.0005277783938445904,0.00038112684388537474,-0.000424632179520834,6.746782891499652e-05,-9.372143127505127e-05,0.0016375587145558085,0.24825400114059448,22.847436904907227,-0.04922797530889511,-13.981050491333008,-0.02867656946182251,-2.0941195487976074,0.38577598333358765,0
22,0.1050112247467041,-0.24825400114059448,-22.847436904907227,0.04922797530889511,13.981050491333008,0.02867656946182251,2.0941195487976074,-0.38577598333358765,0.0,0.0,0.0,0.0,0.0,0.0,0.0,-0.28340494998840976,-0.05341448173677247,-0.040359648029466434,0.132777265819942,-0.20416374857585262,-0.09058238694543992,-0.41583612762201483,1.6755049396435115,0.05211923765351898,0.029909173638674246,-2.7523510526324038,0.03445390408426443,2.766459958447342,0.7691952072713109,1.6754973547542302,0.052104326824870026,0.029969505109285054,-2.752394845125968,0.0342448039870148,2.7663679543071322,0.7691630533470046,-0.0009079384994740553,-0.0005277783938445904,-0.00038112684388537474,0.000424632179520834,-6.746782891499652e-05,9.372143127505127e-05,-0.0016375587145558085,0.0,0.0,0.0,0.0,0.0,0.0,0.0,-7.584889281320173e-06,-1.4910828648954932e-05,6.033147061080754e-05,-4.3792493564343005e-05,-0.00020910009724962875,-9.200414020993364e-05,-3.215392430622188e-05,0.0009079384994740553,0.0005277783938445904,0.00038112684388537474,-0.000424632179520834,6.746782891499652e-05,-9.372143127505127e-05,0.0016375587145558085,0.24825400114059448,22.847436904907227,-0.04922797530889511,-13.981050491333008,-0.02867656946182251,-2.0941195487976074,0.38577598333358765,0
23,0.11001157760620117,-0.2998287081718445,-22.819665908813477,0.04922797530889511,14.008821487426758,0.03416973352432251,2.0941195487976074,-0.42605918645858765,0.0,0.0,0.0,0.0,0.0,0.0,0.0,-0.28111670389892646,-0.058117942666006166,-0.041355696139971546,0.13498412121535908,-0.20462426887144108,-0.0905057176000535,-0.4155154121620723,1.6755085589216465,0.05211728881168784,0.029909173638674246,-2.7523537435991656,0.034454314669226264,2.766458898809221,0.7691996831827692,1.6754973547542302,0.052104326824870026,0.029969505109285054,-2.752394845125968,0.0342448039870148,2.7663679543071322,0.7691630533470046,0.0006484337519974015,-0.0014832436407265406,3.2503243682795695e-06,0.0003579776276672683,-5.326687082604887e-05,-0.000168732498826885,0.00038613104383433114,0.0,0.0,0.0,0.0,0.0,0.0,0.0,-1.1204167416289934e-05,-1.2961986817813798e-05,6.033147061080754e-05,-4.110152680247836e-05,-0.00020951068221146396,-9.094450208868565e-05,-3.66298357645789e-05,-0.0006484337519974015,0.0014832436407265406,-3.2503243682795695e-06,-0.0003579776276672683,5.326687082604887e-05,0.000168732498826885,-0.00038613104383433114,0.2998287081718445,22.819665908813477,-0.04922797530889511,-14.008821487426758,-0.03416973352432251,-2.0941195487976074,0.42605918645858765,0
24,0.1150047779083252,-0.2998287081718445,-22.819665908813477,0.04922797530889511,14.008821487426758,0.03416973352432251,2.0941195487976074,-0.42605918645858765,0.0,0.0,0.0,0.0,0.0,0.0,0.0,-0.28111670389892646,-0.058117942666006166,-0.041355696139971546,0.13498412121535908,-0.20462426887144108,-0.0905057176000535,-0.4155154121620723,1.6755085589216465,0.05211728881168784,0.029909173638674246,-2.7523537435991656,0.034454314669226264,2.766458898809221,0.7691996831827692,1.6754973547542302,0.052104326824870026,0.029969505109285054,-2.752394845125968,0.0342448039870148,2.7663679543071322,0.7691630533470046,0.0006484337519974015,-0.0014832436407265406,3.2503243682795695e-06,0.0003579776276672683,-5.326687082604887e-05,-0.000168732498826885,0.00038613104383433114,0.0,0.0,0.0,0.0,0.0,0.0,0.0,-1.1204167416289934e-05,-1.2961986817813798e-05,6.033147061080754e-05,-4.110152680247836e-05,-0.00020951068221146396,-9.094450208868565e-05,-3.66298357645789e-05,-0.0006484337519974015,0.0014832436407265406,-3.2503243682795695e-06,-0.0003579776276672683,5.326687082604887e-05,0.000168732498826885,-0.00038613104383433114,0.2998287081718445,22.819665908813477,-0.04922797530889511,-14.008821487426758,-0.03416973352432251,-2.0941195487976074,0.42605918645858765,0
25,0.11998939514160156,-0.24825400114059448,-22.847436904907227,0.07303168624639511,14.008821487426758,0.02867656946182251,2.1069369316101074,-0.46084922552108765,0.0,0.0,0.0,0.0,0.0,0.0,0.0,-0.27811891932086175,-0.04637260188277999,-0.037899306569423565,0.12629637369442762,-0.20454978082250805,-0.09223959298286855,-0.4142660392743343,1.67550493964396,0.05211923765351898,0.029907503202818986,-2.752353661187056,0.03445740894304984,2.7664585342877226,0.769203548742665,1.6754973547542302,0.052104326824870026,0.029969505109285054,-2.752394845125968,0.0342448039870148,2.7663679543071322,0.7691630533470046,-0.00020866581093673724,0.0006691003607653303,-0.00041453740839874525,-0.00031517796623885106,-0.00020108774655925874,-0.00044039487849305926,0.00195888720032781,0.0,0.0,0.0,0.0,0.0,0.0,0.0,-7.584889729850275e-06,-1.4910828648954932e-05,6.20019064660679e-05,-4.1183938912059403e-05,-0.00021260495603504098,-9.05799805903662e-05,-4.0495395660422595e-05,0.00020866581093673724,-0.0006691003607653303,0.00041453740839874525,0.00031517796623885106,0.00020108774655925874,0.00044039487849305926,-0.00195888720032781,0.24825400114059448,22.847436904907227,-0.07303168624639511,-14.008821487426758,-0.02867656946182251,-2.1069369316101074,0.46084922552108765,0
26,0.12499523162841797,-0.24825400114059448,-22.847436904907227,0.07303168624639511,14.008821487426758,0.02867656946182251,2.1069369316101074,-0.46084922552108765,0.0,0.0,0.0,0.0,0.0,0.0,0.0,-0.27811891932086175,-0.04637260188277999,-0.037899306569423565,0.12629637369442762,-0.20454978082250805,-0.09223959298286855,-0.4142660392743343,1.67550493964396,0.05211923765351898,0.029907503202818986,-2.752353661187056,0.03445740894304984,2.7664585342877226,0.769203548742665,1.6754973547542302,0.052104326824870026,0.029969505109285054,-2.752394845125968,0.0342448039870148,2.7663679543071322,0.7691630533470046,-0.00020866581093673724,0.0006691003607653303,-0.00041453740839874525,-0.00031517796623885106,-0.00020108774655925874,-0.00044039487849305926,0.00195888720032781,0.0,0.0,0.0,0.0,0.0,0.0,0.0,-7.584889729850275e-06,-1.4910828648954932e-05,6.20019064660679e-05,-4.1183938912059403e-05,-0.00021260495603504098,-9.05799805903662e-05,-4.0495395660422595e-05,0.00020866581093673724,-0.0006691003607653303,0.00041453740839874525,0.00031517796623885106,0.00020108774655925874,0.00044039487849305926,-0.00195888720032781,0.24825400114059448,22.847436904907227,-0.07303168624639511,-14.008821487426758,-0.02867656946182251,-2.1069369316101074,0.46084922552108765,0
27,0.13001489639282227,-0.2998287081718445,-22.847436904907227,0.001620553433895111,14.008821487426758,0.02867656946182251,2.0877108573913574,-0.40591758489608765,0.0,0.0,0.0,0.0,0.0,0.0,0.0,-0.2819132430168375,-0.049919752812495846,-0.04059686858941168,0.1315168156215979,-0.20427442303785745,-0.09076970078038146,-0.4143384838209117,1.6755085589216465,0.05211923765351898,0.029912514510384774,-2.7523537436019594,0.0344538736187295,2.766460670524173,0.76919744522704,1.6754973547542302,0.052104326824870026,0.029969505109285054,-2.752394845125968,0.0342448039870148,2.7663679543071322,0.7691630533470046,0.0003007661028341967,0.0004367771319087064,0.0012423071506526852,-0.00014636363732734874,-4.7023906141114685e-05,0.00019511225030264737,-0.0006018847004375207,0.0,0.0,0.0,0.0,0.0,0.0,0.0,-1.1204167416289934e-05,-1.4910828648954932e-05,5.699059890027988e-05,-4.110152400871314e-05,-0.0002090696317147006,-9.271621704076694e-05,-3.439188003540039e-05,-0.0003007661028341967,-0.0004367771319087064,-0.0012423071506526852,0.00014636363732734874,4.7023906141114685e-05,-0.00019511225030264737,0.0006018847004375207,0.2998287081718445,22.847436904907227,-0.001620553433895111,-14.008821487426758,-0.02867656946182251,-2.0877108573913574,0.40591758489608765,0
28,0.1350114345550537,-0.2998287081718445,-22.847436904907227,0.001620553433895111,14.008821487426758,0.02867656946182251,2.0877108573913574,-0.40591758489608765,0.0,0.0,0.0,0.0,0.0,0.0,0.0,-0.2819132430168375,-0.049919752812495846,-0.04059686858941168,0.1315168156215979,-0.20427442303785745,-0.09076970078038146,-0.4143384838209117,1.6755085589216465,0.05211923765351898,0.029912514510384774,-2.7523537436019594,0.0344538736187295,2.766460670524173,0.76919744522704,1.6754973547542302,0.052104326824870026,0.029969505109285054,-2.752394845125968,0.0342448039870148,2.7663679543071322,0.7691630533470046,0.0003007661028341967,0.0004367771319087064,0.0012423071506526852,-0.00014636363732734874,-4.7023906141114685e-05,0.00019511225030264737,-0.0006018847004375207,0.0,0.0,0.0,0.0,0.0,0.0,0.0,-1.1204167416289934e-05,-1.4910828648954932e-05,5.699059890027988e-05,-4.110152400871314e-05,-0.0002090696317147006,-9.271621704076694e-05,-3.439188003540039e-05,-0.0003007661028341967,-0.0004367771319087064,-0.0012423071506526852,0.00014636363732734874,4.7023906141114685e-05,-0.00019511225030264737,0.0006018847004375207,0.2998287081718445,22.847436904907227,-0.001620553433895111,-14.008821487426758,-0.02867656946182251,-2.0877108573913574,0.40591758489608765,0
29,0.14004015922546387,-0.3236324191093445,-22.819665908813477,0.04922797530889511,13.981050491333008,0.03416973352432251,2.0941195487976074,-0.41965049505233765,0.0,0.0,0.0,0.0,0.0,0.0,0.0,-0.27560514774940875,-0.046774128343232746,-0.03628531846856274,0.13018164191256681,-0.2049955624031418,-0.09114882036922473,-0.41428049137491146,1.6755102264140624,0.05211728881168784,0.029909173638674246,-2.752351794748962,0.034453250406375376,2.766459919201494,0.7691989318600897,1.6754973547542302,0.052104326824870026,0.029969505109285054,-2.752394845125968,0.0342448039870148,2.7663679543071322,0.7691630533470046,0.0011613526319361447,-0.0003424705528757433,-0.0001685670883923397,0.0004624271653824813,-0.00010659950992476871,7.319102959110634e-05,0.00033422705538422025,0.0,0.0,0.0,0.0,0.0,0.0,0.0,-1.2871659832214277e-05,-1.2961986817813798e-05,6.033147061080754e-05,-4.305037700591541e-05,-0.00020844641936057506,-9.196489436158473e-05,-3.5878513085063624e-05,-0.0011613526319361447,0.0003424705528757433,0.0001685670883923397,-0.0004624271653824813,0.00010659950992476871,-7.319102959110634e-05,-0.00033422705538422025,0.3236324191093445,22.819665908813477,-0.04922797530889511,-13.981050491333008,-0.03416973352432251,-2.0941195487976074,0.41965049505233765,0
30,0.14505815505981445,-0.3236324191093445,-22.819665908813477,0.04922797530889511,13.981050491333008,0.03416973352432251,2.0941195487976074,-0.41965049505233765,0.0,0.0,0.0,0.0,0.0,0.0,0.0,-0.27560514774940875,-0.046774128343232746,-0.03628531846856274,0.13018164191256681,-0.2049955624031418,-0.09114882036922473,-0.41428049137491146,1.6755102264140624,0.05211728881168784,0.029909173638674246,-2.752351794748962,0.034453250406375376,2.766459919201494,0.7691989318600897,1.6754973547542302,0.052104326824870026,0.029969505109285054,-2.752394845125968,0.0342448039870148,2.7663679543071322,0.7691630533470046,0.0011613526319361447,-0.0003424705528757433,-0.0001685670883923397,0.0004624271653824813,-0.00010659950992476871,7.319102959110634e-05,0.00033422705538422025,0.0,0.0,0.0,0.0,0.0,0.0,0.0,-1.2871659832214277e-05,-1.2961986817813798e-05,6.033147061080754e-05,-4.305037700591541e-05,-0.00020844641936057506,-9.196489436158473e-05,-3.5878513085063624e-05,-0.0011613526319361447,0.0003424705528757433,0.0001685670883923397,-0.0004624271653824813,0.00010659950992476871,-7.319102959110634e-05,-0.00033422705538422025,0.3236324191093445,22.819665908813477,-0.04922797530889511,-13.981050491333008,-0.03416973352432251,-2.0941195487976074,0.41965049505233765,0
31,0.15000224113464355,-0.2720577120780945,-22.819665908813477,0.07303168624639511,14.032625198364258,0.03416973352432251,2.0941195487976074,-0.37204307317733765,0.0,0.0,0.0,0.0,0.0,0.0,0.0,-0.2744911191590615,-0.04883548448809689,-0.03752172625649659,0.13282471088766096,-0.20438039996267882,-0.09097910342503662,-0.4138871600018198,1.6755066100798097,0.05211728881168784,0.029907503202818986,-2.7523529415502415,0.034453368353261495,2.7664599569937263,0.7691936813923308,1.6754973547542302,0.052104326824870026,0.029969505109285054,-2.752394845125968,0.0342448039870148,2.7663679543071322,0.7691630533470046,0.00025642187811071717,-0.0008604938879023004,-0.0006557112736664812,-0.0005032329523953714,-0.0001502726926774832,3.0864565832599804e-05,-0.0020033170190603636,0.0,0.0,0.0,0.0,0.0,0.0,0.0,-9.2553255794936e-06,-1.2961986817813798e-05,6.20019064660679e-05,-4.190357572664283e-05,-0.00020856436624669406,-9.200268659403932e-05,-3.0628045326164255e-05,-0.00025642187811071717,0.0008604938879023004,0.0006557112736664812,0.0005032329523953714,0.0001502726926774832,-3.0864565832599804e-05,0.0020033170190603636,0.2720577120780945,22.819665908813477,-0.07303168624639511,-14.032625198364258,-0.03416973352432251,-2.0941195487976074,0.37204307317733765,0
32,0.15510129928588867,-0.2720577120780945,-22.819665908813477,0.07303168624639511,14.032625198364258,0.03416973352432251,2.0941195487976074,-0.37204307317733765,0.0,0.0,0.0,0.0,0.0,0.0,0.0,-0.2744911191590615,-0.04883548448809689,-0.03752172625649659,0.13282471088766096,-0.20438039996267882,-0.09097910342503662,-0.4138871600018198,1.6755066100798097,0.05211728881168784,0.029907503202818986,-2.7523529415502415,0.034453368353261495,2.7664599569937263,0.7691936813923308,1.6754973547542302,0.052104326824870026,0.029969505109285054,-2.752394845125968,0.0342448039870148,2.7663679543071322,0.7691630533470046,0.00025642187811071717,-0.0008604938879023004,-0.0006557112736664812,-0.0005032329523953714,-0.0001502726926774832,3.0864565832599804e-05,-0.0020033170190603636,0.0,0.0,0.0,0.0,0.0,0.0,0.0,-9.2553255794936e-06,-1.2961986817813798e-05,6.20019064660679e-05,-4.190357572664283e-05,-0.00020856436624669406,-9.200268659403932e-05,-3.0628045326164255e-05,-0.00025642187811071717,0.0008604938879023004,0.0006557112736664812,0.0005032329523953714,0.0001502726926774832,-3.0864565832599804e-05,0.0020033170190603636,0.2720577120780945,22.819665908813477,-0.07303168624639511,-14.032625198364258,-0.03416973352432251,-2.0941195487976074,0.37204307317733765,0
33,0.1600208282470703,-0.2998287081718445,-22.871240615844727,0.10080268234014511,13.981050491333008,0.02867656946182251,2.1005282402038574,-0.44711631536483765,0.0,0.0,0.0,0.0,0.0,0.0,0.0,-0.2741337692394465,-0.04710104506683117,-0.03683769005522837,0.12829450311760876,-0.20401054763850976,-0.09218510088460641,-0.4145316677167438,1.6755085579405,0.05212090808937424,0.029905554360987845,-2.7523517947475664,0.034453860416026924,2.766459246370519,0.7692020228637588,1.6754973547542302,0.052104326824870026,0.029969505109285054,-2.752394845125968,0.0342448039870148,2.7663679543071322,0.7691630533470046,0.001131991750415257,0.00023971147251448485,-0.0013046444717308525,0.0002420281355105046,7.7813309966479e-06,-0.0003273286703886688,0.0009465742588983055,0.0,0.0,0.0,0.0,0.0,0.0,0.0,-1.1203186269792553e-05,-1.6581264504211823e-05,6.395074829720904e-05,-4.3050378401687794e-05,-0.00020905642901212357,-9.129206338664986e-05,-3.89695167541948e-05,-0.001131991750415257,-0.00023971147251448485,0.0013046444717308525,-0.0002420281355105046,-7.7813309966479e-06,0.0003273286703886688,-0.0009465742588983055,0.2998287081718445,22.871240615844727,-0.10080268234014511,-13.981050491333008,-0.02867656946182251,-2.1005282402038574,0.44711631536483765,0
34,0.1649918556213379,-0.2998287081718445,-22.871240615844727,0.10080268234014511,13.981050491333008,0.02867656946182251,2.1005282402038574,-0.44711631536483765,0.0,0.0,0.0,0.0,0.0,0.0,0.0,-0.2741337692394465,-0.04710104506683117,-0.03683769005522837,0.12829450311760876,-0.20401054763850976,-0.09218510088460641,-0.4145316677167438,1.6755085579405,0.05212090808937424,0.029905554360987845,-2.7523517947475664,0.034453860416026924,2.766459246370519,0.7692020228637588,1.6754973547542302,0.052104326824870026,0.029969505109285054,-2.752394845125968,0.0342448039870148,2.7663679543071322,0.7691630533470046,0.001131991750415257,0.00023971147251448485,-0.0013046444717308525,0.0002420281355105046,7.7813309966479e-06,-0.0003273286703886688,0.0009465742588983055,0.0,0.0,0.0,0.0,0.0,0.0,0.0,-1.1203186269792553e-05,-1.6581264504211823e-05,6.395074829720904e-05,-4.3050378401687794e-05,-0.00020905642901212357,-9.129206338664986e-05,-3.89695167541948e-05,-0.001131991750415257,-0.00023971147251448485,0.0013046444717308525,-0.0002420281355105046,-7.7813309966479e-06,0.0003273286703886688,-0.0009465742588983055,0.2998287081718445,22.871240615844727,-0.10080268234014511,-13.981050491333008,-0.02867656946182251,-2.1005282402038574,0.44711631536483765,0
35,0.17017722129821777,-0.3236324191093445,-22.819665908813477,0.02542426437139511,14.008821487426758,0.02226787805557251,2.1005282402038574,-0.40591758489608765,0.0,0.0,0.0,0.0,0.0,0.0,0.0,-0.27279695371198104,-0.051868144989262545,-0.03420895752801229,0.13149329053576203,-0.2032035773967827,-0.09185333937486237,-0.4162382605904904,1.6755102293574962,0.05211728881168784,0.02991084407452951,-2.75235300181898,0.03445508507986284,2.766459246370527,0.76919744522704,1.6754973547542302,0.052104326824870026,0.029969505109285054,-2.752394845125968,0.0342448039870148,2.7663679543071322,0.7691630533470046,0.0018245983955797686,-0.0007909561176157865,0.00052518616537252,8.83753934302609e-05,0.0001845353653248073,-0.00022911626829241015,-0.0007285965861483519,0.0,0.0,0.0,0.0,0.0,0.0,0.0,-1.287460326593326e-05,-1.2961986817813798e-05,5.866103475554371e-05,-4.184330698819849e-05,-0.00021028109284804142,-9.129206339464346e-05,-3.439188003540039e-05,-0.0018245983955797686,0.0007909561176157865,-0.00052518616537252,-8.83753934302609e-05,-0.0001845353653248073,0.00022911626829241015,0.0007285965861483519,0.3236324191093445,22.819665908813477,-0.02542426437139511,-14.008821487426758,-0.02226787805557251,-2.1005282402038574,0.40591758489608765,0
36,0.17500019073486328,-0.3236324191093445,-22.819665908813477,0.02542426437139511,14.008821487426758,0.02226787805557251,2.1005282402038574,-0.40591758489608765,0.0,0.0,0.0,0.0,0.0,0.0,0.0,-0.27279695371198104,-0.051868144989262545,-0.03420895752801229,0.13149329053576203,-0.2032035773967827,-0.09185333937486237,-0.4162382605904904,1.6755102293574962,0.05211728881168784,0.02991084407452951,-2.75235300181898,0.03445508507986284,2.766459246370527,0.76919744522704,1.6754973547542302,0.052104326824870026,0.029969505109285054,-2.752394845125968,0.0342448039870148,2.7663679543071322,0.7691630533470046,0.0018245983955797686,-0.0007909561176157865,0.00052518616537252,8.83753934302609e-05,0.0001845353653248073,-0.00022911626829241015,-0.0007285965861483519,0.0,0.0,0.0,0.0,0.0,0.0,0.0,-1.287460326593326e-05,-1.2961986817813798e-05,5.866103475554371e-05,-4.184330698819849e-05,-0.00021028109284804142,-9.129206339464346e-05,-3.439188003540039e-05,-0.0018245983955797686,0.0007909561176157865,-0.00052518616537252,-8.83753934302609e-05,-0.0001845353653248073,0.00022911626829241015,0.0007285965861483519,0.3236324191093445,22.819665908813477,-0.02542426437139511,-14.008821487426758,-0.02226787805557251,-2.1005282402038574,0.40591758489608765,0
37,0.17999792098999023,-0.3236324191093445,-22.819665908813477,0.02542426437139511,14.008821487426758,0.02226787805557251,2.1005282402038574,-0.40591758489608765,0.0,0.0,0.0,0.0,0.0,0.0,0.0,-0.27279695371198104,-0.051868144989262545,-0.03420895752801229,0.13149329053576203,-0.2032035773967827,-0.09185333937486237,-0.4162382605904904,1.6755102293574962,0.05211728881168784,0.02991084407452951,-2.75235300181898,0.03445508507986284,2.766459246370527,0.76919744522704,1.6754973547542302,0.052104326824870026,0.029969505109285054,-2.752394845125968,0.0342448039870148,2.7663679543071322,0.7691630533470046,0.0018245983955797686,-0.0007909561176157865,0.00052518616537252,8.83753934302609e-05,0.0001845353653248073,-0.00022911626829241015,-0.0007285965861483519,0.0,0.0,0.0,0.0,0.0,0.0,0.0,-1.287460326593326e-05,-1.2961986817813798e-05,5.866103475554371e-05,-4.184330698819849e-05,-0.00021028109284804142,-9.129206339464346e-05,-3.439188003540039e-05,-0.0018245983955797686,0.0007909561176157865,-0.00052518616537252,-8.83753934302609e-05,-0.0001845353653248073,0.00022911626829241015,0.0007285965861483519,0.3236324191093445,22.819665908813477,-0.02542426437139511,-14.008821487426758,-0.02226787805557251,-2.1005282402038574,0.40591758489608765,0
38,0.18499422073364258,-0.3236324191093445,-22.819665908813477,0.02542426437139511,14.008821487426758,0.02226787805557251,2.1005282402038574,-0.40591758489608765,0.0,0.0,0.0,0.0,0.0,0.0,0.0,-0.27279695371198104,-0.051868144989262545,-0.03420895752801229,0.13149329053576203,-0.2032035773967827,-0.09185333937486237,-0.4162382605904904,1.6755102293574962,0.05211728881168784,0.02991084407452951,-2.75235300181898,0.03445508507986284,2.766459246370527,0.76919744522704,1.6754973547542302,0.052104326824870026,0.029969505109285054,-2.752394845125968,0.0342448039870148,2.7663679543071322,0.7691630533470046,0.0018245983955797686,-0.0007909561176157865,0.00052518616537252,8.83753934302609e-05,0.0001845353653248073,-0.00022911626829241015,-0.0007285965861483519,0.0,0.0,0.0,0.0,0.0,0.0,0.0,-1.287460326593326e-05,-1.2961986817813798e-05,5.866103475554371e-05,-4.184330698819849e-05,-0.00021028109284804142,-9.129206339464346e-05,-3.439188003540039e-05,-0.0018245983955797686,0.0007909561176157865,-0.00052518616537252,-8.83753934302609e-05,-0.0001845353653248073,0.00022911626829241015,0.0007285965861483519,0.3236324191093445,22.819665908813477,-0.02542426437139511,-14.008821487426758,-0.02226787805557251,-2.1005282402038574,0.40591758489608765,0
39,0.19003963470458984,-0.2998287081718445,-22.895044326782227,0.02542426437139511,14.008821487426758,0.02226787805557251,2.0941195487976074,-0.43979209661483765,0.0,0.0,0.0,0.0,0.0,0.0,0.0,-0.27228676401758145,-0.0547497079168196,-0.03421592455563057,0.12880764916292414,-0.2033296891054939,-0.09229354104919658,-0.4175841881210802,1.6755085589216465,0.0521225785252295,0.02991084407452951,-2.7523530014002615,0.034454573847264344,2.766459945365398,0.7692012076081252,1.6754973547542302,0.052104326824870026,0.029969505109285054,-2.752394845125968,0.0342448039870148,2.7663679543071322,0.7691630533470046,0.0006088904590312024,0.0010130088056697934,0.0004061061240354725,-0.0005727777732896724,0.0002597275001617524,4.520966505886624e-05,0.00037058333908953104,0.0,0.0,0.0,0.0,0.0,0.0,0.0,-1.1204167416289934e-05,-1.8251700359475653e-05,5.866103475554371e-05,-4.184372570659178e-05,-0.00020976986024954375,-9.19910582659611e-05,-3.8154261120526556e-05,-0.0006088904590312024,-0.0010130088056697934,-0.0004061061240354725,0.0005727777732896724,-0.0002597275001617524,-4.520966505886624e-05,-0.00037058333908953104,0.2998287081718445,22.895044326782227,-0.02542426437139511,-14.008821487426758,-0.02226787805557251,-2.0941195487976074,0.43979209661483765,0
40,0.19500041007995605,-0.2998287081718445,-22.895044326782227,0.02542426437139511,14.008821487426758,0.02226787805557251,2.0941195487976074,-0.43979209661483765,0.0,0.0,0.0,0.0,0.0,0.0,0.0,-0.27228676401758145,-0.0547497079168196,-0.03421592455563057,0.12880764916292414,-0.2033296891054939,-0.09229354104919658,-0.4175841881210802,1.6755085589216465,0.0521225785252295,0.02991084407452951,-2.7523530014002615,0.034454573847264344,2.766459945365398,0.7692012076081252,1.6754973547542302,0.052104326824870026,0.029969505109285054,-2.752394845125968,0.0342448039870148,2.7663679543071322,0.7691630533470046,0.0006088904590312024,0.0010130088056697934,0.0004061061240354725,-0.0005727777732896724,0.0002597275001617524,4.520966505886624e-05,0.00037058333908953104,0.0,0.0,0.0,0.0,0.0,0.0,0.0,-1.1204167416289934e-05,-1.8251700359475653e-05,5.866103475554371e-05,-4.184372570659178e-05,-0.00020976986024954375,-9.19910582659611e-05,-3.8154261120526556e-05,-0.0006088904590312024,-0.0010130088056697934,-0.0004061061240354725,0.0005727777732896724,-0.0002597275001617524,-4.520966505886624e-05,-0.00037058333908953104,0.2998287081718445,22.895044326782227,-0.02542426437139511,-14.008821487426758,-0.02226787805557251,-2.0941195487976074,0.43979209661483765,0
41,0.19999194145202637,-0.2998287081718445,-22.847436904907227,0.07303168624639511,14.008821487426758,0.03416973352432251,2.0877108573913574,-0.44711631536483765,0.0,0.0,0.0,0.0,0.0,0.0,0.0,-0.2756918756040173,-0.04960677972424188,-0.036963699957857046,0.12781532343162402,-0.2035475400047363,-0.092416795813029,-0.4193515586333092,1.6755085588853078,0.05211923765351898,0.029907503202818986,-2.7523537435991656,0.03445325038832961,2.7664606705240993,0.7692020228637506,1.6754973547542302,0.052104326824870026,0.029969505109285054,-2.752394845125968,0.0342448039870148,2.7663679543071322,0.7691630533470046,-0.0002782125137853999,0.00032923004603173936,-0.0007398614673333391,-0.00020512565309512427,-0.00017751028068015772,0.00030903020359403097,0.001232322240366094,0.0,0.0,0.0,0.0,0.0,0.0,0.0,-1.1204131077580115e-05,-1.4910828648954932e-05,6.20019064660679e-05,-4.110152680247836e-05,-0.0002084464013148088,-9.271621696704813e-05,-3.896951674597915e-05,0.0002782125137853999,-0.00032923004603173936,0.0007398614673333391,0.00020512565309512427,0.00017751028068015772,-0.00030903020359403097,-0.001232322240366094,0.2998287081718445,22.847436904907227,-0.07303168624639511,-14.008821487426758,-0.03416973352432251,-2.0877108573913574,0.44711631536483765,0
42,0.20499205589294434,-0.2998287081718445,-22.847436904907227,0.07303168624639511,14.008821487426758,0.03416973352432251,2.0877108573913574,-0.44711631536483765,0.0,0.0,0.0,0.0,0.0,0.0,0.0,-0.2756918756040173,-0.04960677972424188,-0.036963699957857046,0.12781532343162402,-0.2035475400047363,-0.092416795813029,-0.4193515586333092,1.6755085588853078,0.05211923765351898,0.029907503202818986,-2.7523537435991656,0.03445325038832961,2.7664606705240993,0.7692020228637506,1.6754973547542302,0.052104326824870026,0.029969505109285054,-2.752394845125968,0.0342448039870148,2.7663679543071322,0.7691630533470046,-0.0002782125137853999,0.00032923004603173936,-0.0007398614673333391,-0.00020512565309512427,-0.00017751028068015772,0.00030903020359403097,0.001232322240366094,0.0,0.0,0.0,0.0,0.0,0.0,0.0,-1.1204131077580115e-05,-1.4910828648954932e-05,6.20019064660679e-05,-4.110152680247836e-05,-0.0002084464013148088,-9.271621696704813e-05,-3.896951674597915e-05,0.0002782125137853999,-0.00032923004603173936,0.0007398614673333391,0.00020512565309512427,0.00017751028068015772,-0.00030903020359403097,-0.001232322240366094,0.2998287081718445,22.847436904907227,-0.07303168624639511,-14.008821487426758,-0.03416973352432251,-2.0877108573913574,0.44711631536483765,0
43,0.21000242233276367,-0.2998287081718445,-22.847436904907227,0.04922797530889511,14.008821487426758,0.03416973352432251,2.0941195487976074,-0.38577598333358765,0.0,0.0,0.0,0.0,0.0,0.0,0.0,-0.2744356583767835,-0.05254996807096137,-0.030740171991750675,0.12950235565569365,-0.20402727998845777,-0.09156532079016291,-0.4200887373169446,1.6755085589216463,0.05211923765351898,0.029909173638674246,-2.7523537161312555,0.03445435393654054,2.7664588595095294,0.7691952072713109,1.6754973547542302,0.052104326824870026,0.029969505109285054,-2.752394845125968,0.0342448039870148,2.7663679543071322,0.7691630533470046,0.0004055451655610454,0.000275922628255232,0.0001617649530201724,-0.0003792450832295526,-0.0001872831682523298,0.00015584275198488729,-0.0011477589210773808,0.0,0.0,0.0,0.0,0.0,0.0,0.0,-1.120416741606789e-05,-1.4910828648954932e-05,6.033147061080754e-05,-4.112899471264697e-05,-0.00020954994952573913,-9.090520239718458e-05,-3.215392430622188e-05,-0.0004055451655610454,-0.000275922628255232,-0.0001617649530201724,0.0003792450832295526,0.0001872831682523298,-0.00015584275198488729,0.0011477589210773808,0.2998287081718445,22.847436904907227,-0.04922797530889511,-14.008821487426758,-0.03416973352432251,-2.0941195487976074,0.38577598333358765,0
44,0.21503996849060059,-0.2998287081718445,-22.847436904907227,0.04922797530889511,14.008821487426758,0.03416973352432251,2.0941195487976074,-0.38577598333358765,0.0,0.0,0.0,0.0,0.0,0.0,0.0,-0.2744356583767835,-0.05254996807096137,-0.030740171991750675,0.12950235565569365,-0.20402727998845777,-0.09156532079016291,-0.4200887373169446,1.6755085589216463,0.05211923765351898,0.029909173638674246,-2.7523537161312555,0.03445435393654054,2.7664588595095294,0.7691952072713109,1.6754973547542302,0.052104326824870026,0.029969505109285054,-2.752394845125968,0.0342448039870148,2.7663679543071322,0.7691630533470046,0.0004055451655610454,0.000275922628255232,0.0001617649530201724,-0.0003792450832295526,-0.0001872831682523298,0.00015584275198488729,-0.0011477589210773808,0.0,0.0,0.0,0.0,0.0,0.0,0.0,-1.120416741606789e-05,-1.4910828648954932e-05,6.033147061080754e-05,-4.112899471264697e-05,-0.00020954994952573913,-9.090520239718458e-05,-3.215392430622188e-05,-0.0004055451655610454,-0.000275922628255232,-0.0001617649530201724,0.0003792450832295526,0.0001872831682523298,-0.00015584275198488729,0.0011477589210773808,0.2998287081718445,22.847436904907227,-0.04922797530889511,-14.008821487426758,-0.03416973352432251,-2.0941195487976074,0.38577598333358765,0
45,0.2200179100036621,-0.3236324191093445,-22.847436904907227,0.04922797530889511,14.032625198364258,0.02867656946182251,2.0941195487976074,-0.43979209661483765,0.0,0.0,0.0,0.0,0.0,0.0,0.0,-0.2763490567496717,-0.05669132212579356,-0.029830808273230938,0.1314164034915967,-0.20390993476415983,-0.09074795390530185,-0.4194054414397283,1.6755102293575017,0.05211923765351898,0.029909173638674246,-2.7523546719528924,0.03445710682269987,2.7664599584287397,0.7692012090616754,1.6754973547542302,0.052104326824870026,0.029969505109285054,-2.752394845125968,0.0342448039870148,2.7663679543071322,0.7691630533470046,0.0014689364283882258,-0.0006092273445300257,0.00039655953498451366,-0.0006531212795689432,7.379943068611854e-05,0.00018650710279476975,0.0010597096748476212,0.0,0.0,0.0,0.0,0.0,0.0,0.0,-1.2874603271484375e-05,-1.4910828648954932e-05,6.033147061080754e-05,-4.017317307569712e-05,-0.0002123028356850673,-9.200412160748073e-05,-3.8155714670806695e-05,-0.0014689364283882258,0.0006092273445300257,-0.00039655953498451366,0.0006531212795689432,-7.379943068611854e-05,-0.00018650710279476975,-0.0010597096748476212,0.3236324191093445,22.847436904907227,-0.04922797530889511,-14.032625198364258,-0.02867656946182251,-2.0941195487976074,0.43979209661483765,0
46,0.22502350807189941,-0.3236324191093445,-22.847436904907227,0.04922797530889511,14.032625198364258,0.02867656946182251,2.0941195487976074,-0.43979209661483765,0.0,0.0,0.0,0.0,0.0,0.0,0.0,-0.2763490567496717,-0.05669132212579356,-0.029830808273230938,0.1314164034915967,-0.20390993476415983,-0.09074795390530185,-0.4194054414397283,1.6755102293575017,0.05211923765351898,0.029909173638674246,-2.7523546719528924,0.03445710682269987,2.7664599584287397,0.7692012090616754,1.6754973547542302,0.052104326824870026,0.029969505109285054,-2.752394845125968,0.0342448039870148,2.7663679543071322,0.7691630533470046,0.0014689364283882258,-0.0006092273445300257,0.00039655953498451366,-0.0006531212795689432,7.379943068611854e-05,0.00018650710279476975,0.0010597096748476212,0.0,0.0,0.0,0.0,0.0,0.0,0.0,-1.2874603271484375e-05,-1.4910828648954932e-05,6.033147061080754e-05,-4.017317307569712e-05,-0.0002123028356850673,-9.200412160748073e-05,-3.8155714670806695e-05,-0.0014689364283882258,0.0006092273445300257,-0.00039655953498451366,0.0006531212795689432,-7.379943068611854e-05,-0.00018650710279476975,-0.0010597096748476212,0.3236324191093445,22.847436904907227,-0.04922797530889511,-14.032625198364258,-0.02867656946182251,-2.0941195487976074,0.43979209661483765,0
47,0.23001837730407715,-0.2998287081718445,-22.895044326782227,0.02542426437139511,14.008821487426758,0.02226787805557251,2.0941195487976074,-0.43338340520858765,0.0,0.0,0.0,0.0,0.0,0.0,0.0,-0.27898134226517335,-0.047887970917654114,-0.032713317295536525,0.12680067726506658,-0.2033947058238187,-0.09166386594005392,-0.4180412597409359,1.6755083205030674,0.0521225785252295,0.02991084407452951,-2.7523530018427067,0.0344545854793014,2.76645995844735,0.7692004969848526,1.6754973547542302,0.052104326824870026,0.029969505109285054,-2.752394845125968,0.0342448039870148,2.7663679543071322,0.7691630533470046,0.0008835121762202027,0.001397365938946438,0.000619030055971147,2.6392079120366516e-05,0.00029435276480913985,-0.00010323804988107516,0.0009804085719324496,0.0,0.0,0.0,0.0,0.0,0.0,0.0,-1.0965748837188372e-05,-1.8251700359475653e-05,5.866103475554371e-05,-4.184328326140019e-05,-0.00020978149228659954,-9.200414021792724e-05,-3.7443637847967004e-05,-0.0008835121762202027,-0.001397365938946438,-0.000619030055971147,-2.6392079120366516e-05,-0.00029435276480913985,0.00010323804988107516,-0.0009804085719324496,0.2998287081718445,22.895044326782227,-0.02542426437139511,-14.008821487426758,-0.02226787805557251,-2.0941195487976074,0.43338340520858765,0
48,0.23503899574279785,-0.2998287081718445,-22.895044326782227,0.02542426437139511,14.008821487426758,0.02226787805557251,2.0941195487976074,-0.43338340520858765,0.0,0.0,0.0,0.0,0.0,0.0,0.0,-0.27898134226517335,-0.047887970917654114,-0.032713317295536525,0.12680067726506658,-0.2033947058238187,-0.09166386594005392,-0.4180412597409359,1.6755083205030674,0.0521225785252295,0.02991084407452951,-2.7523530018427067,0.0344545854793014,2.76645995844735,0.7692004969848526,1.6754973547542302,0.052104326824870026,0.029969505109285054,-2.752394845125968,0.0342448039870148,2.7663679543071322,0.7691630533470046,0.0008835121762202027,0.001397365938946438,0.000619030055971147,2.6392079120366516e-05,0.00029435276480913985,-0.00010323804988107516,0.0009804085719324496,0.0,0.0,0.0,0.0,0.0,0.0,0.0,-1.0965748837188372e-05,-1.8251700359475653e-05,5.866103475554371e-05,-4.184328326140019e-05,-0.00020978149228659954,-9.200414021792724e-05,-3.7443637847967004e-05,-0.0008835121762202027,-0.001397365938946438,-0.000619030055971147,-2.6392079120366516e-05,-0.00029435276480913985,0.00010323804988107516,-0.0009804085719324496,0.2998287081718445,22.895044326782227,-0.02542426437139511,-14.008821487426758,-0.02226787805557251,-2.0941195487976074,0.43338340520858765,0
49,0.23503899574279785,-0.2998287081718445,-22.895044326782227,0.02542426437139511,14.008821487426758,0.02226787805557251,2.0941195487976074,-0.43338340520858765,0.0,0.0,0.0,0.0,0.0,0.0,0.0,-0.27898134226517335,-0.047887970917654114,-0.032713317295536525,0.12680067726506658,-0.2033947058238187,-0.09166386594005392,-0.4180412597409359,1.6755083205030674,0.0521225785252295,0.02991084407452951,-2.7523530018427067,0.0344545854793014,2.76645995844735,0.7692004969848526,1.6754973547542302,0.052104326824870026,0.029969505109285054,-2.752394845125968,0.0342448039870148,2.7663679543071322,0.7691630533470046,0.0008835121762202027,0.001397365938946438,0.000619030055971147,2.6392079120366516e-05,0.00029435276480913985,-0.00010323804988107516,0.0009804085719324496,0.0,0.0,0.0,0.0,0.0,0.0,0.0,-1.0965748837188372e-05,-1.8251700359475653e-05,5.866103475554371e-05,-4.184328326140019e-05,-0.00020978149228659954,-9.200414021792724e-05,-3.7443637847967004e-05,-0.0008835121762202027,-0.001397365938946438,-0.000619030055971147,-2.6392079120366516e-05,-0.00029435276480913985,0.00010323804988107516,-0.0009804085719324496,0.2998287081718445,22.895044326782227,-0.02542426437139511,-14.008821487426758,-0.02226787805557251,-2.0941195487976074,0.43338340520858765,0
50,0.2450118064880371,-0.2720577120780945,-22.847436904907227,0.04922797530889511,13.981050491333008,0.01677471399307251,2.1005282402038574,-0.38577598333358765,0.0,0.0,0.0,0.0,0.0,0.0,0.0,-0.2766051732637126,-0.044786452022153624,-0.030956620319449856,0.12370256695672549,-0.2034088299850868,-0.09245335671102664,-0.41677407807167866,1.6755066100784695,0.05211923765351898,0.029909173638674246,-2.752351794719652,0.03445518852301032,2.766459246370527,0.7691952072713109,1.6754973547542302,0.052104326824870026,0.029969505109285054,-2.752394845125968,0.0342448039870148,2.7663679543071322,0.7691630533470046,0.00020729732439076444,0.0007457607190083165,0.0003462377374386064,0.00035719100632897606,0.0005428603771402067,-0.00013734460981651883,-0.0009664647795224742,0.0,0.0,0.0,0.0,0.0,0.0,0.0,-9.255324239232365e-06,-1.4910828648954932e-05,6.033147061080754e-05,-4.305040631624735e-05,-0.00021038453599551976,-9.129206339464346e-05,-3.215392430622188e-05,-0.00020729732439076444,-0.0007457607190083165,-0.0003462377374386064,-0.00035719100632897606,-0.0005428603771402067,0.00013734460981651883,0.0009664647795224742,0.2720577120780945,22.847436904907227,-0.04922797530889511,-13.981050491333008,-0.01677471399307251,-2.1005282402038574,0.38577598333358765,0
51,0.24998998641967773,-0.2720577120780945,-22.847436904907227,0.04922797530889511,13.981050491333008,0.01677471399307251,2.1005282402038574,-0.38577598333358765,0.0,0.0,0.0,0.0,0.0,0.0,0.0,-0.2766051732637126,-0.044786452022153624,-0.030956620319449856,0.12370256695672549,-0.2034088299850868,-0.09245335671102664,-0.41677407807167866,1.6755066100784695,0.05211923765351898,0.029909173638674246,-2.752351794719652,0.03445518852301032,2.766459246370527,0.7691952072713109,1.6754973547542302,0.052104326824870026,0.029969505109285054,-2.752394845125968,0.0342448039870148,2.7663679543071322,0.7691630533470046,0.00020729732439076444,0.0007457607190083165,0.0003462377374386064,0.00035719100632897606,0.0005428603771402067,-0.00013734460981651883,-0.0009664647795224742,0.0,0.0,0.0,0.0,0.0,0.0,0.0,-9.255324239232365e-06,-1.4910828648954932e-05,6.033147061080754e-05,-4.305040631624735e-05,-0.00021038453599551976,-9.129206339464346e-05,-3.215392430622188e-05,-0.00020729732439076444,-0.0007457607190083165,-0.0003462377374386064,-0.00035719100632897606,-0.0005428603771402067,0.00013734460981651883,0.0009664647795224742,0.2720577120780945,22.847436904907227,-0.04922797530889511,-13.981050491333008,-0.01677471399307251,-2.1005282402038574,0.38577598333358765,0
52,0.2549920082092285,-0.2998287081718445,-22.847436904907227,0.02542426437139511,14.008821487426758,0.02867656946182251,2.1005282402038574,-0.42605918645858765,0.0,0.0,0.0,0.0,0.0,0.0,0.0,-0.28068740580065643,-0.05287447426926963,-0.03679824904817745,0.12925757971829446,-0.20271183743855498,-0.0906973087277225,-0.4150649202576714,1.6755082940121142,0.05211923765351898,0.02991084407452951,-2.7523537344459883,0.03445389968295019,2.766459246370527,0.7691996831827692,1.6754973547542302,0.052104326824870026,0.029969505109285054,-2.752394845125968,0.0342448039870148,2.7663679543071322,0.7691630533470046,0.000525473914125458,-0.00022838958863293592,6.111830774217572e-05,-0.00019448427817854317,4.5423250213145825e-05,-0.00021433821497070032,0.0005131154360195701,0.0,0.0,0.0,0.0,0.0,0.0,0.0,-1.0939257883979536e-05,-1.4910828648954932e-05,5.866103475554371e-05,-4.111067997980555e-05,-0.00020909569593539207,-9.129206339464346e-05,-3.66298357645789e-05,-0.000525473914125458,0.00022838958863293592,-6.111830774217572e-05,0.00019448427817854317,-4.5423250213145825e-05,0.00021433821497070032,-0.0005131154360195701,0.2998287081718445,22.847436904907227,-0.02542426437139511,-14.008821487426758,-0.02867656946182251,-2.1005282402038574,0.42605918645858765,0
53,0.2599949836730957,-0.2998287081718445,-22.847436904907227,0.02542426437139511,14.008821487426758,0.02867656946182251,2.1005282402038574,-0.42605918645858765,0.0,0.0,0.0,0.0,0.0,0.0,0.0,-0.28068740580065643,-0.05287447426926963,-0.03679824904817745,0.12925757971829446,-0.20271183743855498,-0.0906973087277225,-0.4150649202576714,1.6755082940121142,0.05211923765351898,0.02991084407452951,-2.7523537344459883,0.03445389968295019,2.766459246370527,0.7691996831827692,1.6754973547542302,0.052104326824870026,0.029969505109285054,-2.752394845125968,0.0342448039870148,2.7663679543071322,0.7691630533470046,0.000525473914125458,-0.00022838958863293592,6.111830774217572e-05,-0.00019448427817854317,4.5423250213145825e-05,-0.00021433821497070032,0.0005131154360195701,0.0,0.0,0.0,0.0,0.0,0.0,0.0,-1.0939257883979536e-05,-1.4910828648954932e-05,5.866103475554371e-05,-4.111067997980555e-05,-0.00020909569593539207,-9.129206339464346e-05,-3.66298357645789e-05,-0.000525473914125458,0.00022838958863293592,-6.111830774217572e-05,0.00019448427817854317,-4.5423250213145825e-05,0.00021433821497070032,-0.0005131154360195701,0.2998287081718445,22.847436904907227,-0.02542426437139511,-14.008821487426758,-0.02867656946182251,-2.1005282402038574,0.42605918645858765,0
54,0.26501011848449707,-0.2720577120780945,-22.895044326782227,0.04922797530889511,14.008821487426758,0.02226787805557251,2.0813021659851074,-0.40591758489608765,0.0,0.0,0.0,0.0,0.0,0.0,0.0,-0.2760090867072663,-0.04842674463895925,-0.036162474268978784,0.12565354025052375,-0.20316898887023482,-0.09124909507895086,-0.4132305749807709,1.6755066100793168,0.0521225785252295,0.029909173638674246,-2.752353743603338,0.034454578171447786,2.766458203686608,0.76919744522704,1.6754973547542302,0.052104326824870026,0.029969505109285054,-2.752394845125968,0.0342448039870148,2.7663679543071322,0.7691630533470046,-6.784799930948419e-05,0.0012873605865456376,-0.00017630047639461907,-0.0003130334222088483,0.00030914972428992615,0.00033181785772740764,-0.00021907531142499687,0.0,0.0,0.0,0.0,0.0,0.0,0.0,-9.255325086554578e-06,-1.8251700359475653e-05,6.033147061080754e-05,-4.1101522630260234e-05,-0.00020977418443298562,-9.024937947588185e-05,-3.439188003540039e-05,6.784799930948419e-05,-0.0012873605865456376,0.00017630047639461907,0.0003130334222088483,-0.00030914972428992615,-0.00033181785772740764,0.00021907531142499687,0.2720577120780945,22.895044326782227,-0.04922797530889511,-14.008821487426758,-0.02226787805557251,-2.0813021659851074,0.40591758489608765,0
55,0.2700340747833252,-0.2720577120780945,-22.895044326782227,0.04922797530889511,14.008821487426758,0.02226787805557251,2.0813021659851074,-0.40591758489608765,0.0,0.0,0.0,0.0,0.0,0.0,0.0,-0.2760090867072663,-0.04842674463895925,-0.036162474268978784,0.12565354025052375,-0.20316898887023482,-0.09124909507895086,-0.4132305749807709,1.6755066100793168,0.0521225785252295,0.029909173638674246,-2.752353743603338,0.034454578171447786,2.766458203686608,0.76919744522704,1.6754973547542302,0.052104326824870026,0.029969505109285054,-2.752394845125968,0.0342448039870148,2.7663679543071322,0.7691630533470046,-6.784799930948419e-05,0.0012873605865456376,-0.00017630047639461907,-0.0003130334222088483,0.00030914972428992615,0.00033181785772740764,-0.00021907531142499687,0.0,0.0,0.0,0.0,0.0,0.0,0.0,-9.255325086554578e-06,-1.8251700359475653e-05,6.033147061080754e-05,-4.1101522630260234e-05,-0.00020977418443298562,-9.024937947588185e-05,-3.439188003540039e-05,6.784799930948419e-05,-0.0012873605865456376,0.00017630047639461907,0.0003130334222088483,-0.00030914972428992615,-0.00033181785772740764,0.00021907531142499687,0.2720577120780945,22.895044326782227,-0.04922797530889511,-14.008821487426758,-0.02226787805557251,-2.0813021659851074,0.40591758489608765,0
56,0.27506303787231445,-0.2998287081718445,-22.847436904907227,0.02542426437139511,14.008821487426758,0.03416973352432251,2.0877108573913574,-0.44711631536483765,0.0,0.0,0.0,0.0,0.0,0.0,0.0,-0.27461539489940506,-0.04613016700215856,-0.03428446652996413,0.12640814798867545,-0.2033321115032804,-0.09175605758914593,-0.4117932535834874,1.6755085589216465,0.05211923765351898,0.02991084407452951,-2.7523530018566644,0.034454432958454614,2.7664606705181916,0.7692020228637588,1.6754973547542302,0.052104326824870026,0.029969505109285054,-2.752394845125968,0.0342448039870148,2.7663679543071322,0.7691630533470046,0.0008098164151408611,0.0003023961140838746,0.0003373692213795512,9.068008269584303e-05,-0.0001809846373324213,0.0002030236200298485,0.0013020140534834908,0.0,0.0,0.0,0.0,0.0,0.0,0.0,-1.1204167416289934e-05,-1.4910828648954932e-05,5.866103475554371e-05,-4.184326930367632e-05,-0.0002096289714398139,-9.271621105932937e-05,-3.89695167541948e-05,-0.0008098164151408611,-0.0003023961140838746,-0.0003373692213795512,-9.068008269584303e-05,0.0001809846373324213,-0.0002030236200298485,-0.0013020140534834908,0.2998287081718445,22.847436904907227,-0.02542426437139511,-14.008821487426758,-0.03416973352432251,-2.0877108573913574,0.44711631536483765,0
57,0.27999353408813477,-0.2998287081718445,-22.847436904907227,0.02542426437139511,14.008821487426758,0.03416973352432251,2.0877108573913574,-0.44711631536483765,0.0,0.0,0.0,0.0,0.0,0.0,0.0,-0.27461539489940506,-0.04613016700215856,-0.03428446652996413,0.12640814798867545,-0.2033321115032804,-0.09175605758914593,-0.4117932535834874,1.6755085589216465,0.05211923765351898,0.02991084407452951,-2.7523530018566644,0.034454432958454614,2.7664606705181916,0.7692020228637588,1.6754973547542302,0.052104326824870026,0.029969505109285054,-2.752394845125968,0.0342448039870148,2.7663679543071322,0.7691630533470046,0.0008098164151408611,0.0003023961140838746,0.0003373692213795512,9.068008269584303e-05,-0.0001809846373324213,0.0002030236200298485,0.0013020140534834908,0.0,0.0,0.0,0.0,0.0,0.0,0.0,-1.1204167416289934e-05,-1.4910828648954932e-05,5.866103475554371e-05,-4.184326930367632e-05,-0.0002096289714398139,-9.271621105932937e-05,-3.89695167541948e-05,-0.0008098164151408611,-0.0003023961140838746,-0.0003373692213795512,-9.068008269584303e-05,0.0001809846373324213,-0.0002030236200298485,-0.0013020140534834908,0.2998287081718445,22.847436904907227,-0.02542426437139511,-14.008821487426758,-0.03416973352432251,-2.0877108573913574,0.44711631536483765,0
58,0.28499364852905273,-0.2998287081718445,-22.847436904907227,0.07303168624639511,14.008821487426758,0.03416973352432251,2.0941195487976074,-0.44711631536483765,0.0,0.0,0.0,0.0,0.0,0.0,0.0,-0.27665994473811223,-0.0528408822633072,-0.03593261522738509,0.13572486670128292,-0.20327499275924404,-0.09099483749755759,-0.4126364399769974,1.675508558558259,0.05211923765351898,0.029907503202818986,-2.752353743599168,0.034453408114285815,2.766459945365398,0.7692020228637588,1.6754973547542302,0.052104326824870026,0.029969505109285054,-2.752394845125968,0.0342448039870148,2.7663679543071322,0.7691630533470046,0.00041565646219216966,-3.037532868443433e-05,-0.0004843579963775042,0.000624565715857039,-0.00037321066240488443,-0.00013658554114180665,0.001407013671446612,0.0,0.0,0.0,0.0,0.0,0.0,0.0,-1.1203804028747655e-05,-1.4910828648954932e-05,6.20019064660679e-05,-4.1101526800257915e-05,-0.0002086041272710143,-9.19910582659611e-05,-3.89695167541948e-05,-0.00041565646219216966,3.037532868443433e-05,0.0004843579963775042,-0.000624565715857039,0.00037321066240488443,0.00013658554114180665,-0.001407013671446612,0.2998287081718445,22.847436904907227,-0.07303168624639511,-14.008821487426758,-0.03416973352432251,-2.0941195487976074,0.44711631536483765,0
59,0.29000258445739746,-0.2998287081718445,-22.847436904907227,0.07303168624639511,14.008821487426758,0.03416973352432251,2.0941195487976074,-0.44711631536483765,0.0,0.0,0.0,0.0,0.0,0.0,0.0,-0.27665994473811223,-0.0528408822633072,-0.03593261522738509,0.13572486670128292,-0.20327499275924404,-0.09099483749755759,-0.4126364399769974,1.675508558558259,0.05211923765351898,0.029907503202818986,-2.752353743599168,0.034453408114285815,2.766459945365398,0.7692020228637588,1.6754973547542302,0.052104326824870026,0.029969505109285054,-2.752394845125968,0.0342448039870148,2.7663679543071322,0.7691630533470046,0.00041565646219216966,-3.037532868443433e-05,-0.0004843579963775042,0.000624565715857039,-0.00037321066240488443,-0.00013658554114180665,0.001407013671446612,0.0,0.0,0.0,0.0,0.0,0.0,0.0,-1.1203804028747655e-05,-1.4910828648954932e-05,6.20019064660679e-05,-4.1101526800257915e-05,-0.0002086041272710143,-9.19910582659611e-05,-3.89695167541948e-05,-0.00041565646219216966,3.037532868443433e-05,0.0004843579963775042,-0.000624565715857039,0.00037321066240488443,0.00013658554114180665,-0.001407013671446612,0.2998287081718445,22.847436904907227,-0.07303168624639511,-14.008821487426758,-0.03416973352432251,-2.0941195487976074,0.44711631536483765,0
60,0.29500603675842285,-0.2720577120780945,-22.847436904907227,0.02542426437139511,14.008821487426758,0.02867656946182251,2.0941195487976074,-0.37204307317733765,0.0,0.0,0.0,0.0,0.0,0.0,0.0,-0.27525544120123224,-0.04634307191667477,-0.03202502474124843,0.1304987247665345,-0.20426492749207775,-0.09258044988909511,-0.4139205565806716,1.6755065304979373,0.05211923765351898,0.02991084407452951,-2.7523537405508995,0.03445492485917181,2.7664599584472764,0.7691936813924046,1.6754973547542302,0.052104326824870026,0.029969505109285054,-2.752394845125968,0.0342448039870148,2.7663679543071322,0.7691630533470046,-0.00011291602560874065,-0.00012036244363765656,0.0007045385394470808,-0.0004283306313434741,8.267264171469066e-05,9.932330336159094e-05,-0.0015456311528883983,0.0,0.0,0.0,0.0,0.0,0.0,0.0,-9.175743707068307e-06,-1.4910828648954932e-05,5.866103475554371e-05,-4.1104575068562355e-05,-0.00021012087215700748,-9.200414014420844e-05,-3.0628045399994086e-05,0.00011291602560874065,0.00012036244363765656,-0.0007045385394470808,0.0004283306313434741,-8.267264171469066e-05,-9.932330336159094e-05,0.0015456311528883983,0.2720577120780945,22.847436904907227,-0.02542426437139511,-14.008821487426758,-0.02867656946182251,-2.0941195487976074,0.37204307317733765,0
61,0.3000061511993408,-0.2720577120780945,-22.847436904907227,0.02542426437139511,14.008821487426758,0.02867656946182251,2.0941195487976074,-0.37204307317733765,0.0,0.0,0.0,0.0,0.0,0.0,0.0,-0.27525544120123224,-0.04634307191667477,-0.03202502474124843,0.1304987247665345,-0.20426492749207775,-0.09258044988909511,-0.4139205565806716,1.6755065304979373,0.05211923765351898,0.02991084407452951,-2.7523537405508995,0.03445492485917181,2.7664599584472764,0.7691936813924046,1.6754973547542302,0.052104326824870026,0.029969505109285054,-2.752394845125968,0.0342448039870148,2.7663679543071322,0.7691630533470046,-0.00011291602560874065,-0.00012036244363765656,0.0007045385394470808,-0.0004283306313434741,8.267264171469066e-05,9.932330336159094e-05,-0.0015456311528883983,0.0,0.0,0.0,0.0,0.0,0.0,0.0,-9.175743707068307e-06,-1.4910828648954932e-05,5.866103475554371e-05,-4.1104575068562355e-05,-0.00021012087215700748,-9.200414014420844e-05,-3.0628045399994086e-05,0.00011291602560874065,0.00012036244363765656,-0.0007045385394470808,0.0004283306313434741,-8.267264171469066e-05,-9.932330336159094e-05,0.0015456311528883983,0.2720577120780945,22.847436904907227,-0.02542426437139511,-14.008821487426758,-0.02867656946182251,-2.0941195487976074,0.37204307317733765,0
62,0.3050072193145752,-0.2720577120780945,-22.847436904907227,0.02542426437139511,14.008821487426758,0.02867656946182251,2.0941195487976074,-0.37204307317733765,0.0,0.0,0.0,0.0,0.0,0.0,0.0,-0.27525544120123224,-0.04634307191667477,-0.03202502474124843,0.1304987247665345,-0.20426492749207775,-0.09258044988909511,-0.4139205565806716,1.6755065304979373,0.05211923765351898,0.02991084407452951,-2.7523537405508995,0.03445492485917181,2.7664599584472764,0.7691936813924046,1.6754973547542302,0.052104326824870026,0.029969505109285054,-2.752394845125968,0.0342448039870148,2.7663679543071322,0.7691630533470046,-0.00011291602560874065,-0.00012036244363765656,0.0007045385394470808,-0.0004283306313434741,8.267264171469066e-05,9.932330336159094e-05,-0.0015456311528883983,0.0,0.0,0.0,0.0,0.0,0.0,0.0,-9.175743707068307e-06,-1.4910828648954932e-05,5.866103475554371e-05,-4.1104575068562355e-05,-0.00021012087215700748,-9.200414014420844e-05,-3.0628045399994086e-05,0.00011291602560874065,0.00012036244363765656,-0.0007045385394470808,0.0004283306313434741,-8.267264171469066e-05,-9.932330336159094e-05,0.0015456311528883983,0.2720577120780945,22.847436904907227,-0.02542426437139511,-14.008821487426758,-0.02867656946182251,-2.0941195487976074,0.37204307317733765,0
63,0.31000351905822754,-0.2720577120780945,-22.847436904907227,0.02542426437139511,14.008821487426758,0.02867656946182251,2.0941195487976074,-0.37204307317733765,0.0,0.0,0.0,0.0,0.0,0.0,0.0,-0.27525544120123224,-0.04634307191667477,-0.03202502474124843,0.1304987247665345,-0.20426492749207775,-0.09258044988909511,-0.4139205565806716,1.6755065304979373,0.05211923765351898,0.02991084407452951,-2.7523537405508995,0.03445492485917181,2.7664599584472764,0.7691936813924046,1.6754973547542302,0.052104326824870026,0.029969505109285054,-2.752394845125968,0.0342448039870148,2.7663679543071322,0.7691630533470046,-0.00011291602560874065,-0.00012036244363765656,0.0007045385394470808,-0.0004283306313434741,8.267264171469066e-05,9.932330336159094e-05,-0.0015456311528883983,0.0,0.0,0.0,0.0,0.0,0.0,0.0,-9.175743707068307e-06,-1.4910828648954932e-05,5.866103475554371e-05,-4.1104575068562355e-05,-0.00021012087215700748,-9.200414014420844e-05,-3.0628045399994086e-05,0.00011291602560874065,0.00012036244363765656,-0.0007045385394470808,0.0004283306313434741,-8.267264171469066e-05,-9.932330336159094e-05,0.0015456311528883983,0.2720577120780945,22.847436904907227,-0.02542426437139511,-14.008821487426758,-0.02867656946182251,-2.0941195487976074,0.37204307317733765,0
64,0.31501197814941406,-0.2998287081718445,-22.847436904907227,0.001620553433895111,14.008821487426758,0.02867656946182251,2.1005282402038574,-0.38577598333358765,0.0,0.0,0.0,0.0,0.0,0.0,0.0,-0.2818683912283672,-0.0454403364409729,-0.036608478851048676,0.13366720142052516,-0.20382949993021618,-0.09195402042901117,-0.4144942810126057,1.6755085589095169,0.05211923765351898,0.029912514510384774,-2.7523537436028898,0.03445389984517999,2.7664592071246705,0.7691952072713109,1.6754973547542302,0.052104326824870026,0.029969505109285054,-2.752394845125968,0.0342448039870148,2.7663679543071322,0.7691630533470046,0.00026101552759579395,0.0001632553066530544,0.0012600124739258344,-0.00028187952825491666,-0.00010198802330567586,-0.00023478588141033116,-0.0014068460588029413,0.0,0.0,0.0,0.0,0.0,0.0,0.0,-1.12041552866593e-05,-1.4910828648954932e-05,5.699059890027988e-05,-4.110152307834625e-05,-0.0002090958581651911,-9.125281753830095e-05,-3.215392430622188e-05,-0.00026101552759579395,-0.0001632553066530544,-0.0012600124739258344,0.00028187952825491666,0.00010198802330567586,0.00023478588141033116,0.0014068460588029413,0.2998287081718445,22.847436904907227,-0.001620553433895111,-14.008821487426758,-0.02867656946182251,-2.1005282402038574,0.38577598333358765,0
65,0.32004213333129883,-0.2998287081718445,-22.847436904907227,0.001620553433895111,14.008821487426758,0.02867656946182251,2.1005282402038574,-0.38577598333358765,0.0,0.0,0.0,0.0,0.0,0.0,0.0,-0.2818683912283672,-0.0454403364409729,-0.036608478851048676,0.13366720142052516,-0.20382949993021618,-0.09195402042901117,-0.4144942810126057,1.6755085589095169,0.05211923765351898,0.029912514510384774,-2.7523537436028898,0.03445389984517999,2.7664592071246705,0.7691952072713109,1.6754973547542302,0.052104326824870026,0.029969505109285054,-2.752394845125968,0.0342448039870148,2.7663679543071322,0.7691630533470046,0.00026101552759579395,0.0001632553066530544,0.0012600124739258344,-0.00028187952825491666,-0.00010198802330567586,-0.00023478588141033116,-0.0014068460588029413,0.0,0.0,0.0,0.0,0.0,0.0,0.0,-1.12041552866593e-05,-1.4910828648954932e-05,5.699059890027988e-05,-4.110152307834625e-05,-0.0002090958581651911,-9.125281753830095e-05,-3.215392430622188e-05,-0.00026101552759579395,-0.0001632553066530544,-0.0012600124739258344,0.00028187952825491666,0.00010198802330567586,0.00023478588141033116,0.0014068460588029413,0.2998287081718445,22.847436904907227,-0.001620553433895111,-14.008821487426758,-0.02867656946182251,-2.1005282402038574,0.38577598333358765,0
66,0.32506513595581055,-0.2720577120780945,-22.918848037719727,0.04922797530889511,14.032625198364258,0.02867656946182251,2.0941195487976074,-0.42605918645858765,0.0,0.0,0.0,0.0,0.0,0.0,0.0,-0.2780915453544522,-0.04860631862563892,-0.031145744621092316,0.13347697552438642,-0.20490927224976152,-0.09141063431533308,-0.4164663398315514,1.6755044643126034,0.052124248961084765,0.029909173638674246,-2.7523551667903132,0.03445386171346766,2.766459958447342,0.7691996831827692,1.6754973547542302,0.052104326824870026,0.029969505109285054,-2.752394845125968,0.0342448039870148,2.7663679543071322,0.7691630533470046,0.0001565242292197546,0.0018091848203801808,9.356124638970628e-05,-0.0006456619511604764,-8.985062176613797e-05,5.323532586166977e-05,0.00026066373840207175,0.0,0.0,0.0,0.0,0.0,0.0,0.0,-7.109558373130653e-06,-1.9922136214739483e-05,6.033147061080754e-05,-3.9678335654880215e-05,-0.00020905772645286175,-9.200414020993364e-05,-3.66298357645789e-05,-0.0001565242292197546,-0.0018091848203801808,-9.356124638970628e-05,0.0006456619511604764,8.985062176613797e-05,-5.323532586166977e-05,-0.00026066373840207175,0.2720577120780945,22.918848037719727,-0.04922797530889511,-14.032625198364258,-0.02867656946182251,-2.0941195487976074,0.42605918645858765,0
67,0.3300037384033203,-0.2720577120780945,-22.918848037719727,0.04922797530889511,14.032625198364258,0.02867656946182251,2.0941195487976074,-0.42605918645858765,0.0,0.0,0.0,0.0,0.0,0.0,0.0,-0.2780915453544522,-0.04860631862563892,-0.031145744621092316,0.13347697552438642,-0.20490927224976152,-0.09141063431533308,-0.4164663398315514,1.6755044643126034,0.052124248961084765,0.029909173638674246,-2.7523551667903132,0.03445386171346766,2.766459958447342,0.7691996831827692,1.6754973547542302,0.052104326824870026,0.029969505109285054,-2.752394845125968,0.0342448039870148,2.7663679543071322,0.7691630533470046,0.0001565242292197546,0.0018091848203801808,9.356124638970628e-05,-0.0006456619511604764,-8.985062176613797e-05,5.323532586166977e-05,0.00026066373840207175,0.0,0.0,0.0,0.0,0.0,0.0,0.0,-7.109558373130653e-06,-1.9922136214739483e-05,6.033147061080754e-05,-3.9678335654880215e-05,-0.00020905772645286175,-9.200414020993364e-05,-3.66298357645789e-05,-0.0001565242292197546,-0.0018091848203801808,-9.356124638970628e-05,0.0006456619511604764,8.985062176613797e-05,-5.323532586166977e-05,-0.00026066373840207175,0.2720577120780945,22.918848037719727,-0.04922797530889511,-14.032625198364258,-0.02867656946182251,-2.0941195487976074,0.42605918645858765,0
68,0.3350563049316406,-0.2720577120780945,-22.819665908813477,0.04922797530889511,14.032625198364258,0.03416973352432251,2.0941195487976074,-0.41965049505233765,0.0,0.0,0.0,0.0,0.0,0.0,0.0,-0.27637542375048313,-0.04779936810033938,-0.03331689607411617,0.1321114014809869,-0.20481369743147332,-0.09127073744836062,-0.41756341423469245,1.6755066100434766,0.05211728881168784,0.029909173638674246,-2.752355414035023,0.034457508484552785,2.76645995844735,0.7691989711059464,1.6754973547542302,0.052104326824870026,0.029969505109285054,-2.752394845125968,0.0342448039870148,2.7663679543071322,0.7691630533470046,4.219163824519909e-05,-0.000691904409445909,9.820106566023943e-05,-0.0005946569349657226,-0.0002525834753008974,0.00010322038751688316,-0.004283833224504529,0.0,0.0,0.0,0.0,0.0,0.0,0.0,-9.255289246334897e-06,-1.2961986817813798e-05,6.033147061080754e-05,-3.943109094528552e-05,-0.0002127044975379841,-9.200414021792724e-05,-3.591775894173921e-05,-4.219163824519909e-05,0.000691904409445909,-9.820106566023943e-05,0.0005946569349657226,0.0002525834753008974,-0.00010322038751688316,0.004283833224504529,0.2720577120780945,22.819665908813477,-0.04922797530889511,-14.032625198364258,-0.03416973352432251,-2.0941195487976074,0.41965049505233765,0
69,0.34003615379333496,-0.2720577120780945,-22.819665908813477,0.04922797530889511,14.032625198364258,0.03416973352432251,2.0941195487976074,-0.41965049505233765,0.0,0.0,0.0,0.0,0.0,0.0,0.0,-0.27637542375048313,-0.04779936810033938,-0.03331689607411617,0.1321114014809869,-0.20481369743147332,-0.09127073744836062,-0.41756341423469245,1.6755066100434766,0.05211728881168784,0.029909173638674246,-2.752355414035023,0.034457508484552785,2.76645995844735,0.7691989711059464,1.6754973547542302,0.052104326824870026,0.029969505109285054,-2.752394845125968,0.0342448039870148,2.7663679543071322,0.7691630533470046,4.219163824519909e-05,-0.000691904409445909,9.820106566023943e-05,-0.0005946569349657226,-0.0002525834753008974,0.00010322038751688316,-0.004283833224504529,0.0,0.0,0.0,0.0,0.0,0.0,0.0,-9.255289246334897e-06,-1.2961986817813798e-05,6.033147061080754e-05,-3.943109094528552e-05,-0.0002127044975379841,-9.200414021792724e-05,-3.591775894173921e-05,-4.219163824519909e-05,0.000691904409445909,-9.820106566023943e-05,0.0005946569349657226,0.0002525834753008974,-0.00010322038751688316,0.004283833224504529,0.2720577120780945,22.819665908813477,-0.04922797530889511,-14.032625198364258,-0.03416973352432251,-2.0941195487976074,0.41965049505233765,0
70,0.34500741958618164,-0.2720577120780945,-22.871240615844727,0.04922797530889511,14.032625198364258,0.03416973352432251,2.0813021659851074,-0.43338340520858765,0.0,0.0,0.0,0.0,0.0,0.0,0.0,-0.27545306937080005,-0.04906504325240769,-0.033383322052010965,0.13410039086349756,-0.20488637021493616,-0.09115419016629804,-0.41888056142934293,1.6755066100798153,0.05212090808937424,0.029909173638674246,-2.7523551667903132,0.03445324996363394,2.766461382600996,0.7692004970393608,1.6754973547542302,0.052104326824870026,0.029969505109285054,-2.752394845125968,0.0342448039870148,2.7663679543071322,0.7691630533470046,0.00012041818315164206,0.0007977248036155708,-8.621916447177106e-05,-0.0005233831745165937,-0.0002891292285473387,0.0007340628677677344,7.565512966246153e-05,0.0,0.0,0.0,0.0,0.0,0.0,0.0,-9.255325585044716e-06,-1.6581264504211823e-05,6.033147061080754e-05,-3.9678335654880215e-05,-0.00020844597661914127,-9.342829386360663e-05,-3.7443692356142755e-05,-0.00012041818315164206,-0.0007977248036155708,8.621916447177106e-05,0.0005233831745165937,0.0002891292285473387,-0.0007340628677677344,-7.565512966246153e-05,0.2720577120780945,22.871240615844727,-0.04922797530889511,-14.032625198364258,-0.03416973352432251,-2.0813021659851074,0.43338340520858765,0
71,0.3499886989593506,-0.2720577120780945,-22.871240615844727,0.04922797530889511,14.032625198364258,0.03416973352432251,2.0813021659851074,-0.43338340520858765,0.0,0.0,0.0,0.0,0.0,0.0,0.0,-0.27545306937080005,-0.04906504325240769,-0.033383322052010965,0.13410039086349756,-0.20488637021493616,-0.09115419016629804,-0.41888056142934293,1.6755066100798153,0.05212090808937424,0.029909173638674246,-2.7523551667903132,0.03445324996363394,2.766461382600996,0.7692004970393608,1.6754973547542302,0.052104326824870026,0.029969505109285054,-2.752394845125968,0.0342448039870148,2.7663679543071322,0.7691630533470046,0.00012041818315164206,0.0007977248036155708,-8.621916447177106e-05,-0.0005233831745165937,-0.0002891292285473387,0.0007340628677677344,7.565512966246153e-05,0.0,0.0,0.0,0.0,0.0,0.0,0.0,-9.255325585044716e-06,-1.6581264504211823e-05,6.033147061080754e-05,-3.9678335654880215e-05,-0.00020844597661914127,-9.342829386360663e-05,-3.7443692356142755e-05,-0.00012041818315164206,-0.0007977248036155708,8.621916447177106e-05,0.0005233831745165937,0.0002891292285473387,-0.0007340628677677344,-7.565512966246153e-05,0.2720577120780945,22.871240615844727,-0.04922797530889511,-14.032625198364258,-0.03416973352432251,-2.0813021659851074,0.43338340520858765,0
72,0.35498929023742676,-0.22445029020309448,-22.871240615844727,0.07303168624639511,13.957246780395508,0.02867656946182251,2.0941195487976074,-0.43338340520858765,0.0,0.0,0.0,0.0,0.0,0.0,0.0,-0.27204800771305016,-0.04384496622961641,-0.030197074724475276,0.13008161047205183,-0.20529510540145615,-0.09173228097148091,-0.42042360204040197,1.6755032688810558,0.05212090808937424,0.029907503202818986,-2.7523501233067877,0.03445705423090783,2.7664599579628337,0.7692004969848529,1.6754973547542302,0.052104326824870026,0.029969505109285054,-2.752394845125968,0.0342448039870148,2.7663679543071322,0.7691630533470046,-0.0007535306501014133,0.000903003339052131,-0.00038278482704608553,0.0006228885723886495,0.00010420946594869921,-2.4398605311368147e-05,0.0006072482003955015,0.0,0.0,0.0,0.0,0.0,0.0,0.0,-5.914126825601329e-06,-1.6581264504211823e-05,6.20019064660679e-05,-4.472181918036e-05,-0.00021225024389302793,-9.200365570150026e-05,-3.744363784830007e-05,0.0007535306501014133,-0.000903003339052131,0.00038278482704608553,-0.0006228885723886495,-0.00010420946594869921,2.4398605311368147e-05,-0.0006072482003955015,0.22445029020309448,22.871240615844727,-0.07303168624639511,-13.957246780395508,-0.02867656946182251,-2.0941195487976074,0.43338340520858765,0
73,0.35999393463134766,-0.22445029020309448,-22.871240615844727,0.07303168624639511,13.957246780395508,0.02867656946182251,2.0941195487976074,-0.43338340520858765,0.0,0.0,0.0,0.0,0.0,0.0,0.0,-0.27204800771305016,-0.04384496622961641,-0.030197074724475276,0.13008161047205183,-0.20529510540145615,-0.09173228097148091,-0.42042360204040197,1.6755032688810558,0.05212090808937424,0.029907503202818986,-2.7523501233067877,0.03445705423090783,2.7664599579628337,0.7692004969848529,1.6754973547542302,0.052104326824870026,0.029969505109285054,-2.752394845125968,0.0342448039870148,2.7663679543071322,0.7691630533470046,-0.0007535306501014133,0.000903003339052131,-0.00038278482704608553,0.0006228885723886495,0.00010420946594869921,-2.4398605311368147e-05,0.0006072482003955015,0.0,0.0,0.0,0.0,0.0,0.0,0.0,-5.914126825601329e-06,-1.6581264504211823e-05,6.20019064660679e-05,-4.472181918036e-05,-0.00021225024389302793,-9.200365570150026e-05,-3.744363784830007e-05,0.0007535306501014133,-0.000903003339052131,0.00038278482704608553,-0.0006228885723886495,-0.00010420946594869921,2.4398605311368147e-05,-0.0006072482003955015,0.22445029020309448,22.871240615844727,-0.07303168624639511,-13.957246780395508,-0.02867656946182251,-2.0941195487976074,0.43338340520858765,0
74,0.3649868965148926,-0.24825400114059448,-22.847436904907227,0.07303168624639511,13.981050491333008,0.02226787805557251,2.1005282402038574,-0.36471885442733765,0.0,0.0,0.0,0.0,0.0,0.0,0.0,-0.27184897501808897,-0.0496303465224492,-0.03139601585449299,0.13509064677711438,-0.20460182912311647,-0.09056543258279047,-0.42040037494608146,1.6755049396439545,0.05211923765351898,0.029907503202818986,-2.7523515475126095,0.034454624957104295,2.766459246370519,0.7691928661367711,1.6754973547542302,0.052104326824870026,0.029969505109285054,-2.752394845125968,0.0342448039870148,2.7663679543071322,0.7691630533470046,-0.000803475560969434,-6.443661970954613e-06,-0.0001801626648898271,0.0004749438158377701,0.00017245179704490144,-0.00018015168996238446,-0.001989095098966976,0.0,0.0,0.0,0.0,0.0,0.0,0.0,-7.58488972429916e-06,-1.4910828648954932e-05,6.20019064660679e-05,-4.329761335863935e-05,-0.0002098209700894943,-9.129206338664986e-05,-2.9812789766436865e-05,0.000803475560969434,6.443661970954613e-06,0.0001801626648898271,-0.0004749438158377701,-0.00017245179704490144,0.00018015168996238446,0.001989095098966976,0.24825400114059448,22.847436904907227,-0.07303168624639511,-13.981050491333008,-0.02226787805557251,-2.1005282402038574,0.36471885442733765,0
75,0.3699917793273926,-0.24825400114059448,-22.847436904907227,0.07303168624639511,13.981050491333008,0.02226787805557251,2.1005282402038574,-0.36471885442733765,0.0,0.0,0.0,0.0,0.0,0.0,0.0,-0.27184897501808897,-0.0496303465224492,-0.03139601585449299,0.13509064677711438,-0.20460182912311647,-0.09056543258279047,-0.42040037494608146,1.6755049396439545,0.05211923765351898,0.029907503202818986,-2.7523515475126095,0.034454624957104295,2.766459246370519,0.7691928661367711,1.6754973547542302,0.052104326824870026,0.029969505109285054,-2.752394845125968,0.0342448039870148,2.7663679543071322,0.7691630533470046,-0.000803475560969434,-6.443661970954613e-06,-0.0001801626648898271,0.0004749438158377701,0.00017245179704490144,-0.00018015168996238446,-0.001989095098966976,0.0,0.0,0.0,0.0,0.0,0.0,0.0,-7.58488972429916e-06,-1.4910828648954932e-05,6.20019064660679e-05,-4.329761335863935e-05,-0.0002098209700894943,-9.129206338664986e-05,-2.9812789766436865e-05,0.000803475560969434,6.443661970954613e-06,0.0001801626648898271,-0.0004749438158377701,-0.00017245179704490144,0.00018015168996238446,0.001989095098966976,0.24825400114059448,22.847436904907227,-0.07303168624639511,-13.981050491333008,-0.02226787805557251,-2.1005282402038574,0.36471885442733765,0
76,0.37500858306884766,-0.2720577120780945,-22.895044326782227,0.02542426437139511,13.957246780395508,0.03416973352432251,2.1005282402038574,-0.37204307317733765,0.0,0.0,0.0,0.0,0.0,0.0,0.0,-0.2739066456299512,-0.0472663676589397,-0.03138207060581815,0.12942005993970437,-0.20446102704459773,-0.09036485902542622,-0.4194983550893522,1.6755066100798153,0.0521225785252295,0.02991084407452951,-2.7523478980676463,0.03445645686045523,2.7664592449169767,0.7691936813924019,1.6754973547542302,0.052104326824870026,0.029969505109285054,-2.752394845125968,0.0342448039870148,2.7663679543071322,0.7691630533470046,-0.0001360553131277113,0.0008739404037695018,0.0004269285516430911,0.000985547404935665,-1.8688167214493084e-05,-4.2690852584750086e-05,-0.0016112805798188783,0.0,0.0,0.0,0.0,0.0,0.0,0.0,-9.255325585044716e-06,-1.8251700359475653e-05,5.866103475554371e-05,-4.694705832175572e-05,-0.00021165287344043077,-9.129060984447435e-05,-3.062804539721853e-05,0.0001360553131277113,-0.0008739404037695018,-0.0004269285516430911,-0.000985547404935665,1.8688167214493084e-05,4.2690852584750086e-05,0.0016112805798188783,0.2720577120780945,22.895044326782227,-0.02542426437139511,-13.957246780395508,-0.03416973352432251,-2.1005282402038574,0.37204307317733765,0
77,0.3800210952758789,-0.2720577120780945,-22.895044326782227,0.02542426437139511,13.957246780395508,0.03416973352432251,2.1005282402038574,-0.37204307317733765,0.0,0.0,0.0,0.0,0.0,0.0,0.0,-0.2739066456299512,-0.0472663676589397,-0.03138207060581815,0.12942005993970437,-0.20446102704459773,-0.09036485902542622,-0.4194983550893522,1.6755066100798153,0.0521225785252295,0.02991084407452951,-2.7523478980676463,0.03445645686045523,2.7664592449169767,0.7691936813924019,1.6754973547542302,0.052104326824870026,0.029969505109285054,-2.752394845125968,0.0342448039870148,2.7663679543071322,0.7691630533470046,-0.0001360553131277113,0.0008739404037695018,0.0004269285516430911,0.000985547404935665,-1.8688167214493084e-05,-4.2690852584750086e-05,-0.0016112805798188783,0.0,0.0,0.0,0.0,0.0,0.0,0.0,-9.255325585044716e-06,-1.8251700359475653e-05,5.866103475554371e-05,-4.694705832175572e-05,-0.00021165287344043077,-9.129060984447435e-05,-3.062804539721853e-05,0.0001360553131277113,-0.0008739404037695018,-0.0004269285516430911,-0.000985547404935665,1.8688167214493084e-05,4.2690852584750086e-05,0.0016112805798188783,0.2720577120780945,22.895044326782227,-0.02542426437139511,-13.957246780395508,-0.03416973352432251,-2.1005282402038574,0.37204307317733765,0
78,0.38499903678894043,-0.2998287081718445,-22.819665908813477,0.04922797530889511,14.032625198364258,0.02867656946182251,2.1005282402038574,-0.41965049505233765,0.0,0.0,0.0,0.0,0.0,0.0,0.0,-0.2733272952442954,-0.047494589640889144,-0.031627419053496225,0.1263867259095911,-0.2036556628933164,-0.0898660365179116,-0.41830292409371617,1.6755085589216465,0.05211728881168784,0.029909173638674246,-2.752355414035021,0.03445386025913008,2.766459246316689,0.7691989711059464,1.6754973547542302,0.052104326824870026,0.029969505109285054,-2.752394845125968,0.0342448039870148,2.7663679543071322,0.7691630533470046,0.0008056540124622214,-0.0008563971007415802,-5.815421326482642e-06,-0.001016910857385094,-4.190981059945613e-05,-0.00019311626157387743,-0.00014246657042759074,0.0,0.0,0.0,0.0,0.0,0.0,0.0,-1.1204167416289934e-05,-1.2961986817813798e-05,6.033147061080754e-05,-3.9431090947061875e-05,-0.00020905627211528083,-9.129200955682037e-05,-3.591775894173921e-05,-0.0008056540124622214,0.0008563971007415802,5.815421326482642e-06,0.001016910857385094,4.190981059945613e-05,0.00019311626157387743,0.00014246657042759074,0.2998287081718445,22.819665908813477,-0.04922797530889511,-14.032625198364258,-0.02867656946182251,-2.1005282402038574,0.41965049505233765,0
79,0.3899984359741211,-0.2998287081718445,-22.819665908813477,0.04922797530889511,14.032625198364258,0.02867656946182251,2.1005282402038574,-0.41965049505233765,0.0,0.0,0.0,0.0,0.0,0.0,0.0,-0.2733272952442954,-0.047494589640889144,-0.031627419053496225,0.1263867259095911,-0.2036556628933164,-0.0898660365179116,-0.41830292409371617,1.6755085589216465,0.05211728881168784,0.029909173638674246,-2.752355414035021,0.03445386025913008,2.766459246316689,0.7691989711059464,1.6754973547542302,0.052104326824870026,0.029969505109285054,-2.752394845125968,0.0342448039870148,2.7663679543071322,0.7691630533470046,0.0008056540124622214,-0.0008563971007415802,-5.815421326482642e-06,-0.001016910857385094,-4.190981059945613e-05,-0.00019311626157387743,-0.00014246657042759074,0.0,0.0,0.0,0.0,0.0,0.0,0.0,-1.1204167416289934e-05,-1.2961986817813798e-05,6.033147061080754e-05,-3.9431090947061875e-05,-0.00020905627211528083,-9.129200955682037e-05,-3.591775894173921e-05,-0.0008056540124622214,0.0008563971007415802,5.815421326482642e-06,0.001016910857385094,4.190981059945613e-05,0.00019311626157387743,0.00014246657042759074,0.2998287081718445,22.819665908813477,-0.04922797530889511,-14.032625198364258,-0.02867656946182251,-2.1005282402038574,0.41965049505233765,0
