rezayati/contactInterpretation/dataset/franka_main/labeled_data/link7/a2_3.csv
index,time,tau_J0,tau_J1,tau_J2,tau_J3,tau_J4,tau_J5,tau_J6,tau_J_d0,tau_J_d1,tau_J_d2,tau_J_d3,tau_J_d4,tau_J_d5,tau_J_d6,tau_ext0,tau_ext1,tau_ext2,tau_ext3,tau_ext4,tau_ext5,tau_ext6,q0,q1,q2,q3,q4,q5,q6,q_d0,q_d1,q_d2,q_d3,q_d4,q_d5,q_d6,dq0,dq1,dq2,dq3,dq4,dq5,dq6,dq_d0,dq_d1,dq_d2,dq_d3,dq_d4,dq_d5,dq_d6,e0,e1,e2,e3,e4,e5,e6,de0,de1,de2,de3,de4,de5,de6,etau_J0,etau_J1,etau_J2,etau_J3,etau_J4,etau_J5,etau_J6,label
1,0.0,-0.6806880831718445,-34.23751449584961,-4.096584796905518,19.487642288208008,0.12389141321182251,1.828616738319397,-0.12485067546367645,0.0,0.0,0.0,0.0,0.0,0.0,0.0,-0.6492726934488566,-0.163988358123468,-0.4880553240077964,0.4606740166649961,0.06174292519585791,-0.07596766351983691,-0.1719313954165825,1.0545669440679382,0.32409119522780705,-0.3924276049547041,-2.153616413250304,0.8646251855405923,2.4658520929183583,0.544495566834028,1.0544104758940245,0.3238615046091247,-0.39250456234122666,-2.153291787532338,0.8647539153680389,2.46587817577521,0.5445020185570556,-0.000467544861689212,0.00037228679916604957,-0.0005131813093876245,-9.461100055531314e-05,-0.00035929493123498086,5.7525460008786334e-05,-0.0017017431258214417,0.0,0.0,0.0,0.0,0.0,0.0,0.0,-0.00015646817391368195,-0.0002296906186823322,-7.695738652258033e-05,0.00032462571796632034,0.00012872982744660533,2.6082856851683545e-05,6.451723027600664e-06,0.000467544861689212,-0.00037228679916604957,0.0005131813093876245,9.461100055531314e-05,0.00035929493123498086,-5.7525460008786334e-05,0.0017017431258214417,0.6806880831718445,34.23751449584961,4.096584796905518,-19.487642288208008,-0.12389141321182251,-1.828616738319397,0.12485067546367645,0
2,0.004997968673706055,-0.6806880831718445,-34.31289291381836,-4.096584796905518,19.535249710083008,0.11198955774307251,1.828616738319397,-0.16604940593242645,0.0,0.0,0.0,0.0,0.0,0.0,0.0,-0.6627653787077862,-0.177742634169448,-0.5052881941104806,0.46904183893696233,0.06195439575418289,-0.0743158008010265,-0.17006293942466688,1.0545669440679382,0.3240964849413487,-0.39242690158301885,-2.1536197541220146,0.8646287875053579,2.465848791578898,0.5445001446323252,1.0544104758940245,0.3238615046091247,-0.39250456234122666,-2.153291787532338,0.8647539153680389,2.46587817577521,0.5445020185570556,-0.000170353610701453,0.0012440401820400567,0.0005338176555159588,-0.0009532442173927833,0.0002758575292832808,7.913350947097179e-05,0.00024484498205812707,0.0,0.0,0.0,0.0,0.0,0.0,0.0,-0.00015646817391368195,-0.0002349803322239663,-7.766075820780927e-05,0.0003279665896767092,0.00012512786268104037,2.9384196312154387e-05,1.8739247303889428e-06,0.000170353610701453,-0.0012440401820400567,-0.0005338176555159588,0.0009532442173927833,-0.0002758575292832808,-7.913350947097179e-05,-0.00024484498205812707,0.6806880831718445,34.31289291381836,4.096584796905518,-19.535249710083008,-0.11198955774307251,-1.828616738319397,0.16604940593242645,0
3,0.00999593734741211,-0.6806880831718445,-34.31289291381836,-4.096584796905518,19.535249710083008,0.11198955774307251,1.828616738319397,-0.16604940593242645,0.0,0.0,0.0,0.0,0.0,0.0,0.0,-0.6627653787077862,-0.177742634169448,-0.5052881941104806,0.46904183893696233,0.06195439575418289,-0.0743158008010265,-0.17006293942466688,1.0545669440679382,0.3240964849413487,-0.39242690158301885,-2.1536197541220146,0.8646287875053579,2.465848791578898,0.5445001446323252,1.0544104758940245,0.3238615046091247,-0.39250456234122666,-2.153291787532338,0.8647539153680389,2.46587817577521,0.5445020185570556,-0.000170353610701453,0.0012440401820400567,0.0005338176555159588,-0.0009532442173927833,0.0002758575292832808,7.913350947097179e-05,0.00024484498205812707,0.0,0.0,0.0,0.0,0.0,0.0,0.0,-0.00015646817391368195,-0.0002349803322239663,-7.766075820780927e-05,0.0003279665896767092,0.00012512786268104037,2.9384196312154387e-05,1.8739247303889428e-06,0.000170353610701453,-0.0012440401820400567,-0.0005338176555159588,0.0009532442173927833,-0.0002758575292832808,-7.913350947097179e-05,-0.00024484498205812707,0.6806880831718445,34.31289291381836,4.096584796905518,-19.535249710083008,-0.11198955774307251,-1.828616738319397,0.16604940593242645,0
4,0.014991521835327148,-0.7084590792655945,-34.31289291381836,-4.048977375030518,19.487642288208008,0.11748272180557251,1.822208046913147,-0.17978231608867645,0.0,0.0,0.0,0.0,0.0,0.0,0.0,-0.6936306056099276,-0.14020799166642384,-0.525005927316319,0.41966965611355284,0.06328765094148882,-0.07816912495832747,-0.16946404411269467,1.0545688929097692,0.3240965673576476,-0.39242881190294554,-2.153616413250304,0.8646259026027868,2.465852701932142,0.5445016705112323,1.0544104758940245,0.3238615046091247,-0.39250456234122666,-2.153291787532338,0.8647539153680389,2.46587817577521,0.5445020185570556,0.00041817843809033577,0.00044170624366079335,-0.0008123512392866444,0.0007491546590206591,-2.523578819089706e-05,0.0005444016796596465,0.00026865190701628246,0.0,0.0,0.0,0.0,0.0,0.0,0.0,-0.00015841701574470513,-0.0002350627485228629,-7.575043828111916e-05,0.00032462571796632034,0.0001280127652520946,2.5473843067835844e-05,3.4804582327296885e-07,-0.00041817843809033577,-0.00044170624366079335,0.0008123512392866444,-0.0007491546590206591,2.523578819089706e-05,-0.0005444016796596465,-0.00026865190701628246,0.7084590792655945,34.31289291381836,4.048977375030518,-19.487642288208008,-0.11748272180557251,-1.822208046913147,0.17978231608867645,0
5,0.019992828369140625,-0.7084590792655945,-34.31289291381836,-4.048977375030518,19.487642288208008,0.11748272180557251,1.822208046913147,-0.17978231608867645,0.0,0.0,0.0,0.0,0.0,0.0,0.0,-0.6936306056099276,-0.14020799166642384,-0.525005927316319,0.41966965611355284,0.06328765094148882,-0.07816912495832747,-0.16946404411269467,1.0545688929097692,0.3240965673576476,-0.39242881190294554,-2.153616413250304,0.8646259026027868,2.465852701932142,0.5445016705112323,1.0544104758940245,0.3238615046091247,-0.39250456234122666,-2.153291787532338,0.8647539153680389,2.46587817577521,0.5445020185570556,0.00041817843809033577,0.00044170624366079335,-0.0008123512392866444,0.0007491546590206591,-2.523578819089706e-05,0.0005444016796596465,0.00026865190701628246,0.0,0.0,0.0,0.0,0.0,0.0,0.0,-0.00015841701574470513,-0.0002350627485228629,-7.575043828111916e-05,0.00032462571796632034,0.0001280127652520946,2.5473843067835844e-05,3.4804582327296885e-07,-0.00041817843809033577,-0.00044170624366079335,0.0008123512392866444,-0.0007491546590206591,2.523578819089706e-05,-0.0005444016796596465,-0.00026865190701628246,0.7084590792655945,34.31289291381836,4.048977375030518,-19.487642288208008,-0.11748272180557251,-1.822208046913147,0.17978231608867645,0
6,0.024994611740112305,-0.6568843722343445,-34.18990707397461,-4.096584796905518,19.511445999145508,0.12389141321182251,1.835025429725647,-0.16604940593242645,0.0,0.0,0.0,0.0,0.0,0.0,0.0,-0.682335398143372,-0.16503294100354066,-0.5143335304241974,0.45607425865740714,0.06258026199892255,-0.07485121884898695,-0.17017045432204816,1.0545652736320827,0.32408785436028364,-0.392427616729805,-2.1536180836861596,0.8646240860586244,2.4658524357384084,0.5445001446323261,1.0544104758940245,0.3238615046091247,-0.39250456234122666,-2.153291787532338,0.8647539153680389,2.46587817577521,0.5445020185570556,-0.0002903998336575704,-0.0011388814927266056,-1.8245644232881897e-05,-4.721593657029159e-05,-0.00026598556460321037,-4.906494586958922e-07,-0.00019130442591446068,0.0,0.0,0.0,0.0,0.0,0.0,0.0,-0.00015479773805826547,-0.00022634975115892741,-7.694561142168599e-05,0.0003262961538217368,0.00012982930941451976,2.574003680155812e-05,1.8739247295007644e-06,0.0002903998336575704,0.0011388814927266056,1.8245644232881897e-05,4.721593657029159e-05,0.00026598556460321037,4.906494586958922e-07,0.00019130442591446068,0.6568843722343445,34.18990707397461,4.096584796905518,-19.511445999145508,-0.12389141321182251,-1.835025429725647,0.16604940593242645,0
7,0.030007600784301758,-0.6568843722343445,-34.18990707397461,-4.096584796905518,19.511445999145508,0.12389141321182251,1.835025429725647,-0.16604940593242645,0.0,0.0,0.0,0.0,0.0,0.0,0.0,-0.682335398143372,-0.16503294100354066,-0.5143335304241974,0.45607425865740714,0.06258026199892255,-0.07485121884898695,-0.17017045432204816,1.0545652736320827,0.32408785436028364,-0.392427616729805,-2.1536180836861596,0.8646240860586244,2.4658524357384084,0.5445001446323261,1.0544104758940245,0.3238615046091247,-0.39250456234122666,-2.153291787532338,0.8647539153680389,2.46587817577521,0.5445020185570556,-0.0002903998336575704,-0.0011388814927266056,-1.8245644232881897e-05,-4.721593657029159e-05,-0.00026598556460321037,-4.906494586958922e-07,-0.00019130442591446068,0.0,0.0,0.0,0.0,0.0,0.0,0.0,-0.00015479773805826547,-0.00022634975115892741,-7.694561142168599e-05,0.0003262961538217368,0.00012982930941451976,2.574003680155812e-05,1.8739247295007644e-06,0.0002903998336575704,0.0011388814927266056,1.8245644232881897e-05,4.721593657029159e-05,0.00026598556460321037,4.906494586958922e-07,0.00019130442591446068,0.6568843722343445,34.18990707397461,4.096584796905518,-19.511445999145508,-0.12389141321182251,-1.835025429725647,0.16604940593242645,0
8,0.03500008583068848,-0.6568843722343445,-34.18990707397461,-4.096584796905518,19.436067581176758,0.11198955774307251,1.822208046913147,-0.17978231608867645,0.0,0.0,0.0,0.0,0.0,0.0,0.0,-0.6841606605215235,-0.1738499143275254,-0.5225365700238327,0.47050512587807264,0.06275540719169108,-0.07231972856347696,-0.17029872642053145,1.0545652736320827,0.3240878543560965,-0.39242761389538394,-2.1536127939726177,0.8646255335815703,2.4658502100871926,0.5445006094195528,1.0544104758940245,0.3238615046091247,-0.39250456234122666,-2.153291787532338,0.8647539153680389,2.46587817577521,0.5445020185570556,-0.0007796312936272376,-5.741321331852251e-05,-0.00038427221453393777,0.0009090310911767694,0.0001863798999708848,0.0002885896595633767,0.0001590133169611427,0.0,0.0,0.0,0.0,0.0,0.0,0.0,-0.00015479773805826547,-0.0002263497469717768,-7.69484458427172e-05,0.0003210064402798807,0.00012838178646856768,2.796568801732846e-05,1.4091375027946995e-06,0.0007796312936272376,5.741321331852251e-05,0.00038427221453393777,-0.0009090310911767694,-0.0001863798999708848,-0.0002885896595633767,-0.0001590133169611427,0.6568843722343445,34.18990707397461,4.096584796905518,-19.436067581176758,-0.11198955774307251,-1.822208046913147,0.17978231608867645,0
9,0.039952754974365234,-0.6568843722343445,-34.18990707397461,-4.096584796905518,19.436067581176758,0.11198955774307251,1.822208046913147,-0.17978231608867645,0.0,0.0,0.0,0.0,0.0,0.0,0.0,-0.6841606605215235,-0.1738499143275254,-0.5225365700238327,0.47050512587807264,0.06275540719169108,-0.07231972856347696,-0.17029872642053145,1.0545652736320827,0.3240878543560965,-0.39242761389538394,-2.1536127939726177,0.8646255335815703,2.4658502100871926,0.5445006094195528,1.0544104758940245,0.3238615046091247,-0.39250456234122666,-2.153291787532338,0.8647539153680389,2.46587817577521,0.5445020185570556,-0.0007796312936272376,-5.741321331852251e-05,-0.00038427221453393777,0.0009090310911767694,0.0001863798999708848,0.0002885896595633767,0.0001590133169611427,0.0,0.0,0.0,0.0,0.0,0.0,0.0,-0.00015479773805826547,-0.0002263497469717768,-7.69484458427172e-05,0.0003210064402798807,0.00012838178646856768,2.796568801732846e-05,1.4091375027946995e-06,0.0007796312936272376,5.741321331852251e-05,0.00038427221453393777,-0.0009090310911767694,-0.0001863798999708848,-0.0002885896595633767,-0.0001590133169611427,0.6568843722343445,34.18990707397461,4.096584796905518,-19.436067581176758,-0.11198955774307251,-1.822208046913147,0.17978231608867645,0
10,0.04499483108520508,-0.6291133761405945,-34.18990707397461,-4.048977375030518,19.436067581176758,0.1293845772743225,1.822208046913147,-0.13217489421367645,0.0,0.0,0.0,0.0,0.0,0.0,0.0,-0.6522417405479332,-0.18048147259066258,-0.4999422126073385,0.47878233026804945,0.061651896711442514,-0.07354088666089444,-0.17159578785124582,1.0545633247902517,0.3240878543560965,-0.3924309577105172,-2.1536127939726177,0.8646234801213197,2.465852778974293,0.5444960140125221,1.0544104758940245,0.3238615046091247,-0.39250456234122666,-2.153291787532338,0.8647539153680389,2.46587817577521,0.5445020185570556,-2.566611125078785e-05,-0.0005653651886693766,0.00022911407851626368,0.0010830769906275183,-0.0005013780331595796,0.0002623936427334147,-0.0019084066101369265,0.0,0.0,0.0,0.0,0.0,0.0,0.0,-0.0001528488962272423,-0.0002263497469717768,-7.360463070943402e-05,0.0003210064402798807,0.00013043524671918494,2.539680091695473e-05,6.0045445334777625e-06,2.566611125078785e-05,0.0005653651886693766,-0.00022911407851626368,-0.0010830769906275183,0.0005013780331595796,-0.0002623936427334147,0.0019084066101369265,0.6291133761405945,34.18990707397461,4.048977375030518,-19.436067581176758,-0.1293845772743225,-1.822208046913147,0.13217489421367645,0
11,0.050008296966552734,-0.6291133761405945,-34.18990707397461,-4.048977375030518,19.436067581176758,0.1293845772743225,1.822208046913147,-0.13217489421367645,0.0,0.0,0.0,0.0,0.0,0.0,0.0,-0.6522417405479332,-0.18048147259066258,-0.4999422126073385,0.47878233026804945,0.061651896711442514,-0.07354088666089444,-0.17159578785124582,1.0545633247902517,0.3240878543560965,-0.3924309577105172,-2.1536127939726177,0.8646234801213197,2.465852778974293,0.5444960140125221,1.0544104758940245,0.3238615046091247,-0.39250456234122666,-2.153291787532338,0.8647539153680389,2.46587817577521,0.5445020185570556,-2.566611125078785e-05,-0.0005653651886693766,0.00022911407851626368,0.0010830769906275183,-0.0005013780331595796,0.0002623936427334147,-0.0019084066101369265,0.0,0.0,0.0,0.0,0.0,0.0,0.0,-0.0001528488962272423,-0.0002263497469717768,-7.360463070943402e-05,0.0003210064402798807,0.00013043524671918494,2.539680091695473e-05,6.0045445334777625e-06,2.566611125078785e-05,0.0005653651886693766,-0.00022911407851626368,-0.0010830769906275183,0.0005013780331595796,-0.0002623936427334147,0.0019084066101369265,0.6291133761405945,34.18990707397461,4.048977375030518,-19.436067581176758,-0.1293845772743225,-1.822208046913147,0.13217489421367645,0
12,0.05501532554626465,-0.6053096652030945,-34.26528549194336,-3.9974029064178467,19.436067581176758,0.11748272180557251,1.822208046913147,-0.20724813640117645,0.0,0.0,0.0,0.0,0.0,0.0,0.0,-0.6491429981355973,-0.18230009316455478,-0.49471623057489456,0.47373721499074,0.06169903497105611,-0.07432331215811239,-0.17208834340446225,1.0545616543543963,0.3240931440696382,-0.3924338586632963,-2.1536127939726177,0.8646248159580249,2.4658534866524233,0.5445047222669744,1.0544104758940245,0.3238615046091247,-0.39250456234122666,-2.153291787532338,0.8647539153680389,2.46587817577521,0.5445020185570556,0.00020363851516500255,2.775947263683386e-05,0.0002938400927575475,0.0007361172253237557,-9.709518854711992e-05,-3.709105243688086e-05,0.0015028389936038407,0.0,0.0,0.0,0.0,0.0,0.0,0.0,-0.0001511784603718258,-0.0002316394605134664,-7.070367793038379e-05,0.0003210064402798807,0.00012909941001404412,2.4689122786636375e-05,-2.703709918838726e-06,-0.00020363851516500255,-2.775947263683386e-05,-0.0002938400927575475,-0.0007361172253237557,9.709518854711992e-05,3.709105243688086e-05,-0.0015028389936038407,0.6053096652030945,34.26528549194336,3.9974029064178467,-19.436067581176758,-0.11748272180557251,-1.822208046913147,0.20724813640117645,0
13,0.05999350547790527,-0.6053096652030945,-34.26528549194336,-3.9974029064178467,19.436067581176758,0.11748272180557251,1.822208046913147,-0.20724813640117645,0.0,0.0,0.0,0.0,0.0,0.0,0.0,-0.6491429981355973,-0.18230009316455478,-0.49471623057489456,0.47373721499074,0.06169903497105611,-0.07432331215811239,-0.17208834340446225,1.0545616543543963,0.3240931440696382,-0.3924338586632963,-2.1536127939726177,0.8646248159580249,2.4658534866524233,0.5445047222669744,1.0544104758940245,0.3238615046091247,-0.39250456234122666,-2.153291787532338,0.8647539153680389,2.46587817577521,0.5445020185570556,0.00020363851516500255,2.775947263683386e-05,0.0002938400927575475,0.0007361172253237557,-9.709518854711992e-05,-3.709105243688086e-05,0.0015028389936038407,0.0,0.0,0.0,0.0,0.0,0.0,0.0,-0.0001511784603718258,-0.0002316394605134664,-7.070367793038379e-05,0.0003210064402798807,0.00012909941001404412,2.4689122786636375e-05,-2.703709918838726e-06,-0.00020363851516500255,-2.775947263683386e-05,-0.0002938400927575475,-0.0007361172253237557,9.709518854711992e-05,3.709105243688086e-05,-0.0015028389936038407,0.6053096652030945,34.26528549194336,3.9974029064178467,-19.436067581176758,-0.11748272180557251,-1.822208046913147,0.20724813640117645,0
14,0.06501126289367676,-0.6053096652030945,-34.26528549194336,-4.048977375030518,19.459871292114258,0.1293845772743225,1.822208046913147,-0.17978231608867645,0.0,0.0,0.0,0.0,0.0,0.0,0.0,-0.669286395631718,-0.17350555316008692,-0.5072859588543828,0.4557902048710193,0.06276503971161412,-0.07456080836833648,-0.17138242702231327,1.0545616543543963,0.3240931440696382,-0.3924302395073024,-2.153614464408473,0.8646235963320563,2.4658535071676275,0.5445015135278058,1.0544104758940245,0.3238615046091247,-0.39250456234122666,-2.153291787532338,0.8647539153680389,2.46587817577521,0.5445020185570556,4.139305841954654e-05,-0.00010374164895127905,0.0004013340078138717,-8.177394724491749e-05,-0.00041913169972830193,0.0001548881656775805,0.0005695976860469025,0.0,0.0,0.0,0.0,0.0,0.0,0.0,-0.0001511784603718258,-0.0002316394605134664,-7.432283392427852e-05,0.00032267687613529716,0.00013031903598259564,2.4668607582434277e-05,5.050292497532638e-07,-4.139305841954654e-05,0.00010374164895127905,-0.0004013340078138717,8.177394724491749e-05,0.00041913169972830193,-0.0001548881656775805,-0.0005695976860469025,0.6053096652030945,34.26528549194336,4.048977375030518,-19.459871292114258,-0.1293845772743225,-1.822208046913147,0.17978231608867645,0
15,0.07000088691711426,-0.6053096652030945,-34.26528549194336,-4.048977375030518,19.459871292114258,0.1293845772743225,1.822208046913147,-0.17978231608867645,0.0,0.0,0.0,0.0,0.0,0.0,0.0,-0.669286395631718,-0.17350555316008692,-0.5072859588543828,0.4557902048710193,0.06276503971161412,-0.07456080836833648,-0.17138242702231327,1.0545616543543963,0.3240931440696382,-0.3924302395073024,-2.153614464408473,0.8646235963320563,2.4658535071676275,0.5445015135278058,1.0544104758940245,0.3238615046091247,-0.39250456234122666,-2.153291787532338,0.8647539153680389,2.46587817577521,0.5445020185570556,4.139305841954654e-05,-0.00010374164895127905,0.0004013340078138717,-8.177394724491749e-05,-0.00041913169972830193,0.0001548881656775805,0.0005695976860469025,0.0,0.0,0.0,0.0,0.0,0.0,0.0,-0.0001511784603718258,-0.0002316394605134664,-7.432283392427852e-05,0.00032267687613529716,0.00013031903598259564,2.4668607582434277e-05,5.050292497532638e-07,-4.139305841954654e-05,0.00010374164895127905,-0.0004013340078138717,8.177394724491749e-05,0.00041913169972830193,-0.0001548881656775805,-0.0005695976860469025,0.6053096652030945,34.26528549194336,4.048977375030518,-19.459871292114258,-0.1293845772743225,-1.822208046913147,0.17978231608867645,0
16,0.07499265670776367,-0.6806880831718445,-34.26528549194336,-4.072781085968018,19.511445999145508,0.11748272180557251,1.847842812538147,-0.19351522624492645,0.0,0.0,0.0,0.0,0.0,0.0,0.0,-0.6685391662700428,-0.1788775115171879,-0.5093141487257717,0.4524112265884423,0.06300106584553236,-0.07375239850940567,-0.17109277168287226,1.0545669440679382,0.3240931440696382,-0.3924292862894779,-2.1536180836861596,0.8646280966942637,2.4658495004347407,0.5445031963892526,1.0544104758940245,0.3238615046091247,-0.39250456234122666,-2.153291787532338,0.8647539153680389,2.46587817577521,0.5445020185570556,0.00056638068928941,7.04754810344124e-05,-0.00014209509783257517,-0.0006992588068573721,-1.655553428203827e-05,-0.000393900022754905,0.0009981622228295514,0.0,0.0,0.0,0.0,0.0,0.0,0.0,-0.00015646817391368195,-0.0002316394605134664,-7.527605174878493e-05,0.0003262961538217368,0.00012581867377525757,2.8675340469241917e-05,-1.177832196996853e-06,-0.00056638068928941,-7.04754810344124e-05,0.00014209509783257517,0.0006992588068573721,1.655553428203827e-05,0.000393900022754905,-0.0009981622228295514,0.6806880831718445,34.26528549194336,4.072781085968018,-19.511445999145508,-0.11748272180557251,-1.847842812538147,0.19351522624492645,0
17,0.07994771003723145,-0.6806880831718445,-34.26528549194336,-4.072781085968018,19.511445999145508,0.11748272180557251,1.847842812538147,-0.19351522624492645,0.0,0.0,0.0,0.0,0.0,0.0,0.0,-0.6685391662700428,-0.1788775115171879,-0.5093141487257717,0.4524112265884423,0.06300106584553236,-0.07375239850940567,-0.17109277168287226,1.0545669440679382,0.3240931440696382,-0.3924292862894779,-2.1536180836861596,0.8646280966942637,2.4658495004347407,0.5445031963892526,1.0544104758940245,0.3238615046091247,-0.39250456234122666,-2.153291787532338,0.8647539153680389,2.46587817577521,0.5445020185570556,0.00056638068928941,7.04754810344124e-05,-0.00014209509783257517,-0.0006992588068573721,-1.655553428203827e-05,-0.000393900022754905,0.0009981622228295514,0.0,0.0,0.0,0.0,0.0,0.0,0.0,-0.00015646817391368195,-0.0002316394605134664,-7.527605174878493e-05,0.0003262961538217368,0.00012581867377525757,2.8675340469241917e-05,-1.177832196996853e-06,-0.00056638068928941,-7.04754810344124e-05,0.00014209509783257517,0.0006992588068573721,1.655553428203827e-05,0.000393900022754905,-0.0009981622228295514,0.6806880831718445,34.26528549194336,4.072781085968018,-19.511445999145508,-0.11748272180557251,-1.847842812538147,0.19351522624492645,0
18,0.0849909782409668,-0.7560665011405945,-34.23751449584961,-4.124355792999268,19.459871292114258,0.12389141321182251,1.841434121131897,-0.13217489421367645,0.0,0.0,0.0,0.0,0.0,0.0,0.0,-0.6672457805042913,-0.17925821128496708,-0.5066238392303143,0.44961198635588945,0.06306551358173987,-0.07308191196029527,-0.17207070775739805,1.0545722337814798,0.3240911953368233,-0.3924256675609215,-2.153614464408473,0.8646241264136758,2.465851742608917,0.5444963807976907,1.0544104758940245,0.3238615046091247,-0.39250456234122666,-2.153291787532338,0.8647539153680389,2.46587817577521,0.5445020185570556,0.0010466770774024514,-0.000835559864063396,0.00059681056294442,0.00036556610468843604,-0.0002049598052517309,-0.00018982964525776356,-0.0013917619943314456,0.0,0.0,0.0,0.0,0.0,0.0,0.0,-0.00016175788745531605,-0.00022969072769857268,-7.889478030514985e-05,0.00032267687613529716,0.0001297889543631081,2.64331662931383e-05,5.637759364907069e-06,-0.0010466770774024514,0.000835559864063396,-0.00059681056294442,-0.00036556610468843604,0.0002049598052517309,0.00018982964525776356,0.0013917619943314456,0.7560665011405945,34.23751449584961,4.124355792999268,-19.459871292114258,-0.12389141321182251,-1.841434121131897,0.13217489421367645,0
19,0.08998966217041016,-0.7560665011405945,-34.23751449584961,-4.124355792999268,19.459871292114258,0.12389141321182251,1.841434121131897,-0.13217489421367645,0.0,0.0,0.0,0.0,0.0,0.0,0.0,-0.6672457805042913,-0.17925821128496708,-0.5066238392303143,0.44961198635588945,0.06306551358173987,-0.07308191196029527,-0.17207070775739805,1.0545722337814798,0.3240911953368233,-0.3924256675609215,-2.153614464408473,0.8646241264136758,2.465851742608917,0.5444963807976907,1.0544104758940245,0.3238615046091247,-0.39250456234122666,-2.153291787532338,0.8647539153680389,2.46587817577521,0.5445020185570556,0.0010466770774024514,-0.000835559864063396,0.00059681056294442,0.00036556610468843604,-0.0002049598052517309,-0.00018982964525776356,-0.0013917619943314456,0.0,0.0,0.0,0.0,0.0,0.0,0.0,-0.00016175788745531605,-0.00022969072769857268,-7.889478030514985e-05,0.00032267687613529716,0.0001297889543631081,2.64331662931383e-05,5.637759364907069e-06,-0.0010466770774024514,0.000835559864063396,-0.00059681056294442,-0.00036556610468843604,0.0002049598052517309,0.00018982964525776356,0.0013917619943314456,0.7560665011405945,34.23751449584961,4.124355792999268,-19.459871292114258,-0.12389141321182251,-1.841434121131897,0.13217489421367645,0
20,0.09499597549438477,-0.7560665011405945,-34.23751449584961,-4.124355792999268,19.459871292114258,0.11198955774307251,1.828616738319397,-0.19351522624492645,0.0,0.0,0.0,0.0,0.0,0.0,0.0,-0.663443376472069,-0.16252579130018913,-0.4991629344205272,0.4408883772198747,0.06327501630284388,-0.07472144378092932,-0.17105148061008923,1.0545722337814798,0.32409119522780766,-0.3924255884877912,-2.153614464408473,0.8646254129007893,2.465849931652869,0.5445031963901387,1.0544104758940245,0.3238615046091247,-0.39250456234122666,-2.153291787532338,0.8647539153680389,2.46587817577521,0.5445020185570556,0.0008348132823622002,0.0004174250613503213,0.0002806270320775451,-0.00024940951548554143,0.00014517161977464736,-2.8861277677392605e-05,0.000912318553746646,0.0,0.0,0.0,0.0,0.0,0.0,0.0,-0.00016175788745531605,-0.00022969061868294283,-7.897385343547114e-05,0.00032267687613529716,0.00012850246724960268,2.824412234092577e-05,-1.177833083065849e-06,-0.0008348132823622002,-0.0004174250613503213,-0.0002806270320775451,0.00024940951548554143,-0.00014517161977464736,2.8861277677392605e-05,-0.000912318553746646,0.7560665011405945,34.23751449584961,4.124355792999268,-19.459871292114258,-0.11198955774307251,-1.828616738319397,0.19351522624492645,0
21,0.09999728202819824,-0.7560665011405945,-34.23751449584961,-4.124355792999268,19.459871292114258,0.11198955774307251,1.828616738319397,-0.19351522624492645,0.0,0.0,0.0,0.0,0.0,0.0,0.0,-0.663443376472069,-0.16252579130018913,-0.4991629344205272,0.4408883772198747,0.06327501630284388,-0.07472144378092932,-0.17105148061008923,1.0545722337814798,0.32409119522780766,-0.3924255884877912,-2.153614464408473,0.8646254129007893,2.465849931652869,0.5445031963901387,1.0544104758940245,0.3238615046091247,-0.39250456234122666,-2.153291787532338,0.8647539153680389,2.46587817577521,0.5445020185570556,0.0008348132823622002,0.0004174250613503213,0.0002806270320775451,-0.00024940951548554143,0.00014517161977464736,-2.8861277677392605e-05,0.000912318553746646,0.0,0.0,0.0,0.0,0.0,0.0,0.0,-0.00016175788745531605,-0.00022969061868294283,-7.897385343547114e-05,0.00032267687613529716,0.00012850246724960268,2.824412234092577e-05,-1.177833083065849e-06,-0.0008348132823622002,-0.0004174250613503213,-0.0002806270320775451,0.00024940951548554143,-0.00014517161977464736,2.8861277677392605e-05,-0.000912318553746646,0.7560665011405945,34.23751449584961,4.124355792999268,-19.459871292114258,-0.11198955774307251,-1.828616738319397,0.19351522624492645,0
22,0.10499238967895508,-0.7560665011405945,-34.23751449584961,-4.124355792999268,19.459871292114258,0.11198955774307251,1.828616738319397,-0.19351522624492645,0.0,0.0,0.0,0.0,0.0,0.0,0.0,-0.663443376472069,-0.16252579130018913,-0.4991629344205272,0.4408883772198747,0.06327501630284388,-0.07472144378092932,-0.17105148061008923,1.0545722337814798,0.32409119522780766,-0.3924255884877912,-2.153614464408473,0.8646254129007893,2.465849931652869,0.5445031963901387,1.0544104758940245,0.3238615046091247,-0.39250456234122666,-2.153291787532338,0.8647539153680389,2.46587817577521,0.5445020185570556,0.0008348132823622002,0.0004174250613503213,0.0002806270320775451,-0.00024940951548554143,0.00014517161977464736,-2.8861277677392605e-05,0.000912318553746646,0.0,0.0,0.0,0.0,0.0,0.0,0.0,-0.00016175788745531605,-0.00022969061868294283,-7.897385343547114e-05,0.00032267687613529716,0.00012850246724960268,2.824412234092577e-05,-1.177833083065849e-06,-0.0008348132823622002,-0.0004174250613503213,-0.0002806270320775451,0.00024940951548554143,-0.00014517161977464736,2.8861277677392605e-05,-0.000912318553746646,0.7560665011405945,34.23751449584961,4.124355792999268,-19.459871292114258,-0.11198955774307251,-1.828616738319397,0.19351522624492645,0
23,0.10994958877563477,-0.7560665011405945,-34.23751449584961,-4.124355792999268,19.459871292114258,0.11198955774307251,1.828616738319397,-0.19351522624492645,0.0,0.0,0.0,0.0,0.0,0.0,0.0,-0.663443376472069,-0.16252579130018913,-0.4991629344205272,0.4408883772198747,0.06327501630284388,-0.07472144378092932,-0.17105148061008923,1.0545722337814798,0.32409119522780766,-0.3924255884877912,-2.153614464408473,0.8646254129007893,2.465849931652869,0.5445031963901387,1.0544104758940245,0.3238615046091247,-0.39250456234122666,-2.153291787532338,0.8647539153680389,2.46587817577521,0.5445020185570556,0.0008348132823622002,0.0004174250613503213,0.0002806270320775451,-0.00024940951548554143,0.00014517161977464736,-2.8861277677392605e-05,0.000912318553746646,0.0,0.0,0.0,0.0,0.0,0.0,0.0,-0.00016175788745531605,-0.00022969061868294283,-7.897385343547114e-05,0.00032267687613529716,0.00012850246724960268,2.824412234092577e-05,-1.177833083065849e-06,-0.0008348132823622002,-0.0004174250613503213,-0.0002806270320775451,0.00024940951548554143,-0.00014517161977464736,2.8861277677392605e-05,-0.000912318553746646,0.7560665011405945,34.23751449584961,4.124355792999268,-19.459871292114258,-0.11198955774307251,-1.828616738319397,0.19351522624492645,0
24,0.11499571800231934,-0.6806880831718445,-34.16213607788086,-4.072781085968018,19.436067581176758,0.11198955774307251,1.841434121131897,-0.20083944499492645,0.0,0.0,0.0,0.0,0.0,0.0,0.0,-0.6501499224839219,-0.1591134808225543,-0.48658466036311276,0.4426501558393624,0.06214626204305391,-0.07648221646091648,-0.17160492908627661,1.0545669440679382,0.32408590551426536,-0.3924292607832765,-2.1536127939726177,0.8646254263095874,2.4658512583517194,0.5445040101383868,1.0544104758940245,0.3238615046091247,-0.39250456234122666,-2.153291787532338,0.8647539153680389,2.46587817577521,0.5445020185570556,0.00023601026440114642,-0.0002431553207001251,-0.00019628725598329973,0.00017645926176322092,0.00032498523243852884,-0.0005300128307520612,0.001350738748440268,0.0,0.0,0.0,0.0,0.0,0.0,0.0,-0.00015646817391368195,-0.0002244009051406426,-7.530155795015814e-05,0.0003210064402798807,0.0001284890584515308,2.691742349059112e-05,-1.9915813311843777e-06,-0.00023601026440114642,0.0002431553207001251,0.00019628725598329973,-0.00017645926176322092,-0.00032498523243852884,0.0005300128307520612,-0.001350738748440268,0.6806880831718445,34.16213607788086,4.072781085968018,-19.436067581176758,-0.11198955774307251,-1.841434121131897,0.20083944499492645,0
25,0.12001442909240723,-0.6806880831718445,-34.16213607788086,-4.072781085968018,19.436067581176758,0.11198955774307251,1.841434121131897,-0.20083944499492645,0.0,0.0,0.0,0.0,0.0,0.0,0.0,-0.6501499224839219,-0.1591134808225543,-0.48658466036311276,0.4426501558393624,0.06214626204305391,-0.07648221646091648,-0.17160492908627661,1.0545669440679382,0.32408590551426536,-0.3924292607832765,-2.1536127939726177,0.8646254263095874,2.4658512583517194,0.5445040101383868,1.0544104758940245,0.3238615046091247,-0.39250456234122666,-2.153291787532338,0.8647539153680389,2.46587817577521,0.5445020185570556,0.00023601026440114642,-0.0002431553207001251,-0.00019628725598329973,0.00017645926176322092,0.00032498523243852884,-0.0005300128307520612,0.001350738748440268,0.0,0.0,0.0,0.0,0.0,0.0,0.0,-0.00015646817391368195,-0.0002244009051406426,-7.530155795015814e-05,0.0003210064402798807,0.0001284890584515308,2.691742349059112e-05,-1.9915813311843777e-06,-0.00023601026440114642,0.0002431553207001251,0.00019628725598329973,-0.00017645926176322092,-0.00032498523243852884,0.0005300128307520612,-0.001350738748440268,0.6806880831718445,34.16213607788086,4.072781085968018,-19.436067581176758,-0.11198955774307251,-1.841434121131897,0.20083944499492645,0
26,0.12498879432678223,-0.6291133761405945,-34.28908920288086,-4.048977375030518,19.487642288208008,0.12389141321182251,1.822208046913147,-0.19351522624492645,0.0,0.0,0.0,0.0,0.0,0.0,0.0,-0.6868222206383482,-0.17632606905807957,-0.5215138911602645,0.44834838505229924,0.0635460003975965,-0.07324875150965086,-0.17240887569974425,1.0545633247902517,0.32409696027270535,-0.3924309573833355,-2.153616413250304,0.8646251736215813,2.4658528191533247,0.5445031963901384,1.0544104758940245,0.3238615046091247,-0.39250456234122666,-2.153291787532338,0.8647539153680389,2.46587817577521,0.5445020185570556,-0.0017898308534286338,0.001414204209787844,-0.000992176054429765,-0.0009978103002314365,-0.00025204184165056223,0.00014999744576370535,0.0012335511958202643,0.0,0.0,0.0,0.0,0.0,0.0,0.0,-0.0001528488962272423,-0.00023545566358063041,-7.360495789116017e-05,0.00032462571796632034,0.00012874174645760572,2.5356621885297415e-05,-1.1778330828438044e-06,0.0017898308534286338,-0.001414204209787844,0.000992176054429765,0.0009978103002314365,0.00025204184165056223,-0.00014999744576370535,-0.0012335511958202643,0.6291133761405945,34.28908920288086,4.048977375030518,-19.487642288208008,-0.12389141321182251,-1.822208046913147,0.19351522624492645,0
27,0.1299905776977539,-0.6291133761405945,-34.28908920288086,-4.048977375030518,19.487642288208008,0.12389141321182251,1.822208046913147,-0.19351522624492645,0.0,0.0,0.0,0.0,0.0,0.0,0.0,-0.6868222206383482,-0.17632606905807957,-0.5215138911602645,0.44834838505229924,0.0635460003975965,-0.07324875150965086,-0.17240887569974425,1.0545633247902517,0.32409696027270535,-0.3924309573833355,-2.153616413250304,0.8646251736215813,2.4658528191533247,0.5445031963901384,1.0544104758940245,0.3238615046091247,-0.39250456234122666,-2.153291787532338,0.8647539153680389,2.46587817577521,0.5445020185570556,-0.0017898308534286338,0.001414204209787844,-0.000992176054429765,-0.0009978103002314365,-0.00025204184165056223,0.00014999744576370535,0.0012335511958202643,0.0,0.0,0.0,0.0,0.0,0.0,0.0,-0.0001528488962272423,-0.00023545566358063041,-7.360495789116017e-05,0.00032462571796632034,0.00012874174645760572,2.5356621885297415e-05,-1.1778330828438044e-06,0.0017898308534286338,-0.001414204209787844,0.000992176054429765,0.0009978103002314365,0.00025204184165056223,-0.00014999744576370535,-0.0012335511958202643,0.6291133761405945,34.28908920288086,4.048977375030518,-19.487642288208008,-0.12389141321182251,-1.822208046913147,0.19351522624492645,0
28,0.13500428199768066,-0.6053096652030945,-34.23751449584961,-4.048977375030518,19.459871292114258,0.1293845772743225,1.835025429725647,-0.16604940593242645,0.0,0.0,0.0,0.0,0.0,0.0,0.0,-0.6862751170457416,-0.17486857084903396,-0.5192734497719523,0.4459172988389892,0.06332882124957509,-0.07397110651149894,-0.17262257851547966,1.0545616543543963,0.3240911952399199,-0.3924307192919529,-2.153614464408473,0.8646234756570859,2.465849276043183,0.5445001444708206,1.0544104758940245,0.3238615046091247,-0.39250456234122666,-2.153291787532338,0.8647539153680389,2.46587817577521,0.5445020185570556,-0.0020863298613701107,-0.000989325092426889,-0.0007376957778148332,0.00041318715116829443,-0.00046837840594624063,-0.00016996310773052003,-6.11719029086231e-05,0.0,0.0,0.0,0.0,0.0,0.0,0.0,-0.0001511784603718258,-0.00022969063079519847,-7.384304927376961e-05,0.00032267687613529716,0.0001304397109530564,2.889973202702123e-05,1.8740862349764242e-06,0.0020863298613701107,0.000989325092426889,0.0007376957778148332,-0.00041318715116829443,0.00046837840594624063,0.00016996310773052003,6.11719029086231e-05,0.6053096652030945,34.23751449584961,4.048977375030518,-19.459871292114258,-0.1293845772743225,-1.835025429725647,0.16604940593242645,0
29,0.14002585411071777,-0.6053096652030945,-34.23751449584961,-4.048977375030518,19.459871292114258,0.1293845772743225,1.835025429725647,-0.16604940593242645,0.0,0.0,0.0,0.0,0.0,0.0,0.0,-0.6862751170457416,-0.17486857084903396,-0.5192734497719523,0.4459172988389892,0.06332882124957509,-0.07397110651149894,-0.17262257851547966,1.0545616543543963,0.3240911952399199,-0.3924307192919529,-2.153614464408473,0.8646234756570859,2.465849276043183,0.5445001444708206,1.0544104758940245,0.3238615046091247,-0.39250456234122666,-2.153291787532338,0.8647539153680389,2.46587817577521,0.5445020185570556,-0.0020863298613701107,-0.000989325092426889,-0.0007376957778148332,0.00041318715116829443,-0.00046837840594624063,-0.00016996310773052003,-6.11719029086231e-05,0.0,0.0,0.0,0.0,0.0,0.0,0.0,-0.0001511784603718258,-0.00022969063079519847,-7.384304927376961e-05,0.00032267687613529716,0.0001304397109530564,2.889973202702123e-05,1.8740862349764242e-06,0.0020863298613701107,0.000989325092426889,0.0007376957778148332,-0.00041318715116829443,0.00046837840594624063,0.00016996310773052003,6.11719029086231e-05,0.6053096652030945,34.23751449584961,4.048977375030518,-19.459871292114258,-0.1293845772743225,-1.835025429725647,0.16604940593242645,0
30,0.14499139785766602,-0.6053096652030945,-34.23751449584961,-4.048977375030518,19.459871292114258,0.1293845772743225,1.835025429725647,-0.16604940593242645,0.0,0.0,0.0,0.0,0.0,0.0,0.0,-0.6862751170457416,-0.17486857084903396,-0.5192734497719523,0.4459172988389892,0.06332882124957509,-0.07397110651149894,-0.17262257851547966,1.0545616543543963,0.3240911952399199,-0.3924307192919529,-2.153614464408473,0.8646234756570859,2.465849276043183,0.5445001444708206,1.0544104758940245,0.3238615046091247,-0.39250456234122666,-2.153291787532338,0.8647539153680389,2.46587817577521,0.5445020185570556,-0.0020863298613701107,-0.000989325092426889,-0.0007376957778148332,0.00041318715116829443,-0.00046837840594624063,-0.00016996310773052003,-6.11719029086231e-05,0.0,0.0,0.0,0.0,0.0,0.0,0.0,-0.0001511784603718258,-0.00022969063079519847,-7.384304927376961e-05,0.00032267687613529716,0.0001304397109530564,2.889973202702123e-05,1.8740862349764242e-06,0.0020863298613701107,0.000989325092426889,0.0007376957778148332,-0.00041318715116829443,0.00046837840594624063,0.00016996310773052003,6.11719029086231e-05,0.6053096652030945,34.23751449584961,4.048977375030518,-19.459871292114258,-0.1293845772743225,-1.835025429725647,0.16604940593242645,0
31,0.150040864944458,-0.6053096652030945,-34.23751449584961,-4.048977375030518,19.459871292114258,0.1293845772743225,1.835025429725647,-0.16604940593242645,0.0,0.0,0.0,0.0,0.0,0.0,0.0,-0.6862751170457416,-0.17486857084903396,-0.5192734497719523,0.4459172988389892,0.06332882124957509,-0.07397110651149894,-0.17262257851547966,1.0545616543543963,0.3240911952399199,-0.3924307192919529,-2.153614464408473,0.8646234756570859,2.465849276043183,0.5445001444708206,1.0544104758940245,0.3238615046091247,-0.39250456234122666,-2.153291787532338,0.8647539153680389,2.46587817577521,0.5445020185570556,-0.0020863298613701107,-0.000989325092426889,-0.0007376957778148332,0.00041318715116829443,-0.00046837840594624063,-0.00016996310773052003,-6.11719029086231e-05,0.0,0.0,0.0,0.0,0.0,0.0,0.0,-0.0001511784603718258,-0.00022969063079519847,-7.384304927376961e-05,0.00032267687613529716,0.0001304397109530564,2.889973202702123e-05,1.8740862349764242e-06,0.0020863298613701107,0.000989325092426889,0.0007376957778148332,-0.00041318715116829443,0.00046837840594624063,0.00016996310773052003,6.11719029086231e-05,0.6053096652030945,34.23751449584961,4.048977375030518,-19.459871292114258,-0.1293845772743225,-1.835025429725647,0.16604940593242645,0
32,0.15504074096679688,-0.6053096652030945,-34.23751449584961,-4.048977375030518,19.459871292114258,0.1293845772743225,1.835025429725647,-0.16604940593242645,0.0,0.0,0.0,0.0,0.0,0.0,0.0,-0.6862751170457416,-0.17486857084903396,-0.5192734497719523,0.4459172988389892,0.06332882124957509,-0.07397110651149894,-0.17262257851547966,1.0545616543543963,0.3240911952399199,-0.3924307192919529,-2.153614464408473,0.8646234756570859,2.465849276043183,0.5445001444708206,1.0544104758940245,0.3238615046091247,-0.39250456234122666,-2.153291787532338,0.8647539153680389,2.46587817577521,0.5445020185570556,-0.0020863298613701107,-0.000989325092426889,-0.0007376957778148332,0.00041318715116829443,-0.00046837840594624063,-0.00016996310773052003,-6.11719029086231e-05,0.0,0.0,0.0,0.0,0.0,0.0,0.0,-0.0001511784603718258,-0.00022969063079519847,-7.384304927376961e-05,0.00032267687613529716,0.0001304397109530564,2.889973202702123e-05,1.8740862349764242e-06,0.0020863298613701107,0.000989325092426889,0.0007376957778148332,-0.00041318715116829443,0.00046837840594624063,0.00016996310773052003,6.11719029086231e-05,0.6053096652030945,34.23751449584961,4.048977375030518,-19.459871292114258,-0.1293845772743225,-1.835025429725647,0.16604940593242645,0
33,0.15999794006347656,-0.6568843722343445,-34.26528549194336,-4.048977375030518,19.459871292114258,0.11198955774307251,1.828616738319397,-0.14590780436992645,0.0,0.0,0.0,0.0,0.0,0.0,0.0,-0.6726138040483325,-0.16517448874540677,-0.5134252495961648,0.4383625815479563,0.0630934612958207,-0.07322155895249517,-0.17258461116207027,1.0545652736320827,0.32409314406964,-0.39243086842217234,-2.153614464408473,0.8646265392576308,2.4658499297059344,0.5444979066746031,1.0544104758940245,0.3238615046091247,-0.39250456234122666,-2.153291787532338,0.8647539153680389,2.46587817577521,0.5445020185570556,-0.00019637108892353372,0.0007167286522454059,-0.0005956709576231519,0.00046324313576500005,7.604857060832535e-05,9.535087055937281e-05,-0.0011090536614589861,0.0,0.0,0.0,0.0,0.0,0.0,0.0,-0.00015479773805826547,-0.00023163946051529827,-7.369391905431844e-05,0.00032267687613529716,0.00012737611040813945,2.82460692755393e-05,4.111882452528803e-06,0.00019637108892353372,-0.0007167286522454059,0.0005956709576231519,-0.00046324313576500005,-7.604857060832535e-05,-9.535087055937281e-05,0.0011090536614589861,0.6568843722343445,34.26528549194336,4.048977375030518,-19.459871292114258,-0.11198955774307251,-1.828616738319397,0.14590780436992645,0
34,0.16499853134155273,-0.6568843722343445,-34.26528549194336,-4.048977375030518,19.459871292114258,0.11198955774307251,1.828616738319397,-0.14590780436992645,0.0,0.0,0.0,0.0,0.0,0.0,0.0,-0.6726138040483325,-0.16517448874540677,-0.5134252495961648,0.4383625815479563,0.0630934612958207,-0.07322155895249517,-0.17258461116207027,1.0545652736320827,0.32409314406964,-0.39243086842217234,-2.153614464408473,0.8646265392576308,2.4658499297059344,0.5444979066746031,1.0544104758940245,0.3238615046091247,-0.39250456234122666,-2.153291787532338,0.8647539153680389,2.46587817577521,0.5445020185570556,-0.00019637108892353372,0.0007167286522454059,-0.0005956709576231519,0.00046324313576500005,7.604857060832535e-05,9.535087055937281e-05,-0.0011090536614589861,0.0,0.0,0.0,0.0,0.0,0.0,0.0,-0.00015479773805826547,-0.00023163946051529827,-7.369391905431844e-05,0.00032267687613529716,0.00012737611040813945,2.82460692755393e-05,4.111882452528803e-06,0.00019637108892353372,-0.0007167286522454059,0.0005956709576231519,-0.00046324313576500005,-7.604857060832535e-05,-9.535087055937281e-05,0.0011090536614589861,0.6568843722343445,34.26528549194336,4.048977375030518,-19.459871292114258,-0.11198955774307251,-1.828616738319397,0.14590780436992645,0
35,0.16995859146118164,-0.6568843722343445,-34.23751449584961,-4.072781085968018,19.459871292114258,0.11748272180557251,1.822208046913147,-0.18710653483867645,0.0,0.0,0.0,0.0,0.0,0.0,0.0,-0.6564265621798825,-0.1750449726124894,-0.49776663451201775,0.4434888161571408,0.06210746253509886,-0.07408279243369525,-0.17310933978953022,1.0545652736320827,0.32409119522780705,-0.3924292784438568,-2.153614464408473,0.8646247980857151,2.4658503341052165,0.5445024842594806,1.0544104758940245,0.3238615046091247,-0.39250456234122666,-2.153291787532338,0.8647539153680389,2.46587817577521,0.5445020185570556,0.0007564385652502294,-0.000522985605308898,0.0008394345156218383,2.2159215996464352e-05,3.306317023668678e-05,0.00019110125360128976,0.0009785370891346517,0.0,0.0,0.0,0.0,0.0,0.0,0.0,-0.00015479773805826547,-0.0002296906186823322,-7.528389736988217e-05,0.00032267687613529716,0.00012911728232378739,2.7841669993478035e-05,-4.657024249565822e-07,-0.0007564385652502294,0.000522985605308898,-0.0008394345156218383,-2.2159215996464352e-05,-3.306317023668678e-05,-0.00019110125360128976,-0.0009785370891346517,0.6568843722343445,34.23751449584961,4.072781085968018,-19.459871292114258,-0.11748272180557251,-1.822208046913147,0.18710653483867645,0
36,0.1749579906463623,-0.6568843722343445,-34.23751449584961,-4.072781085968018,19.459871292114258,0.11748272180557251,1.822208046913147,-0.18710653483867645,0.0,0.0,0.0,0.0,0.0,0.0,0.0,-0.6564265621798825,-0.1750449726124894,-0.49776663451201775,0.4434888161571408,0.06210746253509886,-0.07408279243369525,-0.17310933978953022,1.0545652736320827,0.32409119522780705,-0.3924292784438568,-2.153614464408473,0.8646247980857151,2.4658503341052165,0.5445024842594806,1.0544104758940245,0.3238615046091247,-0.39250456234122666,-2.153291787532338,0.8647539153680389,2.46587817577521,0.5445020185570556,0.0007564385652502294,-0.000522985605308898,0.0008394345156218383,2.2159215996464352e-05,3.306317023668678e-05,0.00019110125360128976,0.0009785370891346517,0.0,0.0,0.0,0.0,0.0,0.0,0.0,-0.00015479773805826547,-0.0002296906186823322,-7.528389736988217e-05,0.00032267687613529716,0.00012911728232378739,2.7841669993478035e-05,-4.657024249565822e-07,-0.0007564385652502294,0.000522985605308898,-0.0008394345156218383,-2.2159215996464352e-05,-3.306317023668678e-05,-0.00019110125360128976,-0.0009785370891346517,0.6568843722343445,34.23751449584961,4.072781085968018,-19.459871292114258,-0.11748272180557251,-1.822208046913147,0.18710653483867645,0
37,0.1799912452697754,-0.6053096652030945,-34.18990707397461,-4.072781085968018,19.436067581176758,0.12389141321182251,1.828616738319397,-0.14590780436992645,0.0,0.0,0.0,0.0,0.0,0.0,0.0,-0.6756700965205158,-0.16932655214749476,-0.509487149806738,0.43539447383068874,0.06324039552961067,-0.07408788347395484,-0.17292464097824958,1.0545616543543963,0.3240878543560965,-0.3924292843312227,-2.1536127939726177,0.8646255386442859,2.4658531609503305,0.5444979066765969,1.0544104758940245,0.3238615046091247,-0.39250456234122666,-2.153291787532338,0.8647539153680389,2.46587817577521,0.5445020185570556,-0.0010636058619528318,-0.0009277508262940124,0.0004226726270150003,0.0002701387911761021,-0.0002245029436196667,2.2641934777353087e-05,-0.0014291078030373987,0.0,0.0,0.0,0.0,0.0,0.0,0.0,-0.0001511784603718258,-0.0002263497469717768,-7.527801000395407e-05,0.0003210064402798807,0.0001283767237529876,2.5014824879487918e-05,4.1118804586792734e-06,0.0010636058619528318,0.0009277508262940124,-0.0004226726270150003,-0.0002701387911761021,0.0002245029436196667,-2.2641934777353087e-05,0.0014291078030373987,0.6053096652030945,34.18990707397461,4.072781085968018,-19.436067581176758,-0.12389141321182251,-1.828616738319397,0.14590780436992645,0
38,0.18502593040466309,-0.6053096652030945,-34.18990707397461,-4.072781085968018,19.436067581176758,0.12389141321182251,1.828616738319397,-0.14590780436992645,0.0,0.0,0.0,0.0,0.0,0.0,0.0,-0.6756700965205158,-0.16932655214749476,-0.509487149806738,0.43539447383068874,0.06324039552961067,-0.07408788347395484,-0.17292464097824958,1.0545616543543963,0.3240878543560965,-0.3924292843312227,-2.1536127939726177,0.8646255386442859,2.4658531609503305,0.5444979066765969,1.0544104758940245,0.3238615046091247,-0.39250456234122666,-2.153291787532338,0.8647539153680389,2.46587817577521,0.5445020185570556,-0.0010636058619528318,-0.0009277508262940124,0.0004226726270150003,0.0002701387911761021,-0.0002245029436196667,2.2641934777353087e-05,-0.0014291078030373987,0.0,0.0,0.0,0.0,0.0,0.0,0.0,-0.0001511784603718258,-0.0002263497469717768,-7.527801000395407e-05,0.0003210064402798807,0.0001283767237529876,2.5014824879487918e-05,4.1118804586792734e-06,0.0010636058619528318,0.0009277508262940124,-0.0004226726270150003,-0.0002701387911761021,0.0002245029436196667,-2.2641934777353087e-05,0.0014291078030373987,0.6053096652030945,34.18990707397461,4.072781085968018,-19.436067581176758,-0.12389141321182251,-1.828616738319397,0.14590780436992645,0
39,0.18994617462158203,-0.6568843722343445,-34.18990707397461,-4.072781085968018,19.459871292114258,0.11748272180557251,1.841434121131897,-0.13217489421367645,0.0,0.0,0.0,0.0,0.0,0.0,0.0,-0.6709257688601676,-0.1720451804441779,-0.5083509706026125,0.43879459101101304,0.06386202822835257,-0.07458687113328531,-0.1746250152343062,1.0545652736320827,0.3240878543560965,-0.3924292782989892,-2.153614464408473,0.8646249192651707,2.465851572982824,0.5444963415518341,1.0544104758940245,0.3238615046091247,-0.39250456234122666,-2.153291787532338,0.8647539153680389,2.46587817577521,0.5445020185570556,-0.00035667066928280844,-0.0009001877885360901,-0.00017630437669706437,2.334026948247989e-05,0.00013715034502805962,-0.00043101929923707987,-0.0018614026576923976,0.0,0.0,0.0,0.0,0.0,0.0,0.0,-0.00015479773805826547,-0.0002263497469717768,-7.528404223744456e-05,0.00032267687613529716,0.00012899610286820629,2.6602792385865826e-05,5.6770052214716316e-06,0.00035667066928280844,0.0009001877885360901,0.00017630437669706437,-2.334026948247989e-05,-0.00013715034502805962,0.00043101929923707987,0.0018614026576923976,0.6568843722343445,34.18990707397461,4.072781085968018,-19.459871292114258,-0.11748272180557251,-1.841434121131897,0.13217489421367645,0
40,0.19494962692260742,-0.6568843722343445,-34.18990707397461,-4.072781085968018,19.459871292114258,0.11748272180557251,1.841434121131897,-0.13217489421367645,0.0,0.0,0.0,0.0,0.0,0.0,0.0,-0.6709257688601676,-0.1720451804441779,-0.5083509706026125,0.43879459101101304,0.06386202822835257,-0.07458687113328531,-0.1746250152343062,1.0545652736320827,0.3240878543560965,-0.3924292782989892,-2.153614464408473,0.8646249192651707,2.465851572982824,0.5444963415518341,1.0544104758940245,0.3238615046091247,-0.39250456234122666,-2.153291787532338,0.8647539153680389,2.46587817577521,0.5445020185570556,-0.00035667066928280844,-0.0009001877885360901,-0.00017630437669706437,2.334026948247989e-05,0.00013715034502805962,-0.00043101929923707987,-0.0018614026576923976,0.0,0.0,0.0,0.0,0.0,0.0,0.0,-0.00015479773805826547,-0.0002263497469717768,-7.528404223744456e-05,0.00032267687613529716,0.00012899610286820629,2.6602792385865826e-05,5.6770052214716316e-06,0.00035667066928280844,0.0009001877885360901,0.00017630437669706437,-2.334026948247989e-05,-0.00013715034502805962,0.00043101929923707987,0.0018614026576923976,0.6568843722343445,34.18990707397461,4.072781085968018,-19.459871292114258,-0.11748272180557251,-1.841434121131897,0.13217489421367645,0
41,0.19999384880065918,-0.6568843722343445,-34.31289291381836,-4.048977375030518,19.459871292114258,0.12389141321182251,1.828616738319397,-0.17978231608867645,0.0,0.0,0.0,0.0,0.0,0.0,0.0,-0.6621975175968651,-0.17703745193963402,-0.503489271326344,0.44480270235326635,0.06362992262370411,-0.07480772499278214,-0.17475719881167454,1.0545652736320827,0.3240964849413487,-0.39243095771051695,-2.153614464408473,0.8646244882727674,2.46585210754549,0.5445016690576083,1.0544104758940245,0.3238615046091247,-0.39250456234122666,-2.153291787532338,0.8647539153680389,2.46587817577521,0.5445020185570556,-0.0008757892755474603,0.00141112710938384,-0.0004912956469724293,0.0005831565284975928,-0.00014326604634712988,4.024611372529265e-05,0.00047459251137037923,0.0,0.0,0.0,0.0,0.0,0.0,0.0,-0.00015479773805826547,-0.0002349803322239663,-7.360463070971157e-05,0.00032267687613529716,0.00012942709527152818,2.6068229720177527e-05,3.4949944727191706e-07,0.0008757892755474603,-0.00141112710938384,0.0004912956469724293,-0.0005831565284975928,0.00014326604634712988,-4.024611372529265e-05,-0.00047459251137037923,0.6568843722343445,34.31289291381836,4.048977375030518,-19.459871292114258,-0.12389141321182251,-1.828616738319397,0.17978231608867645,0
42,0.20499300956726074,-0.6568843722343445,-34.31289291381836,-4.048977375030518,19.459871292114258,0.12389141321182251,1.828616738319397,-0.17978231608867645,0.0,0.0,0.0,0.0,0.0,0.0,0.0,-0.6621975175968651,-0.17703745193963402,-0.503489271326344,0.44480270235326635,0.06362992262370411,-0.07480772499278214,-0.17475719881167454,1.0545652736320827,0.3240964849413487,-0.39243095771051695,-2.153614464408473,0.8646244882727674,2.46585210754549,0.5445016690576083,1.0544104758940245,0.3238615046091247,-0.39250456234122666,-2.153291787532338,0.8647539153680389,2.46587817577521,0.5445020185570556,-0.0008757892755474603,0.00141112710938384,-0.0004912956469724293,0.0005831565284975928,-0.00014326604634712988,4.024611372529265e-05,0.00047459251137037923,0.0,0.0,0.0,0.0,0.0,0.0,0.0,-0.00015479773805826547,-0.0002349803322239663,-7.360463070971157e-05,0.00032267687613529716,0.00012942709527152818,2.6068229720177527e-05,3.4949944727191706e-07,0.0008757892755474603,-0.00141112710938384,0.0004912956469724293,-0.0005831565284975928,0.00014326604634712988,-4.024611372529265e-05,-0.00047459251137037923,0.6568843722343445,34.31289291381836,4.048977375030518,-19.459871292114258,-0.12389141321182251,-1.828616738319397,0.17978231608867645,0
43,0.2099912166595459,-0.7084590792655945,-34.23751449584961,-4.124355792999268,19.459871292114258,0.11748272180557251,1.828616738319397,-0.19351522624492645,0.0,0.0,0.0,0.0,0.0,0.0,0.0,-0.6764891579817625,-0.16090808178422633,-0.5123641818073188,0.43376575856327093,0.06415407170369763,-0.07508304106088516,-0.17389626739477482,1.0545688929097692,0.32409119522780705,-0.3924256676699433,-2.153614464408473,0.8646281772050404,2.465848924282734,0.544503196228625,1.0544104758940245,0.3238615046091247,-0.39250456234122666,-2.153291787532338,0.8647539153680389,2.46587817577521,0.5445020185570556,0.00019246178302851567,-0.00012701675264036014,0.0005804535985615078,0.00016489141513493944,-0.00024347882622084442,0.00010639227578457101,0.0006768705061803959,0.0,0.0,0.0,0.0,0.0,0.0,0.0,-0.00015841701574470513,-0.0002296906186823322,-7.889467128335825e-05,0.00032267687613529716,0.00012573816299854546,2.9251492475790286e-05,-1.1776715693745388e-06,-0.00019246178302851567,0.00012701675264036014,-0.0005804535985615078,-0.00016489141513493944,0.00024347882622084442,-0.00010639227578457101,-0.0006768705061803959,0.7084590792655945,34.23751449584961,4.124355792999268,-19.459871292114258,-0.11748272180557251,-1.828616738319397,0.19351522624492645,0
44,0.21500945091247559,-0.7084590792655945,-34.23751449584961,-4.124355792999268,19.459871292114258,0.11748272180557251,1.828616738319397,-0.19351522624492645,0.0,0.0,0.0,0.0,0.0,0.0,0.0,-0.6764891579817625,-0.16090808178422633,-0.5123641818073188,0.43376575856327093,0.06415407170369763,-0.07508304106088516,-0.17389626739477482,1.0545688929097692,0.32409119522780705,-0.3924256676699433,-2.153614464408473,0.8646281772050404,2.465848924282734,0.544503196228625,1.0544104758940245,0.3238615046091247,-0.39250456234122666,-2.153291787532338,0.8647539153680389,2.46587817577521,0.5445020185570556,0.00019246178302851567,-0.00012701675264036014,0.0005804535985615078,0.00016489141513493944,-0.00024347882622084442,0.00010639227578457101,0.0006768705061803959,0.0,0.0,0.0,0.0,0.0,0.0,0.0,-0.00015841701574470513,-0.0002296906186823322,-7.889467128335825e-05,0.00032267687613529716,0.00012573816299854546,2.9251492475790286e-05,-1.1776715693745388e-06,-0.00019246178302851567,0.00012701675264036014,-0.0005804535985615078,-0.00016489141513493944,0.00024347882622084442,-0.00010639227578457101,-0.0006768705061803959,0.7084590792655945,34.23751449584961,4.124355792999268,-19.459871292114258,-0.11748272180557251,-1.828616738319397,0.19351522624492645,0
45,0.21995115280151367,-0.7084590792655945,-34.23751449584961,-4.124355792999268,19.459871292114258,0.11748272180557251,1.828616738319397,-0.19351522624492645,0.0,0.0,0.0,0.0,0.0,0.0,0.0,-0.6764891579817625,-0.16090808178422633,-0.5123641818073188,0.43376575856327093,0.06415407170369763,-0.07508304106088516,-0.17389626739477482,1.0545688929097692,0.32409119522780705,-0.3924256676699433,-2.153614464408473,0.8646281772050404,2.465848924282734,0.544503196228625,1.0544104758940245,0.3238615046091247,-0.39250456234122666,-2.153291787532338,0.8647539153680389,2.46587817577521,0.5445020185570556,0.00019246178302851567,-0.00012701675264036014,0.0005804535985615078,0.00016489141513493944,-0.00024347882622084442,0.00010639227578457101,0.0006768705061803959,0.0,0.0,0.0,0.0,0.0,0.0,0.0,-0.00015841701574470513,-0.0002296906186823322,-7.889467128335825e-05,0.00032267687613529716,0.00012573816299854546,2.9251492475790286e-05,-1.1776715693745388e-06,-0.00019246178302851567,0.00012701675264036014,-0.0005804535985615078,-0.00016489141513493944,0.00024347882622084442,-0.00010639227578457101,-0.0006768705061803959,0.7084590792655945,34.23751449584961,4.124355792999268,-19.459871292114258,-0.11748272180557251,-1.828616738319397,0.19351522624492645,0
46,0.22499656677246094,-0.7084590792655945,-34.23751449584961,-4.124355792999268,19.459871292114258,0.11748272180557251,1.828616738319397,-0.19351522624492645,0.0,0.0,0.0,0.0,0.0,0.0,0.0,-0.6764891579817625,-0.16090808178422633,-0.5123641818073188,0.43376575856327093,0.06415407170369763,-0.07508304106088516,-0.17389626739477482,1.0545688929097692,0.32409119522780705,-0.3924256676699433,-2.153614464408473,0.8646281772050404,2.465848924282734,0.544503196228625,1.0544104758940245,0.3238615046091247,-0.39250456234122666,-2.153291787532338,0.8647539153680389,2.46587817577521,0.5445020185570556,0.00019246178302851567,-0.00012701675264036014,0.0005804535985615078,0.00016489141513493944,-0.00024347882622084442,0.00010639227578457101,0.0006768705061803959,0.0,0.0,0.0,0.0,0.0,0.0,0.0,-0.00015841701574470513,-0.0002296906186823322,-7.889467128335825e-05,0.00032267687613529716,0.00012573816299854546,2.9251492475790286e-05,-1.1776715693745388e-06,-0.00019246178302851567,0.00012701675264036014,-0.0005804535985615078,-0.00016489141513493944,0.00024347882622084442,-0.00010639227578457101,-0.0006768705061803959,0.7084590792655945,34.23751449584961,4.124355792999268,-19.459871292114258,-0.11748272180557251,-1.828616738319397,0.19351522624492645,0
47,0.22999143600463867,-0.6568843722343445,-34.23751449584961,-4.072781085968018,19.436067581176758,0.1293845772743225,1.841434121131897,-0.17978231608867645,0.0,0.0,0.0,0.0,0.0,0.0,0.0,-0.6686697548647632,-0.16131099279158784,-0.5049786951180608,0.4344993009906274,0.06303335140740726,-0.07621559050251726,-0.17430503051393573,1.0545652736320827,0.3240911953368233,-0.39242928629352664,-2.1536127939726177,0.8646238377511996,2.4658506790314387,0.5445016703497241,1.0544104758940245,0.3238615046091247,-0.39250456234122666,-2.153291787532338,0.8647539153680389,2.46587817577521,0.5445020185570556,-0.0006427921028356292,6.41066993519469e-05,-0.0006119049440437697,0.00016768991389803112,-0.0003768841534428,-0.00039433206612944925,0.000419322934107083,0.0,0.0,0.0,0.0,0.0,0.0,0.0,-0.00015479773805826547,-0.00022969072769857268,-7.527604770002361e-05,0.0003210064402798807,0.00013007761683936359,2.7496743771227017e-05,3.4820733152418626e-07,0.0006427921028356292,-6.41066993519469e-05,0.0006119049440437697,-0.00016768991389803112,0.0003768841534428,0.00039433206612944925,-0.000419322934107083,0.6568843722343445,34.23751449584961,4.072781085968018,-19.436067581176758,-0.1293845772743225,-1.841434121131897,0.17978231608867645,0
48,0.23500657081604004,-0.6568843722343445,-34.23751449584961,-4.072781085968018,19.436067581176758,0.1293845772743225,1.841434121131897,-0.17978231608867645,0.0,0.0,0.0,0.0,0.0,0.0,0.0,-0.6686697548647632,-0.16131099279158784,-0.5049786951180608,0.4344993009906274,0.06303335140740726,-0.07621559050251726,-0.17430503051393573,1.0545652736320827,0.3240911953368233,-0.39242928629352664,-2.1536127939726177,0.8646238377511996,2.4658506790314387,0.5445016703497241,1.0544104758940245,0.3238615046091247,-0.39250456234122666,-2.153291787532338,0.8647539153680389,2.46587817577521,0.5445020185570556,-0.0006427921028356292,6.41066993519469e-05,-0.0006119049440437697,0.00016768991389803112,-0.0003768841534428,-0.00039433206612944925,0.000419322934107083,0.0,0.0,0.0,0.0,0.0,0.0,0.0,-0.00015479773805826547,-0.00022969072769857268,-7.527604770002361e-05,0.0003210064402798807,0.00013007761683936359,2.7496743771227017e-05,3.4820733152418626e-07,0.0006427921028356292,-6.41066993519469e-05,0.0006119049440437697,-0.00016768991389803112,0.0003768841534428,0.00039433206612944925,-0.000419322934107083,0.6568843722343445,34.23751449584961,4.072781085968018,-19.436067581176758,-0.1293845772743225,-1.841434121131897,0.17978231608867645,0
49,0.23999381065368652,-0.6568843722343445,-34.21371078491211,-4.048977375030518,19.436067581176758,0.11748272180557251,1.828616738319397,-0.18710653483867645,0.0,0.0,0.0,0.0,0.0,0.0,0.0,-0.667619755058834,-0.16216020976185688,-0.5089861826630845,0.4363167578146527,0.0633022320775788,-0.07592498363278241,-0.1748474976345134,1.0545652736320827,0.3240895247919519,-0.39243087823767225,-2.1536127939726177,0.8646280698762617,2.465853166751255,0.5445023665757456,1.0544104758940245,0.3238615046091247,-0.39250456234122666,-2.153291787532338,0.8647539153680389,2.46587817577521,0.5445020185570556,-0.00023118117771129805,-0.00017105498418465905,-0.0006994138321842657,0.00047386296311861727,4.2661714471045014e-05,-0.00014483129787573154,0.0007972589676995317,0.0,0.0,0.0,0.0,0.0,0.0,0.0,-0.00015479773805826547,-0.00022802018282719327,-7.368410355440558e-05,0.0003210064402798807,0.00012584549177718785,2.5009023954858378e-05,-3.480186899773585e-07,0.00023118117771129805,0.00017105498418465905,0.0006994138321842657,-0.00047386296311861727,-4.2661714471045014e-05,0.00014483129787573154,-0.0007972589676995317,0.6568843722343445,34.21371078491211,4.048977375030518,-19.436067581176758,-0.11748272180557251,-1.828616738319397,0.18710653483867645,0
50,0.24499201774597168,-0.6568843722343445,-34.21371078491211,-4.048977375030518,19.436067581176758,0.11748272180557251,1.828616738319397,-0.18710653483867645,0.0,0.0,0.0,0.0,0.0,0.0,0.0,-0.667619755058834,-0.16216020976185688,-0.5089861826630845,0.4363167578146527,0.0633022320775788,-0.07592498363278241,-0.1748474976345134,1.0545652736320827,0.3240895247919519,-0.39243087823767225,-2.1536127939726177,0.8646280698762617,2.465853166751255,0.5445023665757456,1.0544104758940245,0.3238615046091247,-0.39250456234122666,-2.153291787532338,0.8647539153680389,2.46587817577521,0.5445020185570556,-0.00023118117771129805,-0.00017105498418465905,-0.0006994138321842657,0.00047386296311861727,4.2661714471045014e-05,-0.00014483129787573154,0.0007972589676995317,0.0,0.0,0.0,0.0,0.0,0.0,0.0,-0.00015479773805826547,-0.00022802018282719327,-7.368410355440558e-05,0.0003210064402798807,0.00012584549177718785,2.5009023954858378e-05,-3.480186899773585e-07,0.00023118117771129805,0.00017105498418465905,0.0006994138321842657,-0.00047386296311861727,-4.2661714471045014e-05,0.00014483129787573154,-0.0007972589676995317,0.6568843722343445,34.21371078491211,4.048977375030518,-19.436067581176758,-0.11748272180557251,-1.828616738319397,0.18710653483867645,0
51,0.24999761581420898,-0.7084590792655945,-34.23751449584961,-4.096584796905518,19.436067581176758,0.11748272180557251,1.828616738319397,-0.12485067546367645,0.0,0.0,0.0,0.0,0.0,0.0,0.0,-0.674870481693157,-0.16503469111702884,-0.518171765948959,0.43697148046052353,0.06372656489558538,-0.07590451422578108,-0.17372651127257546,1.0545688929097692,0.32409122171876026,-0.3924276168386737,-2.1536127939726177,0.8646251603492399,2.4658531493106537,0.5444944681113999,1.0544104758940245,0.3238615046091247,-0.39250456234122666,-2.153291787532338,0.8647539153680389,2.46587817577521,0.5445020185570556,0.0010028326292293856,0.0003199721146885803,0.0005232423617169953,0.0007841645092088039,0.00012605355938779438,-5.5788130011737414e-05,-0.0019617795771922483,0.0,0.0,0.0,0.0,0.0,0.0,0.0,-0.00015841701574470513,-0.00022971710963554104,-7.694550255293864e-05,0.0003210064402798807,0.00012875501879905382,2.5026464556265893e-05,7.550445655701843e-06,-0.0010028326292293856,-0.0003199721146885803,-0.0005232423617169953,-0.0007841645092088039,-0.00012605355938779438,5.5788130011737414e-05,0.0019617795771922483,0.7084590792655945,34.23751449584961,4.096584796905518,-19.436067581176758,-0.11748272180557251,-1.828616738319397,0.12485067546367645,0
52,0.25499916076660156,-0.7084590792655945,-34.23751449584961,-4.096584796905518,19.436067581176758,0.11748272180557251,1.828616738319397,-0.12485067546367645,0.0,0.0,0.0,0.0,0.0,0.0,0.0,-0.674870481693157,-0.16503469111702884,-0.518171765948959,0.43697148046052353,0.06372656489558538,-0.07590451422578108,-0.17372651127257546,1.0545688929097692,0.32409122171876026,-0.3924276168386737,-2.1536127939726177,0.8646251603492399,2.4658531493106537,0.5444944681113999,1.0544104758940245,0.3238615046091247,-0.39250456234122666,-2.153291787532338,0.8647539153680389,2.46587817577521,0.5445020185570556,0.0010028326292293856,0.0003199721146885803,0.0005232423617169953,0.0007841645092088039,0.00012605355938779438,-5.5788130011737414e-05,-0.0019617795771922483,0.0,0.0,0.0,0.0,0.0,0.0,0.0,-0.00015841701574470513,-0.00022971710963554104,-7.694550255293864e-05,0.0003210064402798807,0.00012875501879905382,2.5026464556265893e-05,7.550445655701843e-06,-0.0010028326292293856,-0.0003199721146885803,-0.0005232423617169953,-0.0007841645092088039,-0.00012605355938779438,5.5788130011737414e-05,0.0019617795771922483,0.7084590792655945,34.23751449584961,4.096584796905518,-19.436067581176758,-0.11748272180557251,-1.828616738319397,0.12485067546367645,0
53,0.25995302200317383,-0.6568843722343445,-34.21371078491211,-4.048977375030518,19.459871292114258,0.11198955774307251,1.828616738319397,-0.20083944499492645,0.0,0.0,0.0,0.0,0.0,0.0,0.0,-0.6662296803911409,-0.17475410579833592,-0.5085854157658363,0.4440344034142157,0.06369843578140663,-0.07620176269077794,-0.17279842771735976,1.0545652736320827,0.32408952479210124,-0.3924309576015175,-2.153614464408473,0.8646286668201868,2.4658531665557604,0.5445036569733089,1.0544104758940245,0.3238615046091247,-0.39250456234122666,-2.153291787532338,0.8647539153680389,2.46587817577521,0.5445020185570556,2.408649498388117e-05,-0.0010903157230038691,-0.0006315466275617272,0.00035576602485687105,3.9516923795051745e-05,4.043631018275384e-05,0.0011662105156082937,0.0,0.0,0.0,0.0,0.0,0.0,0.0,-0.00015479773805826547,-0.00022802018297651827,-7.360473970913217e-05,0.00032267687613529716,0.00012524854785211925,2.5009219449589892e-05,-1.6384162533356061e-06,-2.408649498388117e-05,0.0010903157230038691,0.0006315466275617272,-0.00035576602485687105,-3.9516923795051745e-05,-4.043631018275384e-05,-0.0011662105156082937,0.6568843722343445,34.21371078491211,4.048977375030518,-19.459871292114258,-0.11198955774307251,-1.828616738319397,0.20083944499492645,0
54,0.26498985290527344,-0.6568843722343445,-34.21371078491211,-4.048977375030518,19.459871292114258,0.11198955774307251,1.828616738319397,-0.20083944499492645,0.0,0.0,0.0,0.0,0.0,0.0,0.0,-0.6662296803911409,-0.17475410579833592,-0.5085854157658363,0.4440344034142157,0.06369843578140663,-0.07620176269077794,-0.17279842771735976,1.0545652736320827,0.32408952479210124,-0.3924309576015175,-2.153614464408473,0.8646286668201868,2.4658531665557604,0.5445036569733089,1.0544104758940245,0.3238615046091247,-0.39250456234122666,-2.153291787532338,0.8647539153680389,2.46587817577521,0.5445020185570556,2.408649498388117e-05,-0.0010903157230038691,-0.0006315466275617272,0.00035576602485687105,3.9516923795051745e-05,4.043631018275384e-05,0.0011662105156082937,0.0,0.0,0.0,0.0,0.0,0.0,0.0,-0.00015479773805826547,-0.00022802018297651827,-7.360473970913217e-05,0.00032267687613529716,0.00012524854785211925,2.5009219449589892e-05,-1.6384162533356061e-06,-2.408649498388117e-05,0.0010903157230038691,0.0006315466275617272,-0.00035576602485687105,-3.9516923795051745e-05,-4.043631018275384e-05,-0.0011662105156082937,0.6568843722343445,34.21371078491211,4.048977375030518,-19.459871292114258,-0.11198955774307251,-1.828616738319397,0.20083944499492645,0
55,0.2700045108795166,-0.6053096652030945,-34.23751449584961,-4.048977375030518,19.511445999145508,0.11198955774307251,1.828616738319397,-0.18710653483867645,0.0,0.0,0.0,0.0,0.0,0.0,0.0,-0.6562521667515587,-0.16245598765202612,-0.4995618153380541,0.43843312718622407,0.06315463833706816,-0.07703443354118465,-0.17348973781202615,1.0545616543543963,0.32409119522780705,-0.3924309577105332,-2.1536180836861596,0.8646298736466272,2.465848443971109,0.5445024450654652,1.0544104758940245,0.3238615046091247,-0.39250456234122666,-2.153291787532338,0.8647539153680389,2.46587817577521,0.5445020185570556,-0.00021135766556502547,3.6892894442627863e-06,0.00017965395785606928,-0.0009180510830592581,0.0002178270046147819,0.00012385200789559721,0.0003782905322981946,0.0,0.0,0.0,0.0,0.0,0.0,0.0,-0.0001511784603718258,-0.0002296906186823322,-7.36046306934468e-05,0.0003262961538217368,0.0001240417214116718,2.9731804100929793e-05,-4.265084095900207e-07,0.00021135766556502547,-3.6892894442627863e-06,-0.00017965395785606928,0.0009180510830592581,-0.0002178270046147819,-0.00012385200789559721,-0.0003782905322981946,0.6053096652030945,34.23751449584961,4.048977375030518,-19.511445999145508,-0.11198955774307251,-1.828616738319397,0.18710653483867645,0
56,0.27500081062316895,-0.6053096652030945,-34.23751449584961,-4.048977375030518,19.511445999145508,0.11198955774307251,1.828616738319397,-0.18710653483867645,0.0,0.0,0.0,0.0,0.0,0.0,0.0,-0.6562521667515587,-0.16245598765202612,-0.4995618153380541,0.43843312718622407,0.06315463833706816,-0.07703443354118465,-0.17348973781202615,1.0545616543543963,0.32409119522780705,-0.3924309577105332,-2.1536180836861596,0.8646298736466272,2.465848443971109,0.5445024450654652,1.0544104758940245,0.3238615046091247,-0.39250456234122666,-2.153291787532338,0.8647539153680389,2.46587817577521,0.5445020185570556,-0.00021135766556502547,3.6892894442627863e-06,0.00017965395785606928,-0.0009180510830592581,0.0002178270046147819,0.00012385200789559721,0.0003782905322981946,0.0,0.0,0.0,0.0,0.0,0.0,0.0,-0.0001511784603718258,-0.0002296906186823322,-7.36046306934468e-05,0.0003262961538217368,0.0001240417214116718,2.9731804100929793e-05,-4.265084095900207e-07,0.00021135766556502547,-3.6892894442627863e-06,-0.00017965395785606928,0.0009180510830592581,-0.0002178270046147819,-0.00012385200789559721,-0.0003782905322981946,0.6053096652030945,34.23751449584961,4.048977375030518,-19.511445999145508,-0.11198955774307251,-1.828616738319397,0.18710653483867645,0
57,0.28000640869140625,-0.6291133761405945,-34.26528549194336,-4.048977375030518,19.459871292114258,0.11748272180557251,1.828616738319397,-0.14590780436992645,0.0,0.0,0.0,0.0,0.0,0.0,0.0,-0.6598019451900663,-0.1703253746674768,-0.5077051520959857,0.4429507816868837,0.06365093214427735,-0.07537412054758381,-0.17320424532024153,1.0545633247902517,0.3240931440696382,-0.3924309577105338,-2.153614464408473,0.8646247981045379,2.4658495777674765,0.5444978935944232,1.0544104758940245,0.3238615046091247,-0.39250456234122666,-2.153291787532338,0.8647539153680389,2.46587817577521,0.5445020185570556,-0.0002844987642115369,0.00010086456913893839,0.0001912170891438052,8.116526704471959e-05,1.207598739931286e-05,0.00010198049394349148,-0.0008867549479431815,0.0,0.0,0.0,0.0,0.0,0.0,0.0,-0.0001528488962272423,-0.0002316394605134664,-7.360463069283618e-05,0.00032267687613529716,0.00012911726350106623,2.859800773347132e-05,4.124962632356954e-06,0.0002844987642115369,-0.00010086456913893839,-0.0001912170891438052,-8.116526704471959e-05,-1.207598739931286e-05,-0.00010198049394349148,0.0008867549479431815,0.6291133761405945,34.26528549194336,4.048977375030518,-19.459871292114258,-0.11748272180557251,-1.828616738319397,0.14590780436992645,0
58,0.28502535820007324,-0.6291133761405945,-34.26528549194336,-4.048977375030518,19.459871292114258,0.11748272180557251,1.828616738319397,-0.14590780436992645,0.0,0.0,0.0,0.0,0.0,0.0,0.0,-0.6598019451900663,-0.1703253746674768,-0.5077051520959857,0.4429507816868837,0.06365093214427735,-0.07537412054758381,-0.17320424532024153,1.0545633247902517,0.3240931440696382,-0.3924309577105338,-2.153614464408473,0.8646247981045379,2.4658495777674765,0.5444978935944232,1.0544104758940245,0.3238615046091247,-0.39250456234122666,-2.153291787532338,0.8647539153680389,2.46587817577521,0.5445020185570556,-0.0002844987642115369,0.00010086456913893839,0.0001912170891438052,8.116526704471959e-05,1.207598739931286e-05,0.00010198049394349148,-0.0008867549479431815,0.0,0.0,0.0,0.0,0.0,0.0,0.0,-0.0001528488962272423,-0.0002316394605134664,-7.360463069283618e-05,0.00032267687613529716,0.00012911726350106623,2.859800773347132e-05,4.124962632356954e-06,0.0002844987642115369,-0.00010086456913893839,-0.0001912170891438052,-8.116526704471959e-05,-1.207598739931286e-05,-0.00010198049394349148,0.0008867549479431815,0.6291133761405945,34.26528549194336,4.048977375030518,-19.459871292114258,-0.11748272180557251,-1.828616738319397,0.14590780436992645,0
59,0.2899439334869385,-0.6291133761405945,-34.21371078491211,-4.048977375030518,19.436067581176758,0.11748272180557251,1.828616738319397,-0.14590780436992645,0.0,0.0,0.0,0.0,0.0,0.0,0.0,-0.6610524723029083,-0.1618580900894104,-0.5056755413877051,0.4357097618679129,0.0638607561392428,-0.07505953243897741,-0.17091823430123085,1.0545633247902517,0.32408952773539096,-0.39243071634851545,-2.1536127939726177,0.8646248129782218,2.4658527704162396,0.5444979066765231,1.0544104758940245,0.3238615046091247,-0.39250456234122666,-2.153291787532338,0.8647539153680389,2.46587817577521,0.5445020185570556,-0.000700403376692939,-0.0004969619414417589,0.0001107554727345127,0.0003211978719324076,-8.142458476219584e-05,1.5625780584253577e-05,-0.0010629626952977384,0.0,0.0,0.0,0.0,0.0,0.0,0.0,-0.0001528488962272423,-0.00022802312626624133,-7.384599271120784e-05,0.0003210064402798807,0.00012910238981711508,2.5405358970331804e-05,4.1118805325091046e-06,0.000700403376692939,0.0004969619414417589,-0.0001107554727345127,-0.0003211978719324076,8.142458476219584e-05,-1.5625780584253577e-05,0.0010629626952977384,0.6291133761405945,34.21371078491211,4.048977375030518,-19.436067581176758,-0.11748272180557251,-1.828616738319397,0.14590780436992645,0
60,0.29499316215515137,-0.6291133761405945,-34.21371078491211,-4.048977375030518,19.436067581176758,0.11748272180557251,1.828616738319397,-0.14590780436992645,0.0,0.0,0.0,0.0,0.0,0.0,0.0,-0.6610524723029083,-0.1618580900894104,-0.5056755413877051,0.4357097618679129,0.0638607561392428,-0.07505953243897741,-0.17091823430123085,1.0545633247902517,0.32408952773539096,-0.39243071634851545,-2.1536127939726177,0.8646248129782218,2.4658527704162396,0.5444979066765231,1.0544104758940245,0.3238615046091247,-0.39250456234122666,-2.153291787532338,0.8647539153680389,2.46587817577521,0.5445020185570556,-0.000700403376692939,-0.0004969619414417589,0.0001107554727345127,0.0003211978719324076,-8.142458476219584e-05,1.5625780584253577e-05,-0.0010629626952977384,0.0,0.0,0.0,0.0,0.0,0.0,0.0,-0.0001528488962272423,-0.00022802312626624133,-7.384599271120784e-05,0.0003210064402798807,0.00012910238981711508,2.5405358970331804e-05,4.1118805325091046e-06,0.000700403376692939,0.0004969619414417589,-0.0001107554727345127,-0.0003211978719324076,8.142458476219584e-05,-1.5625780584253577e-05,0.0010629626952977384,0.6291133761405945,34.21371078491211,4.048977375030518,-19.436067581176758,-0.11748272180557251,-1.828616738319397,0.14590780436992645,0
61,0.29999399185180664,-0.6568843722343445,-34.21371078491211,-4.124355792999268,19.436067581176758,0.11748272180557251,1.828616738319397,-0.16604940593242645,0.0,0.0,0.0,0.0,0.0,0.0,0.0,-0.6726144708097925,-0.16270601652298905,-0.5117982254373153,0.43361131542801484,0.06428926489093685,-0.07420853059938798,-0.170110141323613,1.0545652736320827,0.32408952479196834,-0.39242558852276993,-2.1536127939726177,0.864624798244959,2.465852813879264,0.5445001446323261,1.0544104758940245,0.3238615046091247,-0.39250456234122666,-2.153291787532338,0.8647539153680389,2.46587817577521,0.5445020185570556,-0.0009177656083979567,-0.00018361705021198026,0.001109650409543111,0.0002066585023663469,0.00017630133563827373,-0.00011397465435696831,-0.0002658426488207356,0.0,0.0,0.0,0.0,0.0,0.0,0.0,-0.00015479773805826547,-0.00022802018284362457,-7.897381845672902e-05,0.0003210064402798807,0.00012911712307994705,2.5361895946041102e-05,1.8739247295007644e-06,0.0009177656083979567,0.00018361705021198026,-0.001109650409543111,-0.0002066585023663469,-0.00017630133563827373,0.00011397465435696831,0.0002658426488207356,0.6568843722343445,34.21371078491211,4.124355792999268,-19.436067581176758,-0.11748272180557251,-1.828616738319397,0.16604940593242645,0
62,0.3049955368041992,-0.6568843722343445,-34.21371078491211,-4.124355792999268,19.436067581176758,0.11748272180557251,1.828616738319397,-0.16604940593242645,0.0,0.0,0.0,0.0,0.0,0.0,0.0,-0.6726144708097925,-0.16270601652298905,-0.5117982254373153,0.43361131542801484,0.06428926489093685,-0.07420853059938798,-0.170110141323613,1.0545652736320827,0.32408952479196834,-0.39242558852276993,-2.1536127939726177,0.864624798244959,2.465852813879264,0.5445001446323261,1.0544104758940245,0.3238615046091247,-0.39250456234122666,-2.153291787532338,0.8647539153680389,2.46587817577521,0.5445020185570556,-0.0009177656083979567,-0.00018361705021198026,0.001109650409543111,0.0002066585023663469,0.00017630133563827373,-0.00011397465435696831,-0.0002658426488207356,0.0,0.0,0.0,0.0,0.0,0.0,0.0,-0.00015479773805826547,-0.00022802018284362457,-7.897381845672902e-05,0.0003210064402798807,0.00012911712307994705,2.5361895946041102e-05,1.8739247295007644e-06,0.0009177656083979567,0.00018361705021198026,-0.001109650409543111,-0.0002066585023663469,-0.00017630133563827373,0.00011397465435696831,0.0002658426488207356,0.6568843722343445,34.21371078491211,4.124355792999268,-19.436067581176758,-0.11748272180557251,-1.828616738319397,0.16604940593242645,0
63,0.3099489212036133,-0.7322627902030945,-34.23751449584961,-4.148159503936768,19.459871292114258,0.11748272180557251,1.835025429725647,-0.19351522624492645,0.0,0.0,0.0,0.0,0.0,0.0,0.0,-0.671128016343157,-0.17632749589504548,-0.5133147217765497,0.44184417562282025,0.06467910522327536,-0.07361097574848492,-0.17196571887171172,1.0545705633456244,0.32409120405812475,-0.39242320283209126,-2.153614464408473,0.8646247985759622,2.465852284896182,0.5445031963363035,1.0544104758940245,0.3238615046091247,-0.39250456234122666,-2.153291787532338,0.8647539153680389,2.46587817577521,0.5445020185570556,0.0007376425882740764,-0.00012959293473940569,0.0007430520767185894,-3.7724587576663424e-05,5.971796822943243e-05,-2.4431777142132617e-06,0.0009088356322862424,0.0,0.0,0.0,0.0,0.0,0.0,0.0,-0.00016008745159989957,-0.00022969944900003147,-8.135950913540357e-05,0.00032267687613529716,0.00012911679207672222,2.5890879027823388e-05,-1.1777792479072957e-06,-0.0007376425882740764,0.00012959293473940569,-0.0007430520767185894,3.7724587576663424e-05,-5.971796822943243e-05,2.4431777142132617e-06,-0.0009088356322862424,0.7322627902030945,34.23751449584961,4.148159503936768,-19.459871292114258,-0.11748272180557251,-1.835025429725647,0.19351522624492645,0
64,0.31499314308166504,-0.7322627902030945,-34.23751449584961,-4.148159503936768,19.459871292114258,0.11748272180557251,1.835025429725647,-0.19351522624492645,0.0,0.0,0.0,0.0,0.0,0.0,0.0,-0.671128016343157,-0.17632749589504548,-0.5133147217765497,0.44184417562282025,0.06467910522327536,-0.07361097574848492,-0.17196571887171172,1.0545705633456244,0.32409120405812475,-0.39242320283209126,-2.153614464408473,0.8646247985759622,2.465852284896182,0.5445031963363035,1.0544104758940245,0.3238615046091247,-0.39250456234122666,-2.153291787532338,0.8647539153680389,2.46587817577521,0.5445020185570556,0.0007376425882740764,-0.00012959293473940569,0.0007430520767185894,-3.7724587576663424e-05,5.971796822943243e-05,-2.4431777142132617e-06,0.0009088356322862424,0.0,0.0,0.0,0.0,0.0,0.0,0.0,-0.00016008745159989957,-0.00022969944900003147,-8.135950913540357e-05,0.00032267687613529716,0.00012911679207672222,2.5890879027823388e-05,-1.1777792479072957e-06,-0.0007376425882740764,0.00012959293473940569,-0.0007430520767185894,3.7724587576663424e-05,-5.971796822943243e-05,2.4431777142132617e-06,-0.0009088356322862424,0.7322627902030945,34.23751449584961,4.148159503936768,-19.459871292114258,-0.11748272180557251,-1.835025429725647,0.19351522624492645,0
65,0.3200383186340332,-0.6568843722343445,-34.28908920288086,-4.124355792999268,19.436067581176758,0.11748272180557251,1.828616738319397,-0.13858358561992645,0.0,0.0,0.0,0.0,0.0,0.0,0.0,-0.6593541006005705,-0.17058666650978793,-0.503771658441004,0.43996227706817176,0.06373284507524458,-0.07466784036637086,-0.1725494290536466,1.0545652736320827,0.32409696027275514,-0.39242566766545706,-2.1536127939726177,0.864625200404546,2.4658531147116083,0.544496700415947,1.0544104758940245,0.3238615046091247,-0.39250456234122666,-2.153291787532338,0.8647539153680389,2.46587817577521,0.5445020185570556,-0.0008065529895310196,0.0007642466862670759,0.0006563310246116538,0.000499147214779167,-2.099527700407641e-05,0.000338208948705675,-0.0010621524321451292,0.0,0.0,0.0,0.0,0.0,0.0,0.0,-0.00015479773805826547,-0.00023545566363042392,-7.889467576960296e-05,0.0003210064402798807,0.00012871496349287082,2.5061063601672373e-05,5.318141108601182e-06,0.0008065529895310196,-0.0007642466862670759,-0.0006563310246116538,-0.000499147214779167,2.099527700407641e-05,-0.000338208948705675,0.0010621524321451292,0.6568843722343445,34.28908920288086,4.124355792999268,-19.436067581176758,-0.11748272180557251,-1.828616738319397,0.13858358561992645,0
66,0.3250429630279541,-0.6568843722343445,-34.28908920288086,-4.124355792999268,19.436067581176758,0.11748272180557251,1.828616738319397,-0.13858358561992645,0.0,0.0,0.0,0.0,0.0,0.0,0.0,-0.6593541006005705,-0.17058666650978793,-0.503771658441004,0.43996227706817176,0.06373284507524458,-0.07466784036637086,-0.1725494290536466,1.0545652736320827,0.32409696027275514,-0.39242566766545706,-2.1536127939726177,0.864625200404546,2.4658531147116083,0.544496700415947,1.0544104758940245,0.3238615046091247,-0.39250456234122666,-2.153291787532338,0.8647539153680389,2.46587817577521,0.5445020185570556,-0.0008065529895310196,0.0007642466862670759,0.0006563310246116538,0.000499147214779167,-2.099527700407641e-05,0.000338208948705675,-0.0010621524321451292,0.0,0.0,0.0,0.0,0.0,0.0,0.0,-0.00015479773805826547,-0.00023545566363042392,-7.889467576960296e-05,0.0003210064402798807,0.00012871496349287082,2.5061063601672373e-05,5.318141108601182e-06,0.0008065529895310196,-0.0007642466862670759,-0.0006563310246116538,-0.000499147214779167,2.099527700407641e-05,-0.000338208948705675,0.0010621524321451292,0.6568843722343445,34.28908920288086,4.124355792999268,-19.436067581176758,-0.11748272180557251,-1.828616738319397,0.13858358561992645,0
67,0.33002305030822754,-0.6568843722343445,-34.28908920288086,-4.124355792999268,19.436067581176758,0.11748272180557251,1.828616738319397,-0.13858358561992645,0.0,0.0,0.0,0.0,0.0,0.0,0.0,-0.6593541006005705,-0.17058666650978793,-0.503771658441004,0.43996227706817176,0.06373284507524458,-0.07466784036637086,-0.1725494290536466,1.0545652736320827,0.32409696027275514,-0.39242566766545706,-2.1536127939726177,0.864625200404546,2.4658531147116083,0.544496700415947,1.0544104758940245,0.3238615046091247,-0.39250456234122666,-2.153291787532338,0.8647539153680389,2.46587817577521,0.5445020185570556,-0.0008065529895310196,0.0007642466862670759,0.0006563310246116538,0.000499147214779167,-2.099527700407641e-05,0.000338208948705675,-0.0010621524321451292,0.0,0.0,0.0,0.0,0.0,0.0,0.0,-0.00015479773805826547,-0.00023545566363042392,-7.889467576960296e-05,0.0003210064402798807,0.00012871496349287082,2.5061063601672373e-05,5.318141108601182e-06,0.0008065529895310196,-0.0007642466862670759,-0.0006563310246116538,-0.000499147214779167,2.099527700407641e-05,-0.000338208948705675,0.0010621524321451292,0.6568843722343445,34.28908920288086,4.124355792999268,-19.436067581176758,-0.11748272180557251,-1.828616738319397,0.13858358561992645,0
68,0.3350045680999756,-0.6568843722343445,-34.28908920288086,-4.124355792999268,19.436067581176758,0.11748272180557251,1.828616738319397,-0.13858358561992645,0.0,0.0,0.0,0.0,0.0,0.0,0.0,-0.6593541006005705,-0.17058666650978793,-0.503771658441004,0.43996227706817176,0.06373284507524458,-0.07466784036637086,-0.1725494290536466,1.0545652736320827,0.32409696027275514,-0.39242566766545706,-2.1536127939726177,0.864625200404546,2.4658531147116083,0.544496700415947,1.0544104758940245,0.3238615046091247,-0.39250456234122666,-2.153291787532338,0.8647539153680389,2.46587817577521,0.5445020185570556,-0.0008065529895310196,0.0007642466862670759,0.0006563310246116538,0.000499147214779167,-2.099527700407641e-05,0.000338208948705675,-0.0010621524321451292,0.0,0.0,0.0,0.0,0.0,0.0,0.0,-0.00015479773805826547,-0.00023545566363042392,-7.889467576960296e-05,0.0003210064402798807,0.00012871496349287082,2.5061063601672373e-05,5.318141108601182e-06,0.0008065529895310196,-0.0007642466862670759,-0.0006563310246116538,-0.000499147214779167,2.099527700407641e-05,-0.000338208948705675,0.0010621524321451292,0.6568843722343445,34.28908920288086,4.124355792999268,-19.436067581176758,-0.11748272180557251,-1.828616738319397,0.13858358561992645,0
69,0.3399984836578369,-0.7084590792655945,-34.23751449584961,-4.096584796905518,19.459871292114258,0.1293845772743225,1.828616738319397,-0.15231649577617645,0.0,0.0,0.0,0.0,0.0,0.0,0.0,-0.6626103433255888,-0.1602286362050839,-0.5056095261040565,0.43459439679181,0.0634433376404913,-0.074739863761207,-0.17155690807614138,1.0545688929097692,0.3240911952399199,-0.3924276165117726,-2.153614464408473,0.8646238516018756,2.465852997190044,0.5444986187512045,1.0544104758940245,0.3238615046091247,-0.39250456234122666,-2.153291787532338,0.8647539153680389,2.46587817577521,0.5445020185570556,0.0009172761806688628,0.00013507346339387415,0.0006439326975397838,0.00041688965171049193,-0.00036703181123476185,0.0001277085918425755,-0.0007158151117818224,0.0,0.0,0.0,0.0,0.0,0.0,0.0,-0.00015841701574470513,-0.00022969063079519847,-7.694582945405593e-05,0.00032267687613529716,0.00013006376616331305,2.5178585166152345e-05,3.3998058510675833e-06,-0.0009172761806688628,-0.00013507346339387415,-0.0006439326975397838,-0.00041688965171049193,0.00036703181123476185,-0.0001277085918425755,0.0007158151117818224,0.7084590792655945,34.23751449584961,4.096584796905518,-19.459871292114258,-0.1293845772743225,-1.828616738319397,0.15231649577617645,0
70,0.34499168395996094,-0.7084590792655945,-34.23751449584961,-4.096584796905518,19.459871292114258,0.1293845772743225,1.828616738319397,-0.15231649577617645,0.0,0.0,0.0,0.0,0.0,0.0,0.0,-0.6626103433255888,-0.1602286362050839,-0.5056095261040565,0.43459439679181,0.0634433376404913,-0.074739863761207,-0.17155690807614138,1.0545688929097692,0.3240911952399199,-0.3924276165117726,-2.153614464408473,0.8646238516018756,2.465852997190044,0.5444986187512045,1.0544104758940245,0.3238615046091247,-0.39250456234122666,-2.153291787532338,0.8647539153680389,2.46587817577521,0.5445020185570556,0.0009172761806688628,0.00013507346339387415,0.0006439326975397838,0.00041688965171049193,-0.00036703181123476185,0.0001277085918425755,-0.0007158151117818224,0.0,0.0,0.0,0.0,0.0,0.0,0.0,-0.00015841701574470513,-0.00022969063079519847,-7.694582945405593e-05,0.00032267687613529716,0.00013006376616331305,2.5178585166152345e-05,3.3998058510675833e-06,-0.0009172761806688628,-0.00013507346339387415,-0.0006439326975397838,-0.00041688965171049193,0.00036703181123476185,-0.0001277085918425755,0.0007158151117818224,0.7084590792655945,34.23751449584961,4.096584796905518,-19.459871292114258,-0.1293845772743225,-1.828616738319397,0.15231649577617645,0
71,0.350006103515625,-0.6568843722343445,-34.23751449584961,-4.072781085968018,19.459871292114258,0.12389141321182251,1.835025429725647,-0.20724813640117645,0.0,0.0,0.0,0.0,0.0,0.0,0.0,-0.6694135856936103,-0.16941487119552323,-0.5115018881200346,0.43997255643548155,0.0642987534760037,-0.07369048981379275,-0.1707832054938273,1.0545652736320827,0.324091274809683,-0.39242904874708257,-2.153614464408473,0.8646273443904638,2.4658524546940597,0.5445047222510999,1.0544104758940245,0.3238615046091247,-0.39250456234122666,-2.153291787532338,0.8647539153680389,2.46587817577521,0.5445020185570556,3.910546132658521e-05,4.6376764416884715e-05,0.00013413362875871912,0.0005026440163817849,-0.0001646131231021821,-0.0001104510166496812,0.0013250627164468007,0.0,0.0,0.0,0.0,0.0,0.0,0.0,-0.00015479773805826547,-0.0002297702005583102,-7.551359414409431e-05,0.00032267687613529716,0.00012657097757506897,2.572108115028726e-05,-2.7036940443148083e-06,-3.910546132658521e-05,-4.6376764416884715e-05,-0.00013413362875871912,-0.0005026440163817849,0.0001646131231021821,0.0001104510166496812,-0.0013250627164468007,0.6568843722343445,34.23751449584961,4.072781085968018,-19.459871292114258,-0.12389141321182251,-1.835025429725647,0.20724813640117645,0
72,0.35515403747558594,-0.6568843722343445,-34.23751449584961,-4.072781085968018,19.459871292114258,0.12389141321182251,1.835025429725647,-0.20724813640117645,0.0,0.0,0.0,0.0,0.0,0.0,0.0,-0.6694135856936103,-0.16941487119552323,-0.5115018881200346,0.43997255643548155,0.0642987534760037,-0.07369048981379275,-0.1707832054938273,1.0545652736320827,0.324091274809683,-0.39242904874708257,-2.153614464408473,0.8646273443904638,2.4658524546940597,0.5445047222510999,1.0544104758940245,0.3238615046091247,-0.39250456234122666,-2.153291787532338,0.8647539153680389,2.46587817577521,0.5445020185570556,3.910546132658521e-05,4.6376764416884715e-05,0.00013413362875871912,0.0005026440163817849,-0.0001646131231021821,-0.0001104510166496812,0.0013250627164468007,0.0,0.0,0.0,0.0,0.0,0.0,0.0,-0.00015479773805826547,-0.0002297702005583102,-7.551359414409431e-05,0.00032267687613529716,0.00012657097757506897,2.572108115028726e-05,-2.7036940443148083e-06,-3.910546132658521e-05,-4.6376764416884715e-05,-0.00013413362875871912,-0.0005026440163817849,0.0001646131231021821,0.0001104510166496812,-0.0013250627164468007,0.6568843722343445,34.23751449584961,4.072781085968018,-19.459871292114258,-0.12389141321182251,-1.835025429725647,0.20724813640117645,0
73,0.360004186630249,-0.6568843722343445,-34.21371078491211,-4.072781085968018,19.436067581176758,0.11198955774307251,1.835025429725647,-0.15964071452617645,0.0,0.0,0.0,0.0,0.0,0.0,0.0,-0.6681450108280773,-0.16638810509739846,-0.5101522126867934,0.4401048891364108,0.064464766551414,-0.07393918542261524,-0.17234777971569226,1.0545652736320827,0.3240895512833542,-0.3924292872733321,-2.1536127939726177,0.8646257704923154,2.4658491578809136,0.5444994323939976,1.0544104758940245,0.3238615046091247,-0.39250456234122666,-2.153291787532338,0.8647539153680389,2.46587817577521,0.5445020185570556,1.6570529974503165e-05,-0.0005041297731505651,0.0002628371509829954,0.0009402133048220451,0.00013129005614823225,-0.00015585829838598385,-0.0005649852695648381,0.0,0.0,0.0,0.0,0.0,0.0,0.0,-0.00015479773805826547,-0.00022804667422948732,-7.527506789456462e-05,0.0003210064402798807,0.00012814487572354594,2.9017894296323732e-05,2.58616305803816e-06,-1.6570529974503165e-05,0.0005041297731505651,-0.0002628371509829954,-0.0009402133048220451,-0.00013129005614823225,0.00015585829838598385,0.0005649852695648381,0.6568843722343445,34.21371078491211,4.072781085968018,-19.436067581176758,-0.11198955774307251,-1.835025429725647,0.15964071452617645,0
74,0.3649942874908447,-0.6568843722343445,-34.21371078491211,-4.072781085968018,19.436067581176758,0.11198955774307251,1.835025429725647,-0.15964071452617645,0.0,0.0,0.0,0.0,0.0,0.0,0.0,-0.6681450108280773,-0.16638810509739846,-0.5101522126867934,0.4401048891364108,0.064464766551414,-0.07393918542261524,-0.17234777971569226,1.0545652736320827,0.3240895512833542,-0.3924292872733321,-2.1536127939726177,0.8646257704923154,2.4658491578809136,0.5444994323939976,1.0544104758940245,0.3238615046091247,-0.39250456234122666,-2.153291787532338,0.8647539153680389,2.46587817577521,0.5445020185570556,1.6570529974503165e-05,-0.0005041297731505651,0.0002628371509829954,0.0009402133048220451,0.00013129005614823225,-0.00015585829838598385,-0.0005649852695648381,0.0,0.0,0.0,0.0,0.0,0.0,0.0,-0.00015479773805826547,-0.00022804667422948732,-7.527506789456462e-05,0.0003210064402798807,0.00012814487572354594,2.9017894296323732e-05,2.58616305803816e-06,-1.6570529974503165e-05,0.0005041297731505651,-0.0002628371509829954,-0.0009402133048220451,-0.00013129005614823225,0.00015585829838598385,0.0005649852695648381,0.6568843722343445,34.21371078491211,4.072781085968018,-19.436067581176758,-0.11198955774307251,-1.835025429725647,0.15964071452617645,0
75,0.3704073429107666,-0.6806880831718445,-34.21371078491211,-4.048977375030518,19.487642288208008,0.11748272180557251,1.828616738319397,-0.18710653483867645,0.0,0.0,0.0,0.0,0.0,0.0,0.0,-0.6663617296290367,-0.1608406158755396,-0.5069199885937627,0.4380207943994224,0.06377699716359797,-0.07437693603689534,-0.17251755626404683,1.0545669440679382,0.32408952479240033,-0.3924309577105338,-2.153616413250304,0.8646259244415487,2.4658528004207008,0.5445021306160865,1.0544104758940245,0.3238615046091247,-0.39250456234122666,-2.153291787532338,0.8647539153680389,2.46587817577521,0.5445020185570556,0.0007260740898457441,7.796333568181343e-05,-6.043128608534436e-05,-0.0009141338900471661,-1.4612837399942587e-05,0.00011032696851175582,0.0008484817198623703,0.0,0.0,0.0,0.0,0.0,0.0,0.0,-0.00015646817391368195,-0.00022802018327561235,-7.360463069283618e-05,0.00032462571796632034,0.00012799092649018462,2.5375354509193926e-05,-1.1205903094335667e-07,-0.0007260740898457441,-7.796333568181343e-05,6.043128608534436e-05,0.0009141338900471661,1.4612837399942587e-05,-0.00011032696851175582,-0.0008484817198623703,0.6806880831718445,34.21371078491211,4.048977375030518,-19.487642288208008,-0.11748272180557251,-1.828616738319397,0.18710653483867645,0
76,0.37538957595825195,-0.6806880831718445,-34.21371078491211,-4.048977375030518,19.487642288208008,0.11748272180557251,1.828616738319397,-0.18710653483867645,0.0,0.0,0.0,0.0,0.0,0.0,0.0,-0.6663617296290367,-0.1608406158755396,-0.5069199885937627,0.4380207943994224,0.06377699716359797,-0.07437693603689534,-0.17251755626404683,1.0545669440679382,0.32408952479240033,-0.3924309577105338,-2.153616413250304,0.8646259244415487,2.4658528004207008,0.5445021306160865,1.0544104758940245,0.3238615046091247,-0.39250456234122666,-2.153291787532338,0.8647539153680389,2.46587817577521,0.5445020185570556,0.0007260740898457441,7.796333568181343e-05,-6.043128608534436e-05,-0.0009141338900471661,-1.4612837399942587e-05,0.00011032696851175582,0.0008484817198623703,0.0,0.0,0.0,0.0,0.0,0.0,0.0,-0.00015646817391368195,-0.00022802018327561235,-7.360463069283618e-05,0.00032462571796632034,0.00012799092649018462,2.5375354509193926e-05,-1.1205903094335667e-07,-0.0007260740898457441,-7.796333568181343e-05,6.043128608534436e-05,0.0009141338900471661,1.4612837399942587e-05,-0.00011032696851175582,-0.0008484817198623703,0.6806880831718445,34.21371078491211,4.048977375030518,-19.487642288208008,-0.11748272180557251,-1.828616738319397,0.18710653483867645,0
77,0.3799464702606201,-0.6568843722343445,-34.23751449584961,-4.124355792999268,19.487642288208008,0.11748272180557251,1.835025429725647,-0.20724813640117645,0.0,0.0,0.0,0.0,0.0,0.0,0.0,-0.6624636120685152,-0.1681570088762946,-0.5012526651992504,0.4445928447365779,0.06337456783731198,-0.07394851224454735,-0.1723706618601695,1.0545652736320827,0.3240911955548558,-0.39242566799699213,-2.153616413250304,0.8646280565238799,2.4658519449820697,0.5445036626302501,1.0544104758940245,0.3238615046091247,-0.39250456234122666,-2.153291787532338,0.8647539153680389,2.46587817577521,0.5445020185570556,0.00035748270062824265,0.00045585226837193115,0.0011860121779903874,-0.00036302775804954233,8.8937864619682e-06,-9.425564385811565e-05,0.001907484084383062,0.0,0.0,0.0,0.0,0.0,0.0,0.0,-0.00015479773805826547,-0.00022969094573110915,-7.889434423452579e-05,0.00032462571796632034,0.00012585884415905468,2.623079314023613e-05,-1.64407319447335e-06,-0.00035748270062824265,-0.00045585226837193115,-0.0011860121779903874,0.00036302775804954233,-8.8937864619682e-06,9.425564385811565e-05,-0.001907484084383062,0.6568843722343445,34.23751449584961,4.124355792999268,-19.487642288208008,-0.11748272180557251,-1.835025429725647,0.20724813640117645,0
78,0.3849978446960449,-0.6568843722343445,-34.23751449584961,-4.124355792999268,19.487642288208008,0.11748272180557251,1.835025429725647,-0.20724813640117645,0.0,0.0,0.0,0.0,0.0,0.0,0.0,-0.6624636120685152,-0.1681570088762946,-0.5012526651992504,0.4445928447365779,0.06337456783731198,-0.07394851224454735,-0.1723706618601695,1.0545652736320827,0.3240911955548558,-0.39242566799699213,-2.153616413250304,0.8646280565238799,2.4658519449820697,0.5445036626302501,1.0544104758940245,0.3238615046091247,-0.39250456234122666,-2.153291787532338,0.8647539153680389,2.46587817577521,0.5445020185570556,0.00035748270062824265,0.00045585226837193115,0.0011860121779903874,-0.00036302775804954233,8.8937864619682e-06,-9.425564385811565e-05,0.001907484084383062,0.0,0.0,0.0,0.0,0.0,0.0,0.0,-0.00015479773805826547,-0.00022969094573110915,-7.889434423452579e-05,0.00032462571796632034,0.00012585884415905468,2.623079314023613e-05,-1.64407319447335e-06,-0.00035748270062824265,-0.00045585226837193115,-0.0011860121779903874,0.00036302775804954233,-8.8937864619682e-06,9.425564385811565e-05,-0.001907484084383062,0.6568843722343445,34.23751449584961,4.124355792999268,-19.487642288208008,-0.11748272180557251,-1.835025429725647,0.20724813640117645,0
79,0.39000368118286133,-0.6053096652030945,-34.23751449584961,-4.096584796905518,19.487642288208008,0.11748272180557251,1.828616738319397,-0.17978231608867645,0.0,0.0,0.0,0.0,0.0,0.0,0.0,-0.6577123577607719,-0.17382915778306257,-0.5022729848376812,0.4494103371593077,0.06286910271725593,-0.0734487827432349,-0.17269668570229263,1.0545616543543963,0.3240911952278089,-0.3924276080085055,-2.153616413250304,0.8646251601407532,2.4658520681535125,0.5445016312593941,1.0544104758940245,0.3238615046091247,-0.39250456234122666,-2.153291787532338,0.8647539153680389,2.46587817577521,0.5445020185570556,-0.0011678056235719769,-0.0006061631360588682,0.0006628775453403438,0.00010848431421337942,-0.00027483050125926993,0.00012026890549687923,0.00018515099194115538,0.0,0.0,0.0,0.0,0.0,0.0,0.0,-0.0001511784603718258,-0.00022969061868416407,-7.695433272114638e-05,0.00032462571796632034,0.0001287552272857262,2.6107621697413208e-05,3.872976614971435e-07,0.0011678056235719769,0.0006061631360588682,-0.0006628775453403438,-0.00010848431421337942,0.00027483050125926993,-0.00012026890549687923,-0.00018515099194115538,0.6053096652030945,34.23751449584961,4.096584796905518,-19.487642288208008,-0.11748272180557251,-1.828616738319397,0.17978231608867645,0
80,0.3950037956237793,-0.6053096652030945,-34.23751449584961,-4.096584796905518,19.487642288208008,0.11748272180557251,1.828616738319397,-0.17978231608867645,0.0,0.0,0.0,0.0,0.0,0.0,0.0,-0.6577123577607719,-0.17382915778306257,-0.5022729848376812,0.4494103371593077,0.06286910271725593,-0.0734487827432349,-0.17269668570229263,1.0545616543543963,0.3240911952278089,-0.3924276080085055,-2.153616413250304,0.8646251601407532,2.4658520681535125,0.5445016312593941,1.0544104758940245,0.3238615046091247,-0.39250456234122666,-2.153291787532338,0.8647539153680389,2.46587817577521,0.5445020185570556,-0.0011678056235719769,-0.0006061631360588682,0.0006628775453403438,0.00010848431421337942,-0.00027483050125926993,0.00012026890549687923,0.00018515099194115538,0.0,0.0,0.0,0.0,0.0,0.0,0.0,-0.0001511784603718258,-0.00022969061868416407,-7.695433272114638e-05,0.00032462571796632034,0.0001287552272857262,2.6107621697413208e-05,3.872976614971435e-07,0.0011678056235719769,0.0006061631360588682,-0.0006628775453403438,-0.00010848431421337942,0.00027483050125926993,-0.00012026890549687923,-0.00018515099194115538,0.6053096652030945,34.23751449584961,4.096584796905518,-19.487642288208008,-0.11748272180557251,-1.828616738319397,0.17978231608867645,0
