rezayati/contactInterpretation/dataset/franka_main/labeled_data/link7/a2_4.csv
index,time,tau_J0,tau_J1,tau_J2,tau_J3,tau_J4,tau_J5,tau_J6,tau_J_d0,tau_J_d1,tau_J_d2,tau_J_d3,tau_J_d4,tau_J_d5,tau_J_d6,tau_ext0,tau_ext1,tau_ext2,tau_ext3,tau_ext4,tau_ext5,tau_ext6,q0,q1,q2,q3,q4,q5,q6,q_d0,q_d1,q_d2,q_d3,q_d4,q_d5,q_d6,dq0,dq1,dq2,dq3,dq4,dq5,dq6,dq_d0,dq_d1,dq_d2,dq_d3,dq_d4,dq_d5,dq_d6,e0,e1,e2,e3,e4,e5,e6,de0,de1,de2,de3,de4,de5,de6,etau_J0,etau_J1,etau_J2,etau_J3,etau_J4,etau_J5,etau_J6,label
1,0.0,-0.3752071261405945,-19.693445205688477,-0.4228789508342743,20.031160354614258,0.7427878975868225,2.4630770683288574,-0.17978231608867645,0.0,0.0,0.0,0.0,0.0,0.0,0.0,-0.43306682133569746,0.017991732519775122,-0.23736072746352624,0.28110225306391234,0.15482667102549402,0.10232434993933998,-0.17355573578139943,1.213513835292614,-0.22032938611507413,-0.007490026233554611,-2.6038651261580616,-0.10899996203184127,2.468136578292971,0.8264665090160237,1.2134413937687574,-0.2202432315892585,-0.0075118285948192216,-2.6038483821997875,-0.10888392708698907,2.4681821257803174,0.826474908251239,-0.0007594942657365823,-0.0005471407203565212,0.00028971091530481126,0.0004917666559901518,-0.0002709172830878174,0.00041652023597322596,0.00016681861877590996,0.0,0.0,0.0,0.0,0.0,0.0,0.0,-7.244152385665892e-05,8.615452581564598e-05,-2.1802361264610694e-05,1.6743958274112458e-05,0.00011603494485219745,4.554748734619807e-05,8.399235215339473e-06,0.0007594942657365823,0.0005471407203565212,-0.00028971091530481126,-0.0004917666559901518,0.0002709172830878174,-0.00041652023597322596,-0.00016681861877590996,0.3752071261405945,19.693445205688477,0.4228789508342743,-20.031160354614258,-0.7427878975868225,-2.4630770683288574,0.17978231608867645,0
2,0.004995584487915039,-0.3752071261405945,-19.693445205688477,-0.4228789508342743,20.031160354614258,0.7427878975868225,2.4630770683288574,-0.17978231608867645,0.0,0.0,0.0,0.0,0.0,0.0,0.0,-0.43306682133569746,0.017991732519775122,-0.23736072746352624,0.28110225306391234,0.15482667102549402,0.10232434993933998,-0.17355573578139943,1.213513835292614,-0.22032938611507413,-0.007490026233554611,-2.6038651261580616,-0.10899996203184127,2.468136578292971,0.8264665090160237,1.2134413937687574,-0.2202432315892585,-0.0075118285948192216,-2.6038483821997875,-0.10888392708698907,2.4681821257803174,0.826474908251239,-0.0007594942657365823,-0.0005471407203565212,0.00028971091530481126,0.0004917666559901518,-0.0002709172830878174,0.00041652023597322596,0.00016681861877590996,0.0,0.0,0.0,0.0,0.0,0.0,0.0,-7.244152385665892e-05,8.615452581564598e-05,-2.1802361264610694e-05,1.6743958274112458e-05,0.00011603494485219745,4.554748734619807e-05,8.399235215339473e-06,0.0007594942657365823,0.0005471407203565212,-0.00028971091530481126,-0.0004917666559901518,0.0002709172830878174,-0.00041652023597322596,-0.00016681861877590996,0.3752071261405945,19.693445205688477,0.4228789508342743,-20.031160354614258,-0.7427878975868225,-2.4630770683288574,0.17978231608867645,0
3,0.009988546371459961,-0.4267818331718445,-19.717248916625977,-0.4228789508342743,20.054964065551758,0.7372947335243225,2.4823031425476074,-0.19351522624492645,0.0,0.0,0.0,0.0,0.0,0.0,0.0,-0.4322353593205175,0.016232837505936567,-0.23674195826627345,0.28472914408839356,0.15502089514927936,0.10267785179737499,-0.17499162134172716,1.2135153892207404,-0.22032771567921886,-0.007490023323432695,-2.603866796593917,-0.10899935168027877,2.4681344420644966,0.82646803489493,1.2134413937687574,-0.2202432315892585,-0.0075118285948192216,-2.6038483821997875,-0.10888392708698907,2.4681821257803174,0.826474908251239,-0.00010153612979059111,-0.00013106485447025984,0.0002390021666099968,6.728419324824285e-05,0.00010825414700667652,-0.0004218390935958004,0.00044400838995045313,0.0,0.0,0.0,0.0,0.0,0.0,0.0,-7.399545198305546e-05,8.448408996036827e-05,-2.1805271386526708e-05,1.8414394129528944e-05,0.00011542459328969801,4.768371582075659e-05,6.8733563090006555e-06,0.00010153612979059111,0.00013106485447025984,-0.0002390021666099968,-6.728419324824285e-05,-0.00010825414700667652,0.0004218390935958004,-0.00044400838995045313,0.4267818331718445,19.717248916625977,0.4228789508342743,-20.054964065551758,-0.7372947335243225,-2.4823031425476074,0.19351522624492645,0
4,0.015016317367553711,-0.4267818331718445,-19.717248916625977,-0.4228789508342743,20.054964065551758,0.7372947335243225,2.4823031425476074,-0.19351522624492645,0.0,0.0,0.0,0.0,0.0,0.0,0.0,-0.4322353593205175,0.016232837505936567,-0.23674195826627345,0.28472914408839356,0.15502089514927936,0.10267785179737499,-0.17499162134172716,1.2135153892207404,-0.22032771567921886,-0.007490023323432695,-2.603866796593917,-0.10899935168027877,2.4681344420644966,0.82646803489493,1.2134413937687574,-0.2202432315892585,-0.0075118285948192216,-2.6038483821997875,-0.10888392708698907,2.4681821257803174,0.826474908251239,-0.00010153612979059111,-0.00013106485447025984,0.0002390021666099968,6.728419324824285e-05,0.00010825414700667652,-0.0004218390935958004,0.00044400838995045313,0.0,0.0,0.0,0.0,0.0,0.0,0.0,-7.399545198305546e-05,8.448408996036827e-05,-2.1805271386526708e-05,1.8414394129528944e-05,0.00011542459328969801,4.768371582075659e-05,6.8733563090006555e-06,0.00010153612979059111,0.00013106485447025984,-0.0002390021666099968,-6.728419324824285e-05,-0.00010825414700667652,0.0004218390935958004,-0.00044400838995045313,0.4267818331718445,19.717248916625977,0.4228789508342743,-20.054964065551758,-0.7372947335243225,-2.4823031425476074,0.19351522624492645,0
5,0.02091383934020996,-0.4783565402030945,-19.717248916625977,-0.4466826617717743,20.054964065551758,0.7427878975868225,2.4630770683288574,-0.15964071452617645,0.0,0.0,0.0,0.0,0.0,0.0,0.0,-0.4253721863408922,0.014252134712444117,-0.22636152423609265,0.28611828354808233,0.15512697025320232,0.10217602409197378,-0.17502376297180142,1.213521066285638,-0.22032771567921886,-0.007488355809719145,-2.603866796706971,-0.10899996203184127,2.4681365782949656,0.8264653306984239,1.2134413937687574,-0.2202432315892585,-0.0075118285948192216,-2.6038483821997875,-0.10888392708698907,2.4681821257803174,0.826474908251239,0.0013087566457191068,-9.948409428976992e-05,0.001101434643019912,0.0004410989822651973,-2.2080203425894225e-05,0.00038261261463863963,-0.0007094334206883167,0.0,0.0,0.0,0.0,0.0,0.0,0.0,-7.967251688056898e-05,8.448408996036827e-05,-2.3472785100076173e-05,1.841450718353954e-05,0.00011603494485219745,4.5547485351793426e-05,9.577552815165369e-06,-0.0013087566457191068,9.948409428976992e-05,-0.001101434643019912,-0.0004410989822651973,2.2080203425894225e-05,-0.00038261261463863963,0.0007094334206883167,0.4783565402030945,19.717248916625977,0.4466826617717743,-20.054964065551758,-0.7427878975868225,-2.4630770683288574,0.15964071452617645,0
6,0.024986982345581055,-0.4783565402030945,-19.717248916625977,-0.4466826617717743,20.054964065551758,0.7427878975868225,2.4630770683288574,-0.15964071452617645,0.0,0.0,0.0,0.0,0.0,0.0,0.0,-0.4253721863408922,0.014252134712444117,-0.22636152423609265,0.28611828354808233,0.15512697025320232,0.10217602409197378,-0.17502376297180142,1.213521066285638,-0.22032771567921886,-0.007488355809719145,-2.603866796706971,-0.10899996203184127,2.4681365782949656,0.8264653306984239,1.2134413937687574,-0.2202432315892585,-0.0075118285948192216,-2.6038483821997875,-0.10888392708698907,2.4681821257803174,0.826474908251239,0.0013087566457191068,-9.948409428976992e-05,0.001101434643019912,0.0004410989822651973,-2.2080203425894225e-05,0.00038261261463863963,-0.0007094334206883167,0.0,0.0,0.0,0.0,0.0,0.0,0.0,-7.967251688056898e-05,8.448408996036827e-05,-2.3472785100076173e-05,1.841450718353954e-05,0.00011603494485219745,4.5547485351793426e-05,9.577552815165369e-06,-0.0013087566457191068,9.948409428976992e-05,-0.001101434643019912,-0.0004410989822651973,2.2080203425894225e-05,-0.00038261261463863963,0.0007094334206883167,0.4783565402030945,19.717248916625977,0.4466826617717743,-20.054964065551758,-0.7427878975868225,-2.4630770683288574,0.15964071452617645,0
7,0.029986858367919922,-0.4267818331718445,-19.717248916625977,-0.4228789508342743,20.054964065551758,0.7427878975868225,2.4694857597351074,-0.16604940593242645,0.0,0.0,0.0,0.0,0.0,0.0,0.0,-0.426849282655071,0.018548425108466212,-0.22405434520205697,0.2799552707088975,0.1549997528389701,0.10068794772819727,-0.1744242121827567,1.2135172256118634,-0.22032771567921886,-0.007489316163856906,-2.6038667955764327,-0.10899996203184127,2.4681358662181427,0.8264649831430991,1.2134413937687574,-0.2202432315892585,-0.0075118285948192216,-2.6038483821997875,-0.10888392708698907,2.4681821257803174,0.826474908251239,-0.0001285302976878044,-4.524322446508247e-05,0.00010110847479455532,-0.00024339082763024834,-4.497896500447356e-05,2.4377155603754312e-05,-0.0008499383228800231,0.0,0.0,0.0,0.0,0.0,0.0,0.0,-7.583184310600011e-05,8.448408996036827e-05,-2.2512430962315887e-05,1.8413376645209922e-05,0.00011603494485219745,4.625956217463312e-05,9.925108139907657e-06,0.0001285302976878044,4.524322446508247e-05,-0.00010110847479455532,0.00024339082763024834,4.497896500447356e-05,-2.4377155603754312e-05,0.0008499383228800231,0.4267818331718445,19.717248916625977,0.4228789508342743,-20.054964065551758,-0.7427878975868225,-2.4694857597351074,0.16604940593242645,0
8,0.03499579429626465,-0.4267818331718445,-19.717248916625977,-0.4228789508342743,20.054964065551758,0.7427878975868225,2.4694857597351074,-0.16604940593242645,0.0,0.0,0.0,0.0,0.0,0.0,0.0,-0.426849282655071,0.018548425108466212,-0.22405434520205697,0.2799552707088975,0.1549997528389701,0.10068794772819727,-0.1744242121827567,1.2135172256118634,-0.22032771567921886,-0.007489316163856906,-2.6038667955764327,-0.10899996203184127,2.4681358662181427,0.8264649831430991,1.2134413937687574,-0.2202432315892585,-0.0075118285948192216,-2.6038483821997875,-0.10888392708698907,2.4681821257803174,0.826474908251239,-0.0001285302976878044,-4.524322446508247e-05,0.00010110847479455532,-0.00024339082763024834,-4.497896500447356e-05,2.4377155603754312e-05,-0.0008499383228800231,0.0,0.0,0.0,0.0,0.0,0.0,0.0,-7.583184310600011e-05,8.448408996036827e-05,-2.2512430962315887e-05,1.8413376645209922e-05,0.00011603494485219745,4.625956217463312e-05,9.925108139907657e-06,0.0001285302976878044,4.524322446508247e-05,-0.00010110847479455532,0.00024339082763024834,4.497896500447356e-05,-2.4377155603754312e-05,0.0008499383228800231,0.4267818331718445,19.717248916625977,0.4228789508342743,-20.054964065551758,-0.7427878975868225,-2.4694857597351074,0.16604940593242645,0
9,0.03999686241149902,-0.4029781222343445,-19.745019912719727,-0.4704863727092743,20.082735061645508,0.7427878975868225,2.4694857597351074,-0.18710653483867645,0.0,0.0,0.0,0.0,0.0,0.0,0.0,-0.429187116363612,0.012535759978991224,-0.22564023642223163,0.28658921878156557,0.15573570579733179,0.1014436342651352,-0.175406856712764,1.2135157822435325,-0.22032576683738772,-0.007486685369860949,-2.603869487182433,-0.10899996203184127,2.4681358662181427,0.826470501732495,1.2134413937687574,-0.2202432315892585,-0.0075118285948192216,-2.6038483821997875,-0.10888392708698907,2.4681821257803174,0.826474908251239,-9.207196335952696e-05,0.00021054100619627064,0.0005375279378355132,-0.00046103085198036237,0.00010901035595457685,0.00031987969568287824,0.0007414065422901706,0.0,0.0,0.0,0.0,0.0,0.0,0.0,-7.438847477514443e-05,8.253524812923407e-05,-2.5143224958272536e-05,2.1104982645514525e-05,0.00011603494485219745,4.625956217463312e-05,4.4065187440045506e-06,9.207196335952696e-05,-0.00021054100619627064,-0.0005375279378355132,0.00046103085198036237,-0.00010901035595457685,-0.00031987969568287824,-0.0007414065422901706,0.4029781222343445,19.745019912719727,0.4704863727092743,-20.082735061645508,-0.7427878975868225,-2.4694857597351074,0.18710653483867645,0
10,0.04500102996826172,-0.4029781222343445,-19.745019912719727,-0.4704863727092743,20.082735061645508,0.7427878975868225,2.4694857597351074,-0.18710653483867645,0.0,0.0,0.0,0.0,0.0,0.0,0.0,-0.429187116363612,0.012535759978991224,-0.22564023642223163,0.28658921878156557,0.15573570579733179,0.1014436342651352,-0.175406856712764,1.2135157822435325,-0.22032576683738772,-0.007486685369860949,-2.603869487182433,-0.10899996203184127,2.4681358662181427,0.826470501732495,1.2134413937687574,-0.2202432315892585,-0.0075118285948192216,-2.6038483821997875,-0.10888392708698907,2.4681821257803174,0.826474908251239,-9.207196335952696e-05,0.00021054100619627064,0.0005375279378355132,-0.00046103085198036237,0.00010901035595457685,0.00031987969568287824,0.0007414065422901706,0.0,0.0,0.0,0.0,0.0,0.0,0.0,-7.438847477514443e-05,8.253524812923407e-05,-2.5143224958272536e-05,2.1104982645514525e-05,0.00011603494485219745,4.625956217463312e-05,4.4065187440045506e-06,9.207196335952696e-05,-0.00021054100619627064,-0.0005375279378355132,0.00046103085198036237,-0.00010901035595457685,-0.00031987969568287824,-0.0007414065422901706,0.4029781222343445,19.745019912719727,0.4704863727092743,-20.082735061645508,-0.7427878975868225,-2.4694857597351074,0.18710653483867645,0
11,0.049999237060546875,-0.3752071261405945,-19.745019912719727,-0.4228789508342743,20.082735061645508,0.7427878975868225,2.4694857597351074,-0.22098104655742645,0.0,0.0,0.0,0.0,0.0,0.0,0.0,-0.4302048722196543,0.016154532914433944,-0.2318135370550778,0.2822180241345595,0.15580479243443068,0.10145940604031632,-0.17646240943335703,1.2135138362374063,-0.22032576683738772,-0.007490026245579884,-2.6038687454399354,-0.10899996203184127,2.4681358662181427,0.8264710866706876,1.2134413937687574,-0.2202432315892585,-0.0075118285948192216,-2.6038483821997875,-0.10888392708698907,2.4681821257803174,0.826474908251239,-0.0014632887089881552,0.0004004929914525297,-0.0007966645398671114,-0.0005763791525555694,-0.00015418590964157372,0.00020882314625816998,0.0016009768416409371,0.0,0.0,0.0,0.0,0.0,0.0,0.0,-7.244246864890336e-05,8.253524812923407e-05,-2.1802349239337555e-05,2.0363240147869277e-05,0.00011603494485219745,4.625956217463312e-05,3.821580551455206e-06,0.0014632887089881552,-0.0004004929914525297,0.0007966645398671114,0.0005763791525555694,0.00015418590964157372,-0.00020882314625816998,-0.0016009768416409371,0.3752071261405945,19.745019912719727,0.4228789508342743,-20.082735061645508,-0.7427878975868225,-2.4694857597351074,0.22098104655742645,0
12,0.05500006675720215,-0.3752071261405945,-19.745019912719727,-0.4228789508342743,20.082735061645508,0.7427878975868225,2.4694857597351074,-0.22098104655742645,0.0,0.0,0.0,0.0,0.0,0.0,0.0,-0.4302048722196543,0.016154532914433944,-0.2318135370550778,0.2822180241345595,0.15580479243443068,0.10145940604031632,-0.17646240943335703,1.2135138362374063,-0.22032576683738772,-0.007490026245579884,-2.6038687454399354,-0.10899996203184127,2.4681358662181427,0.8264710866706876,1.2134413937687574,-0.2202432315892585,-0.0075118285948192216,-2.6038483821997875,-0.10888392708698907,2.4681821257803174,0.826474908251239,-0.0014632887089881552,0.0004004929914525297,-0.0007966645398671114,-0.0005763791525555694,-0.00015418590964157372,0.00020882314625816998,0.0016009768416409371,0.0,0.0,0.0,0.0,0.0,0.0,0.0,-7.244246864890336e-05,8.253524812923407e-05,-2.1802349239337555e-05,2.0363240147869277e-05,0.00011603494485219745,4.625956217463312e-05,3.821580551455206e-06,0.0014632887089881552,-0.0004004929914525297,0.0007966645398671114,0.0005763791525555694,0.00015418590964157372,-0.00020882314625816998,-0.0016009768416409371,0.3752071261405945,19.745019912719727,0.4228789508342743,-20.082735061645508,-0.7427878975868225,-2.4694857597351074,0.22098104655742645,0
13,0.05998349189758301,-0.3752071261405945,-19.745019912719727,-0.4228789508342743,20.082735061645508,0.7427878975868225,2.4694857597351074,-0.22098104655742645,0.0,0.0,0.0,0.0,0.0,0.0,0.0,-0.4302048722196543,0.016154532914433944,-0.2318135370550778,0.2822180241345595,0.15580479243443068,0.10145940604031632,-0.17646240943335703,1.2135138362374063,-0.22032576683738772,-0.007490026245579884,-2.6038687454399354,-0.10899996203184127,2.4681358662181427,0.8264710866706876,1.2134413937687574,-0.2202432315892585,-0.0075118285948192216,-2.6038483821997875,-0.10888392708698907,2.4681821257803174,0.826474908251239,-0.0014632887089881552,0.0004004929914525297,-0.0007966645398671114,-0.0005763791525555694,-0.00015418590964157372,0.00020882314625816998,0.0016009768416409371,0.0,0.0,0.0,0.0,0.0,0.0,0.0,-7.244246864890336e-05,8.253524812923407e-05,-2.1802349239337555e-05,2.0363240147869277e-05,0.00011603494485219745,4.625956217463312e-05,3.821580551455206e-06,0.0014632887089881552,-0.0004004929914525297,0.0007966645398671114,0.0005763791525555694,0.00015418590964157372,-0.00020882314625816998,-0.0016009768416409371,0.3752071261405945,19.745019912719727,0.4228789508342743,-20.082735061645508,-0.7427878975868225,-2.4694857597351074,0.22098104655742645,0
14,0.06498503684997559,-0.3752071261405945,-19.745019912719727,-0.4228789508342743,20.082735061645508,0.7427878975868225,2.4694857597351074,-0.22098104655742645,0.0,0.0,0.0,0.0,0.0,0.0,0.0,-0.4302048722196543,0.016154532914433944,-0.2318135370550778,0.2822180241345595,0.15580479243443068,0.10145940604031632,-0.17646240943335703,1.2135138362374063,-0.22032576683738772,-0.007490026245579884,-2.6038687454399354,-0.10899996203184127,2.4681358662181427,0.8264710866706876,1.2134413937687574,-0.2202432315892585,-0.0075118285948192216,-2.6038483821997875,-0.10888392708698907,2.4681821257803174,0.826474908251239,-0.0014632887089881552,0.0004004929914525297,-0.0007966645398671114,-0.0005763791525555694,-0.00015418590964157372,0.00020882314625816998,0.0016009768416409371,0.0,0.0,0.0,0.0,0.0,0.0,0.0,-7.244246864890336e-05,8.253524812923407e-05,-2.1802349239337555e-05,2.0363240147869277e-05,0.00011603494485219745,4.625956217463312e-05,3.821580551455206e-06,0.0014632887089881552,-0.0004004929914525297,0.0007966645398671114,0.0005763791525555694,0.00015418590964157372,-0.00020882314625816998,-0.0016009768416409371,0.3752071261405945,19.745019912719727,0.4228789508342743,-20.082735061645508,-0.7427878975868225,-2.4694857597351074,0.22098104655742645,0
15,0.06998944282531738,-0.4505855441093445,-19.717248916625977,-0.4466826617717743,20.054964065551758,0.7308860421180725,2.4694857597351074,-0.20083944499492645,0.0,0.0,0.0,0.0,0.0,0.0,0.0,-0.43341941240337145,0.015631442092798303,-0.23873864045455973,0.2813023688065194,0.1558986867557339,0.10227626318781384,-0.17677544143778498,1.2135191258459852,-0.22032771567921886,-0.007488355809724644,-2.603866796593917,-0.10899863960345586,2.4681358662181427,0.8264688486970136,1.2134413937687574,-0.2202432315892585,-0.0075118285948192216,-2.6038483821997875,-0.10888392708698907,2.4681821257803174,0.826474908251239,0.00013879470341648443,-2.8962981405837617e-05,-0.0005261570604666459,0.0002843468037700956,0.000283803491320696,0.00018857147682164443,0.0008451211781060089,0.0,0.0,0.0,0.0,0.0,0.0,0.0,-7.773207722783226e-05,8.448408996036827e-05,-2.3472785094577966e-05,1.8414394129528944e-05,0.00011471251646678893,4.625956217463312e-05,6.059554225390507e-06,-0.00013879470341648443,2.8962981405837617e-05,0.0005261570604666459,-0.0002843468037700956,-0.000283803491320696,-0.00018857147682164443,-0.0008451211781060089,0.4505855441093445,19.717248916625977,0.4466826617717743,-20.054964065551758,-0.7308860421180725,-2.4694857597351074,0.20083944499492645,0
16,0.07534909248352051,-0.4505855441093445,-19.717248916625977,-0.4466826617717743,20.054964065551758,0.7308860421180725,2.4694857597351074,-0.20083944499492645,0.0,0.0,0.0,0.0,0.0,0.0,0.0,-0.43341941240337145,0.015631442092798303,-0.23873864045455973,0.2813023688065194,0.1558986867557339,0.10227626318781384,-0.17677544143778498,1.2135191258459852,-0.22032771567921886,-0.007488355809724644,-2.603866796593917,-0.10899863960345586,2.4681358662181427,0.8264688486970136,1.2134413937687574,-0.2202432315892585,-0.0075118285948192216,-2.6038483821997875,-0.10888392708698907,2.4681821257803174,0.826474908251239,0.00013879470341648443,-2.8962981405837617e-05,-0.0005261570604666459,0.0002843468037700956,0.000283803491320696,0.00018857147682164443,0.0008451211781060089,0.0,0.0,0.0,0.0,0.0,0.0,0.0,-7.773207722783226e-05,8.448408996036827e-05,-2.3472785094577966e-05,1.8414394129528944e-05,0.00011471251646678893,4.625956217463312e-05,6.059554225390507e-06,-0.00013879470341648443,2.8962981405837617e-05,0.0005261570604666459,-0.0002843468037700956,-0.000283803491320696,-0.00018857147682164443,-0.0008451211781060089,0.4505855441093445,19.717248916625977,0.4466826617717743,-20.054964065551758,-0.7308860421180725,-2.4694857597351074,0.20083944499492645,0
17,0.08014035224914551,-0.4783565402030945,-19.693445205688477,-0.4704863727092743,20.106538772583008,0.7427878975868225,2.4630770683288574,-0.13858358561992645,0.0,0.0,0.0,0.0,0.0,0.0,0.0,-0.4303745109780418,0.013888118465984974,-0.23795339574044516,0.2773861430352702,0.1549818557151635,0.10249473698589999,-0.17677978468549438,1.2135210747927947,-0.22032938611507413,-0.007486685373869381,-2.6038704158716035,-0.10899996203184127,2.4681365782949656,0.826461931379305,1.2134413937687574,-0.2202432315892585,-0.0075118285948192216,-2.6038483821997875,-0.10888392708698907,2.4681821257803174,0.826474908251239,0.0007054930533895372,-0.0008072155657467244,0.0004146540778221583,-0.0014830693614634072,-9.996148776994298e-05,0.0006159521244838307,-0.0015260042683984917,0.0,0.0,0.0,0.0,0.0,0.0,0.0,-7.96810240373258e-05,8.615452581564598e-05,-2.514322094984093e-05,2.2033671815968603e-05,0.00011603494485219745,4.5547485351793426e-05,1.297687193402286e-05,-0.0007054930533895372,0.0008072155657467244,-0.0004146540778221583,0.0014830693614634072,9.996148776994298e-05,-0.0006159521244838307,0.0015260042683984917,0.4783565402030945,19.693445205688477,0.4704863727092743,-20.106538772583008,-0.7427878975868225,-2.4630770683288574,0.13858358561992645,0
18,0.08499622344970703,-0.4783565402030945,-19.693445205688477,-0.4704863727092743,20.106538772583008,0.7427878975868225,2.4630770683288574,-0.13858358561992645,0.0,0.0,0.0,0.0,0.0,0.0,0.0,-0.4303745109780418,0.013888118465984974,-0.23795339574044516,0.2773861430352702,0.1549818557151635,0.10249473698589999,-0.17677978468549438,1.2135210747927947,-0.22032938611507413,-0.007486685373869381,-2.6038704158716035,-0.10899996203184127,2.4681365782949656,0.826461931379305,1.2134413937687574,-0.2202432315892585,-0.0075118285948192216,-2.6038483821997875,-0.10888392708698907,2.4681821257803174,0.826474908251239,0.0007054930533895372,-0.0008072155657467244,0.0004146540778221583,-0.0014830693614634072,-9.996148776994298e-05,0.0006159521244838307,-0.0015260042683984917,0.0,0.0,0.0,0.0,0.0,0.0,0.0,-7.96810240373258e-05,8.615452581564598e-05,-2.514322094984093e-05,2.2033671815968603e-05,0.00011603494485219745,4.5547485351793426e-05,1.297687193402286e-05,-0.0007054930533895372,0.0008072155657467244,-0.0004146540778221583,0.0014830693614634072,9.996148776994298e-05,-0.0006159521244838307,0.0015260042683984917,0.4783565402030945,19.693445205688477,0.4704863727092743,-20.106538772583008,-0.7427878975868225,-2.4630770683288574,0.13858358561992645,0
19,0.08998441696166992,-0.4505855441093445,-19.717248916625977,-0.3990752398967743,20.054964065551758,0.7427878975868225,2.4694857597351074,-0.13858358561992645,0.0,0.0,0.0,0.0,0.0,0.0,0.0,-0.429941647716726,0.014563038008556187,-0.2380316995080683,0.27909403591542387,0.15502802362936074,0.10265619809852379,-0.17664152520557524,1.2135188963627026,-0.22032771567921886,-0.007491696573207504,-2.603866796593917,-0.10899996203184127,2.4681358662181427,0.826461931379305,1.2134413937687574,-0.2202432315892585,-0.0075118285948192216,-2.6038483821997875,-0.10888392708698907,2.4681821257803174,0.826474908251239,0.0007959602483432067,-8.089391965001605e-05,-0.0006573757110022167,0.00019912972792137025,-0.0001550192261427817,0.00018188529289737227,-0.0016712732801418525,0.0,0.0,0.0,0.0,0.0,0.0,0.0,-7.75025939452334e-05,8.448408996036827e-05,-2.0132021611717586e-05,1.8414394129528944e-05,0.00011603494485219745,4.625956217463312e-05,1.297687193402286e-05,-0.0007959602483432067,8.089391965001605e-05,0.0006573757110022167,-0.00019912972792137025,0.0001550192261427817,-0.00018188529289737227,0.0016712732801418525,0.4505855441093445,19.717248916625977,0.3990752398967743,-20.054964065551758,-0.7427878975868225,-2.4694857597351074,0.13858358561992645,0
20,0.0949850082397461,-0.4505855441093445,-19.717248916625977,-0.3990752398967743,20.054964065551758,0.7427878975868225,2.4694857597351074,-0.13858358561992645,0.0,0.0,0.0,0.0,0.0,0.0,0.0,-0.429941647716726,0.014563038008556187,-0.2380316995080683,0.27909403591542387,0.15502802362936074,0.10265619809852379,-0.17664152520557524,1.2135188963627026,-0.22032771567921886,-0.007491696573207504,-2.603866796593917,-0.10899996203184127,2.4681358662181427,0.826461931379305,1.2134413937687574,-0.2202432315892585,-0.0075118285948192216,-2.6038483821997875,-0.10888392708698907,2.4681821257803174,0.826474908251239,0.0007959602483432067,-8.089391965001605e-05,-0.0006573757110022167,0.00019912972792137025,-0.0001550192261427817,0.00018188529289737227,-0.0016712732801418525,0.0,0.0,0.0,0.0,0.0,0.0,0.0,-7.75025939452334e-05,8.448408996036827e-05,-2.0132021611717586e-05,1.8414394129528944e-05,0.00011603494485219745,4.625956217463312e-05,1.297687193402286e-05,-0.0007959602483432067,8.089391965001605e-05,0.0006573757110022167,-0.00019912972792137025,0.0001550192261427817,-0.00018188529289737227,0.0016712732801418525,0.4505855441093445,19.717248916625977,0.3990752398967743,-20.054964065551758,-0.7427878975868225,-2.4694857597351074,0.13858358561992645,0
21,0.10003519058227539,-0.4029781222343445,-19.693445205688477,-0.3990752398967743,20.031160354614258,0.7372947335243225,2.4630770683288574,-0.15964071452617645,0.0,0.0,0.0,0.0,0.0,0.0,0.0,-0.43191547361008775,0.014305648681207912,-0.23968334666858007,0.2811483611817852,0.15520756229407212,0.1023792208113079,-0.17640950377962972,1.2135157850779572,-0.22032938611507413,-0.007490749905803892,-2.6038651261580616,-0.1089993521685808,2.4681365782949656,0.8264642754209452,1.2134413937687574,-0.2202432315892585,-0.0075118285948192216,-2.6038483821997875,-0.10888392708698907,2.4681821257803174,0.826474908251239,-0.00031481984041471626,-0.0006677661461960092,-0.0004543960504564654,0.0007139050950697085,0.0001680221110716853,0.0004386375833165727,-0.0006551505842538885,0.0,0.0,0.0,0.0,0.0,0.0,0.0,-7.439130919983938e-05,8.615452581564598e-05,-2.107868901532993e-05,1.6743958274112458e-05,0.00011542508159172182,4.5547485351793426e-05,1.0632830293788587e-05,0.00031481984041471626,0.0006677661461960092,0.0004543960504564654,-0.0007139050950697085,-0.0001680221110716853,-0.0004386375833165727,0.0006551505842538885,0.4029781222343445,19.693445205688477,0.3990752398967743,-20.031160354614258,-0.7372947335243225,-2.4630770683288574,0.15964071452617645,0
22,0.1049952507019043,-0.4029781222343445,-19.693445205688477,-0.3990752398967743,20.031160354614258,0.7372947335243225,2.4630770683288574,-0.15964071452617645,0.0,0.0,0.0,0.0,0.0,0.0,0.0,-0.43191547361008775,0.014305648681207912,-0.23968334666858007,0.2811483611817852,0.15520756229407212,0.1023792208113079,-0.17640950377962972,1.2135157850779572,-0.22032938611507413,-0.007490749905803892,-2.6038651261580616,-0.1089993521685808,2.4681365782949656,0.8264642754209452,1.2134413937687574,-0.2202432315892585,-0.0075118285948192216,-2.6038483821997875,-0.10888392708698907,2.4681821257803174,0.826474908251239,-0.00031481984041471626,-0.0006677661461960092,-0.0004543960504564654,0.0007139050950697085,0.0001680221110716853,0.0004386375833165727,-0.0006551505842538885,0.0,0.0,0.0,0.0,0.0,0.0,0.0,-7.439130919983938e-05,8.615452581564598e-05,-2.107868901532993e-05,1.6743958274112458e-05,0.00011542508159172182,4.5547485351793426e-05,1.0632830293788587e-05,0.00031481984041471626,0.0006677661461960092,0.0004543960504564654,-0.0007139050950697085,-0.0001680221110716853,-0.0004386375833165727,0.0006551505842538885,0.4029781222343445,19.693445205688477,0.3990752398967743,-20.031160354614258,-0.7372947335243225,-2.4630770683288574,0.15964071452617645,0
23,0.11003613471984863,-0.4267818331718445,-19.717248916625977,-0.4228789508342743,20.054964065551758,0.7427878975868225,2.4758944511413574,-0.13858358561992645,0.0,0.0,0.0,0.0,0.0,0.0,0.0,-0.42706831693572955,0.012493667444981874,-0.23289873001950295,0.2795968055911925,0.15466301560670226,0.10196170492188565,-0.1762420811414237,1.2135174555151087,-0.22032771567921886,-0.007490026240235331,-2.603866796593917,-0.10899996203184402,2.46813515414132,0.8264619313793297,1.2134413937687574,-0.2202432315892585,-0.0075118285948192216,-2.6038483821997875,-0.10888392708698907,2.4681821257803174,0.826474908251239,0.00018827278753321487,-0.00036691778284727027,0.00048587166329848203,5.385058856671442e-05,-0.00020014820862854593,-0.00011833754322530014,-0.0008382159410801238,0.0,0.0,0.0,0.0,0.0,0.0,0.0,-7.606174635133023e-05,8.448408996036827e-05,-2.180235458389048e-05,1.8414394129528944e-05,0.00011603494485494525,4.697163899747281e-05,1.2976871909375909e-05,-0.00018827278753321487,0.00036691778284727027,-0.00048587166329848203,-5.385058856671442e-05,0.00020014820862854593,0.00011833754322530014,0.0008382159410801238,0.4267818331718445,19.717248916625977,0.4228789508342743,-20.054964065551758,-0.7427878975868225,-2.4758944511413574,0.13858358561992645,0
24,0.11500930786132812,-0.4267818331718445,-19.717248916625977,-0.4228789508342743,20.054964065551758,0.7427878975868225,2.4758944511413574,-0.13858358561992645,0.0,0.0,0.0,0.0,0.0,0.0,0.0,-0.42706831693572955,0.012493667444981874,-0.23289873001950295,0.2795968055911925,0.15466301560670226,0.10196170492188565,-0.1762420811414237,1.2135174555151087,-0.22032771567921886,-0.007490026240235331,-2.603866796593917,-0.10899996203184402,2.46813515414132,0.8264619313793297,1.2134413937687574,-0.2202432315892585,-0.0075118285948192216,-2.6038483821997875,-0.10888392708698907,2.4681821257803174,0.826474908251239,0.00018827278753321487,-0.00036691778284727027,0.00048587166329848203,5.385058856671442e-05,-0.00020014820862854593,-0.00011833754322530014,-0.0008382159410801238,0.0,0.0,0.0,0.0,0.0,0.0,0.0,-7.606174635133023e-05,8.448408996036827e-05,-2.180235458389048e-05,1.8414394129528944e-05,0.00011603494485494525,4.697163899747281e-05,1.2976871909375909e-05,-0.00018827278753321487,0.00036691778284727027,-0.00048587166329848203,-5.385058856671442e-05,0.00020014820862854593,0.00011833754322530014,0.0008382159410801238,0.4267818331718445,19.717248916625977,0.4228789508342743,-20.054964065551758,-0.7427878975868225,-2.4758944511413574,0.13858358561992645,0
25,0.11999845504760742,-0.4783565402030945,-19.768823623657227,-0.4466826617717743,20.106538772583008,0.7308860421180725,2.4758944511413574,-0.17978231608867645,0.0,0.0,0.0,0.0,0.0,0.0,0.0,-0.42913116106225,0.009949625101387607,-0.23283977192208924,0.28175987292683496,0.1545666433389073,0.10195812496937358,-0.17501250186402756,1.2135210744428662,-0.22032409640153247,-0.007488355809724614,-2.6038704158716035,-0.10899970752000808,2.46813515414132,0.8264665090160237,1.2134413937687574,-0.2202432315892585,-0.0075118285948192216,-2.6038483821997875,-0.10888392708698907,2.4681821257803174,0.826474908251239,0.00126336998210908,0.000832927923300533,0.00036037981401404375,-0.0010071298360373963,0.00021055130218023725,-2.7536313941037187e-05,0.0003523586591400856,0.0,0.0,0.0,0.0,0.0,0.0,0.0,-7.96806741087952e-05,8.086481227398412e-05,-2.3472785094607457e-05,2.2033671815968603e-05,0.00011578043301900542,4.697163899747281e-05,8.399235215339473e-06,-0.00126336998210908,-0.000832927923300533,-0.00036037981401404375,0.0010071298360373963,-0.00021055130218023725,2.7536313941037187e-05,-0.0003523586591400856,0.4783565402030945,19.768823623657227,0.4466826617717743,-20.106538772583008,-0.7308860421180725,-2.4758944511413574,0.17978231608867645,0
26,0.12498235702514648,-0.4783565402030945,-19.768823623657227,-0.4466826617717743,20.106538772583008,0.7308860421180725,2.4758944511413574,-0.17978231608867645,0.0,0.0,0.0,0.0,0.0,0.0,0.0,-0.42913116106225,0.009949625101387607,-0.23283977192208924,0.28175987292683496,0.1545666433389073,0.10195812496937358,-0.17501250186402756,1.2135210744428662,-0.22032409640153247,-0.007488355809724614,-2.6038704158716035,-0.10899970752000808,2.46813515414132,0.8264665090160237,1.2134413937687574,-0.2202432315892585,-0.0075118285948192216,-2.6038483821997875,-0.10888392708698907,2.4681821257803174,0.826474908251239,0.00126336998210908,0.000832927923300533,0.00036037981401404375,-0.0010071298360373963,0.00021055130218023725,-2.7536313941037187e-05,0.0003523586591400856,0.0,0.0,0.0,0.0,0.0,0.0,0.0,-7.96806741087952e-05,8.086481227398412e-05,-2.3472785094607457e-05,2.2033671815968603e-05,0.00011578043301900542,4.697163899747281e-05,8.399235215339473e-06,-0.00126336998210908,-0.000832927923300533,-0.00036037981401404375,0.0010071298360373963,-0.00021055130218023725,2.7536313941037187e-05,-0.0003523586591400856,0.4783565402030945,19.768823623657227,0.4466826617717743,-20.106538772583008,-0.7308860421180725,-2.4758944511413574,0.17978231608867645,0
27,0.12994909286499023,-0.4783565402030945,-19.717248916625977,-0.4228789508342743,20.106538772583008,0.7427878975868225,2.4887118339538574,-0.18710653483867645,0.0,0.0,0.0,0.0,0.0,0.0,0.0,-0.4286769098910713,0.010323934836860811,-0.2323313079377246,0.28036892707278893,0.15372604152623084,0.10194359893920664,-0.17435530884585937,1.213521074792789,-0.22032771567921886,-0.007489316163856906,-2.6038704158716035,-0.10899996204992653,2.4681337299876738,0.8264673228181071,1.2134413937687574,-0.2202432315892585,-0.0075118285948192216,-2.6038483821997875,-0.10888392708698907,2.4681821257803174,0.826474908251239,0.0009875011653940444,-0.0005321223824299116,-0.0006742984037073517,-0.001258365902033846,-0.0003008302408787748,-0.0003686654599191737,0.00047085373537374803,0.0,0.0,0.0,0.0,0.0,0.0,0.0,-7.968102403155264e-05,8.448408996036827e-05,-2.2512430962315887e-05,2.2033671815968603e-05,0.00011603496293745297,4.839579264359628e-05,7.585433131951369e-06,-0.0009875011653940444,0.0005321223824299116,0.0006742984037073517,0.001258365902033846,0.0003008302408787748,0.0003686654599191737,-0.00047085373537374803,0.4783565402030945,19.717248916625977,0.4228789508342743,-20.106538772583008,-0.7427878975868225,-2.4887118339538574,0.18710653483867645,0
28,0.1350080966949463,-0.4783565402030945,-19.717248916625977,-0.4228789508342743,20.106538772583008,0.7427878975868225,2.4887118339538574,-0.18710653483867645,0.0,0.0,0.0,0.0,0.0,0.0,0.0,-0.4286769098910713,0.010323934836860811,-0.2323313079377246,0.28036892707278893,0.15372604152623084,0.10194359893920664,-0.17435530884585937,1.213521074792789,-0.22032771567921886,-0.007489316163856906,-2.6038704158716035,-0.10899996204992653,2.4681337299876738,0.8264673228181071,1.2134413937687574,-0.2202432315892585,-0.0075118285948192216,-2.6038483821997875,-0.10888392708698907,2.4681821257803174,0.826474908251239,0.0009875011653940444,-0.0005321223824299116,-0.0006742984037073517,-0.001258365902033846,-0.0003008302408787748,-0.0003686654599191737,0.00047085373537374803,0.0,0.0,0.0,0.0,0.0,0.0,0.0,-7.968102403155264e-05,8.448408996036827e-05,-2.2512430962315887e-05,2.2033671815968603e-05,0.00011603496293745297,4.839579264359628e-05,7.585433131951369e-06,-0.0009875011653940444,0.0005321223824299116,0.0006742984037073517,0.001258365902033846,0.0003008302408787748,0.0003686654599191737,-0.00047085373537374803,0.4783565402030945,19.717248916625977,0.4228789508342743,-20.106538772583008,-0.7427878975868225,-2.4887118339538574,0.18710653483867645,0
29,0.139984130859375,-0.4029781222343445,-19.717248916625977,-0.4704863727092743,20.082735061645508,0.7372947335243225,2.4694857597351074,-0.19351522624492645,0.0,0.0,0.0,0.0,0.0,0.0,0.0,-0.42922493856362726,0.011226702342309812,-0.23300523551511784,0.2787436373458376,0.15336589724804722,0.10291769070212033,-0.1739675875776102,1.2135150963144692,-0.22032771567921886,-0.007486685372533237,-2.603868745435748,-0.1089993516802788,2.4681358660566373,0.82646803489493,1.2134413937687574,-0.2202432315892585,-0.0075118285948192216,-2.6038483821997875,-0.10888392708698907,2.4681821257803174,0.826474908251239,-0.0007368930675580718,-0.00020636744354428257,0.0002642460331876599,-0.0007460801397866141,7.015534054271413e-05,0.00021221892315122592,0.0008693194385403657,0.0,0.0,0.0,0.0,0.0,0.0,0.0,-7.370254571181789e-05,8.448408996036827e-05,-2.5143222285984798e-05,2.0363235960552117e-05,0.00011542459328972576,4.625972368010878e-05,6.8733563090006555e-06,0.0007368930675580718,0.00020636744354428257,-0.0002642460331876599,0.0007460801397866141,-7.015534054271413e-05,-0.00021221892315122592,-0.0008693194385403657,0.4029781222343445,19.717248916625977,0.4704863727092743,-20.082735061645508,-0.7372947335243225,-2.4694857597351074,0.19351522624492645,0
30,0.1449902057647705,-0.4029781222343445,-19.717248916625977,-0.4704863727092743,20.082735061645508,0.7372947335243225,2.4694857597351074,-0.19351522624492645,0.0,0.0,0.0,0.0,0.0,0.0,0.0,-0.42922493856362726,0.011226702342309812,-0.23300523551511784,0.2787436373458376,0.15336589724804722,0.10291769070212033,-0.1739675875776102,1.2135150963144692,-0.22032771567921886,-0.007486685372533237,-2.603868745435748,-0.1089993516802788,2.4681358660566373,0.82646803489493,1.2134413937687574,-0.2202432315892585,-0.0075118285948192216,-2.6038483821997875,-0.10888392708698907,2.4681821257803174,0.826474908251239,-0.0007368930675580718,-0.00020636744354428257,0.0002642460331876599,-0.0007460801397866141,7.015534054271413e-05,0.00021221892315122592,0.0008693194385403657,0.0,0.0,0.0,0.0,0.0,0.0,0.0,-7.370254571181789e-05,8.448408996036827e-05,-2.5143222285984798e-05,2.0363235960552117e-05,0.00011542459328972576,4.625972368010878e-05,6.8733563090006555e-06,0.0007368930675580718,0.00020636744354428257,-0.0002642460331876599,0.0007460801397866141,-7.015534054271413e-05,-0.00021221892315122592,-0.0008693194385403657,0.4029781222343445,19.717248916625977,0.4704863727092743,-20.082735061645508,-0.7372947335243225,-2.4694857597351074,0.19351522624492645,0
31,0.15002036094665527,-0.4505855441093445,-19.717248916625977,-0.4982573688030243,20.054964065551758,0.7308860421180725,2.4630770683288574,-0.19351522624492645,0.0,0.0,0.0,0.0,0.0,0.0,0.0,-0.43053184722643206,0.007966104840972241,-0.23728566570984,0.2820104577235831,0.15371166896688424,0.10312730256840116,-0.17464430892112406,1.213519125947076,-0.22032771567921886,-0.007484736495962345,-2.603866796593917,-0.10899863960345586,2.4681365782949647,0.82646803489493,1.2134413937687574,-0.2202432315892585,-0.0075118285948192216,-2.6038483821997875,-0.10888392708698907,2.4681821257803174,0.826474908251239,0.0001814569671610366,-0.0007203176434417,0.001547524705220738,0.000198531594472622,0.0003277667018668595,0.0005083641785255158,0.000589622981022796,0.0,0.0,0.0,0.0,0.0,0.0,0.0,-7.773217831852364e-05,8.448408996036827e-05,-2.709209885687694e-05,1.8414394129528944e-05,0.00011471251646678893,4.5547485352681605e-05,6.8733563090006555e-06,-0.0001814569671610366,0.0007203176434417,-0.001547524705220738,-0.000198531594472622,-0.0003277667018668595,-0.0005083641785255158,-0.000589622981022796,0.4505855441093445,19.717248916625977,0.4982573688030243,-20.054964065551758,-0.7308860421180725,-2.4630770683288574,0.19351522624492645,0
32,0.1549851894378662,-0.4505855441093445,-19.717248916625977,-0.4982573688030243,20.054964065551758,0.7308860421180725,2.4630770683288574,-0.19351522624492645,0.0,0.0,0.0,0.0,0.0,0.0,0.0,-0.43053184722643206,0.007966104840972241,-0.23728566570984,0.2820104577235831,0.15371166896688424,0.10312730256840116,-0.17464430892112406,1.213519125947076,-0.22032771567921886,-0.007484736495962345,-2.603866796593917,-0.10899863960345586,2.4681365782949647,0.82646803489493,1.2134413937687574,-0.2202432315892585,-0.0075118285948192216,-2.6038483821997875,-0.10888392708698907,2.4681821257803174,0.826474908251239,0.0001814569671610366,-0.0007203176434417,0.001547524705220738,0.000198531594472622,0.0003277667018668595,0.0005083641785255158,0.000589622981022796,0.0,0.0,0.0,0.0,0.0,0.0,0.0,-7.773217831852364e-05,8.448408996036827e-05,-2.709209885687694e-05,1.8414394129528944e-05,0.00011471251646678893,4.5547485352681605e-05,6.8733563090006555e-06,-0.0001814569671610366,0.0007203176434417,-0.001547524705220738,-0.000198531594472622,-0.0003277667018668595,-0.0005083641785255158,-0.000589622981022796,0.4505855441093445,19.717248916625977,0.4982573688030243,-20.054964065551758,-0.7308860421180725,-2.4630770683288574,0.19351522624492645,0
33,0.15998530387878418,-0.4505855441093445,-19.745019912719727,-0.4466826617717743,20.054964065551758,0.7372947335243225,2.4694857597351074,-0.17978231608867645,0.0,0.0,0.0,0.0,0.0,0.0,0.0,-0.430181029238029,0.018138614426362408,-0.23982745785504292,0.2763293866109255,0.15372028675141597,0.10129734934559638,-0.1756193798797551,1.213519125950964,-0.22032576683738772,-0.0074862255284795474,-2.603866796593917,-0.10899935168027877,2.4681358662181427,0.8264665090160237,1.2134413937687574,-0.2202432315892585,-0.0075118285948192216,-2.6038483821997875,-0.10888392708698907,2.4681821257803174,0.826474908251239,0.0005893298602587622,0.0010452906599385408,0.00015186127681511688,-0.00027350030413896464,0.0002676656087732246,0.00020254478187968806,-0.00014010778514201666,0.0,0.0,0.0,0.0,0.0,0.0,0.0,-7.773218220652467e-05,8.253524812923407e-05,-2.5603066339674116e-05,1.8414394129528944e-05,0.00011542459328969801,4.625956217463312e-05,8.399235215339473e-06,-0.0005893298602587622,-0.0010452906599385408,-0.00015186127681511688,0.00027350030413896464,-0.0002676656087732246,-0.00020254478187968806,0.00014010778514201666,0.4505855441093445,19.745019912719727,0.4466826617717743,-20.054964065551758,-0.7372947335243225,-2.4694857597351074,0.17978231608867645,0
34,0.16499590873718262,-0.4505855441093445,-19.745019912719727,-0.4466826617717743,20.054964065551758,0.7372947335243225,2.4694857597351074,-0.17978231608867645,0.0,0.0,0.0,0.0,0.0,0.0,0.0,-0.430181029238029,0.018138614426362408,-0.23982745785504292,0.2763293866109255,0.15372028675141597,0.10129734934559638,-0.1756193798797551,1.213519125950964,-0.22032576683738772,-0.0074862255284795474,-2.603866796593917,-0.10899935168027877,2.4681358662181427,0.8264665090160237,1.2134413937687574,-0.2202432315892585,-0.0075118285948192216,-2.6038483821997875,-0.10888392708698907,2.4681821257803174,0.826474908251239,0.0005893298602587622,0.0010452906599385408,0.00015186127681511688,-0.00027350030413896464,0.0002676656087732246,0.00020254478187968806,-0.00014010778514201666,0.0,0.0,0.0,0.0,0.0,0.0,0.0,-7.773218220652467e-05,8.253524812923407e-05,-2.5603066339674116e-05,1.8414394129528944e-05,0.00011542459328969801,4.625956217463312e-05,8.399235215339473e-06,-0.0005893298602587622,-0.0010452906599385408,-0.00015186127681511688,0.00027350030413896464,-0.0002676656087732246,-0.00020254478187968806,0.00014010778514201666,0.4505855441093445,19.745019912719727,0.4466826617717743,-20.054964065551758,-0.7372947335243225,-2.4694857597351074,0.17978231608867645,0
35,0.17000198364257812,-0.4505855441093445,-19.717248916625977,-0.4466826617717743,20.054964065551758,0.7427878975868225,2.4758944511413574,-0.17978231608867645,0.0,0.0,0.0,0.0,0.0,0.0,0.0,-0.4329331676143541,0.011411179865088472,-0.24490169866053266,0.28271819954936134,0.15466239281783972,0.10196239509195805,-0.1753746537320048,1.213519125950964,-0.22032771567921886,-0.007488344109111111,-2.603866796593917,-0.10899996203184127,2.46813515414132,0.8264665090160237,1.2134413937687574,-0.2202432315892585,-0.0075118285948192216,-2.6038483821997875,-0.10888392708698907,2.4681821257803174,0.826474908251239,0.0003811455825508943,-0.00018885827020582912,0.0002484261287673305,-0.00011540946350758117,-0.00015274906861370276,-6.851417075766534e-06,0.0006274038288309991,0.0,0.0,0.0,0.0,0.0,0.0,0.0,-7.773218220652467e-05,8.448408996036827e-05,-2.3484485708110715e-05,1.8414394129528944e-05,0.00011603494485219745,4.697163899747281e-05,8.399235215339473e-06,-0.0003811455825508943,0.00018885827020582912,-0.0002484261287673305,0.00011540946350758117,0.00015274906861370276,6.851417075766534e-06,-0.0006274038288309991,0.4505855441093445,19.717248916625977,0.4466826617717743,-20.054964065551758,-0.7427878975868225,-2.4758944511413574,0.17978231608867645,0
36,0.17498445510864258,-0.4505855441093445,-19.717248916625977,-0.4466826617717743,20.054964065551758,0.7427878975868225,2.4758944511413574,-0.17978231608867645,0.0,0.0,0.0,0.0,0.0,0.0,0.0,-0.4329331676143541,0.011411179865088472,-0.24490169866053266,0.28271819954936134,0.15466239281783972,0.10196239509195805,-0.1753746537320048,1.213519125950964,-0.22032771567921886,-0.007488344109111111,-2.603866796593917,-0.10899996203184127,2.46813515414132,0.8264665090160237,1.2134413937687574,-0.2202432315892585,-0.0075118285948192216,-2.6038483821997875,-0.10888392708698907,2.4681821257803174,0.826474908251239,0.0003811455825508943,-0.00018885827020582912,0.0002484261287673305,-0.00011540946350758117,-0.00015274906861370276,-6.851417075766534e-06,0.0006274038288309991,0.0,0.0,0.0,0.0,0.0,0.0,0.0,-7.773218220652467e-05,8.448408996036827e-05,-2.3484485708110715e-05,1.8414394129528944e-05,0.00011603494485219745,4.697163899747281e-05,8.399235215339473e-06,-0.0003811455825508943,0.00018885827020582912,-0.0002484261287673305,0.00011540946350758117,0.00015274906861370276,6.851417075766534e-06,-0.0006274038288309991,0.4505855441093445,19.717248916625977,0.4466826617717743,-20.054964065551758,-0.7427878975868225,-2.4758944511413574,0.17978231608867645,0
37,0.18000102043151855,-0.4505855441093445,-19.717248916625977,-0.4466826617717743,20.054964065551758,0.7427878975868225,2.4758944511413574,-0.17978231608867645,0.0,0.0,0.0,0.0,0.0,0.0,0.0,-0.4329331676143541,0.011411179865088472,-0.24490169866053266,0.28271819954936134,0.15466239281783972,0.10196239509195805,-0.1753746537320048,1.213519125950964,-0.22032771567921886,-0.007488344109111111,-2.603866796593917,-0.10899996203184127,2.46813515414132,0.8264665090160237,1.2134413937687574,-0.2202432315892585,-0.0075118285948192216,-2.6038483821997875,-0.10888392708698907,2.4681821257803174,0.826474908251239,0.0003811455825508943,-0.00018885827020582912,0.0002484261287673305,-0.00011540946350758117,-0.00015274906861370276,-6.851417075766534e-06,0.0006274038288309991,0.0,0.0,0.0,0.0,0.0,0.0,0.0,-7.773218220652467e-05,8.448408996036827e-05,-2.3484485708110715e-05,1.8414394129528944e-05,0.00011603494485219745,4.697163899747281e-05,8.399235215339473e-06,-0.0003811455825508943,0.00018885827020582912,-0.0002484261287673305,0.00011540946350758117,0.00015274906861370276,6.851417075766534e-06,-0.0006274038288309991,0.4505855441093445,19.717248916625977,0.4466826617717743,-20.054964065551758,-0.7427878975868225,-2.4758944511413574,0.17978231608867645,0
38,0.18498563766479492,-0.4505855441093445,-19.717248916625977,-0.4466826617717743,20.054964065551758,0.7427878975868225,2.4758944511413574,-0.17978231608867645,0.0,0.0,0.0,0.0,0.0,0.0,0.0,-0.4329331676143541,0.011411179865088472,-0.24490169866053266,0.28271819954936134,0.15466239281783972,0.10196239509195805,-0.1753746537320048,1.213519125950964,-0.22032771567921886,-0.007488344109111111,-2.603866796593917,-0.10899996203184127,2.46813515414132,0.8264665090160237,1.2134413937687574,-0.2202432315892585,-0.0075118285948192216,-2.6038483821997875,-0.10888392708698907,2.4681821257803174,0.826474908251239,0.0003811455825508943,-0.00018885827020582912,0.0002484261287673305,-0.00011540946350758117,-0.00015274906861370276,-6.851417075766534e-06,0.0006274038288309991,0.0,0.0,0.0,0.0,0.0,0.0,0.0,-7.773218220652467e-05,8.448408996036827e-05,-2.3484485708110715e-05,1.8414394129528944e-05,0.00011603494485219745,4.697163899747281e-05,8.399235215339473e-06,-0.0003811455825508943,0.00018885827020582912,-0.0002484261287673305,0.00011540946350758117,0.00015274906861370276,6.851417075766534e-06,-0.0006274038288309991,0.4505855441093445,19.717248916625977,0.4466826617717743,-20.054964065551758,-0.7427878975868225,-2.4758944511413574,0.17978231608867645,0
39,0.18999147415161133,-0.4267818331718445,-19.717248916625977,-0.4228789508342743,20.054964065551758,0.7372947335243225,2.4630770683288574,-0.20083944499492645,0.0,0.0,0.0,0.0,0.0,0.0,0.0,-0.42912279067623776,0.018717699515088553,-0.2398322314601419,0.2783314621151679,0.15416709669650044,0.10153746335265287,-0.17456775825892465,1.2135174555151087,-0.2203277244277744,-0.007490026245513857,-2.603866796593917,-0.10899935168027877,2.4681365782949656,0.8264688486970133,1.2134413937687574,-0.2202432315892585,-0.0075118285948192216,-2.6038483821997875,-0.10888392708698907,2.4681821257803174,0.826474908251239,0.00018146714427758046,0.00016364659414653567,-0.0003962382702631016,1.0471682328946796e-05,-9.970705760493803e-06,0.0005187065834604975,0.0007216059724279603,0.0,0.0,0.0,0.0,0.0,0.0,0.0,-7.606174635133023e-05,8.449283851591494e-05,-2.18023493053646e-05,1.8414394129528944e-05,0.00011542459328969801,4.5547485351793426e-05,6.0595542257235735e-06,-0.00018146714427758046,-0.00016364659414653567,0.0003962382702631016,-1.0471682328946796e-05,9.970705760493803e-06,-0.0005187065834604975,-0.0007216059724279603,0.4267818331718445,19.717248916625977,0.4228789508342743,-20.054964065551758,-0.7372947335243225,-2.4630770683288574,0.20083944499492645,0
40,0.19499897956848145,-0.4267818331718445,-19.717248916625977,-0.4228789508342743,20.054964065551758,0.7372947335243225,2.4630770683288574,-0.20083944499492645,0.0,0.0,0.0,0.0,0.0,0.0,0.0,-0.42912279067623776,0.018717699515088553,-0.2398322314601419,0.2783314621151679,0.15416709669650044,0.10153746335265287,-0.17456775825892465,1.2135174555151087,-0.2203277244277744,-0.007490026245513857,-2.603866796593917,-0.10899935168027877,2.4681365782949656,0.8264688486970133,1.2134413937687574,-0.2202432315892585,-0.0075118285948192216,-2.6038483821997875,-0.10888392708698907,2.4681821257803174,0.826474908251239,0.00018146714427758046,0.00016364659414653567,-0.0003962382702631016,1.0471682328946796e-05,-9.970705760493803e-06,0.0005187065834604975,0.0007216059724279603,0.0,0.0,0.0,0.0,0.0,0.0,0.0,-7.606174635133023e-05,8.449283851591494e-05,-2.18023493053646e-05,1.8414394129528944e-05,0.00011542459328969801,4.5547485351793426e-05,6.0595542257235735e-06,-0.00018146714427758046,-0.00016364659414653567,0.0003962382702631016,-1.0471682328946796e-05,9.970705760493803e-06,-0.0005187065834604975,-0.0007216059724279603,0.4267818331718445,19.717248916625977,0.4228789508342743,-20.054964065551758,-0.7372947335243225,-2.4630770683288574,0.20083944499492645,0
41,0.20003390312194824,-0.4267818331718445,-19.745019912719727,-0.4228789508342743,20.106538772583008,0.7427878975868225,2.4694857597351074,-0.14590780436992645,0.0,0.0,0.0,0.0,0.0,0.0,0.0,-0.42939077573901424,0.014775893908247524,-0.2383500287999603,0.28294453834600836,0.1541117617585437,0.10189668432423252,-0.1744194851336076,1.2135173789856883,-0.22032576683740418,-0.007490026233554611,-2.6038704158716035,-0.10899997521599623,2.4681358662181427,0.8264627451813883,1.2134413937687574,-0.2202432315892585,-0.0075118285948192216,-2.6038483821997875,-0.10888392708698907,2.4681821257803174,0.826474908251239,5.0291413631201566e-05,0.0007792757521496155,3.4457238981773815e-05,-0.0008734965488912037,-0.00010868325085683544,-0.00012687000274426823,-0.001081127139729641,0.0,0.0,0.0,0.0,0.0,0.0,0.0,-7.598521693097382e-05,8.253524814569313e-05,-2.1802361264610694e-05,2.2033671815968603e-05,0.00011604812900715966,4.625956217463312e-05,1.2163069850745778e-05,-5.0291413631201566e-05,-0.0007792757521496155,-3.4457238981773815e-05,0.0008734965488912037,0.00010868325085683544,0.00012687000274426823,0.001081127139729641,0.4267818331718445,19.745019912719727,0.4228789508342743,-20.106538772583008,-0.7427878975868225,-2.4694857597351074,0.14590780436992645,0
42,0.20499658584594727,-0.4267818331718445,-19.745019912719727,-0.4228789508342743,20.106538772583008,0.7427878975868225,2.4694857597351074,-0.14590780436992645,0.0,0.0,0.0,0.0,0.0,0.0,0.0,-0.42939077573901424,0.014775893908247524,-0.2383500287999603,0.28294453834600836,0.1541117617585437,0.10189668432423252,-0.1744194851336076,1.2135173789856883,-0.22032576683740418,-0.007490026233554611,-2.6038704158716035,-0.10899997521599623,2.4681358662181427,0.8264627451813883,1.2134413937687574,-0.2202432315892585,-0.0075118285948192216,-2.6038483821997875,-0.10888392708698907,2.4681821257803174,0.826474908251239,5.0291413631201566e-05,0.0007792757521496155,3.4457238981773815e-05,-0.0008734965488912037,-0.00010868325085683544,-0.00012687000274426823,-0.001081127139729641,0.0,0.0,0.0,0.0,0.0,0.0,0.0,-7.598521693097382e-05,8.253524814569313e-05,-2.1802361264610694e-05,2.2033671815968603e-05,0.00011604812900715966,4.625956217463312e-05,1.2163069850745778e-05,-5.0291413631201566e-05,-0.0007792757521496155,-3.4457238981773815e-05,0.0008734965488912037,0.00010868325085683544,0.00012687000274426823,0.001081127139729641,0.4267818331718445,19.745019912719727,0.4228789508342743,-20.106538772583008,-0.7427878975868225,-2.4694857597351074,0.14590780436992645,0
43,0.20998477935791016,-0.4029781222343445,-19.717248916625977,-0.4466826617717743,20.054964065551758,0.7427878975868225,2.4823031425476074,-0.19351522624492645,0.0,0.0,0.0,0.0,0.0,0.0,0.0,-0.4271088417715381,0.016383760384819514,-0.23354067207562218,0.2843890757314068,0.15423460851222598,0.1011343481349869,-0.17450440250415028,1.2135157850788212,-0.22032771567921886,-0.007488329510401502,-2.603866796593917,-0.10899996203191568,2.4681344420644966,0.82646803489493,1.2134413937687574,-0.2202432315892585,-0.0075118285948192216,-2.6038483821997875,-0.10888392708698907,2.4681821257803174,0.826474908251239,9.359086449956746e-05,-2.736989750341346e-06,0.0003889569017675058,0.0003164898806360305,-7.037226507648901e-05,-0.0003701772450251736,-0.004419966071693779,0.0,0.0,0.0,0.0,0.0,0.0,0.0,-7.439131006381494e-05,8.448408996036827e-05,-2.3499084417719952e-05,1.8414394129528944e-05,0.00011603494492661015,4.768371582075659e-05,6.8733563090006555e-06,-9.359086449956746e-05,2.736989750341346e-06,-0.0003889569017675058,-0.0003164898806360305,7.037226507648901e-05,0.0003701772450251736,0.004419966071693779,0.4029781222343445,19.717248916625977,0.4466826617717743,-20.054964065551758,-0.7427878975868225,-2.4823031425476074,0.19351522624492645,0
44,0.21498608589172363,-0.4029781222343445,-19.717248916625977,-0.4466826617717743,20.054964065551758,0.7427878975868225,2.4823031425476074,-0.19351522624492645,0.0,0.0,0.0,0.0,0.0,0.0,0.0,-0.4271088417715381,0.016383760384819514,-0.23354067207562218,0.2843890757314068,0.15423460851222598,0.1011343481349869,-0.17450440250415028,1.2135157850788212,-0.22032771567921886,-0.007488329510401502,-2.603866796593917,-0.10899996203191568,2.4681344420644966,0.82646803489493,1.2134413937687574,-0.2202432315892585,-0.0075118285948192216,-2.6038483821997875,-0.10888392708698907,2.4681821257803174,0.826474908251239,9.359086449956746e-05,-2.736989750341346e-06,0.0003889569017675058,0.0003164898806360305,-7.037226507648901e-05,-0.0003701772450251736,-0.004419966071693779,0.0,0.0,0.0,0.0,0.0,0.0,0.0,-7.439131006381494e-05,8.448408996036827e-05,-2.3499084417719952e-05,1.8414394129528944e-05,0.00011603494492661015,4.768371582075659e-05,6.8733563090006555e-06,-9.359086449956746e-05,2.736989750341346e-06,-0.0003889569017675058,-0.0003164898806360305,7.037226507648901e-05,0.0003701772450251736,0.004419966071693779,0.4029781222343445,19.717248916625977,0.4466826617717743,-20.054964065551758,-0.7427878975868225,-2.4823031425476074,0.19351522624492645,0
45,0.219984769821167,-0.3752071261405945,-19.717248916625977,-0.4466826617717743,20.082735061645508,0.7427878975868225,2.4823031425476074,-0.16604940593242645,0.0,0.0,0.0,0.0,0.0,0.0,0.0,-0.4239345668230459,0.013554280961116322,-0.23309578639194414,0.28820819324153707,0.1543649359567717,0.10209699588574625,-0.1749708015349642,1.2135138362374223,-0.22032771567921886,-0.007488355484893182,-2.603868745435748,-0.10899996203184127,2.4681344420644966,0.8264649831371175,1.2134413937687574,-0.2202432315892585,-0.0075118285948192216,-2.6038483821997875,-0.10888392708698907,2.4681821257803174,0.826474908251239,-0.0009946853009498704,-0.0005917223322725502,0.000508681761723486,-0.00043147425398991617,-0.00010301258528652277,-5.2335074349440314e-05,-0.0006823782057972178,0.0,0.0,0.0,0.0,0.0,0.0,0.0,-7.244246866489057e-05,8.448408996036827e-05,-2.3473109926039175e-05,2.0363235960552117e-05,0.00011603494485219745,4.768371582075659e-05,9.925114121567269e-06,0.0009946853009498704,0.0005917223322725502,-0.000508681761723486,0.00043147425398991617,0.00010301258528652277,5.2335074349440314e-05,0.0006823782057972178,0.3752071261405945,19.717248916625977,0.4466826617717743,-20.082735061645508,-0.7427878975868225,-2.4823031425476074,0.16604940593242645,0
46,0.22498774528503418,-0.3752071261405945,-19.717248916625977,-0.4466826617717743,20.082735061645508,0.7427878975868225,2.4823031425476074,-0.16604940593242645,0.0,0.0,0.0,0.0,0.0,0.0,0.0,-0.4239345668230459,0.013554280961116322,-0.23309578639194414,0.28820819324153707,0.1543649359567717,0.10209699588574625,-0.1749708015349642,1.2135138362374223,-0.22032771567921886,-0.007488355484893182,-2.603868745435748,-0.10899996203184127,2.4681344420644966,0.8264649831371175,1.2134413937687574,-0.2202432315892585,-0.0075118285948192216,-2.6038483821997875,-0.10888392708698907,2.4681821257803174,0.826474908251239,-0.0009946853009498704,-0.0005917223322725502,0.000508681761723486,-0.00043147425398991617,-0.00010301258528652277,-5.2335074349440314e-05,-0.0006823782057972178,0.0,0.0,0.0,0.0,0.0,0.0,0.0,-7.244246866489057e-05,8.448408996036827e-05,-2.3473109926039175e-05,2.0363235960552117e-05,0.00011603494485219745,4.768371582075659e-05,9.925114121567269e-06,0.0009946853009498704,0.0005917223322725502,-0.000508681761723486,0.00043147425398991617,0.00010301258528652277,5.2335074349440314e-05,0.0006823782057972178,0.3752071261405945,19.717248916625977,0.4466826617717743,-20.082735061645508,-0.7427878975868225,-2.4823031425476074,0.16604940593242645,0
47,0.23000717163085938,-0.4029781222343445,-19.745019912719727,-0.4466826617717743,20.054964065551758,0.7427878975868225,2.4758944511413574,-0.16604940593242645,0.0,0.0,0.0,0.0,0.0,0.0,0.0,-0.4227445316894943,0.014674136252003072,-0.23250932493540155,0.2859353067812915,0.15453403569634674,0.1022422898841413,-0.17585021542012388,1.2135157822448304,-0.22032576683738772,-0.007488351913526799,-2.603866796593917,-0.10899996203184127,2.46813515414132,0.8264649831371175,1.2134413937687574,-0.2202432315892585,-0.0075118285948192216,-2.6038483821997875,-0.10888392708698907,2.4681821257803174,0.826474908251239,-0.00041714780340625367,0.00029084400062269434,0.00049217783953319,0.00018642908641830301,-0.00010223915956616143,-2.7215424477840362e-05,-0.0006573391530153596,0.0,0.0,0.0,0.0,0.0,0.0,0.0,-7.438847607299515e-05,8.253524812923407e-05,-2.3476681292422356e-05,1.8414394129528944e-05,0.00011603494485219745,4.697163899747281e-05,9.925114121567269e-06,0.00041714780340625367,-0.00029084400062269434,-0.00049217783953319,-0.00018642908641830301,0.00010223915956616143,2.7215424477840362e-05,0.0006573391530153596,0.4029781222343445,19.745019912719727,0.4466826617717743,-20.054964065551758,-0.7427878975868225,-2.4758944511413574,0.16604940593242645,0
48,0.2355804443359375,-0.4029781222343445,-19.745019912719727,-0.4466826617717743,20.054964065551758,0.7427878975868225,2.4758944511413574,-0.16604940593242645,0.0,0.0,0.0,0.0,0.0,0.0,0.0,-0.4227445316894943,0.014674136252003072,-0.23250932493540155,0.2859353067812915,0.15453403569634674,0.1022422898841413,-0.17585021542012388,1.2135157822448304,-0.22032576683738772,-0.007488351913526799,-2.603866796593917,-0.10899996203184127,2.46813515414132,0.8264649831371175,1.2134413937687574,-0.2202432315892585,-0.0075118285948192216,-2.6038483821997875,-0.10888392708698907,2.4681821257803174,0.826474908251239,-0.00041714780340625367,0.00029084400062269434,0.00049217783953319,0.00018642908641830301,-0.00010223915956616143,-2.7215424477840362e-05,-0.0006573391530153596,0.0,0.0,0.0,0.0,0.0,0.0,0.0,-7.438847607299515e-05,8.253524812923407e-05,-2.3476681292422356e-05,1.8414394129528944e-05,0.00011603494485219745,4.697163899747281e-05,9.925114121567269e-06,0.00041714780340625367,-0.00029084400062269434,-0.00049217783953319,-0.00018642908641830301,0.00010223915956616143,2.7215424477840362e-05,0.0006573391530153596,0.4029781222343445,19.745019912719727,0.4466826617717743,-20.054964065551758,-0.7427878975868225,-2.4758944511413574,0.16604940593242645,0
49,0.24002838134765625,-0.4267818331718445,-19.717248916625977,-0.4228789508342743,20.054964065551758,0.7491965889930725,2.4758944511413574,-0.21457235515117645,0.0,0.0,0.0,0.0,0.0,0.0,0.0,-0.42275263405100894,0.014427766526557384,-0.23185907953703722,0.2828257536325254,0.15472426493607513,0.10227414844166463,-0.17602066152565896,1.2135153089120574,-0.22032771567921886,-0.007490026245513925,-2.603866796593917,-0.1090006741086642,2.46813515414132,0.8264703745759195,1.2134413937687574,-0.2202432315892585,-0.0075118285948192216,-2.6038483821997875,-0.10888392708698907,2.4681821257803174,0.826474908251239,0.00022781913615291667,-6.276500005805606e-05,-7.48890790612722e-05,-0.0004651476412995946,-0.00023621707165641246,-4.605529281258461e-05,0.0015486017526668836,0.0,0.0,0.0,0.0,0.0,0.0,0.0,-7.391514330001847e-05,8.448408996036827e-05,-2.1802349305296946e-05,1.8414394129528944e-05,0.00011674702167512041,4.697163899747281e-05,4.533675319495778e-06,-0.00022781913615291667,6.276500005805606e-05,7.48890790612722e-05,0.0004651476412995946,0.00023621707165641246,4.605529281258461e-05,-0.0015486017526668836,0.4267818331718445,19.717248916625977,0.4228789508342743,-20.054964065551758,-0.7491965889930725,-2.4758944511413574,0.21457235515117645,0
50,0.2449817657470703,-0.4267818331718445,-19.717248916625977,-0.4228789508342743,20.054964065551758,0.7491965889930725,2.4758944511413574,-0.21457235515117645,0.0,0.0,0.0,0.0,0.0,0.0,0.0,-0.42275263405100894,0.014427766526557384,-0.23185907953703722,0.2828257536325254,0.15472426493607513,0.10227414844166463,-0.17602066152565896,1.2135153089120574,-0.22032771567921886,-0.007490026245513925,-2.603866796593917,-0.1090006741086642,2.46813515414132,0.8264703745759195,1.2134413937687574,-0.2202432315892585,-0.0075118285948192216,-2.6038483821997875,-0.10888392708698907,2.4681821257803174,0.826474908251239,0.00022781913615291667,-6.276500005805606e-05,-7.48890790612722e-05,-0.0004651476412995946,-0.00023621707165641246,-4.605529281258461e-05,0.0015486017526668836,0.0,0.0,0.0,0.0,0.0,0.0,0.0,-7.391514330001847e-05,8.448408996036827e-05,-2.1802349305296946e-05,1.8414394129528944e-05,0.00011674702167512041,4.697163899747281e-05,4.533675319495778e-06,-0.00022781913615291667,6.276500005805606e-05,7.48890790612722e-05,0.0004651476412995946,0.00023621707165641246,4.605529281258461e-05,-0.0015486017526668836,0.4267818331718445,19.717248916625977,0.4228789508342743,-20.054964065551758,-0.7491965889930725,-2.4758944511413574,0.21457235515117645,0
51,0.2499847412109375,-0.4505855441093445,-19.693445205688477,-0.4466826617717743,20.031160354614258,0.7491965889930725,2.4694857597351074,-0.14590780436992645,0.0,0.0,0.0,0.0,0.0,0.0,0.0,-0.42962679318143804,0.01641500517971646,-0.2345442578764027,0.2814353718767159,0.15545930029820995,0.1027067951322933,-0.17528087831883768,1.2135191259469247,-0.22032938611507413,-0.007488355689471681,-2.6038651261580616,-0.10900069168753748,2.4681358662181427,0.8264627451813883,1.2134413937687574,-0.2202432315892585,-0.0075118285948192216,-2.6038483821997875,-0.10888392708698907,2.4681821257803174,0.826474908251239,0.0001418680453068033,-0.00028306235172719256,-1.4118186839759541e-05,0.00045257471432633655,-0.00037121923866104627,0.00012861693416669662,-0.0010810801841722743,0.0,0.0,0.0,0.0,0.0,0.0,0.0,-7.773217816731126e-05,8.615452581564598e-05,-2.3472905347540936e-05,1.6743958274112458e-05,0.00011676460054840798,4.625956217463312e-05,1.2163069850745778e-05,-0.0001418680453068033,0.00028306235172719256,1.4118186839759541e-05,-0.00045257471432633655,0.00037121923866104627,-0.00012861693416669662,0.0010810801841722743,0.4505855441093445,19.693445205688477,0.4466826617717743,-20.031160354614258,-0.7491965889930725,-2.4694857597351074,0.14590780436992645,0
52,0.2549891471862793,-0.4505855441093445,-19.693445205688477,-0.4466826617717743,20.031160354614258,0.7491965889930725,2.4694857597351074,-0.14590780436992645,0.0,0.0,0.0,0.0,0.0,0.0,0.0,-0.42962679318143804,0.01641500517971646,-0.2345442578764027,0.2814353718767159,0.15545930029820995,0.1027067951322933,-0.17528087831883768,1.2135191259469247,-0.22032938611507413,-0.007488355689471681,-2.6038651261580616,-0.10900069168753748,2.4681358662181427,0.8264627451813883,1.2134413937687574,-0.2202432315892585,-0.0075118285948192216,-2.6038483821997875,-0.10888392708698907,2.4681821257803174,0.826474908251239,0.0001418680453068033,-0.00028306235172719256,-1.4118186839759541e-05,0.00045257471432633655,-0.00037121923866104627,0.00012861693416669662,-0.0010810801841722743,0.0,0.0,0.0,0.0,0.0,0.0,0.0,-7.773217816731126e-05,8.615452581564598e-05,-2.3472905347540936e-05,1.6743958274112458e-05,0.00011676460054840798,4.625956217463312e-05,1.2163069850745778e-05,-0.0001418680453068033,0.00028306235172719256,1.4118186839759541e-05,-0.00045257471432633655,0.00037121923866104627,-0.00012861693416669662,0.0010810801841722743,0.4505855441093445,19.693445205688477,0.4466826617717743,-20.031160354614258,-0.7491965889930725,-2.4694857597351074,0.14590780436992645,0
53,0.259993314743042,-0.4267818331718445,-19.693445205688477,-0.3990752398967743,20.054964065551758,0.7372947335243225,2.4758944511413574,-0.20083944499492645,0.0,0.0,0.0,0.0,0.0,0.0,0.0,-0.42994512061624784,0.02418967731679191,-0.23239327166554444,0.27750998346789996,0.15519837285315755,0.10223793270294483,-0.17531498083073416,1.2135174555151087,-0.22032938611507413,-0.007491459951451389,-2.603866796593917,-0.10899939123277674,2.46813480092861,0.8264688491815301,1.2134413937687574,-0.2202432315892585,-0.0075118285948192216,-2.6038483821997875,-0.10888392708698907,2.4681821257803174,0.826474908251239,-0.00037919530353726377,0.0001528796577967592,-0.0009004966883940988,-0.0003895494789069537,0.0002056029216064722,-4.969911660578424e-06,0.0012581586020695712,0.0,0.0,0.0,0.0,0.0,0.0,0.0,-7.606174635133023e-05,8.615452581564598e-05,-2.0368643367832742e-05,1.8414394129528944e-05,0.00011546414578766928,4.7324851707220006e-05,6.059069708963527e-06,0.00037919530353726377,-0.0001528796577967592,0.0009004966883940988,0.0003895494789069537,-0.0002056029216064722,4.969911660578424e-06,-0.0012581586020695712,0.4267818331718445,19.693445205688477,0.3990752398967743,-20.054964065551758,-0.7372947335243225,-2.4758944511413574,0.20083944499492645,0
54,0.26499199867248535,-0.4267818331718445,-19.693445205688477,-0.3990752398967743,20.054964065551758,0.7372947335243225,2.4758944511413574,-0.20083944499492645,0.0,0.0,0.0,0.0,0.0,0.0,0.0,-0.42994512061624784,0.02418967731679191,-0.23239327166554444,0.27750998346789996,0.15519837285315755,0.10223793270294483,-0.17531498083073416,1.2135174555151087,-0.22032938611507413,-0.007491459951451389,-2.603866796593917,-0.10899939123277674,2.46813480092861,0.8264688491815301,1.2134413937687574,-0.2202432315892585,-0.0075118285948192216,-2.6038483821997875,-0.10888392708698907,2.4681821257803174,0.826474908251239,-0.00037919530353726377,0.0001528796577967592,-0.0009004966883940988,-0.0003895494789069537,0.0002056029216064722,-4.969911660578424e-06,0.0012581586020695712,0.0,0.0,0.0,0.0,0.0,0.0,0.0,-7.606174635133023e-05,8.615452581564598e-05,-2.0368643367832742e-05,1.8414394129528944e-05,0.00011546414578766928,4.7324851707220006e-05,6.059069708963527e-06,0.00037919530353726377,-0.0001528796577967592,0.0009004966883940988,0.0003895494789069537,-0.0002056029216064722,4.969911660578424e-06,-0.0012581586020695712,0.4267818331718445,19.693445205688477,0.3990752398967743,-20.054964065551758,-0.7372947335243225,-2.4758944511413574,0.20083944499492645,0
55,0.2699873447418213,-0.4505855441093445,-19.717248916625977,-0.3990752398967743,20.106538772583008,0.7372947335243225,2.4758944511413574,-0.19351522624492645,0.0,0.0,0.0,0.0,0.0,0.0,0.0,-0.4283571383903664,0.015156929394522007,-0.23194207528884095,0.28504009231043276,0.1554939313657862,0.1037200800184934,-0.1748791850210539,1.213519125950964,-0.22032771567921886,-0.007490986490148155,-2.6038704158716035,-0.10899935168050204,2.4681351404113516,0.8264680348949328,1.2134413937687574,-0.2202432315892585,-0.0075118285948192216,-2.6038483821997875,-0.10888392708698907,2.4681821257803174,0.826474908251239,0.0003649475811695811,-3.31411539400409e-05,-6.752139169860295e-05,-0.0008490333054809006,2.6518116204997657e-05,-0.00011654418438010777,0.0008361050994828666,0.0,0.0,0.0,0.0,0.0,0.0,0.0,-7.773218220652467e-05,8.448408996036827e-05,-2.0842104671066168e-05,2.2033671815968603e-05,0.00011542459351296386,4.698536896574623e-05,6.873356306225098e-06,-0.0003649475811695811,3.31411539400409e-05,6.752139169860295e-05,0.0008490333054809006,-2.6518116204997657e-05,0.00011654418438010777,-0.0008361050994828666,0.4505855441093445,19.717248916625977,0.3990752398967743,-20.106538772583008,-0.7372947335243225,-2.4758944511413574,0.19351522624492645,0
56,0.27498412132263184,-0.4505855441093445,-19.717248916625977,-0.3990752398967743,20.106538772583008,0.7372947335243225,2.4758944511413574,-0.19351522624492645,0.0,0.0,0.0,0.0,0.0,0.0,0.0,-0.4283571383903664,0.015156929394522007,-0.23194207528884095,0.28504009231043276,0.1554939313657862,0.1037200800184934,-0.1748791850210539,1.213519125950964,-0.22032771567921886,-0.007490986490148155,-2.6038704158716035,-0.10899935168050204,2.4681351404113516,0.8264680348949328,1.2134413937687574,-0.2202432315892585,-0.0075118285948192216,-2.6038483821997875,-0.10888392708698907,2.4681821257803174,0.826474908251239,0.0003649475811695811,-3.31411539400409e-05,-6.752139169860295e-05,-0.0008490333054809006,2.6518116204997657e-05,-0.00011654418438010777,0.0008361050994828666,0.0,0.0,0.0,0.0,0.0,0.0,0.0,-7.773218220652467e-05,8.448408996036827e-05,-2.0842104671066168e-05,2.2033671815968603e-05,0.00011542459351296386,4.698536896574623e-05,6.873356306225098e-06,-0.0003649475811695811,3.31411539400409e-05,6.752139169860295e-05,0.0008490333054809006,-2.6518116204997657e-05,0.00011654418438010777,-0.0008361050994828666,0.4505855441093445,19.717248916625977,0.3990752398967743,-20.106538772583008,-0.7372947335243225,-2.4758944511413574,0.19351522624492645,0
57,0.2799844741821289,-0.4505855441093445,-19.717248916625977,-0.3990752398967743,20.106538772583008,0.7372947335243225,2.4758944511413574,-0.19351522624492645,0.0,0.0,0.0,0.0,0.0,0.0,0.0,-0.4283571383903664,0.015156929394522007,-0.23194207528884095,0.28504009231043276,0.1554939313657862,0.1037200800184934,-0.1748791850210539,1.213519125950964,-0.22032771567921886,-0.007490986490148155,-2.6038704158716035,-0.10899935168050204,2.4681351404113516,0.8264680348949328,1.2134413937687574,-0.2202432315892585,-0.0075118285948192216,-2.6038483821997875,-0.10888392708698907,2.4681821257803174,0.826474908251239,0.0003649475811695811,-3.31411539400409e-05,-6.752139169860295e-05,-0.0008490333054809006,2.6518116204997657e-05,-0.00011654418438010777,0.0008361050994828666,0.0,0.0,0.0,0.0,0.0,0.0,0.0,-7.773218220652467e-05,8.448408996036827e-05,-2.0842104671066168e-05,2.2033671815968603e-05,0.00011542459351296386,4.698536896574623e-05,6.873356306225098e-06,-0.0003649475811695811,3.31411539400409e-05,6.752139169860295e-05,0.0008490333054809006,-2.6518116204997657e-05,0.00011654418438010777,-0.0008361050994828666,0.4505855441093445,19.717248916625977,0.3990752398967743,-20.106538772583008,-0.7372947335243225,-2.4758944511413574,0.19351522624492645,0
58,0.28499865531921387,-0.4505855441093445,-19.717248916625977,-0.3990752398967743,20.106538772583008,0.7372947335243225,2.4758944511413574,-0.19351522624492645,0.0,0.0,0.0,0.0,0.0,0.0,0.0,-0.4283571383903664,0.015156929394522007,-0.23194207528884095,0.28504009231043276,0.1554939313657862,0.1037200800184934,-0.1748791850210539,1.213519125950964,-0.22032771567921886,-0.007490986490148155,-2.6038704158716035,-0.10899935168050204,2.4681351404113516,0.8264680348949328,1.2134413937687574,-0.2202432315892585,-0.0075118285948192216,-2.6038483821997875,-0.10888392708698907,2.4681821257803174,0.826474908251239,0.0003649475811695811,-3.31411539400409e-05,-6.752139169860295e-05,-0.0008490333054809006,2.6518116204997657e-05,-0.00011654418438010777,0.0008361050994828666,0.0,0.0,0.0,0.0,0.0,0.0,0.0,-7.773218220652467e-05,8.448408996036827e-05,-2.0842104671066168e-05,2.2033671815968603e-05,0.00011542459351296386,4.698536896574623e-05,6.873356306225098e-06,-0.0003649475811695811,3.31411539400409e-05,6.752139169860295e-05,0.0008490333054809006,-2.6518116204997657e-05,0.00011654418438010777,-0.0008361050994828666,0.4505855441093445,19.717248916625977,0.3990752398967743,-20.106538772583008,-0.7372947335243225,-2.4758944511413574,0.19351522624492645,0
59,0.2900059223175049,-0.4505855441093445,-19.717248916625977,-0.3990752398967743,20.106538772583008,0.7372947335243225,2.4758944511413574,-0.19351522624492645,0.0,0.0,0.0,0.0,0.0,0.0,0.0,-0.4283571383903664,0.015156929394522007,-0.23194207528884095,0.28504009231043276,0.1554939313657862,0.1037200800184934,-0.1748791850210539,1.213519125950964,-0.22032771567921886,-0.007490986490148155,-2.6038704158716035,-0.10899935168050204,2.4681351404113516,0.8264680348949328,1.2134413937687574,-0.2202432315892585,-0.0075118285948192216,-2.6038483821997875,-0.10888392708698907,2.4681821257803174,0.826474908251239,0.0003649475811695811,-3.31411539400409e-05,-6.752139169860295e-05,-0.0008490333054809006,2.6518116204997657e-05,-0.00011654418438010777,0.0008361050994828666,0.0,0.0,0.0,0.0,0.0,0.0,0.0,-7.773218220652467e-05,8.448408996036827e-05,-2.0842104671066168e-05,2.2033671815968603e-05,0.00011542459351296386,4.698536896574623e-05,6.873356306225098e-06,-0.0003649475811695811,3.31411539400409e-05,6.752139169860295e-05,0.0008490333054809006,-2.6518116204997657e-05,0.00011654418438010777,-0.0008361050994828666,0.4505855441093445,19.717248916625977,0.3990752398967743,-20.106538772583008,-0.7372947335243225,-2.4758944511413574,0.19351522624492645,0
60,0.2950277328491211,-0.4267818331718445,-19.745019912719727,-0.4228789508342743,20.054964065551758,0.7372947335243225,2.4823031425476074,-0.20083944499492645,0.0,0.0,0.0,0.0,0.0,0.0,0.0,-0.4299659936522427,0.02544628768217601,-0.23075425584076076,0.2769932276311205,0.1547070130561064,0.10180608905306827,-0.17460804411117642,1.2135174526806858,-0.22032576683738772,-0.007489999934229681,-2.603866796593917,-0.10899935168027877,2.4681344420642644,0.8264688486970133,1.2134413937687574,-0.2202432315892585,-0.0075118285948192216,-2.6038483821997875,-0.10888392708698907,2.4681821257803174,0.826474908251239,0.0003790926110166181,0.0006752442485838262,-0.00013494950066281978,0.00032747408454636564,5.9470128559440774e-05,-0.0002670194148656028,0.0011785695640255684,0.0,0.0,0.0,0.0,0.0,0.0,0.0,-7.605891192841163e-05,8.253524812923407e-05,-2.1828660589540312e-05,1.8414394129528944e-05,0.00011542459328969801,4.7683716053015246e-05,6.0595542257235735e-06,-0.0003790926110166181,-0.0006752442485838262,0.00013494950066281978,-0.00032747408454636564,-5.9470128559440774e-05,0.0002670194148656028,-0.0011785695640255684,0.4267818331718445,19.745019912719727,0.4228789508342743,-20.054964065551758,-0.7372947335243225,-2.4823031425476074,0.20083944499492645,0
61,0.30001187324523926,-0.4267818331718445,-19.745019912719727,-0.4228789508342743,20.054964065551758,0.7372947335243225,2.4823031425476074,-0.20083944499492645,0.0,0.0,0.0,0.0,0.0,0.0,0.0,-0.4299659936522427,0.02544628768217601,-0.23075425584076076,0.2769932276311205,0.1547070130561064,0.10180608905306827,-0.17460804411117642,1.2135174526806858,-0.22032576683738772,-0.007489999934229681,-2.603866796593917,-0.10899935168027877,2.4681344420642644,0.8264688486970133,1.2134413937687574,-0.2202432315892585,-0.0075118285948192216,-2.6038483821997875,-0.10888392708698907,2.4681821257803174,0.826474908251239,0.0003790926110166181,0.0006752442485838262,-0.00013494950066281978,0.00032747408454636564,5.9470128559440774e-05,-0.0002670194148656028,0.0011785695640255684,0.0,0.0,0.0,0.0,0.0,0.0,0.0,-7.605891192841163e-05,8.253524812923407e-05,-2.1828660589540312e-05,1.8414394129528944e-05,0.00011542459328969801,4.7683716053015246e-05,6.0595542257235735e-06,-0.0003790926110166181,-0.0006752442485838262,0.00013494950066281978,-0.00032747408454636564,-5.9470128559440774e-05,0.0002670194148656028,-0.0011785695640255684,0.4267818331718445,19.745019912719727,0.4228789508342743,-20.054964065551758,-0.7372947335243225,-2.4823031425476074,0.20083944499492645,0
62,0.30498480796813965,-0.3752071261405945,-19.768823623657227,-0.4466826617717743,20.082735061645508,0.7308860421180725,2.4694857597351074,-0.17978231608867645,0.0,0.0,0.0,0.0,0.0,0.0,0.0,-0.4255351707632989,0.014865982240369592,-0.22986268317528544,0.2787716750905468,0.15423229791968188,0.10242885898258113,-0.17505269541955024,1.2135137568735734,-0.22032409640153247,-0.007488276875630024,-2.6038687454483096,-0.10899863962154112,2.4681358662181427,0.8264665090160237,1.2134413937687574,-0.2202432315892585,-0.0075118285948192216,-2.6038483821997875,-0.10888392708698907,2.4681821257803174,0.826474908251239,-0.0007460807545328958,0.0003148858778946203,0.0007247041954585856,-0.0006113185748933472,0.0003265733010764332,9.915655661308137e-05,-0.000260552295257542,0.0,0.0,0.0,0.0,0.0,0.0,0.0,-7.236310481606445e-05,8.086481227398412e-05,-2.3551719189197906e-05,2.0363248522059507e-05,0.00011471253455204444,4.625956217463312e-05,8.399235215339473e-06,0.0007460807545328958,-0.0003148858778946203,-0.0007247041954585856,0.0006113185748933472,-0.0003265733010764332,-9.915655661308137e-05,0.000260552295257542,0.3752071261405945,19.768823623657227,0.4466826617717743,-20.082735061645508,-0.7308860421180725,-2.4694857597351074,0.17978231608867645,0
63,0.309955358505249,-0.3752071261405945,-19.768823623657227,-0.4466826617717743,20.082735061645508,0.7308860421180725,2.4694857597351074,-0.17978231608867645,0.0,0.0,0.0,0.0,0.0,0.0,0.0,-0.4255351707632989,0.014865982240369592,-0.22986268317528544,0.2787716750905468,0.15423229791968188,0.10242885898258113,-0.17505269541955024,1.2135137568735734,-0.22032409640153247,-0.007488276875630024,-2.6038687454483096,-0.10899863962154112,2.4681358662181427,0.8264665090160237,1.2134413937687574,-0.2202432315892585,-0.0075118285948192216,-2.6038483821997875,-0.10888392708698907,2.4681821257803174,0.826474908251239,-0.0007460807545328958,0.0003148858778946203,0.0007247041954585856,-0.0006113185748933472,0.0003265733010764332,9.915655661308137e-05,-0.000260552295257542,0.0,0.0,0.0,0.0,0.0,0.0,0.0,-7.236310481606445e-05,8.086481227398412e-05,-2.3551719189197906e-05,2.0363248522059507e-05,0.00011471253455204444,4.625956217463312e-05,8.399235215339473e-06,0.0007460807545328958,-0.0003148858778946203,-0.0007247041954585856,0.0006113185748933472,-0.0003265733010764332,-9.915655661308137e-05,0.000260552295257542,0.3752071261405945,19.768823623657227,0.4466826617717743,-20.082735061645508,-0.7308860421180725,-2.4694857597351074,0.17978231608867645,0
64,0.3149831295013428,-0.4505855441093445,-19.745019912719727,-0.4704863727092743,20.054964065551758,0.7427878975868225,2.4758944511413574,-0.13858358561992645,0.0,0.0,0.0,0.0,0.0,0.0,0.0,-0.4313998851937804,0.01470889826442907,-0.23915954274567325,0.2795876314209147,0.1543971858888172,0.10201316645484358,-0.17567374500329025,1.2135184371857317,-0.22032576683738772,-0.007486369781546907,-2.603866796593917,-0.10899996203184137,2.46813515414132,0.826461931379305,1.2134413937687574,-0.2202432315892585,-0.0075118285948192216,-2.6038483821997875,-0.10888392708698907,2.4681821257803174,0.826474908251239,0.0001183229053959297,0.0002084148831807645,0.000835095409433582,0.0004768673636508171,-0.0002614542595139892,-0.0002216050202034666,-0.0018139684652457534,0.0,0.0,0.0,0.0,0.0,0.0,0.0,-7.70434169743428e-05,8.253524812923407e-05,-2.5458813272314848e-05,1.8414394129528944e-05,0.0001160349448522946,4.697163899747281e-05,1.297687193402286e-05,-0.0001183229053959297,-0.0002084148831807645,-0.000835095409433582,-0.0004768673636508171,0.0002614542595139892,0.0002216050202034666,0.0018139684652457534,0.4505855441093445,19.745019912719727,0.4704863727092743,-20.054964065551758,-0.7427878975868225,-2.4758944511413574,0.13858358561992645,0
65,0.31999850273132324,-0.4505855441093445,-19.745019912719727,-0.4704863727092743,20.054964065551758,0.7427878975868225,2.4758944511413574,-0.13858358561992645,0.0,0.0,0.0,0.0,0.0,0.0,0.0,-0.4313998851937804,0.01470889826442907,-0.23915954274567325,0.2795876314209147,0.1543971858888172,0.10201316645484358,-0.17567374500329025,1.2135184371857317,-0.22032576683738772,-0.007486369781546907,-2.603866796593917,-0.10899996203184137,2.46813515414132,0.826461931379305,1.2134413937687574,-0.2202432315892585,-0.0075118285948192216,-2.6038483821997875,-0.10888392708698907,2.4681821257803174,0.826474908251239,0.0001183229053959297,0.0002084148831807645,0.000835095409433582,0.0004768673636508171,-0.0002614542595139892,-0.0002216050202034666,-0.0018139684652457534,0.0,0.0,0.0,0.0,0.0,0.0,0.0,-7.70434169743428e-05,8.253524812923407e-05,-2.5458813272314848e-05,1.8414394129528944e-05,0.0001160349448522946,4.697163899747281e-05,1.297687193402286e-05,-0.0001183229053959297,-0.0002084148831807645,-0.000835095409433582,-0.0004768673636508171,0.0002614542595139892,0.0002216050202034666,0.0018139684652457534,0.4505855441093445,19.745019912719727,0.4704863727092743,-20.054964065551758,-0.7427878975868225,-2.4758944511413574,0.13858358561992645,0
66,0.32500791549682617,-0.4029781222343445,-19.745019912719727,-0.4704863727092743,20.082735061645508,0.7372947335243225,2.4823031425476074,-0.17978231608867645,0.0,0.0,0.0,0.0,0.0,0.0,0.0,-0.4272615274658416,0.01040818597013306,-0.23249334370774682,0.2791575234338388,0.15346818357246508,0.10102434345672243,-0.1753541226407087,1.2135157850753653,-0.22032576683738772,-0.0074866853720878535,-2.603868745435748,-0.10899935184304611,2.4681344420644966,0.8264665090160237,1.2134413937687574,-0.2202432315892585,-0.0075118285948192216,-2.6038483821997875,-0.10888392708698907,2.4681821257803174,0.826474908251239,-0.0009233421757087358,0.0005731066136884249,0.0006561142773625351,-0.0008690925414081448,-2.5592645561505495e-06,-0.00044575741767501965,0.0003821707274557558,0.0,0.0,0.0,0.0,0.0,0.0,0.0,-7.439130660791271e-05,8.253524812923407e-05,-2.5143222731368112e-05,2.0363235960552117e-05,0.00011542475605703928,4.768371582075659e-05,8.399235215339473e-06,0.0009233421757087358,-0.0005731066136884249,-0.0006561142773625351,0.0008690925414081448,2.5592645561505495e-06,0.00044575741767501965,-0.0003821707274557558,0.4029781222343445,19.745019912719727,0.4704863727092743,-20.082735061645508,-0.7372947335243225,-2.4823031425476074,0.17978231608867645,0
67,0.3299989700317383,-0.4029781222343445,-19.745019912719727,-0.4704863727092743,20.082735061645508,0.7372947335243225,2.4823031425476074,-0.17978231608867645,0.0,0.0,0.0,0.0,0.0,0.0,0.0,-0.4272615274658416,0.01040818597013306,-0.23249334370774682,0.2791575234338388,0.15346818357246508,0.10102434345672243,-0.1753541226407087,1.2135157850753653,-0.22032576683738772,-0.0074866853720878535,-2.603868745435748,-0.10899935184304611,2.4681344420644966,0.8264665090160237,1.2134413937687574,-0.2202432315892585,-0.0075118285948192216,-2.6038483821997875,-0.10888392708698907,2.4681821257803174,0.826474908251239,-0.0009233421757087358,0.0005731066136884249,0.0006561142773625351,-0.0008690925414081448,-2.5592645561505495e-06,-0.00044575741767501965,0.0003821707274557558,0.0,0.0,0.0,0.0,0.0,0.0,0.0,-7.439130660791271e-05,8.253524812923407e-05,-2.5143222731368112e-05,2.0363235960552117e-05,0.00011542475605703928,4.768371582075659e-05,8.399235215339473e-06,0.0009233421757087358,-0.0005731066136884249,-0.0006561142773625351,0.0008690925414081448,2.5592645561505495e-06,0.00044575741767501965,-0.0003821707274557558,0.4029781222343445,19.745019912719727,0.4704863727092743,-20.082735061645508,-0.7372947335243225,-2.4823031425476074,0.17978231608867645,0
68,0.33498573303222656,-0.4783565402030945,-19.717248916625977,-0.4228789508342743,20.054964065551758,0.7427878975868225,2.4758944511413574,-0.18710653483867645,0.0,0.0,0.0,0.0,0.0,0.0,0.0,-0.423865532419358,0.0176526740863222,-0.22969038927548885,0.27681739734703803,0.15337052719784813,0.10022476320355583,-0.17564327296077759,1.2135187789101813,-0.22032771567921886,-0.007490026245579897,-2.603866796593917,-0.10899996208609797,2.46813515414132,0.8264673226566015,1.2134413937687574,-0.2202432315892585,-0.0075118285948192216,-2.6038483821997875,-0.10888392708698907,2.4681821257803174,0.826474908251239,0.0017075741654138253,0.0006937209647949762,-0.0001171596125773388,-0.0002608608173722678,-0.00018572913759687433,-0.00018355147233237382,0.00041018921667007623,0.0,0.0,0.0,0.0,0.0,0.0,0.0,-7.738514142396902e-05,8.448408996036827e-05,-2.1802349239324545e-05,1.8414394129528944e-05,0.00011603499910889381,4.697163899747281e-05,7.585594637538051e-06,-0.0017075741654138253,-0.0006937209647949762,0.0001171596125773388,0.0002608608173722678,0.00018572913759687433,0.00018355147233237382,-0.00041018921667007623,0.4783565402030945,19.717248916625977,0.4228789508342743,-20.054964065551758,-0.7427878975868225,-2.4758944511413574,0.18710653483867645,0
69,0.3399326801300049,-0.4783565402030945,-19.717248916625977,-0.4228789508342743,20.054964065551758,0.7427878975868225,2.4758944511413574,-0.18710653483867645,0.0,0.0,0.0,0.0,0.0,0.0,0.0,-0.423865532419358,0.0176526740863222,-0.22969038927548885,0.27681739734703803,0.15337052719784813,0.10022476320355583,-0.17564327296077759,1.2135187789101813,-0.22032771567921886,-0.007490026245579897,-2.603866796593917,-0.10899996208609797,2.46813515414132,0.8264673226566015,1.2134413937687574,-0.2202432315892585,-0.0075118285948192216,-2.6038483821997875,-0.10888392708698907,2.4681821257803174,0.826474908251239,0.0017075741654138253,0.0006937209647949762,-0.0001171596125773388,-0.0002608608173722678,-0.00018572913759687433,-0.00018355147233237382,0.00041018921667007623,0.0,0.0,0.0,0.0,0.0,0.0,0.0,-7.738514142396902e-05,8.448408996036827e-05,-2.1802349239324545e-05,1.8414394129528944e-05,0.00011603499910889381,4.697163899747281e-05,7.585594637538051e-06,-0.0017075741654138253,-0.0006937209647949762,0.0001171596125773388,0.0002608608173722678,0.00018572913759687433,0.00018355147233237382,-0.00041018921667007623,0.4783565402030945,19.717248916625977,0.4228789508342743,-20.054964065551758,-0.7427878975868225,-2.4758944511413574,0.18710653483867645,0
70,0.3449854850769043,-0.4029781222343445,-19.717248916625977,-0.4466826617717743,20.082735061645508,0.7372947335243225,2.4758944511413574,-0.14590780436992645,0.0,0.0,0.0,0.0,0.0,0.0,0.0,-0.42826943375000953,0.016431580527774034,-0.23446368480594762,0.2816071816233244,0.1536306829032341,0.10089497611543258,-0.17489969295810207,1.2135157085368724,-0.22032771567921886,-0.007487645619773976,-2.603868745435748,-0.10899935168027908,2.4681351526877697,0.8264627451813874,1.2134413937687574,-0.2202432315892585,-0.0075118285948192216,-2.6038483821997875,-0.10888392708698907,2.4681821257803174,0.826474908251239,-0.0005145589128136619,0.00046824407349756864,0.0001714345923175877,-0.0007576070145454224,0.00010432070742950264,-5.820161179246806e-06,-0.001383354780386542,0.0,0.0,0.0,0.0,0.0,0.0,0.0,-7.431476811503579e-05,8.448408996036827e-05,-2.418297504524526e-05,2.0363235960552117e-05,0.00011542459329000332,4.6973092547641926e-05,1.2163069851633956e-05,0.0005145589128136619,-0.00046824407349756864,-0.0001714345923175877,0.0007576070145454224,-0.00010432070742950264,5.820161179246806e-06,0.001383354780386542,0.4029781222343445,19.717248916625977,0.4466826617717743,-20.082735061645508,-0.7372947335243225,-2.4758944511413574,0.14590780436992645,0
71,0.349987268447876,-0.4029781222343445,-19.717248916625977,-0.4466826617717743,20.082735061645508,0.7372947335243225,2.4758944511413574,-0.14590780436992645,0.0,0.0,0.0,0.0,0.0,0.0,0.0,-0.42826943375000953,0.016431580527774034,-0.23446368480594762,0.2816071816233244,0.1536306829032341,0.10089497611543258,-0.17489969295810207,1.2135157085368724,-0.22032771567921886,-0.007487645619773976,-2.603868745435748,-0.10899935168027908,2.4681351526877697,0.8264627451813874,1.2134413937687574,-0.2202432315892585,-0.0075118285948192216,-2.6038483821997875,-0.10888392708698907,2.4681821257803174,0.826474908251239,-0.0005145589128136619,0.00046824407349756864,0.0001714345923175877,-0.0007576070145454224,0.00010432070742950264,-5.820161179246806e-06,-0.001383354780386542,0.0,0.0,0.0,0.0,0.0,0.0,0.0,-7.431476811503579e-05,8.448408996036827e-05,-2.418297504524526e-05,2.0363235960552117e-05,0.00011542459329000332,4.6973092547641926e-05,1.2163069851633956e-05,0.0005145589128136619,-0.00046824407349756864,-0.0001714345923175877,0.0007576070145454224,-0.00010432070742950264,5.820161179246806e-06,0.001383354780386542,0.4029781222343445,19.717248916625977,0.4466826617717743,-20.082735061645508,-0.7372947335243225,-2.4758944511413574,0.14590780436992645,0
72,0.3549923896789551,-0.4505855441093445,-19.717248916625977,-0.4466826617717743,20.054964065551758,0.7546897530555725,2.4887118339538574,-0.15231649577617645,0.0,0.0,0.0,0.0,0.0,0.0,0.0,-0.4299647609470541,0.015818737712502688,-0.2382956108587388,0.2809229837983473,0.15412304059534918,0.10133579313568462,-0.17476578209625676,1.213519125635596,-0.22032771567921886,-0.007488276907746378,-2.603866796593917,-0.109001288854945,2.468133690741809,0.8264634572582112,1.2134413937687574,-0.2202432315892585,-0.0075118285948192216,-2.6038483821997875,-0.10888392708698907,2.4681821257803174,0.826474908251239,0.0006569939412746401,4.592319540682918e-05,-3.339812293677539e-05,-0.0002927423291554149,-0.0005411018428244327,-0.0005220406975738564,-0.0009757564997682739,0.0,0.0,0.0,0.0,0.0,0.0,0.0,-7.77318668385707e-05,8.448408996036827e-05,-2.355168707284319e-05,1.8414394129528944e-05,0.00011736176795593134,4.843503850837649e-05,1.1450993027795064e-05,-0.0006569939412746401,-4.592319540682918e-05,3.339812293677539e-05,0.0002927423291554149,0.0005411018428244327,0.0005220406975738564,0.0009757564997682739,0.4505855441093445,19.717248916625977,0.4466826617717743,-20.054964065551758,-0.7546897530555725,-2.4887118339538574,0.15231649577617645,0
73,0.35999631881713867,-0.4505855441093445,-19.717248916625977,-0.4466826617717743,20.054964065551758,0.7546897530555725,2.4887118339538574,-0.15231649577617645,0.0,0.0,0.0,0.0,0.0,0.0,0.0,-0.4299647609470541,0.015818737712502688,-0.2382956108587388,0.2809229837983473,0.15412304059534918,0.10133579313568462,-0.17476578209625676,1.213519125635596,-0.22032771567921886,-0.007488276907746378,-2.603866796593917,-0.109001288854945,2.468133690741809,0.8264634572582112,1.2134413937687574,-0.2202432315892585,-0.0075118285948192216,-2.6038483821997875,-0.10888392708698907,2.4681821257803174,0.826474908251239,0.0006569939412746401,4.592319540682918e-05,-3.339812293677539e-05,-0.0002927423291554149,-0.0005411018428244327,-0.0005220406975738564,-0.0009757564997682739,0.0,0.0,0.0,0.0,0.0,0.0,0.0,-7.77318668385707e-05,8.448408996036827e-05,-2.355168707284319e-05,1.8414394129528944e-05,0.00011736176795593134,4.843503850837649e-05,1.1450993027795064e-05,-0.0006569939412746401,-4.592319540682918e-05,3.339812293677539e-05,0.0002927423291554149,0.0005411018428244327,0.0005220406975738564,0.0009757564997682739,0.4505855441093445,19.717248916625977,0.4466826617717743,-20.054964065551758,-0.7546897530555725,-2.4887118339538574,0.15231649577617645,0
74,0.36498546600341797,-0.4505855441093445,-19.745019912719727,-0.4228789508342743,20.082735061645508,0.7308860421180725,2.4630770683288574,-0.16604940593242645,0.0,0.0,0.0,0.0,0.0,0.0,0.0,-0.42908054656750916,0.01713820493406379,-0.23942337701129107,0.2798999093656576,0.1539453213376361,0.10239387985498877,-0.17598462777042234,1.2135191259509621,-0.22032576683738772,-0.007490026245134503,-2.603868745435748,-0.10899863960348066,2.4681365782947444,0.8264649831371175,1.2134413937687574,-0.2202432315892585,-0.0075118285948192216,-2.6038483821997875,-0.10888392708698907,2.4681821257803174,0.826474908251239,0.00019387529622574699,0.00047257180527351565,-0.0005639874228126821,-0.0005970238860397001,0.001366283671190962,0.00047013768843997964,-0.0003773307752254861,0.0,0.0,0.0,0.0,0.0,0.0,0.0,-7.773218220474831e-05,8.253524812923407e-05,-2.1802349684718267e-05,2.0363235960552117e-05,0.00011471251649158853,4.554748557294985e-05,9.925114121567269e-06,-0.00019387529622574699,-0.00047257180527351565,0.0005639874228126821,0.0005970238860397001,-0.001366283671190962,-0.00047013768843997964,0.0003773307752254861,0.4505855441093445,19.745019912719727,0.4228789508342743,-20.082735061645508,-0.7308860421180725,-2.4630770683288574,0.16604940593242645,0
75,0.37026357650756836,-0.4505855441093445,-19.745019912719727,-0.4228789508342743,20.082735061645508,0.7308860421180725,2.4630770683288574,-0.16604940593242645,0.0,0.0,0.0,0.0,0.0,0.0,0.0,-0.42908054656750916,0.01713820493406379,-0.23942337701129107,0.2798999093656576,0.1539453213376361,0.10239387985498877,-0.17598462777042234,1.2135191259509621,-0.22032576683738772,-0.007490026245134503,-2.603868745435748,-0.10899863960348066,2.4681365782947444,0.8264649831371175,1.2134413937687574,-0.2202432315892585,-0.0075118285948192216,-2.6038483821997875,-0.10888392708698907,2.4681821257803174,0.826474908251239,0.00019387529622574699,0.00047257180527351565,-0.0005639874228126821,-0.0005970238860397001,0.001366283671190962,0.00047013768843997964,-0.0003773307752254861,0.0,0.0,0.0,0.0,0.0,0.0,0.0,-7.773218220474831e-05,8.253524812923407e-05,-2.1802349684718267e-05,2.0363235960552117e-05,0.00011471251649158853,4.554748557294985e-05,9.925114121567269e-06,-0.00019387529622574699,-0.00047257180527351565,0.0005639874228126821,0.0005970238860397001,-0.001366283671190962,-0.00047013768843997964,0.0003773307752254861,0.4505855441093445,19.745019912719727,0.4228789508342743,-20.082735061645508,-0.7308860421180725,-2.4630770683288574,0.16604940593242645,0
76,0.3749818801879883,-0.4267818331718445,-19.745019912719727,-0.4228789508342743,20.031160354614258,0.7427878975868225,2.4758944511413574,-0.14590780436992645,0.0,0.0,0.0,0.0,0.0,0.0,0.0,-0.4255906440600789,0.01372172412471238,-0.23596999345014516,0.2816965905692078,0.15460480396666737,0.1025137297357015,-0.1760686683076644,1.2135153882759488,-0.22032576683738772,-0.0074900262455799066,-2.6038651261580616,-0.10899996203184127,2.46813515414132,0.8264627446968715,1.2134413937687574,-0.2202432315892585,-0.0075118285948192216,-2.6038483821997875,-0.10888392708698907,2.4681821257803174,0.826474908251239,0.00018856927487912668,-4.9886757891715745e-05,-0.0003248138177280187,0.0008281186456224733,-0.0002017529432030822,0.00012548591271523666,-0.001552693397048682,0.0,0.0,0.0,0.0,0.0,0.0,0.0,-7.399450719147715e-05,8.253524812923407e-05,-2.1802349239315004e-05,1.6743958274112458e-05,0.00011603494485219745,4.697163899747281e-05,1.2163554367505824e-05,-0.00018856927487912668,4.9886757891715745e-05,0.0003248138177280187,-0.0008281186456224733,0.0002017529432030822,-0.00012548591271523666,0.001552693397048682,0.4267818331718445,19.745019912719727,0.4228789508342743,-20.031160354614258,-0.7427878975868225,-2.4758944511413574,0.14590780436992645,0
77,0.37995433807373047,-0.4267818331718445,-19.745019912719727,-0.4228789508342743,20.031160354614258,0.7427878975868225,2.4758944511413574,-0.14590780436992645,0.0,0.0,0.0,0.0,0.0,0.0,0.0,-0.4255906440600789,0.01372172412471238,-0.23596999345014516,0.2816965905692078,0.15460480396666737,0.1025137297357015,-0.1760686683076644,1.2135153882759488,-0.22032576683738772,-0.0074900262455799066,-2.6038651261580616,-0.10899996203184127,2.46813515414132,0.8264627446968715,1.2134413937687574,-0.2202432315892585,-0.0075118285948192216,-2.6038483821997875,-0.10888392708698907,2.4681821257803174,0.826474908251239,0.00018856927487912668,-4.9886757891715745e-05,-0.0003248138177280187,0.0008281186456224733,-0.0002017529432030822,0.00012548591271523666,-0.001552693397048682,0.0,0.0,0.0,0.0,0.0,0.0,0.0,-7.399450719147715e-05,8.253524812923407e-05,-2.1802349239315004e-05,1.6743958274112458e-05,0.00011603494485219745,4.697163899747281e-05,1.2163554367505824e-05,-0.00018856927487912668,4.9886757891715745e-05,0.0003248138177280187,-0.0008281186456224733,0.0002017529432030822,-0.00012548591271523666,0.001552693397048682,0.4267818331718445,19.745019912719727,0.4228789508342743,-20.031160354614258,-0.7427878975868225,-2.4758944511413574,0.14590780436992645,0
78,0.3850064277648926,-0.4267818331718445,-19.745019912719727,-0.4228789508342743,20.031160354614258,0.7427878975868225,2.4758944511413574,-0.14590780436992645,0.0,0.0,0.0,0.0,0.0,0.0,0.0,-0.4255906440600789,0.01372172412471238,-0.23596999345014516,0.2816965905692078,0.15460480396666737,0.1025137297357015,-0.1760686683076644,1.2135153882759488,-0.22032576683738772,-0.0074900262455799066,-2.6038651261580616,-0.10899996203184127,2.46813515414132,0.8264627446968715,1.2134413937687574,-0.2202432315892585,-0.0075118285948192216,-2.6038483821997875,-0.10888392708698907,2.4681821257803174,0.826474908251239,0.00018856927487912668,-4.9886757891715745e-05,-0.0003248138177280187,0.0008281186456224733,-0.0002017529432030822,0.00012548591271523666,-0.001552693397048682,0.0,0.0,0.0,0.0,0.0,0.0,0.0,-7.399450719147715e-05,8.253524812923407e-05,-2.1802349239315004e-05,1.6743958274112458e-05,0.00011603494485219745,4.697163899747281e-05,1.2163554367505824e-05,-0.00018856927487912668,4.9886757891715745e-05,0.0003248138177280187,-0.0008281186456224733,0.0002017529432030822,-0.00012548591271523666,0.001552693397048682,0.4267818331718445,19.745019912719727,0.4228789508342743,-20.031160354614258,-0.7427878975868225,-2.4758944511413574,0.14590780436992645,0
79,0.3900167942047119,-0.4267818331718445,-19.745019912719727,-0.4228789508342743,20.031160354614258,0.7427878975868225,2.4758944511413574,-0.14590780436992645,0.0,0.0,0.0,0.0,0.0,0.0,0.0,-0.4255906440600789,0.01372172412471238,-0.23596999345014516,0.2816965905692078,0.15460480396666737,0.1025137297357015,-0.1760686683076644,1.2135153882759488,-0.22032576683738772,-0.0074900262455799066,-2.6038651261580616,-0.10899996203184127,2.46813515414132,0.8264627446968715,1.2134413937687574,-0.2202432315892585,-0.0075118285948192216,-2.6038483821997875,-0.10888392708698907,2.4681821257803174,0.826474908251239,0.00018856927487912668,-4.9886757891715745e-05,-0.0003248138177280187,0.0008281186456224733,-0.0002017529432030822,0.00012548591271523666,-0.001552693397048682,0.0,0.0,0.0,0.0,0.0,0.0,0.0,-7.399450719147715e-05,8.253524812923407e-05,-2.1802349239315004e-05,1.6743958274112458e-05,0.00011603494485219745,4.697163899747281e-05,1.2163554367505824e-05,-0.00018856927487912668,4.9886757891715745e-05,0.0003248138177280187,-0.0008281186456224733,0.0002017529432030822,-0.00012548591271523666,0.001552693397048682,0.4267818331718445,19.745019912719727,0.4228789508342743,-20.031160354614258,-0.7427878975868225,-2.4758944511413574,0.14590780436992645,0
