rezayati/contactInterpretation/dataset/franka_main/labeled_data/link7/a2_5.csv
index,time,tau_J0,tau_J1,tau_J2,tau_J3,tau_J4,tau_J5,tau_J6,tau_J_d0,tau_J_d1,tau_J_d2,tau_J_d3,tau_J_d4,tau_J_d5,tau_J_d6,tau_ext0,tau_ext1,tau_ext2,tau_ext3,tau_ext4,tau_ext5,tau_ext6,q0,q1,q2,q3,q4,q5,q6,q_d0,q_d1,q_d2,q_d3,q_d4,q_d5,q_d6,dq0,dq1,dq2,dq3,dq4,dq5,dq6,dq_d0,dq_d1,dq_d2,dq_d3,dq_d4,dq_d5,dq_d6,e0,e1,e2,e3,e4,e5,e6,de0,de1,de2,de3,de4,de5,de6,etau_J0,etau_J1,etau_J2,etau_J3,etau_J4,etau_J5,etau_J6,label
1,0.0,-0.8354122042655945,-46.47658920288086,-5.762844562530518,19.686006546020508,0.7491965889930725,2.4108920097351074,-0.39218467473983765,0.0,0.0,0.0,0.0,0.0,0.0,0.0,-0.8231533935952453,-0.16626652685381763,-0.5795968413173415,0.46320404726698233,0.1622900289299875,0.1400193263372233,-0.37767838400542364,0.8780868990003017,0.7558965141536145,-0.2824073507576658,-1.6691926294627943,0.14133540668090275,2.403389135456047,1.027364914189962,0.878092876070424,0.7554597494309409,-0.2825552651693207,-1.6690993614607135,0.1414185955172306,2.4034451173676383,1.0273381002308042,0.0005292464024258347,-0.0006675584708288713,9.390531032225132e-05,-0.0007126013898701565,-0.00013556584319224149,-0.0001249479250206022,0.000999988319684422,0.0,0.0,0.0,0.0,0.0,0.0,0.0,5.977070122287209e-06,-0.00043676472267362154,-0.0001479144116549036,9.326800208087072e-05,8.318883632785212e-05,5.598191159128518e-05,-2.681395915771212e-05,-0.0005292464024258347,0.0006675584708288713,-9.390531032225132e-05,0.0007126013898701565,0.00013556584319224149,0.0001249479250206022,-0.000999988319684422,0.8354122042655945,46.47658920288086,5.762844562530518,-19.686006546020508,-0.7491965889930725,-2.4108920097351074,0.39218467473983765,0
2,0.005007505416870117,-0.8354122042655945,-46.47658920288086,-5.762844562530518,19.686006546020508,0.7491965889930725,2.4108920097351074,-0.39218467473983765,0.0,0.0,0.0,0.0,0.0,0.0,0.0,-0.8231533935952453,-0.16626652685381763,-0.5795968413173415,0.46320404726698233,0.1622900289299875,0.1400193263372233,-0.37767838400542364,0.8780868990003017,0.7558965141536145,-0.2824073507576658,-1.6691926294627943,0.14133540668090275,2.403389135456047,1.027364914189962,0.878092876070424,0.7554597494309409,-0.2825552651693207,-1.6690993614607135,0.1414185955172306,2.4034451173676383,1.0273381002308042,0.0005292464024258347,-0.0006675584708288713,9.390531032225132e-05,-0.0007126013898701565,-0.00013556584319224149,-0.0001249479250206022,0.000999988319684422,0.0,0.0,0.0,0.0,0.0,0.0,0.0,5.977070122287209e-06,-0.00043676472267362154,-0.0001479144116549036,9.326800208087072e-05,8.318883632785212e-05,5.598191159128518e-05,-2.681395915771212e-05,-0.0005292464024258347,0.0006675584708288713,-9.390531032225132e-05,0.0007126013898701565,0.00013556584319224149,0.0001249479250206022,-0.000999988319684422,0.8354122042655945,46.47658920288086,5.762844562530518,-19.686006546020508,-0.7491965889930725,-2.4108920097351074,0.39218467473983765,0
3,0.009999513626098633,-0.8076412081718445,-46.44881820678711,-5.735073566436768,19.634431838989258,0.7491965889930725,2.4044833183288574,-0.39950889348983765,0.0,0.0,0.0,0.0,0.0,0.0,0.0,-0.8246185941504691,-0.16558042549561677,-0.5830157420197889,0.4634866204044334,0.16240919891952124,0.1402752842873889,-0.3767772084949543,0.8780849501584705,0.7558945682891517,-0.28240929959949695,-1.669189010185108,0.14133540668090183,2.4033901871794083,1.0273657154486635,0.878092876070424,0.7554597494309409,-0.2825552651693207,-1.6690993614607135,0.1414185955172306,2.4034451173676383,1.0273381002308042,-0.00027039827258460266,-0.0013323631908535424,-0.0008761414186286456,0.001159497604497067,-0.0003345892072463912,0.00020452060141568806,0.000971375500014731,0.0,0.0,0.0,0.0,0.0,0.0,0.0,7.925911953421405e-06,-0.0004348188582108392,-0.0001459655698237694,8.964872439443106e-05,8.318883632876806e-05,5.4930188229995736e-05,-2.7615217859322527e-05,0.00027039827258460266,0.0013323631908535424,0.0008761414186286456,-0.001159497604497067,0.0003345892072463912,-0.00020452060141568806,-0.000971375500014731,0.8076412081718445,46.44881820678711,5.735073566436768,-19.634431838989258,-0.7491965889930725,-2.4044833183288574,0.39950889348983765,0
4,0.014997005462646484,-0.8076412081718445,-46.44881820678711,-5.735073566436768,19.634431838989258,0.7491965889930725,2.4044833183288574,-0.39950889348983765,0.0,0.0,0.0,0.0,0.0,0.0,0.0,-0.8246185941504691,-0.16558042549561677,-0.5830157420197889,0.4634866204044334,0.16240919891952124,0.1402752842873889,-0.3767772084949543,0.8780849501584705,0.7558945682891517,-0.28240929959949695,-1.669189010185108,0.14133540668090183,2.4033901871794083,1.0273657154486635,0.878092876070424,0.7554597494309409,-0.2825552651693207,-1.6690993614607135,0.1414185955172306,2.4034451173676383,1.0273381002308042,-0.00027039827258460266,-0.0013323631908535424,-0.0008761414186286456,0.001159497604497067,-0.0003345892072463912,0.00020452060141568806,0.000971375500014731,0.0,0.0,0.0,0.0,0.0,0.0,0.0,7.925911953421405e-06,-0.0004348188582108392,-0.0001459655698237694,8.964872439443106e-05,8.318883632876806e-05,5.4930188229995736e-05,-2.7615217859322527e-05,0.00027039827258460266,0.0013323631908535424,0.0008761414186286456,-0.001159497604497067,0.0003345892072463912,-0.00020452060141568806,-0.000971375500014731,0.8076412081718445,46.44881820678711,5.735073566436768,-19.634431838989258,-0.7491965889930725,-2.4044833183288574,0.39950889348983765,0
5,0.02000141143798828,-0.8354122042655945,-46.52419662475586,-5.711269855499268,19.658235549926758,0.7491965889930725,2.4044833183288574,-0.37845176458358765,0.0,0.0,0.0,0.0,0.0,0.0,0.0,-0.8183895773252049,-0.16079381405034368,-0.581671354883404,0.46169925485821056,0.16162467859223786,0.1397961904214088,-0.3756774211697729,0.8780868990003017,0.7558998310581955,-0.2824109700353522,-1.669190680620963,0.14133540668090183,2.403389799137245,1.027363030791678,0.878092876070424,0.7554597494309409,-0.2825552651693207,-1.6690993614607135,0.1414185955172306,2.4034451173676383,1.0273381002308042,0.0006062452212368366,0.00035344393237059544,-0.0007852407960850567,9.466349230167246e-05,-0.0001651170891814248,5.2011713613795775e-05,-0.0003279241673930587,0.0,0.0,0.0,0.0,0.0,0.0,0.0,5.977070122287209e-06,-0.0004400816272546182,-0.00014429513396851945,9.13191602496255e-05,8.318883632876806e-05,5.531823039328643e-05,-2.4930560873714924e-05,-0.0006062452212368366,-0.00035344393237059544,0.0007852407960850567,-9.466349230167246e-05,0.0001651170891814248,-5.2011713613795775e-05,0.0003279241673930587,0.8354122042655945,46.52419662475586,5.711269855499268,-19.658235549926758,-0.7491965889930725,-2.4044833183288574,0.37845176458358765,0
6,0.02499985694885254,-0.8354122042655945,-46.52419662475586,-5.711269855499268,19.658235549926758,0.7491965889930725,2.4044833183288574,-0.37845176458358765,0.0,0.0,0.0,0.0,0.0,0.0,0.0,-0.8183895773252049,-0.16079381405034368,-0.581671354883404,0.46169925485821056,0.16162467859223786,0.1397961904214088,-0.3756774211697729,0.8780868990003017,0.7558998310581955,-0.2824109700353522,-1.669190680620963,0.14133540668090183,2.403389799137245,1.027363030791678,0.878092876070424,0.7554597494309409,-0.2825552651693207,-1.6690993614607135,0.1414185955172306,2.4034451173676383,1.0273381002308042,0.0006062452212368366,0.00035344393237059544,-0.0007852407960850567,9.466349230167246e-05,-0.0001651170891814248,5.2011713613795775e-05,-0.0003279241673930587,0.0,0.0,0.0,0.0,0.0,0.0,0.0,5.977070122287209e-06,-0.0004400816272546182,-0.00014429513396851945,9.13191602496255e-05,8.318883632876806e-05,5.531823039328643e-05,-2.4930560873714924e-05,-0.0006062452212368366,-0.00035344393237059544,0.0007852407960850567,-9.466349230167246e-05,0.0001651170891814248,-5.2011713613795775e-05,0.0003279241673930587,0.8354122042655945,46.52419662475586,5.711269855499268,-19.658235549926758,-0.7491965889930725,-2.4044833183288574,0.37845176458358765,0
7,0.03001546859741211,-0.8354122042655945,-46.50039291381836,-5.687466144561768,19.686006546020508,0.7491965889930725,2.4108920097351074,-0.35831016302108765,0.0,0.0,0.0,0.0,0.0,0.0,0.0,-0.8196462275847216,-0.16589605711920755,-0.583098063752229,0.4640056523410902,0.16138294231455833,0.1399249638718761,-0.3759798524370531,0.8780868990003017,0.7558981876037145,-0.28241264047120745,-1.6691926294627943,0.14133540668090183,2.403389101701405,1.027360797679169,0.878092876070424,0.7554597494309409,-0.2825552651693207,-1.6690993614607135,0.1414185955172306,2.4034451173676383,1.0273381002308042,0.0006433206507605268,-0.0002763236061263558,-0.0012520015762763075,-0.00035073246824128025,-0.00015119463354820796,-0.00011531060235930579,-0.0006469749908343432,0.0,0.0,0.0,0.0,0.0,0.0,0.0,5.977070122287209e-06,-0.0004384381727736697,-0.0001426246981132695,9.326800208087072e-05,8.318883632876806e-05,5.6015666233477646e-05,-2.2697448364805695e-05,-0.0006433206507605268,0.0002763236061263558,0.0012520015762763075,0.00035073246824128025,0.00015119463354820796,0.00011531060235930579,0.0006469749908343432,0.8354122042655945,46.50039291381836,5.687466144561768,-19.686006546020508,-0.7491965889930725,-2.4108920097351074,0.35831016302108765,0
8,0.03502178192138672,-0.8354122042655945,-46.50039291381836,-5.687466144561768,19.686006546020508,0.7491965889930725,2.4108920097351074,-0.35831016302108765,0.0,0.0,0.0,0.0,0.0,0.0,0.0,-0.8196462275847216,-0.16589605711920755,-0.583098063752229,0.4640056523410902,0.16138294231455833,0.1399249638718761,-0.3759798524370531,0.8780868990003017,0.7558981876037145,-0.28241264047120745,-1.6691926294627943,0.14133540668090183,2.403389101701405,1.027360797679169,0.878092876070424,0.7554597494309409,-0.2825552651693207,-1.6690993614607135,0.1414185955172306,2.4034451173676383,1.0273381002308042,0.0006433206507605268,-0.0002763236061263558,-0.0012520015762763075,-0.00035073246824128025,-0.00015119463354820796,-0.00011531060235930579,-0.0006469749908343432,0.0,0.0,0.0,0.0,0.0,0.0,0.0,5.977070122287209e-06,-0.0004384381727736697,-0.0001426246981132695,9.326800208087072e-05,8.318883632876806e-05,5.6015666233477646e-05,-2.2697448364805695e-05,-0.0006433206507605268,0.0002763236061263558,0.0012520015762763075,0.00035073246824128025,0.00015119463354820796,0.00011531060235930579,0.0006469749908343432,0.8354122042655945,46.50039291381836,5.687466144561768,-19.686006546020508,-0.7491965889930725,-2.4108920097351074,0.35831016302108765,0
9,0.04000592231750488,-0.7838374972343445,-46.50039291381836,-5.762844562530518,19.658235549926758,0.7427878975868225,2.4108920097351074,-0.33084434270858765,0.0,0.0,0.0,0.0,0.0,0.0,0.0,-0.8148365273996365,-0.1561641543370105,-0.5776820377056653,0.46192275008587197,0.16083540910923583,0.1393400507235723,-0.3739873641257432,0.8780832797226152,0.755896002100225,-0.2824074294946657,-1.669190680620963,0.14133292046266677,2.403390265995234,1.0273580860521414,0.878092876070424,0.7554597494309409,-0.2825552651693207,-1.6690993614607135,0.1414185955172306,2.4034451173676383,1.0273381002308042,-0.0010072740494523075,0.0008553554652276207,0.00037511353022043483,0.00014248208039555467,3.52998373753715e-05,-0.0001705140106044614,-0.0018245676625849552,0.0,0.0,0.0,0.0,0.0,0.0,0.0,9.596347808726868e-06,-0.00043625266928415396,-0.0001478356746550391,9.13191602496255e-05,8.567505456383295e-05,5.485137240412996e-05,-1.99858213372206e-05,0.0010072740494523075,-0.0008553554652276207,-0.00037511353022043483,-0.00014248208039555467,-3.52998373753715e-05,0.0001705140106044614,0.0018245676625849552,0.7838374972343445,46.50039291381836,5.762844562530518,-19.658235549926758,-0.7427878975868225,-2.4108920097351074,0.33084434270858765,0
10,0.04500389099121094,-0.7838374972343445,-46.50039291381836,-5.762844562530518,19.658235549926758,0.7427878975868225,2.4108920097351074,-0.33084434270858765,0.0,0.0,0.0,0.0,0.0,0.0,0.0,-0.8148365273996365,-0.1561641543370105,-0.5776820377056653,0.46192275008587197,0.16083540910923583,0.1393400507235723,-0.3739873641257432,0.8780832797226152,0.755896002100225,-0.2824074294946657,-1.669190680620963,0.14133292046266677,2.403390265995234,1.0273580860521414,0.878092876070424,0.7554597494309409,-0.2825552651693207,-1.6690993614607135,0.1414185955172306,2.4034451173676383,1.0273381002308042,-0.0010072740494523075,0.0008553554652276207,0.00037511353022043483,0.00014248208039555467,3.52998373753715e-05,-0.0001705140106044614,-0.0018245676625849552,0.0,0.0,0.0,0.0,0.0,0.0,0.0,9.596347808726868e-06,-0.00043625266928415396,-0.0001478356746550391,9.13191602496255e-05,8.567505456383295e-05,5.485137240412996e-05,-1.99858213372206e-05,0.0010072740494523075,-0.0008553554652276207,-0.00037511353022043483,-0.00014248208039555467,-3.52998373753715e-05,0.0001705140106044614,0.0018245676625849552,0.7838374972343445,46.50039291381836,5.762844562530518,-19.658235549926758,-0.7427878975868225,-2.4108920097351074,0.33084434270858765,0
11,0.05000138282775879,-0.8354122042655945,-46.47658920288086,-5.735073566436768,19.658235549926758,0.7427878975868225,2.3980746269226074,-0.39950889348983765,0.0,0.0,0.0,0.0,0.0,0.0,0.0,-0.8157495237862142,-0.15701970731962983,-0.5799161113605541,0.464899520377215,0.1608806725029125,0.13992088677809,-0.3730597382504689,0.8780868990003017,0.7558965171556743,-0.2824093025161266,-1.6691907600938227,0.14133611873967028,2.4033905068040466,1.0273656892846883,0.878092876070424,0.7554597494309409,-0.2825552651693207,-1.6690993614607135,0.1414185955172306,2.4034451173676383,1.0273381002308042,0.00037169096592578726,3.1925895366764045e-05,-0.0005265389788573413,0.00018825862402599034,0.000116508938583475,0.00016261909542599027,0.0010285890620748291,0.0,0.0,0.0,0.0,0.0,0.0,0.0,5.977070122287209e-06,-0.0004367677247334445,-0.0001459626531941094,9.1398633109252e-05,8.247677756031968e-05,5.4610563591683814e-05,-2.7589053884113923e-05,-0.00037169096592578726,-3.1925895366764045e-05,0.0005265389788573413,-0.00018825862402599034,-0.000116508938583475,-0.00016261909542599027,-0.0010285890620748291,0.8354122042655945,46.47658920288086,5.735073566436768,-19.658235549926758,-0.7427878975868225,-2.3980746269226074,0.39950889348983765,0
12,0.055002450942993164,-0.8354122042655945,-46.47658920288086,-5.735073566436768,19.658235549926758,0.7427878975868225,2.3980746269226074,-0.39950889348983765,0.0,0.0,0.0,0.0,0.0,0.0,0.0,-0.8157495237862142,-0.15701970731962983,-0.5799161113605541,0.464899520377215,0.1608806725029125,0.13992088677809,-0.3730597382504689,0.8780868990003017,0.7558965171556743,-0.2824093025161266,-1.6691907600938227,0.14133611873967028,2.4033905068040466,1.0273656892846883,0.878092876070424,0.7554597494309409,-0.2825552651693207,-1.6690993614607135,0.1414185955172306,2.4034451173676383,1.0273381002308042,0.00037169096592578726,3.1925895366764045e-05,-0.0005265389788573413,0.00018825862402599034,0.000116508938583475,0.00016261909542599027,0.0010285890620748291,0.0,0.0,0.0,0.0,0.0,0.0,0.0,5.977070122287209e-06,-0.0004367677247334445,-0.0001459626531941094,9.1398633109252e-05,8.247677756031968e-05,5.4610563591683814e-05,-2.7589053884113923e-05,-0.00037169096592578726,-3.1925895366764045e-05,0.0005265389788573413,-0.00018825862402599034,-0.000116508938583475,-0.00016261909542599027,-0.0010285890620748291,0.8354122042655945,46.47658920288086,5.735073566436768,-19.658235549926758,-0.7427878975868225,-2.3980746269226074,0.39950889348983765,0
13,0.059999942779541016,-0.7838374972343445,-46.47658920288086,-5.735073566436768,19.658235549926758,0.7491965889930725,2.4044833183288574,-0.37204307317733765,0.0,0.0,0.0,0.0,0.0,0.0,0.0,-0.8162431475586315,-0.15830387310907887,-0.5814620477624931,0.4657087767858991,0.1609168634925761,0.14022194000727506,-0.37422422323232235,0.8780832797226152,0.7558965171680114,-0.28240929959951344,-1.6691906894517294,0.14133540662673005,2.403390854358673,1.027358423684565,0.878092876070424,0.7554597494309409,-0.2825552651693207,-1.6690993614607135,0.1414185955172306,2.4034451173676383,1.0273381002308042,-0.0007707375721163443,6.450492361306437e-05,-0.0005251130629822616,0.00016394698175510927,-0.0001455315266565915,-9.17667803352987e-05,0.0001686596244524562,0.0,0.0,0.0,0.0,0.0,0.0,0.0,9.596347808726868e-06,-0.0004367677370705758,-0.0001459655698072826,9.132799101596589e-05,8.318889050054623e-05,5.426300896527181e-05,-2.0323453760795473e-05,0.0007707375721163443,-6.450492361306437e-05,0.0005251130629822616,-0.00016394698175510927,0.0001455315266565915,9.17667803352987e-05,-0.0001686596244524562,0.7838374972343445,46.47658920288086,5.735073566436768,-19.658235549926758,-0.7491965889930725,-2.4044833183288574,0.37204307317733765,0
14,0.06500101089477539,-0.7838374972343445,-46.47658920288086,-5.735073566436768,19.658235549926758,0.7491965889930725,2.4044833183288574,-0.37204307317733765,0.0,0.0,0.0,0.0,0.0,0.0,0.0,-0.8162431475586315,-0.15830387310907887,-0.5814620477624931,0.4657087767858991,0.1609168634925761,0.14022194000727506,-0.37422422323232235,0.8780832797226152,0.7558965171680114,-0.28240929959951344,-1.6691906894517294,0.14133540662673005,2.403390854358673,1.027358423684565,0.878092876070424,0.7554597494309409,-0.2825552651693207,-1.6690993614607135,0.1414185955172306,2.4034451173676383,1.0273381002308042,-0.0007707375721163443,6.450492361306437e-05,-0.0005251130629822616,0.00016394698175510927,-0.0001455315266565915,-9.17667803352987e-05,0.0001686596244524562,0.0,0.0,0.0,0.0,0.0,0.0,0.0,9.596347808726868e-06,-0.0004367677370705758,-0.0001459655698072826,9.132799101596589e-05,8.318889050054623e-05,5.426300896527181e-05,-2.0323453760795473e-05,0.0007707375721163443,-6.450492361306437e-05,0.0005251130629822616,-0.00016394698175510927,0.0001455315266565915,9.17667803352987e-05,-0.0001686596244524562,0.7838374972343445,46.47658920288086,5.735073566436768,-19.658235549926758,-0.7491965889930725,-2.4044833183288574,0.37204307317733765,0
15,0.07000517845153809,-0.8592159152030945,-46.47658920288086,-5.762844562530518,19.634431838989258,0.7372947335243225,2.4108920097351074,-0.34457725286483765,0.0,0.0,0.0,0.0,0.0,0.0,0.0,-0.8243065275218976,-0.16861416663727818,-0.5879301425450082,0.47120392136629197,0.16116382912209887,0.1405524952976624,-0.3738714727917759,0.878088569436157,0.7558965171680115,-0.2824073507576658,-1.6691890896581172,0.1413399278918893,2.403392265936705,1.0273596249429673,0.878092876070424,0.7554597494309409,-0.2825552651693207,-1.6690993614607135,0.1414185955172306,2.4034451173676383,1.0273381002308042,0.0008875957435773941,-0.0007836742104850335,0.0005060784569024227,0.001028417551323479,0.0001869106810046089,-0.0003132222127534056,-0.0009642791461730629,0.0,0.0,0.0,0.0,0.0,0.0,0.0,4.306634266981746e-06,-0.00043676773707068683,-0.0001479144116549036,8.972819740371563e-05,7.8667625341311e-05,5.2851430933475996e-05,-2.1524712163101256e-05,-0.0008875957435773941,0.0007836742104850335,-0.0005060784569024227,-0.001028417551323479,-0.0001869106810046089,0.0003132222127534056,0.0009642791461730629,0.8592159152030945,46.47658920288086,5.762844562530518,-19.634431838989258,-0.7372947335243225,-2.4108920097351074,0.34457725286483765,0
16,0.07498621940612793,-0.8592159152030945,-46.47658920288086,-5.762844562530518,19.634431838989258,0.7372947335243225,2.4108920097351074,-0.34457725286483765,0.0,0.0,0.0,0.0,0.0,0.0,0.0,-0.8243065275218976,-0.16861416663727818,-0.5879301425450082,0.47120392136629197,0.16116382912209887,0.1405524952976624,-0.3738714727917759,0.878088569436157,0.7558965171680115,-0.2824073507576658,-1.6691890896581172,0.1413399278918893,2.403392265936705,1.0273596249429673,0.878092876070424,0.7554597494309409,-0.2825552651693207,-1.6690993614607135,0.1414185955172306,2.4034451173676383,1.0273381002308042,0.0008875957435773941,-0.0007836742104850335,0.0005060784569024227,0.001028417551323479,0.0001869106810046089,-0.0003132222127534056,-0.0009642791461730629,0.0,0.0,0.0,0.0,0.0,0.0,0.0,4.306634266981746e-06,-0.00043676773707068683,-0.0001479144116549036,8.972819740371563e-05,7.8667625341311e-05,5.2851430933475996e-05,-2.1524712163101256e-05,-0.0008875957435773941,0.0007836742104850335,-0.0005060784569024227,-0.001028417551323479,-0.0001869106810046089,0.0003132222127534056,0.0009642791461730629,0.8592159152030945,46.47658920288086,5.762844562530518,-19.634431838989258,-0.7372947335243225,-2.4108920097351074,0.34457725286483765,0
17,0.08043456077575684,-0.7838374972343445,-46.52419662475586,-5.786648273468018,19.686006546020508,0.7546897530555725,2.4044833183288574,-0.40591758489608765,0.0,0.0,0.0,0.0,0.0,0.0,0.0,-0.8234178539962269,-0.14422420631650573,-0.5832359253999915,0.45919532027113813,0.16069163759067834,0.13862435928025965,-0.3745083005702086,0.8780832797226152,0.7558998580397222,-0.2824057678073659,-1.6691926294629438,0.1413347963353584,2.403389794744479,1.0273664405894967,0.878092876070424,0.7554597494309409,-0.2825552651693207,-1.6690993614607135,0.1414185955172306,2.4034451173676383,1.0273381002308042,-0.0010855027737656762,0.0014405246935283984,0.0005912320900239697,-0.00023545627909525344,-6.237474469537954e-05,0.0003113471623102321,0.0006739917474598429,0.0,0.0,0.0,0.0,0.0,0.0,0.0,9.596347808726868e-06,-0.00044010860878129776,-0.0001494973619547979,9.326800223030673e-05,8.379918187220725e-05,5.5322623159437256e-05,-2.8340358692480194e-05,0.0010855027737656762,-0.0014405246935283984,-0.0005912320900239697,0.00023545627909525344,6.237474469537954e-05,-0.0003113471623102321,-0.0006739917474598429,0.7838374972343445,46.52419662475586,5.786648273468018,-19.686006546020508,-0.7546897530555725,-2.4044833183288574,0.40591758489608765,0
18,0.0850069522857666,-0.7838374972343445,-46.52419662475586,-5.786648273468018,19.686006546020508,0.7546897530555725,2.4044833183288574,-0.40591758489608765,0.0,0.0,0.0,0.0,0.0,0.0,0.0,-0.8234178539962269,-0.14422420631650573,-0.5832359253999915,0.45919532027113813,0.16069163759067834,0.13862435928025965,-0.3745083005702086,0.8780832797226152,0.7558998580397222,-0.2824057678073659,-1.6691926294629438,0.1413347963353584,2.403389794744479,1.0273664405894967,0.878092876070424,0.7554597494309409,-0.2825552651693207,-1.6690993614607135,0.1414185955172306,2.4034451173676383,1.0273381002308042,-0.0010855027737656762,0.0014405246935283984,0.0005912320900239697,-0.00023545627909525344,-6.237474469537954e-05,0.0003113471623102321,0.0006739917474598429,0.0,0.0,0.0,0.0,0.0,0.0,0.0,9.596347808726868e-06,-0.00044010860878129776,-0.0001494973619547979,9.326800223030673e-05,8.379918187220725e-05,5.5322623159437256e-05,-2.8340358692480194e-05,0.0010855027737656762,-0.0014405246935283984,-0.0005912320900239697,0.00023545627909525344,6.237474469537954e-05,-0.0003113471623102321,-0.0006739917474598429,0.7838374972343445,46.52419662475586,5.786648273468018,-19.686006546020508,-0.7546897530555725,-2.4044833183288574,0.40591758489608765,0
19,0.09000706672668457,-0.7838374972343445,-46.52419662475586,-5.786648273468018,19.686006546020508,0.7546897530555725,2.4044833183288574,-0.40591758489608765,0.0,0.0,0.0,0.0,0.0,0.0,0.0,-0.8234178539962269,-0.14422420631650573,-0.5832359253999915,0.45919532027113813,0.16069163759067834,0.13862435928025965,-0.3745083005702086,0.8780832797226152,0.7558998580397222,-0.2824057678073659,-1.6691926294629438,0.1413347963353584,2.403389794744479,1.0273664405894967,0.878092876070424,0.7554597494309409,-0.2825552651693207,-1.6690993614607135,0.1414185955172306,2.4034451173676383,1.0273381002308042,-0.0010855027737656762,0.0014405246935283984,0.0005912320900239697,-0.00023545627909525344,-6.237474469537954e-05,0.0003113471623102321,0.0006739917474598429,0.0,0.0,0.0,0.0,0.0,0.0,0.0,9.596347808726868e-06,-0.00044010860878129776,-0.0001494973619547979,9.326800223030673e-05,8.379918187220725e-05,5.5322623159437256e-05,-2.8340358692480194e-05,0.0010855027737656762,-0.0014405246935283984,-0.0005912320900239697,0.00023545627909525344,6.237474469537954e-05,-0.0003113471623102321,-0.0006739917474598429,0.7838374972343445,46.52419662475586,5.786648273468018,-19.686006546020508,-0.7546897530555725,-2.4044833183288574,0.40591758489608765,0
20,0.0950019359588623,-0.7838374972343445,-46.52419662475586,-5.786648273468018,19.686006546020508,0.7546897530555725,2.4044833183288574,-0.40591758489608765,0.0,0.0,0.0,0.0,0.0,0.0,0.0,-0.8234178539962269,-0.14422420631650573,-0.5832359253999915,0.45919532027113813,0.16069163759067834,0.13862435928025965,-0.3745083005702086,0.8780832797226152,0.7558998580397222,-0.2824057678073659,-1.6691926294629438,0.1413347963353584,2.403389794744479,1.0273664405894967,0.878092876070424,0.7554597494309409,-0.2825552651693207,-1.6690993614607135,0.1414185955172306,2.4034451173676383,1.0273381002308042,-0.0010855027737656762,0.0014405246935283984,0.0005912320900239697,-0.00023545627909525344,-6.237474469537954e-05,0.0003113471623102321,0.0006739917474598429,0.0,0.0,0.0,0.0,0.0,0.0,0.0,9.596347808726868e-06,-0.00044010860878129776,-0.0001494973619547979,9.326800223030673e-05,8.379918187220725e-05,5.5322623159437256e-05,-2.8340358692480194e-05,0.0010855027737656762,-0.0014405246935283984,-0.0005912320900239697,0.00023545627909525344,6.237474469537954e-05,-0.0003113471623102321,-0.0006739917474598429,0.7838374972343445,46.52419662475586,5.786648273468018,-19.686006546020508,-0.7546897530555725,-2.4044833183288574,0.40591758489608765,0
21,0.09999990463256836,-0.8076412081718445,-46.47658920288086,-5.735073566436768,19.634431838989258,0.7427878975868225,2.4044833183288574,-0.37204307317733765,0.0,0.0,0.0,0.0,0.0,0.0,0.0,-0.8231727982237601,-0.15742525434301577,-0.5848617024320669,0.46626842154940035,0.1615054828622867,0.14020922049977572,-0.37533470650024464,0.8780849501584705,0.7558965171680115,-0.28240929959999084,-1.669189010185108,0.14133611875772478,2.403389794720544,1.0273625454687672,0.878092876070424,0.7554597494309409,-0.2825552651693207,-1.6690993614607135,0.1414185955172306,2.4034451173676383,1.0273381002308042,-0.0005453519867941902,-0.0004124238522226925,-0.0006605881809191114,0.0005715787117896917,-8.0427020917579e-06,0.00010573992818802381,0.0001881367745966617,0.0,0.0,0.0,0.0,0.0,0.0,0.0,7.925911953421405e-06,-0.00043676773707068683,-0.0001459655693298867,8.964872439443106e-05,8.247675950581734e-05,5.53226470945134e-05,-2.4445237962966715e-05,0.0005453519867941902,0.0004124238522226925,0.0006605881809191114,-0.0005715787117896917,8.0427020917579e-06,-0.00010573992818802381,-0.0001881367745966617,0.8076412081718445,46.47658920288086,5.735073566436768,-19.634431838989258,-0.7427878975868225,-2.4044833183288574,0.37204307317733765,0
22,0.10500574111938477,-0.8076412081718445,-46.47658920288086,-5.735073566436768,19.634431838989258,0.7427878975868225,2.4044833183288574,-0.37204307317733765,0.0,0.0,0.0,0.0,0.0,0.0,0.0,-0.8231727982237601,-0.15742525434301577,-0.5848617024320669,0.46626842154940035,0.1615054828622867,0.14020922049977572,-0.37533470650024464,0.8780849501584705,0.7558965171680115,-0.28240929959999084,-1.669189010185108,0.14133611875772478,2.403389794720544,1.0273625454687672,0.878092876070424,0.7554597494309409,-0.2825552651693207,-1.6690993614607135,0.1414185955172306,2.4034451173676383,1.0273381002308042,-0.0005453519867941902,-0.0004124238522226925,-0.0006605881809191114,0.0005715787117896917,-8.0427020917579e-06,0.00010573992818802381,0.0001881367745966617,0.0,0.0,0.0,0.0,0.0,0.0,0.0,7.925911953421405e-06,-0.00043676773707068683,-0.0001459655693298867,8.964872439443106e-05,8.247675950581734e-05,5.53226470945134e-05,-2.4445237962966715e-05,0.0005453519867941902,0.0004124238522226925,0.0006605881809191114,-0.0005715787117896917,8.0427020917579e-06,-0.00010573992818802381,-0.0001881367745966617,0.8076412081718445,46.47658920288086,5.735073566436768,-19.634431838989258,-0.7427878975868225,-2.4044833183288574,0.37204307317733765,0
23,0.1099998950958252,-0.8354122042655945,-46.50039291381836,-5.762844562530518,19.610628128051758,0.7427878975868225,2.4108920097351074,-0.37204307317733765,0.0,0.0,0.0,0.0,0.0,0.0,0.0,-0.8163826168549683,-0.15415944434807588,-0.5794395051681652,0.4644685097633802,0.1610312908686879,0.13998436523179736,-0.37430894325001973,0.8780868990003017,0.7558981876038668,-0.2824073507576658,-1.6691873397492525,0.14133611875772475,2.403389082643721,1.0273625585499784,0.878092876070424,0.7554597494309409,-0.2825552651693207,-1.6690993614607135,0.1414185955172306,2.4034451173676383,1.0273381002308042,0.00017622194657218406,5.396930737230732e-05,0.00015520057002413462,0.0009569290967115804,-2.0654293487121364e-05,-0.0003038602926156084,-0.0003003890753009917,0.0,0.0,0.0,0.0,0.0,0.0,0.0,5.977070122287209e-06,-0.0004384381729259923,-0.0001479144116549036,8.797828853901457e-05,8.24767595058451e-05,5.603472391735309e-05,-2.4458319174192056e-05,-0.00017622194657218406,-5.396930737230732e-05,-0.00015520057002413462,-0.0009569290967115804,2.0654293487121364e-05,0.0003038602926156084,0.0003003890753009917,0.8354122042655945,46.50039291381836,5.762844562530518,-19.610628128051758,-0.7427878975868225,-2.4108920097351074,0.37204307317733765,0
24,0.11500239372253418,-0.8354122042655945,-46.50039291381836,-5.762844562530518,19.610628128051758,0.7427878975868225,2.4108920097351074,-0.37204307317733765,0.0,0.0,0.0,0.0,0.0,0.0,0.0,-0.8163826168549683,-0.15415944434807588,-0.5794395051681652,0.4644685097633802,0.1610312908686879,0.13998436523179736,-0.37430894325001973,0.8780868990003017,0.7558981876038668,-0.2824073507576658,-1.6691873397492525,0.14133611875772475,2.403389082643721,1.0273625585499784,0.878092876070424,0.7554597494309409,-0.2825552651693207,-1.6690993614607135,0.1414185955172306,2.4034451173676383,1.0273381002308042,0.00017622194657218406,5.396930737230732e-05,0.00015520057002413462,0.0009569290967115804,-2.0654293487121364e-05,-0.0003038602926156084,-0.0003003890753009917,0.0,0.0,0.0,0.0,0.0,0.0,0.0,5.977070122287209e-06,-0.0004384381729259923,-0.0001479144116549036,8.797828853901457e-05,8.24767595058451e-05,5.603472391735309e-05,-2.4458319174192056e-05,-0.00017622194657218406,-5.396930737230732e-05,-0.00015520057002413462,-0.0009569290967115804,2.0654293487121364e-05,0.0003038602926156084,0.0003003890753009917,0.8354122042655945,46.50039291381836,5.762844562530518,-19.610628128051758,-0.7427878975868225,-2.4108920097351074,0.37204307317733765,0
25,0.12000155448913574,-0.8354122042655945,-46.44881820678711,-5.687466144561768,19.658235549926758,0.7372947335243225,2.4044833183288574,-0.38577598333358765,0.0,0.0,0.0,0.0,0.0,0.0,0.0,-0.8172123960539117,-0.15642090399545006,-0.5788484995796871,0.46397633228645596,0.16035278386977767,0.13990433983467435,-0.3746796872331553,0.8780868990003017,0.7558945683261804,-0.28241264047120745,-1.6691906807299794,0.14133672910928727,2.4033901479870887,1.027362789800206,0.878092876070424,0.7554597494309409,-0.2825552651693207,-1.6690993614607135,0.1414185955172306,2.4034451173676383,1.0273381002308042,0.0003877779498597532,-0.0005842459627499831,-0.0015959310471582065,0.00014650127283674042,0.00025098465687166383,0.00017092974763805097,0.0010359133865185189,0.0,0.0,0.0,0.0,0.0,0.0,0.0,5.977070122287209e-06,-0.00043481889523955264,-0.0001426246981132695,9.1319269265977e-05,8.186640794333178e-05,5.496938054960765e-05,-2.468956940182565e-05,-0.0003877779498597532,0.0005842459627499831,0.0015959310471582065,-0.00014650127283674042,-0.00025098465687166383,-0.00017092974763805097,-0.0010359133865185189,0.8354122042655945,46.44881820678711,5.687466144561768,-19.658235549926758,-0.7372947335243225,-2.4044833183288574,0.38577598333358765,0
26,0.1250002384185791,-0.8354122042655945,-46.44881820678711,-5.687466144561768,19.658235549926758,0.7372947335243225,2.4044833183288574,-0.38577598333358765,0.0,0.0,0.0,0.0,0.0,0.0,0.0,-0.8172123960539117,-0.15642090399545006,-0.5788484995796871,0.46397633228645596,0.16035278386977767,0.13990433983467435,-0.3746796872331553,0.8780868990003017,0.7558945683261804,-0.28241264047120745,-1.6691906807299794,0.14133672910928727,2.4033901479870887,1.027362789800206,0.878092876070424,0.7554597494309409,-0.2825552651693207,-1.6690993614607135,0.1414185955172306,2.4034451173676383,1.0273381002308042,0.0003877779498597532,-0.0005842459627499831,-0.0015959310471582065,0.00014650127283674042,0.00025098465687166383,0.00017092974763805097,0.0010359133865185189,0.0,0.0,0.0,0.0,0.0,0.0,0.0,5.977070122287209e-06,-0.00043481889523955264,-0.0001426246981132695,9.1319269265977e-05,8.186640794333178e-05,5.496938054960765e-05,-2.468956940182565e-05,-0.0003877779498597532,0.0005842459627499831,0.0015959310471582065,-0.00014650127283674042,-0.00025098465687166383,-0.00017092974763805097,-0.0010359133865185189,0.8354122042655945,46.44881820678711,5.687466144561768,-19.658235549926758,-0.7372947335243225,-2.4044833183288574,0.38577598333358765,0
27,0.1300187110900879,-0.8076412081718445,-46.47658920288086,-5.786648273468018,19.658235549926758,0.7491965889930725,2.4044833183288574,-0.40591758489608765,0.0,0.0,0.0,0.0,0.0,0.0,0.0,-0.8167098670638543,-0.16395083442862865,-0.5801968589438585,0.46461443841373684,0.16005119702230905,0.1402017088465717,-0.37302779680336756,0.8780849501584705,0.7558965171680115,-0.2824056804298174,-1.6691906806209638,0.14133220789829887,2.403392973636926,1.027366423156863,0.878092876070424,0.7554597494309409,-0.2825552651693207,-1.6690993614607135,0.1414185955172306,2.4034451173676383,1.0273381002308042,-6.13940628378213e-05,-0.000292415006322874,0.0008844974364678758,-0.0003293250557807258,-0.000390419726512549,-1.3399209269666017e-05,0.0012597743782703909,0.0,0.0,0.0,0.0,0.0,0.0,0.0,7.925911953421405e-06,-0.00043676773707068683,-0.00014958473950332785,9.131916025029163e-05,8.638761893173252e-05,5.2143730712383984e-05,-2.8322926058921283e-05,6.13940628378213e-05,0.000292415006322874,-0.0008844974364678758,0.0003293250557807258,0.000390419726512549,1.3399209269666017e-05,-0.0012597743782703909,0.8076412081718445,46.47658920288086,5.786648273468018,-19.658235549926758,-0.7491965889930725,-2.4044833183288574,0.40591758489608765,0
28,0.13506078720092773,-0.8076412081718445,-46.47658920288086,-5.786648273468018,19.658235549926758,0.7491965889930725,2.4044833183288574,-0.40591758489608765,0.0,0.0,0.0,0.0,0.0,0.0,0.0,-0.8167098670638543,-0.16395083442862865,-0.5801968589438585,0.46461443841373684,0.16005119702230905,0.1402017088465717,-0.37302779680336756,0.8780849501584705,0.7558965171680115,-0.2824056804298174,-1.6691906806209638,0.14133220789829887,2.403392973636926,1.027366423156863,0.878092876070424,0.7554597494309409,-0.2825552651693207,-1.6690993614607135,0.1414185955172306,2.4034451173676383,1.0273381002308042,-6.13940628378213e-05,-0.000292415006322874,0.0008844974364678758,-0.0003293250557807258,-0.000390419726512549,-1.3399209269666017e-05,0.0012597743782703909,0.0,0.0,0.0,0.0,0.0,0.0,0.0,7.925911953421405e-06,-0.00043676773707068683,-0.00014958473950332785,9.131916025029163e-05,8.638761893173252e-05,5.2143730712383984e-05,-2.8322926058921283e-05,6.13940628378213e-05,0.000292415006322874,-0.0008844974364678758,0.0003293250557807258,0.000390419726512549,1.3399209269666017e-05,-0.0012597743782703909,0.8076412081718445,46.47658920288086,5.786648273468018,-19.658235549926758,-0.7491965889930725,-2.4044833183288574,0.40591758489608765,0
29,0.14000582695007324,-0.8354122042655945,-46.44881820678711,-5.735073566436768,19.658235549926758,0.7427878975868225,2.4044833183288574,-0.37204307317733765,0.0,0.0,0.0,0.0,0.0,0.0,0.0,-0.8001407824427553,-0.15515248052586264,-0.5708668343018257,0.4589550382626303,0.159647846169593,0.13937003930788655,-0.37211243839167785,0.8780868990003017,0.7558945683261804,-0.28240929992351815,-1.669190680620963,0.14133615823081078,2.403394037651657,1.027362323559998,0.878092876070424,0.7554597494309409,-0.2825552651693207,-1.6690993614607135,0.1414185955172306,2.4034451173676383,1.0273381002308042,0.0016563076721004097,-0.0008974396173570122,-0.00023507432119639518,-0.00027735232004814014,5.3461829394621215e-05,6.823617382467608e-05,0.00013441548814702528,0.0,0.0,0.0,0.0,0.0,0.0,0.0,5.977070122287209e-06,-0.00043481889523955264,-0.00014596524580257064,9.13191602496255e-05,8.243728641982306e-05,5.107971598139471e-05,-2.4223329193828746e-05,-0.0016563076721004097,0.0008974396173570122,0.00023507432119639518,0.00027735232004814014,-5.3461829394621215e-05,-6.823617382467608e-05,-0.00013441548814702528,0.8354122042655945,46.44881820678711,5.735073566436768,-19.658235549926758,-0.7427878975868225,-2.4044833183288574,0.37204307317733765,0
30,0.14500021934509277,-0.8354122042655945,-46.44881820678711,-5.735073566436768,19.658235549926758,0.7427878975868225,2.4044833183288574,-0.37204307317733765,0.0,0.0,0.0,0.0,0.0,0.0,0.0,-0.8001407824427553,-0.15515248052586264,-0.5708668343018257,0.4589550382626303,0.159647846169593,0.13937003930788655,-0.37211243839167785,0.8780868990003017,0.7558945683261804,-0.28240929992351815,-1.669190680620963,0.14133615823081078,2.403394037651657,1.027362323559998,0.878092876070424,0.7554597494309409,-0.2825552651693207,-1.6690993614607135,0.1414185955172306,2.4034451173676383,1.0273381002308042,0.0016563076721004097,-0.0008974396173570122,-0.00023507432119639518,-0.00027735232004814014,5.3461829394621215e-05,6.823617382467608e-05,0.00013441548814702528,0.0,0.0,0.0,0.0,0.0,0.0,0.0,5.977070122287209e-06,-0.00043481889523955264,-0.00014596524580257064,9.13191602496255e-05,8.243728641982306e-05,5.107971598139471e-05,-2.4223329193828746e-05,-0.0016563076721004097,0.0008974396173570122,0.00023507432119639518,0.00027735232004814014,-5.3461829394621215e-05,-6.823617382467608e-05,-0.00013441548814702528,0.8354122042655945,46.44881820678711,5.735073566436768,-19.658235549926758,-0.7427878975868225,-2.4044833183288574,0.37204307317733765,0
31,0.14999914169311523,-0.8354122042655945,-46.47658920288086,-5.735073566436768,19.658235549926758,0.7427878975868225,2.4044833183288574,-0.37204307317733765,0.0,0.0,0.0,0.0,0.0,0.0,0.0,-0.8142615367943037,-0.15919775185461452,-0.5851345148459858,0.4601967298868784,0.16024177254673655,0.1394875568814457,-0.37118543262522236,0.8780868990003017,0.7558965171680115,-0.2824092995994988,-1.6691906835644024,0.14133611875794758,2.4033897947444953,1.0273625590332425,0.878092876070424,0.7554597494309409,-0.2825552651693207,-1.6690993614607135,0.1414185955172306,2.4034451173676383,1.0273381002308042,0.0013260270903658821,-0.00041284574893611387,-0.0005478132989950716,2.4906481876817717e-05,4.605669998842873e-05,6.719825272456881e-05,0.0002889914237697959,0.0,0.0,0.0,0.0,0.0,0.0,0.0,5.977070122287209e-06,-0.00043676773707068683,-0.00014596556982193754,9.13221036888956e-05,8.247675928302334e-05,5.5322623143005956e-05,-2.4458802438287464e-05,-0.0013260270903658821,0.00041284574893611387,0.0005478132989950716,-2.4906481876817717e-05,-4.605669998842873e-05,-6.719825272456881e-05,-0.0002889914237697959,0.8354122042655945,46.47658920288086,5.735073566436768,-19.658235549926758,-0.7427878975868225,-2.4044833183288574,0.37204307317733765,0
32,0.15576481819152832,-0.8354122042655945,-46.47658920288086,-5.735073566436768,19.658235549926758,0.7427878975868225,2.4044833183288574,-0.37204307317733765,0.0,0.0,0.0,0.0,0.0,0.0,0.0,-0.8142615367943037,-0.15919775185461452,-0.5851345148459858,0.4601967298868784,0.16024177254673655,0.1394875568814457,-0.37118543262522236,0.8780868990003017,0.7558965171680115,-0.2824092995994988,-1.6691906835644024,0.14133611875794758,2.4033897947444953,1.0273625590332425,0.878092876070424,0.7554597494309409,-0.2825552651693207,-1.6690993614607135,0.1414185955172306,2.4034451173676383,1.0273381002308042,0.0013260270903658821,-0.00041284574893611387,-0.0005478132989950716,2.4906481876817717e-05,4.605669998842873e-05,6.719825272456881e-05,0.0002889914237697959,0.0,0.0,0.0,0.0,0.0,0.0,0.0,5.977070122287209e-06,-0.00043676773707068683,-0.00014596556982193754,9.13221036888956e-05,8.247675928302334e-05,5.5322623143005956e-05,-2.4458802438287464e-05,-0.0013260270903658821,0.00041284574893611387,0.0005478132989950716,-2.4906481876817717e-05,-4.605669998842873e-05,-6.719825272456881e-05,-0.0002889914237697959,0.8354122042655945,46.47658920288086,5.735073566436768,-19.658235549926758,-0.7427878975868225,-2.4044833183288574,0.37204307317733765,0
33,0.1600043773651123,-0.7560665011405945,-46.44881820678711,-5.762844562530518,19.658235549926758,0.7491965889930725,2.4044833183288574,-0.35098594427108765,0.0,0.0,0.0,0.0,0.0,0.0,0.0,-0.807762570785198,-0.15881723850592133,-0.5818891280495541,0.46061145522782976,0.16024947117823818,0.13950370961397596,-0.37051027744365234,0.8780813308807841,0.7558945683261804,-0.2824073507576658,-1.6691906806209797,0.14133540668090183,2.403389794720544,1.0273602188690654,0.878092876070424,0.7554597494309409,-0.2825552651693207,-1.6690993614607135,0.1414185955172306,2.4034451173676383,1.0273381002308042,-0.001298381618467307,-0.000941746299029152,0.00016162781090058219,-0.00016011056028689504,6.497689076217159e-06,-0.00019265483905453102,-0.0004509516300539752,0.0,0.0,0.0,0.0,0.0,0.0,0.0,1.1545189639861064e-05,-0.00043481889523955264,-0.0001479144116549036,9.131916026627884e-05,8.318883632876806e-05,5.53226470945134e-05,-2.2118638261181545e-05,0.001298381618467307,0.000941746299029152,-0.00016162781090058219,0.00016011056028689504,-6.497689076217159e-06,0.00019265483905453102,0.0004509516300539752,0.7560665011405945,46.44881820678711,5.762844562530518,-19.658235549926758,-0.7491965889930725,-2.4044833183288574,0.35098594427108765,0
34,0.16495275497436523,-0.7560665011405945,-46.44881820678711,-5.762844562530518,19.658235549926758,0.7491965889930725,2.4044833183288574,-0.35098594427108765,0.0,0.0,0.0,0.0,0.0,0.0,0.0,-0.807762570785198,-0.15881723850592133,-0.5818891280495541,0.46061145522782976,0.16024947117823818,0.13950370961397596,-0.37051027744365234,0.8780813308807841,0.7558945683261804,-0.2824073507576658,-1.6691906806209797,0.14133540668090183,2.403389794720544,1.0273602188690654,0.878092876070424,0.7554597494309409,-0.2825552651693207,-1.6690993614607135,0.1414185955172306,2.4034451173676383,1.0273381002308042,-0.001298381618467307,-0.000941746299029152,0.00016162781090058219,-0.00016011056028689504,6.497689076217159e-06,-0.00019265483905453102,-0.0004509516300539752,0.0,0.0,0.0,0.0,0.0,0.0,0.0,1.1545189639861064e-05,-0.00043481889523955264,-0.0001479144116549036,9.131916026627884e-05,8.318883632876806e-05,5.53226470945134e-05,-2.2118638261181545e-05,0.001298381618467307,0.000941746299029152,-0.00016162781090058219,0.00016011056028689504,-6.497689076217159e-06,0.00019265483905453102,0.0004509516300539752,0.7560665011405945,46.44881820678711,5.762844562530518,-19.658235549926758,-0.7491965889930725,-2.4044833183288574,0.35098594427108765,0
35,0.17001986503601074,-0.8354122042655945,-46.54800033569336,-5.735073566436768,19.610628128051758,0.7491965889930725,2.4044833183288574,-0.39950889348983765,0.0,0.0,0.0,0.0,0.0,0.0,0.0,-0.814565011422058,-0.1468434012710005,-0.5849503508369551,0.45450983964964137,0.16062622114371186,0.13845209369211559,-0.3696034830159622,0.8780868990003017,0.7558993429719355,-0.28240929959949695,-1.6691873397492525,0.14133540668090183,2.4033898340202358,1.027365375155736,0.878092876070424,0.7554597494309409,-0.2825552651693207,-1.6690993614607135,0.1414185955172306,2.4034451173676383,1.0273381002308042,0.0002773433977996023,0.0020957942071268844,-0.0003415878981835741,0.001360079365533246,-0.00012654123737813224,-8.106555481181317e-05,0.0008788999703852561,0.0,0.0,0.0,0.0,0.0,0.0,0.0,5.977070122287209e-06,-0.00043959354099465386,-0.0001459655698237694,8.797828853901457e-05,8.318883632876806e-05,5.528334740256824e-05,-2.7274924931708355e-05,-0.0002773433977996023,-0.0020957942071268844,0.0003415878981835741,-0.001360079365533246,0.00012654123737813224,8.106555481181317e-05,-0.0008788999703852561,0.8354122042655945,46.54800033569336,5.735073566436768,-19.610628128051758,-0.7491965889930725,-2.4044833183288574,0.39950889348983765,0
36,0.17511844635009766,-0.8354122042655945,-46.54800033569336,-5.735073566436768,19.610628128051758,0.7491965889930725,2.4044833183288574,-0.39950889348983765,0.0,0.0,0.0,0.0,0.0,0.0,0.0,-0.814565011422058,-0.1468434012710005,-0.5849503508369551,0.45450983964964137,0.16062622114371186,0.13845209369211559,-0.3696034830159622,0.8780868990003017,0.7558993429719355,-0.28240929959949695,-1.6691873397492525,0.14133540668090183,2.4033898340202358,1.027365375155736,0.878092876070424,0.7554597494309409,-0.2825552651693207,-1.6690993614607135,0.1414185955172306,2.4034451173676383,1.0273381002308042,0.0002773433977996023,0.0020957942071268844,-0.0003415878981835741,0.001360079365533246,-0.00012654123737813224,-8.106555481181317e-05,0.0008788999703852561,0.0,0.0,0.0,0.0,0.0,0.0,0.0,5.977070122287209e-06,-0.00043959354099465386,-0.0001459655698237694,8.797828853901457e-05,8.318883632876806e-05,5.528334740256824e-05,-2.7274924931708355e-05,-0.0002773433977996023,-0.0020957942071268844,0.0003415878981835741,-0.001360079365533246,0.00012654123737813224,8.106555481181317e-05,-0.0008788999703852561,0.8354122042655945,46.54800033569336,5.735073566436768,-19.610628128051758,-0.7491965889930725,-2.4044833183288574,0.39950889348983765,0
37,0.17995762825012207,-0.8076412081718445,-46.47658920288086,-5.762844562530518,19.686006546020508,0.7491965889930725,2.4044833183288574,-0.39950889348983765,0.0,0.0,0.0,0.0,0.0,0.0,0.0,-0.8124876475273825,-0.1516552827648406,-0.5799306846184542,0.4582544651955783,0.16134017946092394,0.13891258418205446,-0.37107945350218663,0.8780849501584705,0.7558964901741478,-0.2824073507576658,-1.6691926294627943,0.14133540668090183,2.4033933268478633,1.0273656100911965,0.878092876070424,0.7554597494309409,-0.2825552651693207,-1.6690993614607135,0.1414185955172306,2.4034451173676383,1.0273381002308042,-0.0003908449449269301,0.00012079865947459374,4.764999116281979e-05,-0.0007764381986170108,9.3557748767949e-06,2.7063991443168132e-05,0.0012428031720155969,0.0,0.0,0.0,0.0,0.0,0.0,0.0,7.925911953421405e-06,-0.00043674074320698697,-0.0001479144116549036,9.326800208087072e-05,8.318883632876806e-05,5.1790519774996824e-05,-2.7509860392349594e-05,0.0003908449449269301,-0.00012079865947459374,-4.764999116281979e-05,0.0007764381986170108,-9.3557748767949e-06,-2.7063991443168132e-05,-0.0012428031720155969,0.8076412081718445,46.47658920288086,5.762844562530518,-19.686006546020508,-0.7491965889930725,-2.4044833183288574,0.39950889348983765,0
38,0.1849985122680664,-0.8076412081718445,-46.47658920288086,-5.762844562530518,19.686006546020508,0.7491965889930725,2.4044833183288574,-0.39950889348983765,0.0,0.0,0.0,0.0,0.0,0.0,0.0,-0.8124876475273825,-0.1516552827648406,-0.5799306846184542,0.4582544651955783,0.16134017946092394,0.13891258418205446,-0.37107945350218663,0.8780849501584705,0.7558964901741478,-0.2824073507576658,-1.6691926294627943,0.14133540668090183,2.4033933268478633,1.0273656100911965,0.878092876070424,0.7554597494309409,-0.2825552651693207,-1.6690993614607135,0.1414185955172306,2.4034451173676383,1.0273381002308042,-0.0003908449449269301,0.00012079865947459374,4.764999116281979e-05,-0.0007764381986170108,9.3557748767949e-06,2.7063991443168132e-05,0.0012428031720155969,0.0,0.0,0.0,0.0,0.0,0.0,0.0,7.925911953421405e-06,-0.00043674074320698697,-0.0001479144116549036,9.326800208087072e-05,8.318883632876806e-05,5.1790519774996824e-05,-2.7509860392349594e-05,0.0003908449449269301,-0.00012079865947459374,-4.764999116281979e-05,0.0007764381986170108,-9.3557748767949e-06,-2.7063991443168132e-05,-0.0012428031720155969,0.8076412081718445,46.47658920288086,5.762844562530518,-19.686006546020508,-0.7491965889930725,-2.4044833183288574,0.39950889348983765,0
39,0.19002294540405273,-0.8076412081718445,-46.47658920288086,-5.735073566436768,19.634431838989258,0.7427878975868225,2.4173007011413574,-0.39218467473983765,0.0,0.0,0.0,0.0,0.0,0.0,0.0,-0.8212725910536381,-0.15829320183530288,-0.5862502308582364,0.46082638914440205,0.16252743983073606,0.1393830114390387,-0.37100447793542,0.8780849501584705,0.7558965171678591,-0.28240929959949695,-1.669189010185108,0.14133611875772475,2.4033887644989536,1.027364914512526,0.878092876070424,0.7554597494309409,-0.2825552651693207,-1.6690993614607135,0.1414185955172306,2.4034451173676383,1.0273381002308042,-0.0006886450629391414,-0.00043281096587974196,-0.00045348249776226495,0.000558379464957502,0.0002487819690686488,-0.00031484322112516617,0.0007288257028072403,0.0,0.0,0.0,0.0,0.0,0.0,0.0,7.925911953421405e-06,-0.0004367677369182532,-0.0001459655698237694,8.964872439443106e-05,8.24767595058451e-05,5.635286868477252e-05,-2.6814281721909694e-05,0.0006886450629391414,0.00043281096587974196,0.00045348249776226495,-0.000558379464957502,-0.0002487819690686488,0.00031484322112516617,-0.0007288257028072403,0.8076412081718445,46.47658920288086,5.735073566436768,-19.634431838989258,-0.7427878975868225,-2.4173007011413574,0.39218467473983765,0
40,0.19499921798706055,-0.8076412081718445,-46.47658920288086,-5.735073566436768,19.634431838989258,0.7427878975868225,2.4173007011413574,-0.39218467473983765,0.0,0.0,0.0,0.0,0.0,0.0,0.0,-0.8212725910536381,-0.15829320183530288,-0.5862502308582364,0.46082638914440205,0.16252743983073606,0.1393830114390387,-0.37100447793542,0.8780849501584705,0.7558965171678591,-0.28240929959949695,-1.669189010185108,0.14133611875772475,2.4033887644989536,1.027364914512526,0.878092876070424,0.7554597494309409,-0.2825552651693207,-1.6690993614607135,0.1414185955172306,2.4034451173676383,1.0273381002308042,-0.0006886450629391414,-0.00043281096587974196,-0.00045348249776226495,0.000558379464957502,0.0002487819690686488,-0.00031484322112516617,0.0007288257028072403,0.0,0.0,0.0,0.0,0.0,0.0,0.0,7.925911953421405e-06,-0.0004367677369182532,-0.0001459655698237694,8.964872439443106e-05,8.24767595058451e-05,5.635286868477252e-05,-2.6814281721909694e-05,0.0006886450629391414,0.00043281096587974196,0.00045348249776226495,-0.000558379464957502,-0.0002487819690686488,0.00031484322112516617,-0.0007288257028072403,0.8076412081718445,46.47658920288086,5.735073566436768,-19.634431838989258,-0.7427878975868225,-2.4173007011413574,0.39218467473983765,0
41,0.20000433921813965,-0.8354122042655945,-46.50039291381836,-5.735073566436768,19.686006546020508,0.7427878975868225,2.3980746269226074,-0.39218467473983765,0.0,0.0,0.0,0.0,0.0,0.0,0.0,-0.8162193932934656,-0.1538877283164756,-0.5792246078537641,0.46063876744780113,0.1625934291269384,0.13989217293726317,-0.3710264390942287,0.8780868990003017,0.7558960017671197,-0.28240929959949695,-1.6691926304439408,0.14133611875772475,2.4033905068040378,1.0273638507297518,0.878092876070424,0.7554597494309409,-0.2825552651693207,-1.6690993614607135,0.1414185955172306,2.4034451173676383,1.0273381002308042,0.00026598290429276047,0.00042735256376982513,-0.0007388559837369717,-0.0003472813132740888,-5.1154078791673644e-05,0.00042544736836947416,0.0005635323425581514,0.0,0.0,0.0,0.0,0.0,0.0,0.0,5.977070122287209e-06,-0.00043625233617883286,-0.0001459655698237694,9.32689832273681e-05,8.24767595058451e-05,5.46105636005656e-05,-2.5750498947596512e-05,-0.00026598290429276047,-0.00042735256376982513,0.0007388559837369717,0.0003472813132740888,5.1154078791673644e-05,-0.00042544736836947416,-0.0005635323425581514,0.8354122042655945,46.50039291381836,5.735073566436768,-19.686006546020508,-0.7427878975868225,-2.3980746269226074,0.39218467473983765,0
42,0.20502614974975586,-0.8354122042655945,-46.50039291381836,-5.735073566436768,19.686006546020508,0.7427878975868225,2.3980746269226074,-0.39218467473983765,0.0,0.0,0.0,0.0,0.0,0.0,0.0,-0.8162193932934656,-0.1538877283164756,-0.5792246078537641,0.46063876744780113,0.1625934291269384,0.13989217293726317,-0.3710264390942287,0.8780868990003017,0.7558960017671197,-0.28240929959949695,-1.6691926304439408,0.14133611875772475,2.4033905068040378,1.0273638507297518,0.878092876070424,0.7554597494309409,-0.2825552651693207,-1.6690993614607135,0.1414185955172306,2.4034451173676383,1.0273381002308042,0.00026598290429276047,0.00042735256376982513,-0.0007388559837369717,-0.0003472813132740888,-5.1154078791673644e-05,0.00042544736836947416,0.0005635323425581514,0.0,0.0,0.0,0.0,0.0,0.0,0.0,5.977070122287209e-06,-0.00043625233617883286,-0.0001459655698237694,9.32689832273681e-05,8.24767595058451e-05,5.46105636005656e-05,-2.5750498947596512e-05,-0.00026598290429276047,-0.00042735256376982513,0.0007388559837369717,0.0003472813132740888,5.1154078791673644e-05,-0.00042544736836947416,-0.0005635323425581514,0.8354122042655945,46.50039291381836,5.735073566436768,-19.686006546020508,-0.7427878975868225,-2.3980746269226074,0.39218467473983765,0
43,0.21000075340270996,-0.8354122042655945,-46.47658920288086,-5.711269855499268,19.634431838989258,0.7491965889930725,2.4173007011413574,-0.33084434270858765,0.0,0.0,0.0,0.0,0.0,0.0,0.0,-0.8236540185627188,-0.16553704861018254,-0.5862296912908445,0.4657754721794139,0.16197791221236477,0.14058109767523405,-0.37139100960546884,0.8780868990003017,0.7558965171638985,-0.2824109700353522,-1.6691890101851097,0.14133541984461623,2.403388723779608,1.027357039495956,0.878092876070424,0.7554597494309409,-0.2825552651693207,-1.6690993614607135,0.1414185955172306,2.4034451173676383,1.0273381002308042,0.00041373532667404045,-0.0003397855398151764,-0.0017223583313963836,0.0007364525580787193,-0.0002406695872611594,-0.00034926287684538024,-0.0012138317808819492,0.0,0.0,0.0,0.0,0.0,0.0,0.0,5.977070122287209e-06,-0.0004367677329576436,-0.00014429513396851945,8.964872439620741e-05,8.317567261437175e-05,5.6393588030445585e-05,-1.89392651517295e-05,-0.00041373532667404045,0.0003397855398151764,0.0017223583313963836,-0.0007364525580787193,0.0002406695872611594,0.00034926287684538024,0.0012138317808819492,0.8354122042655945,46.47658920288086,5.711269855499268,-19.634431838989258,-0.7491965889930725,-2.4173007011413574,0.33084434270858765,0
44,0.2150113582611084,-0.8354122042655945,-46.47658920288086,-5.711269855499268,19.634431838989258,0.7491965889930725,2.4173007011413574,-0.33084434270858765,0.0,0.0,0.0,0.0,0.0,0.0,0.0,-0.8236540185627188,-0.16553704861018254,-0.5862296912908445,0.4657754721794139,0.16197791221236477,0.14058109767523405,-0.37139100960546884,0.8780868990003017,0.7558965171638985,-0.2824109700353522,-1.6691890101851097,0.14133541984461623,2.403388723779608,1.027357039495956,0.878092876070424,0.7554597494309409,-0.2825552651693207,-1.6690993614607135,0.1414185955172306,2.4034451173676383,1.0273381002308042,0.00041373532667404045,-0.0003397855398151764,-0.0017223583313963836,0.0007364525580787193,-0.0002406695872611594,-0.00034926287684538024,-0.0012138317808819492,0.0,0.0,0.0,0.0,0.0,0.0,0.0,5.977070122287209e-06,-0.0004367677329576436,-0.00014429513396851945,8.964872439620741e-05,8.317567261437175e-05,5.6393588030445585e-05,-1.89392651517295e-05,-0.00041373532667404045,0.0003397855398151764,0.0017223583313963836,-0.0007364525580787193,0.0002406695872611594,0.00034926287684538024,0.0012138317808819492,0.8354122042655945,46.47658920288086,5.711269855499268,-19.634431838989258,-0.7491965889930725,-2.4173007011413574,0.33084434270858765,0
45,0.2203073501586914,-0.8354122042655945,-46.47658920288086,-5.711269855499268,19.634431838989258,0.7491965889930725,2.4173007011413574,-0.33084434270858765,0.0,0.0,0.0,0.0,0.0,0.0,0.0,-0.8236540185627188,-0.16553704861018254,-0.5862296912908445,0.4657754721794139,0.16197791221236477,0.14058109767523405,-0.37139100960546884,0.8780868990003017,0.7558965171638985,-0.2824109700353522,-1.6691890101851097,0.14133541984461623,2.403388723779608,1.027357039495956,0.878092876070424,0.7554597494309409,-0.2825552651693207,-1.6690993614607135,0.1414185955172306,2.4034451173676383,1.0273381002308042,0.00041373532667404045,-0.0003397855398151764,-0.0017223583313963836,0.0007364525580787193,-0.0002406695872611594,-0.00034926287684538024,-0.0012138317808819492,0.0,0.0,0.0,0.0,0.0,0.0,0.0,5.977070122287209e-06,-0.0004367677329576436,-0.00014429513396851945,8.964872439620741e-05,8.317567261437175e-05,5.6393588030445585e-05,-1.89392651517295e-05,-0.00041373532667404045,0.0003397855398151764,0.0017223583313963836,-0.0007364525580787193,0.0002406695872611594,0.00034926287684538024,0.0012138317808819492,0.8354122042655945,46.47658920288086,5.711269855499268,-19.634431838989258,-0.7491965889930725,-2.4173007011413574,0.33084434270858765,0
46,0.2249600887298584,-0.8354122042655945,-46.47658920288086,-5.711269855499268,19.634431838989258,0.7491965889930725,2.4173007011413574,-0.33084434270858765,0.0,0.0,0.0,0.0,0.0,0.0,0.0,-0.8236540185627188,-0.16553704861018254,-0.5862296912908445,0.4657754721794139,0.16197791221236477,0.14058109767523405,-0.37139100960546884,0.8780868990003017,0.7558965171638985,-0.2824109700353522,-1.6691890101851097,0.14133541984461623,2.403388723779608,1.027357039495956,0.878092876070424,0.7554597494309409,-0.2825552651693207,-1.6690993614607135,0.1414185955172306,2.4034451173676383,1.0273381002308042,0.00041373532667404045,-0.0003397855398151764,-0.0017223583313963836,0.0007364525580787193,-0.0002406695872611594,-0.00034926287684538024,-0.0012138317808819492,0.0,0.0,0.0,0.0,0.0,0.0,0.0,5.977070122287209e-06,-0.0004367677329576436,-0.00014429513396851945,8.964872439620741e-05,8.317567261437175e-05,5.6393588030445585e-05,-1.89392651517295e-05,-0.00041373532667404045,0.0003397855398151764,0.0017223583313963836,-0.0007364525580787193,0.0002406695872611594,0.00034926287684538024,0.0012138317808819492,0.8354122042655945,46.47658920288086,5.711269855499268,-19.634431838989258,-0.7491965889930725,-2.4173007011413574,0.33084434270858765,0
47,0.23000073432922363,-0.8354122042655945,-46.47658920288086,-5.762844562530518,19.658235549926758,0.7372947335243225,2.4044833183288574,-0.37845176458358765,0.0,0.0,0.0,0.0,0.0,0.0,0.0,-0.8232393545064413,-0.15993612535493648,-0.5894381627852127,0.46148470252585444,0.16155887414583134,0.14002324928213583,-0.37083651500272263,0.8780868990003017,0.7558965171680115,-0.2824073510816864,-1.669190680620963,0.14133672910936157,2.403389838329045,1.0273591502911301,0.878092876070424,0.7554597494309409,-0.2825552651693207,-1.6690993614607135,0.1414185955172306,2.4034451173676383,1.0273381002308042,0.0002108998384693068,-0.0002338296474722167,-0.00022404862667382673,1.345528418264548e-05,0.0003508956035211198,-0.0002792904361791112,0.00014780321289630232,0.0,0.0,0.0,0.0,0.0,0.0,0.0,5.977070122287209e-06,-0.00043676773707068683,-0.00014791408763431546,9.13191602496255e-05,8.18664078690301e-05,5.527903859325889e-05,-2.1050060325933373e-05,-0.0002108998384693068,0.0002338296474722167,0.00022404862667382673,-1.345528418264548e-05,-0.0003508956035211198,0.0002792904361791112,-0.00014780321289630232,0.8354122042655945,46.47658920288086,5.762844562530518,-19.658235549926758,-0.7372947335243225,-2.4044833183288574,0.37845176458358765,0
48,0.23632264137268066,-0.8354122042655945,-46.47658920288086,-5.762844562530518,19.658235549926758,0.7372947335243225,2.4044833183288574,-0.37845176458358765,0.0,0.0,0.0,0.0,0.0,0.0,0.0,-0.8232393545064413,-0.15993612535493648,-0.5894381627852127,0.46148470252585444,0.16155887414583134,0.14002324928213583,-0.37083651500272263,0.8780868990003017,0.7558965171680115,-0.2824073510816864,-1.669190680620963,0.14133672910936157,2.403389838329045,1.0273591502911301,0.878092876070424,0.7554597494309409,-0.2825552651693207,-1.6690993614607135,0.1414185955172306,2.4034451173676383,1.0273381002308042,0.0002108998384693068,-0.0002338296474722167,-0.00022404862667382673,1.345528418264548e-05,0.0003508956035211198,-0.0002792904361791112,0.00014780321289630232,0.0,0.0,0.0,0.0,0.0,0.0,0.0,5.977070122287209e-06,-0.00043676773707068683,-0.00014791408763431546,9.13191602496255e-05,8.18664078690301e-05,5.527903859325889e-05,-2.1050060325933373e-05,-0.0002108998384693068,0.0002338296474722167,0.00022404862667382673,-1.345528418264548e-05,-0.0003508956035211198,0.0002792904361791112,-0.00014780321289630232,0.8354122042655945,46.47658920288086,5.762844562530518,-19.658235549926758,-0.7372947335243225,-2.4044833183288574,0.37845176458358765,0
49,0.23999929428100586,-0.8076412081718445,-46.47658920288086,-5.735073566436768,19.709810256958008,0.7491965889930725,2.3980746269226074,-0.36471885442733765,0.0,0.0,0.0,0.0,0.0,0.0,0.0,-0.8209274403622099,-0.15809952911712272,-0.5882324084257008,0.45981483933546213,0.16155433723269735,0.1389165534673022,-0.3729342863244613,0.8780849501584705,0.7558965171680115,-0.28241166170949544,-1.6691942998986495,0.1413354071684468,2.4033915796792,1.0273618497033383,0.878092876070424,0.7554597494309409,-0.2825552651693207,-1.6690993614607135,0.1414185955172306,2.4034451173676383,1.0273381002308042,-0.0003734059997512916,-0.0002917317962917473,-0.0004883088377453837,-0.001398915134851334,-3.321849033940973e-05,3.2373551949951696e-05,6.113766830191268e-06,0.0,0.0,0.0,0.0,0.0,0.0,0.0,7.925911953421405e-06,-0.00043676773707068683,-0.0001436034598252811,9.493843793606516e-05,8.318834878379144e-05,5.35376884385208e-05,-2.374947253414028e-05,0.0003734059997512916,0.0002917317962917473,0.0004883088377453837,0.001398915134851334,3.321849033940973e-05,-3.2373551949951696e-05,-6.113766830191268e-06,0.8076412081718445,46.47658920288086,5.735073566436768,-19.709810256958008,-0.7491965889930725,-2.3980746269226074,0.36471885442733765,0
50,0.2450096607208252,-0.8076412081718445,-46.47658920288086,-5.735073566436768,19.709810256958008,0.7491965889930725,2.3980746269226074,-0.36471885442733765,0.0,0.0,0.0,0.0,0.0,0.0,0.0,-0.8209274403622099,-0.15809952911712272,-0.5882324084257008,0.45981483933546213,0.16155433723269735,0.1389165534673022,-0.3729342863244613,0.8780849501584705,0.7558965171680115,-0.28241166170949544,-1.6691942998986495,0.1413354071684468,2.4033915796792,1.0273618497033383,0.878092876070424,0.7554597494309409,-0.2825552651693207,-1.6690993614607135,0.1414185955172306,2.4034451173676383,1.0273381002308042,-0.0003734059997512916,-0.0002917317962917473,-0.0004883088377453837,-0.001398915134851334,-3.321849033940973e-05,3.2373551949951696e-05,6.113766830191268e-06,0.0,0.0,0.0,0.0,0.0,0.0,0.0,7.925911953421405e-06,-0.00043676773707068683,-0.0001436034598252811,9.493843793606516e-05,8.318834878379144e-05,5.35376884385208e-05,-2.374947253414028e-05,0.0003734059997512916,0.0002917317962917473,0.0004883088377453837,0.001398915134851334,3.321849033940973e-05,-3.2373551949951696e-05,-6.113766830191268e-06,0.8076412081718445,46.47658920288086,5.735073566436768,-19.709810256958008,-0.7491965889930725,-2.3980746269226074,0.36471885442733765,0
51,0.2500169277191162,-0.8592159152030945,-46.50039291381836,-5.711269855499268,19.658235549926758,0.7427878975868225,2.3980746269226074,-0.35831016302108765,0.0,0.0,0.0,0.0,0.0,0.0,0.0,-0.8288124674836201,-0.1627047736479019,-0.5940003421550635,0.46176558424613745,0.1619386578396422,0.13832376296148577,-0.3721786759872805,0.878088569436157,0.7558980796777611,-0.28241097007535476,-1.6691914233488,0.141336118757733,2.403390624553106,1.027361146048508,0.878092876070424,0.7554597494309409,-0.2825552651693207,-1.6690993614607135,0.1414185955172306,2.4034451173676383,1.0273381002308042,0.00018400840128823768,-4.46500713716113e-06,-0.0008817676290153679,-8.266663833857362e-05,0.00023083258517302626,9.245162336062848e-05,-0.0004030480900732381,0.0,0.0,0.0,0.0,0.0,0.0,0.0,4.306634266981746e-06,-0.0004383302468202732,-0.00014429509396596263,9.20618880866364e-05,8.247675949760169e-05,5.4492814532292044e-05,-2.304581770373737e-05,-0.00018400840128823768,4.46500713716113e-06,0.0008817676290153679,8.266663833857362e-05,-0.00023083258517302626,-9.245162336062848e-05,0.0004030480900732381,0.8592159152030945,46.50039291381836,5.711269855499268,-19.658235549926758,-0.7427878975868225,-2.3980746269226074,0.35831016302108765,0
52,0.2550022602081299,-0.8592159152030945,-46.50039291381836,-5.711269855499268,19.658235549926758,0.7427878975868225,2.3980746269226074,-0.35831016302108765,0.0,0.0,0.0,0.0,0.0,0.0,0.0,-0.8288124674836201,-0.1627047736479019,-0.5940003421550635,0.46176558424613745,0.1619386578396422,0.13832376296148577,-0.3721786759872805,0.878088569436157,0.7558980796777611,-0.28241097007535476,-1.6691914233488,0.141336118757733,2.403390624553106,1.027361146048508,0.878092876070424,0.7554597494309409,-0.2825552651693207,-1.6690993614607135,0.1414185955172306,2.4034451173676383,1.0273381002308042,0.00018400840128823768,-4.46500713716113e-06,-0.0008817676290153679,-8.266663833857362e-05,0.00023083258517302626,9.245162336062848e-05,-0.0004030480900732381,0.0,0.0,0.0,0.0,0.0,0.0,0.0,4.306634266981746e-06,-0.0004383302468202732,-0.00014429509396596263,9.20618880866364e-05,8.247675949760169e-05,5.4492814532292044e-05,-2.304581770373737e-05,-0.00018400840128823768,4.46500713716113e-06,0.0008817676290153679,8.266663833857362e-05,-0.00023083258517302626,-9.245162336062848e-05,0.0004030480900732381,0.8592159152030945,46.50039291381836,5.711269855499268,-19.658235549926758,-0.7427878975868225,-2.3980746269226074,0.35831016302108765,0
53,0.2599647045135498,-0.8076412081718445,-46.52419662475586,-5.735073566436768,19.709810256958008,0.7491965889930725,2.4108920097351074,-0.35831016302108765,0.0,0.0,0.0,0.0,0.0,0.0,0.0,-0.8186259863032107,-0.16419040981128283,-0.5824156422101924,0.4649119206116808,0.16163222510939518,0.13820164038485755,-0.37214770861855845,0.8780849501584705,0.7558998490440523,-0.2824092999235182,-1.6691942999112277,0.14133540668090183,2.403389082807221,1.0273600912556888,0.878092876070424,0.7554597494309409,-0.2825552651693207,-1.6690993614607135,0.1414185955172306,2.4034451173676383,1.0273381002308042,-0.0007275085968018481,0.0007368127252703651,-7.791356710041856e-05,-0.0012496234224704758,-0.0001238474133236011,-0.00035089581785222105,-0.0006136164989293073,0.0,0.0,0.0,0.0,0.0,0.0,0.0,7.925911953421405e-06,-0.0004400996131114221,-0.00014596524580251513,9.493845051422589e-05,8.318883632876806e-05,5.603456041747279e-05,-2.199102488464888e-05,0.0007275085968018481,-0.0007368127252703651,7.791356710041856e-05,0.0012496234224704758,0.0001238474133236011,0.00035089581785222105,0.0006136164989293073,0.8076412081718445,46.52419662475586,5.735073566436768,-19.709810256958008,-0.7491965889930725,-2.4108920097351074,0.35831016302108765,0
54,0.2651064395904541,-0.8076412081718445,-46.52419662475586,-5.735073566436768,19.709810256958008,0.7491965889930725,2.4108920097351074,-0.35831016302108765,0.0,0.0,0.0,0.0,0.0,0.0,0.0,-0.8186259863032107,-0.16419040981128283,-0.5824156422101924,0.4649119206116808,0.16163222510939518,0.13820164038485755,-0.37214770861855845,0.8780849501584705,0.7558998490440523,-0.2824092999235182,-1.6691942999112277,0.14133540668090183,2.403389082807221,1.0273600912556888,0.878092876070424,0.7554597494309409,-0.2825552651693207,-1.6690993614607135,0.1414185955172306,2.4034451173676383,1.0273381002308042,-0.0007275085968018481,0.0007368127252703651,-7.791356710041856e-05,-0.0012496234224704758,-0.0001238474133236011,-0.00035089581785222105,-0.0006136164989293073,0.0,0.0,0.0,0.0,0.0,0.0,0.0,7.925911953421405e-06,-0.0004400996131114221,-0.00014596524580251513,9.493845051422589e-05,8.318883632876806e-05,5.603456041747279e-05,-2.199102488464888e-05,0.0007275085968018481,-0.0007368127252703651,7.791356710041856e-05,0.0012496234224704758,0.0001238474133236011,0.00035089581785222105,0.0006136164989293073,0.8076412081718445,46.52419662475586,5.735073566436768,-19.709810256958008,-0.7491965889930725,-2.4108920097351074,0.35831016302108765,0
55,0.26999592781066895,-0.8354122042655945,-46.52419662475586,-5.735073566436768,19.686006546020508,0.7491965889930725,2.4044833183288574,-0.36471885442733765,0.0,0.0,0.0,0.0,0.0,0.0,0.0,-0.8134544922034127,-0.15683985578417373,-0.5750916518164995,0.4619699227106649,0.16096495618613554,0.1379208997395681,-0.372318849187369,0.8780868990003017,0.7558998580383495,-0.282409299599497,-1.6691926324062336,0.14133540668090183,2.4033901493887977,1.0273614966758393,0.878092876070424,0.7554597494309409,-0.2825552651693207,-1.6690993614607135,0.1414185955172306,2.4034451173676383,1.0273381002308042,0.0006434080416202327,0.0007726563246000652,-0.0002560581583089615,-0.0006067900469650217,-0.00018720689326264935,-4.2528915063661986e-05,-0.00036530532488842607,0.0,0.0,0.0,0.0,0.0,0.0,0.0,5.977070122287209e-06,-0.000440108607408618,-0.0001459655698237139,9.327094552014081e-05,8.318883632876806e-05,5.496797884063653e-05,-2.339644503512872e-05,-0.0006434080416202327,-0.0007726563246000652,0.0002560581583089615,0.0006067900469650217,0.00018720689326264935,4.2528915063661986e-05,0.00036530532488842607,0.8354122042655945,46.52419662475586,5.735073566436768,-19.686006546020508,-0.7491965889930725,-2.4044833183288574,0.36471885442733765,0
56,0.274996280670166,-0.8354122042655945,-46.52419662475586,-5.735073566436768,19.686006546020508,0.7491965889930725,2.4044833183288574,-0.36471885442733765,0.0,0.0,0.0,0.0,0.0,0.0,0.0,-0.8134544922034127,-0.15683985578417373,-0.5750916518164995,0.4619699227106649,0.16096495618613554,0.1379208997395681,-0.372318849187369,0.8780868990003017,0.7558998580383495,-0.282409299599497,-1.6691926324062336,0.14133540668090183,2.4033901493887977,1.0273614966758393,0.878092876070424,0.7554597494309409,-0.2825552651693207,-1.6690993614607135,0.1414185955172306,2.4034451173676383,1.0273381002308042,0.0006434080416202327,0.0007726563246000652,-0.0002560581583089615,-0.0006067900469650217,-0.00018720689326264935,-4.2528915063661986e-05,-0.00036530532488842607,0.0,0.0,0.0,0.0,0.0,0.0,0.0,5.977070122287209e-06,-0.000440108607408618,-0.0001459655698237139,9.327094552014081e-05,8.318883632876806e-05,5.496797884063653e-05,-2.339644503512872e-05,-0.0006434080416202327,-0.0007726563246000652,0.0002560581583089615,0.0006067900469650217,0.00018720689326264935,4.2528915063661986e-05,0.00036530532488842607,0.8354122042655945,46.52419662475586,5.735073566436768,-19.686006546020508,-0.7491965889930725,-2.4044833183288574,0.36471885442733765,0
57,0.28077220916748047,-0.8354122042655945,-46.47658920288086,-5.786648273468018,19.686006546020508,0.7427878975868225,2.3980746269226074,-0.37204307317733765,0.0,0.0,0.0,0.0,0.0,0.0,0.0,-0.8189206291786876,-0.16396328929478568,-0.5832285270732579,0.4632321813670966,0.16108834969283098,0.13842457734299063,-0.37363355067962906,0.8780868990003017,0.7558965171680115,-0.2824056803218105,-1.669192629462811,0.14133611875772475,2.403390546206731,1.0273623090225263,0.878092876070424,0.7554597494309409,-0.2825552651693207,-1.6690993614607135,0.1414185955172306,2.4034451173676383,1.0273381002308042,0.0009724682139177854,-0.0006541515168389476,0.00046333321547976903,-0.0008974185488847534,0.00012157452763920507,0.00035449558370938424,-0.0002472178548183538,0.0,0.0,0.0,0.0,0.0,0.0,0.0,5.977070122287209e-06,-0.00043676773707068683,-0.00014958484751020906,9.326800209752406e-05,8.24767595058451e-05,5.4571160907457283e-05,-2.420879172215784e-05,-0.0009724682139177854,0.0006541515168389476,-0.00046333321547976903,0.0008974185488847534,-0.00012157452763920507,-0.00035449558370938424,0.0002472178548183538,0.8354122042655945,46.47658920288086,5.786648273468018,-19.686006546020508,-0.7427878975868225,-2.3980746269226074,0.37204307317733765,0
58,0.28505468368530273,-0.8354122042655945,-46.47658920288086,-5.786648273468018,19.686006546020508,0.7427878975868225,2.3980746269226074,-0.37204307317733765,0.0,0.0,0.0,0.0,0.0,0.0,0.0,-0.8189206291786876,-0.16396328929478568,-0.5832285270732579,0.4632321813670966,0.16108834969283098,0.13842457734299063,-0.37363355067962906,0.8780868990003017,0.7558965171680115,-0.2824056803218105,-1.669192629462811,0.14133611875772475,2.403390546206731,1.0273623090225263,0.878092876070424,0.7554597494309409,-0.2825552651693207,-1.6690993614607135,0.1414185955172306,2.4034451173676383,1.0273381002308042,0.0009724682139177854,-0.0006541515168389476,0.00046333321547976903,-0.0008974185488847534,0.00012157452763920507,0.00035449558370938424,-0.0002472178548183538,0.0,0.0,0.0,0.0,0.0,0.0,0.0,5.977070122287209e-06,-0.00043676773707068683,-0.00014958484751020906,9.326800209752406e-05,8.24767595058451e-05,5.4571160907457283e-05,-2.420879172215784e-05,-0.0009724682139177854,0.0006541515168389476,-0.00046333321547976903,0.0008974185488847534,-0.00012157452763920507,-0.00035449558370938424,0.0002472178548183538,0.8354122042655945,46.47658920288086,5.786648273468018,-19.686006546020508,-0.7427878975868225,-2.3980746269226074,0.37204307317733765,0
59,0.28999876976013184,-0.7838374972343445,-46.50039291381836,-5.735073566436768,19.658235549926758,0.7491965889930725,2.4044833183288574,-0.37845176458358765,0.0,0.0,0.0,0.0,0.0,0.0,0.0,-0.8191516759157795,-0.16427275634157018,-0.5862664968803261,0.4615651197760096,0.16114558007825075,0.13885228805378774,-0.37367398590532075,0.8780832797226152,0.7558981876038668,-0.28240929992351754,-1.6691909190395422,0.14133540668090183,2.4033897947746015,1.02736334507954,0.878092876070424,0.7554597494309409,-0.2825552651693207,-1.6690993614607135,0.1414185955172306,2.4034451173676383,1.0273381002308042,-0.0004950796882493063,0.00020370885778864384,-0.000751859181392357,0.00013782302336012294,-0.0001969646756792447,0.00017616135390599187,-2.0578052423159846e-05,0.0,0.0,0.0,0.0,0.0,0.0,0.0,9.596347808726868e-06,-0.0004384381729259923,-0.00014596524580318126,9.155757882872706e-05,8.318883632876806e-05,5.532259303686615e-05,-2.524484873589472e-05,0.0004950796882493063,-0.00020370885778864384,0.000751859181392357,-0.00013782302336012294,0.0001969646756792447,-0.00017616135390599187,2.0578052423159846e-05,0.7838374972343445,46.50039291381836,5.735073566436768,-19.658235549926758,-0.7491965889930725,-2.4044833183288574,0.37845176458358765,0
60,0.2949545383453369,-0.7838374972343445,-46.50039291381836,-5.735073566436768,19.658235549926758,0.7491965889930725,2.4044833183288574,-0.37845176458358765,0.0,0.0,0.0,0.0,0.0,0.0,0.0,-0.8191516759157795,-0.16427275634157018,-0.5862664968803261,0.4615651197760096,0.16114558007825075,0.13885228805378774,-0.37367398590532075,0.8780832797226152,0.7558981876038668,-0.28240929992351754,-1.6691909190395422,0.14133540668090183,2.4033897947746015,1.02736334507954,0.878092876070424,0.7554597494309409,-0.2825552651693207,-1.6690993614607135,0.1414185955172306,2.4034451173676383,1.0273381002308042,-0.0004950796882493063,0.00020370885778864384,-0.000751859181392357,0.00013782302336012294,-0.0001969646756792447,0.00017616135390599187,-2.0578052423159846e-05,0.0,0.0,0.0,0.0,0.0,0.0,0.0,9.596347808726868e-06,-0.0004384381729259923,-0.00014596524580318126,9.155757882872706e-05,8.318883632876806e-05,5.532259303686615e-05,-2.524484873589472e-05,0.0004950796882493063,-0.00020370885778864384,0.000751859181392357,-0.00013782302336012294,0.0001969646756792447,-0.00017616135390599187,2.0578052423159846e-05,0.7838374972343445,46.50039291381836,5.735073566436768,-19.658235549926758,-0.7491965889930725,-2.4044833183288574,0.37845176458358765,0
61,0.3000969886779785,-0.8354122042655945,-46.47658920288086,-5.711269855499268,19.686006546020508,0.7427878975868225,2.4108920097351074,-0.34457725286483765,0.0,0.0,0.0,0.0,0.0,0.0,0.0,-0.8188504143976014,-0.17696628709738488,-0.5891993557706637,0.4681956175468349,0.16113382244904262,0.14000746721462984,-0.374325538414734,0.8780868990003017,0.7558965171680115,-0.28241098170009477,-1.6691926294641402,0.14133611875772475,2.403392261558109,1.027356432856901,0.878092876070424,0.7554597494309409,-0.2825552651693207,-1.6690993614607135,0.1414185955172306,2.4034451173676383,1.0273381002308042,8.055775640639293e-05,-0.0007960636000622969,-0.0009215760038021641,-0.000445777951246188,0.00015877769031916614,-0.0003095540345160171,-0.0015230009720391005,0.0,0.0,0.0,0.0,0.0,0.0,0.0,5.977070122287209e-06,-0.00043676773707068683,-0.0001442834692259587,9.326800342668307e-05,8.24767595058451e-05,5.285580952918423e-05,-1.83326260967398e-05,-8.055775640639293e-05,0.0007960636000622969,0.0009215760038021641,0.000445777951246188,-0.00015877769031916614,0.0003095540345160171,0.0015230009720391005,0.8354122042655945,46.47658920288086,5.711269855499268,-19.686006546020508,-0.7427878975868225,-2.4108920097351074,0.34457725286483765,0
62,0.3050107955932617,-0.8354122042655945,-46.47658920288086,-5.711269855499268,19.686006546020508,0.7427878975868225,2.4108920097351074,-0.34457725286483765,0.0,0.0,0.0,0.0,0.0,0.0,0.0,-0.8188504143976014,-0.17696628709738488,-0.5891993557706637,0.4681956175468349,0.16113382244904262,0.14000746721462984,-0.374325538414734,0.8780868990003017,0.7558965171680115,-0.28241098170009477,-1.6691926294641402,0.14133611875772475,2.403392261558109,1.027356432856901,0.878092876070424,0.7554597494309409,-0.2825552651693207,-1.6690993614607135,0.1414185955172306,2.4034451173676383,1.0273381002308042,8.055775640639293e-05,-0.0007960636000622969,-0.0009215760038021641,-0.000445777951246188,0.00015877769031916614,-0.0003095540345160171,-0.0015230009720391005,0.0,0.0,0.0,0.0,0.0,0.0,0.0,5.977070122287209e-06,-0.00043676773707068683,-0.0001442834692259587,9.326800342668307e-05,8.24767595058451e-05,5.285580952918423e-05,-1.83326260967398e-05,-8.055775640639293e-05,0.0007960636000622969,0.0009215760038021641,0.000445777951246188,-0.00015877769031916614,0.0003095540345160171,0.0015230009720391005,0.8354122042655945,46.47658920288086,5.711269855499268,-19.686006546020508,-0.7427878975868225,-2.4108920097351074,0.34457725286483765,0
63,0.3100106716156006,-0.8592159152030945,-46.42501449584961,-5.786648273468018,19.634431838989258,0.7491965889930725,2.4108920097351074,-0.38577598333358765,0.0,0.0,0.0,0.0,0.0,0.0,0.0,-0.8096819026090389,-0.1512657881096159,-0.5783887571752282,0.4552341906335819,0.16002438689244936,0.13831238714277064,-0.37367749002177325,0.878088569436157,0.7558928978533135,-0.28240568032183244,-1.6691890102214466,0.14133540668090183,2.4033933604480766,1.027364161946299,0.878092876070424,0.7554597494309409,-0.2825552651693207,-1.6690993614607135,0.1414185955172306,2.4034451173676383,1.0273381002308042,0.0010534523004513707,-0.000954473230257822,0.0008046236451395265,-5.703604410678753e-05,-0.00017010155904728956,-0.00026251769049976954,0.0006945656709536484,0.0,0.0,0.0,0.0,0.0,0.0,0.0,4.306634266981746e-06,-0.0004331484223726312,-0.00014958484748828216,8.964876073314088e-05,8.318883632876806e-05,5.175691956171846e-05,-2.606171549479619e-05,-0.0010534523004513707,0.000954473230257822,-0.0008046236451395265,5.703604410678753e-05,0.00017010155904728956,0.00026251769049976954,-0.0006945656709536484,0.8592159152030945,46.42501449584961,5.786648273468018,-19.634431838989258,-0.7491965889930725,-2.4108920097351074,0.38577598333358765,0
64,0.31500959396362305,-0.8592159152030945,-46.42501449584961,-5.786648273468018,19.634431838989258,0.7491965889930725,2.4108920097351074,-0.38577598333358765,0.0,0.0,0.0,0.0,0.0,0.0,0.0,-0.8096819026090389,-0.1512657881096159,-0.5783887571752282,0.4552341906335819,0.16002438689244936,0.13831238714277064,-0.37367749002177325,0.878088569436157,0.7558928978533135,-0.28240568032183244,-1.6691890102214466,0.14133540668090183,2.4033933604480766,1.027364161946299,0.878092876070424,0.7554597494309409,-0.2825552651693207,-1.6690993614607135,0.1414185955172306,2.4034451173676383,1.0273381002308042,0.0010534523004513707,-0.000954473230257822,0.0008046236451395265,-5.703604410678753e-05,-0.00017010155904728956,-0.00026251769049976954,0.0006945656709536484,0.0,0.0,0.0,0.0,0.0,0.0,0.0,4.306634266981746e-06,-0.0004331484223726312,-0.00014958484748828216,8.964876073314088e-05,8.318883632876806e-05,5.175691956171846e-05,-2.606171549479619e-05,-0.0010534523004513707,0.000954473230257822,-0.0008046236451395265,5.703604410678753e-05,0.00017010155904728956,0.00026251769049976954,-0.0006945656709536484,0.8592159152030945,46.42501449584961,5.786648273468018,-19.634431838989258,-0.7491965889930725,-2.4108920097351074,0.38577598333358765,0
65,0.3200054168701172,-0.8592159152030945,-46.42501449584961,-5.786648273468018,19.634431838989258,0.7491965889930725,2.4108920097351074,-0.38577598333358765,0.0,0.0,0.0,0.0,0.0,0.0,0.0,-0.8096819026090389,-0.1512657881096159,-0.5783887571752282,0.4552341906335819,0.16002438689244936,0.13831238714277064,-0.37367749002177325,0.878088569436157,0.7558928978533135,-0.28240568032183244,-1.6691890102214466,0.14133540668090183,2.4033933604480766,1.027364161946299,0.878092876070424,0.7554597494309409,-0.2825552651693207,-1.6690993614607135,0.1414185955172306,2.4034451173676383,1.0273381002308042,0.0010534523004513707,-0.000954473230257822,0.0008046236451395265,-5.703604410678753e-05,-0.00017010155904728956,-0.00026251769049976954,0.0006945656709536484,0.0,0.0,0.0,0.0,0.0,0.0,0.0,4.306634266981746e-06,-0.0004331484223726312,-0.00014958484748828216,8.964876073314088e-05,8.318883632876806e-05,5.175691956171846e-05,-2.606171549479619e-05,-0.0010534523004513707,0.000954473230257822,-0.0008046236451395265,5.703604410678753e-05,0.00017010155904728956,0.00026251769049976954,-0.0006945656709536484,0.8592159152030945,46.42501449584961,5.786648273468018,-19.634431838989258,-0.7491965889930725,-2.4108920097351074,0.38577598333358765,0
66,0.32500123977661133,-0.8592159152030945,-46.42501449584961,-5.786648273468018,19.634431838989258,0.7491965889930725,2.4108920097351074,-0.38577598333358765,0.0,0.0,0.0,0.0,0.0,0.0,0.0,-0.8096819026090389,-0.1512657881096159,-0.5783887571752282,0.4552341906335819,0.16002438689244936,0.13831238714277064,-0.37367749002177325,0.878088569436157,0.7558928978533135,-0.28240568032183244,-1.6691890102214466,0.14133540668090183,2.4033933604480766,1.027364161946299,0.878092876070424,0.7554597494309409,-0.2825552651693207,-1.6690993614607135,0.1414185955172306,2.4034451173676383,1.0273381002308042,0.0010534523004513707,-0.000954473230257822,0.0008046236451395265,-5.703604410678753e-05,-0.00017010155904728956,-0.00026251769049976954,0.0006945656709536484,0.0,0.0,0.0,0.0,0.0,0.0,0.0,4.306634266981746e-06,-0.0004331484223726312,-0.00014958484748828216,8.964876073314088e-05,8.318883632876806e-05,5.175691956171846e-05,-2.606171549479619e-05,-0.0010534523004513707,0.000954473230257822,-0.0008046236451395265,5.703604410678753e-05,0.00017010155904728956,0.00026251769049976954,-0.0006945656709536484,0.8592159152030945,46.42501449584961,5.786648273468018,-19.634431838989258,-0.7491965889930725,-2.4108920097351074,0.38577598333358765,0
67,0.33000683784484863,-0.8592159152030945,-46.42501449584961,-5.786648273468018,19.634431838989258,0.7491965889930725,2.4108920097351074,-0.38577598333358765,0.0,0.0,0.0,0.0,0.0,0.0,0.0,-0.8096819026090389,-0.1512657881096159,-0.5783887571752282,0.4552341906335819,0.16002438689244936,0.13831238714277064,-0.37367749002177325,0.878088569436157,0.7558928978533135,-0.28240568032183244,-1.6691890102214466,0.14133540668090183,2.4033933604480766,1.027364161946299,0.878092876070424,0.7554597494309409,-0.2825552651693207,-1.6690993614607135,0.1414185955172306,2.4034451173676383,1.0273381002308042,0.0010534523004513707,-0.000954473230257822,0.0008046236451395265,-5.703604410678753e-05,-0.00017010155904728956,-0.00026251769049976954,0.0006945656709536484,0.0,0.0,0.0,0.0,0.0,0.0,0.0,4.306634266981746e-06,-0.0004331484223726312,-0.00014958484748828216,8.964876073314088e-05,8.318883632876806e-05,5.175691956171846e-05,-2.606171549479619e-05,-0.0010534523004513707,0.000954473230257822,-0.0008046236451395265,5.703604410678753e-05,0.00017010155904728956,0.00026251769049976954,-0.0006945656709536484,0.8592159152030945,46.42501449584961,5.786648273468018,-19.634431838989258,-0.7491965889930725,-2.4108920097351074,0.38577598333358765,0
68,0.3350217342376709,-0.8354122042655945,-46.47658920288086,-5.762844562530518,19.686006546020508,0.7546897530555725,2.3980746269226074,-0.38577598333358765,0.0,0.0,0.0,0.0,0.0,0.0,0.0,-0.8233249401731465,-0.17309626824077395,-0.5900375505723119,0.46730037373110034,0.16040001960947753,0.14082857525062983,-0.3737046409362441,0.8780868990003017,0.7558965171309996,-0.2824073507576658,-1.6691926294627946,0.14133479632933935,2.403390506821515,1.027364084913913,0.878092876070424,0.7554597494309409,-0.2825552651693207,-1.6690993614607135,0.1414185955172306,2.4034451173676383,1.0273381002308042,-0.0002502484351451014,-0.0002881189360168245,0.0001355214029020806,-0.000757233963948513,-0.0005387490868986498,0.00014760709910685178,0.00031826014754635594,0.0,0.0,0.0,0.0,0.0,0.0,0.0,5.977070122287209e-06,-0.0004367677000587378,-0.0001479144116549036,9.326800208109276e-05,8.379918789125362e-05,5.4610546123434744e-05,-2.5984683108770668e-05,0.0002502484351451014,0.0002881189360168245,-0.0001355214029020806,0.000757233963948513,0.0005387490868986498,-0.00014760709910685178,-0.00031826014754635594,0.8354122042655945,46.47658920288086,5.762844562530518,-19.686006546020508,-0.7546897530555725,-2.3980746269226074,0.38577598333358765,0
69,0.34000682830810547,-0.8354122042655945,-46.47658920288086,-5.762844562530518,19.686006546020508,0.7546897530555725,2.3980746269226074,-0.38577598333358765,0.0,0.0,0.0,0.0,0.0,0.0,0.0,-0.8233249401731465,-0.17309626824077395,-0.5900375505723119,0.46730037373110034,0.16040001960947753,0.14082857525062983,-0.3737046409362441,0.8780868990003017,0.7558965171309996,-0.2824073507576658,-1.6691926294627946,0.14133479632933935,2.403390506821515,1.027364084913913,0.878092876070424,0.7554597494309409,-0.2825552651693207,-1.6690993614607135,0.1414185955172306,2.4034451173676383,1.0273381002308042,-0.0002502484351451014,-0.0002881189360168245,0.0001355214029020806,-0.000757233963948513,-0.0005387490868986498,0.00014760709910685178,0.00031826014754635594,0.0,0.0,0.0,0.0,0.0,0.0,0.0,5.977070122287209e-06,-0.0004367677000587378,-0.0001479144116549036,9.326800208109276e-05,8.379918789125362e-05,5.4610546123434744e-05,-2.5984683108770668e-05,0.0002502484351451014,0.0002881189360168245,-0.0001355214029020806,0.000757233963948513,0.0005387490868986498,-0.00014760709910685178,-0.00031826014754635594,0.8354122042655945,46.47658920288086,5.762844562530518,-19.686006546020508,-0.7546897530555725,-2.3980746269226074,0.38577598333358765,0
70,0.34500718116760254,-0.8869869112968445,-46.50039291381836,-5.762844562530518,19.634431838989258,0.7427878975868225,2.3980746269226074,-0.36471885442733765,0.0,0.0,0.0,0.0,0.0,0.0,0.0,-0.8125920104960548,-0.17122934870540696,-0.5796740295949956,0.4666598213059635,0.15985831714357188,0.14040415086209276,-0.3734678993405515,0.8780905182779881,0.7558981876038662,-0.28240758696866547,-1.669189010185108,0.14133611875772475,2.403390990829599,1.0273615053953686,0.878092876070424,0.7554597494309409,-0.2825552651693207,-1.6690993614607135,0.1414185955172306,2.4034451173676383,1.0273381002308042,0.001362220678903701,0.00012943751460152035,0.0006090214237432942,0.0006887415200913656,5.036006638581148e-05,0.00037353331932582826,-0.00062661631765049,0.0,0.0,0.0,0.0,0.0,0.0,0.0,2.35779243584755e-06,-0.00043843817292532616,-0.0001476782006552546,8.964872439443106e-05,8.24767595058451e-05,5.412653803915646e-05,-2.340516456444952e-05,-0.001362220678903701,-0.00012943751460152035,-0.0006090214237432942,-0.0006887415200913656,-5.036006638581148e-05,-0.00037353331932582826,0.00062661631765049,0.8869869112968445,46.50039291381836,5.762844562530518,-19.634431838989258,-0.7427878975868225,-2.3980746269226074,0.36471885442733765,0
71,0.3499593734741211,-0.8869869112968445,-46.50039291381836,-5.762844562530518,19.634431838989258,0.7427878975868225,2.3980746269226074,-0.36471885442733765,0.0,0.0,0.0,0.0,0.0,0.0,0.0,-0.8125920104960548,-0.17122934870540696,-0.5796740295949956,0.4666598213059635,0.15985831714357188,0.14040415086209276,-0.3734678993405515,0.8780905182779881,0.7558981876038662,-0.28240758696866547,-1.669189010185108,0.14133611875772475,2.403390990829599,1.0273615053953686,0.878092876070424,0.7554597494309409,-0.2825552651693207,-1.6690993614607135,0.1414185955172306,2.4034451173676383,1.0273381002308042,0.001362220678903701,0.00012943751460152035,0.0006090214237432942,0.0006887415200913656,5.036006638581148e-05,0.00037353331932582826,-0.00062661631765049,0.0,0.0,0.0,0.0,0.0,0.0,0.0,2.35779243584755e-06,-0.00043843817292532616,-0.0001476782006552546,8.964872439443106e-05,8.24767595058451e-05,5.412653803915646e-05,-2.340516456444952e-05,-0.001362220678903701,-0.00012943751460152035,-0.0006090214237432942,-0.0006887415200913656,-5.036006638581148e-05,-0.00037353331932582826,0.00062661631765049,0.8869869112968445,46.50039291381836,5.762844562530518,-19.634431838989258,-0.7427878975868225,-2.3980746269226074,0.36471885442733765,0
72,0.3550088405609131,-0.8076412081718445,-46.50039291381836,-5.735073566436768,19.658235549926758,0.7546897530555725,2.4044833183288574,-0.39950889348983765,0.0,0.0,0.0,0.0,0.0,0.0,0.0,-0.8283838730279423,-0.16183291892127372,-0.5882721471654418,0.4606081315982208,0.16020839874716392,0.13992570114684819,-0.3742581834719378,0.8780849501584705,0.7558981876038668,-0.28240929959994143,-1.669190680620963,0.14133479632933935,2.4033897947214546,1.027362196402848,0.878092876070424,0.7554597494309409,-0.2825552651693207,-1.6690993614607135,0.1414185955172306,2.4034451173676383,1.0273381002308042,-0.0005787985449403296,0.0003901769466359263,-0.0006593096645813211,0.0003184018710998549,-0.0003040405498257732,0.00015153931273977704,0.0012099745784395779,0.0,0.0,0.0,0.0,0.0,0.0,0.0,7.925911953421405e-06,-0.0004384381729259923,-0.00014596556937929162,9.13191602496255e-05,8.379918789125362e-05,5.532264618368643e-05,-2.4096172043908126e-05,0.0005787985449403296,-0.0003901769466359263,0.0006593096645813211,-0.0003184018710998549,0.0003040405498257732,-0.00015153931273977704,-0.0012099745784395779,0.8076412081718445,46.50039291381836,5.735073566436768,-19.658235549926758,-0.7546897530555725,-2.4044833183288574,0.39950889348983765,0
73,0.3599996566772461,-0.8076412081718445,-46.50039291381836,-5.735073566436768,19.658235549926758,0.7546897530555725,2.4044833183288574,-0.39950889348983765,0.0,0.0,0.0,0.0,0.0,0.0,0.0,-0.8283838730279423,-0.16183291892127372,-0.5882721471654418,0.4606081315982208,0.16020839874716392,0.13992570114684819,-0.3742581834719378,0.8780849501584705,0.7558981876038668,-0.28240929959994143,-1.669190680620963,0.14133479632933935,2.4033897947214546,1.027362196402848,0.878092876070424,0.7554597494309409,-0.2825552651693207,-1.6690993614607135,0.1414185955172306,2.4034451173676383,1.0273381002308042,-0.0005787985449403296,0.0003901769466359263,-0.0006593096645813211,0.0003184018710998549,-0.0003040405498257732,0.00015153931273977704,0.0012099745784395779,0.0,0.0,0.0,0.0,0.0,0.0,0.0,7.925911953421405e-06,-0.0004384381729259923,-0.00014596556937929162,9.13191602496255e-05,8.379918789125362e-05,5.532264618368643e-05,-2.4096172043908126e-05,0.0005787985449403296,-0.0003901769466359263,0.0006593096645813211,-0.0003184018710998549,0.0003040405498257732,-0.00015153931273977704,-0.0012099745784395779,0.8076412081718445,46.50039291381836,5.735073566436768,-19.658235549926758,-0.7546897530555725,-2.4044833183288574,0.39950889348983765,0
74,0.3650076389312744,-0.8076412081718445,-46.50039291381836,-5.834255695343018,19.658235549926758,0.7427878975868225,2.4108920097351074,-0.37845176458358765,0.0,0.0,0.0,0.0,0.0,0.0,0.0,-0.8198445889057461,-0.17146019128663442,-0.5826955465544974,0.46382209439597255,0.1605210239849206,0.1404867803455419,-0.3734319612809128,0.8780849501584705,0.7558981066592875,-0.2824023394501,-1.669190680620963,0.14133611875772475,2.4033923792956786,1.0273590320152082,0.878092876070424,0.7554597494309409,-0.2825552651693207,-1.6690993614607135,0.1414185955172306,2.4034451173676383,1.0273381002308042,-9.792167691865691e-05,-0.0002330676893353971,0.0016235940463355046,-5.7958890806013186e-05,4.610261296760724e-05,-0.00014171930623832696,0.0002209947696526268,0.0,0.0,0.0,0.0,0.0,0.0,0.0,7.925911953421405e-06,-0.0004383572283466197,-0.00015292571922070897,9.13191602496255e-05,8.24767595058451e-05,5.2738071959712585e-05,-2.093178440398802e-05,9.792167691865691e-05,0.0002330676893353971,-0.0016235940463355046,5.7958890806013186e-05,-4.610261296760724e-05,0.00014171930623832696,-0.0002209947696526268,0.8076412081718445,46.50039291381836,5.834255695343018,-19.658235549926758,-0.7427878975868225,-2.4108920097351074,0.37845176458358765,0
75,0.37000107765197754,-0.8076412081718445,-46.50039291381836,-5.834255695343018,19.658235549926758,0.7427878975868225,2.4108920097351074,-0.37845176458358765,0.0,0.0,0.0,0.0,0.0,0.0,0.0,-0.8198445889057461,-0.17146019128663442,-0.5826955465544974,0.46382209439597255,0.1605210239849206,0.1404867803455419,-0.3734319612809128,0.8780849501584705,0.7558981066592875,-0.2824023394501,-1.669190680620963,0.14133611875772475,2.4033923792956786,1.0273590320152082,0.878092876070424,0.7554597494309409,-0.2825552651693207,-1.6690993614607135,0.1414185955172306,2.4034451173676383,1.0273381002308042,-9.792167691865691e-05,-0.0002330676893353971,0.0016235940463355046,-5.7958890806013186e-05,4.610261296760724e-05,-0.00014171930623832696,0.0002209947696526268,0.0,0.0,0.0,0.0,0.0,0.0,0.0,7.925911953421405e-06,-0.0004383572283466197,-0.00015292571922070897,9.13191602496255e-05,8.24767595058451e-05,5.2738071959712585e-05,-2.093178440398802e-05,9.792167691865691e-05,0.0002330676893353971,-0.0016235940463355046,5.7958890806013186e-05,-4.610261296760724e-05,0.00014171930623832696,-0.0002209947696526268,0.8076412081718445,46.50039291381836,5.834255695343018,-19.658235549926758,-0.7427878975868225,-2.4108920097351074,0.37845176458358765,0
76,0.375002384185791,-0.8076412081718445,-46.50039291381836,-5.735073566436768,19.686006546020508,0.7427878975868225,2.3980746269226074,-0.36471885442733765,0.0,0.0,0.0,0.0,0.0,0.0,0.0,-0.8231665040318313,-0.169079062001072,-0.5872727192882223,0.4624978105167123,0.16076439511061358,0.14009330747552162,-0.3740350825811257,0.8780849501584705,0.7558981876037145,-0.2824093783364968,-1.6691926294627943,0.14133611875772475,2.403390513263793,1.0273618099348585,0.878092876070424,0.7554597494309409,-0.2825552651693207,-1.6690993614607135,0.1414185955172306,2.4034451173676383,1.0273381002308042,-0.0002813137977229182,0.00024807392176860076,-0.0008486704640119836,-0.0002014996183260118,0.00020107762556555492,0.00017563090940780958,-0.0002611500915578915,0.0,0.0,0.0,0.0,0.0,0.0,0.0,7.925911953421405e-06,-0.0004384381727736697,-0.0001458868328239049,9.326800208087072e-05,8.24767595058451e-05,5.460410384516834e-05,-2.370970405429773e-05,0.0002813137977229182,-0.00024807392176860076,0.0008486704640119836,0.0002014996183260118,-0.00020107762556555492,-0.00017563090940780958,0.0002611500915578915,0.8076412081718445,46.50039291381836,5.735073566436768,-19.686006546020508,-0.7427878975868225,-2.3980746269226074,0.36471885442733765,0
77,0.38037586212158203,-0.8076412081718445,-46.50039291381836,-5.735073566436768,19.686006546020508,0.7427878975868225,2.3980746269226074,-0.36471885442733765,0.0,0.0,0.0,0.0,0.0,0.0,0.0,-0.8231665040318313,-0.169079062001072,-0.5872727192882223,0.4624978105167123,0.16076439511061358,0.14009330747552162,-0.3740350825811257,0.8780849501584705,0.7558981876037145,-0.2824093783364968,-1.6691926294627943,0.14133611875772475,2.403390513263793,1.0273618099348585,0.878092876070424,0.7554597494309409,-0.2825552651693207,-1.6690993614607135,0.1414185955172306,2.4034451173676383,1.0273381002308042,-0.0002813137977229182,0.00024807392176860076,-0.0008486704640119836,-0.0002014996183260118,0.00020107762556555492,0.00017563090940780958,-0.0002611500915578915,0.0,0.0,0.0,0.0,0.0,0.0,0.0,7.925911953421405e-06,-0.0004384381727736697,-0.0001458868328239049,9.326800208087072e-05,8.24767595058451e-05,5.460410384516834e-05,-2.370970405429773e-05,0.0002813137977229182,-0.00024807392176860076,0.0008486704640119836,0.0002014996183260118,-0.00020107762556555492,-0.00017563090940780958,0.0002611500915578915,0.8076412081718445,46.50039291381836,5.735073566436768,-19.686006546020508,-0.7427878975868225,-2.3980746269226074,0.36471885442733765,0
78,0.3849964141845703,-0.8076412081718445,-46.47658920288086,-5.735073566436768,19.658235549926758,0.7491965889930725,2.3980746269226074,-0.35831016302108765,0.0,0.0,0.0,0.0,0.0,0.0,0.0,-0.824065932827824,-0.16324488065584558,-0.5885072284698357,0.4574008459408299,0.16098397636670053,0.13868819081785494,-0.37357401276955476,0.8780849501584705,0.7558965171680115,-0.282409308348497,-1.6691906807299794,0.14133540668090183,2.4033909909911406,1.0273611378116485,0.878092876070424,0.7554597494309409,-0.2825552651693207,-1.6690993614607135,0.1414185955172306,2.4034451173676383,1.0273381002308042,-0.0003182358987113494,-0.000642469605665705,-0.0008955535382984067,-0.0005373526934478398,-8.225312916485987e-06,0.0002214776546933156,-0.0009844356148072538,0.0,0.0,0.0,0.0,0.0,0.0,0.0,7.925911953421405e-06,-0.00043676773707068683,-0.00014595682082374495,9.1319269265977e-05,8.318883632876806e-05,5.412637649770957e-05,-2.3037580844320615e-05,0.0003182358987113494,0.000642469605665705,0.0008955535382984067,0.0005373526934478398,8.225312916485987e-06,-0.0002214776546933156,0.0009844356148072538,0.8076412081718445,46.47658920288086,5.735073566436768,-19.658235549926758,-0.7491965889930725,-2.3980746269226074,0.35831016302108765,0
79,0.39000463485717773,-0.8076412081718445,-46.47658920288086,-5.735073566436768,19.658235549926758,0.7491965889930725,2.3980746269226074,-0.35831016302108765,0.0,0.0,0.0,0.0,0.0,0.0,0.0,-0.824065932827824,-0.16324488065584558,-0.5885072284698357,0.4574008459408299,0.16098397636670053,0.13868819081785494,-0.37357401276955476,0.8780849501584705,0.7558965171680115,-0.282409308348497,-1.6691906807299794,0.14133540668090183,2.4033909909911406,1.0273611378116485,0.878092876070424,0.7554597494309409,-0.2825552651693207,-1.6690993614607135,0.1414185955172306,2.4034451173676383,1.0273381002308042,-0.0003182358987113494,-0.000642469605665705,-0.0008955535382984067,-0.0005373526934478398,-8.225312916485987e-06,0.0002214776546933156,-0.0009844356148072538,0.0,0.0,0.0,0.0,0.0,0.0,0.0,7.925911953421405e-06,-0.00043676773707068683,-0.00014595682082374495,9.1319269265977e-05,8.318883632876806e-05,5.412637649770957e-05,-2.3037580844320615e-05,0.0003182358987113494,0.000642469605665705,0.0008955535382984067,0.0005373526934478398,8.225312916485987e-06,-0.0002214776546933156,0.0009844356148072538,0.8076412081718445,46.47658920288086,5.735073566436768,-19.658235549926758,-0.7491965889930725,-2.3980746269226074,0.35831016302108765,0
80,0.3950486183166504,-0.8592159152030945,-46.47658920288086,-5.762844562530518,19.610628128051758,0.7372947335243225,2.3980746269226074,-0.33084434270858765,0.0,0.0,0.0,0.0,0.0,0.0,0.0,-0.8239289901622364,-0.16499301893556867,-0.5895041388960082,0.45810180713860843,0.1612777361027375,0.13884104904932226,-0.3747417367153395,0.878088569436157,0.7558957886667976,-0.282407350757814,-1.6691873397492543,0.14133672910928727,2.403390511650734,1.0273549187679276,0.878092876070424,0.7554597494309409,-0.2825552651693207,-1.6690993614607135,0.1414185955172306,2.4034451173676383,1.0273381002308042,0.0005883518154288649,-0.00036376351525101093,3.62197017394113e-05,0.0010503865938469288,0.0002673243875653161,0.00015441047823576106,-0.001708332242793593,0.0,0.0,0.0,0.0,0.0,0.0,0.0,4.306634266981746e-06,-0.00043603923585677773,-0.00014791441150674434,8.797828854079093e-05,8.186640794333178e-05,5.460571690418803e-05,-1.6818537123430843e-05,-0.0005883518154288649,0.00036376351525101093,-3.62197017394113e-05,-0.0010503865938469288,-0.0002673243875653161,-0.00015441047823576106,0.001708332242793593,0.8592159152030945,46.47658920288086,5.762844562530518,-19.610628128051758,-0.7372947335243225,-2.3980746269226074,0.33084434270858765,0
