rezayati/contactInterpretation/dataset/franka_main/labeled_data/link7/a2_7.csv
index,time,tau_J0,tau_J1,tau_J2,tau_J3,tau_J4,tau_J5,tau_J6,tau_J_d0,tau_J_d1,tau_J_d2,tau_J_d3,tau_J_d4,tau_J_d5,tau_J_d6,tau_ext0,tau_ext1,tau_ext2,tau_ext3,tau_ext4,tau_ext5,tau_ext6,q0,q1,q2,q3,q4,q5,q6,q_d0,q_d1,q_d2,q_d3,q_d4,q_d5,q_d6,dq0,dq1,dq2,dq3,dq4,dq5,dq6,dq_d0,dq_d1,dq_d2,dq_d3,dq_d4,dq_d5,dq_d6,e0,e1,e2,e3,e4,e5,e6,de0,de1,de2,de3,de4,de5,de6,etau_J0,etau_J1,etau_J2,etau_J3,etau_J4,etau_J5,etau_J6,label
1,0.0,-0.24825400114059448,-11.727136611938477,0.9934418201446533,21.717256546020508,0.4690452218055725,2.5335726737976074,-0.33725303411483765,0.0,0.0,0.0,0.0,0.0,0.0,0.0,-0.2862002781334558,0.6347867775480106,-0.1871339178482744,0.41473287041914453,-0.0649556159966381,0.13851102348282943,-0.321699650175748,0.17290027627192045,-0.4874655350091164,-0.1113024937810315,-1.9465671050088444,0.13344737209876378,2.595396344555749,0.9452654945951985,0.1728802376190821,-0.48752024683155326,-0.11147110072896137,-1.9463801863486305,0.1336059019074957,2.595550359778934,0.9452445589611904,-0.0009037483547227728,0.0009381723091054017,7.312225107807652e-05,-0.00047142934197086985,2.5235228530279598e-05,0.00012871598721454514,0.0010739192510522693,0.0,0.0,0.0,0.0,0.0,0.0,0.0,-2.0038652838338944e-05,-5.471182243688144e-05,-0.0001686069479298613,0.00018691866021391945,0.00015852980873190536,0.00015401522318514438,-2.093563400806797e-05,0.0009037483547227728,-0.0009381723091054017,-7.312225107807652e-05,0.00047142934197086985,-2.5235228530279598e-05,-0.00012871598721454514,-0.0010739192510522693,0.24825400114059448,11.727136611938477,-0.9934418201446533,-21.717256546020508,-0.4690452218055725,-2.5335726737976074,0.33725303411483765,0
2,0.004997730255126953,-0.2720577120780945,-11.699365615844727,0.9934418201446533,21.717256546020508,0.4571433663368225,2.5335726737976074,-0.26858848333358765,0.0,0.0,0.0,0.0,0.0,0.0,0.0,-0.2835496759372996,0.6121520315557119,-0.18373086787188053,0.4258427545649142,-0.06510602670939722,0.1401270824109122,-0.3220328572734559,0.17290194670777573,-0.48746748385094757,-0.11130250258608079,-1.9465671050088444,0.1334486945271492,2.595396344555749,0.9452545490558927,0.1728802376190821,-0.48752024683155326,-0.11147110072896137,-1.9463801863486305,0.1336059019074957,2.595550359778934,0.9452445589611904,-0.0003699492985737967,-0.000271553207812569,0.00040342581211625316,-4.38100580397459e-05,0.0004184631431783178,0.00015933574898332304,-0.0015877530012894257,0.0,0.0,0.0,0.0,0.0,0.0,0.0,-2.170908869361665e-05,-5.2762980605691734e-05,-0.0001685981428805744,0.00018691866021391945,0.00015720738034649684,0.00015401522318514438,-9.99009470226131e-06,0.0003699492985737967,0.000271553207812569,-0.00040342581211625316,4.38100580397459e-05,-0.0004184631431783178,-0.00015933574898332304,0.0015877530012894257,0.2720577120780945,11.699365615844727,-0.9934418201446533,-21.717256546020508,-0.4571433663368225,-2.5335726737976074,0.26858848333358765,0
3,0.010008811950683594,-0.2720577120780945,-11.699365615844727,0.9934418201446533,21.717256546020508,0.4571433663368225,2.5335726737976074,-0.26858848333358765,0.0,0.0,0.0,0.0,0.0,0.0,0.0,-0.2835496759372996,0.6121520315557119,-0.18373086787188053,0.4258427545649142,-0.06510602670939722,0.1401270824109122,-0.3220328572734559,0.17290194670777573,-0.48746748385094757,-0.11130250258608079,-1.9465671050088444,0.1334486945271492,2.595396344555749,0.9452545490558927,0.1728802376190821,-0.48752024683155326,-0.11147110072896137,-1.9463801863486305,0.1336059019074957,2.595550359778934,0.9452445589611904,-0.0003699492985737967,-0.000271553207812569,0.00040342581211625316,-4.38100580397459e-05,0.0004184631431783178,0.00015933574898332304,-0.0015877530012894257,0.0,0.0,0.0,0.0,0.0,0.0,0.0,-2.170908869361665e-05,-5.2762980605691734e-05,-0.0001685981428805744,0.00018691866021391945,0.00015720738034649684,0.00015401522318514438,-9.99009470226131e-06,0.0003699492985737967,0.000271553207812569,-0.00040342581211625316,4.38100580397459e-05,-0.0004184631431783178,-0.00015933574898332304,0.0015877530012894257,0.2720577120780945,11.699365615844727,-0.9934418201446533,-21.717256546020508,-0.4571433663368225,-2.5335726737976074,0.26858848333358765,0
4,0.01500391960144043,-0.2720577120780945,-11.675561904907227,0.9696381092071533,21.717256546020508,0.4571433663368225,2.5463900566101074,-0.26858848333358765,0.0,0.0,0.0,0.0,0.0,0.0,0.0,-0.2877190638973717,0.6109423018002743,-0.19161502350860357,0.4254794970039696,-0.06518409312273755,0.1398833151480315,-0.3211644268831342,0.17290194670777573,-0.4874691542868028,-0.1113005952791215,-1.9465671050088444,0.1334486945271492,2.595394920402103,0.9452549537351708,0.1728802376190821,-0.48752024683155326,-0.11147110072896137,-1.9463801863486305,0.1336059019074957,2.595550359778934,0.9452445589611904,-0.0004022887656034487,-0.0008929409425163409,0.0004812955726224303,1.684408414942851e-05,0.0005163357958890976,-0.0002929180947672747,-0.0019940961899582053,0.0,0.0,0.0,0.0,0.0,0.0,0.0,-2.170908869361665e-05,-5.109254475044178e-05,-0.00017050544983986116,0.00018691866021391945,0.00015720738034649684,0.00015543937683082376,-1.0394773980348937e-05,0.0004022887656034487,0.0008929409425163409,-0.0004812955726224303,-1.684408414942851e-05,-0.0005163357958890976,0.0002929180947672747,0.0019940961899582053,0.2720577120780945,11.675561904907227,-0.9696381092071533,-21.717256546020508,-0.4571433663368225,-2.5463900566101074,0.26858848333358765,0
5,0.02001357078552246,-0.2720577120780945,-11.675561904907227,0.9696381092071533,21.717256546020508,0.4571433663368225,2.5463900566101074,-0.26858848333358765,0.0,0.0,0.0,0.0,0.0,0.0,0.0,-0.2877190638973717,0.6109423018002743,-0.19161502350860357,0.4254794970039696,-0.06518409312273755,0.1398833151480315,-0.3211644268831342,0.17290194670777573,-0.4874691542868028,-0.1113005952791215,-1.9465671050088444,0.1334486945271492,2.595394920402103,0.9452549537351708,0.1728802376190821,-0.48752024683155326,-0.11147110072896137,-1.9463801863486305,0.1336059019074957,2.595550359778934,0.9452445589611904,-0.0004022887656034487,-0.0008929409425163409,0.0004812955726224303,1.684408414942851e-05,0.0005163357958890976,-0.0002929180947672747,-0.0019940961899582053,0.0,0.0,0.0,0.0,0.0,0.0,0.0,-2.170908869361665e-05,-5.109254475044178e-05,-0.00017050544983986116,0.00018691866021391945,0.00015720738034649684,0.00015543937683082376,-1.0394773980348937e-05,0.0004022887656034487,0.0008929409425163409,-0.0004812955726224303,-1.684408414942851e-05,-0.0005163357958890976,0.0002929180947672747,0.0019940961899582053,0.2720577120780945,11.675561904907227,-0.9696381092071533,-21.717256546020508,-0.4571433663368225,-2.5463900566101074,0.26858848333358765,0
6,0.025009870529174805,-0.2720577120780945,-11.675561904907227,0.9696381092071533,21.717256546020508,0.4571433663368225,2.5463900566101074,-0.26858848333358765,0.0,0.0,0.0,0.0,0.0,0.0,0.0,-0.2877190638973717,0.6109423018002743,-0.19161502350860357,0.4254794970039696,-0.06518409312273755,0.1398833151480315,-0.3211644268831342,0.17290194670777573,-0.4874691542868028,-0.1113005952791215,-1.9465671050088444,0.1334486945271492,2.595394920402103,0.9452549537351708,0.1728802376190821,-0.48752024683155326,-0.11147110072896137,-1.9463801863486305,0.1336059019074957,2.595550359778934,0.9452445589611904,-0.0004022887656034487,-0.0008929409425163409,0.0004812955726224303,1.684408414942851e-05,0.0005163357958890976,-0.0002929180947672747,-0.0019940961899582053,0.0,0.0,0.0,0.0,0.0,0.0,0.0,-2.170908869361665e-05,-5.109254475044178e-05,-0.00017050544983986116,0.00018691866021391945,0.00015720738034649684,0.00015543937683082376,-1.0394773980348937e-05,0.0004022887656034487,0.0008929409425163409,-0.0004812955726224303,-1.684408414942851e-05,-0.0005163357958890976,0.0002929180947672747,0.0019940961899582053,0.2720577120780945,11.675561904907227,-0.9696381092071533,-21.717256546020508,-0.4571433663368225,-2.5463900566101074,0.26858848333358765,0
7,0.029999494552612305,-0.2720577120780945,-11.675561904907227,0.9696381092071533,21.717256546020508,0.4571433663368225,2.5463900566101074,-0.26858848333358765,0.0,0.0,0.0,0.0,0.0,0.0,0.0,-0.2877190638973717,0.6109423018002743,-0.19161502350860357,0.4254794970039696,-0.06518409312273755,0.1398833151480315,-0.3211644268831342,0.17290194670777573,-0.4874691542868028,-0.1113005952791215,-1.9465671050088444,0.1334486945271492,2.595394920402103,0.9452549537351708,0.1728802376190821,-0.48752024683155326,-0.11147110072896137,-1.9463801863486305,0.1336059019074957,2.595550359778934,0.9452445589611904,-0.0004022887656034487,-0.0008929409425163409,0.0004812955726224303,1.684408414942851e-05,0.0005163357958890976,-0.0002929180947672747,-0.0019940961899582053,0.0,0.0,0.0,0.0,0.0,0.0,0.0,-2.170908869361665e-05,-5.109254475044178e-05,-0.00017050544983986116,0.00018691866021391945,0.00015720738034649684,0.00015543937683082376,-1.0394773980348937e-05,0.0004022887656034487,0.0008929409425163409,-0.0004812955726224303,-1.684408414942851e-05,-0.0005163357958890976,0.0002929180947672747,0.0019940961899582053,0.2720577120780945,11.675561904907227,-0.9696381092071533,-21.717256546020508,-0.4571433663368225,-2.5463900566101074,0.26858848333358765,0
8,0.03500175476074219,-0.2998287081718445,-11.699365615844727,0.9934418201446533,21.669649124145508,0.4571433663368225,2.5463900566101074,-0.33725303411483765,0.0,0.0,0.0,0.0,0.0,0.0,0.0,-0.2899762721620155,0.6317055692747531,-0.1966402406827687,0.4170400645028995,-0.06556131144306715,0.13806123097965614,-0.32133672973443306,0.17290389554960686,-0.48746748385094757,-0.11130250215175651,-1.946563764137134,0.1334486945271492,2.595394920402103,0.9452654899606107,0.1728802376190821,-0.48752024683155326,-0.11147110072896137,-1.9463801863486305,0.1336059019074957,2.595550359778934,0.9452445589611904,-0.000298783944414955,0.0005003933258518783,-0.00033991015990417884,0.0013092106085686708,0.00026800939705408144,-0.0003963155897362669,0.001432880139029409,0.0,0.0,0.0,0.0,0.0,0.0,0.0,-2.3657930524750848e-05,-5.2762980605691734e-05,-0.00016859857720485927,0.00018357778850353057,0.00015720738034649684,0.00015543937683082376,-2.0930999420243346e-05,0.000298783944414955,-0.0005003933258518783,0.00033991015990417884,-0.0013092106085686708,-0.00026800939705408144,0.0003963155897362669,-0.001432880139029409,0.2998287081718445,11.699365615844727,-0.9934418201446533,-21.669649124145508,-0.4571433663368225,-2.5463900566101074,0.33725303411483765,0
9,0.039999961853027344,-0.2998287081718445,-11.699365615844727,0.9934418201446533,21.669649124145508,0.4571433663368225,2.5463900566101074,-0.33725303411483765,0.0,0.0,0.0,0.0,0.0,0.0,0.0,-0.2899762721620155,0.6317055692747531,-0.1966402406827687,0.4170400645028995,-0.06556131144306715,0.13806123097965614,-0.32133672973443306,0.17290389554960686,-0.48746748385094757,-0.11130250215175651,-1.946563764137134,0.1334486945271492,2.595394920402103,0.9452654899606107,0.1728802376190821,-0.48752024683155326,-0.11147110072896137,-1.9463801863486305,0.1336059019074957,2.595550359778934,0.9452445589611904,-0.000298783944414955,0.0005003933258518783,-0.00033991015990417884,0.0013092106085686708,0.00026800939705408144,-0.0003963155897362669,0.001432880139029409,0.0,0.0,0.0,0.0,0.0,0.0,0.0,-2.3657930524750848e-05,-5.2762980605691734e-05,-0.00016859857720485927,0.00018357778850353057,0.00015720738034649684,0.00015543937683082376,-2.0930999420243346e-05,0.000298783944414955,-0.0005003933258518783,0.00033991015990417884,-0.0013092106085686708,-0.00026800939705408144,0.0003963155897362669,-0.001432880139029409,0.2998287081718445,11.699365615844727,-0.9934418201446533,-21.669649124145508,-0.4571433663368225,-2.5463900566101074,0.33725303411483765,0
10,0.044997453689575195,-0.2720577120780945,-11.600183486938477,0.9934418201446533,21.693452835083008,0.4690452218055725,2.5271639823913574,-0.28964561223983765,0.0,0.0,0.0,0.0,0.0,0.0,0.0,-0.286747120114794,0.6278774973443222,-0.19243033155771658,0.42398129987812666,-0.06669749420188344,0.13834222390330939,-0.320921136675562,0.17290194670777573,-0.48747444400034445,-0.11130247530480687,-1.9465654345729893,0.13344737209876378,2.5953970566325717,0.9452614725735049,0.1728802376190821,-0.48752024683155326,-0.11147110072896137,-1.9463801863486305,0.1336059019074957,2.595550359778934,0.9452445589611904,-0.0005039664180694415,-0.0016792997737591336,-0.00014488425529056342,0.0007010397974695336,-0.00014444326952840398,0.00032006881445965614,-0.0009527366867644826,0.0,0.0,0.0,0.0,0.0,0.0,0.0,-2.170908869361665e-05,-4.580283120880768e-05,-0.00016862542415449489,0.000185248224358725,0.00015852980873190536,0.0001533031463623047,-1.6913612314484183e-05,0.0005039664180694415,0.0016792997737591336,0.00014488425529056342,-0.0007010397974695336,0.00014444326952840398,-0.00032006881445965614,0.0009527366867644826,0.2720577120780945,11.600183486938477,-0.9934418201446533,-21.693452835083008,-0.4690452218055725,-2.5271639823913574,0.28964561223983765,0
11,0.04999852180480957,-0.2720577120780945,-11.600183486938477,0.9934418201446533,21.693452835083008,0.4690452218055725,2.5271639823913574,-0.28964561223983765,0.0,0.0,0.0,0.0,0.0,0.0,0.0,-0.286747120114794,0.6278774973443222,-0.19243033155771658,0.42398129987812666,-0.06669749420188344,0.13834222390330939,-0.320921136675562,0.17290194670777573,-0.48747444400034445,-0.11130247530480687,-1.9465654345729893,0.13344737209876378,2.5953970566325717,0.9452614725735049,0.1728802376190821,-0.48752024683155326,-0.11147110072896137,-1.9463801863486305,0.1336059019074957,2.595550359778934,0.9452445589611904,-0.0005039664180694415,-0.0016792997737591336,-0.00014488425529056342,0.0007010397974695336,-0.00014444326952840398,0.00032006881445965614,-0.0009527366867644826,0.0,0.0,0.0,0.0,0.0,0.0,0.0,-2.170908869361665e-05,-4.580283120880768e-05,-0.00016862542415449489,0.000185248224358725,0.00015852980873190536,0.0001533031463623047,-1.6913612314484183e-05,0.0005039664180694415,0.0016792997737591336,0.00014488425529056342,-0.0007010397974695336,0.00014444326952840398,-0.00032006881445965614,0.0009527366867644826,0.2720577120780945,11.600183486938477,-0.9934418201446533,-21.693452835083008,-0.4690452218055725,-2.5271639823913574,0.28964561223983765,0
12,0.054999351501464844,-0.2720577120780945,-11.699365615844727,0.9696381092071533,21.693452835083008,0.4690452218055725,2.5463900566101074,-0.32352012395858765,0.0,0.0,0.0,0.0,0.0,0.0,0.0,-0.2908688319647748,0.6204519799581949,-0.1993593402405233,0.4323289671823374,-0.06666806835353961,0.13897662256533228,-0.32058321192707956,0.17290194670777573,-0.48746748385094757,-0.11130080584313295,-1.9465654345729893,0.13344737209876378,2.595394920402103,0.9452649212210271,0.1728802376190821,-0.48752024683155326,-0.11147110072896137,-1.9463801863486305,0.1336059019074957,2.595550359778934,0.9452445589611904,-0.0007164502051672645,0.0003277636345547398,0.0004916281866325806,0.0006289629327710837,-0.00015300968670878173,-6.815344010004847e-05,0.0006562282652694872,0.0,0.0,0.0,0.0,0.0,0.0,0.0,-2.170908869361665e-05,-5.2762980605691734e-05,-0.000170294885828412,0.000185248224358725,0.00015852980873190536,0.00015543937683082376,-2.03622598367037e-05,0.0007164502051672645,-0.0003277636345547398,-0.0004916281866325806,-0.0006289629327710837,0.00015300968670878173,6.815344010004847e-05,-0.0006562282652694872,0.2720577120780945,11.699365615844727,-0.9696381092071533,-21.693452835083008,-0.4690452218055725,-2.5463900566101074,0.32352012395858765,0
13,0.06000208854675293,-0.2720577120780945,-11.699365615844727,0.9696381092071533,21.693452835083008,0.4690452218055725,2.5463900566101074,-0.32352012395858765,0.0,0.0,0.0,0.0,0.0,0.0,0.0,-0.2908688319647748,0.6204519799581949,-0.1993593402405233,0.4323289671823374,-0.06666806835353961,0.13897662256533228,-0.32058321192707956,0.17290194670777573,-0.48746748385094757,-0.11130080584313295,-1.9465654345729893,0.13344737209876378,2.595394920402103,0.9452649212210271,0.1728802376190821,-0.48752024683155326,-0.11147110072896137,-1.9463801863486305,0.1336059019074957,2.595550359778934,0.9452445589611904,-0.0007164502051672645,0.0003277636345547398,0.0004916281866325806,0.0006289629327710837,-0.00015300968670878173,-6.815344010004847e-05,0.0006562282652694872,0.0,0.0,0.0,0.0,0.0,0.0,0.0,-2.170908869361665e-05,-5.2762980605691734e-05,-0.000170294885828412,0.000185248224358725,0.00015852980873190536,0.00015543937683082376,-2.03622598367037e-05,0.0007164502051672645,-0.0003277636345547398,-0.0004916281866325806,-0.0006289629327710837,0.00015300968670878173,6.815344010004847e-05,-0.0006562282652694872,0.2720577120780945,11.699365615844727,-0.9696381092071533,-21.693452835083008,-0.4690452218055725,-2.5463900566101074,0.32352012395858765,0
14,0.06499791145324707,-0.19667929410934448,-11.699365615844727,1.0172455310821533,21.717256546020508,0.4626365303993225,2.5399813652038574,-0.33725303411483765,0.0,0.0,0.0,0.0,0.0,0.0,0.0,-0.28527477909396526,0.6346313994303286,-0.19078227343136422,0.4257924302462846,-0.06754249495985472,0.13815878007460378,-0.32012774114610065,0.17289665699423404,-0.48746748385094757,-0.1113041725888004,-1.9465671050088444,0.1334480841755867,2.595395632478926,0.9452633047567054,0.1728802376190821,-0.48752024683155326,-0.11147110072896137,-1.9463801863486305,0.1336059019074957,2.595550359778934,0.9452445589611904,-0.0021806579430764684,6.768465330392986e-05,-0.00020079752632826885,-0.00020465071000281705,6.0703995523778544e-05,-1.8297712554826776e-05,0.0017521312130987438,0.0,0.0,0.0,0.0,0.0,0.0,0.0,-1.641937515192704e-05,-5.2762980605691734e-05,-0.0001669281401609629,0.00018691866021391945,0.0001578177319089824,0.00015472730000798407,-1.8745795514973906e-05,0.0021806579430764684,-6.768465330392986e-05,0.00020079752632826885,0.00020465071000281705,-6.0703995523778544e-05,1.8297712554826776e-05,-0.0017521312130987438,0.19667929410934448,11.699365615844727,-1.0172455310821533,-21.717256546020508,-0.4626365303993225,-2.5399813652038574,0.33725303411483765,0
15,0.07000184059143066,-0.19667929410934448,-11.699365615844727,1.0172455310821533,21.717256546020508,0.4626365303993225,2.5399813652038574,-0.33725303411483765,0.0,0.0,0.0,0.0,0.0,0.0,0.0,-0.28527477909396526,0.6346313994303286,-0.19078227343136422,0.4257924302462846,-0.06754249495985472,0.13815878007460378,-0.32012774114610065,0.17289665699423404,-0.48746748385094757,-0.1113041725888004,-1.9465671050088444,0.1334480841755867,2.595395632478926,0.9452633047567054,0.1728802376190821,-0.48752024683155326,-0.11147110072896137,-1.9463801863486305,0.1336059019074957,2.595550359778934,0.9452445589611904,-0.0021806579430764684,6.768465330392986e-05,-0.00020079752632826885,-0.00020465071000281705,6.0703995523778544e-05,-1.8297712554826776e-05,0.0017521312130987438,0.0,0.0,0.0,0.0,0.0,0.0,0.0,-1.641937515192704e-05,-5.2762980605691734e-05,-0.0001669281401609629,0.00018691866021391945,0.0001578177319089824,0.00015472730000798407,-1.8745795514973906e-05,0.0021806579430764684,-6.768465330392986e-05,0.00020079752632826885,0.00020465071000281705,-6.0703995523778544e-05,1.8297712554826776e-05,-0.0017521312130987438,0.19667929410934448,11.699365615844727,-1.0172455310821533,-21.717256546020508,-0.4626365303993225,-2.5399813652038574,0.33725303411483765,0
16,0.07500123977661133,-0.2998287081718445,-11.699365615844727,0.9934418201446533,21.717256546020508,0.4745383858680725,2.5399813652038574,-0.28232139348983765,0.0,0.0,0.0,0.0,0.0,0.0,0.0,-0.2853299191167899,0.6296865774165815,-0.19097936214564196,0.42713981931956974,-0.06805883865700323,0.13889868183596674,-0.31923568864612156,0.17290389554960686,-0.48746748385094757,-0.11130226582323353,-1.9465671050088444,0.13344676174720127,2.595395632478926,0.9452593362342819,0.1728802376190821,-0.48752024683155326,-0.11147110072896137,-1.9463801863486305,0.1336059019074957,2.595550359778934,0.9452445589611904,0.0008405845395372055,-0.0005761601991141748,0.0009040008493445717,0.0001425207441392326,-0.0004535483716509817,-8.051667235578542e-06,-0.0007648852375960526,0.0,0.0,0.0,0.0,0.0,0.0,0.0,-2.3657930524750848e-05,-5.2762980605691734e-05,-0.00016883490572783266,0.00018691866021391945,0.0001591401602944187,0.00015472730000798407,-1.477727309151522e-05,-0.0008405845395372055,0.0005761601991141748,-0.0009040008493445717,-0.0001425207441392326,0.0004535483716509817,8.051667235578542e-06,0.0007648852375960526,0.2998287081718445,11.699365615844727,-0.9934418201446533,-21.717256546020508,-0.4745383858680725,-2.5399813652038574,0.28232139348983765,0
17,0.08000040054321289,-0.2998287081718445,-11.699365615844727,0.9934418201446533,21.717256546020508,0.4745383858680725,2.5399813652038574,-0.28232139348983765,0.0,0.0,0.0,0.0,0.0,0.0,0.0,-0.2853299191167899,0.6296865774165815,-0.19097936214564196,0.42713981931956974,-0.06805883865700323,0.13889868183596674,-0.31923568864612156,0.17290389554960686,-0.48746748385094757,-0.11130226582323353,-1.9465671050088444,0.13344676174720127,2.595395632478926,0.9452593362342819,0.1728802376190821,-0.48752024683155326,-0.11147110072896137,-1.9463801863486305,0.1336059019074957,2.595550359778934,0.9452445589611904,0.0008405845395372055,-0.0005761601991141748,0.0009040008493445717,0.0001425207441392326,-0.0004535483716509817,-8.051667235578542e-06,-0.0007648852375960526,0.0,0.0,0.0,0.0,0.0,0.0,0.0,-2.3657930524750848e-05,-5.2762980605691734e-05,-0.00016883490572783266,0.00018691866021391945,0.0001591401602944187,0.00015472730000798407,-1.477727309151522e-05,-0.0008405845395372055,0.0005761601991141748,-0.0009040008493445717,-0.0001425207441392326,0.0004535483716509817,8.051667235578542e-06,0.0007648852375960526,0.2998287081718445,11.699365615844727,-0.9934418201446533,-21.717256546020508,-0.4745383858680725,-2.5399813652038574,0.28232139348983765,0
18,0.08502388000488281,-0.2998287081718445,-11.750940322875977,1.0172455310821533,21.717256546020508,0.4626365303993225,2.5335726737976074,-0.28964561223983765,0.0,0.0,0.0,0.0,0.0,0.0,0.0,-0.29143246127746325,0.6192395341206458,-0.20225805274610906,0.4297180420842309,-0.0668802688224272,0.13981316140307087,-0.3183013404036695,0.17290389554960686,-0.48746386457326113,-0.11130417301797615,-1.9465671050088444,0.1334480841755867,2.595396344555749,0.9452604020434079,0.1728802376190821,-0.48752024683155326,-0.11147110072896137,-1.9463801863486305,0.1336059019074957,2.595550359778934,0.9452445589611904,0.0003881376897697162,0.000252813105243134,-0.0002906645837679875,0.0002656438890330358,-0.0009498679591212512,0.00023314851069205123,-0.0010174034924290707,0.0,0.0,0.0,0.0,0.0,0.0,0.0,-2.3657930524750848e-05,-5.638225829213139e-05,-0.00016692771098521242,0.00018691866021391945,0.0001578177319089824,0.00015401522318514438,-1.584308221747044e-05,-0.0003881376897697162,-0.000252813105243134,0.0002906645837679875,-0.0002656438890330358,0.0009498679591212512,-0.00023314851069205123,0.0010174034924290707,0.2998287081718445,11.750940322875977,-1.0172455310821533,-21.717256546020508,-0.4626365303993225,-2.5335726737976074,0.28964561223983765,0
19,0.09003877639770508,-0.2998287081718445,-11.750940322875977,1.0172455310821533,21.717256546020508,0.4626365303993225,2.5335726737976074,-0.28964561223983765,0.0,0.0,0.0,0.0,0.0,0.0,0.0,-0.29143246127746325,0.6192395341206458,-0.20225805274610906,0.4297180420842309,-0.0668802688224272,0.13981316140307087,-0.3183013404036695,0.17290389554960686,-0.48746386457326113,-0.11130417301797615,-1.9465671050088444,0.1334480841755867,2.595396344555749,0.9452604020434079,0.1728802376190821,-0.48752024683155326,-0.11147110072896137,-1.9463801863486305,0.1336059019074957,2.595550359778934,0.9452445589611904,0.0003881376897697162,0.000252813105243134,-0.0002906645837679875,0.0002656438890330358,-0.0009498679591212512,0.00023314851069205123,-0.0010174034924290707,0.0,0.0,0.0,0.0,0.0,0.0,0.0,-2.3657930524750848e-05,-5.638225829213139e-05,-0.00016692771098521242,0.00018691866021391945,0.0001578177319089824,0.00015401522318514438,-1.584308221747044e-05,-0.0003881376897697162,-0.000252813105243134,0.0002906645837679875,-0.0002656438890330358,0.0009498679591212512,-0.00023314851069205123,0.0010174034924290707,0.2998287081718445,11.750940322875977,-1.0172455310821533,-21.717256546020508,-0.4626365303993225,-2.5335726737976074,0.28964561223983765,0
20,0.0950009822845459,-0.2998287081718445,-11.727136611938477,0.9934418201446533,21.768831253051758,0.4690452218055725,2.5463900566101074,-0.33725303411483765,0.0,0.0,0.0,0.0,0.0,0.0,0.0,-0.2856261948123119,0.620036861440784,-0.1915326562735558,0.42562539090473217,-0.0678251027441446,0.14000480020083425,-0.31931831688206347,0.17290389554960686,-0.4874655350091164,-0.11130037168399336,-1.9465707242865309,0.13344737209876378,2.595394920402103,0.9452635441279411,0.1728802376190821,-0.48752024683155326,-0.11147110072896137,-1.9463801863486305,0.1336059019074957,2.595550359778934,0.9452445589611904,0.0006413617415773025,-0.00018469915365562563,-6.8296156180182e-05,-0.0008642359439159125,-0.00010970148679665171,-0.00016268685653927583,0.0012456315259131837,0.0,0.0,0.0,0.0,0.0,0.0,0.0,-2.3657930524750848e-05,-5.471182243688144e-05,-0.0001707290449680099,0.0001905379379003591,0.00015852980873190536,0.00015543937683082376,-1.8985166750695726e-05,-0.0006413617415773025,0.00018469915365562563,6.8296156180182e-05,0.0008642359439159125,0.00010970148679665171,0.00016268685653927583,-0.0012456315259131837,0.2998287081718445,11.727136611938477,-0.9934418201446533,-21.768831253051758,-0.4690452218055725,-2.5463900566101074,0.33725303411483765,0
21,0.10000252723693848,-0.2998287081718445,-11.727136611938477,0.9934418201446533,21.768831253051758,0.4690452218055725,2.5463900566101074,-0.33725303411483765,0.0,0.0,0.0,0.0,0.0,0.0,0.0,-0.2856261948123119,0.620036861440784,-0.1915326562735558,0.42562539090473217,-0.0678251027441446,0.14000480020083425,-0.31931831688206347,0.17290389554960686,-0.4874655350091164,-0.11130037168399336,-1.9465707242865309,0.13344737209876378,2.595394920402103,0.9452635441279411,0.1728802376190821,-0.48752024683155326,-0.11147110072896137,-1.9463801863486305,0.1336059019074957,2.595550359778934,0.9452445589611904,0.0006413617415773025,-0.00018469915365562563,-6.8296156180182e-05,-0.0008642359439159125,-0.00010970148679665171,-0.00016268685653927583,0.0012456315259131837,0.0,0.0,0.0,0.0,0.0,0.0,0.0,-2.3657930524750848e-05,-5.471182243688144e-05,-0.0001707290449680099,0.0001905379379003591,0.00015852980873190536,0.00015543937683082376,-1.8985166750695726e-05,-0.0006413617415773025,0.00018469915365562563,6.8296156180182e-05,0.0008642359439159125,0.00010970148679665171,0.00016268685653927583,-0.0012456315259131837,0.2998287081718445,11.727136611938477,-0.9934418201446533,-21.768831253051758,-0.4690452218055725,-2.5463900566101074,0.33725303411483765,0
22,0.10504889488220215,-0.2720577120780945,-11.750940322875977,1.0410492420196533,21.741060256958008,0.4626365303993225,2.5463900566101074,-0.31711143255233765,0.0,0.0,0.0,0.0,0.0,0.0,0.0,-0.28435152664687163,0.6249456717951422,-0.18651486076617968,0.41808808839691725,-0.06819403891373607,0.13894788535617864,-0.31966161095973006,0.17290194670777573,-0.48746386457326113,-0.1113058434097256,-1.9465687754446999,0.1334480841755867,2.595394920402103,0.9452609446688717,0.1728802376190821,-0.48752024683155326,-0.11147110072896137,-1.9463801863486305,0.1336059019074957,2.595550359778934,0.9452445589611904,-0.0001281459861499931,0.000640788289844088,-0.0010650869289564253,-0.0009093860661723669,0.00015541005969463672,-0.00019230523965386526,-0.00025649792678674946,0.0,0.0,0.0,0.0,0.0,0.0,0.0,-2.170908869361665e-05,-5.638225829213139e-05,-0.0001652573192357648,0.00018858909606933594,0.0001578177319089824,0.00015543937683082376,-1.638570768125458e-05,0.0001281459861499931,-0.000640788289844088,0.0010650869289564253,0.0009093860661723669,-0.00015541005969463672,0.00019230523965386526,0.00025649792678674946,0.2720577120780945,11.750940322875977,-1.0410492420196533,-21.741060256958008,-0.4626365303993225,-2.5463900566101074,0.31711143255233765,0
23,0.1100006103515625,-0.2720577120780945,-11.750940322875977,1.0410492420196533,21.741060256958008,0.4626365303993225,2.5463900566101074,-0.31711143255233765,0.0,0.0,0.0,0.0,0.0,0.0,0.0,-0.28435152664687163,0.6249456717951422,-0.18651486076617968,0.41808808839691725,-0.06819403891373607,0.13894788535617864,-0.31966161095973006,0.17290194670777573,-0.48746386457326113,-0.1113058434097256,-1.9465687754446999,0.1334480841755867,2.595394920402103,0.9452609446688717,0.1728802376190821,-0.48752024683155326,-0.11147110072896137,-1.9463801863486305,0.1336059019074957,2.595550359778934,0.9452445589611904,-0.0001281459861499931,0.000640788289844088,-0.0010650869289564253,-0.0009093860661723669,0.00015541005969463672,-0.00019230523965386526,-0.00025649792678674946,0.0,0.0,0.0,0.0,0.0,0.0,0.0,-2.170908869361665e-05,-5.638225829213139e-05,-0.0001652573192357648,0.00018858909606933594,0.0001578177319089824,0.00015543937683082376,-1.638570768125458e-05,0.0001281459861499931,-0.000640788289844088,0.0010650869289564253,0.0009093860661723669,-0.00015541005969463672,0.00019230523965386526,0.00025649792678674946,0.2720577120780945,11.750940322875977,-1.0410492420196533,-21.741060256958008,-0.4626365303993225,-2.5463900566101074,0.31711143255233765,0
24,0.11499977111816406,-0.2720577120780945,-11.750940322875977,1.0410492420196533,21.741060256958008,0.4626365303993225,2.5463900566101074,-0.31711143255233765,0.0,0.0,0.0,0.0,0.0,0.0,0.0,-0.28435152664687163,0.6249456717951422,-0.18651486076617968,0.41808808839691725,-0.06819403891373607,0.13894788535617864,-0.31966161095973006,0.17290194670777573,-0.48746386457326113,-0.1113058434097256,-1.9465687754446999,0.1334480841755867,2.595394920402103,0.9452609446688717,0.1728802376190821,-0.48752024683155326,-0.11147110072896137,-1.9463801863486305,0.1336059019074957,2.595550359778934,0.9452445589611904,-0.0001281459861499931,0.000640788289844088,-0.0010650869289564253,-0.0009093860661723669,0.00015541005969463672,-0.00019230523965386526,-0.00025649792678674946,0.0,0.0,0.0,0.0,0.0,0.0,0.0,-2.170908869361665e-05,-5.638225829213139e-05,-0.0001652573192357648,0.00018858909606933594,0.0001578177319089824,0.00015543937683082376,-1.638570768125458e-05,0.0001281459861499931,-0.000640788289844088,0.0010650869289564253,0.0009093860661723669,-0.00015541005969463672,0.00019230523965386526,0.00025649792678674946,0.2720577120780945,11.750940322875977,-1.0410492420196533,-21.741060256958008,-0.4626365303993225,-2.5463900566101074,0.31711143255233765,0
25,0.12000179290771484,-0.3514034152030945,-11.699365615844727,0.9934418201446533,21.717256546020508,0.4690452218055725,2.5463900566101074,-0.30337852239608765,0.0,0.0,0.0,0.0,0.0,0.0,0.0,-0.2848573360203526,0.6240296110336321,-0.1858062902975963,0.41568201553997314,-0.06824745489762173,0.13868496723449233,-0.3216782535379567,0.17290751482729327,-0.48746748385094757,-0.11130250258613023,-1.9465671050088444,0.13344737209876378,2.595394920402103,0.945259517230961,0.1728802376190821,-0.48752024683155326,-0.11147110072896137,-1.9463801863486305,0.1336059019074957,2.595550359778934,0.9452445589611904,0.0018067656843490812,-0.0008161892779607594,0.0004526252900083123,-0.00039702573532096266,0.00039012794541911456,-0.00020616244554798105,3.3717205943975404e-05,0.0,0.0,0.0,0.0,0.0,0.0,0.0,-2.727720821116275e-05,-5.2762980605691734e-05,-0.00016859814283114172,0.00018691866021391945,0.00015852980873190536,0.00015543937683082376,-1.4958269770604105e-05,-0.0018067656843490812,0.0008161892779607594,-0.0004526252900083123,0.00039702573532096266,-0.00039012794541911456,0.00020616244554798105,-3.3717205943975404e-05,0.3514034152030945,11.699365615844727,-0.9934418201446533,-21.717256546020508,-0.4690452218055725,-2.5463900566101074,0.30337852239608765,0
26,0.12500596046447754,-0.3514034152030945,-11.699365615844727,0.9934418201446533,21.717256546020508,0.4690452218055725,2.5463900566101074,-0.30337852239608765,0.0,0.0,0.0,0.0,0.0,0.0,0.0,-0.2848573360203526,0.6240296110336321,-0.1858062902975963,0.41568201553997314,-0.06824745489762173,0.13868496723449233,-0.3216782535379567,0.17290751482729327,-0.48746748385094757,-0.11130250258613023,-1.9465671050088444,0.13344737209876378,2.595394920402103,0.945259517230961,0.1728802376190821,-0.48752024683155326,-0.11147110072896137,-1.9463801863486305,0.1336059019074957,2.595550359778934,0.9452445589611904,0.0018067656843490812,-0.0008161892779607594,0.0004526252900083123,-0.00039702573532096266,0.00039012794541911456,-0.00020616244554798105,3.3717205943975404e-05,0.0,0.0,0.0,0.0,0.0,0.0,0.0,-2.727720821116275e-05,-5.2762980605691734e-05,-0.00016859814283114172,0.00018691866021391945,0.00015852980873190536,0.00015543937683082376,-1.4958269770604105e-05,-0.0018067656843490812,0.0008161892779607594,-0.0004526252900083123,0.00039702573532096266,-0.00039012794541911456,0.00020616244554798105,-3.3717205943975404e-05,0.3514034152030945,11.699365615844727,-0.9934418201446533,-21.717256546020508,-0.4690452218055725,-2.5463900566101074,0.30337852239608765,0
27,0.12999963760375977,-0.3236324191093445,-11.699365615844727,0.9696381092071533,21.768831253051758,0.4571433663368225,2.5335726737976074,-0.33084434270858765,0.0,0.0,0.0,0.0,0.0,0.0,0.0,-0.28855834443061024,0.6164907805222641,-0.19082048434209503,0.4184091639798303,-0.06799822297143988,0.1393371515919837,-0.3207467423201422,0.1729055659854621,-0.48746748385094757,-0.11129987632970105,-1.9465707242865309,0.1334486945271492,2.595396344555749,0.9452660905903008,0.1728802376190821,-0.48752024683155326,-0.11147110072896137,-1.9463801863486305,0.1336059019074957,2.595550359778934,0.9452445589611904,0.0006343376828150825,-0.0005168883806913062,0.0005499182199049536,-0.001587570502569063,0.00025233051921277937,0.0002849000986104703,0.000977763020248322,0.0,0.0,0.0,0.0,0.0,0.0,0.0,-2.53283663800008e-05,-5.2762980605691734e-05,-0.00017122439926031685,0.0001905379379003591,0.00015720738034649684,0.00015401522318514438,-2.1531629110338457e-05,-0.0006343376828150825,0.0005168883806913062,-0.0005499182199049536,0.001587570502569063,-0.00025233051921277937,-0.0002849000986104703,-0.000977763020248322,0.3236324191093445,11.699365615844727,-0.9696381092071533,-21.768831253051758,-0.4571433663368225,-2.5335726737976074,0.33084434270858765,0
28,0.13500142097473145,-0.3236324191093445,-11.699365615844727,0.9696381092071533,21.768831253051758,0.4571433663368225,2.5335726737976074,-0.33084434270858765,0.0,0.0,0.0,0.0,0.0,0.0,0.0,-0.28855834443061024,0.6164907805222641,-0.19082048434209503,0.4184091639798303,-0.06799822297143988,0.1393371515919837,-0.3207467423201422,0.1729055659854621,-0.48746748385094757,-0.11129987632970105,-1.9465707242865309,0.1334486945271492,2.595396344555749,0.9452660905903008,0.1728802376190821,-0.48752024683155326,-0.11147110072896137,-1.9463801863486305,0.1336059019074957,2.595550359778934,0.9452445589611904,0.0006343376828150825,-0.0005168883806913062,0.0005499182199049536,-0.001587570502569063,0.00025233051921277937,0.0002849000986104703,0.000977763020248322,0.0,0.0,0.0,0.0,0.0,0.0,0.0,-2.53283663800008e-05,-5.2762980605691734e-05,-0.00017122439926031685,0.0001905379379003591,0.00015720738034649684,0.00015401522318514438,-2.1531629110338457e-05,-0.0006343376828150825,0.0005168883806913062,-0.0005499182199049536,0.001587570502569063,-0.00025233051921277937,-0.0002849000986104703,-0.000977763020248322,0.3236324191093445,11.699365615844727,-0.9696381092071533,-21.768831253051758,-0.4571433663368225,-2.5335726737976074,0.33084434270858765,0
29,0.1400008201599121,-0.3236324191093445,-11.675561904907227,0.9696381092071533,21.741060256958008,0.4571433663368225,2.5399813652038574,-0.28232139348983765,0.0,0.0,0.0,0.0,0.0,0.0,0.0,-0.28959710227561036,0.6199480548793087,-0.1884285787693985,0.4186955808229874,-0.068645878430935,0.13906333455686493,-0.3196171860447405,0.1729055659854621,-0.4874691542868028,-0.11129798709281372,-1.9465687754446999,0.1334486945271492,2.595395632478926,0.9452574004467653,0.1728802376190821,-0.48752024683155326,-0.11147110072896137,-1.9463801863486305,0.1336059019074957,2.595550359778934,0.9452445589611904,0.0007710039783273067,-0.0005698536666645997,0.0005018484928619916,-0.00041048002961651254,0.00041228739235643245,0.00012772969586391105,-0.0015233970494322876,0.0,0.0,0.0,0.0,0.0,0.0,0.0,-2.53283663800008e-05,-5.109254475044178e-05,-0.00017311363614765096,0.00018858909606933594,0.00015720738034649684,0.00015472730000798407,-1.284148557489928e-05,-0.0007710039783273067,0.0005698536666645997,-0.0005018484928619916,0.00041048002961651254,-0.00041228739235643245,-0.00012772969586391105,0.0015233970494322876,0.3236324191093445,11.675561904907227,-0.9696381092071533,-21.741060256958008,-0.4571433663368225,-2.5399813652038574,0.28232139348983765,0
30,0.14499974250793457,-0.3236324191093445,-11.675561904907227,0.9696381092071533,21.741060256958008,0.4571433663368225,2.5399813652038574,-0.28232139348983765,0.0,0.0,0.0,0.0,0.0,0.0,0.0,-0.28959710227561036,0.6199480548793087,-0.1884285787693985,0.4186955808229874,-0.068645878430935,0.13906333455686493,-0.3196171860447405,0.1729055659854621,-0.4874691542868028,-0.11129798709281372,-1.9465687754446999,0.1334486945271492,2.595395632478926,0.9452574004467653,0.1728802376190821,-0.48752024683155326,-0.11147110072896137,-1.9463801863486305,0.1336059019074957,2.595550359778934,0.9452445589611904,0.0007710039783273067,-0.0005698536666645997,0.0005018484928619916,-0.00041048002961651254,0.00041228739235643245,0.00012772969586391105,-0.0015233970494322876,0.0,0.0,0.0,0.0,0.0,0.0,0.0,-2.53283663800008e-05,-5.109254475044178e-05,-0.00017311363614765096,0.00018858909606933594,0.00015720738034649684,0.00015472730000798407,-1.284148557489928e-05,-0.0007710039783273067,0.0005698536666645997,-0.0005018484928619916,0.00041048002961651254,-0.00041228739235643245,-0.00012772969586391105,0.0015233970494322876,0.3236324191093445,11.675561904907227,-0.9696381092071533,-21.741060256958008,-0.4571433663368225,-2.5399813652038574,0.28232139348983765,0
31,0.14999914169311523,-0.2998287081718445,-11.699365615844727,0.9696381092071533,21.741060256958008,0.4809470772743225,2.5463900566101074,-0.32352012395858765,0.0,0.0,0.0,0.0,0.0,0.0,0.0,-0.2956213261765453,0.618146617094247,-0.1963684783186927,0.41929972779506847,-0.06785004434802241,0.13903785276999323,-0.3203512708189781,0.17290389554960686,-0.48746748385094757,-0.11130083213421481,-1.9465687754446999,0.13344604967037837,2.595394920402103,0.9452641523095465,0.1728802376190821,-0.48752024683155326,-0.11147110072896137,-1.9463801863486305,0.1336059019074957,2.595550359778934,0.9452445589611904,-0.0003370700368498828,-0.00037025704483471735,0.0003477118968391686,-0.001086638667787558,-0.0005454559377607993,-0.0003441647860534253,0.0009308653301989437,0.0,0.0,0.0,0.0,0.0,0.0,0.0,-2.3657930524750848e-05,-5.2762980605691734e-05,-0.00017026859474655875,0.00018858909606933594,0.0001598522371173139,0.00015543937683082376,-1.9593348356106155e-05,0.0003370700368498828,0.00037025704483471735,-0.0003477118968391686,0.001086638667787558,0.0005454559377607993,0.0003441647860534253,-0.0009308653301989437,0.2998287081718445,11.699365615844727,-0.9696381092071533,-21.741060256958008,-0.4809470772743225,-2.5463900566101074,0.32352012395858765,0
32,0.1550154685974121,-0.2998287081718445,-11.699365615844727,0.9696381092071533,21.741060256958008,0.4809470772743225,2.5463900566101074,-0.32352012395858765,0.0,0.0,0.0,0.0,0.0,0.0,0.0,-0.2956213261765453,0.618146617094247,-0.1963684783186927,0.41929972779506847,-0.06785004434802241,0.13903785276999323,-0.3203512708189781,0.17290389554960686,-0.48746748385094757,-0.11130083213421481,-1.9465687754446999,0.13344604967037837,2.595394920402103,0.9452641523095465,0.1728802376190821,-0.48752024683155326,-0.11147110072896137,-1.9463801863486305,0.1336059019074957,2.595550359778934,0.9452445589611904,-0.0003370700368498828,-0.00037025704483471735,0.0003477118968391686,-0.001086638667787558,-0.0005454559377607993,-0.0003441647860534253,0.0009308653301989437,0.0,0.0,0.0,0.0,0.0,0.0,0.0,-2.3657930524750848e-05,-5.2762980605691734e-05,-0.00017026859474655875,0.00018858909606933594,0.0001598522371173139,0.00015543937683082376,-1.9593348356106155e-05,0.0003370700368498828,0.00037025704483471735,-0.0003477118968391686,0.001086638667787558,0.0005454559377607993,0.0003441647860534253,-0.0009308653301989437,0.2998287081718445,11.699365615844727,-0.9696381092071533,-21.741060256958008,-0.4809470772743225,-2.5463900566101074,0.32352012395858765,0
33,0.16000795364379883,-0.2998287081718445,-11.699365615844727,1.0172455310821533,21.717256546020508,0.4571433663368225,2.5463900566101074,-0.33084434270858765,0.0,0.0,0.0,0.0,0.0,0.0,0.0,-0.2945537291854194,0.6236914515626922,-0.19173061748317552,0.41976700620795443,-0.06776452242072037,0.13842097700656011,-0.3202551194898919,0.17290389554960686,-0.48746748385094757,-0.11130417009898697,-1.9465671050088444,0.1334486945271492,2.595394920402103,0.9452646079987322,0.1728802376190821,-0.48752024683155326,-0.11147110072896137,-1.9463801863486305,0.1336059019074957,2.595550359778934,0.9452445589611904,-0.0003370700368498828,0.0003271059675506312,-0.00047844861369265553,-0.0003473249859682991,0.0003330837712213209,-0.00032825167156851564,0.00043032138656029994,0.0,0.0,0.0,0.0,0.0,0.0,0.0,-2.3657930524750848e-05,-5.2762980605691734e-05,-0.00016693062997440167,0.00018691866021391945,0.00015720738034649684,0.00015543937683082376,-2.0049037541824966e-05,0.0003370700368498828,-0.0003271059675506312,0.00047844861369265553,0.0003473249859682991,-0.0003330837712213209,0.00032825167156851564,-0.00043032138656029994,0.2998287081718445,11.699365615844727,-1.0172455310821533,-21.717256546020508,-0.4571433663368225,-2.5463900566101074,0.33084434270858765,0
34,0.16500401496887207,-0.2998287081718445,-11.699365615844727,1.0172455310821533,21.717256546020508,0.4571433663368225,2.5463900566101074,-0.33084434270858765,0.0,0.0,0.0,0.0,0.0,0.0,0.0,-0.2945537291854194,0.6236914515626922,-0.19173061748317552,0.41976700620795443,-0.06776452242072037,0.13842097700656011,-0.3202551194898919,0.17290389554960686,-0.48746748385094757,-0.11130417009898697,-1.9465671050088444,0.1334486945271492,2.595394920402103,0.9452646079987322,0.1728802376190821,-0.48752024683155326,-0.11147110072896137,-1.9463801863486305,0.1336059019074957,2.595550359778934,0.9452445589611904,-0.0003370700368498828,0.0003271059675506312,-0.00047844861369265553,-0.0003473249859682991,0.0003330837712213209,-0.00032825167156851564,0.00043032138656029994,0.0,0.0,0.0,0.0,0.0,0.0,0.0,-2.3657930524750848e-05,-5.2762980605691734e-05,-0.00016693062997440167,0.00018691866021391945,0.00015720738034649684,0.00015543937683082376,-2.0049037541824966e-05,0.0003370700368498828,-0.0003271059675506312,0.00047844861369265553,0.0003473249859682991,-0.0003330837712213209,0.00032825167156851564,-0.00043032138656029994,0.2998287081718445,11.699365615844727,-1.0172455310821533,-21.717256546020508,-0.4571433663368225,-2.5463900566101074,0.33084434270858765,0
35,0.17000937461853027,-0.2998287081718445,-11.699365615844727,1.0172455310821533,21.717256546020508,0.4571433663368225,2.5463900566101074,-0.33084434270858765,0.0,0.0,0.0,0.0,0.0,0.0,0.0,-0.2945537291854194,0.6236914515626922,-0.19173061748317552,0.41976700620795443,-0.06776452242072037,0.13842097700656011,-0.3202551194898919,0.17290389554960686,-0.48746748385094757,-0.11130417009898697,-1.9465671050088444,0.1334486945271492,2.595394920402103,0.9452646079987322,0.1728802376190821,-0.48752024683155326,-0.11147110072896137,-1.9463801863486305,0.1336059019074957,2.595550359778934,0.9452445589611904,-0.0005595914105463488,0.0003271059675506312,-0.00047844861369265553,-0.0003473249859682991,0.0003330837712213209,-0.00032825167156851564,0.00043032138656029994,0.0,0.0,0.0,0.0,0.0,0.0,0.0,-2.3657930524750848e-05,-5.2762980605691734e-05,-0.00016693062997440167,0.00018691866021391945,0.00015720738034649684,0.00015543937683082376,-2.0049037541824966e-05,0.0005595914105463488,-0.0003271059675506312,0.00047844861369265553,0.0003473249859682991,-0.0003330837712213209,0.00032825167156851564,-0.00043032138656029994,0.2998287081718445,11.699365615844727,-1.0172455310821533,-21.717256546020508,-0.4571433663368225,-2.5463900566101074,0.33084434270858765,0
36,0.17500782012939453,-0.2998287081718445,-11.699365615844727,1.0172455310821533,21.717256546020508,0.4571433663368225,2.5463900566101074,-0.33084434270858765,0.0,0.0,0.0,0.0,0.0,0.0,0.0,-0.2945537291854194,0.6236914515626922,-0.19173061748317552,0.41976700620795443,-0.06776452242072037,0.13842097700656011,-0.3202551194898919,0.17290389554960686,-0.48746748385094757,-0.11130417009898697,-1.9465671050088444,0.1334486945271492,2.595394920402103,0.9452646079987322,0.1728802376190821,-0.48752024683155326,-0.11147110072896137,-1.9463801863486305,0.1336059019074957,2.595550359778934,0.9452445589611904,-0.0005595914105463488,0.0003271059675506312,-0.00047844861369265553,-0.0003473249859682991,0.0003330837712213209,-0.00032825167156851564,0.00043032138656029994,0.0,0.0,0.0,0.0,0.0,0.0,0.0,-2.3657930524750848e-05,-5.2762980605691734e-05,-0.00016693062997440167,0.00018691866021391945,0.00015720738034649684,0.00015543937683082376,-2.0049037541824966e-05,0.0005595914105463488,-0.0003271059675506312,0.00047844861369265553,0.0003473249859682991,-0.0003330837712213209,0.00032825167156851564,-0.00043032138656029994,0.2998287081718445,11.699365615844727,-1.0172455310821533,-21.717256546020508,-0.4571433663368225,-2.5463900566101074,0.33084434270858765,0
37,0.18000245094299316,-0.2998287081718445,-11.699365615844727,1.0172455310821533,21.717256546020508,0.4690452218055725,2.5399813652038574,-0.26217979192733765,0.0,0.0,0.0,0.0,0.0,0.0,0.0,-0.2981906397675763,0.620588145123596,-0.1918583623810773,0.42436008559247085,-0.06785223512750503,0.1387944351666994,-0.3206368543653684,0.17290389554960686,-0.48746748385094757,-0.11130416425297315,-1.9465671050088444,0.13344737209876378,2.595395632478926,0.9452541232023163,0.1728802376190821,-0.48752024683155326,-0.11147110072896137,-1.9463801863486305,0.1336059019074957,2.595550359778934,0.9452445589611904,0.0004856314673795879,0.000109808767735963,-0.0004623134799101604,0.0002282087883864966,-0.00018470154365144364,-0.00019066248238537668,-0.0019370795774972642,0.0,0.0,0.0,0.0,0.0,0.0,0.0,-2.3657930524750848e-05,-5.2762980605691734e-05,-0.0001669364759882136,0.00018691866021391945,0.00015852980873190536,0.00015472730000798407,-9.564241125858963e-06,-0.0004856314673795879,-0.000109808767735963,0.0004623134799101604,-0.0002282087883864966,0.00018470154365144364,0.00019066248238537668,0.0019370795774972642,0.2998287081718445,11.699365615844727,-1.0172455310821533,-21.717256546020508,-0.4690452218055725,-2.5399813652038574,0.26217979192733765,0
38,0.18500018119812012,-0.2998287081718445,-11.699365615844727,1.0172455310821533,21.717256546020508,0.4690452218055725,2.5399813652038574,-0.26217979192733765,0.0,0.0,0.0,0.0,0.0,0.0,0.0,-0.2981906397675763,0.620588145123596,-0.1918583623810773,0.42436008559247085,-0.06785223512750503,0.1387944351666994,-0.3206368543653684,0.17290389554960686,-0.48746748385094757,-0.11130416425297315,-1.9465671050088444,0.13344737209876378,2.595395632478926,0.9452541232023163,0.1728802376190821,-0.48752024683155326,-0.11147110072896137,-1.9463801863486305,0.1336059019074957,2.595550359778934,0.9452445589611904,0.0004856314673795879,0.000109808767735963,-0.0004623134799101604,0.0002282087883864966,-0.00018470154365144364,-0.00019066248238537668,-0.0019370795774972642,0.0,0.0,0.0,0.0,0.0,0.0,0.0,-2.3657930524750848e-05,-5.2762980605691734e-05,-0.0001669364759882136,0.00018691866021391945,0.00015852980873190536,0.00015472730000798407,-9.564241125858963e-06,-0.0004856314673795879,-0.000109808767735963,0.0004623134799101604,-0.0002282087883864966,0.00018470154365144364,0.00019066248238537668,0.0019370795774972642,0.2998287081718445,11.699365615844727,-1.0172455310821533,-21.717256546020508,-0.4690452218055725,-2.5399813652038574,0.26217979192733765,0
39,0.19000005722045898,-0.24825400114059448,-11.750940322875977,1.0410492420196533,21.741060256958008,0.4571433663368225,2.5335726737976074,-0.28232139348983765,0.0,0.0,0.0,0.0,0.0,0.0,0.0,-0.2950006841617318,0.6299492700480509,-0.1883865409497318,0.41903632600753965,-0.06831484314247478,0.13732571649908465,-0.3208540961690024,0.17290027627192045,-0.48746386457326113,-0.11130347193151467,-1.9465687754446999,0.1334486945271492,2.595396344555749,0.9452607930098973,0.1728802376190821,-0.48752024683155326,-0.11147110072896137,-1.9463801863486305,0.1336059019074957,2.595550359778934,0.9452445589611904,-0.0008710720309147402,0.0012538315765359554,-0.0005152913604161082,-0.0008276903229328288,0.00036270189961144957,0.00044700809329099894,-0.0011568643828435085,0.0,0.0,0.0,0.0,0.0,0.0,0.0,-2.0038652838338944e-05,-5.638225829213139e-05,-0.000167628797446695,0.00018858909606933594,0.00015720738034649684,0.00015401522318514438,-1.6234048706875726e-05,0.0008710720309147402,-0.0012538315765359554,0.0005152913604161082,0.0008276903229328288,-0.00036270189961144957,-0.00044700809329099894,0.0011568643828435085,0.24825400114059448,11.750940322875977,-1.0410492420196533,-21.741060256958008,-0.4571433663368225,-2.5335726737976074,0.28232139348983765,0
40,0.19880127906799316,-0.24825400114059448,-11.750940322875977,1.0410492420196533,21.741060256958008,0.4571433663368225,2.5335726737976074,-0.28232139348983765,0.0,0.0,0.0,0.0,0.0,0.0,0.0,-0.2950006841617318,0.6299492700480509,-0.1883865409497318,0.41903632600753965,-0.06831484314247478,0.13732571649908465,-0.3208540961690024,0.17290027627192045,-0.48746386457326113,-0.11130347193151467,-1.9465687754446999,0.1334486945271492,2.595396344555749,0.9452607930098973,0.1728802376190821,-0.48752024683155326,-0.11147110072896137,-1.9463801863486305,0.1336059019074957,2.595550359778934,0.9452445589611904,-0.0008710720309147402,0.0012538315765359554,-0.0005152913604161082,-0.0008276903229328288,0.00036270189961144957,0.00044700809329099894,-0.0011568643828435085,0.0,0.0,0.0,0.0,0.0,0.0,0.0,-2.0038652838338944e-05,-5.638225829213139e-05,-0.000167628797446695,0.00018858909606933594,0.00015720738034649684,0.00015401522318514438,-1.6234048706875726e-05,0.0008710720309147402,-0.0012538315765359554,0.0005152913604161082,0.0008276903229328288,-0.00036270189961144957,-0.00044700809329099894,0.0011568643828435085,0.24825400114059448,11.750940322875977,-1.0410492420196533,-21.741060256958008,-0.4571433663368225,-2.5335726737976074,0.28232139348983765,0
41,0.20000123977661133,-0.2998287081718445,-11.727136611938477,1.0688202381134033,21.741060256958008,0.4690452218055725,2.5399813652038574,-0.33725303411483765,0.0,0.0,0.0,0.0,0.0,0.0,0.0,-0.29765010813028897,0.6152863152449433,-0.19375287104225028,0.426902746079625,-0.0680173929890102,0.13915432954458443,-0.32069588832840074,0.17290389554960686,-0.4874655350091164,-0.11130700210230351,-1.9465687754446999,0.13344737209876378,2.595395632478926,0.9452621808863051,0.1728802376190821,-0.48752024683155326,-0.11147110072896137,-1.9463801863486305,0.1336059019074957,2.595550359778934,0.9452445589611904,-2.4601586096710143e-05,-0.00020975744228900878,-0.0014268042118884422,-0.00025891428186838243,-0.00025731721006815473,-8.3791415421364e-05,0.0011671178659130262,0.0,0.0,0.0,0.0,0.0,0.0,0.0,-2.3657930524750848e-05,-5.471182243688144e-05,-0.00016409862665785202,0.00018858909606933594,0.00015852980873190536,0.00015472730000798407,-1.7621925114674752e-05,2.4601586096710143e-05,0.00020975744228900878,0.0014268042118884422,0.00025891428186838243,0.00025731721006815473,8.3791415421364e-05,-0.0011671178659130262,0.2998287081718445,11.727136611938477,-1.0688202381134033,-21.741060256958008,-0.4690452218055725,-2.5399813652038574,0.33725303411483765,0
42,0.2050018310546875,-0.2998287081718445,-11.727136611938477,1.0688202381134033,21.741060256958008,0.4690452218055725,2.5399813652038574,-0.33725303411483765,0.0,0.0,0.0,0.0,0.0,0.0,0.0,-0.29765010813028897,0.6152863152449433,-0.19375287104225028,0.426902746079625,-0.0680173929890102,0.13915432954458443,-0.32069588832840074,0.17290389554960686,-0.4874655350091164,-0.11130700210230351,-1.9465687754446999,0.13344737209876378,2.595395632478926,0.9452621808863051,0.1728802376190821,-0.48752024683155326,-0.11147110072896137,-1.9463801863486305,0.1336059019074957,2.595550359778934,0.9452445589611904,-2.4601586096710143e-05,-0.00020975744228900878,-0.0014268042118884422,-0.00025891428186838243,-0.00025731721006815473,-8.3791415421364e-05,0.0011671178659130262,0.0,0.0,0.0,0.0,0.0,0.0,0.0,-2.3657930524750848e-05,-5.471182243688144e-05,-0.00016409862665785202,0.00018858909606933594,0.00015852980873190536,0.00015472730000798407,-1.7621925114674752e-05,2.4601586096710143e-05,0.00020975744228900878,0.0014268042118884422,0.00025891428186838243,0.00025731721006815473,8.3791415421364e-05,-0.0011671178659130262,0.2998287081718445,11.727136611938477,-1.0688202381134033,-21.741060256958008,-0.4690452218055725,-2.5399813652038574,0.33725303411483765,0
43,0.20999908447265625,-0.24825400114059448,-11.727136611938477,1.0410492420196533,21.693452835083008,0.4690452218055725,2.5335726737976074,-0.31711143255233765,0.0,0.0,0.0,0.0,0.0,0.0,0.0,-0.29670388449055624,0.6171902751986423,-0.1916906470074925,0.4245455347435903,-0.06840303051086416,0.1384172660963498,-0.32026861813354274,0.17290027627192045,-0.4874655350091164,-0.11130584334512111,-1.9465654345729893,0.13344737209876378,2.595396344555749,0.9452602340944843,0.1728802376190821,-0.48752024683155326,-0.11147110072896137,-1.9463801863486305,0.1336059019074957,2.595550359778934,0.9452445589611904,-0.0013196839196978945,-9.801032303487372e-05,-0.0007496921840507084,0.0005065854751655664,-0.00012637028290002556,0.00027025615297293333,0.0003620396351841872,0.0,0.0,0.0,0.0,0.0,0.0,0.0,-2.0038652838338944e-05,-5.471182243688144e-05,-0.00016525738384025324,0.000185248224358725,0.00015852980873190536,0.00015401522318514438,-1.5675133293924226e-05,0.0013196839196978945,9.801032303487372e-05,0.0007496921840507084,-0.0005065854751655664,0.00012637028290002556,-0.00027025615297293333,-0.0003620396351841872,0.24825400114059448,11.727136611938477,-1.0410492420196533,-21.693452835083008,-0.4690452218055725,-2.5335726737976074,0.31711143255233765,0
44,0.21499943733215332,-0.24825400114059448,-11.727136611938477,1.0410492420196533,21.693452835083008,0.4690452218055725,2.5335726737976074,-0.31711143255233765,0.0,0.0,0.0,0.0,0.0,0.0,0.0,-0.29670388449055624,0.6171902751986423,-0.1916906470074925,0.4245455347435903,-0.06840303051086416,0.1384172660963498,-0.32026861813354274,0.17290027627192045,-0.4874655350091164,-0.11130584334512111,-1.9465654345729893,0.13344737209876378,2.595396344555749,0.9452602340944843,0.1728802376190821,-0.48752024683155326,-0.11147110072896137,-1.9463801863486305,0.1336059019074957,2.595550359778934,0.9452445589611904,-0.0013196839196978945,-9.801032303487372e-05,-0.0007496921840507084,0.0005065854751655664,-0.00012637028290002556,0.00027025615297293333,0.0003620396351841872,0.0,0.0,0.0,0.0,0.0,0.0,0.0,-2.0038652838338944e-05,-5.471182243688144e-05,-0.00016525738384025324,0.000185248224358725,0.00015852980873190536,0.00015401522318514438,-1.5675133293924226e-05,0.0013196839196978945,9.801032303487372e-05,0.0007496921840507084,-0.0005065854751655664,0.00012637028290002556,-0.00027025615297293333,-0.0003620396351841872,0.24825400114059448,11.727136611938477,-1.0410492420196533,-21.693452835083008,-0.4690452218055725,-2.5335726737976074,0.31711143255233765,0
45,0.22000980377197266,-0.2998287081718445,-11.699365615844727,1.0172455310821533,21.717256546020508,0.4626365303993225,2.5271639823913574,-0.29605430364608765,0.0,0.0,0.0,0.0,0.0,0.0,0.0,-0.29792783994841293,0.5807040841587832,-0.190685459577877,0.45683938223250536,-0.06796774592860842,0.14333864577743805,-0.3202072052906799,0.17290389554960686,-0.48746748385094757,-0.11130338348755779,-1.9465671050088444,0.1334480841755867,2.5953970566325717,0.9452607786794038,0.1728802376190821,-0.48752024683155326,-0.11147110072896137,-1.9463801863486305,0.1336059019074957,2.595550359778934,0.9452445589611904,5.9416728160369066e-05,-0.00042255477297731893,-0.0006027694204303925,-0.0024111893110965966,4.495611707914266e-05,0.0004915359751297389,-0.00097847677563564,0.0,0.0,0.0,0.0,0.0,0.0,0.0,-2.3657930524750848e-05,-5.2762980605691734e-05,-0.00016771724140357547,0.00018691866021391945,0.0001578177319089824,0.0001533031463623047,-1.6219718213417167e-05,-5.9416728160369066e-05,0.00042255477297731893,0.0006027694204303925,0.0024111893110965966,-4.495611707914266e-05,-0.0004915359751297389,0.00097847677563564,0.2998287081718445,11.699365615844727,-1.0172455310821533,-21.717256546020508,-0.4626365303993225,-2.5271639823913574,0.29605430364608765,0
46,0.22502899169921875,-0.2998287081718445,-11.699365615844727,1.0172455310821533,21.717256546020508,0.4626365303993225,2.5271639823913574,-0.29605430364608765,0.0,0.0,0.0,0.0,0.0,0.0,0.0,-0.29792783994841293,0.5807040841587832,-0.190685459577877,0.45683938223250536,-0.06796774592860842,0.14333864577743805,-0.3202072052906799,0.17290389554960686,-0.48746748385094757,-0.11130338348755779,-1.9465671050088444,0.1334480841755867,2.5953970566325717,0.9452607786794038,0.1728802376190821,-0.48752024683155326,-0.11147110072896137,-1.9463801863486305,0.1336059019074957,2.595550359778934,0.9452445589611904,5.9416728160369066e-05,-0.00042255477297731893,-0.0006027694204303925,-0.0024111893110965966,4.495611707914266e-05,0.0004915359751297389,-0.00097847677563564,0.0,0.0,0.0,0.0,0.0,0.0,0.0,-2.3657930524750848e-05,-5.2762980605691734e-05,-0.00016771724140357547,0.00018691866021391945,0.0001578177319089824,0.0001533031463623047,-1.6219718213417167e-05,-5.9416728160369066e-05,0.00042255477297731893,0.0006027694204303925,0.0024111893110965966,-4.495611707914266e-05,-0.0004915359751297389,0.00097847677563564,0.2998287081718445,11.699365615844727,-1.0172455310821533,-21.717256546020508,-0.4626365303993225,-2.5271639823913574,0.29605430364608765,0
47,0.23000359535217285,-0.2720577120780945,-11.699365615844727,0.9934418201446533,21.669649124145508,0.4690452218055725,2.5399813652038574,-0.30978721380233765,0.0,0.0,0.0,0.0,0.0,0.0,0.0,-0.2947547407573859,0.6076626879001614,-0.18944383836129988,0.43260841241741704,-0.06880242567959113,0.13943980668675948,-0.32173057350081247,0.17290194670777573,-0.48746748385094757,-0.11130036002659935,-1.946563764137134,0.13344737209876378,2.595395632478926,0.9452593662204524,0.1728802376190821,-0.48752024683155326,-0.11147110072896137,-1.9463801863486305,0.1336059019074957,2.595550359778934,0.9452445589611904,-0.0007620541659221192,-2.5758038664672643e-05,-3.740124603442384e-05,0.0011479325687178527,-0.00021239354246267914,5.189288796819278e-05,-0.0008041568606100432,0.0,0.0,0.0,0.0,0.0,0.0,0.0,-2.170908869361665e-05,-5.2762980605691734e-05,-0.00017074070236201833,0.00018357778850353057,0.00015852980873190536,0.00015472730000798407,-1.4807259261950811e-05,0.0007620541659221192,2.5758038664672643e-05,3.740124603442384e-05,-0.0011479325687178527,0.00021239354246267914,-5.189288796819278e-05,0.0008041568606100432,0.2720577120780945,11.699365615844727,-0.9934418201446533,-21.669649124145508,-0.4690452218055725,-2.5399813652038574,0.30978721380233765,0
48,0.23501110076904297,-0.2720577120780945,-11.699365615844727,0.9934418201446533,21.669649124145508,0.4690452218055725,2.5399813652038574,-0.30978721380233765,0.0,0.0,0.0,0.0,0.0,0.0,0.0,-0.2947547407573859,0.6076626879001614,-0.18944383836129988,0.43260841241741704,-0.06880242567959113,0.13943980668675948,-0.32173057350081247,0.17290194670777573,-0.48746748385094757,-0.11130036002659935,-1.946563764137134,0.13344737209876378,2.595395632478926,0.9452593662204524,0.1728802376190821,-0.48752024683155326,-0.11147110072896137,-1.9463801863486305,0.1336059019074957,2.595550359778934,0.9452445589611904,-0.0007620541659221192,-2.5758038664672643e-05,-3.740124603442384e-05,0.0011479325687178527,-0.00021239354246267914,5.189288796819278e-05,-0.0008041568606100432,0.0,0.0,0.0,0.0,0.0,0.0,0.0,-2.170908869361665e-05,-5.2762980605691734e-05,-0.00017074070236201833,0.00018357778850353057,0.00015852980873190536,0.00015472730000798407,-1.4807259261950811e-05,0.0007620541659221192,2.5758038664672643e-05,3.740124603442384e-05,-0.0011479325687178527,0.00021239354246267914,-5.189288796819278e-05,0.0008041568606100432,0.2720577120780945,11.699365615844727,-0.9934418201446533,-21.669649124145508,-0.4690452218055725,-2.5399813652038574,0.30978721380233765,0
49,0.24001765251159668,-0.2720577120780945,-11.727136611938477,0.9696381092071533,21.669649124145508,0.4690452218055725,2.5399813652038574,-0.33084434270858765,0.0,0.0,0.0,0.0,0.0,0.0,0.0,-0.29357639224539006,0.6182654553825501,-0.19131780268822565,0.41913467520161585,-0.0689639297075203,0.138270703821177,-0.32313848632410214,0.17290194670777573,-0.4874655350091164,-0.11130056896003841,-1.946563764137134,0.13344737209876378,2.595395632478926,0.9452651301036519,0.1728802376190821,-0.48752024683155326,-0.11147110072896137,-1.9463801863486305,0.1336059019074957,2.595550359778934,0.9452445589611904,-0.0002493135837484989,0.00010327758850573406,0.000571580165987795,0.0011312574064006754,-5.812308673031775e-05,4.9377204834805894e-05,0.001484916602142758,0.0,0.0,0.0,0.0,0.0,0.0,0.0,-2.170908869361665e-05,-5.471182243688144e-05,-0.00017053176892295463,0.00018357778850353057,0.00015852980873190536,0.00015472730000798407,-2.0571142461456304e-05,0.0002493135837484989,-0.00010327758850573406,-0.000571580165987795,-0.0011312574064006754,5.812308673031775e-05,-4.9377204834805894e-05,-0.001484916602142758,0.2720577120780945,11.727136611938477,-0.9696381092071533,-21.669649124145508,-0.4690452218055725,-2.5399813652038574,0.33084434270858765,0
50,0.245025634765625,-0.2720577120780945,-11.727136611938477,0.9696381092071533,21.669649124145508,0.4690452218055725,2.5399813652038574,-0.33084434270858765,0.0,0.0,0.0,0.0,0.0,0.0,0.0,-0.29357639224539006,0.6182654553825501,-0.19131780268822565,0.41913467520161585,-0.0689639297075203,0.138270703821177,-0.32313848632410214,0.17290194670777573,-0.4874655350091164,-0.11130056896003841,-1.946563764137134,0.13344737209876378,2.595395632478926,0.9452651301036519,0.1728802376190821,-0.48752024683155326,-0.11147110072896137,-1.9463801863486305,0.1336059019074957,2.595550359778934,0.9452445589611904,-0.0002493135837484989,0.00010327758850573406,0.000571580165987795,0.0011312574064006754,-5.812308673031775e-05,4.9377204834805894e-05,0.001484916602142758,0.0,0.0,0.0,0.0,0.0,0.0,0.0,-2.170908869361665e-05,-5.471182243688144e-05,-0.00017053176892295463,0.00018357778850353057,0.00015852980873190536,0.00015472730000798407,-2.0571142461456304e-05,0.0002493135837484989,-0.00010327758850573406,-0.000571580165987795,-0.0011312574064006754,5.812308673031775e-05,-4.9377204834805894e-05,-0.001484916602142758,0.2720577120780945,11.727136611938477,-0.9696381092071533,-21.669649124145508,-0.4690452218055725,-2.5399813652038574,0.33084434270858765,0
51,0.2499990463256836,-0.2720577120780945,-11.699365615844727,0.9934418201446533,21.717256546020508,0.4626365303993225,2.5399813652038574,-0.27591270208358765,0.0,0.0,0.0,0.0,0.0,0.0,0.0,-0.2935029609864487,0.622319638668969,-0.19178533889338095,0.4153337957756461,-0.06857784164647622,0.1385498635637899,-0.3221907994723864,0.17290194670777573,-0.48746748385094757,-0.11130250244128966,-1.9465671050088444,0.1334480841755867,2.595395632478926,0.9452595851911204,0.1728802376190821,-0.48752024683155326,-0.11147110072896137,-1.9463801863486305,0.1336059019074957,2.595550359778934,0.9452445589611904,-0.0009298131176595613,-0.0005629368016338535,-0.00018230503080981866,-0.0001903479579978127,0.00020987105548587968,6.852166286796033e-05,-0.0012150331277268006,0.0,0.0,0.0,0.0,0.0,0.0,0.0,-2.170908869361665e-05,-5.2762980605691734e-05,-0.0001685982876717118,0.00018691866021391945,0.0001578177319089824,0.00015472730000798407,-1.5026229929993029e-05,0.0009298131176595613,0.0005629368016338535,0.00018230503080981866,0.0001903479579978127,-0.00020987105548587968,-6.852166286796033e-05,0.0012150331277268006,0.2720577120780945,11.699365615844727,-0.9934418201446533,-21.717256546020508,-0.4626365303993225,-2.5399813652038574,0.27591270208358765,0
52,0.25501370429992676,-0.2720577120780945,-11.699365615844727,0.9934418201446533,21.717256546020508,0.4626365303993225,2.5399813652038574,-0.27591270208358765,0.0,0.0,0.0,0.0,0.0,0.0,0.0,-0.2935029609864487,0.622319638668969,-0.19178533889338095,0.4153337957756461,-0.06857784164647622,0.1385498635637899,-0.3221907994723864,0.17290194670777573,-0.48746748385094757,-0.11130250244128966,-1.9465671050088444,0.1334480841755867,2.595395632478926,0.9452595851911204,0.1728802376190821,-0.48752024683155326,-0.11147110072896137,-1.9463801863486305,0.1336059019074957,2.595550359778934,0.9452445589611904,-0.0009298131176595613,-0.0005629368016338535,-0.00018230503080981866,-0.0001903479579978127,0.00020987105548587968,6.852166286796033e-05,-0.0012150331277268006,0.0,0.0,0.0,0.0,0.0,0.0,0.0,-2.170908869361665e-05,-5.2762980605691734e-05,-0.0001685982876717118,0.00018691866021391945,0.0001578177319089824,0.00015472730000798407,-1.5026229929993029e-05,0.0009298131176595613,0.0005629368016338535,0.00018230503080981866,0.0001903479579978127,-0.00020987105548587968,-6.852166286796033e-05,0.0012150331277268006,0.2720577120780945,11.699365615844727,-0.9934418201446533,-21.717256546020508,-0.4626365303993225,-2.5399813652038574,0.27591270208358765,0
53,0.26001429557800293,-0.2720577120780945,-11.699365615844727,0.9934418201446533,21.693452835083008,0.4809470772743225,2.5399813652038574,-0.33084434270858765,0.0,0.0,0.0,0.0,0.0,0.0,0.0,-0.2962501771660247,0.6310815087384574,-0.19820201947612306,0.4119870364588677,-0.0684509502364488,0.13826959838805913,-0.3218316611070592,0.17290194670777573,-0.48746748385094757,-0.11130249381713359,-1.9465654345729893,0.13344604967037837,2.595395632478926,0.9452618323396003,0.1728802376190821,-0.48752024683155326,-0.11147110072896137,-1.9463801863486305,0.1336059019074957,2.595550359778934,0.9452445589611904,-0.0007726424849452249,0.00011722786568791474,-0.00035414510258507335,0.00047873696107462457,-0.0004889451528308195,-8.68170614795349e-05,8.182498874956774e-05,0.0,0.0,0.0,0.0,0.0,0.0,0.0,-2.170908869361665e-05,-5.2762980605691734e-05,-0.00016860691182778165,0.000185248224358725,0.0001598522371173139,0.00015472730000798407,-1.7273378409843332e-05,0.0007726424849452249,-0.00011722786568791474,0.00035414510258507335,-0.00047873696107462457,0.0004889451528308195,8.68170614795349e-05,-8.182498874956774e-05,0.2720577120780945,11.699365615844727,-0.9934418201446533,-21.693452835083008,-0.4809470772743225,-2.5399813652038574,0.33084434270858765,0
54,0.265000581741333,-0.2720577120780945,-11.699365615844727,0.9934418201446533,21.693452835083008,0.4809470772743225,2.5399813652038574,-0.33084434270858765,0.0,0.0,0.0,0.0,0.0,0.0,0.0,-0.2962501771660247,0.6310815087384574,-0.19820201947612306,0.4119870364588677,-0.0684509502364488,0.13826959838805913,-0.3218316611070592,0.17290194670777573,-0.48746748385094757,-0.11130249381713359,-1.9465654345729893,0.13344604967037837,2.595395632478926,0.9452618323396003,0.1728802376190821,-0.48752024683155326,-0.11147110072896137,-1.9463801863486305,0.1336059019074957,2.595550359778934,0.9452445589611904,-0.0007726424849452249,0.00011722786568791474,-0.00035414510258507335,0.00047873696107462457,-0.0004889451528308195,-8.68170614795349e-05,8.182498874956774e-05,0.0,0.0,0.0,0.0,0.0,0.0,0.0,-2.170908869361665e-05,-5.2762980605691734e-05,-0.00016860691182778165,0.000185248224358725,0.0001598522371173139,0.00015472730000798407,-1.7273378409843332e-05,0.0007726424849452249,-0.00011722786568791474,0.00035414510258507335,-0.00047873696107462457,0.0004889451528308195,8.68170614795349e-05,-8.182498874956774e-05,0.2720577120780945,11.699365615844727,-0.9934418201446533,-21.693452835083008,-0.4809470772743225,-2.5399813652038574,0.33084434270858765,0
55,0.2700018882751465,-0.2720577120780945,-11.675561904907227,0.9934418201446533,21.717256546020508,0.4745383858680725,2.5399813652038574,-0.26858848333358765,0.0,0.0,0.0,0.0,0.0,0.0,0.0,-0.2961326025255738,0.6361843336017335,-0.20088600838594,0.411948393720844,-0.06810750761264478,0.13840406743244196,-0.3232139148396881,0.17290194670777573,-0.4874691542868028,-0.111302502586081,-1.9465671050088444,0.13344676174720127,2.595395632478926,0.9452580661705432,0.1728802376190821,-0.48752024683155326,-0.11147110072896137,-1.9463801863486305,0.1336059019074957,2.595550359778934,0.9452445589611904,-0.0006438110646319149,0.00022834288904058117,-0.0002881816241968951,-9.12137576925524e-05,-0.00044180621174509275,-6.66573641699154e-05,-0.0019037363029825352,0.0,0.0,0.0,0.0,0.0,0.0,0.0,-2.170908869361665e-05,-5.109254475044178e-05,-0.00016859814288036623,0.00018691866021391945,0.0001591401602944187,0.00015472730000798407,-1.3507209352781047e-05,0.0006438110646319149,-0.00022834288904058117,0.0002881816241968951,9.12137576925524e-05,0.00044180621174509275,6.66573641699154e-05,0.0019037363029825352,0.2720577120780945,11.675561904907227,-0.9934418201446533,-21.717256546020508,-0.4745383858680725,-2.5399813652038574,0.26858848333358765,0
56,0.2749972343444824,-0.2720577120780945,-11.675561904907227,0.9934418201446533,21.717256546020508,0.4745383858680725,2.5399813652038574,-0.26858848333358765,0.0,0.0,0.0,0.0,0.0,0.0,0.0,-0.2961326025255738,0.6361843336017335,-0.20088600838594,0.411948393720844,-0.06810750761264478,0.13840406743244196,-0.3232139148396881,0.17290194670777573,-0.4874691542868028,-0.111302502586081,-1.9465671050088444,0.13344676174720127,2.595395632478926,0.9452580661705432,0.1728802376190821,-0.48752024683155326,-0.11147110072896137,-1.9463801863486305,0.1336059019074957,2.595550359778934,0.9452445589611904,-0.0006438110646319149,0.00022834288904058117,-0.0002881816241968951,-9.12137576925524e-05,-0.00044180621174509275,-6.66573641699154e-05,-0.0019037363029825352,0.0,0.0,0.0,0.0,0.0,0.0,0.0,-2.170908869361665e-05,-5.109254475044178e-05,-0.00016859814288036623,0.00018691866021391945,0.0001591401602944187,0.00015472730000798407,-1.3507209352781047e-05,0.0006438110646319149,-0.00022834288904058117,0.0002881816241968951,9.12137576925524e-05,0.00044180621174509275,6.66573641699154e-05,0.0019037363029825352,0.2720577120780945,11.675561904907227,-0.9934418201446533,-21.717256546020508,-0.4745383858680725,-2.5399813652038574,0.26858848333358765,0
57,0.2800135612487793,-0.2720577120780945,-11.727136611938477,0.9934418201446533,21.717256546020508,0.4745383858680725,2.5335726737976074,-0.26858848333358765,0.0,0.0,0.0,0.0,0.0,0.0,0.0,-0.2893215248726032,0.6913520712287544,-0.19638756967109586,0.3639096373791023,-0.06906885900382059,0.13084819024814934,-0.3227939787574597,0.17290194670777573,-0.4874655350091164,-0.11130250128701998,-1.9465671050088444,0.13344676174720127,2.595396344555749,0.9452578657154891,0.1728802376190821,-0.48752024683155326,-0.11147110072896137,-1.9463801863486305,0.1336059019074957,2.595550359778934,0.9452445589611904,-0.00036081330822678045,0.0011218319940171518,3.412293321789262e-05,0.00047649861330180637,-0.0003339348199152622,0.00019936192302186896,-0.0015175404945693518,0.0,0.0,0.0,0.0,0.0,0.0,0.0,-2.170908869361665e-05,-5.471182243688144e-05,-0.00016859944194139165,0.00018691866021391945,0.0001591401602944187,0.00015401522318514438,-1.3306754298669787e-05,0.00036081330822678045,-0.0011218319940171518,-3.412293321789262e-05,-0.00047649861330180637,0.0003339348199152622,-0.00019936192302186896,0.0015175404945693518,0.2720577120780945,11.727136611938477,-0.9934418201446533,-21.717256546020508,-0.4745383858680725,-2.5335726737976074,0.26858848333358765,0
58,0.2850680351257324,-0.2720577120780945,-11.727136611938477,0.9934418201446533,21.717256546020508,0.4745383858680725,2.5335726737976074,-0.26858848333358765,0.0,0.0,0.0,0.0,0.0,0.0,0.0,-0.2893215248726032,0.6913520712287544,-0.19638756967109586,0.3639096373791023,-0.06906885900382059,0.13084819024814934,-0.3227939787574597,0.17290194670777573,-0.4874655350091164,-0.11130250128701998,-1.9465671050088444,0.13344676174720127,2.595396344555749,0.9452578657154891,0.1728802376190821,-0.48752024683155326,-0.11147110072896137,-1.9463801863486305,0.1336059019074957,2.595550359778934,0.9452445589611904,-0.00036081330822678045,0.0011218319940171518,3.412293321789262e-05,0.00047649861330180637,-0.0003339348199152622,0.00019936192302186896,-0.0015175404945693518,0.0,0.0,0.0,0.0,0.0,0.0,0.0,-2.170908869361665e-05,-5.471182243688144e-05,-0.00016859944194139165,0.00018691866021391945,0.0001591401602944187,0.00015401522318514438,-1.3306754298669787e-05,0.00036081330822678045,-0.0011218319940171518,-3.412293321789262e-05,-0.00047649861330180637,0.0003339348199152622,-0.00019936192302186896,0.0015175404945693518,0.2720577120780945,11.727136611938477,-0.9934418201446533,-21.717256546020508,-0.4745383858680725,-2.5335726737976074,0.26858848333358765,0
59,0.2900207042694092,-0.2998287081718445,-11.727136611938477,1.0172455310821533,21.717256546020508,0.4626365303993225,2.5399813652038574,-0.30337852239608765,0.0,0.0,0.0,0.0,0.0,0.0,0.0,-0.29037602820148617,0.6275923812293799,-0.196685368443542,0.41554011346461295,-0.06806974339956129,0.13847644353257785,-0.32139097917832576,0.17290389554960686,-0.4874655350091164,-0.11130338348755237,-1.9465671050088444,0.1334480841755867,2.595395632478926,0.9452595004137875,0.1728802376190821,-0.48752024683155326,-0.11147110072896137,-1.9463801863486305,0.1336059019074957,2.595550359778934,0.9452445589611904,0.00041231310709234176,0.00018051570842330327,-0.0002963946007627698,-0.00031849301174266304,0.00010472510334379194,-1.2716196964274748e-05,-0.0006487483308019664,0.0,0.0,0.0,0.0,0.0,0.0,0.0,-2.3657930524750848e-05,-5.471182243688144e-05,-0.00016771724140900168,0.00018691866021391945,0.0001578177319089824,0.00015472730000798407,-1.4941452597061478e-05,-0.00041231310709234176,-0.00018051570842330327,0.0002963946007627698,0.00031849301174266304,-0.00010472510334379194,1.2716196964274748e-05,0.0006487483308019664,0.2998287081718445,11.727136611938477,-1.0172455310821533,-21.717256546020508,-0.4626365303993225,-2.5399813652038574,0.30337852239608765,0
60,0.29506945610046387,-0.2998287081718445,-11.727136611938477,1.0172455310821533,21.717256546020508,0.4626365303993225,2.5399813652038574,-0.30337852239608765,0.0,0.0,0.0,0.0,0.0,0.0,0.0,-0.29037602820148617,0.6275923812293799,-0.196685368443542,0.41554011346461295,-0.06806974339956129,0.13847644353257785,-0.32139097917832576,0.17290389554960686,-0.4874655350091164,-0.11130338348755237,-1.9465671050088444,0.1334480841755867,2.595395632478926,0.9452595004137875,0.1728802376190821,-0.48752024683155326,-0.11147110072896137,-1.9463801863486305,0.1336059019074957,2.595550359778934,0.9452445589611904,0.00041231310709234176,0.00018051570842330327,-0.0002963946007627698,-0.00031849301174266304,0.00010472510334379194,-1.2716196964274748e-05,-0.0006487483308019664,0.0,0.0,0.0,0.0,0.0,0.0,0.0,-2.3657930524750848e-05,-5.471182243688144e-05,-0.00016771724140900168,0.00018691866021391945,0.0001578177319089824,0.00015472730000798407,-1.4941452597061478e-05,-0.00041231310709234176,-0.00018051570842330327,0.0002963946007627698,0.00031849301174266304,-0.00010472510334379194,1.2716196964274748e-05,0.0006487483308019664,0.2998287081718445,11.727136611938477,-1.0172455310821533,-21.717256546020508,-0.4626365303993225,-2.5399813652038574,0.30337852239608765,0
61,0.3000361919403076,-0.2998287081718445,-11.727136611938477,0.9934418201446533,21.741060256958008,0.4626365303993225,2.5399813652038574,-0.30337852239608765,0.0,0.0,0.0,0.0,0.0,0.0,0.0,-0.2888085001557771,0.6061101667664304,-0.19486941190890092,0.43071062440552565,-0.06795242673785394,0.1405283792390616,-0.32181065365055367,0.17290389554960686,-0.4874655350091164,-0.11130179218473077,-1.9465687754446999,0.1334480841755867,2.595395632478926,0.945261554902947,0.1728802376190821,-0.48752024683155326,-0.11147110072896137,-1.9463801863486305,0.1336059019074957,2.595550359778934,0.9452445589611904,0.0004473368178307862,-0.00029895178409159416,0.0003587383006809596,-0.0005586796175261031,5.79446972869646e-05,-2.6902098848505296e-05,-7.463598157076195e-05,0.0,0.0,0.0,0.0,0.0,0.0,0.0,-2.3657930524750848e-05,-5.471182243688144e-05,-0.00016930854423059805,0.00018858909606933594,0.0001578177319089824,0.00015472730000798407,-1.6995941756636768e-05,-0.0004473368178307862,0.00029895178409159416,-0.0003587383006809596,0.0005586796175261031,-5.79446972869646e-05,2.6902098848505296e-05,7.463598157076195e-05,0.2998287081718445,11.727136611938477,-0.9934418201446533,-21.741060256958008,-0.4626365303993225,-2.5399813652038574,0.30337852239608765,0
62,0.3050379753112793,-0.2998287081718445,-11.727136611938477,0.9934418201446533,21.741060256958008,0.4626365303993225,2.5399813652038574,-0.30337852239608765,0.0,0.0,0.0,0.0,0.0,0.0,0.0,-0.2888085001557771,0.6061101667664304,-0.19486941190890092,0.43071062440552565,-0.06795242673785394,0.1405283792390616,-0.32181065365055367,0.17290389554960686,-0.4874655350091164,-0.11130179218473077,-1.9465687754446999,0.1334480841755867,2.595395632478926,0.945261554902947,0.1728802376190821,-0.48752024683155326,-0.11147110072896137,-1.9463801863486305,0.1336059019074957,2.595550359778934,0.9452445589611904,0.0004473368178307862,-0.00029895178409159416,0.0003587383006809596,-0.0005586796175261031,5.79446972869646e-05,-2.6902098848505296e-05,-7.463598157076195e-05,0.0,0.0,0.0,0.0,0.0,0.0,0.0,-2.3657930524750848e-05,-5.471182243688144e-05,-0.00016930854423059805,0.00018858909606933594,0.0001578177319089824,0.00015472730000798407,-1.6995941756636768e-05,-0.0004473368178307862,0.00029895178409159416,-0.0003587383006809596,0.0005586796175261031,-5.79446972869646e-05,2.6902098848505296e-05,7.463598157076195e-05,0.2998287081718445,11.727136611938477,-0.9934418201446533,-21.741060256958008,-0.4626365303993225,-2.5399813652038574,0.30337852239608765,0
63,0.3100318908691406,-0.2998287081718445,-11.727136611938477,0.9934418201446533,21.741060256958008,0.4626365303993225,2.5399813652038574,-0.30337852239608765,0.0,0.0,0.0,0.0,0.0,0.0,0.0,-0.2888085001557771,0.6061101667664304,-0.19486941190890092,0.43071062440552565,-0.06795242673785394,0.1405283792390616,-0.32181065365055367,0.17290389554960686,-0.4874655350091164,-0.11130179218473077,-1.9465687754446999,0.1334480841755867,2.595395632478926,0.945261554902947,0.1728802376190821,-0.48752024683155326,-0.11147110072896137,-1.9463801863486305,0.1336059019074957,2.595550359778934,0.9452445589611904,0.0004473368178307862,-0.00029895178409159416,0.0003587383006809596,-0.0005586796175261031,5.79446972869646e-05,-2.6902098848505296e-05,-7.463598157076195e-05,0.0,0.0,0.0,0.0,0.0,0.0,0.0,-2.3657930524750848e-05,-5.471182243688144e-05,-0.00016930854423059805,0.00018858909606933594,0.0001578177319089824,0.00015472730000798407,-1.6995941756636768e-05,-0.0004473368178307862,0.00029895178409159416,-0.0003587383006809596,0.0005586796175261031,-5.79446972869646e-05,2.6902098848505296e-05,7.463598157076195e-05,0.2998287081718445,11.727136611938477,-0.9934418201446533,-21.741060256958008,-0.4626365303993225,-2.5399813652038574,0.30337852239608765,0
64,0.3150670528411865,-0.2998287081718445,-11.727136611938477,0.9934418201446533,21.741060256958008,0.4626365303993225,2.5399813652038574,-0.30337852239608765,0.0,0.0,0.0,0.0,0.0,0.0,0.0,-0.2888085001557771,0.6061101667664304,-0.19486941190890092,0.43071062440552565,-0.06795242673785394,0.1405283792390616,-0.32181065365055367,0.17290389554960686,-0.4874655350091164,-0.11130179218473077,-1.9465687754446999,0.1334480841755867,2.595395632478926,0.945261554902947,0.1728802376190821,-0.48752024683155326,-0.11147110072896137,-1.9463801863486305,0.1336059019074957,2.595550359778934,0.9452445589611904,0.0004473368178307862,-0.00029895178409159416,0.0003587383006809596,-0.0005586796175261031,5.79446972869646e-05,-2.6902098848505296e-05,-7.463598157076195e-05,0.0,0.0,0.0,0.0,0.0,0.0,0.0,-2.3657930524750848e-05,-5.471182243688144e-05,-0.00016930854423059805,0.00018858909606933594,0.0001578177319089824,0.00015472730000798407,-1.6995941756636768e-05,-0.0004473368178307862,0.00029895178409159416,-0.0003587383006809596,0.0005586796175261031,-5.79446972869646e-05,2.6902098848505296e-05,7.463598157076195e-05,0.2998287081718445,11.727136611938477,-0.9934418201446533,-21.741060256958008,-0.4626365303993225,-2.5399813652038574,0.30337852239608765,0
65,0.32000112533569336,-0.2998287081718445,-11.727136611938477,0.9934418201446533,21.741060256958008,0.4626365303993225,2.5399813652038574,-0.30337852239608765,0.0,0.0,0.0,0.0,0.0,0.0,0.0,-0.2888085001557771,0.6061101667664304,-0.19486941190890092,0.43071062440552565,-0.06795242673785394,0.1405283792390616,-0.32181065365055367,0.17290389554960686,-0.4874655350091164,-0.11130179218473077,-1.9465687754446999,0.1334480841755867,2.595395632478926,0.945261554902947,0.1728802376190821,-0.48752024683155326,-0.11147110072896137,-1.9463801863486305,0.1336059019074957,2.595550359778934,0.9452445589611904,0.0004473368178307862,-0.00029895178409159416,0.0003587383006809596,-0.0005586796175261031,5.79446972869646e-05,-2.6902098848505296e-05,-7.463598157076195e-05,0.0,0.0,0.0,0.0,0.0,0.0,0.0,-2.3657930524750848e-05,-5.471182243688144e-05,-0.00016930854423059805,0.00018858909606933594,0.0001578177319089824,0.00015472730000798407,-1.6995941756636768e-05,-0.0004473368178307862,0.00029895178409159416,-0.0003587383006809596,0.0005586796175261031,-5.79446972869646e-05,2.6902098848505296e-05,7.463598157076195e-05,0.2998287081718445,11.727136611938477,-0.9934418201446533,-21.741060256958008,-0.4626365303993225,-2.5399813652038574,0.30337852239608765,0
66,0.3250136375427246,-0.2720577120780945,-11.750940322875977,1.0172455310821533,21.693452835083008,0.4690452218055725,2.5463900566101074,-0.33084434270858765,0.0,0.0,0.0,0.0,0.0,0.0,0.0,-0.2910031763212958,0.6094375980744989,-0.1953634161515059,0.42652875945009433,-0.06839823779060111,0.14018726586293317,-0.3227400195023836,0.17290194670777573,-0.48746386457326113,-0.11130393300730466,-1.9465654345729893,0.13344737209876378,2.595394920402103,0.9452613498301797,0.1728802376190821,-0.48752024683155326,-0.11147110072896137,-1.9463801863486305,0.1336059019074957,2.595550359778934,0.9452445589611904,-0.000554902943998136,0.0003751666357243332,-0.00025736536060005845,0.0008432706768320787,-0.00016634898122691445,-0.00027770611396804904,0.000398952600662652,0.0,0.0,0.0,0.0,0.0,0.0,0.0,-2.170908869361665e-05,-5.638225829213139e-05,-0.00016716772165670246,0.000185248224358725,0.00015852980873190536,0.00015543937683082376,-1.67908689893137e-05,0.000554902943998136,-0.0003751666357243332,0.00025736536060005845,-0.0008432706768320787,0.00016634898122691445,0.00027770611396804904,-0.000398952600662652,0.2720577120780945,11.750940322875977,-1.0172455310821533,-21.693452835083008,-0.4690452218055725,-2.5463900566101074,0.33084434270858765,0
67,0.33000755310058594,-0.2720577120780945,-11.750940322875977,1.0172455310821533,21.693452835083008,0.4690452218055725,2.5463900566101074,-0.33084434270858765,0.0,0.0,0.0,0.0,0.0,0.0,0.0,-0.2910031763212958,0.6094375980744989,-0.1953634161515059,0.42652875945009433,-0.06839823779060111,0.14018726586293317,-0.3227400195023836,0.17290194670777573,-0.48746386457326113,-0.11130393300730466,-1.9465654345729893,0.13344737209876378,2.595394920402103,0.9452613498301797,0.1728802376190821,-0.48752024683155326,-0.11147110072896137,-1.9463801863486305,0.1336059019074957,2.595550359778934,0.9452445589611904,-0.000554902943998136,0.0003751666357243332,-0.00025736536060005845,0.0008432706768320787,-0.00016634898122691445,-0.00027770611396804904,0.000398952600662652,0.0,0.0,0.0,0.0,0.0,0.0,0.0,-2.170908869361665e-05,-5.638225829213139e-05,-0.00016716772165670246,0.000185248224358725,0.00015852980873190536,0.00015543937683082376,-1.67908689893137e-05,0.000554902943998136,-0.0003751666357243332,0.00025736536060005845,-0.0008432706768320787,0.00016634898122691445,0.00027770611396804904,-0.000398952600662652,0.2720577120780945,11.750940322875977,-1.0172455310821533,-21.693452835083008,-0.4690452218055725,-2.5463900566101074,0.33084434270858765,0
68,0.3350107669830322,-0.2998287081718445,-11.727136611938477,0.9934418201446533,21.693452835083008,0.4690452218055725,2.5399813652038574,-0.33725303411483765,0.0,0.0,0.0,0.0,0.0,0.0,0.0,-0.29244933445451926,0.6152053222460915,-0.19559619314736612,0.4196613469615486,-0.0679491716475538,0.13951140638999943,-0.32309672346639906,0.17290389554960686,-0.4874655350091164,-0.11130179132175914,-1.9465654345729893,0.13344737209876378,2.595395632478926,0.9452653158061983,0.1728802376190821,-0.48752024683155326,-0.11147110072896137,-1.9463801863486305,0.1336059019074957,2.595550359778934,0.9452445589611904,-0.00014528583645090633,0.00019077110289404464,0.0001759052307734999,0.00039339732133991754,8.055752195145716e-05,2.9123856696049623e-05,0.0007008509512880476,0.0,0.0,0.0,0.0,0.0,0.0,0.0,-2.3657930524750848e-05,-5.471182243688144e-05,-0.00016930940720222276,0.000185248224358725,0.00015852980873190536,0.00015472730000798407,-2.0756845007907643e-05,0.00014528583645090633,-0.00019077110289404464,-0.0001759052307734999,-0.00039339732133991754,-8.055752195145716e-05,-2.9123856696049623e-05,-0.0007008509512880476,0.2998287081718445,11.727136611938477,-0.9934418201446533,-21.693452835083008,-0.4690452218055725,-2.5399813652038574,0.33725303411483765,0
69,0.3399968147277832,-0.2998287081718445,-11.727136611938477,0.9934418201446533,21.693452835083008,0.4690452218055725,2.5399813652038574,-0.33725303411483765,0.0,0.0,0.0,0.0,0.0,0.0,0.0,-0.29244933445451926,0.6152053222460915,-0.19559619314736612,0.4196613469615486,-0.0679491716475538,0.13951140638999943,-0.32309672346639906,0.17290389554960686,-0.4874655350091164,-0.11130179132175914,-1.9465654345729893,0.13344737209876378,2.595395632478926,0.9452653158061983,0.1728802376190821,-0.48752024683155326,-0.11147110072896137,-1.9463801863486305,0.1336059019074957,2.595550359778934,0.9452445589611904,-0.00014528583645090633,0.00019077110289404464,0.0001759052307734999,0.00039339732133991754,8.055752195145716e-05,2.9123856696049623e-05,0.0007008509512880476,0.0,0.0,0.0,0.0,0.0,0.0,0.0,-2.3657930524750848e-05,-5.471182243688144e-05,-0.00016930940720222276,0.000185248224358725,0.00015852980873190536,0.00015472730000798407,-2.0756845007907643e-05,0.00014528583645090633,-0.00019077110289404464,-0.0001759052307734999,-0.00039339732133991754,-8.055752195145716e-05,-2.9123856696049623e-05,-0.0007008509512880476,0.2998287081718445,11.727136611938477,-0.9934418201446533,-21.693452835083008,-0.4690452218055725,-2.5399813652038574,0.33725303411483765,0
70,0.3450014591217041,-0.2720577120780945,-11.727136611938477,1.0172455310821533,21.741060256958008,0.4626365303993225,2.5463900566101074,-0.34457725286483765,0.0,0.0,0.0,0.0,0.0,0.0,0.0,-0.2924258419941142,0.6164072725490369,-0.1946945334644227,0.418613248999131,-0.06730801065991913,0.13961956544935514,-0.3242305195765941,0.17290194670777573,-0.4874655350091164,-0.11130346272928707,-1.9465687754446999,0.1334480841755867,2.595394920402103,0.9452666108607978,0.1728802376190821,-0.48752024683155326,-0.11147110072896137,-1.9463801863486305,0.1336059019074957,2.595550359778934,0.9452445589611904,-0.0006920360107633681,0.0009764574760330689,-0.0007154314132947693,-0.0008614340085244794,0.0001878988035022839,-0.00014079879236404555,0.0015796090104299467,0.0,0.0,0.0,0.0,0.0,0.0,0.0,-2.170908869361665e-05,-5.471182243688144e-05,-0.00016763799967429993,0.00018858909606933594,0.0001578177319089824,0.00015543937683082376,-2.2051899607355985e-05,0.0006920360107633681,-0.0009764574760330689,0.0007154314132947693,0.0008614340085244794,-0.0001878988035022839,0.00014079879236404555,-0.0015796090104299467,0.2720577120780945,11.727136611938477,-1.0172455310821533,-21.741060256958008,-0.4626365303993225,-2.5463900566101074,0.34457725286483765,0
71,0.35004687309265137,-0.2720577120780945,-11.727136611938477,1.0172455310821533,21.741060256958008,0.4626365303993225,2.5463900566101074,-0.34457725286483765,0.0,0.0,0.0,0.0,0.0,0.0,0.0,-0.2924258419941142,0.6164072725490369,-0.1946945334644227,0.418613248999131,-0.06730801065991913,0.13961956544935514,-0.3242305195765941,0.17290194670777573,-0.4874655350091164,-0.11130346272928707,-1.9465687754446999,0.1334480841755867,2.595394920402103,0.9452666108607978,0.1728802376190821,-0.48752024683155326,-0.11147110072896137,-1.9463801863486305,0.1336059019074957,2.595550359778934,0.9452445589611904,-0.0006920360107633681,0.0009764574760330689,-0.0007154314132947693,-0.0008614340085244794,0.0001878988035022839,-0.00014079879236404555,0.0015796090104299467,0.0,0.0,0.0,0.0,0.0,0.0,0.0,-2.170908869361665e-05,-5.471182243688144e-05,-0.00016763799967429993,0.00018858909606933594,0.0001578177319089824,0.00015543937683082376,-2.2051899607355985e-05,0.0006920360107633681,-0.0009764574760330689,0.0007154314132947693,0.0008614340085244794,-0.0001878988035022839,0.00014079879236404555,-0.0015796090104299467,0.2720577120780945,11.727136611938477,-1.0172455310821533,-21.741060256958008,-0.4626365303993225,-2.5463900566101074,0.34457725286483765,0
72,0.35501885414123535,-0.2720577120780945,-11.699365615844727,1.0172455310821533,21.741060256958008,0.4571433663368225,2.5399813652038574,-0.28232139348983765,0.0,0.0,0.0,0.0,0.0,0.0,0.0,-0.2929203153422674,0.6111309523334798,-0.19348266254627086,0.42315668456181493,-0.06727973570350707,0.140626012983215,-0.3240416205139861,0.17290194670777573,-0.48746748385094757,-0.1113040940970113,-1.9465687754446999,0.1334486945271492,2.595395632478926,0.9452559658435228,0.1728802376190821,-0.48752024683155326,-0.11147110072896137,-1.9463801863486305,0.1336059019074957,2.595550359778934,0.9452445589611904,-0.00045680370469337606,3.1730509209071134e-06,-0.000640954107285527,-0.0004802067305990642,0.00031226991186809644,-2.2747826830971722e-05,-0.001446389028238929,0.0,0.0,0.0,0.0,0.0,0.0,0.0,-2.170908869361665e-05,-5.2762980605691734e-05,-0.00016700663195007293,0.00018858909606933594,0.00015720738034649684,0.00015472730000798407,-1.140688233236542e-05,0.00045680370469337606,-3.1730509209071134e-06,0.000640954107285527,0.0004802067305990642,-0.00031226991186809644,2.2747826830971722e-05,0.001446389028238929,0.2720577120780945,11.699365615844727,-1.0172455310821533,-21.741060256958008,-0.4571433663368225,-2.5399813652038574,0.28232139348983765,0
73,0.36001014709472656,-0.2720577120780945,-11.699365615844727,1.0172455310821533,21.741060256958008,0.4571433663368225,2.5399813652038574,-0.28232139348983765,0.0,0.0,0.0,0.0,0.0,0.0,0.0,-0.2929203153422674,0.6111309523334798,-0.19348266254627086,0.42315668456181493,-0.06727973570350707,0.140626012983215,-0.3240416205139861,0.17290194670777573,-0.48746748385094757,-0.1113040940970113,-1.9465687754446999,0.1334486945271492,2.595395632478926,0.9452559658435228,0.1728802376190821,-0.48752024683155326,-0.11147110072896137,-1.9463801863486305,0.1336059019074957,2.595550359778934,0.9452445589611904,-0.00045680370469337606,3.1730509209071134e-06,-0.000640954107285527,-0.0004802067305990642,0.00031226991186809644,-2.2747826830971722e-05,-0.001446389028238929,0.0,0.0,0.0,0.0,0.0,0.0,0.0,-2.170908869361665e-05,-5.2762980605691734e-05,-0.00016700663195007293,0.00018858909606933594,0.00015720738034649684,0.00015472730000798407,-1.140688233236542e-05,0.00045680370469337606,-3.1730509209071134e-06,0.000640954107285527,0.0004802067305990642,-0.00031226991186809644,2.2747826830971722e-05,0.001446389028238929,0.2720577120780945,11.699365615844727,-1.0172455310821533,-21.741060256958008,-0.4571433663368225,-2.5399813652038574,0.28232139348983765,0
74,0.36501264572143555,-0.2998287081718445,-11.675561904907227,0.9696381092071533,21.693452835083008,0.4626365303993225,2.5399813652038574,-0.32352012395858765,0.0,0.0,0.0,0.0,0.0,0.0,0.0,-0.29346814450982456,0.6175828220163669,-0.19755936130812748,0.42444512069597073,-0.06738381741699437,0.14044923525161296,-0.32256738178502525,0.17290389554960686,-0.4874691542868028,-0.11130082045783492,-1.9465654345729893,0.1334480841755867,2.595395632478926,0.9452610276179432,0.1728802376190821,-0.48752024683155326,-0.11147110072896137,-1.9463801863486305,0.1336059019074957,2.595550359778934,0.9452445589611904,6.36842681289039e-05,-0.0002766106607135571,0.00019392257240598428,0.0009719645218375115,0.000106478735061992,-9.563024026965036e-05,0.00035149893750323417,0.0,0.0,0.0,0.0,0.0,0.0,0.0,-2.3657930524750848e-05,-5.109254475044178e-05,-0.0001702802711264495,0.000185248224358725,0.0001578177319089824,0.00015472730000798407,-1.6468656752754995e-05,-6.36842681289039e-05,0.0002766106607135571,-0.00019392257240598428,-0.0009719645218375115,-0.000106478735061992,9.563024026965036e-05,-0.00035149893750323417,0.2998287081718445,11.675561904907227,-0.9696381092071533,-21.693452835083008,-0.4626365303993225,-2.5399813652038574,0.32352012395858765,0
75,0.36501264572143555,-0.2998287081718445,-11.675561904907227,0.9696381092071533,21.693452835083008,0.4626365303993225,2.5399813652038574,-0.32352012395858765,0.0,0.0,0.0,0.0,0.0,0.0,0.0,-0.29346814450982456,0.6175828220163669,-0.19755936130812748,0.42444512069597073,-0.06738381741699437,0.14044923525161296,-0.32256738178502525,0.17290389554960686,-0.4874691542868028,-0.11130082045783492,-1.9465654345729893,0.1334480841755867,2.595395632478926,0.9452610276179432,0.1728802376190821,-0.48752024683155326,-0.11147110072896137,-1.9463801863486305,0.1336059019074957,2.595550359778934,0.9452445589611904,6.36842681289039e-05,-0.0002766106607135571,0.00019392257240598428,0.0009719645218375115,0.000106478735061992,-9.563024026965036e-05,0.00035149893750323417,0.0,0.0,0.0,0.0,0.0,0.0,0.0,-2.3657930524750848e-05,-5.109254475044178e-05,-0.0001702802711264495,0.000185248224358725,0.0001578177319089824,0.00015472730000798407,-1.6468656752754995e-05,-6.36842681289039e-05,0.0002766106607135571,-0.00019392257240598428,-0.0009719645218375115,-0.000106478735061992,9.563024026965036e-05,-0.00035149893750323417,0.2998287081718445,11.675561904907227,-0.9696381092071533,-21.693452835083008,-0.4626365303993225,-2.5399813652038574,0.32352012395858765,0
76,0.3750126361846924,-0.2998287081718445,-11.675561904907227,0.9934418201446533,21.717256546020508,0.4626365303993225,2.5463900566101074,-0.26858848333358765,0.0,0.0,0.0,0.0,0.0,0.0,0.0,-0.28957506095889707,0.6174133829104467,-0.1944015026260326,0.42589586550879577,-0.06773547856613647,0.14022302465295336,-0.3211450381846494,0.17290389554960686,-0.4874691542868028,-0.1113025025860645,-1.9465671050088444,0.1334480841755867,2.595394920402103,0.9452549092061611,0.1728802376190821,-0.48752024683155326,-0.11147110072896137,-1.9463801863486305,0.1336059019074957,2.595550359778934,0.9452445589611904,0.0004212094779208218,-0.0007498807578690403,6.475859750944846e-06,-0.00015544175648169717,0.00011570558568990184,-0.0002645121444956928,-0.0016839829040227049,0.0,0.0,0.0,0.0,0.0,0.0,0.0,-2.3657930524750848e-05,-5.109254475044178e-05,-0.00016859814289686692,0.00018691866021391945,0.0001578177319089824,0.00015543937683082376,-1.0350244970647182e-05,-0.0004212094779208218,0.0007498807578690403,-6.475859750944846e-06,0.00015544175648169717,-0.00011570558568990184,0.0002645121444956928,0.0016839829040227049,0.2998287081718445,11.675561904907227,-0.9934418201446533,-21.717256546020508,-0.4626365303993225,-2.5463900566101074,0.26858848333358765,0
77,0.3800179958343506,-0.2998287081718445,-11.675561904907227,0.9934418201446533,21.717256546020508,0.4626365303993225,2.5463900566101074,-0.26858848333358765,0.0,0.0,0.0,0.0,0.0,0.0,0.0,-0.28957506095889707,0.6174133829104467,-0.1944015026260326,0.42589586550879577,-0.06773547856613647,0.14022302465295336,-0.3211450381846494,0.17290389554960686,-0.4874691542868028,-0.1113025025860645,-1.9465671050088444,0.1334480841755867,2.595394920402103,0.9452549092061611,0.1728802376190821,-0.48752024683155326,-0.11147110072896137,-1.9463801863486305,0.1336059019074957,2.595550359778934,0.9452445589611904,0.0004212094779208218,-0.0007498807578690403,6.475859750944846e-06,-0.00015544175648169717,0.00011570558568990184,-0.0002645121444956928,-0.0016839829040227049,0.0,0.0,0.0,0.0,0.0,0.0,0.0,-2.3657930524750848e-05,-5.109254475044178e-05,-0.00016859814289686692,0.00018691866021391945,0.0001578177319089824,0.00015543937683082376,-1.0350244970647182e-05,-0.0004212094779208218,0.0007498807578690403,-6.475859750944846e-06,0.00015544175648169717,-0.00011570558568990184,0.0002645121444956928,0.0016839829040227049,0.2998287081718445,11.675561904907227,-0.9934418201446533,-21.717256546020508,-0.4626365303993225,-2.5463900566101074,0.26858848333358765,0
78,0.3850064277648926,-0.2998287081718445,-11.699365615844727,1.0410492420196533,21.693452835083008,0.4571433663368225,2.5271639823913574,-0.30978721380233765,0.0,0.0,0.0,0.0,0.0,0.0,0.0,-0.2872050177680743,0.6189091600037903,-0.19381081614101206,0.4256603096408611,-0.06812021329540034,0.14048157655287602,-0.32010004669895176,0.17290389554960686,-0.48746748385094757,-0.11130512147716265,-1.9465654345729893,0.1334486945271492,2.5953970566325717,0.9452593661617866,0.1728802376190821,-0.48752024683155326,-0.11147110072896137,-1.9463801863486305,0.1336059019074957,2.595550359778934,0.9452445589611904,0.0005390928140862286,-0.00011037297673150882,-0.0010413178457596385,0.0006781568072510531,0.00024039694633266678,0.0006843780654078953,0.00034278458634936105,0.0,0.0,0.0,0.0,0.0,0.0,0.0,-2.3657930524750848e-05,-5.2762980605691734e-05,-0.00016597925179871742,0.000185248224358725,0.00015720738034649684,0.0001533031463623047,-1.4807200596211878e-05,-0.0005390928140862286,0.00011037297673150882,0.0010413178457596385,-0.0006781568072510531,-0.00024039694633266678,-0.0006843780654078953,-0.00034278458634936105,0.2998287081718445,11.699365615844727,-1.0410492420196533,-21.693452835083008,-0.4571433663368225,-2.5271639823913574,0.30978721380233765,0
79,0.3900320529937744,-0.2998287081718445,-11.699365615844727,1.0410492420196533,21.693452835083008,0.4571433663368225,2.5271639823913574,-0.30978721380233765,0.0,0.0,0.0,0.0,0.0,0.0,0.0,-0.2872050177680743,0.6189091600037903,-0.19381081614101206,0.4256603096408611,-0.06812021329540034,0.14048157655287602,-0.32010004669895176,0.17290389554960686,-0.48746748385094757,-0.11130512147716265,-1.9465654345729893,0.1334486945271492,2.5953970566325717,0.9452593661617866,0.1728802376190821,-0.48752024683155326,-0.11147110072896137,-1.9463801863486305,0.1336059019074957,2.595550359778934,0.9452445589611904,0.0005390928140862286,-0.00011037297673150882,-0.0010413178457596385,0.0006781568072510531,0.00024039694633266678,0.0006843780654078953,0.00034278458634936105,0.0,0.0,0.0,0.0,0.0,0.0,0.0,-2.3657930524750848e-05,-5.2762980605691734e-05,-0.00016597925179871742,0.000185248224358725,0.00015720738034649684,0.0001533031463623047,-1.4807200596211878e-05,-0.0005390928140862286,0.00011037297673150882,0.0010413178457596385,-0.0006781568072510531,-0.00024039694633266678,-0.0006843780654078953,-0.00034278458634936105,0.2998287081718445,11.699365615844727,-1.0410492420196533,-21.693452835083008,-0.4571433663368225,-2.5271639823913574,0.30978721380233765,0
