rezayati/contactInterpretation/dataset/franka_main/labeled_data/link7/a2_8.csv
index,time,tau_J0,tau_J1,tau_J2,tau_J3,tau_J4,tau_J5,tau_J6,tau_J_d0,tau_J_d1,tau_J_d2,tau_J_d3,tau_J_d4,tau_J_d5,tau_J_d6,tau_ext0,tau_ext1,tau_ext2,tau_ext3,tau_ext4,tau_ext5,tau_ext6,q0,q1,q2,q3,q4,q5,q6,q_d0,q_d1,q_d2,q_d3,q_d4,q_d5,q_d6,dq0,dq1,dq2,dq3,dq4,dq5,dq6,dq_d0,dq_d1,dq_d2,dq_d3,dq_d4,dq_d5,dq_d6,e0,e1,e2,e3,e4,e5,e6,de0,de1,de2,de3,de4,de5,de6,etau_J0,etau_J1,etau_J2,etau_J3,etau_J4,etau_J5,etau_J6,label
1,0.0,-0.22445029020309448,-22.795862197875977,0.02542426437139511,14.131807327270508,0.02226787805557251,2.1389803886413574,-0.43338340520858765,0.0,0.0,0.0,0.0,0.0,0.0,0.0,-0.2755102562173567,0.007493258506357413,-0.046453578837163105,0.2451002950751009,-0.1949493442770351,-0.04557577786947366,-0.41693063611852277,1.6755032692081047,0.05231056281670557,0.029910844074529513,-2.7525691095876397,0.03445457249218115,2.7662969023916535,0.7692004969848526,1.6754973547542302,0.052104326824870026,0.029969505109285054,-2.752394845125968,0.0342448039870148,2.7663679543071322,0.7691630533470046,-0.0008791558997511236,0.00012969376919011254,0.0002521697243936204,-0.0007972627597053878,0.0006434198394849184,5.4622822341528626e-05,0.0004552160988081717,0.0,0.0,0.0,0.0,0.0,0.0,0.0,-5.914453874433789e-06,-0.0002062359918355433,5.866103475554024e-05,0.0001742644616715694,-0.00020976850516635226,7.105191547873702e-05,-3.7443637847967004e-05,0.0008791558997511236,-0.00012969376919011254,-0.0002521697243936204,0.0007972627597053878,-0.0006434198394849184,-5.4622822341528626e-05,-0.0004552160988081717,0.22445029020309448,22.795862197875977,-0.02542426437139511,-14.131807327270508,-0.02226787805557251,-2.1389803886413574,0.43338340520858765,0
2,0.004212379455566406,-0.24825400114059448,-22.795862197875977,0.07303168624639511,14.131807327270508,0.03416973352432251,2.1325716972351074,-0.39950889348983765,0.0,0.0,0.0,0.0,0.0,0.0,0.0,-0.26735871147811646,-0.0016959877883744473,-0.04154603360792761,0.2521924203611193,-0.19560244350719216,-0.044168707064840225,-0.4165707039814424,1.67550493964396,0.05231048389618624,0.02990750320281899,-2.7525697983485378,0.03445324990153404,2.766297614952985,0.7691967331502172,1.6754973547542302,0.052104326824870026,0.029969505109285054,-2.752394845125968,0.0342448039870148,2.7663679543071322,0.7691630533470046,0.0001443033100327722,0.00013632466086275238,-0.0004600337839115909,-0.0003999303887549772,3.887476620255728e-06,0.00020857833179946855,-6.757639904673818e-05,0.0,0.0,0.0,0.0,0.0,0.0,0.0,-7.584889729850275e-06,-0.0002061570713162153,6.200190646606443e-05,0.00017495322256966261,-0.00020844591451923966,7.033935414701986e-05,-3.36798032125607e-05,-0.0001443033100327722,-0.00013632466086275238,0.0004600337839115909,0.0003999303887549772,-3.887476620255728e-06,-0.00020857833179946855,6.757639904673818e-05,0.24825400114059448,22.795862197875977,-0.07303168624639511,-14.131807327270508,-0.03416973352432251,-2.1325716972351074,0.39950889348983765,0
3,0.009237051010131836,-0.24825400114059448,-22.795862197875977,0.07303168624639511,14.131807327270508,0.03416973352432251,2.1325716972351074,-0.39950889348983765,0.0,0.0,0.0,0.0,0.0,0.0,0.0,-0.26735871147811646,-0.0016959877883744473,-0.04154603360792761,0.2521924203611193,-0.19560244350719216,-0.044168707064840225,-0.4165707039814424,1.67550493964396,0.05231048389618624,0.02990750320281899,-2.7525697983485378,0.03445324990153404,2.766297614952985,0.7691967331502172,1.6754973547542302,0.052104326824870026,0.029969505109285054,-2.752394845125968,0.0342448039870148,2.7663679543071322,0.7691630533470046,0.0001443033100327722,0.00013632466086275238,-0.0004600337839115909,-0.0003999303887549772,3.887476620255728e-06,0.00020857833179946855,-6.757639904673818e-05,0.0,0.0,0.0,0.0,0.0,0.0,0.0,-7.584889729850275e-06,-0.0002061570713162153,6.200190646606443e-05,0.00017495322256966261,-0.00020844591451923966,7.033935414701986e-05,-3.36798032125607e-05,-0.0001443033100327722,-0.00013632466086275238,0.0004600337839115909,0.0003999303887549772,-3.887476620255728e-06,-0.00020857833179946855,6.757639904673818e-05,0.24825400114059448,22.795862197875977,-0.07303168624639511,-14.131807327270508,-0.03416973352432251,-2.1325716972351074,0.39950889348983765,0
4,0.014203548431396484,-0.2998287081718445,-22.748254776000977,0.04922797530889511,14.080232620239258,0.04607158899307251,2.1453890800476074,-0.39950889348983765,0.0,0.0,0.0,0.0,0.0,0.0,0.0,-0.27280848240356803,0.0030207979381908735,-0.04587744400378382,0.24824712388232753,-0.19556671122915853,-0.04516260762126261,-0.414139796987383,1.6755085589216465,0.05230722097066215,0.02990917363867425,-2.7525661790747393,0.03445192893351147,2.7662961903148253,0.7691967331502172,1.6754973547542302,0.052104326824870026,0.029969505109285054,-2.752394845125968,0.0342448039870148,2.7663679543071322,0.7691630533470046,0.0007332134035596623,-0.0010004572632798595,-0.0003017775183495592,0.000705679627740295,-0.00023875419689530712,-0.00026901045397481626,-0.0006581144297584763,0.0,0.0,0.0,0.0,0.0,0.0,0.0,-1.1204167416289934e-05,-0.0002028941457921235,6.033147061080407e-05,0.000171333948771224,-0.00020712494649666874,7.176399230690578e-05,-3.36798032125607e-05,-0.0007332134035596623,0.0010004572632798595,0.0003017775183495592,-0.000705679627740295,0.00023875419689530712,0.00026901045397481626,0.0006581144297584763,0.2998287081718445,22.748254776000977,-0.04922797530889511,-14.080232620239258,-0.04607158899307251,-2.1453890800476074,0.39950889348983765,0
5,0.019206523895263672,-0.2998287081718445,-22.748254776000977,0.04922797530889511,14.080232620239258,0.04607158899307251,2.1453890800476074,-0.39950889348983765,0.0,0.0,0.0,0.0,0.0,0.0,0.0,-0.27280848240356803,0.0030207979381908735,-0.04587744400378382,0.24824712388232753,-0.19556671122915853,-0.04516260762126261,-0.414139796987383,1.6755085589216465,0.05230722097066215,0.02990917363867425,-2.7525661790747393,0.03445192893351147,2.7662961903148253,0.7691967331502172,1.6754973547542302,0.052104326824870026,0.029969505109285054,-2.752394845125968,0.0342448039870148,2.7663679543071322,0.7691630533470046,0.0007332134035596623,-0.0010004572632798595,-0.0003017775183495592,0.000705679627740295,-0.00023875419689530712,-0.00026901045397481626,-0.0006581144297584763,0.0,0.0,0.0,0.0,0.0,0.0,0.0,-1.1204167416289934e-05,-0.0002028941457921235,6.033147061080407e-05,0.000171333948771224,-0.00020712494649666874,7.176399230690578e-05,-3.36798032125607e-05,-0.0007332134035596623,0.0010004572632798595,0.0003017775183495592,-0.000705679627740295,0.00023875419689530712,0.00026901045397481626,0.0006581144297584763,0.2998287081718445,22.748254776000977,-0.04922797530889511,-14.080232620239258,-0.04607158899307251,-2.1453890800476074,0.39950889348983765,0
6,0.02420353889465332,-0.2720577120780945,-22.772058486938477,0.02542426437139511,14.108003616333008,0.04057842493057251,2.1389803886413574,-0.41324180364608765,0.0,0.0,0.0,0.0,0.0,0.0,0.0,-0.2722325281327982,0.0075125188108553405,-0.044610183595394856,0.2481180480488156,-0.19545922928854587,-0.0449931862359129,-0.4127641907581528,1.6755066100798153,0.052308892381290314,0.029910844074529513,-2.7525681279165704,0.03445255096799232,2.7662969024454807,0.7691982590291234,1.6754973547542302,0.052104326824870026,0.029969505109285054,-2.752394845125968,0.0342448039870148,2.7663679543071322,0.7691630533470046,-7.880620876670996e-06,1.1347765714871417e-05,-0.00016713116332659728,8.500381307108427e-05,-0.0001728249030124106,0.00011276167864911858,0.00015400908604618418,0.0,0.0,0.0,0.0,0.0,0.0,0.0,-9.255325585044716e-06,-0.00020456555642028862,5.866103475554024e-05,0.00017328279060224716,-0.0002077469809775162,7.105186165157207e-05,-3.5205682118788495e-05,7.880620876670996e-06,-1.1347765714871417e-05,0.00016713116332659728,-8.500381307108427e-05,0.0001728249030124106,-0.00011276167864911858,-0.00015400908604618418,0.2720577120780945,22.772058486938477,-0.02542426437139511,-14.108003616333008,-0.04057842493057251,-2.1389803886413574,0.41324180364608765,0
7,0.02925562858581543,-0.2720577120780945,-22.772058486938477,0.02542426437139511,14.108003616333008,0.04057842493057251,2.1389803886413574,-0.41324180364608765,0.0,0.0,0.0,0.0,0.0,0.0,0.0,-0.2722325281327982,0.0075125188108553405,-0.044610183595394856,0.2481180480488156,-0.19545922928854587,-0.0449931862359129,-0.4127641907581528,1.6755066100798153,0.052308892381290314,0.029910844074529513,-2.7525681279165704,0.03445255096799232,2.7662969024454807,0.7691982590291234,1.6754973547542302,0.052104326824870026,0.029969505109285054,-2.752394845125968,0.0342448039870148,2.7663679543071322,0.7691630533470046,-7.880620876670996e-06,1.1347765714871417e-05,-0.00016713116332659728,8.500381307108427e-05,-0.0001728249030124106,0.00011276167864911858,0.00015400908604618418,0.0,0.0,0.0,0.0,0.0,0.0,0.0,-9.255325585044716e-06,-0.00020456555642028862,5.866103475554024e-05,0.00017328279060224716,-0.0002077469809775162,7.105186165157207e-05,-3.5205682118788495e-05,7.880620876670996e-06,-1.1347765714871417e-05,0.00016713116332659728,-8.500381307108427e-05,0.0001728249030124106,-0.00011276167864911858,-0.00015400908604618418,0.2720577120780945,22.772058486938477,-0.02542426437139511,-14.108003616333008,-0.04057842493057251,-2.1389803886413574,0.41324180364608765,0
8,0.03420615196228027,-0.3236324191093445,-22.847436904907227,0.02542426437139511,14.131807327270508,0.04057842493057251,2.1389803886413574,-0.41324180364608765,0.0,0.0,0.0,0.0,0.0,0.0,0.0,-0.26923409613222066,0.005654720540159253,-0.043457226688004384,0.25061587028100596,-0.19553273658771186,-0.04420401458449169,-0.4115150960131488,1.6755102293575017,0.05231417917183879,0.029910844074529513,-2.7525697983524258,0.0344525378247844,2.7662969023916455,0.7691982590291234,1.6754973547542302,0.052104326824870026,0.029969505109285054,-2.752394845125968,0.0342448039870148,2.7663679543071322,0.7691630533470046,0.0014900543763430552,0.0015141242844628655,6.91297057402625e-05,-0.0008093786149497762,-0.00015923067977892093,0.0001903378136190592,0.0004063989315438102,0.0,0.0,0.0,0.0,0.0,0.0,0.0,-1.2874603271484375e-05,-0.0002098523469687627,5.866103475554024e-05,0.00017495322645766365,-0.00020773383776959836,7.105191548673062e-05,-3.5205682118788495e-05,-0.0014900543763430552,-0.0015141242844628655,-6.91297057402625e-05,0.0008093786149497762,0.00015923067977892093,-0.0001903378136190592,-0.0004063989315438102,0.3236324191093445,22.847436904907227,-0.02542426437139511,-14.131807327270508,-0.04057842493057251,-2.1389803886413574,0.41324180364608765,0
9,0.03920459747314453,-0.3236324191093445,-22.847436904907227,0.02542426437139511,14.131807327270508,0.04057842493057251,2.1389803886413574,-0.41324180364608765,0.0,0.0,0.0,0.0,0.0,0.0,0.0,-0.26923409613222066,0.005654720540159253,-0.043457226688004384,0.25061587028100596,-0.19553273658771186,-0.04420401458449169,-0.4115150960131488,1.6755102293575017,0.05231417917183879,0.029910844074529513,-2.7525697983524258,0.0344525378247844,2.7662969023916455,0.7691982590291234,1.6754973547542302,0.052104326824870026,0.029969505109285054,-2.752394845125968,0.0342448039870148,2.7663679543071322,0.7691630533470046,0.0014900543763430552,0.0015141242844628655,6.91297057402625e-05,-0.0008093786149497762,-0.00015923067977892093,0.0001903378136190592,0.0004063989315438102,0.0,0.0,0.0,0.0,0.0,0.0,0.0,-1.2874603271484375e-05,-0.0002098523469687627,5.866103475554024e-05,0.00017495322645766365,-0.00020773383776959836,7.105191548673062e-05,-3.5205682118788495e-05,-0.0014900543763430552,-0.0015141242844628655,-6.91297057402625e-05,0.0008093786149497762,0.00015923067977892093,-0.0001903378136190592,-0.0004063989315438102,0.3236324191093445,22.847436904907227,-0.02542426437139511,-14.131807327270508,-0.04057842493057251,-2.1389803886413574,0.41324180364608765,0
10,0.0442049503326416,-0.2720577120780945,-22.819665908813477,0.07303168624639511,14.108003616333008,0.03416973352432251,2.1453890800476074,-0.39218467473983765,0.0,0.0,0.0,0.0,0.0,0.0,0.0,-0.2695709599892066,0.004350755271906981,-0.044004379222325425,0.2513767893670553,-0.1957015093645055,-0.04459178134987273,-0.41185077226430283,1.6755066100798153,0.05231223227865695,0.02990750320281899,-2.7525681279165704,0.034453249901533124,2.766296229560679,0.7691927404337459,1.6754973547542302,0.052104326824870026,0.029969505109285054,-2.752394845125968,0.0342448039870148,2.7663679543071322,0.7691630533470046,0.00021361806251484004,0.0002432822967879642,-0.0005572291678967586,3.4042764599070395e-05,-0.00011377787625648793,-0.00025916807700607783,-0.0011458472878819706,0.0,0.0,0.0,0.0,0.0,0.0,0.0,-9.255325585044716e-06,-0.000207905453786926,6.200190646606443e-05,0.00017328279060224716,-0.00020844591451832373,7.17247464532278e-05,-2.9687086741225777e-05,-0.00021361806251484004,-0.0002432822967879642,0.0005572291678967586,-3.4042764599070395e-05,0.00011377787625648793,0.00025916807700607783,0.0011458472878819706,0.2720577120780945,22.819665908813477,-0.07303168624639511,-14.108003616333008,-0.03416973352432251,-2.1453890800476074,0.39218467473983765,0
11,0.049204111099243164,-0.2720577120780945,-22.819665908813477,0.07303168624639511,14.108003616333008,0.03416973352432251,2.1453890800476074,-0.39218467473983765,0.0,0.0,0.0,0.0,0.0,0.0,0.0,-0.2695709599892066,0.004350755271906981,-0.044004379222325425,0.2513767893670553,-0.1957015093645055,-0.04459178134987273,-0.41185077226430283,1.6755066100798153,0.05231223227865695,0.02990750320281899,-2.7525681279165704,0.034453249901533124,2.766296229560679,0.7691927404337459,1.6754973547542302,0.052104326824870026,0.029969505109285054,-2.752394845125968,0.0342448039870148,2.7663679543071322,0.7691630533470046,0.00021361806251484004,0.0002432822967879642,-0.0005572291678967586,3.4042764599070395e-05,-0.00011377787625648793,-0.00025916807700607783,-0.0011458472878819706,0.0,0.0,0.0,0.0,0.0,0.0,0.0,-9.255325585044716e-06,-0.000207905453786926,6.200190646606443e-05,0.00017328279060224716,-0.00020844591451832373,7.17247464532278e-05,-2.9687086741225777e-05,-0.00021361806251484004,-0.0002432822967879642,0.0005572291678967586,-3.4042764599070395e-05,0.00011377787625648793,0.00025916807700607783,0.0011458472878819706,0.2720577120780945,22.819665908813477,-0.07303168624639511,-14.108003616333008,-0.03416973352432251,-2.1453890800476074,0.39218467473983765,0
12,0.05422043800354004,-0.2998287081718445,-22.819665908813477,0.04922797530889511,14.131807327270508,0.04057842493057251,2.1453890800476074,-0.44711631536483765,0.0,0.0,0.0,0.0,0.0,0.0,0.0,-0.27617199243542645,0.007892728025188768,-0.046449647496213935,0.24914538087786875,-0.19599751929634296,-0.04509711316158112,-0.41241447635769846,1.6755085589216465,0.05231009361795404,0.02990917363867425,-2.752569721823005,0.03445253782471021,2.766299370682982,0.7692020228458137,1.6754973547542302,0.052104326824870026,0.029969505109285054,-2.752394845125968,0.0342448039870148,2.7663679543071322,0.7691630533470046,6.28257486134008e-05,0.0008004391823342561,6.917430036920019e-05,-0.0006200827274091263,-0.00017543649527711186,-0.0002836593572083973,0.0012224534418595564,0.0,0.0,0.0,0.0,0.0,0.0,0.0,-1.1204167416289934e-05,-0.00020576679308401125,6.033147061080407e-05,0.0001748766970370852,-0.0002077338376954077,6.85836241500759e-05,-3.896949880910494e-05,-6.28257486134008e-05,-0.0008004391823342561,-6.917430036920019e-05,0.0006200827274091263,0.00017543649527711186,0.0002836593572083973,-0.0012224534418595564,0.2998287081718445,22.819665908813477,-0.04922797530889511,-14.131807327270508,-0.04057842493057251,-2.1453890800476074,0.44711631536483765,0
13,0.059224605560302734,-0.2998287081718445,-22.819665908813477,0.04922797530889511,14.131807327270508,0.04057842493057251,2.1453890800476074,-0.44711631536483765,0.0,0.0,0.0,0.0,0.0,0.0,0.0,-0.27617199243542645,0.007892728025188768,-0.046449647496213935,0.24914538087786875,-0.19599751929634296,-0.04509711316158112,-0.41241447635769846,1.6755085589216465,0.05231009361795404,0.02990917363867425,-2.752569721823005,0.03445253782471021,2.766299370682982,0.7692020228458137,1.6754973547542302,0.052104326824870026,0.029969505109285054,-2.752394845125968,0.0342448039870148,2.7663679543071322,0.7691630533470046,6.28257486134008e-05,0.0008004391823342561,6.917430036920019e-05,-0.0006200827274091263,-0.00017543649527711186,-0.0002836593572083973,0.0012224534418595564,0.0,0.0,0.0,0.0,0.0,0.0,0.0,-1.1204167416289934e-05,-0.00020576679308401125,6.033147061080407e-05,0.0001748766970370852,-0.0002077338376954077,6.85836241500759e-05,-3.896949880910494e-05,-6.28257486134008e-05,-0.0008004391823342561,-6.917430036920019e-05,0.0006200827274091263,0.00017543649527711186,0.0002836593572083973,-0.0012224534418595564,0.2998287081718445,22.819665908813477,-0.04922797530889511,-14.131807327270508,-0.04057842493057251,-2.1453890800476074,0.44711631536483765,0
14,0.06420779228210449,-0.22445029020309448,-22.795862197875977,0.02542426437139511,14.108003616333008,0.04057842493057251,2.1389803886413574,-0.39950889348983765,0.0,0.0,0.0,0.0,0.0,0.0,0.0,-0.2759215927626836,0.0040160673349134415,-0.04189156990766394,0.25456719160760455,-0.1961899067505051,-0.044311824589617715,-0.41293066830924924,1.6755032692081047,0.05231048096110924,0.029910844074529513,-2.7525680513867177,0.03445253782471021,2.766296941655455,0.7691935537513124,1.6754973547542302,0.052104326824870026,0.029969505109285054,-2.752394845125968,0.0342448039870148,2.7663679543071322,0.7691630533470046,-0.0011863326171515514,0.00037304071932134277,0.0002922139163418447,0.0007099190820257086,-0.00019422072982280974,-9.144335111852894e-05,-0.0007620765174354889,0.0,0.0,0.0,0.0,0.0,0.0,0.0,-5.914453874433789e-06,-0.00020615413623921441,5.866103475554024e-05,0.0001732062607495699,-0.0002077338376954077,7.101265167719362e-05,-3.0500404307742812e-05,0.0011863326171515514,-0.00037304071932134277,-0.0002922139163418447,-0.0007099190820257086,0.00019422072982280974,9.144335111852894e-05,0.0007620765174354889,0.22445029020309448,22.795862197875977,-0.02542426437139511,-14.108003616333008,-0.04057842493057251,-2.1389803886413574,0.39950889348983765,0
15,0.06922531127929688,-0.22445029020309448,-22.795862197875977,0.02542426437139511,14.108003616333008,0.04057842493057251,2.1389803886413574,-0.39950889348983765,0.0,0.0,0.0,0.0,0.0,0.0,0.0,-0.2759215927626836,0.0040160673349134415,-0.04189156990766394,0.25456719160760455,-0.1961899067505051,-0.044311824589617715,-0.41293066830924924,1.6755032692081047,0.05231048096110924,0.029910844074529513,-2.7525680513867177,0.03445253782471021,2.766296941655455,0.7691935537513124,1.6754973547542302,0.052104326824870026,0.029969505109285054,-2.752394845125968,0.0342448039870148,2.7663679543071322,0.7691630533470046,-0.0011863326171515514,0.00037304071932134277,0.0002922139163418447,0.0007099190820257086,-0.00019422072982280974,-9.144335111852894e-05,-0.0007620765174354889,0.0,0.0,0.0,0.0,0.0,0.0,0.0,-5.914453874433789e-06,-0.00020615413623921441,5.866103475554024e-05,0.0001732062607495699,-0.0002077338376954077,7.101265167719362e-05,-3.0500404307742812e-05,0.0011863326171515514,-0.00037304071932134277,-0.0002922139163418447,-0.0007099190820257086,0.00019422072982280974,9.144335111852894e-05,0.0007620765174354889,0.22445029020309448,22.795862197875977,-0.02542426437139511,-14.108003616333008,-0.04057842493057251,-2.1389803886413574,0.39950889348983765,0
16,0.07500243186950684,-0.24825400114059448,-22.795862197875977,0.07303168624639511,14.108003616333008,0.04607158899307251,2.1389803886413574,-0.42605918645858765,0.0,0.0,0.0,0.0,0.0,0.0,0.0,-0.27846457912535855,0.006015351391288336,-0.045472640509527124,0.25243706555074125,-0.19599512313798156,-0.0452063695911849,-0.41388715010747357,1.67550493964396,0.05230843162586065,0.02990750320281899,-2.7525681279161383,0.03445192747314771,2.76630008136009,0.7691996831648215,1.6754973547542302,0.052104326824870026,0.029969505109285054,-2.752394845125968,0.0342448039870148,2.7663679543071322,0.7691630533470046,-0.0006537093346688831,0.00016445663501557642,-0.0010161564721411285,-7.113376464854363e-05,-0.00043348338467216985,1.9330712135924326e-05,0.000633965185064643,0.0,0.0,0.0,0.0,0.0,0.0,0.0,-7.584889729850275e-06,-0.0002041048009906246,6.200190646606443e-05,0.00017328279017014836,-0.00020712348613290826,6.787294704224678e-05,-3.6629817816824506e-05,0.0006537093346688831,-0.00016445663501557642,0.0010161564721411285,7.113376464854363e-05,0.00043348338467216985,-1.9330712135924326e-05,-0.000633965185064643,0.24825400114059448,22.795862197875977,-0.07303168624639511,-14.108003616333008,-0.04607158899307251,-2.1389803886413574,0.42605918645858765,0
17,0.07922697067260742,-0.24825400114059448,-22.795862197875977,0.07303168624639511,14.108003616333008,0.04607158899307251,2.1389803886413574,-0.42605918645858765,0.0,0.0,0.0,0.0,0.0,0.0,0.0,-0.27846457912535855,0.006015351391288336,-0.045472640509527124,0.25243706555074125,-0.19599512313798156,-0.0452063695911849,-0.41388715010747357,1.67550493964396,0.05230843162586065,0.02990750320281899,-2.7525681279161383,0.03445192747314771,2.76630008136009,0.7691996831648215,1.6754973547542302,0.052104326824870026,0.029969505109285054,-2.752394845125968,0.0342448039870148,2.7663679543071322,0.7691630533470046,-0.0006537093346688831,0.00016445663501557642,-0.0010161564721411285,-7.113376464854363e-05,-0.00043348338467216985,1.9330712135924326e-05,0.000633965185064643,0.0,0.0,0.0,0.0,0.0,0.0,0.0,-7.584889729850275e-06,-0.0002041048009906246,6.200190646606443e-05,0.00017328279017014836,-0.00020712348613290826,6.787294704224678e-05,-3.6629817816824506e-05,0.0006537093346688831,-0.00016445663501557642,0.0010161564721411285,7.113376464854363e-05,0.00043348338467216985,-1.9330712135924326e-05,-0.000633965185064643,0.24825400114059448,22.795862197875977,-0.07303168624639511,-14.108003616333008,-0.04607158899307251,-2.1389803886413574,0.42605918645858765,0
18,0.08423018455505371,-0.24825400114059448,-22.795862197875977,0.07303168624639511,14.108003616333008,0.04607158899307251,2.1389803886413574,-0.42605918645858765,0.0,0.0,0.0,0.0,0.0,0.0,0.0,-0.27846457912535855,0.006015351391288336,-0.045472640509527124,0.25243706555074125,-0.19599512313798156,-0.0452063695911849,-0.41388715010747357,1.67550493964396,0.05230843162586065,0.02990750320281899,-2.7525681279161383,0.03445192747314771,2.76630008136009,0.7691996831648215,1.6754973547542302,0.052104326824870026,0.029969505109285054,-2.752394845125968,0.0342448039870148,2.7663679543071322,0.7691630533470046,-0.0006537093346688831,0.00016445663501557642,-0.0010161564721411285,-7.113376464854363e-05,-0.00043348338467216985,1.9330712135924326e-05,0.000633965185064643,0.0,0.0,0.0,0.0,0.0,0.0,0.0,-7.584889729850275e-06,-0.0002041048009906246,6.200190646606443e-05,0.00017328279017014836,-0.00020712348613290826,6.787294704224678e-05,-3.6629817816824506e-05,0.0006537093346688831,-0.00016445663501557642,0.0010161564721411285,7.113376464854363e-05,0.00043348338467216985,-1.9330712135924326e-05,-0.000633965185064643,0.24825400114059448,22.795862197875977,-0.07303168624639511,-14.108003616333008,-0.04607158899307251,-2.1389803886413574,0.42605918645858765,0
19,0.08921670913696289,-0.24825400114059448,-22.795862197875977,0.07303168624639511,14.108003616333008,0.04607158899307251,2.1389803886413574,-0.42605918645858765,0.0,0.0,0.0,0.0,0.0,0.0,0.0,-0.27846457912535855,0.006015351391288336,-0.045472640509527124,0.25243706555074125,-0.19599512313798156,-0.0452063695911849,-0.41388715010747357,1.67550493964396,0.05230843162586065,0.02990750320281899,-2.7525681279161383,0.03445192747314771,2.76630008136009,0.7691996831648215,1.6754973547542302,0.052104326824870026,0.029969505109285054,-2.752394845125968,0.0342448039870148,2.7663679543071322,0.7691630533470046,-0.0006537093346688831,0.00016445663501557642,-0.0010161564721411285,-7.113376464854363e-05,-0.00043348338467216985,1.9330712135924326e-05,0.000633965185064643,0.0,0.0,0.0,0.0,0.0,0.0,0.0,-7.584889729850275e-06,-0.0002041048009906246,6.200190646606443e-05,0.00017328279017014836,-0.00020712348613290826,6.787294704224678e-05,-3.6629817816824506e-05,0.0006537093346688831,-0.00016445663501557642,0.0010161564721411285,7.113376464854363e-05,0.00043348338467216985,-1.9330712135924326e-05,-0.000633965185064643,0.24825400114059448,22.795862197875977,-0.07303168624639511,-14.108003616333008,-0.04607158899307251,-2.1389803886413574,0.42605918645858765,0
20,0.09421491622924805,-0.24825400114059448,-22.795862197875977,0.001620553433895111,14.131807327270508,0.04057842493057251,2.1453890800476074,-0.43979209661483765,0.0,0.0,0.0,0.0,0.0,0.0,0.0,-0.2779270725840162,0.0042944702727204884,-0.04722643878622195,0.25503368442208485,-0.19584060769014172,-0.04479193781325245,-0.41431895951478187,1.67550493964396,0.05230843193906973,0.029912514510384777,-2.7525697983524258,0.03445253787879775,2.766299369247156,0.7692010913241054,1.6754973547542302,0.052104326824870026,0.029969505109285054,-2.752394845125968,0.0342448039870148,2.7663679543071322,0.7691630533470046,-0.0005311770976889801,-7.015074024145988e-05,0.0007181832615244147,-0.0005338527298823053,-9.891042526614114e-05,-5.775659082736725e-05,0.001353643842812525,0.0,0.0,0.0,0.0,0.0,0.0,0.0,-7.584889729850275e-06,-0.00020410511419970134,5.699059890027641e-05,0.00017495322645766365,-0.0002077338917829477,6.858505997620057e-05,-3.803797710077994e-05,0.0005311770976889801,7.015074024145988e-05,-0.0007181832615244147,0.0005338527298823053,9.891042526614114e-05,5.775659082736725e-05,-0.001353643842812525,0.24825400114059448,22.795862197875977,-0.001620553433895111,-14.131807327270508,-0.04057842493057251,-2.1453890800476074,0.43979209661483765,0
21,0.09922552108764648,-0.24825400114059448,-22.795862197875977,0.001620553433895111,14.131807327270508,0.04057842493057251,2.1453890800476074,-0.43979209661483765,0.0,0.0,0.0,0.0,0.0,0.0,0.0,-0.2779270725840162,0.0042944702727204884,-0.04722643878622195,0.25503368442208485,-0.19584060769014172,-0.04479193781325245,-0.41431895951478187,1.67550493964396,0.05230843193906973,0.029912514510384777,-2.7525697983524258,0.03445253787879775,2.766299369247156,0.7692010913241054,1.6754973547542302,0.052104326824870026,0.029969505109285054,-2.752394845125968,0.0342448039870148,2.7663679543071322,0.7691630533470046,-0.0005311770976889801,-7.015074024145988e-05,0.0007181832615244147,-0.0005338527298823053,-9.891042526614114e-05,-5.775659082736725e-05,0.001353643842812525,0.0,0.0,0.0,0.0,0.0,0.0,0.0,-7.584889729850275e-06,-0.00020410511419970134,5.699059890027641e-05,0.00017495322645766365,-0.0002077338917829477,6.858505997620057e-05,-3.803797710077994e-05,0.0005311770976889801,7.015074024145988e-05,-0.0007181832615244147,0.0005338527298823053,9.891042526614114e-05,5.775659082736725e-05,-0.001353643842812525,0.24825400114059448,22.795862197875977,-0.001620553433895111,-14.131807327270508,-0.04057842493057251,-2.1453890800476074,0.43979209661483765,0
22,0.10422825813293457,-0.2720577120780945,-22.819665908813477,0.02542426437139511,14.108003616333008,0.04057842493057251,2.1389803886413574,-0.41324180364608765,0.0,0.0,0.0,0.0,0.0,0.0,0.0,-0.273936145645349,0.012031410327839593,-0.04637001344533688,0.2478268833272132,-0.19602092810581512,-0.0460244519053823,-0.4139459043351815,1.6755066100798153,0.052312233204891076,0.029910844074529513,-2.7525681276016343,0.034452537878798054,2.76629702014716,0.7691982590284588,1.6754973547542302,0.052104326824870026,0.029969505109285054,-2.752394845125968,0.0342448039870148,2.7663679543071322,0.7691630533470046,-0.00021940998170207792,0.0009433713415165383,0.0004770795835791708,-0.0003100882295492143,-0.00017967421725440395,-0.00011456576896790916,4.927255486009115e-06,0.0,0.0,0.0,0.0,0.0,0.0,0.0,-9.255325585044716e-06,-0.0002079063800210501,5.866103475554024e-05,0.00017328247566616994,-0.00020773389178325302,7.09341599720581e-05,-3.520568145420899e-05,0.00021940998170207792,-0.0009433713415165383,-0.0004770795835791708,0.0003100882295492143,0.00017967421725440395,0.00011456576896790916,-4.927255486009115e-06,0.2720577120780945,22.819665908813477,-0.02542426437139511,-14.108003616333008,-0.04057842493057251,-2.1389803886413574,0.41324180364608765,0
23,0.10925102233886719,-0.2720577120780945,-22.819665908813477,0.02542426437139511,14.108003616333008,0.04057842493057251,2.1389803886413574,-0.41324180364608765,0.0,0.0,0.0,0.0,0.0,0.0,0.0,-0.273936145645349,0.012031410327839593,-0.04637001344533688,0.2478268833272132,-0.19602092810581512,-0.0460244519053823,-0.4139459043351815,1.6755066100798153,0.052312233204891076,0.029910844074529513,-2.7525681276016343,0.034452537878798054,2.76629702014716,0.7691982590284588,1.6754973547542302,0.052104326824870026,0.029969505109285054,-2.752394845125968,0.0342448039870148,2.7663679543071322,0.7691630533470046,-0.00021940998170207792,0.0009433713415165383,0.0004770795835791708,-0.0003100882295492143,-0.00017967421725440395,-0.00011456576896790916,4.927255486009115e-06,0.0,0.0,0.0,0.0,0.0,0.0,0.0,-9.255325585044716e-06,-0.0002079063800210501,5.866103475554024e-05,0.00017328247566616994,-0.00020773389178325302,7.09341599720581e-05,-3.520568145420899e-05,0.00021940998170207792,-0.0009433713415165383,-0.0004770795835791708,0.0003100882295492143,0.00017967421725440395,0.00011456576896790916,-4.927255486009115e-06,0.2720577120780945,22.819665908813477,-0.02542426437139511,-14.108003616333008,-0.04057842493057251,-2.1389803886413574,0.41324180364608765,0
24,0.11423158645629883,-0.24825400114059448,-22.795862197875977,0.02542426437139511,14.080232620239258,0.03416973352432251,2.1453890800476074,-0.41324180364608765,0.0,0.0,0.0,0.0,0.0,0.0,0.0,-0.27544487121914346,0.009986732173715224,-0.04785198995621532,0.2487425866000552,-0.1961966755455185,-0.045741837812953115,-0.4128647381384078,1.67550493964396,0.05231055307382182,0.029910844074529513,-2.7525661781299298,0.03445324990153343,2.766296190369322,0.7691982590291234,1.6754973547542302,0.052104326824870026,0.029969505109285054,-2.752394845125968,0.0342448039870148,2.7663679543071322,0.7691630533470046,-0.0005030346296145488,0.0005993170749481895,0.00012680923410173553,0.0006199512847248868,-0.00019573174252768383,-0.00027641229075936013,0.00024234807023184324,0.0,0.0,0.0,0.0,0.0,0.0,0.0,-7.584889729850275e-06,-0.00020622624895179353,5.866103475554024e-05,0.00017133300396166007,-0.00020844591451862904,7.17639378100543e-05,-3.5205682118788495e-05,0.0005030346296145488,-0.0005993170749481895,-0.00012680923410173553,-0.0006199512847248868,0.00019573174252768383,0.00027641229075936013,-0.00024234807023184324,0.24825400114059448,22.795862197875977,-0.02542426437139511,-14.080232620239258,-0.03416973352432251,-2.1453890800476074,0.41324180364608765,0
25,0.11921906471252441,-0.24825400114059448,-22.795862197875977,0.02542426437139511,14.080232620239258,0.03416973352432251,2.1453890800476074,-0.41324180364608765,0.0,0.0,0.0,0.0,0.0,0.0,0.0,-0.27544487121914346,0.009986732173715224,-0.04785198995621532,0.2487425866000552,-0.1961966755455185,-0.045741837812953115,-0.4128647381384078,1.67550493964396,0.05231055307382182,0.029910844074529513,-2.7525661781299298,0.03445324990153343,2.766296190369322,0.7691982590291234,1.6754973547542302,0.052104326824870026,0.029969505109285054,-2.752394845125968,0.0342448039870148,2.7663679543071322,0.7691630533470046,-0.0005030346296145488,0.0005993170749481895,0.00012680923410173553,0.0006199512847248868,-0.00019573174252768383,-0.00027641229075936013,0.00024234807023184324,0.0,0.0,0.0,0.0,0.0,0.0,0.0,-7.584889729850275e-06,-0.00020622624895179353,5.866103475554024e-05,0.00017133300396166007,-0.00020844591451862904,7.17639378100543e-05,-3.5205682118788495e-05,0.0005030346296145488,-0.0005993170749481895,-0.00012680923410173553,-0.0006199512847248868,0.00019573174252768383,0.00027641229075936013,-0.00024234807023184324,0.24825400114059448,22.795862197875977,-0.02542426437139511,-14.080232620239258,-0.03416973352432251,-2.1453890800476074,0.41324180364608765,0
26,0.12420535087585449,-0.2998287081718445,-22.772058486938477,0.02542426437139511,14.108003616333008,0.03416973352432251,2.1453890800476074,-0.41965049505233765,0.0,0.0,0.0,0.0,0.0,0.0,0.0,-0.2738429753419989,0.008051819615706158,-0.04710674965914121,0.2480124196265907,-0.196802562433578,-0.04558512347412907,-0.4099985238978462,1.6755085589216465,0.05230652475229557,0.029910844074529513,-2.752568127601629,0.034453249901533124,2.7662961903148227,0.7691989711059464,1.6754973547542302,0.052104326824870026,0.029969505109285054,-2.752394845125968,0.0342448039870148,2.7663679543071322,0.7691630533470046,0.0007854224032907886,-0.0001252279583736629,0.0003052047996597285,-0.00013305805100029974,-9.46733383377037e-05,-0.00033176141735316204,0.0008702708155760202,0.0,0.0,0.0,0.0,0.0,0.0,0.0,-1.1204167416289934e-05,-0.00020219792742554726,5.866103475554024e-05,0.00017328247566084087,-0.00020844591451832373,7.176399230957031e-05,-3.591775894173921e-05,-0.0007854224032907886,0.0001252279583736629,-0.0003052047996597285,0.00013305805100029974,9.46733383377037e-05,0.00033176141735316204,-0.0008702708155760202,0.2998287081718445,22.772058486938477,-0.02542426437139511,-14.108003616333008,-0.03416973352432251,-2.1453890800476074,0.41965049505233765,0
27,0.1294722557067871,-0.2998287081718445,-22.772058486938477,0.02542426437139511,14.108003616333008,0.03416973352432251,2.1453890800476074,-0.41965049505233765,0.0,0.0,0.0,0.0,0.0,0.0,0.0,-0.2738429753419989,0.008051819615706158,-0.04710674965914121,0.2480124196265907,-0.196802562433578,-0.04558512347412907,-0.4099985238978462,1.6755085589216465,0.05230652475229557,0.029910844074529513,-2.752568127601629,0.034453249901533124,2.7662961903148227,0.7691989711059464,1.6754973547542302,0.052104326824870026,0.029969505109285054,-2.752394845125968,0.0342448039870148,2.7663679543071322,0.7691630533470046,0.0007854224032907886,-0.0001252279583736629,0.0003052047996597285,-0.00013305805100029974,-9.46733383377037e-05,-0.00033176141735316204,0.0008702708155760202,0.0,0.0,0.0,0.0,0.0,0.0,0.0,-1.1204167416289934e-05,-0.00020219792742554726,5.866103475554024e-05,0.00017328247566084087,-0.00020844591451832373,7.176399230957031e-05,-3.591775894173921e-05,-0.0007854224032907886,0.0001252279583736629,-0.0003052047996597285,0.00013305805100029974,9.46733383377037e-05,0.00033176141735316204,-0.0008702708155760202,0.2998287081718445,22.772058486938477,-0.02542426437139511,-14.108003616333008,-0.03416973352432251,-2.1453890800476074,0.41965049505233765,0
28,0.1342170238494873,-0.2998287081718445,-22.772058486938477,0.02542426437139511,14.108003616333008,0.04057842493057251,2.1389803886413574,-0.40591758489608765,0.0,0.0,0.0,0.0,0.0,0.0,0.0,-0.2764187663477057,0.010506593025674773,-0.047760202028182305,0.2479793785334415,-0.1972139020830736,-0.04556381322448109,-0.40804662279282433,1.6755085589216465,0.05230889223294061,0.029910844074529513,-2.752566061202298,0.03445255096798407,2.766296902553151,0.76919744522704,1.6754973547542302,0.052104326824870026,0.029969505109285054,-2.752394845125968,0.0342448039870148,2.7663679543071322,0.7691630533470046,0.0005129256006425237,5.624509495069843e-05,0.0002791583130900471,0.0002086434779331244,-0.00014838704518739196,6.178967626524769e-05,-6.858098500038375e-05,0.0,0.0,0.0,0.0,0.0,0.0,0.0,-1.1204167416289934e-05,-0.0002045654080705811,5.866103475554024e-05,0.00017121607633008296,-0.0002077469809692728,7.105175398125496e-05,-3.439188003540039e-05,-0.0005129256006425237,-5.624509495069843e-05,-0.0002791583130900471,-0.0002086434779331244,0.00014838704518739196,-6.178967626524769e-05,6.858098500038375e-05,0.2998287081718445,22.772058486938477,-0.02542426437139511,-14.108003616333008,-0.04057842493057251,-2.1389803886413574,0.40591758489608765,0
29,0.13925623893737793,-0.2998287081718445,-22.772058486938477,0.02542426437139511,14.108003616333008,0.04057842493057251,2.1389803886413574,-0.40591758489608765,0.0,0.0,0.0,0.0,0.0,0.0,0.0,-0.2764187663477057,0.010506593025674773,-0.047760202028182305,0.2479793785334415,-0.1972139020830736,-0.04556381322448109,-0.40804662279282433,1.6755085589216465,0.05230889223294061,0.029910844074529513,-2.752566061202298,0.03445255096798407,2.766296902553151,0.76919744522704,1.6754973547542302,0.052104326824870026,0.029969505109285054,-2.752394845125968,0.0342448039870148,2.7663679543071322,0.7691630533470046,0.0005129256006425237,5.624509495069843e-05,0.0002791583130900471,0.0002086434779331244,-0.00014838704518739196,6.178967626524769e-05,-6.858098500038375e-05,0.0,0.0,0.0,0.0,0.0,0.0,0.0,-1.1204167416289934e-05,-0.0002045654080705811,5.866103475554024e-05,0.00017121607633008296,-0.0002077469809692728,7.105175398125496e-05,-3.439188003540039e-05,-0.0005129256006425237,-5.624509495069843e-05,-0.0002791583130900471,-0.0002086434779331244,0.00014838704518739196,-6.178967626524769e-05,6.858098500038375e-05,0.2998287081718445,22.772058486938477,-0.02542426437139511,-14.108003616333008,-0.04057842493057251,-2.1389803886413574,0.40591758489608765,0
30,0.14429497718811035,-0.3236324191093445,-22.795862197875977,0.001620553433895111,14.131807327270508,0.05248028039932251,2.1389803886413574,-0.39950889348983765,0.0,0.0,0.0,0.0,0.0,0.0,0.0,-0.28526571509679305,0.011831865231970346,-0.051342580681787986,0.249980148792198,-0.19651776104025498,-0.044843780291620436,-0.40748005537679055,1.6755102293575017,0.05231056281715099,0.029912514510384777,-2.7525697983511295,0.034451215396333036,2.766300095841536,0.7691967331502172,1.6754973547542302,0.052104326824870026,0.029969505109285054,-2.752394845125968,0.0342448039870148,2.7663679543071322,0.7691630533470046,0.0002933470369009337,0.00040003321264034245,0.0005991794349395715,-0.00023638352650133808,-0.0005800741198556262,0.00011945676850988522,-0.0007447208175471517,0.0,0.0,0.0,0.0,0.0,0.0,0.0,-1.2874603271484375e-05,-0.00020623599228096479,5.699059890027641e-05,0.00017495322516136724,-0.00020641140931823565,6.78584655964265e-05,-3.36798032125607e-05,-0.0002933470369009337,-0.00040003321264034245,-0.0005991794349395715,0.00023638352650133808,0.0005800741198556262,-0.00011945676850988522,0.0007447208175471517,0.3236324191093445,22.795862197875977,-0.001620553433895111,-14.131807327270508,-0.05248028039932251,-2.1389803886413574,0.39950889348983765,0
31,0.14927101135253906,-0.3236324191093445,-22.795862197875977,0.001620553433895111,14.131807327270508,0.05248028039932251,2.1389803886413574,-0.39950889348983765,0.0,0.0,0.0,0.0,0.0,0.0,0.0,-0.28526571509679305,0.011831865231970346,-0.051342580681787986,0.249980148792198,-0.19651776104025498,-0.044843780291620436,-0.40748005537679055,1.6755102293575017,0.05231056281715099,0.029912514510384777,-2.7525697983511295,0.034451215396333036,2.766300095841536,0.7691967331502172,1.6754973547542302,0.052104326824870026,0.029969505109285054,-2.752394845125968,0.0342448039870148,2.7663679543071322,0.7691630533470046,0.0002933470369009337,0.00040003321264034245,0.0005991794349395715,-0.00023638352650133808,-0.0005800741198556262,0.00011945676850988522,-0.0007447208175471517,0.0,0.0,0.0,0.0,0.0,0.0,0.0,-1.2874603271484375e-05,-0.00020623599228096479,5.699059890027641e-05,0.00017495322516136724,-0.00020641140931823565,6.78584655964265e-05,-3.36798032125607e-05,-0.0002933470369009337,-0.00040003321264034245,-0.0005991794349395715,0.00023638352650133808,0.0005800741198556262,-0.00011945676850988522,0.0007447208175471517,0.3236324191093445,22.795862197875977,-0.001620553433895111,-14.131807327270508,-0.05248028039932251,-2.1389803886413574,0.39950889348983765,0
32,0.15421581268310547,-0.3236324191093445,-22.795862197875977,0.001620553433895111,14.131807327270508,0.05248028039932251,2.1389803886413574,-0.39950889348983765,0.0,0.0,0.0,0.0,0.0,0.0,0.0,-0.28526571509679305,0.011831865231970346,-0.051342580681787986,0.249980148792198,-0.19651776104025498,-0.044843780291620436,-0.40748005537679055,1.6755102293575017,0.05231056281715099,0.029912514510384777,-2.7525697983511295,0.034451215396333036,2.766300095841536,0.7691967331502172,1.6754973547542302,0.052104326824870026,0.029969505109285054,-2.752394845125968,0.0342448039870148,2.7663679543071322,0.7691630533470046,0.0002933470369009337,0.00040003321264034245,0.0005991794349395715,-0.00023638352650133808,-0.0005800741198556262,0.00011945676850988522,-0.0007447208175471517,0.0,0.0,0.0,0.0,0.0,0.0,0.0,-1.2874603271484375e-05,-0.00020623599228096479,5.699059890027641e-05,0.00017495322516136724,-0.00020641140931823565,6.78584655964265e-05,-3.36798032125607e-05,-0.0002933470369009337,-0.00040003321264034245,-0.0005991794349395715,0.00023638352650133808,0.0005800741198556262,-0.00011945676850988522,0.0007447208175471517,0.3236324191093445,22.795862197875977,-0.001620553433895111,-14.131807327270508,-0.05248028039932251,-2.1389803886413574,0.39950889348983765,0
33,0.1592249870300293,-0.22445029020309448,-22.795862197875977,0.02542426437139511,14.131807327270508,0.04057842493057251,2.1453890800476074,-0.42605918645858765,0.0,0.0,0.0,0.0,0.0,0.0,0.0,-0.2802105321331087,0.00893926410831529,-0.044365812268257386,0.2503975813959761,-0.19682633607158642,-0.04452659937787223,-0.40816992493860677,1.6755032692081047,0.052308431842841153,0.029910844074529513,-2.752569795518003,0.03445360242989328,2.7662962295787064,0.7691996831827692,1.6754973547542302,0.052104326824870026,0.029969505109285054,-2.752394845125968,0.0342448039870148,2.7663679543071322,0.7691630533470046,-0.0013539766324806002,-0.0002775577624755857,0.0004247270398138324,-0.00030935706598399546,-0.000131868624832153,-0.00020252600119779338,0.008872383812211207,0.0,0.0,0.0,0.0,0.0,0.0,0.0,-5.914453874433789e-06,-0.00020410501797112762,5.866103475554024e-05,0.00017495039203474505,-0.00020879844287848004,7.172472842587041e-05,-3.66298357645789e-05,0.0013539766324806002,0.0002775577624755857,-0.0004247270398138324,0.00030935706598399546,0.000131868624832153,0.00020252600119779338,-0.008872383812211207,0.22445029020309448,22.795862197875977,-0.02542426437139511,-14.131807327270508,-0.04057842493057251,-2.1453890800476074,0.42605918645858765,0
34,0.16426944732666016,-0.22445029020309448,-22.795862197875977,0.02542426437139511,14.131807327270508,0.04057842493057251,2.1453890800476074,-0.42605918645858765,0.0,0.0,0.0,0.0,0.0,0.0,0.0,-0.2802105321331087,0.00893926410831529,-0.044365812268257386,0.2503975813959761,-0.19682633607158642,-0.04452659937787223,-0.40816992493860677,1.6755032692081047,0.052308431842841153,0.029910844074529513,-2.752569795518003,0.03445360242989328,2.7662962295787064,0.7691996831827692,1.6754973547542302,0.052104326824870026,0.029969505109285054,-2.752394845125968,0.0342448039870148,2.7663679543071322,0.7691630533470046,-0.0013539766324806002,-0.0002775577624755857,0.0004247270398138324,-0.00030935706598399546,-0.000131868624832153,-0.00020252600119779338,0.008872383812211207,0.0,0.0,0.0,0.0,0.0,0.0,0.0,-5.914453874433789e-06,-0.00020410501797112762,5.866103475554024e-05,0.00017495039203474505,-0.00020879844287848004,7.172472842587041e-05,-3.66298357645789e-05,0.0013539766324806002,0.0002775577624755857,-0.0004247270398138324,0.00030935706598399546,0.000131868624832153,0.00020252600119779338,-0.008872383812211207,0.22445029020309448,22.795862197875977,-0.02542426437139511,-14.131807327270508,-0.04057842493057251,-2.1453890800476074,0.42605918645858765,0
35,0.1692042350769043,-0.2720577120780945,-22.795862197875977,0.02542426437139511,14.080232620239258,0.02867656946182251,2.1453890800476074,-0.45352500677108765,0.0,0.0,0.0,0.0,0.0,0.0,0.0,-0.2783003296180687,0.013779057618670699,-0.042103799522077226,0.24609554903321926,-0.19659951010086552,-0.04516501284168359,-0.4105723541898529,1.6755066100798153,0.0523098525164381,0.029910844074529513,-2.7525661790747233,0.034453860259105344,2.7662993823113844,0.7692027349405818,1.6754973547542302,0.052104326824870026,0.029969505109285054,-2.752394845125968,0.0342448039870148,2.7663679543071322,0.7691630533470046,0.00018505380403847818,9.044652529776786e-05,0.0006483430798230865,0.0008705670779947861,0.0005100189160099617,-0.00011257348961764427,0.0017902179777541255,0.0,0.0,0.0,0.0,0.0,0.0,0.0,-9.255325585044716e-06,-0.0002055256915680717,5.866103475554024e-05,0.00017133394875523678,-0.00020905627209054367,6.857199574783479e-05,-3.968159357714551e-05,-0.00018505380403847818,-9.044652529776786e-05,-0.0006483430798230865,-0.0008705670779947861,-0.0005100189160099617,0.00011257348961764427,-0.0017902179777541255,0.2720577120780945,22.795862197875977,-0.02542426437139511,-14.080232620239258,-0.02867656946182251,-2.1453890800476074,0.45352500677108765,0
36,0.17421531677246094,-0.2720577120780945,-22.795862197875977,0.02542426437139511,14.080232620239258,0.02867656946182251,2.1453890800476074,-0.45352500677108765,0.0,0.0,0.0,0.0,0.0,0.0,0.0,-0.2783003296180687,0.013779057618670699,-0.042103799522077226,0.24609554903321926,-0.19659951010086552,-0.04516501284168359,-0.4105723541898529,1.6755066100798153,0.0523098525164381,0.029910844074529513,-2.7525661790747233,0.034453860259105344,2.7662993823113844,0.7692027349405818,1.6754973547542302,0.052104326824870026,0.029969505109285054,-2.752394845125968,0.0342448039870148,2.7663679543071322,0.7691630533470046,0.00018505380403847818,9.044652529776786e-05,0.0006483430798230865,0.0008705670779947861,0.0005100189160099617,-0.00011257348961764427,0.0017902179777541255,0.0,0.0,0.0,0.0,0.0,0.0,0.0,-9.255325585044716e-06,-0.0002055256915680717,5.866103475554024e-05,0.00017133394875523678,-0.00020905627209054367,6.857199574783479e-05,-3.968159357714551e-05,-0.00018505380403847818,-9.044652529776786e-05,-0.0006483430798230865,-0.0008705670779947861,-0.0005100189160099617,0.00011257348961764427,-0.0017902179777541255,0.2720577120780945,22.795862197875977,-0.02542426437139511,-14.080232620239258,-0.02867656946182251,-2.1453890800476074,0.45352500677108765,0
37,0.17920303344726562,-0.24825400114059448,-22.819665908813477,0.04922797530889511,14.108003616333008,0.04057842493057251,2.1389803886413574,-0.39950889348983765,0.0,0.0,0.0,0.0,0.0,0.0,0.0,-0.27940020614571487,0.004353815189818967,-0.04278648307027464,0.2543098796094392,-0.19616029052967845,-0.04352497546773298,-0.414280939402111,1.67550493964396,0.052312224480000585,0.02990917363867425,-2.7525681279165704,0.034452537824710236,2.7662970201472343,0.7691967331502172,1.6754973547542302,0.052104326824870026,0.029969505109285054,-2.752394845125968,0.0342448039870148,2.7663679543071322,0.7691630533470046,-0.0006712372744195437,0.00045426336881416546,0.00020010572805118318,0.0009320385797233792,-0.00032234789492660717,6.834397324518035e-06,-0.0008198221455339976,0.0,0.0,0.0,0.0,0.0,0.0,0.0,-7.584889729850275e-06,-0.00020789765513055947,6.033147061080407e-05,0.00017328279060224716,-0.00020773383769543546,7.09341598978952e-05,-3.36798032125607e-05,0.0006712372744195437,-0.00045426336881416546,-0.00020010572805118318,-0.0009320385797233792,0.00032234789492660717,-6.834397324518035e-06,0.0008198221455339976,0.24825400114059448,22.819665908813477,-0.04922797530889511,-14.108003616333008,-0.04057842493057251,-2.1389803886413574,0.39950889348983765,0
38,0.1842195987701416,-0.24825400114059448,-22.819665908813477,0.04922797530889511,14.108003616333008,0.04057842493057251,2.1389803886413574,-0.39950889348983765,0.0,0.0,0.0,0.0,0.0,0.0,0.0,-0.27940020614571487,0.004353815189818967,-0.04278648307027464,0.2543098796094392,-0.19616029052967845,-0.04352497546773298,-0.414280939402111,1.67550493964396,0.052312224480000585,0.02990917363867425,-2.7525681279165704,0.034452537824710236,2.7662970201472343,0.7691967331502172,1.6754973547542302,0.052104326824870026,0.029969505109285054,-2.752394845125968,0.0342448039870148,2.7663679543071322,0.7691630533470046,-0.0006712372744195437,0.00045426336881416546,0.00020010572805118318,0.0009320385797233792,-0.00032234789492660717,6.834397324518035e-06,-0.0008198221455339976,0.0,0.0,0.0,0.0,0.0,0.0,0.0,-7.584889729850275e-06,-0.00020789765513055947,6.033147061080407e-05,0.00017328279060224716,-0.00020773383769543546,7.09341598978952e-05,-3.36798032125607e-05,0.0006712372744195437,-0.00045426336881416546,-0.00020010572805118318,-0.0009320385797233792,0.00032234789492660717,-6.834397324518035e-06,0.0008198221455339976,0.24825400114059448,22.819665908813477,-0.04922797530889511,-14.108003616333008,-0.04057842493057251,-2.1389803886413574,0.39950889348983765,0
39,0.18925237655639648,-0.2720577120780945,-22.819665908813477,0.02542426437139511,14.108003616333008,0.03416973352432251,2.1325716972351074,-0.45352500677108765,0.0,0.0,0.0,0.0,0.0,0.0,0.0,-0.27908010106745235,0.014304709443940754,-0.04269411092609588,0.24397439588570632,-0.19655502699905147,-0.04592969919936807,-0.4162013097977941,1.6755066100798153,0.05231223325295682,0.029910844074529513,-2.7525681276016343,0.034453249901533124,2.766297614469133,0.769202730579931,1.6754973547542302,0.052104326824870026,0.029969505109285054,-2.752394845125968,0.0342448039870148,2.7663679543071322,0.7691630533470046,5.587115341103472e-05,0.0008099317238689505,0.00022773886143694148,-0.0003390980470709812,0.00012217762667911806,0.00021676868441853017,0.0011878888034941091,0.0,0.0,0.0,0.0,0.0,0.0,0.0,-9.255325585044716e-06,-0.00020790642808679594,5.866103475554024e-05,0.00017328247566616994,-0.00020844591451832373,7.033983799908938e-05,-3.967723292641612e-05,-5.587115341103472e-05,-0.0008099317238689505,-0.00022773886143694148,0.0003390980470709812,-0.00012217762667911806,-0.00021676868441853017,-0.0011878888034941091,0.2720577120780945,22.819665908813477,-0.02542426437139511,-14.108003616333008,-0.03416973352432251,-2.1325716972351074,0.45352500677108765,0
40,0.19421720504760742,-0.2720577120780945,-22.819665908813477,0.02542426437139511,14.108003616333008,0.03416973352432251,2.1325716972351074,-0.45352500677108765,0.0,0.0,0.0,0.0,0.0,0.0,0.0,-0.27908010106745235,0.014304709443940754,-0.04269411092609588,0.24397439588570632,-0.19655502699905147,-0.04592969919936807,-0.4162013097977941,1.6755066100798153,0.05231223325295682,0.029910844074529513,-2.7525681276016343,0.034453249901533124,2.766297614469133,0.769202730579931,1.6754973547542302,0.052104326824870026,0.029969505109285054,-2.752394845125968,0.0342448039870148,2.7663679543071322,0.7691630533470046,5.587115341103472e-05,0.0008099317238689505,0.00022773886143694148,-0.0003390980470709812,0.00012217762667911806,0.00021676868441853017,0.0011878888034941091,0.0,0.0,0.0,0.0,0.0,0.0,0.0,-9.255325585044716e-06,-0.00020790642808679594,5.866103475554024e-05,0.00017328247566616994,-0.00020844591451832373,7.033983799908938e-05,-3.967723292641612e-05,-5.587115341103472e-05,-0.0008099317238689505,-0.00022773886143694148,0.0003390980470709812,-0.00012217762667911806,-0.00021676868441853017,-0.0011878888034941091,0.2720577120780945,22.819665908813477,-0.02542426437139511,-14.108003616333008,-0.03416973352432251,-2.1325716972351074,0.45352500677108765,0
41,0.19922327995300293,-0.2720577120780945,-22.819665908813477,0.02542426437139511,14.108003616333008,0.03416973352432251,2.1325716972351074,-0.45352500677108765,0.0,0.0,0.0,0.0,0.0,0.0,0.0,-0.27908010106745235,0.014304709443940754,-0.04269411092609588,0.24397439588570632,-0.19655502699905147,-0.04592969919936807,-0.4162013097977941,1.6755066100798153,0.05231223325295682,0.029910844074529513,-2.7525681276016343,0.034453249901533124,2.766297614469133,0.769202730579931,1.6754973547542302,0.052104326824870026,0.029969505109285054,-2.752394845125968,0.0342448039870148,2.7663679543071322,0.7691630533470046,5.587115341103472e-05,0.0008099317238689505,0.00022773886143694148,-0.0003390980470709812,0.00012217762667911806,0.00021676868441853017,0.0011878888034941091,0.0,0.0,0.0,0.0,0.0,0.0,0.0,-9.255325585044716e-06,-0.00020790642808679594,5.866103475554024e-05,0.00017328247566616994,-0.00020844591451832373,7.033983799908938e-05,-3.967723292641612e-05,-5.587115341103472e-05,-0.0008099317238689505,-0.00022773886143694148,0.0003390980470709812,-0.00012217762667911806,-0.00021676868441853017,-0.0011878888034941091,0.2720577120780945,22.819665908813477,-0.02542426437139511,-14.108003616333008,-0.03416973352432251,-2.1325716972351074,0.45352500677108765,0
42,0.20420455932617188,-0.2720577120780945,-22.819665908813477,0.02542426437139511,14.108003616333008,0.03416973352432251,2.1325716972351074,-0.45352500677108765,0.0,0.0,0.0,0.0,0.0,0.0,0.0,-0.27908010106745235,0.014304709443940754,-0.04269411092609588,0.24397439588570632,-0.19655502699905147,-0.04592969919936807,-0.4162013097977941,1.6755066100798153,0.05231223325295682,0.029910844074529513,-2.7525681276016343,0.034453249901533124,2.766297614469133,0.769202730579931,1.6754973547542302,0.052104326824870026,0.029969505109285054,-2.752394845125968,0.0342448039870148,2.7663679543071322,0.7691630533470046,5.587115341103472e-05,0.0008099317238689505,0.00022773886143694148,-0.0003390980470709812,0.00012217762667911806,0.00021676868441853017,0.0011878888034941091,0.0,0.0,0.0,0.0,0.0,0.0,0.0,-9.255325585044716e-06,-0.00020790642808679594,5.866103475554024e-05,0.00017328247566616994,-0.00020844591451832373,7.033983799908938e-05,-3.967723292641612e-05,-5.587115341103472e-05,-0.0008099317238689505,-0.00022773886143694148,0.0003390980470709812,-0.00012217762667911806,-0.00021676868441853017,-0.0011878888034941091,0.2720577120780945,22.819665908813477,-0.02542426437139511,-14.108003616333008,-0.03416973352432251,-2.1325716972351074,0.45352500677108765,0
43,0.20920681953430176,-0.2720577120780945,-22.795862197875977,0.02542426437139511,14.108003616333008,0.02226787805557251,2.1517977714538574,-0.42605918645858765,0.0,0.0,0.0,0.0,0.0,0.0,0.0,-0.2791909750897819,0.006285073121973342,-0.045328792519708366,0.24905328999410606,-0.19581442027543472,-0.0453142250723056,-0.4168325436150792,1.6755066100798153,0.05231056184281818,0.02991084699582483,-2.7525681279165686,0.03445457232991855,2.7662955959755697,0.7691995653913395,1.6754973547542302,0.052104326824870026,0.029969505109285054,-2.752394845125968,0.0342448039870148,2.7663679543071322,0.7691630533470046,-0.000202468933711452,7.721946510501054e-05,7.727807650418022e-05,-0.00013245443353552476,0.0004593447099020122,-0.0006915142881052908,0.0004602881169184988,0.0,0.0,0.0,0.0,0.0,0.0,0.0,-9.255325585044716e-06,-0.0002062350179481559,5.865811346022348e-05,0.0001732827906004708,-0.00020976834290374613,7.235833156249427e-05,-3.651204433485766e-05,0.000202468933711452,-7.721946510501054e-05,-7.727807650418022e-05,0.00013245443353552476,-0.0004593447099020122,0.0006915142881052908,-0.0004602881169184988,0.2720577120780945,22.795862197875977,-0.02542426437139511,-14.108003616333008,-0.02226787805557251,-2.1517977714538574,0.42605918645858765,0
44,0.21421051025390625,-0.2720577120780945,-22.795862197875977,0.02542426437139511,14.108003616333008,0.02226787805557251,2.1517977714538574,-0.42605918645858765,0.0,0.0,0.0,0.0,0.0,0.0,0.0,-0.2791909750897819,0.006285073121973342,-0.045328792519708366,0.24905328999410606,-0.19581442027543472,-0.0453142250723056,-0.4168325436150792,1.6755066100798153,0.05231056184281818,0.02991084699582483,-2.7525681279165686,0.03445457232991855,2.7662955959755697,0.7691995653913395,1.6754973547542302,0.052104326824870026,0.029969505109285054,-2.752394845125968,0.0342448039870148,2.7663679543071322,0.7691630533470046,-0.000202468933711452,7.721946510501054e-05,7.727807650418022e-05,-0.00013245443353552476,0.0004593447099020122,-0.0006915142881052908,0.0004602881169184988,0.0,0.0,0.0,0.0,0.0,0.0,0.0,-9.255325585044716e-06,-0.0002062350179481559,5.865811346022348e-05,0.0001732827906004708,-0.00020976834290374613,7.235833156249427e-05,-3.651204433485766e-05,0.000202468933711452,-7.721946510501054e-05,-7.727807650418022e-05,0.00013245443353552476,-0.0004593447099020122,0.0006915142881052908,-0.0004602881169184988,0.2720577120780945,22.795862197875977,-0.02542426437139511,-14.108003616333008,-0.02226787805557251,-2.1517977714538574,0.42605918645858765,0
45,0.21921324729919434,-0.2998287081718445,-22.795862197875977,0.02542426437139511,14.108003616333008,0.04057842493057251,2.1325716972351074,-0.40591758489608765,0.0,0.0,0.0,0.0,0.0,0.0,0.0,-0.27855493051110763,0.01135731570570414,-0.045392331298393485,0.24632157866117738,-0.19593426284749815,-0.046140046260327215,-0.41714332314083813,1.6755085589216465,0.052310299602917165,0.029910844074546004,-2.7525681279165704,0.03445253928507397,2.766297627712591,0.7691974452263751,1.6754973547542302,0.052104326824870026,0.029969505109285054,-2.752394845125968,0.0342448039870148,2.7663679543071322,0.7691630533470046,0.00019229370692303016,0.0005636548025461359,-2.3288947880245338e-05,-9.047656965486568e-05,-0.00021476892941641132,0.00028601388518987734,-5.324184642331711e-05,0.0,0.0,0.0,0.0,0.0,0.0,0.0,-1.1204167416289934e-05,-0.00020597277804713932,5.866103473904996e-05,0.00017328279060224716,-0.00020773529805916818,7.032659454120349e-05,-3.439187937048782e-05,-0.00019229370692303016,-0.0005636548025461359,2.3288947880245338e-05,9.047656965486568e-05,0.00021476892941641132,-0.00028601388518987734,5.324184642331711e-05,0.2998287081718445,22.795862197875977,-0.02542426437139511,-14.108003616333008,-0.04057842493057251,-2.1325716972351074,0.40591758489608765,0
46,0.2242131233215332,-0.2998287081718445,-22.795862197875977,0.02542426437139511,14.108003616333008,0.04057842493057251,2.1325716972351074,-0.40591758489608765,0.0,0.0,0.0,0.0,0.0,0.0,0.0,-0.27855493051110763,0.01135731570570414,-0.045392331298393485,0.24632157866117738,-0.19593426284749815,-0.046140046260327215,-0.41714332314083813,1.6755085589216465,0.052310299602917165,0.029910844074546004,-2.7525681279165704,0.03445253928507397,2.766297627712591,0.7691974452263751,1.6754973547542302,0.052104326824870026,0.029969505109285054,-2.752394845125968,0.0342448039870148,2.7663679543071322,0.7691630533470046,0.00019229370692303016,0.0005636548025461359,-2.3288947880245338e-05,-9.047656965486568e-05,-0.00021476892941641132,0.00028601388518987734,-5.324184642331711e-05,0.0,0.0,0.0,0.0,0.0,0.0,0.0,-1.1204167416289934e-05,-0.00020597277804713932,5.866103473904996e-05,0.00017328279060224716,-0.00020773529805916818,7.032659454120349e-05,-3.439187937048782e-05,-0.00019229370692303016,-0.0005636548025461359,2.3288947880245338e-05,9.047656965486568e-05,0.00021476892941641132,-0.00028601388518987734,5.324184642331711e-05,0.2998287081718445,22.795862197875977,-0.02542426437139511,-14.108003616333008,-0.04057842493057251,-2.1325716972351074,0.40591758489608765,0
47,0.22921204566955566,-0.2998287081718445,-22.795862197875977,0.001620553433895111,14.131807327270508,0.03416973352432251,2.1389803886413574,-0.38577598333358765,0.0,0.0,0.0,0.0,0.0,0.0,0.0,-0.28001391368824524,0.00786543608712311,-0.04515805671717104,0.25133965501127764,-0.1960394667548359,-0.04560529145384372,-0.41624158210063333,1.6755085589216465,0.05230843162483688,0.029912514510384777,-2.7525697983524258,0.03445324990154137,2.76629690239172,0.7691952072713109,1.6754973547542302,0.052104326824870026,0.029969505109285054,-2.752394845125968,0.0342448039870148,2.7663679543071322,0.7691630533470046,0.00034827117660615113,0.0001764954628787852,0.0009925041459836015,-0.0001389076203300114,9.269250746145259e-05,0.0001522805103726479,-0.0014369040242501311,0.0,0.0,0.0,0.0,0.0,0.0,0.0,-1.1204167416289934e-05,-0.00020410479996685327,5.699059890027641e-05,0.00017495322645766365,-0.00020844591452656713,7.105191541212363e-05,-3.215392430622188e-05,-0.00034827117660615113,-0.0001764954628787852,-0.0009925041459836015,0.0001389076203300114,-9.269250746145259e-05,-0.0001522805103726479,0.0014369040242501311,0.2998287081718445,22.795862197875977,-0.001620553433895111,-14.131807327270508,-0.03416973352432251,-2.1389803886413574,0.38577598333358765,0
48,0.2342088222503662,-0.2998287081718445,-22.795862197875977,0.001620553433895111,14.131807327270508,0.03416973352432251,2.1389803886413574,-0.38577598333358765,0.0,0.0,0.0,0.0,0.0,0.0,0.0,-0.28001391368824524,0.00786543608712311,-0.04515805671717104,0.25133965501127764,-0.1960394667548359,-0.04560529145384372,-0.41624158210063333,1.6755085589216465,0.05230843162483688,0.029912514510384777,-2.7525697983524258,0.03445324990154137,2.76629690239172,0.7691952072713109,1.6754973547542302,0.052104326824870026,0.029969505109285054,-2.752394845125968,0.0342448039870148,2.7663679543071322,0.7691630533470046,0.00034827117660615113,0.0001764954628787852,0.0009925041459836015,-0.0001389076203300114,9.269250746145259e-05,0.0001522805103726479,-0.0014369040242501311,0.0,0.0,0.0,0.0,0.0,0.0,0.0,-1.1204167416289934e-05,-0.00020410479996685327,5.699059890027641e-05,0.00017495322645766365,-0.00020844591452656713,7.105191541212363e-05,-3.215392430622188e-05,-0.00034827117660615113,-0.0001764954628787852,-0.0009925041459836015,0.0001389076203300114,-9.269250746145259e-05,-0.0001522805103726479,0.0014369040242501311,0.2998287081718445,22.795862197875977,-0.001620553433895111,-14.131807327270508,-0.03416973352432251,-2.1389803886413574,0.38577598333358765,0
49,0.23927521705627441,-0.2998287081718445,-22.795862197875977,0.02542426437139511,14.108003616333008,0.04057842493057251,2.1517977714538574,-0.44711631536483765,0.0,0.0,0.0,0.0,0.0,0.0,0.0,-0.2851191530860547,0.007336188071648794,-0.04972264720755002,0.25100582929874804,-0.19542247914192454,-0.04560134345864267,-0.415717289475665,1.6755085589216465,0.05231055988212174,0.029910844074529513,-2.7525681278115917,0.03445253782471021,2.766295478238,0.7692020228637588,1.6754973547542302,0.052104326824870026,0.029969505109285054,-2.752394845125968,0.0342448039870148,2.7663679543071322,0.7691630533470046,0.0008271366151144687,-1.0746150438681356e-05,-0.000355424253311994,0.00024346778810762737,-0.000187036875455014,-0.0005823091333084632,0.0012843339148855088,0.0,0.0,0.0,0.0,0.0,0.0,0.0,-1.1204167416289934e-05,-0.00020623305725171737,5.866103475554024e-05,0.00017328268562355476,-0.0002077338376954077,7.247606913241e-05,-3.89695167541948e-05,-0.0008271366151144687,1.0746150438681356e-05,0.000355424253311994,-0.00024346778810762737,0.000187036875455014,0.0005823091333084632,-0.0012843339148855088,0.2998287081718445,22.795862197875977,-0.02542426437139511,-14.108003616333008,-0.04057842493057251,-2.1517977714538574,0.44711631536483765,0
50,0.2442018985748291,-0.2998287081718445,-22.795862197875977,0.02542426437139511,14.108003616333008,0.04057842493057251,2.1517977714538574,-0.44711631536483765,0.0,0.0,0.0,0.0,0.0,0.0,0.0,-0.2851191530860547,0.007336188071648794,-0.04972264720755002,0.25100582929874804,-0.19542247914192454,-0.04560134345864267,-0.415717289475665,1.6755085589216465,0.05231055988212174,0.029910844074529513,-2.7525681278115917,0.03445253782471021,2.766295478238,0.7692020228637588,1.6754973547542302,0.052104326824870026,0.029969505109285054,-2.752394845125968,0.0342448039870148,2.7663679543071322,0.7691630533470046,0.0008271366151144687,-1.0746150438681356e-05,-0.000355424253311994,0.00024346778810762737,-0.000187036875455014,-0.0005823091333084632,0.0012843339148855088,0.0,0.0,0.0,0.0,0.0,0.0,0.0,-1.1204167416289934e-05,-0.00020623305725171737,5.866103475554024e-05,0.00017328268562355476,-0.0002077338376954077,7.247606913241e-05,-3.89695167541948e-05,-0.0008271366151144687,1.0746150438681356e-05,0.000355424253311994,-0.00024346778810762737,0.000187036875455014,0.0005823091333084632,-0.0012843339148855088,0.2998287081718445,22.795862197875977,-0.02542426437139511,-14.108003616333008,-0.04057842493057251,-2.1517977714538574,0.44711631536483765,0
51,0.24925565719604492,-0.22445029020309448,-22.795862197875977,0.02542426437139511,14.131807327270508,0.03416973352432251,2.1453890800476074,-0.41965049505233765,0.0,0.0,0.0,0.0,0.0,0.0,0.0,-0.2814146086942773,0.00010762250639549351,-0.05175351112644235,0.2568846392119642,-0.19569580268292808,-0.044574541562512136,-0.4149710583878199,1.6755032692081047,0.05231056280511676,0.029910844074529513,-2.7525697983524258,0.034453249901533124,2.7662961903148227,0.7691989711059464,1.6754973547542302,0.052104326824870026,0.029969505109285054,-2.752394845125968,0.0342448039870148,2.7663679543071322,0.7691630533470046,-0.0011167173005791813,-0.00030654675141804025,0.0001678368722997569,2.2690891921476642e-05,0.00019689304017787027,-0.00010693935214611901,0.0006968906303543935,0.0,0.0,0.0,0.0,0.0,0.0,0.0,-5.914453874433789e-06,-0.000206235980246737,5.866103475554024e-05,0.00017495322645766365,-0.00020844591451832373,7.176399230957031e-05,-3.591775894173921e-05,0.0011167173005791813,0.00030654675141804025,-0.0001678368722997569,-2.2690891921476642e-05,-0.00019689304017787027,0.00010693935214611901,-0.0006968906303543935,0.22445029020309448,22.795862197875977,-0.02542426437139511,-14.131807327270508,-0.03416973352432251,-2.1453890800476074,0.41965049505233765,0
52,0.25423383712768555,-0.22445029020309448,-22.795862197875977,0.02542426437139511,14.131807327270508,0.03416973352432251,2.1453890800476074,-0.41965049505233765,0.0,0.0,0.0,0.0,0.0,0.0,0.0,-0.2814146086942773,0.00010762250639549351,-0.05175351112644235,0.2568846392119642,-0.19569580268292808,-0.044574541562512136,-0.4149710583878199,1.6755032692081047,0.05231056280511676,0.029910844074529513,-2.7525697983524258,0.034453249901533124,2.7662961903148227,0.7691989711059464,1.6754973547542302,0.052104326824870026,0.029969505109285054,-2.752394845125968,0.0342448039870148,2.7663679543071322,0.7691630533470046,-0.0011167173005791813,-0.00030654675141804025,0.0001678368722997569,2.2690891921476642e-05,0.00019689304017787027,-0.00010693935214611901,0.0006968906303543935,0.0,0.0,0.0,0.0,0.0,0.0,0.0,-5.914453874433789e-06,-0.000206235980246737,5.866103475554024e-05,0.00017495322645766365,-0.00020844591451832373,7.176399230957031e-05,-3.591775894173921e-05,0.0011167173005791813,0.00030654675141804025,-0.0001678368722997569,-2.2690891921476642e-05,-0.00019689304017787027,0.00010693935214611901,-0.0006968906303543935,0.22445029020309448,22.795862197875977,-0.02542426437139511,-14.131807327270508,-0.03416973352432251,-2.1453890800476074,0.41965049505233765,0
53,0.25925326347351074,-0.24825400114059448,-22.819665908813477,0.04922797530889511,14.056428909301758,0.04057842493057251,2.1261630058288574,-0.39218467473983765,0.0,0.0,0.0,0.0,0.0,0.0,0.0,-0.27589239811173605,0.008206453793297852,-0.048346142783613474,0.2503079725724543,-0.19620002236626125,-0.04571923109199885,-0.4126233747376643,1.67550493964396,0.052312153357708537,0.02990917363867425,-2.752564508638884,0.034452538311498124,2.7662983265991268,0.7691959193481338,1.6754973547542302,0.052104326824870026,0.029969505109285054,-2.752394845125968,0.0342448039870148,2.7663679543071322,0.7691630533470046,-0.000530144491063947,0.0005910400305664928,-3.879576272963662e-05,0.0014442967802560415,-0.00022194859192575643,0.00039529447609649147,-0.0005704054110097915,0.0,0.0,0.0,0.0,0.0,0.0,0.0,-7.584889729850275e-06,-0.00020782653283851066,6.033147061080407e-05,0.0001696635129158075,-0.00020773432448332324,6.96277080054486e-05,-3.2866001129172595e-05,0.000530144491063947,-0.0005910400305664928,3.879576272963662e-05,-0.0014442967802560415,0.00022194859192575643,-0.00039529447609649147,0.0005704054110097915,0.24825400114059448,22.819665908813477,-0.04922797530889511,-14.056428909301758,-0.04057842493057251,-2.1261630058288574,0.39218467473983765,0
54,0.26427268981933594,-0.24825400114059448,-22.819665908813477,0.04922797530889511,14.056428909301758,0.04057842493057251,2.1261630058288574,-0.39218467473983765,0.0,0.0,0.0,0.0,0.0,0.0,0.0,-0.27589239811173605,0.008206453793297852,-0.048346142783613474,0.2503079725724543,-0.19620002236626125,-0.04571923109199885,-0.4126233747376643,1.67550493964396,0.052312153357708537,0.02990917363867425,-2.752564508638884,0.034452538311498124,2.7662983265991268,0.7691959193481338,1.6754973547542302,0.052104326824870026,0.029969505109285054,-2.752394845125968,0.0342448039870148,2.7663679543071322,0.7691630533470046,-0.000530144491063947,0.0005910400305664928,-3.879576272963662e-05,0.0014442967802560415,-0.00022194859192575643,0.00039529447609649147,-0.0005704054110097915,0.0,0.0,0.0,0.0,0.0,0.0,0.0,-7.584889729850275e-06,-0.00020782653283851066,6.033147061080407e-05,0.0001696635129158075,-0.00020773432448332324,6.96277080054486e-05,-3.2866001129172595e-05,0.000530144491063947,-0.0005910400305664928,3.879576272963662e-05,-0.0014442967802560415,0.00022194859192575643,-0.00039529447609649147,0.0005704054110097915,0.24825400114059448,22.819665908813477,-0.04922797530889511,-14.056428909301758,-0.04057842493057251,-2.1261630058288574,0.39218467473983765,0
55,0.26924848556518555,-0.24825400114059448,-22.748254776000977,0.02542426437139511,14.108003616333008,0.02867656946182251,2.1389803886413574,-0.39218467473983765,0.0,0.0,0.0,0.0,0.0,0.0,0.0,-0.27835538184332204,0.0028060123590303515,-0.051718059601053246,0.2544609147374532,-0.1956918194147929,-0.045083129948539184,-0.41078791235316436,1.6755049308136423,0.0523064736212365,0.029910844074529513,-2.7525681279165704,0.03445386025309837,2.766296915473598,0.7691959193481338,1.6754973547542302,0.052104326824870026,0.029969505109285054,-2.752394845125968,0.0342448039870148,2.7663679543071322,0.7691630533470046,-0.0007128914049096395,-0.0010763142190839117,0.0004587476001381886,0.0002816615404325439,0.0002760115105962292,0.0001557708162207434,-0.0006558337039822147,0.0,0.0,0.0,0.0,0.0,0.0,0.0,-7.5760594120399816e-06,-0.00020214679636647304,5.866103475554024e-05,0.00017328279060224716,-0.00020905626608357097,7.103883353432039e-05,-3.2866001129172595e-05,0.0007128914049096395,0.0010763142190839117,-0.0004587476001381886,-0.0002816615404325439,-0.0002760115105962292,-0.0001557708162207434,0.0006558337039822147,0.24825400114059448,22.748254776000977,-0.02542426437139511,-14.108003616333008,-0.02867656946182251,-2.1389803886413574,0.39218467473983765,0
56,0.2742161750793457,-0.24825400114059448,-22.748254776000977,0.02542426437139511,14.108003616333008,0.02867656946182251,2.1389803886413574,-0.39218467473983765,0.0,0.0,0.0,0.0,0.0,0.0,0.0,-0.27835538184332204,0.0028060123590303515,-0.051718059601053246,0.2544609147374532,-0.1956918194147929,-0.045083129948539184,-0.41078791235316436,1.6755049308136423,0.0523064736212365,0.029910844074529513,-2.7525681279165704,0.03445386025309837,2.766296915473598,0.7691959193481338,1.6754973547542302,0.052104326824870026,0.029969505109285054,-2.752394845125968,0.0342448039870148,2.7663679543071322,0.7691630533470046,-0.0007128914049096395,-0.0010763142190839117,0.0004587476001381886,0.0002816615404325439,0.0002760115105962292,0.0001557708162207434,-0.0006558337039822147,0.0,0.0,0.0,0.0,0.0,0.0,0.0,-7.5760594120399816e-06,-0.00020214679636647304,5.866103475554024e-05,0.00017328279060224716,-0.00020905626608357097,7.103883353432039e-05,-3.2866001129172595e-05,0.0007128914049096395,0.0010763142190839117,-0.0004587476001381886,-0.0002816615404325439,-0.0002760115105962292,-0.0001557708162207434,0.0006558337039822147,0.24825400114059448,22.748254776000977,-0.02542426437139511,-14.108003616333008,-0.02867656946182251,-2.1389803886413574,0.39218467473983765,0
57,0.27921557426452637,-0.2720577120780945,-22.795862197875977,0.02542426437139511,14.108003616333008,0.03416973352432251,2.1389803886413574,-0.43979209661483765,0.0,0.0,0.0,0.0,0.0,0.0,0.0,-0.2724500672815111,0.006343718431405155,-0.04424046038564035,0.24952220285537094,-0.19632895086755617,-0.04559836954024256,-0.40915159897092174,1.6755066100797655,0.052310480968963236,0.029910844074529513,-2.7525681194133016,0.034453249901533124,2.766296902391719,0.7692012085771587,1.6754973547542302,0.052104326824870026,0.029969505109285054,-2.752394845125968,0.0342448039870148,2.7663679543071322,0.7691630533470046,0.00041417555250169064,0.00015036292080806518,0.0005214548510255464,-0.00012567543686434047,0.00012226868194213373,-5.338953607470493e-05,0.0013076757181257846,0.0,0.0,0.0,0.0,0.0,0.0,0.0,-9.255325535306724e-06,-0.00020615414409320965,5.866103475554024e-05,0.00017327428733349137,-0.00020844591451832373,7.105191541301181e-05,-3.815523015404665e-05,-0.00041417555250169064,-0.00015036292080806518,-0.0005214548510255464,0.00012567543686434047,-0.00012226868194213373,5.338953607470493e-05,-0.0013076757181257846,0.2720577120780945,22.795862197875977,-0.02542426437139511,-14.108003616333008,-0.03416973352432251,-2.1389803886413574,0.43979209661483765,0
58,0.28420591354370117,-0.2720577120780945,-22.795862197875977,0.02542426437139511,14.108003616333008,0.03416973352432251,2.1389803886413574,-0.43979209661483765,0.0,0.0,0.0,0.0,0.0,0.0,0.0,-0.2724500672815111,0.006343718431405155,-0.04424046038564035,0.24952220285537094,-0.19632895086755617,-0.04559836954024256,-0.40915159897092174,1.6755066100797655,0.052310480968963236,0.029910844074529513,-2.7525681194133016,0.034453249901533124,2.766296902391719,0.7692012085771587,1.6754973547542302,0.052104326824870026,0.029969505109285054,-2.752394845125968,0.0342448039870148,2.7663679543071322,0.7691630533470046,0.00041417555250169064,0.00015036292080806518,0.0005214548510255464,-0.00012567543686434047,0.00012226868194213373,-5.338953607470493e-05,0.0013076757181257846,0.0,0.0,0.0,0.0,0.0,0.0,0.0,-9.255325535306724e-06,-0.00020615414409320965,5.866103475554024e-05,0.00017327428733349137,-0.00020844591451832373,7.105191541301181e-05,-3.815523015404665e-05,-0.00041417555250169064,-0.00015036292080806518,-0.0005214548510255464,0.00012567543686434047,-0.00012226868194213373,5.338953607470493e-05,-0.0013076757181257846,0.2720577120780945,22.795862197875977,-0.02542426437139511,-14.108003616333008,-0.03416973352432251,-2.1389803886413574,0.43979209661483765,0
59,0.28923869132995605,-0.2720577120780945,-22.795862197875977,0.04922797530889511,14.131807327270508,0.03416973352432251,2.1453890800476074,-0.37845176458358765,0.0,0.0,0.0,0.0,0.0,0.0,0.0,-0.27440934797760025,0.0075373756163064,-0.04742759924912133,0.25094832175293874,-0.19591500092416145,-0.04489233609423689,-0.4086483886436816,1.6755066100798153,0.05231048097272551,0.02990917363867425,-2.752569798247399,0.034453249901533124,2.7662961903148227,0.7691943934692248,1.6754973547542302,0.052104326824870026,0.029969505109285054,-2.752394845125968,0.0342448039870148,2.7663679543071322,0.7691630533470046,0.00020391440717096854,0.00045288153841256234,-0.0002851404698014387,-0.00028568172672436035,0.00023163523692360018,-0.0002506542949401707,-0.0012124030360693688,0.0,0.0,0.0,0.0,0.0,0.0,0.0,-9.255325585044716e-06,-0.00020615414785548486,6.033147061080407e-05,0.0001749531214310096,-0.00020844591451832373,7.176399230957031e-05,-3.134012222016924e-05,-0.00020391440717096854,-0.00045288153841256234,0.0002851404698014387,0.00028568172672436035,-0.00023163523692360018,0.0002506542949401707,0.0012124030360693688,0.2720577120780945,22.795862197875977,-0.04922797530889511,-14.131807327270508,-0.03416973352432251,-2.1453890800476074,0.37845176458358765,0
60,0.2942235469818115,-0.2720577120780945,-22.795862197875977,0.04922797530889511,14.131807327270508,0.03416973352432251,2.1453890800476074,-0.37845176458358765,0.0,0.0,0.0,0.0,0.0,0.0,0.0,-0.27440934797760025,0.0075373756163064,-0.04742759924912133,0.25094832175293874,-0.19591500092416145,-0.04489233609423689,-0.4086483886436816,1.6755066100798153,0.05231048097272551,0.02990917363867425,-2.752569798247399,0.034453249901533124,2.7662961903148227,0.7691943934692248,1.6754973547542302,0.052104326824870026,0.029969505109285054,-2.752394845125968,0.0342448039870148,2.7663679543071322,0.7691630533470046,0.00020391440717096854,0.00045288153841256234,-0.0002851404698014387,-0.00028568172672436035,0.00023163523692360018,-0.0002506542949401707,-0.0012124030360693688,0.0,0.0,0.0,0.0,0.0,0.0,0.0,-9.255325585044716e-06,-0.00020615414785548486,6.033147061080407e-05,0.0001749531214310096,-0.00020844591451832373,7.176399230957031e-05,-3.134012222016924e-05,-0.00020391440717096854,-0.00045288153841256234,0.0002851404698014387,0.00028568172672436035,-0.00023163523692360018,0.0002506542949401707,0.0012124030360693688,0.2720577120780945,22.795862197875977,-0.04922797530889511,-14.131807327270508,-0.03416973352432251,-2.1453890800476074,0.37845176458358765,0
61,0.2992711067199707,-0.2720577120780945,-22.795862197875977,0.04922797530889511,14.155611038208008,0.03416973352432251,2.1517977714538574,-0.43338340520858765,0.0,0.0,0.0,0.0,0.0,0.0,0.0,-0.27153741184597247,0.009663537046058468,-0.04642126295945884,0.2517422603099524,-0.19620673040895492,-0.04436833211486656,-0.4096912794239977,1.6755066100798153,0.05230842902763965,0.02990917363867425,-2.7525714687882803,0.034453249901533124,2.7662955959755697,0.7692004969848526,1.6754973547542302,0.052104326824870026,0.029969505109285054,-2.752394845125968,0.0342448039870148,2.7663679543071322,0.7691630533470046,0.00039710657079623183,0.0005731747222211704,-0.00022493122674535051,-0.0008571395620512902,0.0001631665397732342,-0.0005029638948114418,0.0003376836840416242,0.0,0.0,0.0,0.0,0.0,0.0,0.0,-9.255325585044716e-06,-0.00020410220276962515,6.033147061080407e-05,0.00017662366231219195,-0.00020844591451832373,7.235833156249427e-05,-3.7443637847967004e-05,-0.00039710657079623183,-0.0005731747222211704,0.00022493122674535051,0.0008571395620512902,-0.0001631665397732342,0.0005029638948114418,-0.0003376836840416242,0.2720577120780945,22.795862197875977,-0.04922797530889511,-14.155611038208008,-0.03416973352432251,-2.1517977714538574,0.43338340520858765,0
62,0.30417561531066895,-0.2720577120780945,-22.795862197875977,0.04922797530889511,14.155611038208008,0.03416973352432251,2.1517977714538574,-0.43338340520858765,0.0,0.0,0.0,0.0,0.0,0.0,0.0,-0.27153741184597247,0.009663537046058468,-0.04642126295945884,0.2517422603099524,-0.19620673040895492,-0.04436833211486656,-0.4096912794239977,1.6755066100798153,0.05230842902763965,0.02990917363867425,-2.7525714687882803,0.034453249901533124,2.7662955959755697,0.7692004969848526,1.6754973547542302,0.052104326824870026,0.029969505109285054,-2.752394845125968,0.0342448039870148,2.7663679543071322,0.7691630533470046,0.00039710657079623183,0.0005731747222211704,-0.00022493122674535051,-0.0008571395620512902,0.0001631665397732342,-0.0005029638948114418,0.0003376836840416242,0.0,0.0,0.0,0.0,0.0,0.0,0.0,-9.255325585044716e-06,-0.00020410220276962515,6.033147061080407e-05,0.00017662366231219195,-0.00020844591451832373,7.235833156249427e-05,-3.7443637847967004e-05,-0.00039710657079623183,-0.0005731747222211704,0.00022493122674535051,0.0008571395620512902,-0.0001631665397732342,0.0005029638948114418,-0.0003376836840416242,0.2720577120780945,22.795862197875977,-0.04922797530889511,-14.155611038208008,-0.03416973352432251,-2.1517977714538574,0.43338340520858765,0
63,0.309248685836792,-0.2720577120780945,-22.795862197875977,0.04922797530889511,14.155611038208008,0.03416973352432251,2.1517977714538574,-0.43338340520858765,0.0,0.0,0.0,0.0,0.0,0.0,0.0,-0.27153741184597247,0.009663537046058468,-0.04642126295945884,0.2517422603099524,-0.19620673040895492,-0.04436833211486656,-0.4096912794239977,1.6755066100798153,0.05230842902763965,0.02990917363867425,-2.7525714687882803,0.034453249901533124,2.7662955959755697,0.7692004969848526,1.6754973547542302,0.052104326824870026,0.029969505109285054,-2.752394845125968,0.0342448039870148,2.7663679543071322,0.7691630533470046,0.00039710657079623183,0.0005731747222211704,-0.00022493122674535051,-0.0008571395620512902,0.0001631665397732342,-0.0005029638948114418,0.0003376836840416242,0.0,0.0,0.0,0.0,0.0,0.0,0.0,-9.255325585044716e-06,-0.00020410220276962515,6.033147061080407e-05,0.00017662366231219195,-0.00020844591451832373,7.235833156249427e-05,-3.7443637847967004e-05,-0.00039710657079623183,-0.0005731747222211704,0.00022493122674535051,0.0008571395620512902,-0.0001631665397732342,0.0005029638948114418,-0.0003376836840416242,0.2720577120780945,22.795862197875977,-0.04922797530889511,-14.155611038208008,-0.03416973352432251,-2.1517977714538574,0.43338340520858765,0
64,0.31423091888427734,-0.2720577120780945,-22.795862197875977,0.04922797530889511,14.155611038208008,0.03416973352432251,2.1517977714538574,-0.43338340520858765,0.0,0.0,0.0,0.0,0.0,0.0,0.0,-0.27153741184597247,0.009663537046058468,-0.04642126295945884,0.2517422603099524,-0.19620673040895492,-0.04436833211486656,-0.4096912794239977,1.6755066100798153,0.05230842902763965,0.02990917363867425,-2.7525714687882803,0.034453249901533124,2.7662955959755697,0.7692004969848526,1.6754973547542302,0.052104326824870026,0.029969505109285054,-2.752394845125968,0.0342448039870148,2.7663679543071322,0.7691630533470046,0.00039710657079623183,0.0005731747222211704,-0.00022493122674535051,-0.0008571395620512902,0.0001631665397732342,-0.0005029638948114418,0.0003376836840416242,0.0,0.0,0.0,0.0,0.0,0.0,0.0,-9.255325585044716e-06,-0.00020410220276962515,6.033147061080407e-05,0.00017662366231219195,-0.00020844591451832373,7.235833156249427e-05,-3.7443637847967004e-05,-0.00039710657079623183,-0.0005731747222211704,0.00022493122674535051,0.0008571395620512902,-0.0001631665397732342,0.0005029638948114418,-0.0003376836840416242,0.2720577120780945,22.795862197875977,-0.04922797530889511,-14.155611038208008,-0.03416973352432251,-2.1517977714538574,0.43338340520858765,0
65,0.3192169666290283,-0.2720577120780945,-22.795862197875977,0.02542426437139511,14.080232620239258,0.04607158899307251,2.1325716972351074,-0.44711631536483765,0.0,0.0,0.0,0.0,0.0,0.0,0.0,-0.2727259244125785,0.009021323138161378,-0.0482322334309759,0.2524620083514281,-0.1961667436877384,-0.04428631506320418,-0.41187096156036507,1.6755066100798153,0.05230984082442742,0.029910844074529513,-2.7525661790747393,0.03445192747314771,2.766297614469133,0.7692020228637588,1.6754973547542302,0.052104326824870026,0.029969505109285054,-2.752394845125968,0.0342448039870148,2.7663679543071322,0.7691630533470046,-0.00042920008798740303,0.00019047655168405187,0.00025415032890611065,0.0007857699586329536,-0.00035540417467691993,0.0004732242779210152,0.0014223789337843393,0.0,0.0,0.0,0.0,0.0,0.0,0.0,-9.255325585044716e-06,-0.00020551399955739263,5.866103475554024e-05,0.000171333948771224,-0.00020712348613290826,7.033983799908938e-05,-3.89695167541948e-05,0.00042920008798740303,-0.00019047655168405187,-0.00025415032890611065,-0.0007857699586329536,0.00035540417467691993,-0.0004732242779210152,-0.0014223789337843393,0.2720577120780945,22.795862197875977,-0.02542426437139511,-14.080232620239258,-0.04607158899307251,-2.1325716972351074,0.44711631536483765,0
66,0.3242053985595703,-0.2720577120780945,-22.795862197875977,0.02542426437139511,14.080232620239258,0.04607158899307251,2.1325716972351074,-0.44711631536483765,0.0,0.0,0.0,0.0,0.0,0.0,0.0,-0.2727259244125785,0.009021323138161378,-0.0482322334309759,0.2524620083514281,-0.1961667436877384,-0.04428631506320418,-0.41187096156036507,1.6755066100798153,0.05230984082442742,0.029910844074529513,-2.7525661790747393,0.03445192747314771,2.766297614469133,0.7692020228637588,1.6754973547542302,0.052104326824870026,0.029969505109285054,-2.752394845125968,0.0342448039870148,2.7663679543071322,0.7691630533470046,-0.00042920008798740303,0.00019047655168405187,0.00025415032890611065,0.0007857699586329536,-0.00035540417467691993,0.0004732242779210152,0.0014223789337843393,0.0,0.0,0.0,0.0,0.0,0.0,0.0,-9.255325585044716e-06,-0.00020551399955739263,5.866103475554024e-05,0.000171333948771224,-0.00020712348613290826,7.033983799908938e-05,-3.89695167541948e-05,0.00042920008798740303,-0.00019047655168405187,-0.00025415032890611065,-0.0007857699586329536,0.00035540417467691993,-0.0004732242779210152,-0.0014223789337843393,0.2720577120780945,22.795862197875977,-0.02542426437139511,-14.080232620239258,-0.04607158899307251,-2.1325716972351074,0.44711631536483765,0
67,0.32923316955566406,-0.2998287081718445,-22.819665908813477,0.04922797530889511,14.131807327270508,0.03416973352432251,2.1389803886413574,-0.40591758489608765,0.0,0.0,0.0,0.0,0.0,0.0,0.0,-0.2784161548873026,0.009633260319736908,-0.052333385364788924,0.25132140589942353,-0.19564231404226073,-0.04362130637566283,-0.4137358156764108,1.6755085589216465,0.05231222346951528,0.02990917363867425,-2.7525697980374897,0.03445325006379576,2.7662969023916455,0.76919744522704,1.6754973547542302,0.052104326824870026,0.029969505109285054,-2.752394845125968,0.0342448039870148,2.7663679543071322,0.7691630533470046,5.331016045079155e-05,0.0006472190880196375,-0.0007071999748819536,-0.0005481299817212737,0.00010511889834226191,-4.4536704239925975e-06,-0.0005960412948201522,0.0,0.0,0.0,0.0,0.0,0.0,0.0,-1.1204167416289934e-05,-0.00020789664464525293,6.033147061080407e-05,0.00017495291152158643,-0.0002084460767809576,7.105191548673062e-05,-3.439188003540039e-05,-5.331016045079155e-05,-0.0006472190880196375,0.0007071999748819536,0.0005481299817212737,-0.00010511889834226191,4.4536704239925975e-06,0.0005960412948201522,0.2998287081718445,22.819665908813477,-0.04922797530889511,-14.131807327270508,-0.03416973352432251,-2.1389803886413574,0.40591758489608765,0
68,0.3342006206512451,-0.2998287081718445,-22.819665908813477,0.04922797530889511,14.131807327270508,0.03416973352432251,2.1389803886413574,-0.40591758489608765,0.0,0.0,0.0,0.0,0.0,0.0,0.0,-0.2784161548873026,0.009633260319736908,-0.052333385364788924,0.25132140589942353,-0.19564231404226073,-0.04362130637566283,-0.4137358156764108,1.6755085589216465,0.05231222346951528,0.02990917363867425,-2.7525697980374897,0.03445325006379576,2.7662969023916455,0.76919744522704,1.6754973547542302,0.052104326824870026,0.029969505109285054,-2.752394845125968,0.0342448039870148,2.7663679543071322,0.7691630533470046,5.331016045079155e-05,0.0006472190880196375,-0.0007071999748819536,-0.0005481299817212737,0.00010511889834226191,-4.4536704239925975e-06,-0.0005960412948201522,0.0,0.0,0.0,0.0,0.0,0.0,0.0,-1.1204167416289934e-05,-0.00020789664464525293,6.033147061080407e-05,0.00017495291152158643,-0.0002084460767809576,7.105191548673062e-05,-3.439188003540039e-05,-5.331016045079155e-05,-0.0006472190880196375,0.0007071999748819536,0.0005481299817212737,-0.00010511889834226191,4.4536704239925975e-06,0.0005960412948201522,0.2998287081718445,22.819665908813477,-0.04922797530889511,-14.131807327270508,-0.03416973352432251,-2.1389803886413574,0.40591758489608765,0
69,0.33924078941345215,-0.2998287081718445,-22.795862197875977,0.07303168624639511,14.131807327270508,0.02867656946182251,2.1389803886413574,-0.42605918645858765,0.0,0.0,0.0,0.0,0.0,0.0,0.0,-0.2728179267422233,0.006473464883409661,-0.04654237943361247,0.25111592265542665,-0.19609699416068727,-0.043396022509489734,-0.4156492987583963,1.6755078436659092,0.05231055404809976,0.02990750320281899,-2.752569798352424,0.0344550431477444,2.7662969069138015,0.7691996831827692,1.6754973547542302,0.052104326824870026,0.029969505109285054,-2.752394845125968,0.0342448039870148,2.7663679543071322,0.7691630533470046,0.0005642726326213969,-0.00012466473258589578,-0.000681246174225541,-0.0004135190597000433,0.00019425479373917304,0.00021932333877315875,0.00028245193353030956,0.0,0.0,0.0,0.0,0.0,0.0,0.0,-1.0488911678985247e-05,-0.00020622722322973658,6.200190646606443e-05,0.0001749532264558873,-0.00021023916072959725,7.104739333074761e-05,-3.66298357645789e-05,-0.0005642726326213969,0.00012466473258589578,0.000681246174225541,0.0004135190597000433,-0.00019425479373917304,-0.00021932333877315875,-0.00028245193353030956,0.2998287081718445,22.795862197875977,-0.07303168624639511,-14.131807327270508,-0.02867656946182251,-2.1389803886413574,0.42605918645858765,0
70,0.34427833557128906,-0.2998287081718445,-22.795862197875977,0.07303168624639511,14.131807327270508,0.02867656946182251,2.1389803886413574,-0.42605918645858765,0.0,0.0,0.0,0.0,0.0,0.0,0.0,-0.2728179267422233,0.006473464883409661,-0.04654237943361247,0.25111592265542665,-0.19609699416068727,-0.043396022509489734,-0.4156492987583963,1.6755078436659092,0.05231055404809976,0.02990750320281899,-2.752569798352424,0.0344550431477444,2.7662969069138015,0.7691996831827692,1.6754973547542302,0.052104326824870026,0.029969505109285054,-2.752394845125968,0.0342448039870148,2.7663679543071322,0.7691630533470046,0.0005642726326213969,-0.00012466473258589578,-0.000681246174225541,-0.0004135190597000433,0.00019425479373917304,0.00021932333877315875,0.00028245193353030956,0.0,0.0,0.0,0.0,0.0,0.0,0.0,-1.0488911678985247e-05,-0.00020622722322973658,6.200190646606443e-05,0.0001749532264558873,-0.00021023916072959725,7.104739333074761e-05,-3.66298357645789e-05,-0.0005642726326213969,0.00012466473258589578,0.000681246174225541,0.0004135190597000433,-0.00019425479373917304,-0.00021932333877315875,-0.00028245193353030956,0.2998287081718445,22.795862197875977,-0.07303168624639511,-14.131807327270508,-0.02867656946182251,-2.1389803886413574,0.42605918645858765,0
71,0.3492262363433838,-0.2720577120780945,-22.772058486938477,0.10080268234014511,14.108003616333008,0.03416973352432251,2.1453890800476074,-0.41324180364608765,0.0,0.0,0.0,0.0,0.0,0.0,0.0,-0.274365448473161,0.007763893141162496,-0.045019086167331836,0.2490775612157132,-0.1958515108218139,-0.04385515579387909,-0.41735180729159205,1.6755066100757776,0.05230889238124632,0.029905554360987848,-2.7525681279165704,0.034453249908210595,2.7662972501144827,0.7691982590291234,1.6754973547542302,0.052104326824870026,0.029969505109285054,-2.752394845125968,0.0342448039870148,2.7663679543071322,0.7691630533470046,0.00037712803680085605,-0.0003625217652123533,-0.001177026352878679,-7.562101755564686e-05,3.987471807121294e-05,-0.00010747539778701251,3.6780496755962106e-05,0.0,0.0,0.0,0.0,0.0,0.0,0.0,-9.25532154738562e-06,-0.00020456555637629603,6.395074829720557e-05,0.00017328279060224716,-0.0002084459211957948,7.070419264953998e-05,-3.5205682118788495e-05,-0.00037712803680085605,0.0003625217652123533,0.001177026352878679,7.562101755564686e-05,-3.987471807121294e-05,0.00010747539778701251,-3.6780496755962106e-05,0.2720577120780945,22.772058486938477,-0.10080268234014511,-14.108003616333008,-0.03416973352432251,-2.1453890800476074,0.41324180364608765,0
72,0.3542819023132324,-0.2720577120780945,-22.772058486938477,0.10080268234014511,14.108003616333008,0.03416973352432251,2.1453890800476074,-0.41324180364608765,0.0,0.0,0.0,0.0,0.0,0.0,0.0,-0.274365448473161,0.007763893141162496,-0.045019086167331836,0.2490775612157132,-0.1958515108218139,-0.04385515579387909,-0.41735180729159205,1.6755066100757776,0.05230889238124632,0.029905554360987848,-2.7525681279165704,0.034453249908210595,2.7662972501144827,0.7691982590291234,1.6754973547542302,0.052104326824870026,0.029969505109285054,-2.752394845125968,0.0342448039870148,2.7663679543071322,0.7691630533470046,0.00037712803680085605,-0.0003625217652123533,-0.001177026352878679,-7.562101755564686e-05,3.987471807121294e-05,-0.00010747539778701251,3.6780496755962106e-05,0.0,0.0,0.0,0.0,0.0,0.0,0.0,-9.25532154738562e-06,-0.00020456555637629603,6.395074829720557e-05,0.00017328279060224716,-0.0002084459211957948,7.070419264953998e-05,-3.5205682118788495e-05,-0.00037712803680085605,0.0003625217652123533,0.001177026352878679,7.562101755564686e-05,-3.987471807121294e-05,0.00010747539778701251,-3.6780496755962106e-05,0.2720577120780945,22.772058486938477,-0.10080268234014511,-14.108003616333008,-0.03416973352432251,-2.1453890800476074,0.41324180364608765,0
73,0.35920286178588867,-0.19667929410934448,-22.795862197875977,0.07303168624639511,14.080232620239258,0.04057842493057251,2.1389803886413574,-0.41965049505233765,0.0,0.0,0.0,0.0,0.0,0.0,0.0,-0.27379477715739986,0.004357766294497753,-0.04303105770048009,0.24935989020635918,-0.19589076767731875,-0.04331843648188502,-0.41790795059581387,1.6755013203662736,0.05231048389618624,0.02990750320281899,-2.7525661790747393,0.03445253782471024,2.766296902397628,0.769197911467817,1.6754973547542302,0.052104326824870026,0.029969505109285054,-2.752394845125968,0.0342448039870148,2.7663679543071322,0.7691630533470046,-0.0016128312992948852,4.741740396789313e-05,-0.00031663286982861047,0.0005371349550265344,-0.00011481121273807056,0.00010517888686825603,0.00022699874642312108,0.0,0.0,0.0,0.0,0.0,0.0,0.0,-3.965612043410616e-06,-0.0002061570713162153,6.200190646606443e-05,0.000171333948771224,-0.0002077338376954424,7.105190950440488e-05,-3.4858120812386595e-05,0.0016128312992948852,-4.741740396789313e-05,0.00031663286982861047,-0.0005371349550265344,0.00011481121273807056,-0.00010517888686825603,-0.00022699874642312108,0.19667929410934448,22.795862197875977,-0.07303168624639511,-14.080232620239258,-0.04057842493057251,-2.1389803886413574,0.41965049505233765,0
74,0.36420726776123047,-0.19667929410934448,-22.795862197875977,0.07303168624639511,14.080232620239258,0.04057842493057251,2.1389803886413574,-0.41965049505233765,0.0,0.0,0.0,0.0,0.0,0.0,0.0,-0.27379477715739986,0.004357766294497753,-0.04303105770048009,0.24935989020635918,-0.19589076767731875,-0.04331843648188502,-0.41790795059581387,1.6755013203662736,0.05231048389618624,0.02990750320281899,-2.7525661790747393,0.03445253782471024,2.766296902397628,0.769197911467817,1.6754973547542302,0.052104326824870026,0.029969505109285054,-2.752394845125968,0.0342448039870148,2.7663679543071322,0.7691630533470046,-0.0016128312992948852,4.741740396789313e-05,-0.00031663286982861047,0.0005371349550265344,-0.00011481121273807056,0.00010517888686825603,0.00022699874642312108,0.0,0.0,0.0,0.0,0.0,0.0,0.0,-3.965612043410616e-06,-0.0002061570713162153,6.200190646606443e-05,0.000171333948771224,-0.0002077338376954424,7.105190950440488e-05,-3.4858120812386595e-05,0.0016128312992948852,-4.741740396789313e-05,0.00031663286982861047,-0.0005371349550265344,0.00011481121273807056,-0.00010517888686825603,-0.00022699874642312108,0.19667929410934448,22.795862197875977,-0.07303168624639511,-14.080232620239258,-0.04057842493057251,-2.1389803886413574,0.41965049505233765,0
75,0.3692049980163574,-0.24825400114059448,-22.772058486938477,0.04922797530889511,14.108003616333008,0.04057842493057251,2.1261630058288574,-0.42605918645858765,0.0,0.0,0.0,0.0,0.0,0.0,0.0,-0.2757563671402198,0.0042818402472779475,-0.04463675899584732,0.25238809939457024,-0.19512366019152375,-0.04290328869647087,-0.4180606852671045,1.67550493964396,0.05230888068796449,0.02990917363867425,-2.7525681279165704,0.03445253782471021,2.7662983265452916,0.7691996831648241,1.6754973547542302,0.052104326824870026,0.029969505109285054,-2.752394845125968,0.0342448039870148,2.7663679543071322,0.7691630533470046,-0.0005686750559031686,-0.0005155081340683167,-0.00011797730412339862,0.0004396089548748211,-0.00021166917818993608,0.0005316518564551434,6.39580096955809e-05,0.0,0.0,0.0,0.0,0.0,0.0,0.0,-7.584889729850275e-06,-0.0002045538630944671,6.033147061080407e-05,0.00017328279060224716,-0.0002077338376954077,6.962776184060715e-05,-3.662981781948904e-05,0.0005686750559031686,0.0005155081340683167,0.00011797730412339862,-0.0004396089548748211,0.00021166917818993608,-0.0005316518564551434,-6.39580096955809e-05,0.24825400114059448,22.772058486938477,-0.04922797530889511,-14.108003616333008,-0.04057842493057251,-2.1261630058288574,0.42605918645858765,0
76,0.37432026863098145,-0.24825400114059448,-22.772058486938477,0.04922797530889511,14.108003616333008,0.04057842493057251,2.1261630058288574,-0.42605918645858765,0.0,0.0,0.0,0.0,0.0,0.0,0.0,-0.2757563671402198,0.0042818402472779475,-0.04463675899584732,0.25238809939457024,-0.19512366019152375,-0.04290328869647087,-0.4180606852671045,1.67550493964396,0.05230888068796449,0.02990917363867425,-2.7525681279165704,0.03445253782471021,2.7662983265452916,0.7691996831648241,1.6754973547542302,0.052104326824870026,0.029969505109285054,-2.752394845125968,0.0342448039870148,2.7663679543071322,0.7691630533470046,-0.0005686750559031686,-0.0005155081340683167,-0.00011797730412339862,0.0004396089548748211,-0.00021166917818993608,0.0005316518564551434,6.39580096955809e-05,0.0,0.0,0.0,0.0,0.0,0.0,0.0,-7.584889729850275e-06,-0.0002045538630944671,6.033147061080407e-05,0.00017328279060224716,-0.0002077338376954077,6.962776184060715e-05,-3.662981781948904e-05,0.0005686750559031686,0.0005155081340683167,0.00011797730412339862,-0.0004396089548748211,0.00021166917818993608,-0.0005316518564551434,-6.39580096955809e-05,0.24825400114059448,22.772058486938477,-0.04922797530889511,-14.108003616333008,-0.04057842493057251,-2.1261630058288574,0.42605918645858765,0
77,0.3792257308959961,-0.3236324191093445,-22.772058486938477,0.001620553433895111,14.080232620239258,0.02226787805557251,2.1389803886413574,-0.44711631536483765,0.0,0.0,0.0,0.0,0.0,0.0,0.0,-0.27580496680459293,0.003226665049516566,-0.043846915968128355,0.25159758854064407,-0.19526507435970689,-0.04390934869616062,-0.4186171229899509,1.6755102293575017,0.05230857669741445,0.029912514510384777,-2.7525661790747393,0.03445457232991855,2.7662980797852894,0.7692021415885316,1.6754973547542302,0.052104326824870026,0.029969505109285054,-2.752394845125968,0.0342448039870148,2.7663679543071322,0.7691630533470046,0.0009822501343878462,-0.0004241902502954709,0.0005297762170883801,0.001104887151860874,0.0004046044702056505,-3.072230857817736e-05,0.001164183787280723,0.0,0.0,0.0,0.0,0.0,0.0,0.0,-1.2874603271484375e-05,-0.00020424987254442223,5.699059890027641e-05,0.000171333948771224,-0.00020976834290374613,6.98745218428165e-05,-3.9088241526985534e-05,-0.0009822501343878462,0.0004241902502954709,-0.0005297762170883801,-0.001104887151860874,-0.0004046044702056505,3.072230857817736e-05,-0.001164183787280723,0.3236324191093445,22.772058486938477,-0.001620553433895111,-14.080232620239258,-0.02226787805557251,-2.1389803886413574,0.44711631536483765,0
78,0.38426852226257324,-0.3236324191093445,-22.772058486938477,0.001620553433895111,14.080232620239258,0.02226787805557251,2.1389803886413574,-0.44711631536483765,0.0,0.0,0.0,0.0,0.0,0.0,0.0,-0.27580496680459293,0.003226665049516566,-0.043846915968128355,0.25159758854064407,-0.19526507435970689,-0.04390934869616062,-0.4186171229899509,1.6755102293575017,0.05230857669741445,0.029912514510384777,-2.7525661790747393,0.03445457232991855,2.7662980797852894,0.7692021415885316,1.6754973547542302,0.052104326824870026,0.029969505109285054,-2.752394845125968,0.0342448039870148,2.7663679543071322,0.7691630533470046,0.0009822501343878462,-0.0004241902502954709,0.0005297762170883801,0.001104887151860874,0.0004046044702056505,-3.072230857817736e-05,0.001164183787280723,0.0,0.0,0.0,0.0,0.0,0.0,0.0,-1.2874603271484375e-05,-0.00020424987254442223,5.699059890027641e-05,0.000171333948771224,-0.00020976834290374613,6.98745218428165e-05,-3.9088241526985534e-05,-0.0009822501343878462,0.0004241902502954709,-0.0005297762170883801,-0.001104887151860874,-0.0004046044702056505,3.072230857817736e-05,-0.001164183787280723,0.3236324191093445,22.772058486938477,-0.001620553433895111,-14.080232620239258,-0.02226787805557251,-2.1389803886413574,0.44711631536483765,0
79,0.3892381191253662,-0.2998287081718445,-22.772058486938477,0.02542426437139511,14.080232620239258,0.03416973352432251,2.1389803886413574,-0.42605918645858765,0.0,0.0,0.0,0.0,0.0,0.0,0.0,-0.2702171598886686,-0.0006240575100247378,-0.03805134279003257,0.25234366759510707,-0.196474309922154,-0.04435963575253502,-0.41873234897547956,1.6755085589216465,0.05230889237951378,0.029910844074529513,-2.7525661705714706,0.034453249955620664,2.7662969430976987,0.7691986235453101,1.6754973547542302,0.052104326824870026,0.029969505109285054,-2.752394845125968,0.0342448039870148,2.7663679543071322,0.7691630533470046,0.00045284303196098207,-0.0010799182354660172,0.0006114994505390239,0.0009661388945661299,7.577569982946086e-05,1.0280930444599073e-05,0.0006239037416988486,0.0,0.0,0.0,0.0,0.0,0.0,0.0,-1.1204167416289934e-05,-0.00020456555464375137,5.866103475554024e-05,0.0001713254455024682,-0.00020844596860586373,7.101120943353578e-05,-3.5570198305467926e-05,-0.00045284303196098207,0.0010799182354660172,-0.0006114994505390239,-0.0009661388945661299,-7.577569982946086e-05,-1.0280930444599073e-05,-0.0006239037416988486,0.2998287081718445,22.772058486938477,-0.02542426437139511,-14.080232620239258,-0.03416973352432251,-2.1389803886413574,0.42605918645858765,0
