rezayati/contactInterpretation/dataset/franka_main/labeled_data/link7/a3_3.csv
index,time,tau_J0,tau_J1,tau_J2,tau_J3,tau_J4,tau_J5,tau_J6,tau_J_d0,tau_J_d1,tau_J_d2,tau_J_d3,tau_J_d4,tau_J_d5,tau_J_d6,tau_ext0,tau_ext1,tau_ext2,tau_ext3,tau_ext4,tau_ext5,tau_ext6,q0,q1,q2,q3,q4,q5,q6,q_d0,q_d1,q_d2,q_d3,q_d4,q_d5,q_d6,dq0,dq1,dq2,dq3,dq4,dq5,dq6,dq_d0,dq_d1,dq_d2,dq_d3,dq_d4,dq_d5,dq_d6,e0,e1,e2,e3,e4,e5,e6,de0,de1,de2,de3,de4,de5,de6,etau_J0,etau_J1,etau_J2,etau_J3,etau_J4,etau_J5,etau_J6,label
1,0.0,-0.4029781222343445,-33.93996810913086,-3.8744170665740967,19.360689163208008,0.10558086633682251,1.790164589881897,-0.14590780436992645,0.0,0.0,0.0,0.0,0.0,0.0,0.0,-0.38562972786892397,0.10813428917571441,-0.24929862881776613,0.32626287472343424,0.04808394167563666,-0.12303308248946952,-0.1585837662899562,1.0544388559868458,0.32392651857409555,-0.39251670008374934,-2.1534990181381857,0.8647953800402408,2.4658815199931463,0.5444979241730352,1.0544104758940245,0.3238615046091247,-0.39250456234122666,-2.153291787532338,0.8647539153680389,2.46587817577521,0.5445020185570556,-0.00043937636712269786,-0.0006014724510185248,0.0008238000893362491,-0.0003119917049588493,-0.00013078911251714534,-0.00012432180097250283,-0.00031943681798484445,0.0,0.0,0.0,0.0,0.0,0.0,0.0,-2.838009282135623e-05,-6.501396497082812e-05,1.213774252267763e-05,0.00020723060584781905,-4.146467220189631e-05,-3.3442179363518676e-06,4.094384020381092e-06,0.00043937636712269786,0.0006014724510185248,-0.0008238000893362491,0.0003119917049588493,0.00013078911251714534,0.00012432180097250283,0.00031943681798484445,0.4029781222343445,33.93996810913086,3.8744170665740967,-19.360689163208008,-0.10558086633682251,-1.790164589881897,0.14590780436992645,0
2,0.005214214324951172,-0.4029781222343445,-33.93996810913086,-3.8744170665740967,19.360689163208008,0.10558086633682251,1.790164589881897,-0.14590780436992645,0.0,0.0,0.0,0.0,0.0,0.0,0.0,-0.38562972786892397,0.10813428917571441,-0.24929862881776613,0.32626287472343424,0.04808394167563666,-0.12303308248946952,-0.1585837662899562,1.0544388559868458,0.32392651857409555,-0.39251670008374934,-2.1534990181381857,0.8647953800402408,2.4658815199931463,0.5444979241730352,1.0544104758940245,0.3238615046091247,-0.39250456234122666,-2.153291787532338,0.8647539153680389,2.46587817577521,0.5445020185570556,-0.00043937636712269786,-0.0006014724510185248,0.0008238000893362491,-0.0003119917049588493,-0.00013078911251714534,-0.00012432180097250283,-0.00031943681798484445,0.0,0.0,0.0,0.0,0.0,0.0,0.0,-2.838009282135623e-05,-6.501396497082812e-05,1.213774252267763e-05,0.00020723060584781905,-4.146467220189631e-05,-3.3442179363518676e-06,4.094384020381092e-06,0.00043937636712269786,0.0006014724510185248,-0.0008238000893362491,0.0003119917049588493,0.00013078911251714534,0.00012432180097250283,0.00031943681798484445,0.4029781222343445,33.93996810913086,3.8744170665740967,-19.360689163208008,-0.10558086633682251,-1.790164589881897,0.14590780436992645,0
3,0.009999513626098633,-0.3752071261405945,-34.01534652709961,-3.7752349376678467,19.360689163208008,0.10558086633682251,1.777347207069397,-0.12485067546367645,0.0,0.0,0.0,0.0,0.0,0.0,0.0,-0.3831314418877655,0.1090301663314165,-0.24757591657594596,0.3253370453830725,0.047279409428715696,-0.1233367957659754,-0.15806553876711377,1.0544369071450148,0.32393180828763724,-0.3925236602331463,-2.153501566062241,0.8647982251824027,2.465882944146792,0.544495567480223,1.0544104758940245,0.3238615046091247,-0.39250456234122666,-2.153291787532338,0.8647539153680389,2.46587817577521,0.5445020185570556,-0.0005200914826494142,0.0011092681396428245,-0.0010612781578724845,-0.0003069213632302577,-0.0002663639842154262,0.0001312447894824144,-0.0007783409772857173,0.0,0.0,0.0,0.0,0.0,0.0,0.0,-2.6431250990333055e-05,-7.030367851251773e-05,1.9097891919617194e-05,0.00020977852990311519,-4.4309814363763245e-05,-4.76837158203125e-06,6.451076832614255e-06,0.0005200914826494142,-0.0011092681396428245,0.0010612781578724845,0.0003069213632302577,0.0002663639842154262,-0.0001312447894824144,0.0007783409772857173,0.3752071261405945,34.01534652709961,3.7752349376678467,-19.360689163208008,-0.10558086633682251,-1.777347207069397,0.12485067546367645,0
4,0.015002250671386719,-0.3752071261405945,-34.01534652709961,-3.7752349376678467,19.360689163208008,0.10558086633682251,1.777347207069397,-0.12485067546367645,0.0,0.0,0.0,0.0,0.0,0.0,0.0,-0.3831314418877655,0.1090301663314165,-0.24757591657594596,0.3253370453830725,0.047279409428715696,-0.1233367957659754,-0.15806553876711377,1.0544369071450148,0.32393180828763724,-0.3925236602331463,-2.153501566062241,0.8647982251824027,2.465882944146792,0.544495567480223,1.0544104758940245,0.3238615046091247,-0.39250456234122666,-2.153291787532338,0.8647539153680389,2.46587817577521,0.5445020185570556,-0.0005200914826494142,0.0011092681396428245,-0.0010612781578724845,-0.0003069213632302577,-0.0002663639842154262,0.0001312447894824144,-0.0007783409772857173,0.0,0.0,0.0,0.0,0.0,0.0,0.0,-2.6431250990333055e-05,-7.030367851251773e-05,1.9097891919617194e-05,0.00020977852990311519,-4.4309814363763245e-05,-4.76837158203125e-06,6.451076832614255e-06,0.0005200914826494142,-0.0011092681396428245,0.0010612781578724845,0.0003069213632302577,0.0002663639842154262,-0.0001312447894824144,0.0007783409772857173,0.3752071261405945,34.01534652709961,3.7752349376678467,-19.360689163208008,-0.10558086633682251,-1.777347207069397,0.12485067546367645,0
5,0.020001649856567383,-0.3514034152030945,-33.91616439819336,-3.7514312267303467,19.336885452270508,0.10558086633682251,1.790164589881897,-0.15231649577617645,0.0,0.0,0.0,0.0,0.0,0.0,0.0,-0.37920077456538,0.10393846331209988,-0.24192183099962053,0.3267559533855913,0.04706348660252581,-0.12337117950243445,-0.15677542555453358,1.0544352367091594,0.3239248481382403,-0.3925253306690015,-2.1534974466993146,0.8647950268495704,2.4658815199931463,0.5444986187534226,1.0544104758940245,0.3238615046091247,-0.39250456234122666,-2.153291787532338,0.8647539153680389,2.46587817577521,0.5445020185570556,0.0002673294608318221,-0.0016439212904900892,-0.000813507669537159,0.00042148413909485344,-0.00018031695804182792,-0.0002783860640106594,-0.00039527383046825696,0.0,0.0,0.0,0.0,0.0,0.0,0.0,-2.476081513491657e-05,-6.334352911557817e-05,2.0768327774867146e-05,0.00020565916697679043,-4.1111481531519445e-05,-3.3442179363518676e-06,3.3998036329530024e-06,-0.0002673294608318221,0.0016439212904900892,0.000813507669537159,-0.00042148413909485344,0.00018031695804182792,0.0002783860640106594,0.00039527383046825696,0.3514034152030945,33.91616439819336,3.7514312267303467,-19.336885452270508,-0.10558086633682251,-1.790164589881897,0.15231649577617645,0
6,0.025113582611083984,-0.3514034152030945,-33.91616439819336,-3.7514312267303467,19.336885452270508,0.10558086633682251,1.790164589881897,-0.15231649577617645,0.0,0.0,0.0,0.0,0.0,0.0,0.0,-0.37920077456538,0.10393846331209988,-0.24192183099962053,0.3267559533855913,0.04706348660252581,-0.12337117950243445,-0.15677542555453358,1.0544352367091594,0.3239248481382403,-0.3925253306690015,-2.1534974466993146,0.8647950268495704,2.4658815199931463,0.5444986187534226,1.0544104758940245,0.3238615046091247,-0.39250456234122666,-2.153291787532338,0.8647539153680389,2.46587817577521,0.5445020185570556,0.0002673294608318221,-0.0016439212904900892,-0.000813507669537159,0.00042148413909485344,-0.00018031695804182792,-0.0002783860640106594,-0.00039527383046825696,0.0,0.0,0.0,0.0,0.0,0.0,0.0,-2.476081513491657e-05,-6.334352911557817e-05,2.0768327774867146e-05,0.00020565916697679043,-4.1111481531519445e-05,-3.3442179363518676e-06,3.3998036329530024e-06,-0.0002673294608318221,0.0016439212904900892,0.000813507669537159,-0.00042148413909485344,0.00018031695804182792,0.0002783860640106594,0.00039527383046825696,0.3514034152030945,33.91616439819336,3.7514312267303467,-19.336885452270508,-0.10558086633682251,-1.790164589881897,0.15231649577617645,0
7,0.03000497817993164,-0.2998287081718445,-33.96377182006836,-3.7752349376678467,19.336885452270508,0.10558086633682251,1.770938515663147,-0.11844198405742645,0.0,0.0,0.0,0.0,0.0,0.0,0.0,-0.3775337344507353,0.09956972682474428,-0.24225489816492785,0.32879480814739764,0.047588617673603895,-0.1224740378754004,-0.15814504808304283,1.0544316174314732,0.3239281890099508,-0.3925236602331463,-2.1534978126759836,0.8647971466461264,2.465883656223615,0.5444948549187846,1.0544104758940245,0.3238615046091247,-0.39250456234122666,-2.153291787532338,0.8647539153680389,2.46587817577521,0.5445020185570556,-0.0008795459397818444,-0.0006350026151496616,0.0002822920996765199,0.0008952165024126063,-0.00037048448138008784,0.0005648689191260761,-0.0016668644731456376,0.0,0.0,0.0,0.0,0.0,0.0,0.0,-2.1141537448698955e-05,-6.668440082607807e-05,1.9097891919617194e-05,0.00020602514364576052,-4.32312780874744e-05,-5.480448404870941e-06,7.163638271023842e-06,0.0008795459397818444,0.0006350026151496616,-0.0002822920996765199,-0.0008952165024126063,0.00037048448138008784,-0.0005648689191260761,0.0016668644731456376,0.2998287081718445,33.96377182006836,3.7752349376678467,-19.336885452270508,-0.10558086633682251,-1.770938515663147,0.11844198405742645,0
8,0.035001516342163086,-0.2998287081718445,-33.96377182006836,-3.7752349376678467,19.336885452270508,0.10558086633682251,1.770938515663147,-0.11844198405742645,0.0,0.0,0.0,0.0,0.0,0.0,0.0,-0.3775337344507353,0.09956972682474428,-0.24225489816492785,0.32879480814739764,0.047588617673603895,-0.1224740378754004,-0.15814504808304283,1.0544316174314732,0.3239281890099508,-0.3925236602331463,-2.1534978126759836,0.8647971466461264,2.465883656223615,0.5444948549187846,1.0544104758940245,0.3238615046091247,-0.39250456234122666,-2.153291787532338,0.8647539153680389,2.46587817577521,0.5445020185570556,-0.0008795459397818444,-0.0006350026151496616,0.0002822920996765199,0.0008952165024126063,-0.00037048448138008784,0.0005648689191260761,-0.0016668644731456376,0.0,0.0,0.0,0.0,0.0,0.0,0.0,-2.1141537448698955e-05,-6.668440082607807e-05,1.9097891919617194e-05,0.00020602514364576052,-4.32312780874744e-05,-5.480448404870941e-06,7.163638271023842e-06,0.0008795459397818444,0.0006350026151496616,-0.0002822920996765199,-0.0008952165024126063,0.00037048448138008784,-0.0005648689191260761,0.0016668644731456376,0.2998287081718445,33.96377182006836,3.7752349376678467,-19.336885452270508,-0.10558086633682251,-1.770938515663147,0.11844198405742645,0
9,0.04000353813171387,-0.2998287081718445,-33.96377182006836,-3.7752349376678467,19.336885452270508,0.10558086633682251,1.770938515663147,-0.11844198405742645,0.0,0.0,0.0,0.0,0.0,0.0,0.0,-0.3775337344507353,0.09956972682474428,-0.24225489816492785,0.32879480814739764,0.047588617673603895,-0.1224740378754004,-0.15814504808304283,1.0544316174314732,0.3239281890099508,-0.3925236602331463,-2.1534978126759836,0.8647971466461264,2.465883656223615,0.5444948549187846,1.0544104758940245,0.3238615046091247,-0.39250456234122666,-2.153291787532338,0.8647539153680389,2.46587817577521,0.5445020185570556,-0.0008795459397818444,-0.0006350026151496616,0.0002822920996765199,0.0008952165024126063,-0.00037048448138008784,0.0005648689191260761,-0.0016668644731456376,0.0,0.0,0.0,0.0,0.0,0.0,0.0,-2.1141537448698955e-05,-6.668440082607807e-05,1.9097891919617194e-05,0.00020602514364576052,-4.32312780874744e-05,-5.480448404870941e-06,7.163638271023842e-06,0.0008795459397818444,0.0006350026151496616,-0.0002822920996765199,-0.0008952165024126063,0.00037048448138008784,-0.0005648689191260761,0.0016668644731456376,0.2998287081718445,33.96377182006836,3.7752349376678467,-19.336885452270508,-0.10558086633682251,-1.770938515663147,0.11844198405742645,0
10,0.04500555992126465,-0.2998287081718445,-33.96377182006836,-3.7752349376678467,19.336885452270508,0.10558086633682251,1.770938515663147,-0.11844198405742645,0.0,0.0,0.0,0.0,0.0,0.0,0.0,-0.3775337344507353,0.09956972682474428,-0.24225489816492785,0.32879480814739764,0.047588617673603895,-0.1224740378754004,-0.15814504808304283,1.0544316174314732,0.3239281890099508,-0.3925236602331463,-2.1534978126759836,0.8647971466461264,2.465883656223615,0.5444948549187846,1.0544104758940245,0.3238615046091247,-0.39250456234122666,-2.153291787532338,0.8647539153680389,2.46587817577521,0.5445020185570556,-0.0008795459397818444,-0.0006350026151496616,0.0002822920996765199,0.0008952165024126063,-0.00037048448138008784,0.0005648689191260761,-0.0016668644731456376,0.0,0.0,0.0,0.0,0.0,0.0,0.0,-2.1141537448698955e-05,-6.668440082607807e-05,1.9097891919617194e-05,0.00020602514364576052,-4.32312780874744e-05,-5.480448404870941e-06,7.163638271023842e-06,0.0008795459397818444,0.0006350026151496616,-0.0002822920996765199,-0.0008952165024126063,0.00037048448138008784,-0.0005648689191260761,0.0016668644731456376,0.2998287081718445,33.96377182006836,3.7752349376678467,-19.336885452270508,-0.10558086633682251,-1.770938515663147,0.11844198405742645,0
11,0.0500032901763916,-0.3236324191093445,-33.96377182006836,-3.7752349376678467,19.360689163208008,0.10558086633682251,1.783755898475647,-0.11844198405742645,0.0,0.0,0.0,0.0,0.0,0.0,0.0,-0.37013888756816066,0.11178993581721522,-0.2342165716037737,0.32272131087193645,0.047778954223012024,-0.12258290057861819,-0.1584793592363046,1.0544332878673284,0.3239281890099508,-0.3925236602331463,-2.153500965167194,0.8647950798711485,2.465882232069969,0.5444948549726197,1.0544104758940245,0.3238615046091247,-0.39250456234122666,-2.153291787532338,0.8647539153680389,2.46587817577521,0.5445020185570556,-0.0002856449432073658,0.0005389754630600564,0.000442412247547235,-0.00012557892290965923,-0.0001288764809478602,8.056117458396957e-05,-0.0013347909067023206,0.0,0.0,0.0,0.0,0.0,0.0,0.0,-2.2811973303893396e-05,-6.668440082607807e-05,1.9097891919617194e-05,0.00020917763485606145,-4.1164503109536454e-05,-4.056294759191559e-06,7.163584435865289e-06,0.0002856449432073658,-0.0005389754630600564,-0.000442412247547235,0.00012557892290965923,0.0001288764809478602,-8.056117458396957e-05,0.0013347909067023206,0.3236324191093445,33.96377182006836,3.7752349376678467,-19.360689163208008,-0.10558086633682251,-1.783755898475647,0.11844198405742645,0
12,0.05501699447631836,-0.3236324191093445,-33.96377182006836,-3.7752349376678467,19.360689163208008,0.10558086633682251,1.783755898475647,-0.11844198405742645,0.0,0.0,0.0,0.0,0.0,0.0,0.0,-0.37013888756816066,0.11178993581721522,-0.2342165716037737,0.32272131087193645,0.047778954223012024,-0.12258290057861819,-0.1584793592363046,1.0544332878673284,0.3239281890099508,-0.3925236602331463,-2.153500965167194,0.8647950798711485,2.465882232069969,0.5444948549726197,1.0544104758940245,0.3238615046091247,-0.39250456234122666,-2.153291787532338,0.8647539153680389,2.46587817577521,0.5445020185570556,-0.0002856449432073658,0.0005389754630600564,0.000442412247547235,-0.00012557892290965923,-0.0001288764809478602,8.056117458396957e-05,-0.0013347909067023206,0.0,0.0,0.0,0.0,0.0,0.0,0.0,-2.2811973303893396e-05,-6.668440082607807e-05,1.9097891919617194e-05,0.00020917763485606145,-4.1164503109536454e-05,-4.056294759191559e-06,7.163584435865289e-06,0.0002856449432073658,-0.0005389754630600564,-0.000442412247547235,0.00012557892290965923,0.0001288764809478602,-8.056117458396957e-05,0.0013347909067023206,0.3236324191093445,33.96377182006836,3.7752349376678467,-19.360689163208008,-0.10558086633682251,-1.783755898475647,0.11844198405742645,0
13,0.06000161170959473,-0.3752071261405945,-34.01534652709961,-3.7990386486053467,19.336885452270508,0.10008770227432251,1.783755898475647,-0.13217489421367645,0.0,0.0,0.0,0.0,0.0,0.0,0.0,-0.3707671648271237,0.11151556824546802,-0.23521010361983344,0.3263986371808256,0.04811258580885732,-0.12141679713609281,-0.1575979131470479,1.054434761377803,0.32393180828763724,-0.392521989797291,-2.153497429937796,0.8647947361574884,2.465882245151921,0.5444964986967663,1.0544104758940245,0.3238615046091247,-0.39250456234122666,-2.153291787532338,0.8647539153680389,2.46587817577521,0.5445020185570556,0.0002850510033162892,0.002057919720842563,0.0002453120176747568,0.0008727230572700205,5.868691722751613e-05,2.7338008440960908e-08,-0.0009503945147886608,0.0,0.0,0.0,0.0,0.0,0.0,0.0,-2.4285483778418993e-05,-7.030367851251773e-05,1.742745606436724e-05,0.00020564240545795087,-4.0820789449447226e-05,-4.069376711157702e-06,5.519860289293632e-06,-0.0002850510033162892,-0.002057919720842563,-0.0002453120176747568,-0.0008727230572700205,-5.868691722751613e-05,-2.7338008440960908e-08,0.0009503945147886608,0.3752071261405945,34.01534652709961,3.7990386486053467,-19.336885452270508,-0.10008770227432251,-1.783755898475647,0.13217489421367645,0
14,0.06496453285217285,-0.3752071261405945,-34.01534652709961,-3.7990386486053467,19.336885452270508,0.10008770227432251,1.783755898475647,-0.13217489421367645,0.0,0.0,0.0,0.0,0.0,0.0,0.0,-0.3707671648271237,0.11151556824546802,-0.23521010361983344,0.3263986371808256,0.04811258580885732,-0.12141679713609281,-0.1575979131470479,1.054434761377803,0.32393180828763724,-0.392521989797291,-2.153497429937796,0.8647947361574884,2.465882245151921,0.5444964986967663,1.0544104758940245,0.3238615046091247,-0.39250456234122666,-2.153291787532338,0.8647539153680389,2.46587817577521,0.5445020185570556,0.0002850510033162892,0.002057919720842563,0.0002453120176747568,0.0008727230572700205,5.868691722751613e-05,2.7338008440960908e-08,-0.0009503945147886608,0.0,0.0,0.0,0.0,0.0,0.0,0.0,-2.4285483778418993e-05,-7.030367851251773e-05,1.742745606436724e-05,0.00020564240545795087,-4.0820789449447226e-05,-4.069376711157702e-06,5.519860289293632e-06,-0.0002850510033162892,-0.002057919720842563,-0.0002453120176747568,-0.0008727230572700205,-5.868691722751613e-05,-2.7338008440960908e-08,0.0009503945147886608,0.3752071261405945,34.01534652709961,3.7990386486053467,-19.336885452270508,-0.10008770227432251,-1.783755898475647,0.13217489421367645,0
15,0.07000565528869629,-0.3514034152030945,-34.01534652709961,-3.8228423595428467,19.336885452270508,0.10558086633682251,1.796573281288147,-0.13217489421367645,0.0,0.0,0.0,0.0,0.0,0.0,0.0,-0.3715998864250783,0.10493984770828328,-0.23621077598307055,0.3304198122093444,0.048318815978142186,-0.12066481053169473,-0.15676889685671017,1.0544352366970466,0.32393179953908174,-0.3925203193614357,-2.153499958229106,0.8647951973763249,2.465880807916397,0.5444963807983563,1.0544104758940245,0.3238615046091247,-0.39250456234122666,-2.153291787532338,0.8647539153680389,2.46587817577521,0.5445020185570556,-0.0011541119028944287,0.001365706034384433,0.0006542557805972525,0.0004774140537083655,-0.00016182972892791325,-0.00043293284148392277,-0.0009540939977058584,0.0,0.0,0.0,0.0,0.0,0.0,0.0,-2.4760803022161326e-05,-7.029492995702658e-05,1.575702020906178e-05,0.00020817069676803968,-4.128200828601436e-05,-2.6321411872309852e-06,5.637758699328366e-06,0.0011541119028944287,-0.001365706034384433,-0.0006542557805972525,-0.0004774140537083655,0.00016182972892791325,0.00043293284148392277,0.0009540939977058584,0.3514034152030945,34.01534652709961,3.8228423595428467,-19.336885452270508,-0.10558086633682251,-1.796573281288147,0.13217489421367645,0
16,0.07502102851867676,-0.3514034152030945,-34.01534652709961,-3.8228423595428467,19.336885452270508,0.10558086633682251,1.796573281288147,-0.13217489421367645,0.0,0.0,0.0,0.0,0.0,0.0,0.0,-0.3715998864250783,0.10493984770828328,-0.23621077598307055,0.3304198122093444,0.048318815978142186,-0.12066481053169473,-0.15676889685671017,1.0544352366970466,0.32393179953908174,-0.3925203193614357,-2.153499958229106,0.8647951973763249,2.465880807916397,0.5444963807983563,1.0544104758940245,0.3238615046091247,-0.39250456234122666,-2.153291787532338,0.8647539153680389,2.46587817577521,0.5445020185570556,-0.0011541119028944287,0.001365706034384433,0.0006542557805972525,0.0004774140537083655,-0.00016182972892791325,-0.00043293284148392277,-0.0009540939977058584,0.0,0.0,0.0,0.0,0.0,0.0,0.0,-2.4760803022161326e-05,-7.029492995702658e-05,1.575702020906178e-05,0.00020817069676803968,-4.128200828601436e-05,-2.6321411872309852e-06,5.637758699328366e-06,0.0011541119028944287,-0.001365706034384433,-0.0006542557805972525,-0.0004774140537083655,0.00016182972892791325,0.00043293284148392277,0.0009540939977058584,0.3514034152030945,34.01534652709961,3.8228423595428467,-19.336885452270508,-0.10558086633682251,-1.796573281288147,0.13217489421367645,0
17,0.08004522323608398,-0.4029781222343445,-33.96377182006836,-3.7990386486053467,19.360689163208008,0.08818584680557251,1.790164589881897,-0.11844198405742645,0.0,0.0,0.0,0.0,0.0,0.0,0.0,-0.3736446740436961,0.1087567552232119,-0.2371063173458953,0.3263573634662257,0.04875448171941391,-0.1194926767557442,-0.15636572122176284,1.0544388559505071,0.32392818900990145,-0.392521989797291,-2.1534991255688065,0.8647973174011275,2.4658815200469815,0.5444948549187846,1.0544104758940245,0.3238615046091247,-0.39250456234122666,-2.153291787532338,0.8647539153680389,2.46587817577521,0.5445020185570556,-6.080847240185148e-05,-0.00017932484061687927,-0.0005964529620609973,-0.00037672127581586277,0.0003424228087469341,8.239748187388692e-06,-0.0011055896686703553,0.0,0.0,0.0,0.0,0.0,0.0,0.0,-2.838005648264641e-05,-6.668440077672866e-05,1.742745606436724e-05,0.00020733803646866278,-4.340203308861312e-05,-3.344271771510421e-06,7.163638271023842e-06,6.080847240185148e-05,0.00017932484061687927,0.0005964529620609973,0.00037672127581586277,-0.0003424228087469341,-8.239748187388692e-06,0.0011055896686703553,0.4029781222343445,33.96377182006836,3.7990386486053467,-19.360689163208008,-0.08818584680557251,-1.790164589881897,0.11844198405742645,0
18,0.08500432968139648,-0.4029781222343445,-33.96377182006836,-3.7990386486053467,19.360689163208008,0.08818584680557251,1.790164589881897,-0.11844198405742645,0.0,0.0,0.0,0.0,0.0,0.0,0.0,-0.3736446740436961,0.1087567552232119,-0.2371063173458953,0.3263573634662257,0.04875448171941391,-0.1194926767557442,-0.15636572122176284,1.0544388559505071,0.32392818900990145,-0.392521989797291,-2.1534991255688065,0.8647973174011275,2.4658815200469815,0.5444948549187846,1.0544104758940245,0.3238615046091247,-0.39250456234122666,-2.153291787532338,0.8647539153680389,2.46587817577521,0.5445020185570556,-6.080847240185148e-05,-0.00017932484061687927,-0.0005964529620609973,-0.00037672127581586277,0.0003424228087469341,8.239748187388692e-06,-0.0011055896686703553,0.0,0.0,0.0,0.0,0.0,0.0,0.0,-2.838005648264641e-05,-6.668440077672866e-05,1.742745606436724e-05,0.00020733803646866278,-4.340203308861312e-05,-3.344271771510421e-06,7.163638271023842e-06,6.080847240185148e-05,0.00017932484061687927,0.0005964529620609973,0.00037672127581586277,-0.0003424228087469341,-8.239748187388692e-06,0.0011055896686703553,0.4029781222343445,33.96377182006836,3.7990386486053467,-19.360689163208008,-0.08818584680557251,-1.790164589881897,0.11844198405742645,0
19,0.09000349044799805,-0.4267818331718445,-34.01534652709961,-3.8228423595428467,19.336885452270508,0.10558086633682251,1.790164589881897,-0.11844198405742645,0.0,0.0,0.0,0.0,0.0,0.0,0.0,-0.3671352206276713,0.1049717653331581,-0.2315246152493647,0.330319761106578,0.04760122340268925,-0.11890331287650784,-0.15637523325507313,1.0544404999317478,0.32392967364008474,-0.3925203193614357,-2.1534999819194254,0.8647941256323829,2.4658815199931463,0.5444948549187846,1.0544104758940245,0.3238615046091247,-0.39250456234122666,-2.153291787532338,0.8647539153680389,2.46587817577521,0.5445020185570556,0.0008835617208863133,0.001111569584768557,0.00012994446789009253,0.0004667724987707313,-0.0001746776154754175,7.207592943858223e-05,-0.0013807033093353697,0.0,0.0,0.0,0.0,0.0,0.0,0.0,-3.0024037723341834e-05,-6.816903096001914e-05,1.575702020906178e-05,0.00020819438708752358,-4.021026434397612e-05,-3.3442179363518676e-06,7.163638271023842e-06,-0.0008835617208863133,-0.001111569584768557,-0.00012994446789009253,-0.0004667724987707313,0.0001746776154754175,-7.207592943858223e-05,0.0013807033093353697,0.4267818331718445,34.01534652709961,3.8228423595428467,-19.336885452270508,-0.10558086633682251,-1.790164589881897,0.11844198405742645,0
20,0.09539628028869629,-0.4267818331718445,-34.01534652709961,-3.8228423595428467,19.336885452270508,0.10558086633682251,1.790164589881897,-0.11844198405742645,0.0,0.0,0.0,0.0,0.0,0.0,0.0,-0.3671352206276713,0.1049717653331581,-0.2315246152493647,0.330319761106578,0.04760122340268925,-0.11890331287650784,-0.15637523325507313,1.0544404999317478,0.32392967364008474,-0.3925203193614357,-2.1534999819194254,0.8647941256323829,2.4658815199931463,0.5444948549187846,1.0544104758940245,0.3238615046091247,-0.39250456234122666,-2.153291787532338,0.8647539153680389,2.46587817577521,0.5445020185570556,0.0008835617208863133,0.001111569584768557,0.00012994446789009253,0.0004667724987707313,-0.0001746776154754175,7.207592943858223e-05,-0.0013807033093353697,0.0,0.0,0.0,0.0,0.0,0.0,0.0,-3.0024037723341834e-05,-6.816903096001914e-05,1.575702020906178e-05,0.00020819438708752358,-4.021026434397612e-05,-3.3442179363518676e-06,7.163638271023842e-06,-0.0008835617208863133,-0.001111569584768557,-0.00012994446789009253,-0.0004667724987707313,0.0001746776154754175,-7.207592943858223e-05,0.0013807033093353697,0.4267818331718445,34.01534652709961,3.8228423595428467,-19.336885452270508,-0.10558086633682251,-1.790164589881897,0.11844198405742645,0
21,0.09995913505554199,-0.3514034152030945,-33.96377182006836,-3.8228423595428467,19.336885452270508,0.10558086633682251,1.770938515663147,-0.13858358561992645,0.0,0.0,0.0,0.0,0.0,0.0,0.0,-0.37383043828589385,0.11288657953750766,-0.23632132894021002,0.3241096097311359,0.04740241348229594,-0.11920233841774815,-0.15679670452521166,1.05443523670901,0.323927952786901,-0.3925203193614357,-2.1534972258247667,0.8647940855718913,2.465883695469471,0.5444970928745138,1.0544104758940245,0.3238615046091247,-0.39250456234122666,-2.153291787532338,0.8647539153680389,2.46587817577521,0.5445020185570556,-0.001383238883262799,0.0001829745047128113,-1.5772845244927585e-05,-1.8507820147163955e-05,-0.00012247935942815094,0.0004258436109226531,-0.0005242148089899567,0.0,0.0,0.0,0.0,0.0,0.0,0.0,-2.476081498548055e-05,-6.644817777629042e-05,1.575702020906178e-05,0.00020543829242880562,-4.0170203852385455e-05,-5.519694261213459e-06,4.925682541845333e-06,0.001383238883262799,-0.0001829745047128113,1.5772845244927585e-05,1.8507820147163955e-05,0.00012247935942815094,-0.0004258436109226531,0.0005242148089899567,0.3514034152030945,33.96377182006836,3.8228423595428467,-19.336885452270508,-0.10558086633682251,-1.770938515663147,0.13858358561992645,0
22,0.1050112247467041,-0.3514034152030945,-33.96377182006836,-3.8228423595428467,19.336885452270508,0.10558086633682251,1.770938515663147,-0.13858358561992645,0.0,0.0,0.0,0.0,0.0,0.0,0.0,-0.37383043828589385,0.11288657953750766,-0.23632132894021002,0.3241096097311359,0.04740241348229594,-0.11920233841774815,-0.15679670452521166,1.05443523670901,0.323927952786901,-0.3925203193614357,-2.1534972258247667,0.8647940855718913,2.465883695469471,0.5444970928745138,1.0544104758940245,0.3238615046091247,-0.39250456234122666,-2.153291787532338,0.8647539153680389,2.46587817577521,0.5445020185570556,-0.001383238883262799,0.0001829745047128113,-1.5772845244927585e-05,-1.8507820147163955e-05,-0.00012247935942815094,0.0004258436109226531,-0.0005242148089899567,0.0,0.0,0.0,0.0,0.0,0.0,0.0,-2.476081498548055e-05,-6.644817777629042e-05,1.575702020906178e-05,0.00020543829242880562,-4.0170203852385455e-05,-5.519694261213459e-06,4.925682541845333e-06,0.001383238883262799,-0.0001829745047128113,1.5772845244927585e-05,1.8507820147163955e-05,0.00012247935942815094,-0.0004258436109226531,0.0005242148089899567,0.3514034152030945,33.96377182006836,3.8228423595428467,-19.336885452270508,-0.10558086633682251,-1.770938515663147,0.13858358561992645,0
23,0.11000514030456543,-0.3752071261405945,-33.93996810913086,-3.7990386486053467,19.360689163208008,0.11198955774307251,1.783755898475647,-0.18710653483867645,0.0,0.0,0.0,0.0,0.0,0.0,0.0,-0.3805454459512433,0.11461590250580708,-0.2418718978153936,0.3240412194514507,0.04771119563049245,-0.12019433232960826,-0.15672625890094144,1.0544369071450148,0.32392651857365107,-0.392521989797291,-2.1535017816872393,0.8647944722707123,2.465882232070043,0.5445035439514452,1.0544104758940245,0.3238615046091247,-0.39250456234122666,-2.153291787532338,0.8647539153680389,2.46587817577521,0.5445020185570556,-0.00055679920284594,-3.393840154784023e-05,-0.0003970190697632614,-0.0006275764596252039,-0.00032126712951637427,-6.124871140568831e-05,0.0015869329596209921,0.0,0.0,0.0,0.0,0.0,0.0,0.0,-2.6431250990333055e-05,-6.501396452635033e-05,1.742745606436724e-05,0.00020999415490141615,-4.055690267334988e-05,-4.056294832910368e-06,-1.5253943895787714e-06,0.00055679920284594,3.393840154784023e-05,0.0003970190697632614,0.0006275764596252039,0.00032126712951637427,6.124871140568831e-05,-0.0015869329596209921,0.3752071261405945,33.93996810913086,3.7990386486053467,-19.360689163208008,-0.11198955774307251,-1.783755898475647,0.18710653483867645,0
24,0.11517882347106934,-0.3752071261405945,-33.93996810913086,-3.7990386486053467,19.360689163208008,0.11198955774307251,1.783755898475647,-0.18710653483867645,0.0,0.0,0.0,0.0,0.0,0.0,0.0,-0.3805454459512433,0.11461590250580708,-0.2418718978153936,0.3240412194514507,0.04771119563049245,-0.12019433232960826,-0.15672625890094144,1.0544369071450148,0.32392651857365107,-0.392521989797291,-2.1535017816872393,0.8647944722707123,2.465882232070043,0.5445035439514452,1.0544104758940245,0.3238615046091247,-0.39250456234122666,-2.153291787532338,0.8647539153680389,2.46587817577521,0.5445020185570556,-0.00055679920284594,-3.393840154784023e-05,-0.0003970190697632614,-0.0006275764596252039,-0.00032126712951637427,-6.124871140568831e-05,0.0015869329596209921,0.0,0.0,0.0,0.0,0.0,0.0,0.0,-2.6431250990333055e-05,-6.501396452635033e-05,1.742745606436724e-05,0.00020999415490141615,-4.055690267334988e-05,-4.056294832910368e-06,-1.5253943895787714e-06,0.00055679920284594,3.393840154784023e-05,0.0003970190697632614,0.0006275764596252039,0.00032126712951637427,6.124871140568831e-05,-0.0015869329596209921,0.3752071261405945,33.93996810913086,3.7990386486053467,-19.360689163208008,-0.11198955774307251,-1.783755898475647,0.18710653483867645,0
25,0.12001395225524902,-0.3514034152030945,-33.99154281616211,-3.7752349376678467,19.388460159301758,0.09367901086807251,1.777347207069397,-0.16604940593242645,0.0,0.0,0.0,0.0,0.0,0.0,0.0,-0.36842371382277606,0.11421068395166452,-0.23087491477199817,0.32671470782303597,0.047653017447869025,-0.12135383542875178,-0.15789671055145355,1.0544352367091594,0.32393013785178193,-0.3925236602331463,-2.153501502479357,0.8647996606635914,2.465882944146792,0.5445001446383079,1.0544104758940245,0.3238615046091247,-0.39250456234122666,-2.153291787532338,0.8647539153680389,2.46587817577521,0.5445020185570556,-4.80785421388485e-05,0.001050340428298649,-0.00021628579657308932,-0.0013101655933479303,0.00042544046901049723,0.00032700955623178016,0.0007241050009887718,0.0,0.0,0.0,0.0,0.0,0.0,0.0,-2.476081513491657e-05,-6.863324265721227e-05,1.9097891919617194e-05,0.0002097149470192683,-4.574529555245732e-05,-4.76837158203125e-06,1.87391874773013e-06,4.80785421388485e-05,-0.001050340428298649,0.00021628579657308932,0.0013101655933479303,-0.00042544046901049723,-0.00032700955623178016,-0.0007241050009887718,0.3514034152030945,33.99154281616211,3.7752349376678467,-19.388460159301758,-0.09367901086807251,-1.777347207069397,0.16604940593242645,0
26,0.12500357627868652,-0.3514034152030945,-33.99154281616211,-3.7752349376678467,19.388460159301758,0.09367901086807251,1.777347207069397,-0.16604940593242645,0.0,0.0,0.0,0.0,0.0,0.0,0.0,-0.36842371382277606,0.11421068395166452,-0.23087491477199817,0.32671470782303597,0.047653017447869025,-0.12135383542875178,-0.15789671055145355,1.0544352367091594,0.32393013785178193,-0.3925236602331463,-2.153501502479357,0.8647996606635914,2.465882944146792,0.5445001446383079,1.0544104758940245,0.3238615046091247,-0.39250456234122666,-2.153291787532338,0.8647539153680389,2.46587817577521,0.5445020185570556,-4.80785421388485e-05,0.001050340428298649,-0.00021628579657308932,-0.0013101655933479303,0.00042544046901049723,0.00032700955623178016,0.0007241050009887718,0.0,0.0,0.0,0.0,0.0,0.0,0.0,-2.476081513491657e-05,-6.863324265721227e-05,1.9097891919617194e-05,0.0002097149470192683,-4.574529555245732e-05,-4.76837158203125e-06,1.87391874773013e-06,4.80785421388485e-05,-0.001050340428298649,0.00021628579657308932,0.0013101655933479303,-0.00042544046901049723,-0.00032700955623178016,-0.0007241050009887718,0.3514034152030945,33.99154281616211,3.7752349376678467,-19.388460159301758,-0.09367901086807251,-1.777347207069397,0.16604940593242645,0
27,0.12995338439941406,-0.4029781222343445,-33.96377182006836,-3.7514312267303467,19.336885452270508,0.10558086633682251,1.770938515663147,-0.14590780436992645,0.0,0.0,0.0,0.0,0.0,0.0,0.0,-0.38227744447306417,0.11088188327873227,-0.24355332961143192,0.3266504702147599,0.04868058326764031,-0.11976456128320272,-0.15842260885995127,1.0544388559868458,0.32392811027295093,-0.3925253306690015,-2.153499218106012,0.8647943598815008,2.465883656223615,0.5444979197585493,1.0544104758940245,0.3238615046091247,-0.39250456234122666,-2.153291787532338,0.8647539153680389,2.46587817577521,0.5445020185570556,0.0009028717876197567,-0.00016944042485580354,-0.0006661371438411774,0.00010832369940121622,-0.0003446354730304126,0.00048120874562612704,-7.695404299779977e-05,0.0,0.0,0.0,0.0,0.0,0.0,0.0,-2.838009282135623e-05,-6.660566382621358e-05,2.0768327774867146e-05,0.00020743057367411666,-4.044451346185696e-05,-5.480448404870941e-06,4.098798506269041e-06,-0.0009028717876197567,0.00016944042485580354,0.0006661371438411774,-0.00010832369940121622,0.0003446354730304126,-0.00048120874562612704,7.695404299779977e-05,0.4029781222343445,33.96377182006836,3.7514312267303467,-19.336885452270508,-0.10558086633682251,-1.770938515663147,0.14590780436992645,0
28,0.13502287864685059,-0.4029781222343445,-33.96377182006836,-3.7514312267303467,19.336885452270508,0.10558086633682251,1.770938515663147,-0.14590780436992645,0.0,0.0,0.0,0.0,0.0,0.0,0.0,-0.38227744447306417,0.11088188327873227,-0.24355332961143192,0.3266504702147599,0.04868058326764031,-0.11976456128320272,-0.15842260885995127,1.0544388559868458,0.32392811027295093,-0.3925253306690015,-2.153499218106012,0.8647943598815008,2.465883656223615,0.5444979197585493,1.0544104758940245,0.3238615046091247,-0.39250456234122666,-2.153291787532338,0.8647539153680389,2.46587817577521,0.5445020185570556,0.0009028717876197567,-0.00016944042485580354,-0.0006661371438411774,0.00010832369940121622,-0.0003446354730304126,0.00048120874562612704,-7.695404299779977e-05,0.0,0.0,0.0,0.0,0.0,0.0,0.0,-2.838009282135623e-05,-6.660566382621358e-05,2.0768327774867146e-05,0.00020743057367411666,-4.044451346185696e-05,-5.480448404870941e-06,4.098798506269041e-06,-0.0009028717876197567,0.00016944042485580354,0.0006661371438411774,-0.00010832369940121622,0.0003446354730304126,-0.00048120874562612704,7.695404299779977e-05,0.4029781222343445,33.96377182006836,3.7514312267303467,-19.336885452270508,-0.10558086633682251,-1.770938515663147,0.14590780436992645,0
29,0.14000415802001953,-0.3514034152030945,-33.93996810913086,-3.7514312267303467,19.388460159301758,0.11198955774307251,1.783755898475647,-0.12485067546367645,0.0,0.0,0.0,0.0,0.0,0.0,0.0,-0.3786453324818245,0.115190116479934,-0.23822054393579636,0.32384346022129845,0.048617692655195874,-0.12037122442996516,-0.15845204004310304,1.0544352367091594,0.32392651846564424,-0.3925253306690015,-2.1535009641439067,0.8647974982413072,2.465882232069969,0.5444959216619414,1.0544104758940245,0.3238615046091247,-0.39250456234122666,-2.153291787532338,0.8647539153680389,2.46587817577521,0.5445020185570556,-0.0005606047604981,-0.0004085186646670603,-0.0008134373226487481,-0.0005615631690568363,-0.00035135312934588247,9.488891525059118e-05,-0.0014342461165130344,0.0,0.0,0.0,0.0,0.0,0.0,0.0,-2.476081513491657e-05,-6.501385651952463e-05,2.0768327774867146e-05,0.00020917661156882872,-4.358287326833299e-05,-4.056294759191559e-06,6.096895114215961e-06,0.0005606047604981,0.0004085186646670603,0.0008134373226487481,0.0005615631690568363,0.00035135312934588247,-9.488891525059118e-05,0.0014342461165130344,0.3514034152030945,33.93996810913086,3.7514312267303467,-19.388460159301758,-0.11198955774307251,-1.783755898475647,0.12485067546367645,0
30,0.14499855041503906,-0.3514034152030945,-33.93996810913086,-3.7514312267303467,19.388460159301758,0.11198955774307251,1.783755898475647,-0.12485067546367645,0.0,0.0,0.0,0.0,0.0,0.0,0.0,-0.3786453324818245,0.115190116479934,-0.23822054393579636,0.32384346022129845,0.048617692655195874,-0.12037122442996516,-0.15845204004310304,1.0544352367091594,0.32392651846564424,-0.3925253306690015,-2.1535009641439067,0.8647974982413072,2.465882232069969,0.5444959216619414,1.0544104758940245,0.3238615046091247,-0.39250456234122666,-2.153291787532338,0.8647539153680389,2.46587817577521,0.5445020185570556,-0.0005606047604981,-0.0004085186646670603,-0.0008134373226487481,-0.0005615631690568363,-0.00035135312934588247,9.488891525059118e-05,-0.0014342461165130344,0.0,0.0,0.0,0.0,0.0,0.0,0.0,-2.476081513491657e-05,-6.501385651952463e-05,2.0768327774867146e-05,0.00020917661156882872,-4.358287326833299e-05,-4.056294759191559e-06,6.096895114215961e-06,0.0005606047604981,0.0004085186646670603,0.0008134373226487481,0.0005615631690568363,0.00035135312934588247,-9.488891525059118e-05,0.0014342461165130344,0.3514034152030945,33.93996810913086,3.7514312267303467,-19.388460159301758,-0.11198955774307251,-1.783755898475647,0.12485067546367645,0
31,0.1500091552734375,-0.3514034152030945,-33.93996810913086,-3.7514312267303467,19.388460159301758,0.11198955774307251,1.783755898475647,-0.12485067546367645,0.0,0.0,0.0,0.0,0.0,0.0,0.0,-0.3786453324818245,0.115190116479934,-0.23822054393579636,0.32384346022129845,0.048617692655195874,-0.12037122442996516,-0.15845204004310304,1.0544352367091594,0.32392651846564424,-0.3925253306690015,-2.1535009641439067,0.8647974982413072,2.465882232069969,0.5444959216619414,1.0544104758940245,0.3238615046091247,-0.39250456234122666,-2.153291787532338,0.8647539153680389,2.46587817577521,0.5445020185570556,-0.0005606047604981,-0.0004085186646670603,-0.0008134373226487481,-0.0005615631690568363,-0.00035135312934588247,9.488891525059118e-05,-0.0014342461165130344,0.0,0.0,0.0,0.0,0.0,0.0,0.0,-2.476081513491657e-05,-6.501385651952463e-05,2.0768327774867146e-05,0.00020917661156882872,-4.358287326833299e-05,-4.056294759191559e-06,6.096895114215961e-06,0.0005606047604981,0.0004085186646670603,0.0008134373226487481,0.0005615631690568363,0.00035135312934588247,-9.488891525059118e-05,0.0014342461165130344,0.3514034152030945,33.93996810913086,3.7514312267303467,-19.388460159301758,-0.11198955774307251,-1.783755898475647,0.12485067546367645,0
32,0.15501189231872559,-0.3514034152030945,-33.93996810913086,-3.7514312267303467,19.388460159301758,0.11198955774307251,1.783755898475647,-0.12485067546367645,0.0,0.0,0.0,0.0,0.0,0.0,0.0,-0.3786453324818245,0.115190116479934,-0.23822054393579636,0.32384346022129845,0.048617692655195874,-0.12037122442996516,-0.15845204004310304,1.0544352367091594,0.32392651846564424,-0.3925253306690015,-2.1535009641439067,0.8647974982413072,2.465882232069969,0.5444959216619414,1.0544104758940245,0.3238615046091247,-0.39250456234122666,-2.153291787532338,0.8647539153680389,2.46587817577521,0.5445020185570556,-0.0005606047604981,-0.0004085186646670603,-0.0008134373226487481,-0.0005615631690568363,-0.00035135312934588247,9.488891525059118e-05,-0.0014342461165130344,0.0,0.0,0.0,0.0,0.0,0.0,0.0,-2.476081513491657e-05,-6.501385651952463e-05,2.0768327774867146e-05,0.00020917661156882872,-4.358287326833299e-05,-4.056294759191559e-06,6.096895114215961e-06,0.0005606047604981,0.0004085186646670603,0.0008134373226487481,0.0005615631690568363,0.00035135312934588247,-9.488891525059118e-05,0.0014342461165130344,0.3514034152030945,33.93996810913086,3.7514312267303467,-19.388460159301758,-0.11198955774307251,-1.783755898475647,0.12485067546367645,0
33,0.15999889373779297,-0.3514034152030945,-33.93996810913086,-3.7514312267303467,19.388460159301758,0.11198955774307251,1.783755898475647,-0.12485067546367645,0.0,0.0,0.0,0.0,0.0,0.0,0.0,-0.3786453324818245,0.115190116479934,-0.23822054393579636,0.32384346022129845,0.048617692655195874,-0.12037122442996516,-0.15845204004310304,1.0544352367091594,0.32392651846564424,-0.3925253306690015,-2.1535009641439067,0.8647974982413072,2.465882232069969,0.5444959216619414,1.0544104758940245,0.3238615046091247,-0.39250456234122666,-2.153291787532338,0.8647539153680389,2.46587817577521,0.5445020185570556,-0.0005606047604981,-0.0004085186646670603,-0.0008134373226487481,-0.0005615631690568363,-0.00035135312934588247,9.488891525059118e-05,-0.0014342461165130344,0.0,0.0,0.0,0.0,0.0,0.0,0.0,-2.476081513491657e-05,-6.501385651952463e-05,2.0768327774867146e-05,0.00020917661156882872,-4.358287326833299e-05,-4.056294759191559e-06,6.096895114215961e-06,0.0005606047604981,0.0004085186646670603,0.0008134373226487481,0.0005615631690568363,0.00035135312934588247,-9.488891525059118e-05,0.0014342461165130344,0.3514034152030945,33.93996810913086,3.7514312267303467,-19.388460159301758,-0.11198955774307251,-1.783755898475647,0.12485067546367645,0
34,0.16499853134155273,-0.3752071261405945,-33.91616439819336,-3.8228423595428467,19.360689163208008,0.10558086633682251,1.783755898475647,-0.11111776530742645,0.0,0.0,0.0,0.0,0.0,0.0,0.0,-0.3784165241336402,0.108723951835537,-0.23821796967505812,0.3248061176462993,0.048780258106975664,-0.12077176429596323,-0.15933419370355706,1.0544369071450148,0.3239248481382397,-0.3925203193614357,-2.153499485910694,0.8647953815157465,2.465882232069969,0.544494041334044,1.0544104758940245,0.3238615046091247,-0.39250456234122666,-2.153291787532338,0.8647539153680389,2.46587817577521,0.5445020185570556,0.00014051779594459552,-0.001456888852364356,0.000655971454116041,-0.0002553346653723723,-7.027383422086336e-05,-0.0002095068416887653,-0.001725006066633596,0.0,0.0,0.0,0.0,0.0,0.0,0.0,-2.6431250990333055e-05,-6.334352911496755e-05,1.575702020906178e-05,0.0002076983783561026,-4.146614770761392e-05,-4.056294759191559e-06,7.97722301160153e-06,-0.00014051779594459552,0.001456888852364356,-0.000655971454116041,0.0002553346653723723,7.027383422086336e-05,0.0002095068416887653,0.001725006066633596,0.3752071261405945,33.91616439819336,3.8228423595428467,-19.360689163208008,-0.10558086633682251,-1.783755898475647,0.11111776530742645,0
35,0.17000389099121094,-0.3752071261405945,-33.91616439819336,-3.8228423595428467,19.360689163208008,0.10558086633682251,1.783755898475647,-0.11111776530742645,0.0,0.0,0.0,0.0,0.0,0.0,0.0,-0.3784165241336402,0.108723951835537,-0.23821796967505812,0.3248061176462993,0.048780258106975664,-0.12077176429596323,-0.15933419370355706,1.0544369071450148,0.3239248481382397,-0.3925203193614357,-2.153499485910694,0.8647953815157465,2.465882232069969,0.544494041334044,1.0544104758940245,0.3238615046091247,-0.39250456234122666,-2.153291787532338,0.8647539153680389,2.46587817577521,0.5445020185570556,0.00014051779594459552,-0.001456888852364356,0.000655971454116041,-0.0002553346653723723,-7.027383422086336e-05,-0.0002095068416887653,-0.001725006066633596,0.0,0.0,0.0,0.0,0.0,0.0,0.0,-2.6431250990333055e-05,-6.334352911496755e-05,1.575702020906178e-05,0.0002076983783561026,-4.146614770761392e-05,-4.056294759191559e-06,7.97722301160153e-06,-0.00014051779594459552,0.001456888852364356,-0.000655971454116041,0.0002553346653723723,7.027383422086336e-05,0.0002095068416887653,0.001725006066633596,0.3752071261405945,33.91616439819336,3.8228423595428467,-19.360689163208008,-0.10558086633682251,-1.783755898475647,0.11111776530742645,0
36,0.1750023365020752,-0.4029781222343445,-33.91616439819336,-3.7990386486053467,19.360689163208008,0.10008770227432251,1.783755898475647,-0.18710653483867645,0.0,0.0,0.0,0.0,0.0,0.0,0.0,-0.372789514179565,0.11178948454537163,-0.23479136348651045,0.32082994231522766,0.048831163861050575,-0.12222989396656997,-0.15893266565025382,1.0544388559868458,0.3239248481382403,-0.392521989797291,-2.1535011872293666,0.8647957612160454,2.465882232069969,0.544502837526026,1.0544104758940245,0.3238615046091247,-0.39250456234122666,-2.153291787532338,0.8647539153680389,2.46587817577521,0.5445020185570556,0.0006960284785287812,-0.001055340345785788,0.00016926702957162216,-0.0007017272530108247,0.00026555468644896634,3.214801221640218e-05,0.001227816468563432,0.0,0.0,0.0,0.0,0.0,0.0,0.0,-2.838009282135623e-05,-6.334352911557817e-05,1.742745606436724e-05,0.00020939969702871153,-4.1845848006483166e-05,-4.056294759191559e-06,-8.189689704174441e-07,-0.0006960284785287812,0.001055340345785788,-0.00016926702957162216,0.0007017272530108247,-0.00026555468644896634,-3.214801221640218e-05,-0.001227816468563432,0.4029781222343445,33.91616439819336,3.7990386486053467,-19.360689163208008,-0.10008770227432251,-1.783755898475647,0.18710653483867645,0
37,0.18003010749816895,-0.4029781222343445,-33.91616439819336,-3.7990386486053467,19.360689163208008,0.10008770227432251,1.783755898475647,-0.18710653483867645,0.0,0.0,0.0,0.0,0.0,0.0,0.0,-0.372789514179565,0.11178948454537163,-0.23479136348651045,0.32082994231522766,0.048831163861050575,-0.12222989396656997,-0.15893266565025382,1.0544388559868458,0.3239248481382403,-0.392521989797291,-2.1535011872293666,0.8647957612160454,2.465882232069969,0.544502837526026,1.0544104758940245,0.3238615046091247,-0.39250456234122666,-2.153291787532338,0.8647539153680389,2.46587817577521,0.5445020185570556,0.0006960284785287812,-0.001055340345785788,0.00016926702957162216,-0.0007017272530108247,0.00026555468644896634,3.214801221640218e-05,0.001227816468563432,0.0,0.0,0.0,0.0,0.0,0.0,0.0,-2.838009282135623e-05,-6.334352911557817e-05,1.742745606436724e-05,0.00020939969702871153,-4.1845848006483166e-05,-4.056294759191559e-06,-8.189689704174441e-07,-0.0006960284785287812,0.001055340345785788,-0.00016926702957162216,0.0007017272530108247,-0.00026555468644896634,-3.214801221640218e-05,-0.001227816468563432,0.4029781222343445,33.91616439819336,3.7990386486053467,-19.360689163208008,-0.10008770227432251,-1.783755898475647,0.18710653483867645,0
38,0.18499994277954102,-0.3752071261405945,-33.96377182006836,-3.8228423595428467,19.360689163208008,0.10008770227432251,1.777347207069397,-0.16604940593242645,0.0,0.0,0.0,0.0,0.0,0.0,0.0,-0.3674086880462693,0.09944103075381873,-0.23091753761961167,0.33135942212898434,0.04887431216287966,-0.12114521703765752,-0.15975343666706857,1.0544369071450148,0.32392795279895115,-0.3925203193614357,-2.1535016201734725,0.8647977760022125,2.465882944146792,0.5445043831868375,1.0544104758940245,0.3238615046091247,-0.39250456234122666,-2.153291787532338,0.8647539153680389,2.46587817577521,0.5445020185570556,0.000429461416268349,-7.000462226813019e-05,0.0005451147045988689,0.00010447744922395485,0.00011610159560829416,0.0002236777527844602,0.0007761497257722001,0.0,0.0,0.0,0.0,0.0,0.0,0.0,-2.6431250990333055e-05,-6.644818982642908e-05,1.575702020906178e-05,0.00020983264113461075,-4.386063417360919e-05,-4.76837158203125e-06,-2.364629781870242e-06,-0.000429461416268349,7.000462226813019e-05,-0.0005451147045988689,-0.00010447744922395485,-0.00011610159560829416,-0.0002236777527844602,-0.0007761497257722001,0.3752071261405945,33.96377182006836,3.8228423595428467,-19.360689163208008,-0.10008770227432251,-1.777347207069397,0.16604940593242645,0
39,0.1900029182434082,-0.3752071261405945,-33.96377182006836,-3.8228423595428467,19.360689163208008,0.10008770227432251,1.777347207069397,-0.16604940593242645,0.0,0.0,0.0,0.0,0.0,0.0,0.0,-0.3674086880462693,0.09944103075381873,-0.23091753761961167,0.33135942212898434,0.04887431216287966,-0.12114521703765752,-0.15975343666706857,1.0544369071450148,0.32392795279895115,-0.3925203193614357,-2.1535016201734725,0.8647977760022125,2.465882944146792,0.5445043831868375,1.0544104758940245,0.3238615046091247,-0.39250456234122666,-2.153291787532338,0.8647539153680389,2.46587817577521,0.5445020185570556,0.000429461416268349,-7.000462226813019e-05,0.0005451147045988689,0.00010447744922395485,0.00011610159560829416,0.0002236777527844602,0.0007761497257722001,0.0,0.0,0.0,0.0,0.0,0.0,0.0,-2.6431250990333055e-05,-6.644818982642908e-05,1.575702020906178e-05,0.00020983264113461075,-4.386063417360919e-05,-4.76837158203125e-06,-2.364629781870242e-06,-0.000429461416268349,7.000462226813019e-05,-0.0005451147045988689,-0.00010447744922395485,-0.00011610159560829416,-0.0002236777527844602,-0.0007761497257722001,0.3752071261405945,33.96377182006836,3.8228423595428467,-19.360689163208008,-0.10008770227432251,-1.777347207069397,0.16604940593242645,0
40,0.19499778747558594,-0.4267818331718445,-33.99154281616211,-3.7752349376678467,19.388460159301758,0.10008770227432251,1.770938515663147,-0.11844198405742645,0.0,0.0,0.0,0.0,0.0,0.0,0.0,-0.37288808225207215,0.10994802062472614,-0.2364910041322577,0.3243578061972979,0.04886693230849125,-0.12180180552835314,-0.15960233070975,1.0544405264227013,0.3239301378477817,-0.3925236602331463,-2.153502829020405,0.8647989471266784,2.4658836605842653,0.5444949727281347,1.0544104758940245,0.3238615046091247,-0.39250456234122666,-2.153291787532338,0.8647539153680389,2.46587817577521,0.5445020185570556,0.0013121493226459931,0.0007090515250523661,-0.0009324566847759125,-0.0008255135039897941,9.848260202061668e-05,0.0005235651188410479,-0.0012660935516270895,0.0,0.0,0.0,0.0,0.0,0.0,0.0,-3.0050528676772714e-05,-6.863323865696769e-05,1.9097891919617194e-05,0.00021104148806694312,-4.503175863945774e-05,-5.4848090553782924e-06,7.045828920859698e-06,-0.0013121493226459931,-0.0007090515250523661,0.0009324566847759125,0.0008255135039897941,-9.848260202061668e-05,-0.0005235651188410479,0.0012660935516270895,0.4267818331718445,33.99154281616211,3.7752349376678467,-19.388460159301758,-0.10008770227432251,-1.770938515663147,0.11844198405742645,0
41,0.2007749080657959,-0.4267818331718445,-33.99154281616211,-3.7752349376678467,19.388460159301758,0.10008770227432251,1.770938515663147,-0.11844198405742645,0.0,0.0,0.0,0.0,0.0,0.0,0.0,-0.37288808225207215,0.10994802062472614,-0.2364910041322577,0.3243578061972979,0.04886693230849125,-0.12180180552835314,-0.15960233070975,1.0544405264227013,0.3239301378477817,-0.3925236602331463,-2.153502829020405,0.8647989471266784,2.4658836605842653,0.5444949727281347,1.0544104758940245,0.3238615046091247,-0.39250456234122666,-2.153291787532338,0.8647539153680389,2.46587817577521,0.5445020185570556,0.0013121493226459931,0.0007090515250523661,-0.0009324566847759125,-0.0008255135039897941,9.848260202061668e-05,0.0005235651188410479,-0.0012660935516270895,0.0,0.0,0.0,0.0,0.0,0.0,0.0,-3.0050528676772714e-05,-6.863323865696769e-05,1.9097891919617194e-05,0.00021104148806694312,-4.503175863945774e-05,-5.4848090553782924e-06,7.045828920859698e-06,-0.0013121493226459931,-0.0007090515250523661,0.0009324566847759125,0.0008255135039897941,-9.848260202061668e-05,-0.0005235651188410479,0.0012660935516270895,0.4267818331718445,33.99154281616211,3.7752349376678467,-19.388460159301758,-0.10008770227432251,-1.770938515663147,0.11844198405742645,0
42,0.20499539375305176,-0.3752071261405945,-33.96377182006836,-3.7990386486053467,19.336885452270508,0.10008770227432251,1.777347207069397,-0.14590780436992645,0.0,0.0,0.0,0.0,0.0,0.0,0.0,-0.36674967625422233,0.11149682087826583,-0.23237875677994863,0.3250809686138178,0.048159116647967876,-0.12237035285435767,-0.15813092043105692,1.0544369071450148,0.3239281890099508,-0.392521989797291,-2.153499516978983,0.864794621708493,2.4658829441468164,0.5444989663692266,1.0544104758940245,0.3238615046091247,-0.39250456234122666,-2.153291787532338,0.8647539153680389,2.46587817577521,0.5445020185570556,0.00011758845731931053,9.068801834154319e-05,-9.865828852630975e-05,0.0004499918083759159,2.1294456070739113e-05,0.00014473642698343398,-0.00032791337272583527,0.0,0.0,0.0,0.0,0.0,0.0,0.0,-2.6431250990333055e-05,-6.668440082607807e-05,1.742745606436724e-05,0.0002077294466449331,-4.07063404540553e-05,-4.7683716064561565e-06,3.0521878290334925e-06,-0.00011758845731931053,-9.068801834154319e-05,9.865828852630975e-05,-0.0004499918083759159,-2.1294456070739113e-05,-0.00014473642698343398,0.00032791337272583527,0.3752071261405945,33.96377182006836,3.7990386486053467,-19.336885452270508,-0.10008770227432251,-1.777347207069397,0.14590780436992645,0
43,0.21000337600708008,-0.3752071261405945,-33.96377182006836,-3.7990386486053467,19.336885452270508,0.10008770227432251,1.777347207069397,-0.14590780436992645,0.0,0.0,0.0,0.0,0.0,0.0,0.0,-0.36674967625422233,0.11149682087826583,-0.23237875677994863,0.3250809686138178,0.048159116647967876,-0.12237035285435767,-0.15813092043105692,1.0544369071450148,0.3239281890099508,-0.392521989797291,-2.153499516978983,0.864794621708493,2.4658829441468164,0.5444989663692266,1.0544104758940245,0.3238615046091247,-0.39250456234122666,-2.153291787532338,0.8647539153680389,2.46587817577521,0.5445020185570556,0.00011758845731931053,9.068801834154319e-05,-9.865828852630975e-05,0.0004499918083759159,2.1294456070739113e-05,0.00014473642698343398,-0.00032791337272583527,0.0,0.0,0.0,0.0,0.0,0.0,0.0,-2.6431250990333055e-05,-6.668440082607807e-05,1.742745606436724e-05,0.0002077294466449331,-4.07063404540553e-05,-4.7683716064561565e-06,3.0521878290334925e-06,-0.00011758845731931053,-9.068801834154319e-05,9.865828852630975e-05,-0.0004499918083759159,-2.1294456070739113e-05,-0.00014473642698343398,0.00032791337272583527,0.3752071261405945,33.96377182006836,3.7990386486053467,-19.336885452270508,-0.10008770227432251,-1.777347207069397,0.14590780436992645,0
44,0.21500349044799805,-0.3514034152030945,-33.93996810913086,-3.7990386486053467,19.336885452270508,0.10558086633682251,1.790164589881897,-0.15231649577617645,0.0,0.0,0.0,0.0,0.0,0.0,0.0,-0.36607803441617487,0.11302836653370261,-0.23247414109514158,0.3258458208830132,0.04778693757244464,-0.1226336384055872,-0.1575341607299338,1.0544352367091594,0.3239262823630959,-0.392521989797291,-2.1534978305340373,0.8647944386224504,2.4658815199931463,0.5444989739640139,1.0544104758940245,0.3238615046091247,-0.39250456234122666,-2.153291787532338,0.8647539153680389,2.46587817577521,0.5445020185570556,-0.0002016045441813537,-0.00015030701536726824,-5.168356426647025e-05,0.000585711049835811,-0.00016822610208205404,-0.00017393107353483504,-0.00048317748303579805,0.0,0.0,0.0,0.0,0.0,0.0,0.0,-2.476081513491657e-05,-6.477775397117913e-05,1.742745606436724e-05,0.000206043001699463,-4.052325441150639e-05,-3.3442179363518676e-06,3.0445930416789224e-06,0.0002016045441813537,0.00015030701536726824,5.168356426647025e-05,-0.000585711049835811,0.00016822610208205404,0.00017393107353483504,0.00048317748303579805,0.3514034152030945,33.93996810913086,3.7990386486053467,-19.336885452270508,-0.10558086633682251,-1.790164589881897,0.15231649577617645,0
45,0.2200028896331787,-0.3514034152030945,-33.93996810913086,-3.7990386486053467,19.336885452270508,0.10558086633682251,1.790164589881897,-0.15231649577617645,0.0,0.0,0.0,0.0,0.0,0.0,0.0,-0.36607803441617487,0.11302836653370261,-0.23247414109514158,0.3258458208830132,0.04778693757244464,-0.1226336384055872,-0.1575341607299338,1.0544352367091594,0.3239262823630959,-0.392521989797291,-2.1534978305340373,0.8647944386224504,2.4658815199931463,0.5444989739640139,1.0544104758940245,0.3238615046091247,-0.39250456234122666,-2.153291787532338,0.8647539153680389,2.46587817577521,0.5445020185570556,-0.0002016045441813537,-0.00015030701536726824,-5.168356426647025e-05,0.000585711049835811,-0.00016822610208205404,-0.00017393107353483504,-0.00048317748303579805,0.0,0.0,0.0,0.0,0.0,0.0,0.0,-2.476081513491657e-05,-6.477775397117913e-05,1.742745606436724e-05,0.000206043001699463,-4.052325441150639e-05,-3.3442179363518676e-06,3.0445930416789224e-06,0.0002016045441813537,0.00015030701536726824,5.168356426647025e-05,-0.000585711049835811,0.00016822610208205404,0.00017393107353483504,0.00048317748303579805,0.3514034152030945,33.93996810913086,3.7990386486053467,-19.336885452270508,-0.10558086633682251,-1.790164589881897,0.15231649577617645,0
46,0.22499990463256836,-0.4029781222343445,-33.99154281616211,-3.7990386486053467,19.360689163208008,0.10008770227432251,1.783755898475647,-0.15231649577617645,0.0,0.0,0.0,0.0,0.0,0.0,0.0,-0.37670382415290715,0.11031206689464254,-0.24333812018355072,0.32744736914786277,0.04835443909851494,-0.12122354179252033,-0.15826106466662054,1.0544388559868458,0.32393013785044855,-0.392521989797291,-2.153499499665636,0.864794579641201,2.465882232069969,0.5444987364929951,1.0544104758940245,0.3238615046091247,-0.39250456234122666,-2.153291787532338,0.8647539153680389,2.46587817577521,0.5445020185570556,0.00029166716336664645,0.001303379007254725,-0.0003342282902599735,-7.386159950939902e-05,2.0185275668644976e-05,3.9898514324994645e-05,-0.0002853309213452024,0.0,0.0,0.0,0.0,0.0,0.0,0.0,-2.838009282135623e-05,-6.863324132383442e-05,1.742745606436724e-05,0.00020771213329817684,-4.0664273162072107e-05,-4.056294759191559e-06,3.2820640605280005e-06,-0.00029166716336664645,-0.001303379007254725,0.0003342282902599735,7.386159950939902e-05,-2.0185275668644976e-05,-3.9898514324994645e-05,0.0002853309213452024,0.4029781222343445,33.99154281616211,3.7990386486053467,-19.360689163208008,-0.10008770227432251,-1.783755898475647,0.15231649577617645,0
47,0.23000407218933105,-0.4029781222343445,-33.99154281616211,-3.7990386486053467,19.360689163208008,0.10008770227432251,1.783755898475647,-0.15231649577617645,0.0,0.0,0.0,0.0,0.0,0.0,0.0,-0.37670382415290715,0.11031206689464254,-0.24333812018355072,0.32744736914786277,0.04835443909851494,-0.12122354179252033,-0.15826106466662054,1.0544388559868458,0.32393013785044855,-0.392521989797291,-2.153499499665636,0.864794579641201,2.465882232069969,0.5444987364929951,1.0544104758940245,0.3238615046091247,-0.39250456234122666,-2.153291787532338,0.8647539153680389,2.46587817577521,0.5445020185570556,0.00029166716336664645,0.001303379007254725,-0.0003342282902599735,-7.386159950939902e-05,2.0185275668644976e-05,3.9898514324994645e-05,-0.0002853309213452024,0.0,0.0,0.0,0.0,0.0,0.0,0.0,-2.838009282135623e-05,-6.863324132383442e-05,1.742745606436724e-05,0.00020771213329817684,-4.0664273162072107e-05,-4.056294759191559e-06,3.2820640605280005e-06,-0.00029166716336664645,-0.001303379007254725,0.0003342282902599735,7.386159950939902e-05,-2.0185275668644976e-05,-3.9898514324994645e-05,0.0002853309213452024,0.4029781222343445,33.99154281616211,3.7990386486053467,-19.360689163208008,-0.10008770227432251,-1.783755898475647,0.15231649577617645,0
48,0.2352464199066162,-0.4029781222343445,-33.93996810913086,-3.8228423595428467,19.336885452270508,0.10558086633682251,1.783755898475647,-0.12485067546367645,0.0,0.0,0.0,0.0,0.0,0.0,0.0,-0.37879633115024486,0.11653604975582547,-0.24327198075609321,0.32481480579230493,0.04812276785327626,-0.12152541005524152,-0.1594162698733607,1.0544388559868458,0.32392651857409555,-0.3925203193614357,-2.1534994404507457,0.8647944838437682,2.465882232069969,0.5444955674803458,1.0544104758940245,0.3238615046091247,-0.39250456234122666,-2.153291787532338,0.8647539153680389,2.46587817577521,0.5445020185570556,0.0002305793217254666,-2.2140110261773957e-06,4.9092233214808403e-05,0.0003068218999924169,-0.00014557557824196145,4.8779043349006435e-06,-0.0009481394967084516,0.0,0.0,0.0,0.0,0.0,0.0,0.0,-2.838009282135623e-05,-6.501396497082812e-05,1.575702020906178e-05,0.00020765291840785238,-4.0568475729307885e-05,-4.056294759191559e-06,6.451076709823589e-06,-0.0002305793217254666,2.2140110261773957e-06,-4.9092233214808403e-05,-0.0003068218999924169,0.00014557557824196145,-4.8779043349006435e-06,0.0009481394967084516,0.4029781222343445,33.93996810913086,3.8228423595428467,-19.336885452270508,-0.10558086633682251,-1.783755898475647,0.12485067546367645,0
49,0.2400212287902832,-0.4029781222343445,-33.93996810913086,-3.8228423595428467,19.336885452270508,0.10558086633682251,1.783755898475647,-0.12485067546367645,0.0,0.0,0.0,0.0,0.0,0.0,0.0,-0.37879633115024486,0.11653604975582547,-0.24327198075609321,0.32481480579230493,0.04812276785327626,-0.12152541005524152,-0.1594162698733607,1.0544388559868458,0.32392651857409555,-0.3925203193614357,-2.1534994404507457,0.8647944838437682,2.465882232069969,0.5444955674803458,1.0544104758940245,0.3238615046091247,-0.39250456234122666,-2.153291787532338,0.8647539153680389,2.46587817577521,0.5445020185570556,0.0002305793217254666,-2.2140110261773957e-06,4.9092233214808403e-05,0.0003068218999924169,-0.00014557557824196145,4.8779043349006435e-06,-0.0009481394967084516,0.0,0.0,0.0,0.0,0.0,0.0,0.0,-2.838009282135623e-05,-6.501396497082812e-05,1.575702020906178e-05,0.00020765291840785238,-4.0568475729307885e-05,-4.056294759191559e-06,6.451076709823589e-06,-0.0002305793217254666,2.2140110261773957e-06,-4.9092233214808403e-05,-0.0003068218999924169,0.00014557557824196145,-4.8779043349006435e-06,0.0009481394967084516,0.4029781222343445,33.93996810913086,3.8228423595428467,-19.336885452270508,-0.10558086633682251,-1.783755898475647,0.12485067546367645,0
50,0.24540019035339355,-0.4029781222343445,-33.96377182006836,-3.7990386486053467,19.360689163208008,0.10008770227432251,1.777347207069397,-0.15231649577617645,0.0,0.0,0.0,0.0,0.0,0.0,0.0,-0.3804341082943112,0.11289044658364569,-0.2432043943216409,0.32522961417153595,0.04797058156944765,-0.12183413640457323,-0.15779590626264176,1.0544388559868458,0.3239281890099508,-0.392521989797291,-2.1535015747872808,0.8647960040130269,2.465882944146792,0.5444986192379394,1.0544104758940245,0.3238615046091247,-0.39250456234122666,-2.153291787532338,0.8647539153680389,2.46587817577521,0.5445020185570556,0.00012716552381882403,0.00011565746401455746,-0.00037706515274913777,-0.00061167208732719,-2.9543741119072666e-06,0.00044741795740204916,-0.00020619457640693275,0.0,0.0,0.0,0.0,0.0,0.0,0.0,-2.838009282135623e-05,-6.668440082607807e-05,1.742745606436724e-05,0.00020978725494291695,-4.208864498800313e-05,-4.76837158203125e-06,3.399319116192956e-06,-0.00012716552381882403,-0.00011565746401455746,0.00037706515274913777,0.00061167208732719,2.9543741119072666e-06,-0.00044741795740204916,0.00020619457640693275,0.4029781222343445,33.96377182006836,3.7990386486053467,-19.360689163208008,-0.10008770227432251,-1.777347207069397,0.15231649577617645,0
51,0.2500028610229492,-0.4029781222343445,-33.96377182006836,-3.7990386486053467,19.360689163208008,0.10008770227432251,1.777347207069397,-0.15231649577617645,0.0,0.0,0.0,0.0,0.0,0.0,0.0,-0.3804341082943112,0.11289044658364569,-0.2432043943216409,0.32522961417153595,0.04797058156944765,-0.12183413640457323,-0.15779590626264176,1.0544388559868458,0.3239281890099508,-0.392521989797291,-2.1535015747872808,0.8647960040130269,2.465882944146792,0.5444986192379394,1.0544104758940245,0.3238615046091247,-0.39250456234122666,-2.153291787532338,0.8647539153680389,2.46587817577521,0.5445020185570556,0.00012716552381882403,0.00011565746401455746,-0.00037706515274913777,-0.00061167208732719,-2.9543741119072666e-06,0.00044741795740204916,-0.00020619457640693275,0.0,0.0,0.0,0.0,0.0,0.0,0.0,-2.838009282135623e-05,-6.668440082607807e-05,1.742745606436724e-05,0.00020978725494291695,-4.208864498800313e-05,-4.76837158203125e-06,3.399319116192956e-06,-0.00012716552381882403,-0.00011565746401455746,0.00037706515274913777,0.00061167208732719,2.9543741119072666e-06,-0.00044741795740204916,0.00020619457640693275,0.4029781222343445,33.96377182006836,3.7990386486053467,-19.360689163208008,-0.10008770227432251,-1.777347207069397,0.15231649577617645,0
52,0.2550032138824463,-0.3752071261405945,-33.96377182006836,-3.7990386486053467,19.336885452270508,0.09367901086807251,1.790164589881897,-0.17978231608867645,0.0,0.0,0.0,0.0,0.0,0.0,0.0,-0.3782381341763058,0.1239101528444065,-0.2375380623007884,0.3200385771090543,0.04751624265189833,-0.1227669117515829,-0.15838771848667776,1.0544369071450148,0.32392606311095384,-0.392521989797291,-2.1534992833319686,0.8647984816362876,2.4658815199931463,0.5445016724493076,1.0544104758940245,0.3238615046091247,-0.39250456234122666,-2.153291787532338,0.8647539153680389,2.46587817577521,0.5445020185570556,-0.0002855502383333563,0.0007698816931432211,-4.46347101814228e-05,0.00043423684747565775,0.00025060026309934387,-0.0005069107137611258,0.0007249427925211642,0.0,0.0,0.0,0.0,0.0,0.0,0.0,-2.6431250990333055e-05,-6.455850182912615e-05,1.742745606436724e-05,0.0002074957996307525,-4.456626824866916e-05,-3.3442179363518676e-06,3.461077480171326e-07,0.0002855502383333563,-0.0007698816931432211,4.46347101814228e-05,-0.00043423684747565775,-0.00025060026309934387,0.0005069107137611258,-0.0007249427925211642,0.3752071261405945,33.96377182006836,3.7990386486053467,-19.336885452270508,-0.09367901086807251,-1.790164589881897,0.17978231608867645,0
53,0.25999999046325684,-0.3752071261405945,-33.96377182006836,-3.7990386486053467,19.336885452270508,0.09367901086807251,1.790164589881897,-0.17978231608867645,0.0,0.0,0.0,0.0,0.0,0.0,0.0,-0.3782381341763058,0.1239101528444065,-0.2375380623007884,0.3200385771090543,0.04751624265189833,-0.1227669117515829,-0.15838771848667776,1.0544369071450148,0.32392606311095384,-0.392521989797291,-2.1534992833319686,0.8647984816362876,2.4658815199931463,0.5445016724493076,1.0544104758940245,0.3238615046091247,-0.39250456234122666,-2.153291787532338,0.8647539153680389,2.46587817577521,0.5445020185570556,-0.0002855502383333563,0.0007698816931432211,-4.46347101814228e-05,0.00043423684747565775,0.00025060026309934387,-0.0005069107137611258,0.0007249427925211642,0.0,0.0,0.0,0.0,0.0,0.0,0.0,-2.6431250990333055e-05,-6.455850182912615e-05,1.742745606436724e-05,0.0002074957996307525,-4.456626824866916e-05,-3.3442179363518676e-06,3.461077480171326e-07,0.0002855502383333563,-0.0007698816931432211,4.46347101814228e-05,-0.00043423684747565775,-0.00025060026309934387,0.0005069107137611258,-0.0007249427925211642,0.3752071261405945,33.96377182006836,3.7990386486053467,-19.336885452270508,-0.09367901086807251,-1.790164589881897,0.17978231608867645,0
54,0.2649998664855957,-0.3752071261405945,-33.96377182006836,-3.7990386486053467,19.360689163208008,0.09367901086807251,1.783755898475647,-0.17978231608867645,0.0,0.0,0.0,0.0,0.0,0.0,0.0,-0.3778774106141222,0.10942962025720852,-0.23696801213129134,0.32730097679734477,0.0471258855549519,-0.12292507967650806,-0.15867757483839812,1.0544369071450148,0.32392818900595055,-0.392521989797291,-2.1535016463153367,0.8647964684510459,2.465882232069969,0.5445020280845966,1.0544104758940245,0.3238615046091247,-0.39250456234122666,-2.153291787532338,0.8647539153680389,2.46587817577521,0.5445020185570556,-0.00018465374077037016,-0.00027331304209182126,0.0005150371568455875,-3.525506803431901e-05,0.00019828282059816438,-0.0001985727021893128,0.001420020452832468,0.0,0.0,0.0,0.0,0.0,0.0,0.0,-2.6431250990333055e-05,-6.668439682583349e-05,1.742745606436724e-05,0.00020985878299883964,-4.255308300693539e-05,-4.056294759191559e-06,-9.527540978382376e-09,0.00018465374077037016,0.00027331304209182126,-0.0005150371568455875,3.525506803431901e-05,-0.00019828282059816438,0.0001985727021893128,-0.001420020452832468,0.3752071261405945,33.96377182006836,3.7990386486053467,-19.360689163208008,-0.09367901086807251,-1.783755898475647,0.17978231608867645,0
55,0.2700049877166748,-0.3752071261405945,-33.96377182006836,-3.7990386486053467,19.360689163208008,0.09367901086807251,1.783755898475647,-0.17978231608867645,0.0,0.0,0.0,0.0,0.0,0.0,0.0,-0.3778774106141222,0.10942962025720852,-0.23696801213129134,0.32730097679734477,0.0471258855549519,-0.12292507967650806,-0.15867757483839812,1.0544369071450148,0.32392818900595055,-0.392521989797291,-2.1535016463153367,0.8647964684510459,2.465882232069969,0.5445020280845966,1.0544104758940245,0.3238615046091247,-0.39250456234122666,-2.153291787532338,0.8647539153680389,2.46587817577521,0.5445020185570556,-0.00018465374077037016,-0.00027331304209182126,0.0005150371568455875,-3.525506803431901e-05,0.00019828282059816438,-0.0001985727021893128,0.001420020452832468,0.0,0.0,0.0,0.0,0.0,0.0,0.0,-2.6431250990333055e-05,-6.668439682583349e-05,1.742745606436724e-05,0.00020985878299883964,-4.255308300693539e-05,-4.056294759191559e-06,-9.527540978382376e-09,0.00018465374077037016,0.00027331304209182126,-0.0005150371568455875,3.525506803431901e-05,-0.00019828282059816438,0.0001985727021893128,-0.001420020452832468,0.3752071261405945,33.96377182006836,3.7990386486053467,-19.360689163208008,-0.09367901086807251,-1.783755898475647,0.17978231608867645,0
56,0.27504491806030273,-0.3236324191093445,-33.99154281616211,-3.7990386486053467,19.336885452270508,0.09367901086807251,1.783755898475647,-0.17337362468242645,0.0,0.0,0.0,0.0,0.0,0.0,0.0,-0.37950986004467296,0.1084376319515165,-0.23581913155388784,0.3252026243834952,0.04681669247976144,-0.12342300997575494,-0.15874912484155818,1.0544332878673284,0.3239301378517819,-0.392521989797291,-2.1534991816088884,0.8647952917353262,2.465882232069969,0.5445009584404651,1.0544104758940245,0.3238615046091247,-0.39250456234122666,-2.153291787532338,0.8647539153680389,2.46587817577521,0.5445020185570556,-0.0007065840393874222,-0.00010151625964804298,0.0002197127065009682,0.00017714713056706769,0.0001632765113765125,-0.00010996143920921224,0.0008566469629734139,0.0,0.0,0.0,0.0,0.0,0.0,0.0,-2.2811973303893396e-05,-6.863324265715676e-05,1.742745606436724e-05,0.00020739407655057107,-4.137636728729355e-05,-4.056294759191559e-06,1.0601165905121945e-06,0.0007065840393874222,0.00010151625964804298,-0.0002197127065009682,-0.00017714713056706769,-0.0001632765113765125,0.00010996143920921224,-0.0008566469629734139,0.3236324191093445,33.99154281616211,3.7990386486053467,-19.336885452270508,-0.09367901086807251,-1.783755898475647,0.17337362468242645,0
57,0.280012845993042,-0.3236324191093445,-33.99154281616211,-3.7990386486053467,19.336885452270508,0.09367901086807251,1.783755898475647,-0.17337362468242645,0.0,0.0,0.0,0.0,0.0,0.0,0.0,-0.37950986004467296,0.1084376319515165,-0.23581913155388784,0.3252026243834952,0.04681669247976144,-0.12342300997575494,-0.15874912484155818,1.0544332878673284,0.3239301378517819,-0.392521989797291,-2.1534991816088884,0.8647952917353262,2.465882232069969,0.5445009584404651,1.0544104758940245,0.3238615046091247,-0.39250456234122666,-2.153291787532338,0.8647539153680389,2.46587817577521,0.5445020185570556,-0.0007065840393874222,-0.00010151625964804298,0.0002197127065009682,0.00017714713056706769,0.0001632765113765125,-0.00010996143920921224,0.0008566469629734139,0.0,0.0,0.0,0.0,0.0,0.0,0.0,-2.2811973303893396e-05,-6.863324265715676e-05,1.742745606436724e-05,0.00020739407655057107,-4.137636728729355e-05,-4.056294759191559e-06,1.0601165905121945e-06,0.0007065840393874222,0.00010151625964804298,-0.0002197127065009682,-0.00017714713056706769,-0.0001632765113765125,0.00010996143920921224,-0.0008566469629734139,0.3236324191093445,33.99154281616211,3.7990386486053467,-19.336885452270508,-0.09367901086807251,-1.783755898475647,0.17337362468242645,0
58,0.2850062847137451,-0.3236324191093445,-33.99154281616211,-3.7990386486053467,19.336885452270508,0.09367901086807251,1.783755898475647,-0.17337362468242645,0.0,0.0,0.0,0.0,0.0,0.0,0.0,-0.37950986004467296,0.1084376319515165,-0.23581913155388784,0.3252026243834952,0.04681669247976144,-0.12342300997575494,-0.15874912484155818,1.0544332878673284,0.3239301378517819,-0.392521989797291,-2.1534991816088884,0.8647952917353262,2.465882232069969,0.5445009584404651,1.0544104758940245,0.3238615046091247,-0.39250456234122666,-2.153291787532338,0.8647539153680389,2.46587817577521,0.5445020185570556,-0.0007065840393874222,-0.00010151625964804298,0.0002197127065009682,0.00017714713056706769,0.0001632765113765125,-0.00010996143920921224,0.0008566469629734139,0.0,0.0,0.0,0.0,0.0,0.0,0.0,-2.2811973303893396e-05,-6.863324265715676e-05,1.742745606436724e-05,0.00020739407655057107,-4.137636728729355e-05,-4.056294759191559e-06,1.0601165905121945e-06,0.0007065840393874222,0.00010151625964804298,-0.0002197127065009682,-0.00017714713056706769,-0.0001632765113765125,0.00010996143920921224,-0.0008566469629734139,0.3236324191093445,33.99154281616211,3.7990386486053467,-19.336885452270508,-0.09367901086807251,-1.783755898475647,0.17337362468242645,0
59,0.29001355171203613,-0.3236324191093445,-33.99154281616211,-3.7990386486053467,19.336885452270508,0.09367901086807251,1.783755898475647,-0.17337362468242645,0.0,0.0,0.0,0.0,0.0,0.0,0.0,-0.37950986004467296,0.1084376319515165,-0.23581913155388784,0.3252026243834952,0.04681669247976144,-0.12342300997575494,-0.15874912484155818,1.0544332878673284,0.3239301378517819,-0.392521989797291,-2.1534991816088884,0.8647952917353262,2.465882232069969,0.5445009584404651,1.0544104758940245,0.3238615046091247,-0.39250456234122666,-2.153291787532338,0.8647539153680389,2.46587817577521,0.5445020185570556,-0.0007065840393874222,-0.00010151625964804298,0.0002197127065009682,0.00017714713056706769,0.0001632765113765125,-0.00010996143920921224,0.0008566469629734139,0.0,0.0,0.0,0.0,0.0,0.0,0.0,-2.2811973303893396e-05,-6.863324265715676e-05,1.742745606436724e-05,0.00020739407655057107,-4.137636728729355e-05,-4.056294759191559e-06,1.0601165905121945e-06,0.0007065840393874222,0.00010151625964804298,-0.0002197127065009682,-0.00017714713056706769,-0.0001632765113765125,0.00010996143920921224,-0.0008566469629734139,0.3236324191093445,33.99154281616211,3.7990386486053467,-19.336885452270508,-0.09367901086807251,-1.783755898475647,0.17337362468242645,0
60,0.2950284481048584,-0.3752071261405945,-33.93996810913086,-3.7990386486053467,19.388460159301758,0.10558086633682251,1.777347207069397,-0.13858358561992645,0.0,0.0,0.0,0.0,0.0,0.0,0.0,-0.3774875195152987,0.10391537973379274,-0.23688419059264587,0.3265946438677832,0.04698774867236235,-0.12313542412034212,-0.15895576899505393,1.0544361918892775,0.32392651857409555,-0.392521989797291,-2.1535008121735255,0.8647972653108618,2.465882944146792,0.5444970928745138,1.0544104758940245,0.3238615046091247,-0.39250456234122666,-2.153291787532338,0.8647539153680389,2.46587817577521,0.5445020185570556,0.0008426288560971039,-0.0010367934181969207,0.00017343892996100581,-0.00016442064895858097,-8.101361588513145e-05,0.00013263448458207089,0.0002540278795856368,0.0,0.0,0.0,0.0,0.0,0.0,0.0,-2.5715995253028368e-05,-6.501396497082812e-05,1.742745606436724e-05,0.00020902464118766062,-4.3349942822845655e-05,-4.76837158203125e-06,4.925682541845333e-06,-0.0008426288560971039,0.0010367934181969207,-0.00017343892996100581,0.00016442064895858097,8.101361588513145e-05,-0.00013263448458207089,-0.0002540278795856368,0.3752071261405945,33.93996810913086,3.7990386486053467,-19.388460159301758,-0.10558086633682251,-1.777347207069397,0.13858358561992645,0
61,0.30003952980041504,-0.3752071261405945,-33.93996810913086,-3.7990386486053467,19.388460159301758,0.10558086633682251,1.777347207069397,-0.13858358561992645,0.0,0.0,0.0,0.0,0.0,0.0,0.0,-0.3774875195152987,0.10391537973379274,-0.23688419059264587,0.3265946438677832,0.04698774867236235,-0.12313542412034212,-0.15895576899505393,1.0544361918892775,0.32392651857409555,-0.392521989797291,-2.1535008121735255,0.8647972653108618,2.465882944146792,0.5444970928745138,1.0544104758940245,0.3238615046091247,-0.39250456234122666,-2.153291787532338,0.8647539153680389,2.46587817577521,0.5445020185570556,0.0008426288560971039,-0.0010367934181969207,0.00017343892996100581,-0.00016442064895858097,-8.101361588513145e-05,0.00013263448458207089,0.0002540278795856368,0.0,0.0,0.0,0.0,0.0,0.0,0.0,-2.5715995253028368e-05,-6.501396497082812e-05,1.742745606436724e-05,0.00020902464118766062,-4.3349942822845655e-05,-4.76837158203125e-06,4.925682541845333e-06,-0.0008426288560971039,0.0010367934181969207,-0.00017343892996100581,0.00016442064895858097,8.101361588513145e-05,-0.00013263448458207089,-0.0002540278795856368,0.3752071261405945,33.93996810913086,3.7990386486053467,-19.388460159301758,-0.10558086633682251,-1.777347207069397,0.13858358561992645,0
62,0.3050107955932617,-0.3514034152030945,-33.93996810913086,-3.7990386486053467,19.289278030395508,0.09367901086807251,1.777347207069397,-0.13858358561992645,0.0,0.0,0.0,0.0,0.0,0.0,0.0,-0.37682833752619777,0.10942461287328628,-0.23897792717966865,0.32327825125689597,0.04767343976740198,-0.12347841116045703,-0.1569838517258221,1.054435236705122,0.323926518250075,-0.39252198688110584,-2.153496557623217,0.8647967087839649,2.465882944146792,0.5444970972351645,1.0544104758940245,0.3238615046091247,-0.39250456234122666,-2.153291787532338,0.8647539153680389,2.46587817577521,0.5445020185570556,-0.0004933165299283628,-8.444389141396352e-05,4.909465991414997e-06,0.0018006225090563767,0.00019382448976333071,0.00015192624022438003,-0.00015121788873761547,0.0,0.0,0.0,0.0,0.0,0.0,0.0,-2.4760811097479518e-05,-6.501364095029549e-05,1.742453987918502e-05,0.00020477009087915832,-4.2793415925945766e-05,-4.76837158203125e-06,4.921321891115937e-06,0.0004933165299283628,8.444389141396352e-05,-4.909465991414997e-06,-0.0018006225090563767,-0.00019382448976333071,-0.00015192624022438003,0.00015121788873761547,0.3514034152030945,33.93996810913086,3.7990386486053467,-19.289278030395508,-0.09367901086807251,-1.777347207069397,0.13858358561992645,0
63,0.31000423431396484,-0.3514034152030945,-33.93996810913086,-3.7990386486053467,19.289278030395508,0.09367901086807251,1.777347207069397,-0.13858358561992645,0.0,0.0,0.0,0.0,0.0,0.0,0.0,-0.37682833752619777,0.10942461287328628,-0.23897792717966865,0.32327825125689597,0.04767343976740198,-0.12347841116045703,-0.1569838517258221,1.054435236705122,0.323926518250075,-0.39252198688110584,-2.153496557623217,0.8647967087839649,2.465882944146792,0.5444970972351645,1.0544104758940245,0.3238615046091247,-0.39250456234122666,-2.153291787532338,0.8647539153680389,2.46587817577521,0.5445020185570556,-0.0004933165299283628,-8.444389141396352e-05,4.909465991414997e-06,0.0018006225090563767,0.00019382448976333071,0.00015192624022438003,-0.00015121788873761547,0.0,0.0,0.0,0.0,0.0,0.0,0.0,-2.4760811097479518e-05,-6.501364095029549e-05,1.742453987918502e-05,0.00020477009087915832,-4.2793415925945766e-05,-4.76837158203125e-06,4.921321891115937e-06,0.0004933165299283628,8.444389141396352e-05,-4.909465991414997e-06,-0.0018006225090563767,-0.00019382448976333071,-0.00015192624022438003,0.00015121788873761547,0.3514034152030945,33.93996810913086,3.7990386486053467,-19.289278030395508,-0.09367901086807251,-1.777347207069397,0.13858358561992645,0
64,0.31501150131225586,-0.3752071261405945,-33.93996810913086,-3.7752349376678467,19.360689163208008,0.11198955774307251,1.783755898475647,-0.17978231608867645,0.0,0.0,0.0,0.0,0.0,0.0,0.0,-0.37082857705227706,0.10101222661062842,-0.23540200630783362,0.3326376501084366,0.04731902407444064,-0.12253419784509234,-0.15645548236297885,1.0544368806540616,0.32392643983709385,-0.3925236602331298,-2.1535009324606293,0.8647932744992629,2.465882232069969,0.5445016709957737,1.0544104758940245,0.3238615046091247,-0.39250456234122666,-2.153291787532338,0.8647539153680389,2.46587817577521,0.5445020185570556,-0.00012459867308142213,0.0001438067313140766,-0.00042348581849339586,0.00024804824761780555,-0.0003070545850863273,0.00011593584477822064,0.0007268145055484213,0.0,0.0,0.0,0.0,0.0,0.0,0.0,-2.640476003712422e-05,-6.493522796913176e-05,1.9097891903130382e-05,0.00020914492829149367,-3.9359131223992705e-05,-4.056294759191559e-06,3.4756128186597124e-07,0.00012459867308142213,-0.0001438067313140766,0.00042348581849339586,-0.00024804824761780555,0.0003070545850863273,-0.00011593584477822064,-0.0007268145055484213,0.3752071261405945,33.93996810913086,3.7752349376678467,-19.360689163208008,-0.11198955774307251,-1.783755898475647,0.17978231608867645,0
65,0.32000017166137695,-0.3752071261405945,-33.93996810913086,-3.7752349376678467,19.360689163208008,0.11198955774307251,1.783755898475647,-0.17978231608867645,0.0,0.0,0.0,0.0,0.0,0.0,0.0,-0.37082857705227706,0.10101222661062842,-0.23540200630783362,0.3326376501084366,0.04731902407444064,-0.12253419784509234,-0.15645548236297885,1.0544368806540616,0.32392643983709385,-0.3925236602331298,-2.1535009324606293,0.8647932744992629,2.465882232069969,0.5445016709957737,1.0544104758940245,0.3238615046091247,-0.39250456234122666,-2.153291787532338,0.8647539153680389,2.46587817577521,0.5445020185570556,-0.00012459867308142213,0.0001438067313140766,-0.00042348581849339586,0.00024804824761780555,-0.0003070545850863273,0.00011593584477822064,0.0007268145055484213,0.0,0.0,0.0,0.0,0.0,0.0,0.0,-2.640476003712422e-05,-6.493522796913176e-05,1.9097891903130382e-05,0.00020914492829149367,-3.9359131223992705e-05,-4.056294759191559e-06,3.4756128186597124e-07,0.00012459867308142213,-0.0001438067313140766,0.00042348581849339586,-0.00024804824761780555,0.0003070545850863273,-0.00011593584477822064,-0.0007268145055484213,0.3752071261405945,33.93996810913086,3.7752349376678467,-19.360689163208008,-0.11198955774307251,-1.783755898475647,0.17978231608867645,0
66,0.32500529289245605,-0.4267818331718445,-33.91616439819336,-3.8228423595428467,19.360689163208008,0.10558086633682251,1.770938515663147,-0.17337362468242645,0.0,0.0,0.0,0.0,0.0,0.0,0.0,-0.3761959883145044,0.11573691181969346,-0.23838164388189836,0.32539630677083925,0.047855826447497335,-0.12274575768437711,-0.15736257560796713,1.0544405264225518,0.3239248393892403,-0.3925203193614357,-2.153499053234601,0.8647971519699382,2.465883656223615,0.5445042551402055,1.0544104758940245,0.3238615046091247,-0.39250456234122666,-2.153291787532338,0.8647539153680389,2.46587817577521,0.5445020185570556,0.0010014179228468388,-0.00034371757853642716,0.000302124349016572,-0.0005141699581071819,-0.000319800478042227,0.00041462120770580346,0.0005427039563809095,0.0,0.0,0.0,0.0,0.0,0.0,0.0,-3.0050528527336695e-05,-6.333478011560922e-05,1.575702020906178e-05,0.0002072657022629265,-4.323660189931022e-05,-5.480448404870941e-06,-2.2365831499060462e-06,-0.0010014179228468388,0.00034371757853642716,-0.000302124349016572,0.0005141699581071819,0.000319800478042227,-0.00041462120770580346,-0.0005427039563809095,0.4267818331718445,33.91616439819336,3.8228423595428467,-19.360689163208008,-0.10558086633682251,-1.770938515663147,0.17337362468242645,0
67,0.3300151824951172,-0.4267818331718445,-33.91616439819336,-3.8228423595428467,19.360689163208008,0.10558086633682251,1.770938515663147,-0.17337362468242645,0.0,0.0,0.0,0.0,0.0,0.0,0.0,-0.3761959883145044,0.11573691181969346,-0.23838164388189836,0.32539630677083925,0.047855826447497335,-0.12274575768437711,-0.15736257560796713,1.0544405264225518,0.3239248393892403,-0.3925203193614357,-2.153499053234601,0.8647971519699382,2.465883656223615,0.5445042551402055,1.0544104758940245,0.3238615046091247,-0.39250456234122666,-2.153291787532338,0.8647539153680389,2.46587817577521,0.5445020185570556,0.0010014179228468388,-0.00034371757853642716,0.000302124349016572,-0.0005141699581071819,-0.000319800478042227,0.00041462120770580346,0.0005427039563809095,0.0,0.0,0.0,0.0,0.0,0.0,0.0,-3.0050528527336695e-05,-6.333478011560922e-05,1.575702020906178e-05,0.0002072657022629265,-4.323660189931022e-05,-5.480448404870941e-06,-2.2365831499060462e-06,-0.0010014179228468388,0.00034371757853642716,-0.000302124349016572,0.0005141699581071819,0.000319800478042227,-0.00041462120770580346,-0.0005427039563809095,0.4267818331718445,33.91616439819336,3.8228423595428467,-19.360689163208008,-0.10558086633682251,-1.770938515663147,0.17337362468242645,0
68,0.33499884605407715,-0.4029781222343445,-33.96377182006836,-3.8228423595428467,19.360689163208008,0.11198955774307251,1.777347207069397,-0.17337362468242645,0.0,0.0,0.0,0.0,0.0,0.0,0.0,-0.4270753799919447,0.09785886443658805,-0.2873296161371534,0.33443809375727984,0.049542615003333346,-0.11754042645528368,-0.15816043693040255,1.0544388550056996,0.32392818897389913,-0.3925203193614357,-2.1535017818285143,0.8647964398571488,2.465882944146792,0.5445009635135278,1.0544104758940245,0.3238615046091247,-0.39250456234122666,-2.153291787532338,0.8647539153680389,2.46587817577521,0.5445020185570556,0.0001389281045869872,0.0002821315669116432,0.002737641594871034,-0.0001475966710808915,-0.00041805249771446445,0.0002143843353659921,0.000797111205633371,0.0,0.0,0.0,0.0,0.0,0.0,0.0,-2.8379111675080892e-05,-6.668436477441642e-05,1.575702020906178e-05,0.00020999429617640786,-4.252448910990747e-05,-4.76837158203125e-06,1.055043527764532e-06,-0.0001389281045869872,-0.0002821315669116432,-0.002737641594871034,0.0001475966710808915,0.00041805249771446445,-0.0002143843353659921,-0.000797111205633371,0.4029781222343445,33.96377182006836,3.8228423595428467,-19.360689163208008,-0.11198955774307251,-1.777347207069397,0.17337362468242645,0
69,0.34006786346435547,-0.4029781222343445,-33.96377182006836,-3.8228423595428467,19.360689163208008,0.11198955774307251,1.777347207069397,-0.17337362468242645,0.0,0.0,0.0,0.0,0.0,0.0,0.0,-0.4270753799919447,0.09785886443658805,-0.2873296161371534,0.33443809375727984,0.049542615003333346,-0.11754042645528368,-0.15816043693040255,1.0544388550056996,0.32392818897389913,-0.3925203193614357,-2.1535017818285143,0.8647964398571488,2.465882944146792,0.5445009635135278,1.0544104758940245,0.3238615046091247,-0.39250456234122666,-2.153291787532338,0.8647539153680389,2.46587817577521,0.5445020185570556,0.0001389281045869872,0.0002821315669116432,0.002737641594871034,-0.0001475966710808915,-0.00041805249771446445,0.0002143843353659921,0.000797111205633371,0.0,0.0,0.0,0.0,0.0,0.0,0.0,-2.8379111675080892e-05,-6.668436477441642e-05,1.575702020906178e-05,0.00020999429617640786,-4.252448910990747e-05,-4.76837158203125e-06,1.055043527764532e-06,-0.0001389281045869872,-0.0002821315669116432,-0.002737641594871034,0.0001475966710808915,0.00041805249771446445,-0.0002143843353659921,-0.000797111205633371,0.4029781222343445,33.96377182006836,3.8228423595428467,-19.360689163208008,-0.11198955774307251,-1.777347207069397,0.17337362468242645,0
70,0.34499692916870117,-0.3752071261405945,-33.96377182006836,-3.8228423595428467,19.336885452270508,0.10558086633682251,1.770938515663147,-0.17978231608867645,0.0,0.0,0.0,0.0,0.0,0.0,0.0,-0.39645508193310564,0.10133487004630314,-0.2597837050276432,0.3338581263085877,0.04865463999945823,-0.12035405247967308,-0.1593036444529781,1.0544369071450095,0.32392818900995063,-0.3925203193614357,-2.1534992862410465,0.8647939804488405,2.465883656223615,0.5445016748719118,1.0544104758940245,0.3238615046091247,-0.39250456234122666,-2.153291787532338,0.8647539153680389,2.46587817577521,0.5445020185570556,-6.533185753282439e-05,-0.0007112659896334858,0.0002392681444513254,0.0003770170382369474,-0.00013585448149292708,0.000477923948227122,0.0012835544758432833,0.0,0.0,0.0,0.0,0.0,0.0,0.0,-2.6431250985003985e-05,-6.668440082591154e-05,1.575702020906178e-05,0.00020749870870861997,-4.006508080156568e-05,-5.480448404870941e-06,3.4368514378879667e-07,6.533185753282439e-05,0.0007112659896334858,-0.0002392681444513254,-0.0003770170382369474,0.00013585448149292708,-0.000477923948227122,-0.0012835544758432833,0.3752071261405945,33.96377182006836,3.8228423595428467,-19.336885452270508,-0.10558086633682251,-1.770938515663147,0.17978231608867645,0
71,0.34999966621398926,-0.3752071261405945,-33.96377182006836,-3.8228423595428467,19.336885452270508,0.10558086633682251,1.770938515663147,-0.17978231608867645,0.0,0.0,0.0,0.0,0.0,0.0,0.0,-0.39645508193310564,0.10133487004630314,-0.2597837050276432,0.3338581263085877,0.04865463999945823,-0.12035405247967308,-0.1593036444529781,1.0544369071450095,0.32392818900995063,-0.3925203193614357,-2.1534992862410465,0.8647939804488405,2.465883656223615,0.5445016748719118,1.0544104758940245,0.3238615046091247,-0.39250456234122666,-2.153291787532338,0.8647539153680389,2.46587817577521,0.5445020185570556,-6.533185753282439e-05,-0.0007112659896334858,0.0002392681444513254,0.0003770170382369474,-0.00013585448149292708,0.000477923948227122,0.0012835544758432833,0.0,0.0,0.0,0.0,0.0,0.0,0.0,-2.6431250985003985e-05,-6.668440082591154e-05,1.575702020906178e-05,0.00020749870870861997,-4.006508080156568e-05,-5.480448404870941e-06,3.4368514378879667e-07,6.533185753282439e-05,0.0007112659896334858,-0.0002392681444513254,-0.0003770170382369474,0.00013585448149292708,-0.000477923948227122,-0.0012835544758432833,0.3752071261405945,33.96377182006836,3.8228423595428467,-19.336885452270508,-0.10558086633682251,-1.770938515663147,0.17978231608867645,0
72,0.3550095558166504,-0.3752071261405945,-33.99154281616211,-3.7990386486053467,19.360689163208008,0.10558086633682251,1.783755898475647,-0.11111776530742645,0.0,0.0,0.0,0.0,0.0,0.0,0.0,-0.35979366746751096,0.10842560472871546,-0.22910085925275164,0.3311332489965495,0.047293625212982714,-0.12343103892077696,-0.15941596208098827,1.0544369071450148,0.32393013785178193,-0.392521989797291,-2.153499049455507,0.8647950660714655,2.465882232069969,0.5444945120670055,1.0544104758940245,0.3238615046091247,-0.39250456234122666,-2.153291787532338,0.8647539153680389,2.46587817577521,0.5445020185570556,0.0003399665764252088,-0.00035172030267739327,-0.00022128419267806353,0.0003822412965060045,-0.0002528491851795614,2.952683812328061e-06,-0.0013001958198389735,0.0,0.0,0.0,0.0,0.0,0.0,0.0,-2.6431250990333055e-05,-6.863324265721227e-05,1.742745606436724e-05,0.00020726192316899983,-4.1150703426584556e-05,-4.056294759191559e-06,7.506490050102066e-06,-0.0003399665764252088,0.00035172030267739327,0.00022128419267806353,-0.0003822412965060045,0.0002528491851795614,-2.952683812328061e-06,0.0013001958198389735,0.3752071261405945,33.99154281616211,3.7990386486053467,-19.360689163208008,-0.10558086633682251,-1.783755898475647,0.11111776530742645,0
73,0.3599998950958252,-0.3752071261405945,-33.99154281616211,-3.7990386486053467,19.360689163208008,0.10558086633682251,1.783755898475647,-0.11111776530742645,0.0,0.0,0.0,0.0,0.0,0.0,0.0,-0.35979366746751096,0.10842560472871546,-0.22910085925275164,0.3311332489965495,0.047293625212982714,-0.12343103892077696,-0.15941596208098827,1.0544369071450148,0.32393013785178193,-0.392521989797291,-2.153499049455507,0.8647950660714655,2.465882232069969,0.5444945120670055,1.0544104758940245,0.3238615046091247,-0.39250456234122666,-2.153291787532338,0.8647539153680389,2.46587817577521,0.5445020185570556,0.0003399665764252088,-0.00035172030267739327,-0.00022128419267806353,0.0003822412965060045,-0.0002528491851795614,2.952683812328061e-06,-0.0013001958198389735,0.0,0.0,0.0,0.0,0.0,0.0,0.0,-2.6431250990333055e-05,-6.863324265721227e-05,1.742745606436724e-05,0.00020726192316899983,-4.1150703426584556e-05,-4.056294759191559e-06,7.506490050102066e-06,-0.0003399665764252088,0.00035172030267739327,0.00022128419267806353,-0.0003822412965060045,0.0002528491851795614,-2.952683812328061e-06,0.0013001958198389735,0.3752071261405945,33.99154281616211,3.7990386486053467,-19.360689163208008,-0.10558086633682251,-1.783755898475647,0.11111776530742645,0
74,0.3650217056274414,-0.3236324191093445,-33.99154281616211,-3.8228423595428467,19.336885452270508,0.10008770227432251,1.783755898475647,-0.18710653483867645,0.0,0.0,0.0,0.0,0.0,0.0,0.0,-0.36305889276369857,0.10954253603701636,-0.2318878606272595,0.3249186630169511,0.04729873809989097,-0.12369302899774688,-0.15668139576740436,1.0544332878673284,0.32393013785178193,-0.3925203193614357,-2.1534994873636815,0.8647945951630885,2.465882232069969,0.5445024843142019,1.0544104758940245,0.3238615046091247,-0.39250456234122666,-2.153291787532338,0.8647539153680389,2.46587817577521,0.5445020185570556,-0.000997934190256517,0.00014705782895521464,0.0004844412613044146,0.00040254883362377496,5.956860842737862e-05,6.123466531754286e-05,0.0012272564140690752,0.0,0.0,0.0,0.0,0.0,0.0,0.0,-2.2811973303893396e-05,-6.863324265721227e-05,1.575702020906178e-05,0.0002076998313436107,-4.0679795049625156e-05,-4.056294759191559e-06,-4.6575714629515375e-07,0.000997934190256517,-0.00014705782895521464,-0.0004844412613044146,-0.00040254883362377496,-5.956860842737862e-05,-6.123466531754286e-05,-0.0012272564140690752,0.3236324191093445,33.99154281616211,3.8228423595428467,-19.336885452270508,-0.10008770227432251,-1.783755898475647,0.18710653483867645,0
75,0.3700239658355713,-0.3236324191093445,-33.99154281616211,-3.8228423595428467,19.336885452270508,0.10008770227432251,1.783755898475647,-0.18710653483867645,0.0,0.0,0.0,0.0,0.0,0.0,0.0,-0.36305889276369857,0.10954253603701636,-0.2318878606272595,0.3249186630169511,0.04729873809989097,-0.12369302899774688,-0.15668139576740436,1.0544332878673284,0.32393013785178193,-0.3925203193614357,-2.1534994873636815,0.8647945951630885,2.465882232069969,0.5445024843142019,1.0544104758940245,0.3238615046091247,-0.39250456234122666,-2.153291787532338,0.8647539153680389,2.46587817577521,0.5445020185570556,-0.000997934190256517,0.00014705782895521464,0.0004844412613044146,0.00040254883362377496,5.956860842737862e-05,6.123466531754286e-05,0.0012272564140690752,0.0,0.0,0.0,0.0,0.0,0.0,0.0,-2.2811973303893396e-05,-6.863324265721227e-05,1.575702020906178e-05,0.0002076998313436107,-4.0679795049625156e-05,-4.056294759191559e-06,-4.6575714629515375e-07,0.000997934190256517,-0.00014705782895521464,-0.0004844412613044146,-0.00040254883362377496,-5.956860842737862e-05,-6.123466531754286e-05,-0.0012272564140690752,0.3236324191093445,33.99154281616211,3.8228423595428467,-19.336885452270508,-0.10008770227432251,-1.783755898475647,0.18710653483867645,0
76,0.37500929832458496,-0.3752071261405945,-33.93996810913086,-3.7990386486053467,19.360689163208008,0.10008770227432251,1.777347207069397,-0.15964071452617645,0.0,0.0,0.0,0.0,0.0,0.0,0.0,-0.30198510013539764,0.11649436403498702,-0.17551414153391162,0.3247181593805799,0.044857640276190276,-0.1286134737346326,-0.15702577473058812,1.0544369071450148,0.32392651857409555,-0.392521989797291,-2.15349979204047,0.8647949312362931,2.465882944146792,0.5444994456374554,1.0544104758940245,0.3238615046091247,-0.39250456234122666,-2.153291787532338,0.8647539153680389,2.46587817577521,0.5445020185570556,0.00023673321930163413,-0.0004833426763610222,-5.3459093911929615e-05,-0.0002428369627821829,7.644738236282315e-07,-7.446437179740136e-05,-0.00021087493383659396,0.0,0.0,0.0,0.0,0.0,0.0,0.0,-2.6431250990333055e-05,-6.501396497082812e-05,1.742745606436724e-05,0.00020800450813229787,-4.1015868254223875e-05,-4.76837158203125e-06,2.572919600152268e-06,-0.00023673321930163413,0.0004833426763610222,5.3459093911929615e-05,0.0002428369627821829,-7.644738236282315e-07,7.446437179740136e-05,0.00021087493383659396,0.3752071261405945,33.93996810913086,3.7990386486053467,-19.360689163208008,-0.10008770227432251,-1.777347207069397,0.15964071452617645,0
77,0.3800055980682373,-0.3752071261405945,-33.93996810913086,-3.7990386486053467,19.360689163208008,0.10008770227432251,1.777347207069397,-0.15964071452617645,0.0,0.0,0.0,0.0,0.0,0.0,0.0,-0.30198510013539764,0.11649436403498702,-0.17551414153391162,0.3247181593805799,0.044857640276190276,-0.1286134737346326,-0.15702577473058812,1.0544369071450148,0.32392651857409555,-0.392521989797291,-2.15349979204047,0.8647949312362931,2.465882944146792,0.5444994456374554,1.0544104758940245,0.3238615046091247,-0.39250456234122666,-2.153291787532338,0.8647539153680389,2.46587817577521,0.5445020185570556,0.00023673321930163413,-0.0004833426763610222,-5.3459093911929615e-05,-0.0002428369627821829,7.644738236282315e-07,-7.446437179740136e-05,-0.00021087493383659396,0.0,0.0,0.0,0.0,0.0,0.0,0.0,-2.6431250990333055e-05,-6.501396497082812e-05,1.742745606436724e-05,0.00020800450813229787,-4.1015868254223875e-05,-4.76837158203125e-06,2.572919600152268e-06,-0.00023673321930163413,0.0004833426763610222,5.3459093911929615e-05,0.0002428369627821829,-7.644738236282315e-07,7.446437179740136e-05,0.00021087493383659396,0.3752071261405945,33.93996810913086,3.7990386486053467,-19.360689163208008,-0.10008770227432251,-1.777347207069397,0.15964071452617645,0
78,0.38495969772338867,-0.4029781222343445,-33.96377182006836,-3.7990386486053467,19.360689163208008,0.10008770227432251,1.783755898475647,-0.15964071452617645,0.0,0.0,0.0,0.0,0.0,0.0,0.0,-0.3823570456415413,0.10825139321210028,-0.2485453586810494,0.3249173421237956,0.04741469994325872,-0.12186685487160734,-0.15821607353916295,1.0544388559868458,0.3239274716283963,-0.392521989797291,-2.153501770145064,0.864797771475371,2.465882232069969,0.5445004921937064,1.0544104758940245,0.3238615046091247,-0.39250456234122666,-2.153291787532338,0.8647539153680389,2.46587817577521,0.5445020185570556,0.00039798576168048366,0.0011368812969733107,-0.00012872101416145807,-0.0002726277140582562,8.65873153675288e-05,-0.005410471526894103,-0.00017381817888425903,0.0,0.0,0.0,0.0,0.0,0.0,0.0,-2.838009282135623e-05,-6.596701927158444e-05,1.742745606436724e-05,0.00020998261272620056,-4.385610733204093e-05,-4.056294759191559e-06,1.5263633491580109e-06,-0.00039798576168048366,-0.0011368812969733107,0.00012872101416145807,0.0002726277140582562,-8.65873153675288e-05,0.005410471526894103,0.00017381817888425903,0.4029781222343445,33.96377182006836,3.7990386486053467,-19.360689163208008,-0.10008770227432251,-1.783755898475647,0.15964071452617645,0
79,0.3899998664855957,-0.4029781222343445,-33.96377182006836,-3.7990386486053467,19.360689163208008,0.10008770227432251,1.783755898475647,-0.15964071452617645,0.0,0.0,0.0,0.0,0.0,0.0,0.0,-0.3823570456415413,0.10825139321210028,-0.2485453586810494,0.3249173421237956,0.04741469994325872,-0.12186685487160734,-0.15821607353916295,1.0544388559868458,0.3239274716283963,-0.392521989797291,-2.153501770145064,0.864797771475371,2.465882232069969,0.5445004921937064,1.0544104758940245,0.3238615046091247,-0.39250456234122666,-2.153291787532338,0.8647539153680389,2.46587817577521,0.5445020185570556,0.00039798576168048366,0.0011368812969733107,-0.00012872101416145807,-0.0002726277140582562,8.65873153675288e-05,-0.005410471526894103,-0.00017381817888425903,0.0,0.0,0.0,0.0,0.0,0.0,0.0,-2.838009282135623e-05,-6.596701927158444e-05,1.742745606436724e-05,0.00020998261272620056,-4.385610733204093e-05,-4.056294759191559e-06,1.5263633491580109e-06,-0.00039798576168048366,-0.0011368812969733107,0.00012872101416145807,0.0002726277140582562,-8.65873153675288e-05,0.005410471526894103,0.00017381817888425903,0.4029781222343445,33.96377182006836,3.7990386486053467,-19.360689163208008,-0.10008770227432251,-1.783755898475647,0.15964071452617645,0
80,0.39519715309143066,-0.4029781222343445,-33.96377182006836,-3.7990386486053467,19.360689163208008,0.10008770227432251,1.783755898475647,-0.15964071452617645,0.0,0.0,0.0,0.0,0.0,0.0,0.0,-0.3823570456415413,0.10825139321210028,-0.2485453586810494,0.3249173421237956,0.04741469994325872,-0.12186685487160734,-0.15821607353916295,1.0544388559868458,0.3239274716283963,-0.392521989797291,-2.153501770145064,0.864797771475371,2.465882232069969,0.5445004921937064,1.0544104758940245,0.3238615046091247,-0.39250456234122666,-2.153291787532338,0.8647539153680389,2.46587817577521,0.5445020185570556,0.00039798576168048366,0.0011368812969733107,-0.00012872101416145807,-0.0002726277140582562,8.65873153675288e-05,-0.005410471526894103,-0.00017381817888425903,0.0,0.0,0.0,0.0,0.0,0.0,0.0,-2.838009282135623e-05,-6.596701927158444e-05,1.742745606436724e-05,0.00020998261272620056,-4.385610733204093e-05,-4.056294759191559e-06,1.5263633491580109e-06,-0.00039798576168048366,-0.0011368812969733107,0.00012872101416145807,0.0002726277140582562,-8.65873153675288e-05,0.005410471526894103,0.00017381817888425903,0.4029781222343445,33.96377182006836,3.7990386486053467,-19.360689163208008,-0.10008770227432251,-1.783755898475647,0.15964071452617645,0
