rezayati/contactInterpretation/dataset/franka_main/labeled_data/link7/a3_4.csv
index,time,tau_J0,tau_J1,tau_J2,tau_J3,tau_J4,tau_J5,tau_J6,tau_J_d0,tau_J_d1,tau_J_d2,tau_J_d3,tau_J_d4,tau_J_d5,tau_J_d6,tau_ext0,tau_ext1,tau_ext2,tau_ext3,tau_ext4,tau_ext5,tau_ext6,q0,q1,q2,q3,q4,q5,q6,q_d0,q_d1,q_d2,q_d3,q_d4,q_d5,q_d6,dq0,dq1,dq2,dq3,dq4,dq5,dq6,dq_d0,dq_d1,dq_d2,dq_d3,dq_d4,dq_d5,dq_d6,e0,e1,e2,e3,e4,e5,e6,de0,de1,de2,de3,de4,de5,de6,etau_J0,etau_J1,etau_J2,etau_J3,etau_J4,etau_J5,etau_J6,label
1,0.0,-0.4267818331718445,-19.868005752563477,-0.3990752398967743,20.205720901489258,0.5047507882118225,2.4823031425476074,-0.21457235515117645,0.0,0.0,0.0,0.0,0.0,0.0,0.0,-0.4203524922679565,-0.11579409742184724,-0.23801275660901788,0.4195373199655259,-0.08759299517182592,0.10715334820455931,-0.20651406650019002,1.2137412113515953,-0.22003564666818434,-0.007357473540659013,-2.604212523898713,-0.10894919588490408,2.4681103224856575,0.8264702568383496,1.2134413937687574,-0.2202432315892585,-0.0075118285948192216,-2.6038483821997875,-0.10888392708698907,2.4681821257803174,0.826474908251239,0.0003277104190830678,8.659976572500776e-05,-0.0006872028803020477,-0.0004789191663598816,-0.000251784701725889,-0.00020230121489191535,0.0008044777926021594,0.0,0.0,0.0,0.0,0.0,0.0,0.0,-0.0002998175828379246,-0.00020758492107414428,-0.00015435505416020855,0.000364141698925291,6.526879791500517e-05,7.180329465983348e-05,4.65141288941151e-06,-0.0003277104190830678,-8.659976572500776e-05,0.0006872028803020477,0.0004789191663598816,0.000251784701725889,0.00020230121489191535,-0.0008044777926021594,0.4267818331718445,19.868005752563477,0.3990752398967743,-20.205720901489258,-0.5047507882118225,-2.4823031425476074,0.21457235515117645,0
2,0.0049936771392822266,-0.4267818331718445,-19.868005752563477,-0.3990752398967743,20.205720901489258,0.5047507882118225,2.4823031425476074,-0.21457235515117645,0.0,0.0,0.0,0.0,0.0,0.0,0.0,-0.4203524922679565,-0.11579409742184724,-0.23801275660901788,0.4195373199655259,-0.08759299517182592,0.10715334820455931,-0.20651406650019002,1.2137412113515953,-0.22003564666818434,-0.007357473540659013,-2.604212523898713,-0.10894919588490408,2.4681103224856575,0.8264702568383496,1.2134413937687574,-0.2202432315892585,-0.0075118285948192216,-2.6038483821997875,-0.10888392708698907,2.4681821257803174,0.826474908251239,0.0003277104190830678,8.659976572500776e-05,-0.0006872028803020477,-0.0004789191663598816,-0.000251784701725889,-0.00020230121489191535,0.0008044777926021594,0.0,0.0,0.0,0.0,0.0,0.0,0.0,-0.0002998175828379246,-0.00020758492107414428,-0.00015435505416020855,0.000364141698925291,6.526879791500517e-05,7.180329465983348e-05,4.65141288941151e-06,-0.0003277104190830678,-8.659976572500776e-05,0.0006872028803020477,0.0004789191663598816,0.000251784701725889,0.00020230121489191535,-0.0008044777926021594,0.4267818331718445,19.868005752563477,0.3990752398967743,-20.205720901489258,-0.5047507882118225,-2.4823031425476074,0.21457235515117645,0
3,0.009992837905883789,-0.4267818331718445,-19.891809463500977,-0.4704863727092743,20.205720901489258,0.5047507882118225,2.4758944511413574,-0.24112264811992645,0.0,0.0,0.0,0.0,0.0,0.0,0.0,-0.4198246200647478,-0.11196383457764697,-0.23427622883040095,0.4108022667142301,-0.08744105329244091,0.10603030122859614,-0.2053856311335731,1.2137412113515953,-0.22003413824124998,-0.007352462233093223,-2.604212524492452,-0.10894512143491424,2.468107877507618,0.8264733246078071,1.2134413937687574,-0.2202432315892585,-0.0075118285948192216,-2.6038483821997875,-0.10888392708698907,2.4681821257803174,0.826474908251239,3.501026861904771e-05,-0.00016210363521980073,0.0008204130842892556,-0.0010922091596654497,-0.00044615743311945277,2.1634649662576038e-05,0.0013890032992901569,0.0,0.0,0.0,0.0,0.0,0.0,0.0,-0.0002998175828379246,-0.00020909334800850443,-0.0001593663617259983,0.000364142292664571,6.119434792516143e-05,7.424827269941758e-05,1.583643431946058e-06,-3.501026861904771e-05,0.00016210363521980073,-0.0008204130842892556,0.0010922091596654497,0.00044615743311945277,-2.1634649662576038e-05,-0.0013890032992901569,0.4267818331718445,19.891809463500977,0.4704863727092743,-20.205720901489258,-0.5047507882118225,-2.4758944511413574,0.24112264811992645,0
4,0.015779733657836914,-0.4267818331718445,-19.891809463500977,-0.4704863727092743,20.205720901489258,0.5047507882118225,2.4758944511413574,-0.24112264811992645,0.0,0.0,0.0,0.0,0.0,0.0,0.0,-0.4198246200647478,-0.11196383457764697,-0.23427622883040095,0.4108022667142301,-0.08744105329244091,0.10603030122859614,-0.2053856311335731,1.2137412113515953,-0.22003413824124998,-0.007352462233093223,-2.604212524492452,-0.10894512143491424,2.468107877507618,0.8264733246078071,1.2134413937687574,-0.2202432315892585,-0.0075118285948192216,-2.6038483821997875,-0.10888392708698907,2.4681821257803174,0.826474908251239,3.501026861904771e-05,-0.00016210363521980073,0.0008204130842892556,-0.0010922091596654497,-0.00044615743311945277,2.1634649662576038e-05,0.0013890032992901569,0.0,0.0,0.0,0.0,0.0,0.0,0.0,-0.0002998175828379246,-0.00020909334800850443,-0.0001593663617259983,0.000364142292664571,6.119434792516143e-05,7.424827269941758e-05,1.583643431946058e-06,-3.501026861904771e-05,0.00016210363521980073,-0.0008204130842892556,0.0010922091596654497,0.00044615743311945277,-2.1634649662576038e-05,-0.0013890032992901569,0.4267818331718445,19.891809463500977,0.4704863727092743,-20.205720901489258,-0.5047507882118225,-2.4758944511413574,0.24112264811992645,0
5,0.019997596740722656,-0.4505855441093445,-19.868005752563477,-0.3990752398967743,20.205720901489258,0.5047507882118225,2.4823031425476074,-0.24112264811992645,0.0,0.0,0.0,0.0,0.0,0.0,0.0,-0.41117564461850886,-0.11516077461639838,-0.22557235160148215,0.4107209406942921,-0.08802790932689668,0.10693525513427084,-0.20450569377614838,1.2137428817874505,-0.22003588867509968,-0.007357473540659013,-2.604209843338274,-0.1089451214660014,2.4681103557404227,0.8264733246084717,1.2134413937687574,-0.2202432315892585,-0.0075118285948192216,-2.6038483821997875,-0.10888392708698907,2.4681821257803174,0.826474908251239,0.0008834640584822816,2.1115426003270874e-05,-0.0005038564103713112,-0.0002161316723590058,-0.000342886450838131,-1.706672532199836e-05,0.0017624208902829665,0.0,0.0,0.0,0.0,0.0,0.0,0.0,-0.00030148801869311903,-0.00020734291415880346,-0.00015435505416020855,0.00036146113848634087,6.119437901232205e-05,7.177003989466968e-05,1.5836427673665554e-06,-0.0008834640584822816,-2.1115426003270874e-05,0.0005038564103713112,0.0002161316723590058,0.000342886450838131,1.706672532199836e-05,-0.0017624208902829665,0.4505855441093445,19.868005752563477,0.3990752398967743,-20.205720901489258,-0.5047507882118225,-2.4823031425476074,0.24112264811992645,0
6,0.02501201629638672,-0.4505855441093445,-19.868005752563477,-0.3990752398967743,20.205720901489258,0.5047507882118225,2.4823031425476074,-0.24112264811992645,0.0,0.0,0.0,0.0,0.0,0.0,0.0,-0.41117564461850886,-0.11516077461639838,-0.22557235160148215,0.4107209406942921,-0.08802790932689668,0.10693525513427084,-0.20450569377614838,1.2137428817874505,-0.22003588867509968,-0.007357473540659013,-2.604209843338274,-0.1089451214660014,2.4681103557404227,0.8264733246084717,1.2134413937687574,-0.2202432315892585,-0.0075118285948192216,-2.6038483821997875,-0.10888392708698907,2.4681821257803174,0.826474908251239,0.0008834640584822816,2.1115426003270874e-05,-0.0005038564103713112,-0.0002161316723590058,-0.000342886450838131,-1.706672532199836e-05,0.0017624208902829665,0.0,0.0,0.0,0.0,0.0,0.0,0.0,-0.00030148801869311903,-0.00020734291415880346,-0.00015435505416020855,0.00036146113848634087,6.119437901232205e-05,7.177003989466968e-05,1.5836427673665554e-06,-0.0008834640584822816,-2.1115426003270874e-05,0.0005038564103713112,0.0002161316723590058,0.000342886450838131,1.706672532199836e-05,-0.0017624208902829665,0.4505855441093445,19.868005752563477,0.3990752398967743,-20.205720901489258,-0.5047507882118225,-2.4823031425476074,0.24112264811992645,0
7,0.029995203018188477,-0.4505855441093445,-19.868005752563477,-0.3990752398967743,20.205720901489258,0.5047507882118225,2.4823031425476074,-0.24112264811992645,0.0,0.0,0.0,0.0,0.0,0.0,0.0,-0.41117564461850886,-0.11516077461639838,-0.22557235160148215,0.4107209406942921,-0.08802790932689668,0.10693525513427084,-0.20450569377614838,1.2137428817874505,-0.22003588867509968,-0.007357473540659013,-2.604209843338274,-0.1089451214660014,2.4681103557404227,0.8264733246084717,1.2134413937687574,-0.2202432315892585,-0.0075118285948192216,-2.6038483821997875,-0.10888392708698907,2.4681821257803174,0.826474908251239,0.0008834640584822816,2.1115426003270874e-05,-0.0005038564103713112,-0.0002161316723590058,-0.000342886450838131,-1.706672532199836e-05,0.0017624208902829665,0.0,0.0,0.0,0.0,0.0,0.0,0.0,-0.00030148801869311903,-0.00020734291415880346,-0.00015435505416020855,0.00036146113848634087,6.119437901232205e-05,7.177003989466968e-05,1.5836427673665554e-06,-0.0008834640584822816,-2.1115426003270874e-05,0.0005038564103713112,0.0002161316723590058,0.000342886450838131,1.706672532199836e-05,-0.0017624208902829665,0.4505855441093445,19.868005752563477,0.3990752398967743,-20.205720901489258,-0.5047507882118225,-2.4823031425476074,0.24112264811992645,0
8,0.03499197959899902,-0.4505855441093445,-19.868005752563477,-0.3990752398967743,20.205720901489258,0.5047507882118225,2.4823031425476074,-0.24112264811992645,0.0,0.0,0.0,0.0,0.0,0.0,0.0,-0.41117564461850886,-0.11516077461639838,-0.22557235160148215,0.4107209406942921,-0.08802790932689668,0.10693525513427084,-0.20450569377614838,1.2137428817874505,-0.22003588867509968,-0.007357473540659013,-2.604209843338274,-0.1089451214660014,2.4681103557404227,0.8264733246084717,1.2134413937687574,-0.2202432315892585,-0.0075118285948192216,-2.6038483821997875,-0.10888392708698907,2.4681821257803174,0.826474908251239,0.0008834640584822816,2.1115426003270874e-05,-0.0005038564103713112,-0.0002161316723590058,-0.000342886450838131,-1.706672532199836e-05,0.0017624208902829665,0.0,0.0,0.0,0.0,0.0,0.0,0.0,-0.00030148801869311903,-0.00020734291415880346,-0.00015435505416020855,0.00036146113848634087,6.119437901232205e-05,7.177003989466968e-05,1.5836427673665554e-06,-0.0008834640584822816,-2.1115426003270874e-05,0.0005038564103713112,0.0002161316723590058,0.000342886450838131,1.706672532199836e-05,-0.0017624208902829665,0.4505855441093445,19.868005752563477,0.3990752398967743,-20.205720901489258,-0.5047507882118225,-2.4823031425476074,0.24112264811992645,0
9,0.039946556091308594,-0.4267818331718445,-19.891809463500977,-0.3990752398967743,20.181917190551758,0.5047507882118225,2.4823031425476074,-0.20724813640117645,0.0,0.0,0.0,0.0,0.0,0.0,0.0,-0.41948760591946765,-0.11688325727970234,-0.2321016756964069,0.4061042656428519,-0.08770945794270596,0.10691146974536372,-0.2037179022184504,1.2137412113515953,-0.22003185616570164,-0.007357473540659013,-2.6042111604740827,-0.10894492377601812,2.4681071828735854,0.8264695607738363,1.2134413937687574,-0.2202432315892585,-0.0075118285948192216,-2.6038483821997875,-0.10888392708698907,2.4681821257803174,0.826474908251239,0.0001133364996580783,0.0007480538166508276,-0.000853868929892832,-0.000121661307094965,-0.0003929401924702944,-0.00017658954312908842,0.0004548790926695505,0.0,0.0,0.0,0.0,0.0,0.0,0.0,-0.0002998175828379246,-0.00021137542355684213,-0.00015435505416020855,0.0003627782742952057,6.0996689029049755e-05,7.494290673193404e-05,5.34747740277286e-06,-0.0001133364996580783,-0.0007480538166508276,0.000853868929892832,0.000121661307094965,0.0003929401924702944,0.00017658954312908842,-0.0004548790926695505,0.4267818331718445,19.891809463500977,0.3990752398967743,-20.181917190551758,-0.5047507882118225,-2.4823031425476074,0.20724813640117645,0
10,0.04499554634094238,-0.4267818331718445,-19.891809463500977,-0.3990752398967743,20.181917190551758,0.5047507882118225,2.4823031425476074,-0.20724813640117645,0.0,0.0,0.0,0.0,0.0,0.0,0.0,-0.41948760591946765,-0.11688325727970234,-0.2321016756964069,0.4061042656428519,-0.08770945794270596,0.10691146974536372,-0.2037179022184504,1.2137412113515953,-0.22003185616570164,-0.007357473540659013,-2.6042111604740827,-0.10894492377601812,2.4681071828735854,0.8264695607738363,1.2134413937687574,-0.2202432315892585,-0.0075118285948192216,-2.6038483821997875,-0.10888392708698907,2.4681821257803174,0.826474908251239,0.0001133364996580783,0.0007480538166508276,-0.000853868929892832,-0.000121661307094965,-0.0003929401924702944,-0.00017658954312908842,0.0004548790926695505,0.0,0.0,0.0,0.0,0.0,0.0,0.0,-0.0002998175828379246,-0.00021137542355684213,-0.00015435505416020855,0.0003627782742952057,6.0996689029049755e-05,7.494290673193404e-05,5.34747740277286e-06,-0.0001133364996580783,-0.0007480538166508276,0.000853868929892832,0.000121661307094965,0.0003929401924702944,0.00017658954312908842,-0.0004548790926695505,0.4267818331718445,19.891809463500977,0.3990752398967743,-20.181917190551758,-0.5047507882118225,-2.4823031425476074,0.20724813640117645,0
11,0.04996085166931152,-0.3752071261405945,-19.868005752563477,-0.4466826617717743,20.154146194458008,0.4983420968055725,2.4758944511413574,-0.22098104655742645,0.0,0.0,0.0,0.0,0.0,0.0,0.0,-0.4126008838789067,-0.11657877333770157,-0.2246620711613169,0.4047996151405693,-0.08784910903645843,0.10734047083627046,-0.20397407352023883,1.2137375920739089,-0.22003586504471756,-0.007354132668948486,-2.6042071340170723,-0.10894832116170772,2.468107524277185,0.8264710866527425,1.2134413937687574,-0.2202432315892585,-0.0075118285948192216,-2.6038483821997875,-0.10888392708698907,2.4681821257803174,0.826474908251239,-0.0006696712661446885,0.0003794413279206466,0.000650553452368063,0.0003047713653153171,3.3304357112242967e-05,2.1562090917928576e-05,0.0007516368908955543,0.0,0.0,0.0,0.0,0.0,0.0,0.0,-0.00029619830515148493,-0.00020736654454092673,-0.00015769592587073535,0.0003587518172847304,6.439407471864333e-05,7.460150313232106e-05,3.8215984965450644e-06,0.0006696712661446885,-0.0003794413279206466,-0.000650553452368063,-0.0003047713653153171,-3.3304357112242967e-05,-2.1562090917928576e-05,-0.0007516368908955543,0.3752071261405945,19.868005752563477,0.4466826617717743,-20.154146194458008,-0.4983420968055725,-2.4758944511413574,0.22098104655742645,0
12,0.05500054359436035,-0.3752071261405945,-19.868005752563477,-0.4466826617717743,20.154146194458008,0.4983420968055725,2.4758944511413574,-0.22098104655742645,0.0,0.0,0.0,0.0,0.0,0.0,0.0,-0.4126008838789067,-0.11657877333770157,-0.2246620711613169,0.4047996151405693,-0.08784910903645843,0.10734047083627046,-0.20397407352023883,1.2137375920739089,-0.22003586504471756,-0.007354132668948486,-2.6042071340170723,-0.10894832116170772,2.468107524277185,0.8264710866527425,1.2134413937687574,-0.2202432315892585,-0.0075118285948192216,-2.6038483821997875,-0.10888392708698907,2.4681821257803174,0.826474908251239,-0.0006696712661446885,0.0003794413279206466,0.000650553452368063,0.0003047713653153171,3.3304357112242967e-05,2.1562090917928576e-05,0.0007516368908955543,0.0,0.0,0.0,0.0,0.0,0.0,0.0,-0.00029619830515148493,-0.00020736654454092673,-0.00015769592587073535,0.0003587518172847304,6.439407471864333e-05,7.460150313232106e-05,3.8215984965450644e-06,0.0006696712661446885,-0.0003794413279206466,-0.000650553452368063,-0.0003047713653153171,-3.3304357112242967e-05,-2.1562090917928576e-05,-0.0007516368908955543,0.3752071261405945,19.868005752563477,0.4466826617717743,-20.154146194458008,-0.4983420968055725,-2.4758944511413574,0.22098104655742645,0
13,0.05999183654785156,-0.4267818331718445,-19.868005752563477,-0.4466826617717743,20.181917190551758,0.4928489327430725,2.4758944511413574,-0.17978231608867645,0.0,0.0,0.0,0.0,0.0,0.0,0.0,-0.4167592351634206,-0.11245944451356904,-0.23180118738609753,0.4015622912462418,-0.08739679909059848,0.10694714280795789,-0.20502196074818071,1.2137412113515953,-0.22003485908173617,-0.007354132668948486,-2.6042081645056654,-0.10894462805366623,2.4681110607227663,0.8264665090160237,1.2134413937687574,-0.2202432315892585,-0.0075118285948192216,-2.6038483821997875,-0.10888392708698907,2.4681821257803174,0.826474908251239,0.0004891677919234536,0.0009811495258435225,-0.00035012424484224245,-0.0007223780319552183,0.0001349398571122362,9.994577228950323e-05,-0.001348873568513615,0.0,0.0,0.0,0.0,0.0,0.0,0.0,-0.0002998175828379246,-0.00020837250752231418,-0.00015769592587073535,0.00035978230587785376,6.070096667715186e-05,7.10650575510563e-05,8.399235215339473e-06,-0.0004891677919234536,-0.0009811495258435225,0.00035012424484224245,0.0007223780319552183,-0.0001349398571122362,-9.994577228950323e-05,0.001348873568513615,0.4267818331718445,19.868005752563477,0.4466826617717743,-20.181917190551758,-0.4928489327430725,-2.4758944511413574,0.17978231608867645,0
14,0.06499719619750977,-0.4267818331718445,-19.868005752563477,-0.4466826617717743,20.181917190551758,0.4928489327430725,2.4758944511413574,-0.17978231608867645,0.0,0.0,0.0,0.0,0.0,0.0,0.0,-0.4167592351634206,-0.11245944451356904,-0.23180118738609753,0.4015622912462418,-0.08739679909059848,0.10694714280795789,-0.20502196074818071,1.2137412113515953,-0.22003485908173617,-0.007354132668948486,-2.6042081645056654,-0.10894462805366623,2.4681110607227663,0.8264665090160237,1.2134413937687574,-0.2202432315892585,-0.0075118285948192216,-2.6038483821997875,-0.10888392708698907,2.4681821257803174,0.826474908251239,0.0004891677919234536,0.0009811495258435225,-0.00035012424484224245,-0.0007223780319552183,0.0001349398571122362,9.994577228950323e-05,-0.001348873568513615,0.0,0.0,0.0,0.0,0.0,0.0,0.0,-0.0002998175828379246,-0.00020837250752231418,-0.00015769592587073535,0.00035978230587785376,6.070096667715186e-05,7.10650575510563e-05,8.399235215339473e-06,-0.0004891677919234536,-0.0009811495258435225,0.00035012424484224245,0.0007223780319552183,-0.0001349398571122362,-9.994577228950323e-05,0.001348873568513615,0.4267818331718445,19.868005752563477,0.4466826617717743,-20.181917190551758,-0.4928489327430725,-2.4758944511413574,0.17978231608867645,0
15,0.06995558738708496,-0.4267818331718445,-19.844202041625977,-0.4704863727092743,20.181917190551758,0.4864402413368225,2.4823031425476074,-0.23471395671367645,0.0,0.0,0.0,0.0,0.0,0.0,0.0,-0.42562826766323153,-0.12139797842227122,-0.24438289663288143,0.4112624246578454,-0.08765146241996914,0.10902785235488299,-0.205633759736539,1.2137412113515953,-0.22003471852910064,-0.007352462233093223,-2.6042090931761646,-0.10894596043403802,2.4681103220576097,0.8264726125316487,1.2134413937687574,-0.2202432315892585,-0.0075118285948192216,-2.6038483821997875,-0.10888392708698907,2.4681821257803174,0.826474908251239,-0.0011962403981947416,-0.00017232231219449,-0.00030753131049073506,0.00047315208653708063,0.00038586777889481233,-0.00020391118771157906,0.0015698777504157204,0.0,0.0,0.0,0.0,0.0,0.0,0.0,-0.0002998175828379246,-0.00020851306015784443,-0.0001593663617259983,0.0003607109763770211,6.203334704894814e-05,7.18037227076529e-05,2.295719590317269e-06,0.0011962403981947416,0.00017232231219449,0.00030753131049073506,-0.00047315208653708063,-0.00038586777889481233,0.00020391118771157906,-0.0015698777504157204,0.4267818331718445,19.844202041625977,0.4704863727092743,-20.181917190551758,-0.4864402413368225,-2.4823031425476074,0.23471395671367645,0
16,0.07499337196350098,-0.4267818331718445,-19.844202041625977,-0.4704863727092743,20.181917190551758,0.4864402413368225,2.4823031425476074,-0.23471395671367645,0.0,0.0,0.0,0.0,0.0,0.0,0.0,-0.42562826766323153,-0.12139797842227122,-0.24438289663288143,0.4112624246578454,-0.08765146241996914,0.10902785235488299,-0.205633759736539,1.2137412113515953,-0.22003471852910064,-0.007352462233093223,-2.6042090931761646,-0.10894596043403802,2.4681103220576097,0.8264726125316487,1.2134413937687574,-0.2202432315892585,-0.0075118285948192216,-2.6038483821997875,-0.10888392708698907,2.4681821257803174,0.826474908251239,-0.0011962403981947416,-0.00017232231219449,-0.00030753131049073506,0.00047315208653708063,0.00038586777889481233,-0.00020391118771157906,0.0015698777504157204,0.0,0.0,0.0,0.0,0.0,0.0,0.0,-0.0002998175828379246,-0.00020851306015784443,-0.0001593663617259983,0.0003607109763770211,6.203334704894814e-05,7.18037227076529e-05,2.295719590317269e-06,0.0011962403981947416,0.00017232231219449,0.00030753131049073506,-0.00047315208653708063,-0.00038586777889481233,0.00020391118771157906,-0.0015698777504157204,0.4267818331718445,19.844202041625977,0.4704863727092743,-20.181917190551758,-0.4864402413368225,-2.4823031425476074,0.23471395671367645,0
17,0.07994794845581055,-0.4505855441093445,-19.844202041625977,-0.4704863727092743,20.229524612426758,0.4864402413368225,2.4758944511413574,-0.23471395671367645,0.0,0.0,0.0,0.0,0.0,0.0,0.0,-0.4237420879736435,-0.11192688527590021,-0.24196165766268826,0.4042769452582101,-0.08858760433720822,0.10781750554511327,-0.20599387430124905,1.2137428817874505,-0.22003723842300832,-0.007352462233093223,-2.604213505208779,-0.10894415250168545,2.4681110344572446,0.8264726125316487,1.2134413937687574,-0.2202432315892585,-0.0075118285948192216,-2.6038483821997875,-0.10888392708698907,2.4681821257803174,0.826474908251239,-8.462135465412965e-05,-0.00033176312335905057,0.0003859177734257798,-0.0012953843829464687,0.0003619031712920597,2.7725972386069308e-05,0.0010536887309473637,0.0,0.0,0.0,0.0,0.0,0.0,0.0,-0.00030148801869311903,-0.00020599316625016795,-0.0001593663617259983,0.00036512300899138594,6.022541469637155e-05,7.109132307281385e-05,2.295719590317269e-06,8.462135465412965e-05,0.00033176312335905057,-0.0003859177734257798,0.0012953843829464687,-0.0003619031712920597,-2.7725972386069308e-05,-0.0010536887309473637,0.4505855441093445,19.844202041625977,0.4704863727092743,-20.229524612426758,-0.4864402413368225,-2.4758944511413574,0.23471395671367645,0
18,0.08500170707702637,-0.4505855441093445,-19.844202041625977,-0.4704863727092743,20.229524612426758,0.4864402413368225,2.4758944511413574,-0.23471395671367645,0.0,0.0,0.0,0.0,0.0,0.0,0.0,-0.4237420879736435,-0.11192688527590021,-0.24196165766268826,0.4042769452582101,-0.08858760433720822,0.10781750554511327,-0.20599387430124905,1.2137428817874505,-0.22003723842300832,-0.007352462233093223,-2.604213505208779,-0.10894415250168545,2.4681110344572446,0.8264726125316487,1.2134413937687574,-0.2202432315892585,-0.0075118285948192216,-2.6038483821997875,-0.10888392708698907,2.4681821257803174,0.826474908251239,-8.462135465412965e-05,-0.00033176312335905057,0.0003859177734257798,-0.0012953843829464687,0.0003619031712920597,2.7725972386069308e-05,0.0010536887309473637,0.0,0.0,0.0,0.0,0.0,0.0,0.0,-0.00030148801869311903,-0.00020599316625016795,-0.0001593663617259983,0.00036512300899138594,6.022541469637155e-05,7.109132307281385e-05,2.295719590317269e-06,8.462135465412965e-05,0.00033176312335905057,-0.0003859177734257798,0.0012953843829464687,-0.0003619031712920597,-2.7725972386069308e-05,-0.0010536887309473637,0.4505855441093445,19.844202041625977,0.4704863727092743,-20.229524612426758,-0.4864402413368225,-2.4758944511413574,0.23471395671367645,0
19,0.08999943733215332,-0.4267818331718445,-19.844202041625977,-0.4228789508342743,20.205720901489258,0.5047507882118225,2.4694857597351074,-0.22098104655742645,0.0,0.0,0.0,0.0,0.0,0.0,0.0,-0.42181293606979164,-0.11580126596716582,-0.23966843138807317,0.40961480987753457,-0.08856551517432532,0.10807517369388386,-0.206845826152704,1.2137412113515953,-0.22003755828154367,-0.007355803104803749,-2.6042107645568415,-0.10894596274971904,2.4681117452420245,0.8264710866527425,1.2134413937687574,-0.2202432315892585,-0.0075118285948192216,-2.6038483821997875,-0.10888392708698907,2.4681821257803174,0.826474908251239,0.0004672608528206275,-0.0007094380658677308,-0.00035691123011551986,-0.0002830611784642469,-0.0003131289919132375,0.0003295335206823806,0.0008273998807172445,0.0,0.0,0.0,0.0,0.0,0.0,0.0,-0.0002998175828379246,-0.0002056733077148154,-0.00015602549001547238,0.0003623823570539919,6.203566272997008e-05,7.038053829289126e-05,3.8215984965450644e-06,-0.0004672608528206275,0.0007094380658677308,0.00035691123011551986,0.0002830611784642469,0.0003131289919132375,-0.0003295335206823806,-0.0008273998807172445,0.4267818331718445,19.844202041625977,0.4228789508342743,-20.205720901489258,-0.5047507882118225,-2.4694857597351074,0.22098104655742645,0
20,0.09502720832824707,-0.4267818331718445,-19.844202041625977,-0.4228789508342743,20.205720901489258,0.5047507882118225,2.4694857597351074,-0.22098104655742645,0.0,0.0,0.0,0.0,0.0,0.0,0.0,-0.42181293606979164,-0.11580126596716582,-0.23966843138807317,0.40961480987753457,-0.08856551517432532,0.10807517369388386,-0.206845826152704,1.2137412113515953,-0.22003755828154367,-0.007355803104803749,-2.6042107645568415,-0.10894596274971904,2.4681117452420245,0.8264710866527425,1.2134413937687574,-0.2202432315892585,-0.0075118285948192216,-2.6038483821997875,-0.10888392708698907,2.4681821257803174,0.826474908251239,0.0004672608528206275,-0.0007094380658677308,-0.00035691123011551986,-0.0002830611784642469,-0.0003131289919132375,0.0003295335206823806,0.0008273998807172445,0.0,0.0,0.0,0.0,0.0,0.0,0.0,-0.0002998175828379246,-0.0002056733077148154,-0.00015602549001547238,0.0003623823570539919,6.203566272997008e-05,7.038053829289126e-05,3.8215984965450644e-06,-0.0004672608528206275,0.0007094380658677308,0.00035691123011551986,0.0002830611784642469,0.0003131289919132375,-0.0003295335206823806,-0.0008273998807172445,0.4267818331718445,19.844202041625977,0.4228789508342743,-20.205720901489258,-0.5047507882118225,-2.4694857597351074,0.22098104655742645,0
21,0.10000872611999512,-0.4267818331718445,-19.868005752563477,-0.4466826617717743,20.154146194458008,0.5047507882118225,2.4823031425476074,-0.24844686686992645,0.0,0.0,0.0,0.0,0.0,0.0,0.0,-0.4208466240112434,-0.11345204418417709,-0.2423087752519285,0.4085380390134202,-0.08797683158031033,0.10688846357126391,-0.20660327112641963,1.2137412113515953,-0.22003565451667723,-0.007354132668948486,-2.6042070392446988,-0.10894583942884646,2.468110355973577,0.826474138410555,1.2134413937687574,-0.2202432315892585,-0.0075118285948192216,-2.6038483821997875,-0.10888392708698907,2.4681821257803174,0.826474908251239,0.0010397083363810789,-0.00018042512500591836,0.0007302838970808646,0.0005714605433163816,-0.0002148739868770168,-7.814780770823325e-05,0.0014040171353980296,0.0,0.0,0.0,0.0,0.0,0.0,0.0,-0.0002998175828379246,-0.0002075770725812609,-0.00015769592587073535,0.00035865704491122585,6.191234185738692e-05,7.176980674028499e-05,7.698406840894734e-07,-0.0010397083363810789,0.00018042512500591836,-0.0007302838970808646,-0.0005714605433163816,0.0002148739868770168,7.814780770823325e-05,-0.0014040171353980296,0.4267818331718445,19.868005752563477,0.4466826617717743,-20.154146194458008,-0.5047507882118225,-2.4823031425476074,0.24844686686992645,0
22,0.10500717163085938,-0.4267818331718445,-19.868005752563477,-0.4466826617717743,20.154146194458008,0.5047507882118225,2.4823031425476074,-0.24844686686992645,0.0,0.0,0.0,0.0,0.0,0.0,0.0,-0.4208466240112434,-0.11345204418417709,-0.2423087752519285,0.4085380390134202,-0.08797683158031033,0.10688846357126391,-0.20660327112641963,1.2137412113515953,-0.22003565451667723,-0.007354132668948486,-2.6042070392446988,-0.10894583942884646,2.468110355973577,0.826474138410555,1.2134413937687574,-0.2202432315892585,-0.0075118285948192216,-2.6038483821997875,-0.10888392708698907,2.4681821257803174,0.826474908251239,0.0010397083363810789,-0.00018042512500591836,0.0007302838970808646,0.0005714605433163816,-0.0002148739868770168,-7.814780770823325e-05,0.0014040171353980296,0.0,0.0,0.0,0.0,0.0,0.0,0.0,-0.0002998175828379246,-0.0002075770725812609,-0.00015769592587073535,0.00035865704491122585,6.191234185738692e-05,7.176980674028499e-05,7.698406840894734e-07,-0.0010397083363810789,0.00018042512500591836,-0.0007302838970808646,-0.0005714605433163816,0.0002148739868770168,7.814780770823325e-05,-0.0014040171353980296,0.4267818331718445,19.868005752563477,0.4466826617717743,-20.154146194458008,-0.5047507882118225,-2.4823031425476074,0.24844686686992645,0
23,0.11002874374389648,-0.3514034152030945,-19.868005752563477,-0.3990752398967743,20.205720901489258,0.4928489327430725,2.4758944511413574,-0.20724813640117645,0.0,0.0,0.0,0.0,0.0,0.0,0.0,-0.41558564475744225,-0.11569119741896379,-0.24007050736663563,0.40969753251082786,-0.08727026076009722,0.10679636291823101,-0.20597681756981898,1.2137359216380534,-0.22003564288662164,-0.007357473540659013,-2.6042120288078294,-0.10894391386953087,2.4681110722497426,0.8264695607738363,1.2134413937687574,-0.2202432315892585,-0.0075118285948192216,-2.6038483821997875,-0.10888392708698907,2.4681821257803174,0.826474908251239,-0.0009624833362762843,-7.1252449402854e-05,-0.00025683234860901706,-0.0005867546444462635,0.0002159833628235004,0.0002005636203514419,0.009978934102430063,0.0,0.0,0.0,0.0,0.0,0.0,0.0,-0.00029452786929606845,-0.00020758870263684615,-0.00015435505416020855,0.00036364660804188986,5.998678254179324e-05,7.105353057479391e-05,5.34747740277286e-06,0.0009624833362762843,7.1252449402854e-05,0.00025683234860901706,0.0005867546444462635,-0.0002159833628235004,-0.0002005636203514419,-0.009978934102430063,0.3514034152030945,19.868005752563477,0.3990752398967743,-20.205720901489258,-0.4928489327430725,-2.4758944511413574,0.20724813640117645,0
24,0.11499357223510742,-0.3514034152030945,-19.868005752563477,-0.3990752398967743,20.205720901489258,0.4928489327430725,2.4758944511413574,-0.20724813640117645,0.0,0.0,0.0,0.0,0.0,0.0,0.0,-0.41558564475744225,-0.11569119741896379,-0.24007050736663563,0.40969753251082786,-0.08727026076009722,0.10679636291823101,-0.20597681756981898,1.2137359216380534,-0.22003564288662164,-0.007357473540659013,-2.6042120288078294,-0.10894391386953087,2.4681110722497426,0.8264695607738363,1.2134413937687574,-0.2202432315892585,-0.0075118285948192216,-2.6038483821997875,-0.10888392708698907,2.4681821257803174,0.826474908251239,-0.0009624833362762843,-7.1252449402854e-05,-0.00025683234860901706,-0.0005867546444462635,0.0002159833628235004,0.0002005636203514419,0.009978934102430063,0.0,0.0,0.0,0.0,0.0,0.0,0.0,-0.00029452786929606845,-0.00020758870263684615,-0.00015435505416020855,0.00036364660804188986,5.998678254179324e-05,7.105353057479391e-05,5.34747740277286e-06,0.0009624833362762843,7.1252449402854e-05,0.00025683234860901706,0.0005867546444462635,-0.0002159833628235004,-0.0002005636203514419,-0.009978934102430063,0.3514034152030945,19.868005752563477,0.3990752398967743,-20.205720901489258,-0.4928489327430725,-2.4758944511413574,0.20724813640117645,0
25,0.1199500560760498,-0.4783565402030945,-19.915613174438477,-0.4704863727092743,20.181917190551758,0.4928489327430725,2.4951205253601074,-0.18710653483867645,0.0,0.0,0.0,0.0,0.0,0.0,0.0,-0.4191313460373897,-0.12226885521966656,-0.2403900995175949,0.41465712341721406,-0.08693811280043776,0.10755004678203081,-0.20395101481526107,1.2137448306292815,-0.22002968704972867,-0.007352462233093223,-2.604210930819527,-0.10894379622392576,2.4681088198250087,0.8264673228181071,1.2134413937687574,-0.2202432315892585,-0.0075118285948192216,-2.6038483821997875,-0.10888392708698907,2.4681821257803174,0.826474908251239,0.0009416984940874598,0.0009966215871003675,0.0013969408450450129,0.00036792197951284654,0.0003101566878621053,-0.0006210954865782939,-0.0002500345938844879,0.0,0.0,0.0,0.0,0.0,0.0,0.0,-0.0003034368605241422,-0.00021354453952981967,-0.0001593663617259983,0.000362548619739389,5.986913693668827e-05,7.330595530863349e-05,7.585433131951369e-06,-0.0009416984940874598,-0.0009966215871003675,-0.0013969408450450129,-0.00036792197951284654,-0.0003101566878621053,0.0006210954865782939,0.0002500345938844879,0.4783565402030945,19.915613174438477,0.4704863727092743,-20.181917190551758,-0.4928489327430725,-2.4951205253601074,0.18710653483867645,0
26,0.12499260902404785,-0.4783565402030945,-19.915613174438477,-0.4704863727092743,20.181917190551758,0.4928489327430725,2.4951205253601074,-0.18710653483867645,0.0,0.0,0.0,0.0,0.0,0.0,0.0,-0.4191313460373897,-0.12226885521966656,-0.2403900995175949,0.41465712341721406,-0.08693811280043776,0.10755004678203081,-0.20395101481526107,1.2137448306292815,-0.22002968704972867,-0.007352462233093223,-2.604210930819527,-0.10894379622392576,2.4681088198250087,0.8264673228181071,1.2134413937687574,-0.2202432315892585,-0.0075118285948192216,-2.6038483821997875,-0.10888392708698907,2.4681821257803174,0.826474908251239,0.0009416984940874598,0.0009966215871003675,0.0013969408450450129,0.00036792197951284654,0.0003101566878621053,-0.0006210954865782939,-0.0002500345938844879,0.0,0.0,0.0,0.0,0.0,0.0,0.0,-0.0003034368605241422,-0.00021354453952981967,-0.0001593663617259983,0.000362548619739389,5.986913693668827e-05,7.330595530863349e-05,7.585433131951369e-06,-0.0009416984940874598,-0.0009966215871003675,-0.0013969408450450129,-0.00036792197951284654,-0.0003101566878621053,0.0006210954865782939,0.0002500345938844879,0.4783565402030945,19.915613174438477,0.4704863727092743,-20.181917190551758,-0.4928489327430725,-2.4951205253601074,0.18710653483867645,0
27,0.13000273704528809,-0.4505855441093445,-19.891809463500977,-0.4982573688030243,20.205720901489258,0.4928489327430725,2.4758944511413574,-0.21457235515117645,0.0,0.0,0.0,0.0,0.0,0.0,0.0,-0.4212006297473802,-0.11141510581376635,-0.2363829137096812,0.4083636801509172,-0.08722485173655885,0.10670418696406841,-0.20269605718034212,1.2137428817874505,-0.22003420864693884,-0.007350513391262083,-2.6042126012672595,-0.10894345390496432,2.4681074223844424,0.8264707277886293,1.2134413937687574,-0.2202432315892585,-0.0075118285948192216,-2.6038483821997875,-0.10888392708698907,2.4681821257803174,0.826474908251239,-7.279337312903997e-05,0.001038100680594736,0.0014404670937845899,-0.00047626616826934375,8.423917522048502e-05,5.682107864071546e-05,-0.00018471159252141396,0.0,0.0,0.0,0.0,0.0,0.0,0.0,-0.00030148801869311903,-0.00020902294231964214,-0.00016131520355713858,0.0003642190674719714,5.952681797524728e-05,7.470339587500874e-05,4.180462609748581e-06,7.279337312903997e-05,-0.001038100680594736,-0.0014404670937845899,0.00047626616826934375,-8.423917522048502e-05,-5.682107864071546e-05,0.00018471159252141396,0.4505855441093445,19.891809463500977,0.4982573688030243,-20.205720901489258,-0.4928489327430725,-2.4758944511413574,0.21457235515117645,0
28,0.13504314422607422,-0.4505855441093445,-19.891809463500977,-0.4982573688030243,20.205720901489258,0.4928489327430725,2.4758944511413574,-0.21457235515117645,0.0,0.0,0.0,0.0,0.0,0.0,0.0,-0.4212006297473802,-0.11141510581376635,-0.2363829137096812,0.4083636801509172,-0.08722485173655885,0.10670418696406841,-0.20269605718034212,1.2137428817874505,-0.22003420864693884,-0.007350513391262083,-2.6042126012672595,-0.10894345390496432,2.4681074223844424,0.8264707277886293,1.2134413937687574,-0.2202432315892585,-0.0075118285948192216,-2.6038483821997875,-0.10888392708698907,2.4681821257803174,0.826474908251239,-7.279337312903997e-05,0.001038100680594736,0.0014404670937845899,-0.00047626616826934375,8.423917522048502e-05,5.682107864071546e-05,-0.00018471159252141396,0.0,0.0,0.0,0.0,0.0,0.0,0.0,-0.00030148801869311903,-0.00020902294231964214,-0.00016131520355713858,0.0003642190674719714,5.952681797524728e-05,7.470339587500874e-05,4.180462609748581e-06,7.279337312903997e-05,-0.001038100680594736,-0.0014404670937845899,0.00047626616826934375,-8.423917522048502e-05,-5.682107864071546e-05,0.00018471159252141396,0.4505855441093445,19.891809463500977,0.4982573688030243,-20.205720901489258,-0.4928489327430725,-2.4758944511413574,0.21457235515117645,0
29,0.140045166015625,-0.4505855441093445,-19.891809463500977,-0.4982573688030243,20.205720901489258,0.4928489327430725,2.4758944511413574,-0.21457235515117645,0.0,0.0,0.0,0.0,0.0,0.0,0.0,-0.4212006297473802,-0.11141510581376635,-0.2363829137096812,0.4083636801509172,-0.08722485173655885,0.10670418696406841,-0.20269605718034212,1.2137428817874505,-0.22003420864693884,-0.007350513391262083,-2.6042126012672595,-0.10894345390496432,2.4681074223844424,0.8264707277886293,1.2134413937687574,-0.2202432315892585,-0.0075118285948192216,-2.6038483821997875,-0.10888392708698907,2.4681821257803174,0.826474908251239,-7.279337312903997e-05,0.001038100680594736,0.0014404670937845899,-0.00047626616826934375,8.423917522048502e-05,5.682107864071546e-05,-0.00018471159252141396,0.0,0.0,0.0,0.0,0.0,0.0,0.0,-0.00030148801869311903,-0.00020902294231964214,-0.00016131520355713858,0.0003642190674719714,5.952681797524728e-05,7.470339587500874e-05,4.180462609748581e-06,7.279337312903997e-05,-0.001038100680594736,-0.0014404670937845899,0.00047626616826934375,-8.423917522048502e-05,-5.682107864071546e-05,0.00018471159252141396,0.4505855441093445,19.891809463500977,0.4982573688030243,-20.205720901489258,-0.4928489327430725,-2.4758944511413574,0.21457235515117645,0
30,0.1449565887451172,-0.4505855441093445,-19.891809463500977,-0.4982573688030243,20.205720901489258,0.4928489327430725,2.4758944511413574,-0.21457235515117645,0.0,0.0,0.0,0.0,0.0,0.0,0.0,-0.4212006297473802,-0.11141510581376635,-0.2363829137096812,0.4083636801509172,-0.08722485173655885,0.10670418696406841,-0.20269605718034212,1.2137428817874505,-0.22003420864693884,-0.007350513391262083,-2.6042126012672595,-0.10894345390496432,2.4681074223844424,0.8264707277886293,1.2134413937687574,-0.2202432315892585,-0.0075118285948192216,-2.6038483821997875,-0.10888392708698907,2.4681821257803174,0.826474908251239,-7.279337312903997e-05,0.001038100680594736,0.0014404670937845899,-0.00047626616826934375,8.423917522048502e-05,5.682107864071546e-05,-0.00018471159252141396,0.0,0.0,0.0,0.0,0.0,0.0,0.0,-0.00030148801869311903,-0.00020902294231964214,-0.00016131520355713858,0.0003642190674719714,5.952681797524728e-05,7.470339587500874e-05,4.180462609748581e-06,7.279337312903997e-05,-0.001038100680594736,-0.0014404670937845899,0.00047626616826934375,-8.423917522048502e-05,-5.682107864071546e-05,0.00018471159252141396,0.4505855441093445,19.891809463500977,0.4982573688030243,-20.205720901489258,-0.4928489327430725,-2.4758944511413574,0.21457235515117645,0
31,0.14999914169311523,-0.4029781222343445,-19.768823623657227,-0.4466826617717743,20.205720901489258,0.4864402413368225,2.4823031425476074,-0.22098104655742645,0.0,0.0,0.0,0.0,0.0,0.0,0.0,-0.4208971675792579,-0.1144629509535708,-0.23256485934128523,0.41231047208250926,-0.08745866540968186,0.1071285002131773,-0.20465504868198464,1.2137395409157399,-0.22004284310053054,-0.007354132668948486,-2.604212486595604,-0.1089459211462957,2.468110244029825,0.8264714398674462,1.2134413937687574,-0.2202432315892585,-0.0075118285948192216,-2.6038483821997875,-0.10888392708698907,2.4681821257803174,0.826474908251239,-0.0006065400144018156,-0.0017436030353501974,-0.00011598117563441086,-0.0004712464249460518,0.0004323428129184819,-7.07690420800243e-05,0.0009185729798816099,0.0,0.0,0.0,0.0,0.0,0.0,0.0,-0.0002981471469825081,-0.0002003884887279428,-0.00015769592587073535,0.0003641043958162449,6.199405930662483e-05,7.188175049233081e-05,3.468383792837315e-06,0.0006065400144018156,0.0017436030353501974,0.00011598117563441086,0.0004712464249460518,-0.0004323428129184819,7.07690420800243e-05,-0.0009185729798816099,0.4029781222343445,19.768823623657227,0.4466826617717743,-20.205720901489258,-0.4864402413368225,-2.4823031425476074,0.22098104655742645,0
32,0.15501809120178223,-0.4029781222343445,-19.768823623657227,-0.4466826617717743,20.205720901489258,0.4864402413368225,2.4823031425476074,-0.22098104655742645,0.0,0.0,0.0,0.0,0.0,0.0,0.0,-0.4208971675792579,-0.1144629509535708,-0.23256485934128523,0.41231047208250926,-0.08745866540968186,0.1071285002131773,-0.20465504868198464,1.2137395409157399,-0.22004284310053054,-0.007354132668948486,-2.604212486595604,-0.1089459211462957,2.468110244029825,0.8264714398674462,1.2134413937687574,-0.2202432315892585,-0.0075118285948192216,-2.6038483821997875,-0.10888392708698907,2.4681821257803174,0.826474908251239,-0.0006065400144018156,-0.0017436030353501974,-0.00011598117563441086,-0.0004712464249460518,0.0004323428129184819,-7.07690420800243e-05,0.0009185729798816099,0.0,0.0,0.0,0.0,0.0,0.0,0.0,-0.0002981471469825081,-0.0002003884887279428,-0.00015769592587073535,0.0003641043958162449,6.199405930662483e-05,7.188175049233081e-05,3.468383792837315e-06,0.0006065400144018156,0.0017436030353501974,0.00011598117563441086,0.0004712464249460518,-0.0004323428129184819,7.07690420800243e-05,-0.0009185729798816099,0.4029781222343445,19.768823623657227,0.4466826617717743,-20.205720901489258,-0.4864402413368225,-2.4823031425476074,0.22098104655742645,0
33,0.16000008583068848,-0.4267818331718445,-19.868005752563477,-0.4228789508342743,20.181917190551758,0.5047507882118225,2.4887118339538574,-0.19351522624492645,0.0,0.0,0.0,0.0,0.0,0.0,0.0,-0.4238692141268362,-0.10859171287534877,-0.23782926540480706,0.4109291426024097,-0.08774865249784698,0.10666422287284283,-0.20458590324173195,1.2137412113515953,-0.22003581299861422,-0.007355803104803749,-2.6042090063586443,-0.10894586576270437,2.4681096497091906,0.8264680349009118,1.2134413937687574,-0.2202432315892585,-0.0075118285948192216,-2.6038483821997875,-0.10888392708698907,2.4681821257803174,0.826474908251239,-0.00047574471764937114,0.0010926235105900909,-0.00043508725350257106,-0.000386541928047306,-0.00042630737118111325,-0.00039682547841404927,-0.0004809894219228781,0.0,0.0,0.0,0.0,0.0,0.0,0.0,-0.0002998175828379246,-0.00020741859064427048,-0.00015602549001547238,0.00036062415885673715,6.193867571530065e-05,7.247607112681465e-05,6.873350327230021e-06,0.00047574471764937114,-0.0010926235105900909,0.00043508725350257106,0.000386541928047306,0.00042630737118111325,0.00039682547841404927,0.0004809894219228781,0.4267818331718445,19.868005752563477,0.4228789508342743,-20.181917190551758,-0.5047507882118225,-2.4887118339538574,0.19351522624492645,0
34,0.16499614715576172,-0.4267818331718445,-19.868005752563477,-0.4228789508342743,20.181917190551758,0.5047507882118225,2.4887118339538574,-0.19351522624492645,0.0,0.0,0.0,0.0,0.0,0.0,0.0,-0.4238692141268362,-0.10859171287534877,-0.23782926540480706,0.4109291426024097,-0.08774865249784698,0.10666422287284283,-0.20458590324173195,1.2137412113515953,-0.22003581299861422,-0.007355803104803749,-2.6042090063586443,-0.10894586576270437,2.4681096497091906,0.8264680349009118,1.2134413937687574,-0.2202432315892585,-0.0075118285948192216,-2.6038483821997875,-0.10888392708698907,2.4681821257803174,0.826474908251239,-0.00047574471764937114,0.0010926235105900909,-0.00043508725350257106,-0.000386541928047306,-0.00042630737118111325,-0.00039682547841404927,-0.0004809894219228781,0.0,0.0,0.0,0.0,0.0,0.0,0.0,-0.0002998175828379246,-0.00020741859064427048,-0.00015602549001547238,0.00036062415885673715,6.193867571530065e-05,7.247607112681465e-05,6.873350327230021e-06,0.00047574471764937114,-0.0010926235105900909,0.00043508725350257106,0.000386541928047306,0.00042630737118111325,0.00039682547841404927,0.0004809894219228781,0.4267818331718445,19.868005752563477,0.4228789508342743,-20.181917190551758,-0.5047507882118225,-2.4887118339538574,0.19351522624492645,0
35,0.17000460624694824,-0.4029781222343445,-19.844202041625977,-0.4704863727092743,20.205720901489258,0.4864402413368225,2.4823031425476074,-0.20083944499492645,0.0,0.0,0.0,0.0,0.0,0.0,0.0,-0.4267826183704701,-0.10766047519382442,-0.24039911933526295,0.4134661703759749,-0.0876967712221772,0.10777887575800436,-0.20478482099911513,1.2137395409117024,-0.22003724722360213,-0.007352462233093223,-2.604212830926353,-0.10894312732833536,2.4681103486821288,0.8264688486970133,1.2134413937687574,-0.2202432315892585,-0.0075118285948192216,-2.6038483821997875,-0.10888392708698907,2.4681821257803174,0.826474908251239,-0.0007045891047375362,0.00014779303743330763,0.00047975639836483777,-0.0007847542168643405,0.00036321037362034483,-0.0001040467343158965,0.0002749376872218011,0.0,0.0,0.0,0.0,0.0,0.0,0.0,-0.00029814714294507105,-0.0002059843656563587,-0.0001593663617259983,0.00036444872656549165,5.920024134628554e-05,7.177709818861899e-05,6.0595542257235735e-06,0.0007045891047375362,-0.00014779303743330763,-0.00047975639836483777,0.0007847542168643405,-0.00036321037362034483,0.0001040467343158965,-0.0002749376872218011,0.4029781222343445,19.844202041625977,0.4704863727092743,-20.205720901489258,-0.4864402413368225,-2.4823031425476074,0.20083944499492645,0
36,0.17501068115234375,-0.4029781222343445,-19.844202041625977,-0.4704863727092743,20.205720901489258,0.4864402413368225,2.4823031425476074,-0.20083944499492645,0.0,0.0,0.0,0.0,0.0,0.0,0.0,-0.4267826183704701,-0.10766047519382442,-0.24039911933526295,0.4134661703759749,-0.0876967712221772,0.10777887575800436,-0.20478482099911513,1.2137395409117024,-0.22003724722360213,-0.007352462233093223,-2.604212830926353,-0.10894312732833536,2.4681103486821288,0.8264688486970133,1.2134413937687574,-0.2202432315892585,-0.0075118285948192216,-2.6038483821997875,-0.10888392708698907,2.4681821257803174,0.826474908251239,-0.0007045891047375362,0.00014779303743330763,0.00047975639836483777,-0.0007847542168643405,0.00036321037362034483,-0.0001040467343158965,0.0002749376872218011,0.0,0.0,0.0,0.0,0.0,0.0,0.0,-0.00029814714294507105,-0.0002059843656563587,-0.0001593663617259983,0.00036444872656549165,5.920024134628554e-05,7.177709818861899e-05,6.0595542257235735e-06,0.0007045891047375362,-0.00014779303743330763,-0.00047975639836483777,0.0007847542168643405,-0.00036321037362034483,0.0001040467343158965,-0.0002749376872218011,0.4029781222343445,19.844202041625977,0.4704863727092743,-20.205720901489258,-0.4864402413368225,-2.4823031425476074,0.20083944499492645,0
37,0.17999649047851562,-0.4029781222343445,-19.891809463500977,-0.4228789508342743,20.229524612426758,0.4809470772743225,2.4758944511413574,-0.21457235515117645,0.0,0.0,0.0,0.0,0.0,0.0,0.0,-0.45726190662895555,-0.10699161370316636,-0.2750683516355088,0.41300091327441846,-0.08599693547214876,0.1071661886847351,-0.20450193665507063,1.2137395409157399,-0.22003395009290788,-0.007355803104803749,-2.6042135036807625,-0.10894531128369728,2.4681106026991366,0.8264703745759195,1.2134413937687574,-0.2202432315892585,-0.0075118285948192216,-2.6038483821997875,-0.10888392708698907,2.4681821257803174,0.826474908251239,-0.0012553266516361586,0.000700512399683033,0.0019114628828995272,-0.0011789538100193996,0.0007766408061928999,6.760128448796543e-06,0.00046040274767938916,0.0,0.0,0.0,0.0,0.0,0.0,0.0,-0.0002981471469825081,-0.0002092814963506051,-0.00015602549001547238,0.00036512148097500585,6.138419670820294e-05,7.152308118074657e-05,4.533675319495778e-06,0.0012553266516361586,-0.000700512399683033,-0.0019114628828995272,0.0011789538100193996,-0.0007766408061928999,-6.760128448796543e-06,-0.00046040274767938916,0.4029781222343445,19.891809463500977,0.4228789508342743,-20.229524612426758,-0.4809470772743225,-2.4758944511413574,0.21457235515117645,0
38,0.18499445915222168,-0.4029781222343445,-19.891809463500977,-0.4228789508342743,20.229524612426758,0.4809470772743225,2.4758944511413574,-0.21457235515117645,0.0,0.0,0.0,0.0,0.0,0.0,0.0,-0.45726190662895555,-0.10699161370316636,-0.2750683516355088,0.41300091327441846,-0.08599693547214876,0.1071661886847351,-0.20450193665507063,1.2137395409157399,-0.22003395009290788,-0.007355803104803749,-2.6042135036807625,-0.10894531128369728,2.4681106026991366,0.8264703745759195,1.2134413937687574,-0.2202432315892585,-0.0075118285948192216,-2.6038483821997875,-0.10888392708698907,2.4681821257803174,0.826474908251239,-0.0012553266516361586,0.000700512399683033,0.0019114628828995272,-0.0011789538100193996,0.0007766408061928999,6.760128448796543e-06,0.00046040274767938916,0.0,0.0,0.0,0.0,0.0,0.0,0.0,-0.0002981471469825081,-0.0002092814963506051,-0.00015602549001547238,0.00036512148097500585,6.138419670820294e-05,7.152308118074657e-05,4.533675319495778e-06,0.0012553266516361586,-0.000700512399683033,-0.0019114628828995272,0.0011789538100193996,-0.0007766408061928999,-6.760128448796543e-06,-0.00046040274767938916,0.4029781222343445,19.891809463500977,0.4228789508342743,-20.229524612426758,-0.4809470772743225,-2.4758944511413574,0.21457235515117645,0
39,0.18999791145324707,-0.4029781222343445,-19.868005752563477,-0.4466826617717743,20.181917190551758,0.4928489327430725,2.4887118339538574,-0.20724813640117645,0.0,0.0,0.0,0.0,0.0,0.0,0.0,-0.4334800284146223,-0.11458724182119795,-0.24864551776553143,0.416001951984622,-0.08697816176505173,0.10776833456104867,-0.2041835084242693,1.2137395409157399,-0.2200351829582444,-0.007354132668948486,-2.6042087764594015,-0.10894349350104436,2.4681096497102986,0.8264695607738363,1.2134413937687574,-0.2202432315892585,-0.0075118285948192216,-2.6038483821997875,-0.10888392708698907,2.4681821257803174,0.826474908251239,-0.0003887789735236671,-0.00034069769324923996,0.00025593205311816726,0.0004916880241058397,0.00024968269062612995,-0.0001722722008824803,7.777482297526716e-05,0.0,0.0,0.0,0.0,0.0,0.0,0.0,-0.0002981471469825081,-0.00020804863101409055,-0.00015769592587073535,0.0003603942596139831,5.9566414055287065e-05,7.247607001881207e-05,5.34747740277286e-06,0.0003887789735236671,0.00034069769324923996,-0.00025593205311816726,-0.0004916880241058397,-0.00024968269062612995,0.0001722722008824803,-7.777482297526716e-05,0.4029781222343445,19.868005752563477,0.4466826617717743,-20.181917190551758,-0.4928489327430725,-2.4887118339538574,0.20724813640117645,0
40,0.1950068473815918,-0.4029781222343445,-19.868005752563477,-0.4466826617717743,20.181917190551758,0.4928489327430725,2.4887118339538574,-0.20724813640117645,0.0,0.0,0.0,0.0,0.0,0.0,0.0,-0.4334800284146223,-0.11458724182119795,-0.24864551776553143,0.416001951984622,-0.08697816176505173,0.10776833456104867,-0.2041835084242693,1.2137395409157399,-0.2200351829582444,-0.007354132668948486,-2.6042087764594015,-0.10894349350104436,2.4681096497102986,0.8264695607738363,1.2134413937687574,-0.2202432315892585,-0.0075118285948192216,-2.6038483821997875,-0.10888392708698907,2.4681821257803174,0.826474908251239,-0.0003887789735236671,-0.00034069769324923996,0.00025593205311816726,0.0004916880241058397,0.00024968269062612995,-0.0001722722008824803,7.777482297526716e-05,0.0,0.0,0.0,0.0,0.0,0.0,0.0,-0.0002981471469825081,-0.00020804863101409055,-0.00015769592587073535,0.0003603942596139831,5.9566414055287065e-05,7.247607001881207e-05,5.34747740277286e-06,0.0003887789735236671,0.00034069769324923996,-0.00025593205311816726,-0.0004916880241058397,-0.00024968269062612995,0.0001722722008824803,-7.777482297526716e-05,0.4029781222343445,19.868005752563477,0.4466826617717743,-20.181917190551758,-0.4928489327430725,-2.4887118339538574,0.20724813640117645,0
41,0.19996285438537598,-0.4267818331718445,-19.844202041625977,-0.3990752398967743,20.181917190551758,0.4983420968055725,2.4694857597351074,-0.18710653483867645,0.0,0.0,0.0,0.0,0.0,0.0,0.0,-0.41557321607749026,-0.10868868664884128,-0.23345556440758386,0.4073099301407982,-0.0875494438764637,0.1068784754804026,-0.20378574934160182,1.2137412113515953,-0.22003724711161066,-0.007357473540659013,-2.6042087881004483,-0.10894404959709277,2.4681075473891365,0.8264673228181071,1.2134413937687574,-0.2202432315892585,-0.0075118285948192216,-2.6038483821997875,-0.10888392708698907,2.4681821257803174,0.826474908251239,0.0003978908832210805,-0.00014244164856237873,-0.0006905506808597353,-0.000186807934980811,-3.83175791039938e-05,0.0002943563155193202,-0.0007758401951890665,0.0,0.0,0.0,0.0,0.0,0.0,0.0,-0.0002998175828379246,-0.00020598447764783034,-0.00015435505416020855,0.00036040590066077627,6.0122510103691185e-05,7.45783911808573e-05,7.585433131951369e-06,-0.0003978908832210805,0.00014244164856237873,0.0006905506808597353,0.000186807934980811,3.83175791039938e-05,-0.0002943563155193202,0.0007758401951890665,0.4267818331718445,19.844202041625977,0.3990752398967743,-20.181917190551758,-0.4983420968055725,-2.4694857597351074,0.18710653483867645,0
42,0.20494937896728516,-0.4267818331718445,-19.844202041625977,-0.3990752398967743,20.181917190551758,0.4983420968055725,2.4694857597351074,-0.18710653483867645,0.0,0.0,0.0,0.0,0.0,0.0,0.0,-0.41557321607749026,-0.10868868664884128,-0.23345556440758386,0.4073099301407982,-0.0875494438764637,0.1068784754804026,-0.20378574934160182,1.2137412113515953,-0.22003724711161066,-0.007357473540659013,-2.6042087881004483,-0.10894404959709277,2.4681075473891365,0.8264673228181071,1.2134413937687574,-0.2202432315892585,-0.0075118285948192216,-2.6038483821997875,-0.10888392708698907,2.4681821257803174,0.826474908251239,0.0003978908832210805,-0.00014244164856237873,-0.0006905506808597353,-0.000186807934980811,-3.83175791039938e-05,0.0002943563155193202,-0.0007758401951890665,0.0,0.0,0.0,0.0,0.0,0.0,0.0,-0.0002998175828379246,-0.00020598447764783034,-0.00015435505416020855,0.00036040590066077627,6.0122510103691185e-05,7.45783911808573e-05,7.585433131951369e-06,-0.0003978908832210805,0.00014244164856237873,0.0006905506808597353,0.000186807934980811,3.83175791039938e-05,-0.0002943563155193202,0.0007758401951890665,0.4267818331718445,19.844202041625977,0.3990752398967743,-20.181917190551758,-0.4983420968055725,-2.4694857597351074,0.18710653483867645,0
43,0.2099931240081787,-0.3752071261405945,-19.844202041625977,-0.3990752398967743,20.181917190551758,0.4928489327430725,2.4823031425476074,-0.22830526530742645,0.0,0.0,0.0,0.0,0.0,0.0,0.0,-0.4112216227072283,-0.11577245565834765,-0.229217190805647,0.41064599115581235,-0.08708056623195645,0.10762454641777874,-0.20452262899413154,1.2137375920739089,-0.22003681854261845,-0.007357473540659013,-2.604211160057641,-0.10894344070558776,2.468107182849693,0.8264719004548258,1.2134413937687574,-0.2202432315892585,-0.0075118285948192216,-2.6038483821997875,-0.10888392708698907,2.4681821257803174,0.826474908251239,-0.0002647864823244034,-0.0001443929531588423,-0.0004055889086172014,-0.00022592864856975947,5.568342986965638e-05,0.00010103339943201735,0.0006842802183588337,0.0,0.0,0.0,0.0,0.0,0.0,0.0,-0.00029619830515148493,-0.00020641304664004156,-0.00015435505416020855,0.0003627778578536578,5.9513618598683315e-05,7.494293062437762e-05,3.0077964132679824e-06,0.0002647864823244034,0.0001443929531588423,0.0004055889086172014,0.00022592864856975947,-5.568342986965638e-05,-0.00010103339943201735,-0.0006842802183588337,0.3752071261405945,19.844202041625977,0.3990752398967743,-20.181917190551758,-0.4928489327430725,-2.4823031425476074,0.22830526530742645,0
44,0.21499347686767578,-0.3752071261405945,-19.844202041625977,-0.3990752398967743,20.181917190551758,0.4928489327430725,2.4823031425476074,-0.22830526530742645,0.0,0.0,0.0,0.0,0.0,0.0,0.0,-0.4112216227072283,-0.11577245565834765,-0.229217190805647,0.41064599115581235,-0.08708056623195645,0.10762454641777874,-0.20452262899413154,1.2137375920739089,-0.22003681854261845,-0.007357473540659013,-2.604211160057641,-0.10894344070558776,2.468107182849693,0.8264719004548258,1.2134413937687574,-0.2202432315892585,-0.0075118285948192216,-2.6038483821997875,-0.10888392708698907,2.4681821257803174,0.826474908251239,-0.0002647864823244034,-0.0001443929531588423,-0.0004055889086172014,-0.00022592864856975947,5.568342986965638e-05,0.00010103339943201735,0.0006842802183588337,0.0,0.0,0.0,0.0,0.0,0.0,0.0,-0.00029619830515148493,-0.00020641304664004156,-0.00015435505416020855,0.0003627778578536578,5.9513618598683315e-05,7.494293062437762e-05,3.0077964132679824e-06,0.0002647864823244034,0.0001443929531588423,0.0004055889086172014,0.00022592864856975947,-5.568342986965638e-05,-0.00010103339943201735,-0.0006842802183588337,0.3752071261405945,19.844202041625977,0.3990752398967743,-20.181917190551758,-0.4928489327430725,-2.4823031425476074,0.22830526530742645,0
45,0.22000432014465332,-0.3752071261405945,-19.792627334594727,-0.4228789508342743,20.154146194458008,0.4983420968055725,2.4823031425476074,-0.17337362468242645,0.0,0.0,0.0,0.0,0.0,0.0,0.0,-0.40753942158575096,-0.11424987364544144,-0.22732699731967584,0.4103464875406044,-0.08722895055762823,0.10846769161106883,-0.2052890044513788,1.2137375920739089,-0.2200411454788228,-0.007355803104803749,-2.60420917753106,-0.1089440510571585,2.468109171312411,0.8264657969392009,1.2134413937687574,-0.2202432315892585,-0.0075118285948192216,-2.6038483821997875,-0.10888392708698907,2.4681821257803174,0.826474908251239,-0.000478503051884553,-0.0011798345363697176,0.000330964317542339,0.0006439247659512617,9.72596986188337e-06,3.92988712437934e-05,-0.0014726585067520578,0.0,0.0,0.0,0.0,0.0,0.0,0.0,-0.00029619830515148493,-0.0002020861104356786,-0.00015602549001547238,0.00036079533127253427,6.0123970169426166e-05,7.295446790633875e-05,9.111312038179165e-06,0.000478503051884553,0.0011798345363697176,-0.000330964317542339,-0.0006439247659512617,-9.72596986188337e-06,-3.92988712437934e-05,0.0014726585067520578,0.3752071261405945,19.792627334594727,0.4228789508342743,-20.154146194458008,-0.4983420968055725,-2.4823031425476074,0.17337362468242645,0
46,0.2249913215637207,-0.3752071261405945,-19.792627334594727,-0.4228789508342743,20.154146194458008,0.4983420968055725,2.4823031425476074,-0.17337362468242645,0.0,0.0,0.0,0.0,0.0,0.0,0.0,-0.40753942158575096,-0.11424987364544144,-0.22732699731967584,0.4103464875406044,-0.08722895055762823,0.10846769161106883,-0.2052890044513788,1.2137375920739089,-0.2200411454788228,-0.007355803104803749,-2.60420917753106,-0.1089440510571585,2.468109171312411,0.8264657969392009,1.2134413937687574,-0.2202432315892585,-0.0075118285948192216,-2.6038483821997875,-0.10888392708698907,2.4681821257803174,0.826474908251239,-0.000478503051884553,-0.0011798345363697176,0.000330964317542339,0.0006439247659512617,9.72596986188337e-06,3.92988712437934e-05,-0.0014726585067520578,0.0,0.0,0.0,0.0,0.0,0.0,0.0,-0.00029619830515148493,-0.0002020861104356786,-0.00015602549001547238,0.00036079533127253427,6.0123970169426166e-05,7.295446790633875e-05,9.111312038179165e-06,0.000478503051884553,0.0011798345363697176,-0.000330964317542339,-0.0006439247659512617,-9.72596986188337e-06,-3.92988712437934e-05,0.0014726585067520578,0.3752071261405945,19.792627334594727,0.4228789508342743,-20.154146194458008,-0.4983420968055725,-2.4823031425476074,0.17337362468242645,0
47,0.23000621795654297,-0.3752071261405945,-19.792627334594727,-0.4228789508342743,20.154146194458008,0.4983420968055725,2.4823031425476074,-0.17337362468242645,0.0,0.0,0.0,0.0,0.0,0.0,0.0,-0.40753942158575096,-0.11424987364544144,-0.22732699731967584,0.4103464875406044,-0.08722895055762823,0.10846769161106883,-0.2052890044513788,1.2137375920739089,-0.2200411454788228,-0.007355803104803749,-2.60420917753106,-0.1089440510571585,2.468109171312411,0.8264657969392009,1.2134413937687574,-0.2202432315892585,-0.0075118285948192216,-2.6038483821997875,-0.10888392708698907,2.4681821257803174,0.826474908251239,-0.000478503051884553,-0.0011798345363697176,0.000330964317542339,0.0006439247659512617,9.72596986188337e-06,3.92988712437934e-05,-0.0014726585067520578,0.0,0.0,0.0,0.0,0.0,0.0,0.0,-0.00029619830515148493,-0.0002020861104356786,-0.00015602549001547238,0.00036079533127253427,6.0123970169426166e-05,7.295446790633875e-05,9.111312038179165e-06,0.000478503051884553,0.0011798345363697176,-0.000330964317542339,-0.0006439247659512617,-9.72596986188337e-06,-3.92988712437934e-05,0.0014726585067520578,0.3752071261405945,19.792627334594727,0.4228789508342743,-20.154146194458008,-0.4983420968055725,-2.4823031425476074,0.17337362468242645,0
48,0.2350008487701416,-0.3752071261405945,-19.792627334594727,-0.4228789508342743,20.154146194458008,0.4983420968055725,2.4823031425476074,-0.17337362468242645,0.0,0.0,0.0,0.0,0.0,0.0,0.0,-0.40753942158575096,-0.11424987364544144,-0.22732699731967584,0.4103464875406044,-0.08722895055762823,0.10846769161106883,-0.2052890044513788,1.2137375920739089,-0.2200411454788228,-0.007355803104803749,-2.60420917753106,-0.1089440510571585,2.468109171312411,0.8264657969392009,1.2134413937687574,-0.2202432315892585,-0.0075118285948192216,-2.6038483821997875,-0.10888392708698907,2.4681821257803174,0.826474908251239,-0.000478503051884553,-0.0011798345363697176,0.000330964317542339,0.0006439247659512617,9.72596986188337e-06,3.92988712437934e-05,-0.0014726585067520578,0.0,0.0,0.0,0.0,0.0,0.0,0.0,-0.00029619830515148493,-0.0002020861104356786,-0.00015602549001547238,0.00036079533127253427,6.0123970169426166e-05,7.295446790633875e-05,9.111312038179165e-06,0.000478503051884553,0.0011798345363697176,-0.000330964317542339,-0.0006439247659512617,-9.72596986188337e-06,-3.92988712437934e-05,0.0014726585067520578,0.3752071261405945,19.792627334594727,0.4228789508342743,-20.154146194458008,-0.4983420968055725,-2.4823031425476074,0.17337362468242645,0
49,0.23999357223510742,-0.4267818331718445,-19.891809463500977,-0.4228789508342743,20.181917190551758,0.5102439522743225,2.4694857597351074,-0.15964071452617645,0.0,0.0,0.0,0.0,0.0,0.0,0.0,-0.41238440476290933,-0.11547660434802176,-0.23381923012764197,0.4086847964273615,-0.08682149652223863,0.10890307696661142,-0.2045397197880675,1.2137412113515953,-0.2200342198596131,-0.007355803104803749,-2.604210233214526,-0.10894541340215344,2.4681117713994314,0.8264642710602945,1.2134413937687574,-0.2202432315892585,-0.0075118285948192216,-2.6038483821997875,-0.10888392708698907,2.4681821257803174,0.826474908251239,-0.00015722062597715167,0.0006564566447082301,-0.00043074879825474025,-0.00030826999581927775,-0.0004415423040047246,0.00034487783921318993,-0.0016042144439714077,0.0,0.0,0.0,0.0,0.0,0.0,0.0,-0.0002998175828379246,-0.00020901172964538084,-0.00015602549001547238,0.00036185101473851233,6.148631516436631e-05,7.035438088598411e-05,1.0637190944517982e-05,0.00015722062597715167,-0.0006564566447082301,0.00043074879825474025,0.00030826999581927775,0.0004415423040047246,-0.00034487783921318993,0.0016042144439714077,0.4267818331718445,19.891809463500977,0.4228789508342743,-20.181917190551758,-0.5102439522743225,-2.4694857597351074,0.15964071452617645,0
50,0.2450406551361084,-0.4267818331718445,-19.891809463500977,-0.4228789508342743,20.181917190551758,0.5102439522743225,2.4694857597351074,-0.15964071452617645,0.0,0.0,0.0,0.0,0.0,0.0,0.0,-0.41238440476290933,-0.11547660434802176,-0.23381923012764197,0.4086847964273615,-0.08682149652223863,0.10890307696661142,-0.2045397197880675,1.2137412113515953,-0.2200342198596131,-0.007355803104803749,-2.604210233214526,-0.10894541340215344,2.4681117713994314,0.8264642710602945,1.2134413937687574,-0.2202432315892585,-0.0075118285948192216,-2.6038483821997875,-0.10888392708698907,2.4681821257803174,0.826474908251239,-0.00015722062597715167,0.0006564566447082301,-0.00043074879825474025,-0.00030826999581927775,-0.0004415423040047246,0.00034487783921318993,-0.0016042144439714077,0.0,0.0,0.0,0.0,0.0,0.0,0.0,-0.0002998175828379246,-0.00020901172964538084,-0.00015602549001547238,0.00036185101473851233,6.148631516436631e-05,7.035438088598411e-05,1.0637190944517982e-05,0.00015722062597715167,-0.0006564566447082301,0.00043074879825474025,0.00030826999581927775,0.0004415423040047246,-0.00034487783921318993,0.0016042144439714077,0.4267818331718445,19.891809463500977,0.4228789508342743,-20.181917190551758,-0.5102439522743225,-2.4694857597351074,0.15964071452617645,0
51,0.2499997615814209,-0.4505855441093445,-19.844202041625977,-0.4466826617717743,20.181917190551758,0.4983420968055725,2.4758944511413574,-0.22098104655742645,0.0,0.0,0.0,0.0,0.0,0.0,0.0,-0.41118980898876173,-0.11293036916081939,-0.23188092721119088,0.406241696104543,-0.08675029207014291,0.10826831683523334,-0.20398199884493748,1.2137428817874505,-0.22003756087551143,-0.007354132668948486,-2.6042089805240294,-0.10894441079412455,2.4681110738645846,0.8264710866527425,1.2134413937687574,-0.2202432315892585,-0.0075118285948192216,-2.6038483821997875,-0.10888392708698907,2.4681821257803174,0.826474908251239,0.00047612108250840606,-0.0003581549555982557,-0.0002280672822734327,-0.0002246750337440105,-0.00026221221314922787,6.216397949707964e-05,0.0008110671670146889,0.0,0.0,0.0,0.0,0.0,0.0,0.0,-0.00030148801869311903,-0.0002056707137470526,-0.00015769592587073535,0.00036059832424184535,6.048370713547524e-05,7.105191573275604e-05,3.8215984965450644e-06,-0.00047612108250840606,0.0003581549555982557,0.0002280672822734327,0.0002246750337440105,0.00026221221314922787,-6.216397949707964e-05,-0.0008110671670146889,0.4505855441093445,19.844202041625977,0.4466826617717743,-20.181917190551758,-0.4983420968055725,-2.4758944511413574,0.22098104655742645,0
52,0.2550220489501953,-0.4505855441093445,-19.844202041625977,-0.4466826617717743,20.181917190551758,0.4983420968055725,2.4758944511413574,-0.22098104655742645,0.0,0.0,0.0,0.0,0.0,0.0,0.0,-0.41118980898876173,-0.11293036916081939,-0.23188092721119088,0.406241696104543,-0.08675029207014291,0.10826831683523334,-0.20398199884493748,1.2137428817874505,-0.22003756087551143,-0.007354132668948486,-2.6042089805240294,-0.10894441079412455,2.4681110738645846,0.8264710866527425,1.2134413937687574,-0.2202432315892585,-0.0075118285948192216,-2.6038483821997875,-0.10888392708698907,2.4681821257803174,0.826474908251239,0.00047612108250840606,-0.0003581549555982557,-0.0002280672822734327,-0.0002246750337440105,-0.00026221221314922787,6.216397949707964e-05,0.0008110671670146889,0.0,0.0,0.0,0.0,0.0,0.0,0.0,-0.00030148801869311903,-0.0002056707137470526,-0.00015769592587073535,0.00036059832424184535,6.048370713547524e-05,7.105191573275604e-05,3.8215984965450644e-06,-0.00047612108250840606,0.0003581549555982557,0.0002280672822734327,0.0002246750337440105,0.00026221221314922787,-6.216397949707964e-05,-0.0008110671670146889,0.4505855441093445,19.844202041625977,0.4466826617717743,-20.181917190551758,-0.4983420968055725,-2.4758944511413574,0.22098104655742645,0
53,0.2599964141845703,-0.4029781222343445,-19.891809463500977,-0.4704863727092743,20.205720901489258,0.4928489327430725,2.4758944511413574,-0.19351522624492645,0.0,0.0,0.0,0.0,0.0,0.0,0.0,-0.4102832616024002,-0.11948960337692792,-0.23190636241345186,0.40959276572160774,-0.08755011169673375,0.10832946223102062,-0.20398396944961664,1.2137395409157399,-0.22003387610996572,-0.007352462233093223,-2.6042119012341405,-0.10894391240920005,2.468107537377082,0.82646803489493,1.2134413937687574,-0.2202432315892585,-0.0075118285948192216,-2.6038483821997875,-0.10888392708698907,2.4681821257803174,0.826474908251239,-0.0007350928039469151,0.0007028239868885701,0.0005949226268635039,-0.00041598174970231986,0.00021689206705775754,0.00017536795265998736,-0.00010248245125143014,0.0,0.0,0.0,0.0,0.0,0.0,0.0,-0.0002981471469825081,-0.00020935547929276654,-0.0001593663617259983,0.00036351903435294375,5.998532221097863e-05,7.458840323515403e-05,6.8733563090006555e-06,0.0007350928039469151,-0.0007028239868885701,-0.0005949226268635039,0.00041598174970231986,-0.00021689206705775754,-0.00017536795265998736,0.00010248245125143014,0.4029781222343445,19.891809463500977,0.4704863727092743,-20.205720901489258,-0.4928489327430725,-2.4758944511413574,0.19351522624492645,0
54,0.26499176025390625,-0.4029781222343445,-19.891809463500977,-0.4704863727092743,20.205720901489258,0.4928489327430725,2.4758944511413574,-0.19351522624492645,0.0,0.0,0.0,0.0,0.0,0.0,0.0,-0.4102832616024002,-0.11948960337692792,-0.23190636241345186,0.40959276572160774,-0.08755011169673375,0.10832946223102062,-0.20398396944961664,1.2137395409157399,-0.22003387610996572,-0.007352462233093223,-2.6042119012341405,-0.10894391240920005,2.468107537377082,0.82646803489493,1.2134413937687574,-0.2202432315892585,-0.0075118285948192216,-2.6038483821997875,-0.10888392708698907,2.4681821257803174,0.826474908251239,-0.0007350928039469151,0.0007028239868885701,0.0005949226268635039,-0.00041598174970231986,0.00021689206705775754,0.00017536795265998736,-0.00010248245125143014,0.0,0.0,0.0,0.0,0.0,0.0,0.0,-0.0002981471469825081,-0.00020935547929276654,-0.0001593663617259983,0.00036351903435294375,5.998532221097863e-05,7.458840323515403e-05,6.8733563090006555e-06,0.0007350928039469151,-0.0007028239868885701,-0.0005949226268635039,0.00041598174970231986,-0.00021689206705775754,-0.00017536795265998736,0.00010248245125143014,0.4029781222343445,19.891809463500977,0.4704863727092743,-20.205720901489258,-0.4928489327430725,-2.4758944511413574,0.19351522624492645,0
55,0.269946813583374,-0.4029781222343445,-19.844202041625977,-0.4466826617717743,20.181917190551758,0.4983420968055725,2.4823031425476074,-0.17978231608867645,0.0,0.0,0.0,0.0,0.0,0.0,0.0,-0.4113097141472646,-0.11190082007752324,-0.23336688328068633,0.40640955443391114,-0.08818968773892136,0.10722430886402542,-0.20350866332641504,1.2137395409157399,-0.2200375591472096,-0.007354132668948486,-2.6042102389879602,-0.10894741432928028,2.468110361283328,0.8264665090160237,1.2134413937687574,-0.2202432315892585,-0.0075118285948192216,-2.6038483821997875,-0.10888392708698907,2.4681821257803174,0.826474908251239,-0.00023005048266385318,0.00019647556976342925,0.0003706846904747085,0.00012295714835301976,1.0289489981637001e-05,-0.00014946720443723542,-0.0006869265499898087,0.0,0.0,0.0,0.0,0.0,0.0,0.0,-0.0002981471469825081,-0.00020567244204888757,-0.00015769592587073535,0.0003618567881726875,6.348724229120195e-05,7.176449698942378e-05,8.399235215339473e-06,0.00023005048266385318,-0.00019647556976342925,-0.0003706846904747085,-0.00012295714835301976,-1.0289489981637001e-05,0.00014946720443723542,0.0006869265499898087,0.4029781222343445,19.844202041625977,0.4466826617717743,-20.181917190551758,-0.4983420968055725,-2.4823031425476074,0.17978231608867645,0
56,0.2750113010406494,-0.4029781222343445,-19.844202041625977,-0.4466826617717743,20.181917190551758,0.4983420968055725,2.4823031425476074,-0.17978231608867645,0.0,0.0,0.0,0.0,0.0,0.0,0.0,-0.4113097141472646,-0.11190082007752324,-0.23336688328068633,0.40640955443391114,-0.08818968773892136,0.10722430886402542,-0.20350866332641504,1.2137395409157399,-0.2200375591472096,-0.007354132668948486,-2.6042102389879602,-0.10894741432928028,2.468110361283328,0.8264665090160237,1.2134413937687574,-0.2202432315892585,-0.0075118285948192216,-2.6038483821997875,-0.10888392708698907,2.4681821257803174,0.826474908251239,-0.00023005048266385318,0.00019647556976342925,0.0003706846904747085,0.00012295714835301976,1.0289489981637001e-05,-0.00014946720443723542,-0.0006869265499898087,0.0,0.0,0.0,0.0,0.0,0.0,0.0,-0.0002981471469825081,-0.00020567244204888757,-0.00015769592587073535,0.0003618567881726875,6.348724229120195e-05,7.176449698942378e-05,8.399235215339473e-06,0.00023005048266385318,-0.00019647556976342925,-0.0003706846904747085,-0.00012295714835301976,-1.0289489981637001e-05,0.00014946720443723542,0.0006869265499898087,0.4029781222343445,19.844202041625977,0.4466826617717743,-20.181917190551758,-0.4983420968055725,-2.4823031425476074,0.17978231608867645,0
57,0.2800314426422119,-0.3752071261405945,-19.844202041625977,-0.4466826617717743,20.229524612426758,0.4983420968055725,2.4758944511413574,-0.17978231608867645,0.0,0.0,0.0,0.0,0.0,0.0,0.0,-0.4164737664831629,-0.11646927993732585,-0.2383002412813272,0.41142561385858634,-0.08796965532529001,0.10795019750517786,-0.20225949593846176,1.2137375920739089,-0.22003755039885348,-0.007354132668948486,-2.604213556164875,-0.10894440497096279,2.4681110737033225,0.8264665090160237,1.2134413937687574,-0.2202432315892585,-0.0075118285948192216,-2.6038483821997875,-0.10888392708698907,2.4681821257803174,0.826474908251239,-0.0008528282706631587,-6.498558694637197e-05,0.0003199527676844179,-0.0009633175028439173,1.4006653047039643e-06,5.508636883727474e-05,-0.00043079735495334825,0.0,0.0,0.0,0.0,0.0,0.0,0.0,-0.00029619830515148493,-0.00020568119040501043,-0.00015769592587073535,0.00036517396508761735,6.0477883973716895e-05,7.105207699487082e-05,8.399235215339473e-06,0.0008528282706631587,6.498558694637197e-05,-0.0003199527676844179,0.0009633175028439173,-1.4006653047039643e-06,-5.508636883727474e-05,0.00043079735495334825,0.3752071261405945,19.844202041625977,0.4466826617717743,-20.229524612426758,-0.4983420968055725,-2.4758944511413574,0.17978231608867645,0
58,0.28501319885253906,-0.3752071261405945,-19.844202041625977,-0.4466826617717743,20.229524612426758,0.4983420968055725,2.4758944511413574,-0.17978231608867645,0.0,0.0,0.0,0.0,0.0,0.0,0.0,-0.4164737664831629,-0.11646927993732585,-0.2383002412813272,0.41142561385858634,-0.08796965532529001,0.10795019750517786,-0.20225949593846176,1.2137375920739089,-0.22003755039885348,-0.007354132668948486,-2.604213556164875,-0.10894440497096279,2.4681110737033225,0.8264665090160237,1.2134413937687574,-0.2202432315892585,-0.0075118285948192216,-2.6038483821997875,-0.10888392708698907,2.4681821257803174,0.826474908251239,-0.0008528282706631587,-6.498558694637197e-05,0.0003199527676844179,-0.0009633175028439173,1.4006653047039643e-06,5.508636883727474e-05,-0.00043079735495334825,0.0,0.0,0.0,0.0,0.0,0.0,0.0,-0.00029619830515148493,-0.00020568119040501043,-0.00015769592587073535,0.00036517396508761735,6.0477883973716895e-05,7.105207699487082e-05,8.399235215339473e-06,0.0008528282706631587,6.498558694637197e-05,-0.0003199527676844179,0.0009633175028439173,-1.4006653047039643e-06,-5.508636883727474e-05,0.00043079735495334825,0.3752071261405945,19.844202041625977,0.4466826617717743,-20.229524612426758,-0.4983420968055725,-2.4758944511413574,0.17978231608867645,0
59,0.29001545906066895,-0.4505855441093445,-19.816431045532227,-0.4466826617717743,20.205720901489258,0.4928489327430725,2.4887118339538574,-0.18710653483867645,0.0,0.0,0.0,0.0,0.0,0.0,0.0,-0.41647147939340795,-0.11739093782661691,-0.2364049178784259,0.41564258846026053,-0.08745515219367903,0.1086535183208451,-0.20164413036123946,1.2137428817874505,-0.22003950993331423,-0.007354132668948486,-2.6042126012632205,-0.10894664782867958,2.468109643843148,0.8264673228181071,1.2134413937687574,-0.2202432315892585,-0.0075118285948192216,-2.6038483821997875,-0.10888392708698907,2.4681821257803174,0.826474908251239,0.0010276732747857998,-0.0009292348441727695,0.00042576110074653257,-5.012857405057656e-05,0.00020360625477647257,-0.00022295061298082953,-0.00046353572138432744,0.0,0.0,0.0,0.0,0.0,0.0,0.0,-0.00030148801869311903,-0.00020372165594426117,-0.00015769592587073535,0.00036421906343298005,6.27207416905029e-05,7.248193716957729e-05,7.585433131951369e-06,-0.0010276732747857998,0.0009292348441727695,-0.00042576110074653257,5.012857405057656e-05,-0.00020360625477647257,0.00022295061298082953,0.00046353572138432744,0.4505855441093445,19.816431045532227,0.4466826617717743,-20.205720901489258,-0.4928489327430725,-2.4887118339538574,0.18710653483867645,0
60,0.2949512004852295,-0.4505855441093445,-19.816431045532227,-0.4466826617717743,20.205720901489258,0.4928489327430725,2.4887118339538574,-0.18710653483867645,0.0,0.0,0.0,0.0,0.0,0.0,0.0,-0.41647147939340795,-0.11739093782661691,-0.2364049178784259,0.41564258846026053,-0.08745515219367903,0.1086535183208451,-0.20164413036123946,1.2137428817874505,-0.22003950993331423,-0.007354132668948486,-2.6042126012632205,-0.10894664782867958,2.468109643843148,0.8264673228181071,1.2134413937687574,-0.2202432315892585,-0.0075118285948192216,-2.6038483821997875,-0.10888392708698907,2.4681821257803174,0.826474908251239,0.0010276732747857998,-0.0009292348441727695,0.00042576110074653257,-5.012857405057656e-05,0.00020360625477647257,-0.00022295061298082953,-0.00046353572138432744,0.0,0.0,0.0,0.0,0.0,0.0,0.0,-0.00030148801869311903,-0.00020372165594426117,-0.00015769592587073535,0.00036421906343298005,6.27207416905029e-05,7.248193716957729e-05,7.585433131951369e-06,-0.0010276732747857998,0.0009292348441727695,-0.00042576110074653257,5.012857405057656e-05,-0.00020360625477647257,0.00022295061298082953,0.00046353572138432744,0.4505855441093445,19.816431045532227,0.4466826617717743,-20.205720901489258,-0.4928489327430725,-2.4887118339538574,0.18710653483867645,0
61,0.2999608516693115,-0.3752071261405945,-19.844202041625977,-0.3990752398967743,20.205720901489258,0.4928489327430725,2.4951205253601074,-0.16604940593242645,0.0,0.0,0.0,0.0,0.0,0.0,0.0,-0.4181280661715162,-0.11114339726354742,-0.23751041961939767,0.41164420604018603,-0.08752018834824252,0.10867197886482485,-0.20240128924310993,1.2137375920739089,-0.22003661721960652,-0.007357473540659013,-2.604212827776148,-0.10894347885542079,2.4681046423933517,0.8264649831371175,1.2134413937687574,-0.2202432315892585,-0.0075118285948192216,-2.6038483821997875,-0.10888392708698907,2.4681821257803174,0.826474908251239,-0.0010589747325473252,-0.0002258460039810185,-0.0010004680415351588,-0.0008416438538392974,-2.738897217282281e-05,-0.00034603229428583883,-0.0016753513652097512,0.0,0.0,0.0,0.0,0.0,0.0,0.0,-0.00029619830515148493,-0.00020661436965196955,-0.00015435505416020855,0.0003644455763605059,5.955176843171206e-05,7.748338696567103e-05,9.925114121567269e-06,0.0010589747325473252,0.0002258460039810185,0.0010004680415351588,0.0008416438538392974,2.738897217282281e-05,0.00034603229428583883,0.0016753513652097512,0.3752071261405945,19.844202041625977,0.3990752398967743,-20.205720901489258,-0.4928489327430725,-2.4951205253601074,0.16604940593242645,0
62,0.3049929141998291,-0.3752071261405945,-19.844202041625977,-0.3990752398967743,20.205720901489258,0.4928489327430725,2.4951205253601074,-0.16604940593242645,0.0,0.0,0.0,0.0,0.0,0.0,0.0,-0.4181280661715162,-0.11114339726354742,-0.23751041961939767,0.41164420604018603,-0.08752018834824252,0.10867197886482485,-0.20240128924310993,1.2137375920739089,-0.22003661721960652,-0.007357473540659013,-2.604212827776148,-0.10894347885542079,2.4681046423933517,0.8264649831371175,1.2134413937687574,-0.2202432315892585,-0.0075118285948192216,-2.6038483821997875,-0.10888392708698907,2.4681821257803174,0.826474908251239,-0.0010589747325473252,-0.0002258460039810185,-0.0010004680415351588,-0.0008416438538392974,-2.738897217282281e-05,-0.00034603229428583883,-0.0016753513652097512,0.0,0.0,0.0,0.0,0.0,0.0,0.0,-0.00029619830515148493,-0.00020661436965196955,-0.00015435505416020855,0.0003644455763605059,5.955176843171206e-05,7.748338696567103e-05,9.925114121567269e-06,0.0010589747325473252,0.0002258460039810185,0.0010004680415351588,0.0008416438538392974,2.738897217282281e-05,0.00034603229428583883,0.0016753513652097512,0.3752071261405945,19.844202041625977,0.3990752398967743,-20.205720901489258,-0.4928489327430725,-2.4951205253601074,0.16604940593242645,0
63,0.30999279022216797,-0.4029781222343445,-19.915613174438477,-0.4228789508342743,20.154146194458008,0.4983420968055725,2.4823031425476074,-0.22830526530742645,0.0,0.0,0.0,0.0,0.0,0.0,0.0,-0.4144031730967515,-0.12063697037824478,-0.23501579668755956,0.4173786563758206,-0.0880215751735683,0.11059066262639289,-0.20303015634943677,1.2137395409157399,-0.2200322883913832,-0.007355803104803749,-2.604206354585692,-0.1089472477940978,2.4681103597772007,0.8264719004548258,1.2134413937687574,-0.2202432315892585,-0.0075118285948192216,-2.6038483821997875,-0.10888392708698907,2.4681821257803174,0.826474908251239,-0.00031824626692783016,0.0009844155052118136,-3.981109491457849e-05,0.0007260524824847317,-7.143061412634655e-05,-4.878635772082563e-05,0.0008326321027291989,0.0,0.0,0.0,0.0,0.0,0.0,0.0,-0.0002981471469825081,-0.0002109431978752907,-0.00015602549001547238,0.0003579723859044037,6.33207071087244e-05,7.176600311664671e-05,3.0077964132679824e-06,0.00031824626692783016,-0.0009844155052118136,3.981109491457849e-05,-0.0007260524824847317,7.143061412634655e-05,4.878635772082563e-05,-0.0008326321027291989,0.4029781222343445,19.915613174438477,0.4228789508342743,-20.154146194458008,-0.4983420968055725,-2.4823031425476074,0.22830526530742645,0
64,0.3150160312652588,-0.4029781222343445,-19.915613174438477,-0.4228789508342743,20.154146194458008,0.4983420968055725,2.4823031425476074,-0.22830526530742645,0.0,0.0,0.0,0.0,0.0,0.0,0.0,-0.4144031730967515,-0.12063697037824478,-0.23501579668755956,0.4173786563758206,-0.0880215751735683,0.11059066262639289,-0.20303015634943677,1.2137395409157399,-0.2200322883913832,-0.007355803104803749,-2.604206354585692,-0.1089472477940978,2.4681103597772007,0.8264719004548258,1.2134413937687574,-0.2202432315892585,-0.0075118285948192216,-2.6038483821997875,-0.10888392708698907,2.4681821257803174,0.826474908251239,-0.00031824626692783016,0.0009844155052118136,-3.981109491457849e-05,0.0007260524824847317,-7.143061412634655e-05,-4.878635772082563e-05,0.0008326321027291989,0.0,0.0,0.0,0.0,0.0,0.0,0.0,-0.0002981471469825081,-0.0002109431978752907,-0.00015602549001547238,0.0003579723859044037,6.33207071087244e-05,7.176600311664671e-05,3.0077964132679824e-06,0.00031824626692783016,-0.0009844155052118136,3.981109491457849e-05,-0.0007260524824847317,7.143061412634655e-05,4.878635772082563e-05,-0.0008326321027291989,0.4029781222343445,19.915613174438477,0.4228789508342743,-20.154146194458008,-0.4983420968055725,-2.4823031425476074,0.22830526530742645,0
65,0.3200070858001709,-0.3752071261405945,-19.844202041625977,-0.4466826617717743,20.205720901489258,0.4928489327430725,2.4694857597351074,-0.19351522624492645,0.0,0.0,0.0,0.0,0.0,0.0,0.0,-0.41375002327160143,-0.11725874523136696,-0.23347824675615333,0.4151297168336089,-0.08821333143765121,0.11029711811137755,-0.2038048308363974,1.2137375920739089,-0.22003469814125512,-0.007354132668948486,-2.6042128224181584,-0.10894679587030695,2.4681117858878148,0.82646803489493,1.2134413937687574,-0.2202432315892585,-0.0075118285948192216,-2.6038483821997875,-0.10888392708698907,2.4681821257803174,0.826474908251239,-0.0006218902966498673,-0.0004382355348377515,0.0005167077606584624,-0.000321692867642825,0.00015296848364254167,0.0004009422468681152,0.00048597418194255853,0.0,0.0,0.0,0.0,0.0,0.0,0.0,-0.00029619830515148493,-0.00020853344800336737,-0.00015769592587073535,0.00036444021837089835,6.286878331787649e-05,7.03398925026022e-05,6.8733563090006555e-06,0.0006218902966498673,0.0004382355348377515,-0.0005167077606584624,0.000321692867642825,-0.00015296848364254167,-0.0004009422468681152,-0.00048597418194255853,0.3752071261405945,19.844202041625977,0.4466826617717743,-20.205720901489258,-0.4928489327430725,-2.4694857597351074,0.19351522624492645,0
66,0.32506608963012695,-0.3752071261405945,-19.844202041625977,-0.4466826617717743,20.205720901489258,0.4928489327430725,2.4694857597351074,-0.19351522624492645,0.0,0.0,0.0,0.0,0.0,0.0,0.0,-0.41375002327160143,-0.11725874523136696,-0.23347824675615333,0.4151297168336089,-0.08821333143765121,0.11029711811137755,-0.2038048308363974,1.2137375920739089,-0.22003469814125512,-0.007354132668948486,-2.6042128224181584,-0.10894679587030695,2.4681117858878148,0.82646803489493,1.2134413937687574,-0.2202432315892585,-0.0075118285948192216,-2.6038483821997875,-0.10888392708698907,2.4681821257803174,0.826474908251239,-0.0006218902966498673,-0.0004382355348377515,0.0005167077606584624,-0.000321692867642825,0.00015296848364254167,0.0004009422468681152,0.00048597418194255853,0.0,0.0,0.0,0.0,0.0,0.0,0.0,-0.00029619830515148493,-0.00020853344800336737,-0.00015769592587073535,0.00036444021837089835,6.286878331787649e-05,7.03398925026022e-05,6.8733563090006555e-06,0.0006218902966498673,0.0004382355348377515,-0.0005167077606584624,0.000321692867642825,-0.00015296848364254167,-0.0004009422468681152,-0.00048597418194255853,0.3752071261405945,19.844202041625977,0.4466826617717743,-20.205720901489258,-0.4928489327430725,-2.4694857597351074,0.19351522624492645,0
67,0.32999181747436523,-0.3752071261405945,-19.844202041625977,-0.4466826617717743,20.205720901489258,0.4928489327430725,2.4694857597351074,-0.19351522624492645,0.0,0.0,0.0,0.0,0.0,0.0,0.0,-0.41375002327160143,-0.11725874523136696,-0.23347824675615333,0.4151297168336089,-0.08821333143765121,0.11029711811137755,-0.2038048308363974,1.2137375920739089,-0.22003469814125512,-0.007354132668948486,-2.6042128224181584,-0.10894679587030695,2.4681117858878148,0.82646803489493,1.2134413937687574,-0.2202432315892585,-0.0075118285948192216,-2.6038483821997875,-0.10888392708698907,2.4681821257803174,0.826474908251239,-0.0006218902966498673,-0.0004382355348377515,0.0005167077606584624,-0.000321692867642825,0.00015296848364254167,0.0004009422468681152,0.00048597418194255853,0.0,0.0,0.0,0.0,0.0,0.0,0.0,-0.00029619830515148493,-0.00020853344800336737,-0.00015769592587073535,0.00036444021837089835,6.286878331787649e-05,7.03398925026022e-05,6.8733563090006555e-06,0.0006218902966498673,0.0004382355348377515,-0.0005167077606584624,0.000321692867642825,-0.00015296848364254167,-0.0004009422468681152,-0.00048597418194255853,0.3752071261405945,19.844202041625977,0.4466826617717743,-20.205720901489258,-0.4928489327430725,-2.4694857597351074,0.19351522624492645,0
68,0.33495664596557617,-0.3752071261405945,-19.844202041625977,-0.4466826617717743,20.205720901489258,0.4928489327430725,2.4694857597351074,-0.19351522624492645,0.0,0.0,0.0,0.0,0.0,0.0,0.0,-0.41375002327160143,-0.11725874523136696,-0.23347824675615333,0.4151297168336089,-0.08821333143765121,0.11029711811137755,-0.2038048308363974,1.2137375920739089,-0.22003469814125512,-0.007354132668948486,-2.6042128224181584,-0.10894679587030695,2.4681117858878148,0.82646803489493,1.2134413937687574,-0.2202432315892585,-0.0075118285948192216,-2.6038483821997875,-0.10888392708698907,2.4681821257803174,0.826474908251239,-0.0006218902966498673,-0.0004382355348377515,0.0005167077606584624,-0.000321692867642825,0.00015296848364254167,0.0004009422468681152,0.00048597418194255853,0.0,0.0,0.0,0.0,0.0,0.0,0.0,-0.00029619830515148493,-0.00020853344800336737,-0.00015769592587073535,0.00036444021837089835,6.286878331787649e-05,7.03398925026022e-05,6.8733563090006555e-06,0.0006218902966498673,0.0004382355348377515,-0.0005167077606584624,0.000321692867642825,-0.00015296848364254167,-0.0004009422468681152,-0.00048597418194255853,0.3752071261405945,19.844202041625977,0.4466826617717743,-20.205720901489258,-0.4928489327430725,-2.4694857597351074,0.19351522624492645,0
69,0.3399956226348877,-0.3752071261405945,-19.844202041625977,-0.4466826617717743,20.205720901489258,0.4928489327430725,2.4694857597351074,-0.19351522624492645,0.0,0.0,0.0,0.0,0.0,0.0,0.0,-0.41375002327160143,-0.11725874523136696,-0.23347824675615333,0.4151297168336089,-0.08821333143765121,0.11029711811137755,-0.2038048308363974,1.2137375920739089,-0.22003469814125512,-0.007354132668948486,-2.6042128224181584,-0.10894679587030695,2.4681117858878148,0.82646803489493,1.2134413937687574,-0.2202432315892585,-0.0075118285948192216,-2.6038483821997875,-0.10888392708698907,2.4681821257803174,0.826474908251239,-0.0006218902966498673,-0.0004382355348377515,0.0005167077606584624,-0.000321692867642825,0.00015296848364254167,0.0004009422468681152,0.00048597418194255853,0.0,0.0,0.0,0.0,0.0,0.0,0.0,-0.00029619830515148493,-0.00020853344800336737,-0.00015769592587073535,0.00036444021837089835,6.286878331787649e-05,7.03398925026022e-05,6.8733563090006555e-06,0.0006218902966498673,0.0004382355348377515,-0.0005167077606584624,0.000321692867642825,-0.00015296848364254167,-0.0004009422468681152,-0.00048597418194255853,0.3752071261405945,19.844202041625977,0.4466826617717743,-20.205720901489258,-0.4928489327430725,-2.4694857597351074,0.19351522624492645,0
70,0.34502339363098145,-0.4029781222343445,-19.891809463500977,-0.4228789508342743,20.154146194458008,0.4928489327430725,2.4823031425476074,-0.19351522624492645,0.0,0.0,0.0,0.0,0.0,0.0,0.0,-0.40973686165668777,-0.12327379316908003,-0.22659749618561895,0.4149615243003807,-0.08890009971971234,0.11026021532841382,-0.2031388360680629,1.2137395409157399,-0.22003421999118225,-0.007355803104803749,-2.6042089046085906,-0.10894663307954475,2.468110242112368,0.82646803489493,1.2134413937687574,-0.2202432315892585,-0.0075118285948192216,-2.6038483821997875,-0.10888392708698907,2.4681821257803174,0.826474908251239,9.748358407735514e-06,0.0003367073081849398,-8.498986259393111e-05,0.0004275427336326843,0.00014469388297150564,6.577575913276663e-05,-0.0001409208363615235,0.0,0.0,0.0,0.0,0.0,0.0,0.0,-0.0002981471469825081,-0.00020901159807623637,-0.00015602549001547238,0.0003605224088030212,6.270599255567277e-05,7.188366794919077e-05,6.8733563090006555e-06,-9.748358407735514e-06,-0.0003367073081849398,8.498986259393111e-05,-0.0004275427336326843,-0.00014469388297150564,-6.577575913276663e-05,0.0001409208363615235,0.4029781222343445,19.891809463500977,0.4228789508342743,-20.154146194458008,-0.4928489327430725,-2.4823031425476074,0.19351522624492645,0
71,0.34999823570251465,-0.4029781222343445,-19.891809463500977,-0.4228789508342743,20.154146194458008,0.4928489327430725,2.4823031425476074,-0.19351522624492645,0.0,0.0,0.0,0.0,0.0,0.0,0.0,-0.40973686165668777,-0.12327379316908003,-0.22659749618561895,0.4149615243003807,-0.08890009971971234,0.11026021532841382,-0.2031388360680629,1.2137395409157399,-0.22003421999118225,-0.007355803104803749,-2.6042089046085906,-0.10894663307954475,2.468110242112368,0.82646803489493,1.2134413937687574,-0.2202432315892585,-0.0075118285948192216,-2.6038483821997875,-0.10888392708698907,2.4681821257803174,0.826474908251239,9.748358407735514e-06,0.0003367073081849398,-8.498986259393111e-05,0.0004275427336326843,0.00014469388297150564,6.577575913276663e-05,-0.0001409208363615235,0.0,0.0,0.0,0.0,0.0,0.0,0.0,-0.0002981471469825081,-0.00020901159807623637,-0.00015602549001547238,0.0003605224088030212,6.270599255567277e-05,7.188366794919077e-05,6.8733563090006555e-06,-9.748358407735514e-06,-0.0003367073081849398,8.498986259393111e-05,-0.0004275427336326843,-0.00014469388297150564,-6.577575913276663e-05,0.0001409208363615235,0.4029781222343445,19.891809463500977,0.4228789508342743,-20.154146194458008,-0.4928489327430725,-2.4823031425476074,0.19351522624492645,0
72,0.3549957275390625,-0.4505855441093445,-19.844202041625977,-0.4466826617717743,20.229524612426758,0.5047507882118225,2.4823031425476074,-0.17978231608867645,0.0,0.0,0.0,0.0,0.0,0.0,0.0,-0.418682389512451,-0.12064456552406294,-0.23790534598761656,0.4146465669797665,-0.08847968788453767,0.11033905238878736,-0.20188706608588727,1.2137428817874505,-0.22003540905488542,-0.007354132668948486,-2.6042145001011816,-0.1089479615109056,2.4681103486515448,0.8264665090160237,1.2134413937687574,-0.2202432315892585,-0.0075118285948192216,-2.6038483821997875,-0.10888392708698907,2.4681821257803174,0.826474908251239,0.000460242355961095,-0.0003801113355954028,-8.781087229168727e-05,-0.0009340264955724926,-0.00030684391276099667,-6.794418365870019e-05,-0.001166902363871431,0.0,0.0,0.0,0.0,0.0,0.0,0.0,-0.00030148801869311903,-0.00020782253437306997,-0.00015769592587073535,0.00036611790139406963,6.403442391653136e-05,7.177712877259879e-05,8.399235215339473e-06,-0.000460242355961095,0.0003801113355954028,8.781087229168727e-05,0.0009340264955724926,0.00030684391276099667,6.794418365870019e-05,0.001166902363871431,0.4505855441093445,19.844202041625977,0.4466826617717743,-20.229524612426758,-0.5047507882118225,-2.4823031425476074,0.17978231608867645,0
73,0.3599967956542969,-0.4505855441093445,-19.844202041625977,-0.4466826617717743,20.229524612426758,0.5047507882118225,2.4823031425476074,-0.17978231608867645,0.0,0.0,0.0,0.0,0.0,0.0,0.0,-0.418682389512451,-0.12064456552406294,-0.23790534598761656,0.4146465669797665,-0.08847968788453767,0.11033905238878736,-0.20188706608588727,1.2137428817874505,-0.22003540905488542,-0.007354132668948486,-2.6042145001011816,-0.1089479615109056,2.4681103486515448,0.8264665090160237,1.2134413937687574,-0.2202432315892585,-0.0075118285948192216,-2.6038483821997875,-0.10888392708698907,2.4681821257803174,0.826474908251239,0.000460242355961095,-0.0003801113355954028,-8.781087229168727e-05,-0.0009340264955724926,-0.00030684391276099667,-6.794418365870019e-05,-0.001166902363871431,0.0,0.0,0.0,0.0,0.0,0.0,0.0,-0.00030148801869311903,-0.00020782253437306997,-0.00015769592587073535,0.00036611790139406963,6.403442391653136e-05,7.177712877259879e-05,8.399235215339473e-06,-0.000460242355961095,0.0003801113355954028,8.781087229168727e-05,0.0009340264955724926,0.00030684391276099667,6.794418365870019e-05,0.001166902363871431,0.4505855441093445,19.844202041625977,0.4466826617717743,-20.229524612426758,-0.5047507882118225,-2.4823031425476074,0.17978231608867645,0
74,0.36499953269958496,-0.4505855441093445,-19.844202041625977,-0.4466826617717743,20.229524612426758,0.5047507882118225,2.4823031425476074,-0.17978231608867645,0.0,0.0,0.0,0.0,0.0,0.0,0.0,-0.418682389512451,-0.12064456552406294,-0.23790534598761656,0.4146465669797665,-0.08847968788453767,0.11033905238878736,-0.20188706608588727,1.2137428817874505,-0.22003540905488542,-0.007354132668948486,-2.6042145001011816,-0.1089479615109056,2.4681103486515448,0.8264665090160237,1.2134413937687574,-0.2202432315892585,-0.0075118285948192216,-2.6038483821997875,-0.10888392708698907,2.4681821257803174,0.826474908251239,0.000460242355961095,-0.0003801113355954028,-8.781087229168727e-05,-0.0009340264955724926,-0.00030684391276099667,-6.794418365870019e-05,-0.001166902363871431,0.0,0.0,0.0,0.0,0.0,0.0,0.0,-0.00030148801869311903,-0.00020782253437306997,-0.00015769592587073535,0.00036611790139406963,6.403442391653136e-05,7.177712877259879e-05,8.399235215339473e-06,-0.000460242355961095,0.0003801113355954028,8.781087229168727e-05,0.0009340264955724926,0.00030684391276099667,6.794418365870019e-05,0.001166902363871431,0.4505855441093445,19.844202041625977,0.4466826617717743,-20.229524612426758,-0.5047507882118225,-2.4823031425476074,0.17978231608867645,0
75,0.3699915409088135,-0.4505855441093445,-19.844202041625977,-0.4466826617717743,20.229524612426758,0.5047507882118225,2.4823031425476074,-0.17978231608867645,0.0,0.0,0.0,0.0,0.0,0.0,0.0,-0.418682389512451,-0.12064456552406294,-0.23790534598761656,0.4146465669797665,-0.08847968788453767,0.11033905238878736,-0.20188706608588727,1.2137428817874505,-0.22003540905488542,-0.007354132668948486,-2.6042145001011816,-0.1089479615109056,2.4681103486515448,0.8264665090160237,1.2134413937687574,-0.2202432315892585,-0.0075118285948192216,-2.6038483821997875,-0.10888392708698907,2.4681821257803174,0.826474908251239,0.000460242355961095,-0.0003801113355954028,-8.781087229168727e-05,-0.0009340264955724926,-0.00030684391276099667,-6.794418365870019e-05,-0.001166902363871431,0.0,0.0,0.0,0.0,0.0,0.0,0.0,-0.00030148801869311903,-0.00020782253437306997,-0.00015769592587073535,0.00036611790139406963,6.403442391653136e-05,7.177712877259879e-05,8.399235215339473e-06,-0.000460242355961095,0.0003801113355954028,8.781087229168727e-05,0.0009340264955724926,0.00030684391276099667,6.794418365870019e-05,0.001166902363871431,0.4505855441093445,19.844202041625977,0.4466826617717743,-20.229524612426758,-0.5047507882118225,-2.4823031425476074,0.17978231608867645,0
76,0.37500667572021484,-0.5021602511405945,-19.868005752563477,-0.4704863727092743,20.181917190551758,0.5047507882118225,2.4694857597351074,-0.22098104655742645,0.0,0.0,0.0,0.0,0.0,0.0,0.0,-0.43877183773878176,-0.12247577660792991,-0.2612962755666867,0.41252076431747325,-0.08760876644126979,0.10954240728743153,-0.20189723466316806,1.213746501065137,-0.22003373957894484,-0.007352462233093223,-2.604210437643095,-0.10894489334076143,2.4681107247960647,0.8264710866527425,1.2134413937687574,-0.2202432315892585,-0.0075118285948192216,-2.6038483821997875,-0.10888392708698907,2.4681821257803174,0.826474908251239,0.0011387093404489396,-0.0001752787604891888,0.0038495246026720087,-0.0002606701257917056,-0.000258289825585949,0.00042614624957716554,0.0006671016271536201,0.0,0.0,0.0,0.0,0.0,0.0,0.0,-0.0003051072963795587,-0.0002094920103136444,-0.0001593663617259983,0.00036205544330725203,6.096625377235987e-05,7.140098425262309e-05,3.8215984965450644e-06,-0.0011387093404489396,0.0001752787604891888,-0.0038495246026720087,0.0002606701257917056,0.000258289825585949,-0.00042614624957716554,-0.0006671016271536201,0.5021602511405945,19.868005752563477,0.4704863727092743,-20.181917190551758,-0.5047507882118225,-2.4694857597351074,0.22098104655742645,0
77,0.3800513744354248,-0.5021602511405945,-19.868005752563477,-0.4704863727092743,20.181917190551758,0.5047507882118225,2.4694857597351074,-0.22098104655742645,0.0,0.0,0.0,0.0,0.0,0.0,0.0,-0.43877183773878176,-0.12247577660792991,-0.2612962755666867,0.41252076431747325,-0.08760876644126979,0.10954240728743153,-0.20189723466316806,1.213746501065137,-0.22003373957894484,-0.007352462233093223,-2.604210437643095,-0.10894489334076143,2.4681107247960647,0.8264710866527425,1.2134413937687574,-0.2202432315892585,-0.0075118285948192216,-2.6038483821997875,-0.10888392708698907,2.4681821257803174,0.826474908251239,0.0011387093404489396,-0.0001752787604891888,0.0038495246026720087,-0.0002606701257917056,-0.000258289825585949,0.00042614624957716554,0.0006671016271536201,0.0,0.0,0.0,0.0,0.0,0.0,0.0,-0.0003051072963795587,-0.0002094920103136444,-0.0001593663617259983,0.00036205544330725203,6.096625377235987e-05,7.140098425262309e-05,3.8215984965450644e-06,-0.0011387093404489396,0.0001752787604891888,-0.0038495246026720087,0.0002606701257917056,0.000258289825585949,-0.00042614624957716554,-0.0006671016271536201,0.5021602511405945,19.868005752563477,0.4704863727092743,-20.181917190551758,-0.5047507882118225,-2.4694857597351074,0.22098104655742645,0
78,0.38500475883483887,-0.4267818331718445,-19.868005752563477,-0.4466826617717743,20.229524612426758,0.4928489327430725,2.4694857597351074,-0.22098104655742645,0.0,0.0,0.0,0.0,0.0,0.0,0.0,-0.4313411843614637,-0.1214437778099876,-0.25223550904287817,0.4089937087302464,-0.08796868421468483,0.1091264281152117,-0.20163479627757713,1.2137412113515953,-0.22003565439654335,-0.007354132668948486,-2.6042116413208127,-0.1089448594226828,2.468111301903432,0.8264710866527425,1.2134413937687574,-0.2202432315892585,-0.0075118285948192216,-2.6038483821997875,-0.10888392708698907,2.4681821257803174,0.826474908251239,-0.00016744790953569262,0.00027065105660927294,0.000598644875494114,-0.0014926121766420813,5.824878381791192e-05,0.0003033246873586901,0.0010867678522421852,0.0,0.0,0.0,0.0,0.0,0.0,0.0,-0.0002998175828379246,-0.00020757719271513597,-0.00015769592587073535,0.00036325912102519453,6.093233569372247e-05,7.082387688539526e-05,3.8215984965450644e-06,0.00016744790953569262,-0.00027065105660927294,-0.000598644875494114,0.0014926121766420813,-5.824878381791192e-05,-0.0003033246873586901,-0.0010867678522421852,0.4267818331718445,19.868005752563477,0.4466826617717743,-20.229524612426758,-0.4928489327430725,-2.4694857597351074,0.22098104655742645,0
79,0.38999009132385254,-0.4267818331718445,-19.868005752563477,-0.4466826617717743,20.229524612426758,0.4928489327430725,2.4694857597351074,-0.22098104655742645,0.0,0.0,0.0,0.0,0.0,0.0,0.0,-0.4313411843614637,-0.1214437778099876,-0.25223550904287817,0.4089937087302464,-0.08796868421468483,0.1091264281152117,-0.20163479627757713,1.2137412113515953,-0.22003565439654335,-0.007354132668948486,-2.6042116413208127,-0.1089448594226828,2.468111301903432,0.8264710866527425,1.2134413937687574,-0.2202432315892585,-0.0075118285948192216,-2.6038483821997875,-0.10888392708698907,2.4681821257803174,0.826474908251239,-0.00016744790953569262,0.00027065105660927294,0.000598644875494114,-0.0014926121766420813,5.824878381791192e-05,0.0003033246873586901,0.0010867678522421852,0.0,0.0,0.0,0.0,0.0,0.0,0.0,-0.0002998175828379246,-0.00020757719271513597,-0.00015769592587073535,0.00036325912102519453,6.093233569372247e-05,7.082387688539526e-05,3.8215984965450644e-06,0.00016744790953569262,-0.00027065105660927294,-0.000598644875494114,0.0014926121766420813,-5.824878381791192e-05,-0.0003033246873586901,-0.0010867678522421852,0.4267818331718445,19.868005752563477,0.4466826617717743,-20.229524612426758,-0.4928489327430725,-2.4694857597351074,0.22098104655742645,0
