rezayati/contactInterpretation/dataset/franka_main/labeled_data/link7/a3_6.csv
index,time,tau_J0,tau_J1,tau_J2,tau_J3,tau_J4,tau_J5,tau_J6,tau_J_d0,tau_J_d1,tau_J_d2,tau_J_d3,tau_J_d4,tau_J_d5,tau_J_d6,tau_ext0,tau_ext1,tau_ext2,tau_ext3,tau_ext4,tau_ext5,tau_ext6,q0,q1,q2,q3,q4,q5,q6,q_d0,q_d1,q_d2,q_d3,q_d4,q_d5,q_d6,dq0,dq1,dq2,dq3,dq4,dq5,dq6,dq_d0,dq_d1,dq_d2,dq_d3,dq_d4,dq_d5,dq_d6,e0,e1,e2,e3,e4,e5,e6,de0,de1,de2,de3,de4,de5,de6,etau_J0,etau_J1,etau_J2,etau_J3,etau_J4,etau_J5,etau_J6,label
1,0.0,0.03342324495315552,-18.154138565063477,1.1164276599884033,18.269685745239258,0.4150291085243225,2.3202548027038574,-0.23471395671367645,0.0,0.0,0.0,0.0,0.0,0.0,0.0,0.09599770973643268,0.5001209947500465,0.2811026869066128,0.628031669315531,-0.014353581062794104,0.13316937133177906,-0.2343750856946678,-0.6091311187046525,-0.057515841117553534,-0.6665706291450205,-2.5946782700388056,-0.05574287899077063,2.5078632075521683,0.8763222419338093,-0.6090851748156966,-0.05753196718556838,-0.666603097082616,-2.5945565370258534,-0.05562143941554,2.507976027223799,0.8763108487046415,0.0008500376731551079,-0.0010515590185402335,-0.0006847195290678679,-0.000404203804848348,-0.00013032181065720044,0.0004066712125885235,-0.0005319851834065648,0.0,0.0,0.0,0.0,0.0,0.0,0.0,4.5943888955957135e-05,-1.612606801484895e-05,-3.246793759548172e-05,0.00012173301295215211,0.00012143957523062798,0.00011281967163068174,-1.1393229167766528e-05,-0.0008500376731551079,0.0010515590185402335,0.0006847195290678679,0.000404203804848348,0.00013032181065720044,-0.0004066712125885235,0.0005319851834065648,-0.03342324495315552,18.154138565063477,-1.1164276599884033,-18.269685745239258,-0.4150291085243225,-2.3202548027038574,0.23471395671367645,0
2,0.005001544952392578,0.08103066682815552,-18.205713272094727,1.0926239490509033,18.222078323364258,0.4150291085243225,2.3138461112976074,-0.26858848333358765,0.0,0.0,0.0,0.0,0.0,0.0,0.0,0.08903374026081132,0.4900257652200975,0.2774479557165946,0.6289346167240621,-0.014377789906515238,0.13474485634212988,-0.234101649332546,-0.6091335059168514,-0.057512221839867136,-0.6665692834867476,-2.594674937670364,-0.05574287850858512,2.507863919628991,0.8763260057701003,-0.6090851748156966,-0.05753196718556838,-0.666603097082616,-2.5945565370258534,-0.05562143941554,2.507976027223799,0.8763108487046415,4.749959013201851e-05,0.00017311100425095765,-0.0004865914221229242,0.00035720164826494425,-0.00010588540701275731,2.3428536422371634e-05,0.0013573999354604116,0.0,0.0,0.0,0.0,0.0,0.0,0.0,4.833110115487482e-05,-1.9745345701246975e-05,-3.381359586840382e-05,0.00011840064451051902,0.00012143909304512118,0.00011210759480784205,-1.5157065458848429e-05,-4.749959013201851e-05,-0.00017311100425095765,0.0004865914221229242,-0.00035720164826494425,0.00010588540701275731,-2.3428536422371634e-05,-0.0013573999354604116,-0.08103066682815552,18.205713272094727,-1.0926239490509033,-18.222078323364258,-0.4150291085243225,-2.3138461112976074,0.26858848333358765,0
3,0.010001659393310547,0.08103066682815552,-18.205713272094727,1.0926239490509033,18.222078323364258,0.4150291085243225,2.3138461112976074,-0.26858848333358765,0.0,0.0,0.0,0.0,0.0,0.0,0.0,0.08903374026081132,0.4900257652200975,0.2774479557165946,0.6289346167240621,-0.014377789906515238,0.13474485634212988,-0.234101649332546,-0.6091335059168514,-0.057512221839867136,-0.6665692834867476,-2.594674937670364,-0.05574287850858512,2.507863919628991,0.8763260057701003,-0.6090851748156966,-0.05753196718556838,-0.666603097082616,-2.5945565370258534,-0.05562143941554,2.507976027223799,0.8763108487046415,4.749959013201851e-05,0.00017311100425095765,-0.0004865914221229242,0.00035720164826494425,-0.00010588540701275731,2.3428536422371634e-05,0.0013573999354604116,0.0,0.0,0.0,0.0,0.0,0.0,0.0,4.833110115487482e-05,-1.9745345701246975e-05,-3.381359586840382e-05,0.00011840064451051902,0.00012143909304512118,0.00011210759480784205,-1.5157065458848429e-05,-4.749959013201851e-05,-0.00017311100425095765,0.0004865914221229242,-0.00035720164826494425,0.00010588540701275731,-2.3428536422371634e-05,-0.0013573999354604116,-0.08103066682815552,18.205713272094727,-1.0926239490509033,-18.222078323364258,-0.4150291085243225,-2.3138461112976074,0.26858848333358765,0
4,0.01500082015991211,0.03342324495315552,-18.130334854125977,1.0926239490509033,18.222078323364258,0.4214377999305725,2.3202548027038574,-0.26217979192733765,0.0,0.0,0.0,0.0,0.0,0.0,0.0,0.07762035220698485,0.4889242155948761,0.266284893912146,0.6262073331200685,-0.013435484200312871,0.13321237572799646,-0.23373501680677744,-0.6091301650289903,-0.05751750279463298,-0.6665692015446858,-2.594674932001566,-0.05574324704139485,2.5078632075521683,0.8763252936932775,-0.6090851748156966,-0.05753196718556838,-0.666603097082616,-2.5945565370258534,-0.05562143941554,2.507976027223799,0.8763108487046415,0.00034706397706931185,-0.0008259761811296782,-0.0007933666578230788,0.00027809893655812625,-0.0005012902188108585,-0.0005303489156831472,0.0015913309897850497,0.0,0.0,0.0,0.0,0.0,0.0,0.0,4.4990213293738535e-05,-1.4464390935400862e-05,-3.389553793020639e-05,0.00011839497571264346,0.00012180762585484867,0.00011281967163068174,-1.4444988636008738e-05,-0.00034706397706931185,0.0008259761811296782,0.0007933666578230788,-0.00027809893655812625,0.0005012902188108585,0.0005303489156831472,-0.0015913309897850497,-0.03342324495315552,18.130334854125977,-1.0926239490509033,-18.222078323364258,-0.4214377999305725,-2.3202548027038574,0.26217979192733765,0
5,0.01999950408935547,0.03342324495315552,-18.130334854125977,1.0926239490509033,18.222078323364258,0.4214377999305725,2.3202548027038574,-0.26217979192733765,0.0,0.0,0.0,0.0,0.0,0.0,0.0,0.07762035220698485,0.4889242155948761,0.266284893912146,0.6262073331200685,-0.013435484200312871,0.13321237572799646,-0.23373501680677744,-0.6091301650289903,-0.05751750279463298,-0.6665692015446858,-2.594674932001566,-0.05574324704139485,2.5078632075521683,0.8763252936932775,-0.6090851748156966,-0.05753196718556838,-0.666603097082616,-2.5945565370258534,-0.05562143941554,2.507976027223799,0.8763108487046415,0.00034706397706931185,-0.0008259761811296782,-0.0007933666578230788,0.00027809893655812625,-0.0005012902188108585,-0.0005303489156831472,0.0015913309897850497,0.0,0.0,0.0,0.0,0.0,0.0,0.0,4.4990213293738535e-05,-1.4464390935400862e-05,-3.389553793020639e-05,0.00011839497571264346,0.00012180762585484867,0.00011281967163068174,-1.4444988636008738e-05,-0.00034706397706931185,0.0008259761811296782,0.0007933666578230788,-0.00027809893655812625,0.0005012902188108585,0.0005303489156831472,-0.0015913309897850497,-0.03342324495315552,18.130334854125977,-1.0926239490509033,-18.222078323364258,-0.4214377999305725,-2.3202548027038574,0.26217979192733765,0
6,0.025009870529174805,0.08103066682815552,-18.130334854125977,1.0926239490509033,18.222078323364258,0.4269309639930725,2.3330721855163574,-0.21457235515117645,0.0,0.0,0.0,0.0,0.0,0.0,0.0,0.08073942643378476,0.4882950992609345,0.2714556918689491,0.6270326135522539,-0.01364322184960827,0.13264901236059823,-0.23334258505818936,-0.6091335059007009,-0.05751751155335935,-0.6665689587104853,-2.5946751587553725,-0.05574424087222933,2.507861783398522,0.8763200039780801,-0.6090851748156966,-0.05753196718556838,-0.666603097082616,-2.5945565370258534,-0.05562143941554,2.507976027223799,0.8763108487046415,-0.0004769473588187179,-0.000558845640398895,-0.0005505571569004575,0.0008743411775816945,-0.0007032560656627432,-0.00040304002975457507,-0.0005575129734069548,0.0,0.0,0.0,0.0,0.0,0.0,0.0,4.833108500434946e-05,-1.4455632209031677e-05,-3.413837213073201e-05,0.00011862172951904171,0.00012280145668933096,0.00011424382527680521,-9.155273438588019e-06,0.0004769473588187179,0.000558845640398895,0.0005505571569004575,-0.0008743411775816945,0.0007032560656627432,0.00040304002975457507,0.0005575129734069548,-0.08103066682815552,18.130334854125977,-1.0926239490509033,-18.222078323364258,-0.4269309639930725,-2.3330721855163574,0.21457235515117645,0
7,0.030009746551513672,0.08103066682815552,-18.130334854125977,1.0926239490509033,18.222078323364258,0.4269309639930725,2.3330721855163574,-0.21457235515117645,0.0,0.0,0.0,0.0,0.0,0.0,0.0,0.08073942643378476,0.4882950992609345,0.2714556918689491,0.6270326135522539,-0.01364322184960827,0.13264901236059823,-0.23334258505818936,-0.6091335059007009,-0.05751751155335935,-0.6665689587104853,-2.5946751587553725,-0.05574424087222933,2.507861783398522,0.8763200039780801,-0.6090851748156966,-0.05753196718556838,-0.666603097082616,-2.5945565370258534,-0.05562143941554,2.507976027223799,0.8763108487046415,-0.0004769473588187179,-0.000558845640398895,-0.0005505571569004575,0.0008743411775816945,-0.0007032560656627432,-0.00040304002975457507,-0.0005575129734069548,0.0,0.0,0.0,0.0,0.0,0.0,0.0,4.833108500434946e-05,-1.4455632209031677e-05,-3.413837213073201e-05,0.00011862172951904171,0.00012280145668933096,0.00011424382527680521,-9.155273438588019e-06,0.0004769473588187179,0.000558845640398895,0.0005505571569004575,-0.0008743411775816945,0.0007032560656627432,0.00040304002975457507,0.0005575129734069548,-0.08103066682815552,18.130334854125977,-1.0926239490509033,-18.222078323364258,-0.4269309639930725,-2.3330721855163574,0.21457235515117645,0
8,0.03495359420776367,0.08103066682815552,-18.130334854125977,1.0688202381134033,18.269685745239258,0.4031272530555725,2.3074374198913574,-0.22098104655742645,0.0,0.0,0.0,0.0,0.0,0.0,0.0,0.0825848968605302,0.4952141541646157,0.2729200741382379,0.6261653282723072,-0.0132991056197109,0.13446320413697163,-0.23277328819700954,-0.6091335062640885,-0.0575175115534088,-0.6665672882732592,-2.5946783475143294,-0.055737895226207604,2.507864631705814,0.876320716054903,-0.6090851748156966,-0.05753196718556838,-0.666603097082616,-2.5945565370258534,-0.05562143941554,2.507976027223799,0.8763108487046415,0.0004142708597707942,-0.0003606105397644632,0.0007958915512921291,-0.00035017071692070516,0.0004505908631301017,0.0003368456521443592,-0.0009501459115869586,0.0,0.0,0.0,0.0,0.0,0.0,0.0,4.833144839189174e-05,-1.4455632159585119e-05,-3.580880935682984e-05,0.00012181048847592635,0.00011645581066760391,0.00011139551798500236,-9.867350261538732e-06,-0.0004142708597707942,0.0003606105397644632,-0.0007958915512921291,0.00035017071692070516,-0.0004505908631301017,-0.0003368456521443592,0.0009501459115869586,-0.08103066682815552,18.130334854125977,-1.0688202381134033,-18.269685745239258,-0.4031272530555725,-2.3074374198913574,0.22098104655742645,0
9,0.04000735282897949,0.08103066682815552,-18.130334854125977,1.0688202381134033,18.269685745239258,0.4031272530555725,2.3074374198913574,-0.22098104655742645,0.0,0.0,0.0,0.0,0.0,0.0,0.0,0.0825848968605302,0.4952141541646157,0.2729200741382379,0.6261653282723072,-0.0132991056197109,0.13446320413697163,-0.23277328819700954,-0.6091335062640885,-0.0575175115534088,-0.6665672882732592,-2.5946783475143294,-0.055737895226207604,2.507864631705814,0.876320716054903,-0.6090851748156966,-0.05753196718556838,-0.666603097082616,-2.5945565370258534,-0.05562143941554,2.507976027223799,0.8763108487046415,0.0004142708597707942,-0.0003606105397644632,0.0007958915512921291,-0.00035017071692070516,0.0004505908631301017,0.0003368456521443592,-0.0009501459115869586,0.0,0.0,0.0,0.0,0.0,0.0,0.0,4.833144839189174e-05,-1.4455632159585119e-05,-3.580880935682984e-05,0.00012181048847592635,0.00011645581066760391,0.00011139551798500236,-9.867350261538732e-06,-0.0004142708597707942,0.0003606105397644632,-0.0007958915512921291,0.00035017071692070516,-0.0004505908631301017,-0.0003368456521443592,0.0009501459115869586,-0.08103066682815552,18.130334854125977,-1.0688202381134033,-18.269685745239258,-0.4031272530555725,-2.3074374198913574,0.22098104655742645,0
10,0.04500102996826172,0.13260537385940552,-18.154138565063477,1.1441986560821533,18.269685745239258,0.4150291085243225,2.3138461112976074,-0.26858848333358765,0.0,0.0,0.0,0.0,0.0,0.0,0.0,0.08987532569539503,0.4980461948093345,0.2800077571142753,0.6263784457263669,-0.013049465174152711,0.13432930268969523,-0.23413290883297233,-0.6091371252874055,-0.057515841117553534,-0.6665726059676431,-2.5946789597488347,-0.055739218933821895,2.507863919628991,0.8763260057701003,-0.6090851748156966,-0.05753196718556838,-0.666603097082616,-2.5945565370258534,-0.05562143941554,2.507976027223799,0.8763108487046415,-0.00024638844098875024,-0.0004042977585384974,-0.00026699968911421076,-0.0007798421170017689,-0.00025564993359191785,-7.367376560840023e-05,0.0014464392868975883,0.0,0.0,0.0,0.0,0.0,0.0,0.0,5.195047170891698e-05,-1.612606801484895e-05,-3.0491114972885924e-05,0.00012242272298124135,0.00011777951828189498,0.00011210759480784205,-1.5157065458848429e-05,0.00024638844098875024,0.0004042977585384974,0.00026699968911421076,0.0007798421170017689,0.00025564993359191785,7.367376560840023e-05,-0.0014464392868975883,-0.13260537385940552,18.154138565063477,-1.1441986560821533,-18.269685745239258,-0.4150291085243225,-2.3138461112976074,0.26858848333358765,0
11,0.04999804496765137,0.13260537385940552,-18.154138565063477,1.1441986560821533,18.269685745239258,0.4150291085243225,2.3138461112976074,-0.26858848333358765,0.0,0.0,0.0,0.0,0.0,0.0,0.0,0.08987532569539503,0.4980461948093345,0.2800077571142753,0.6263784457263669,-0.013049465174152711,0.13432930268969523,-0.23413290883297233,-0.6091371252874055,-0.057515841117553534,-0.6665726059676431,-2.5946789597488347,-0.055739218933821895,2.507863919628991,0.8763260057701003,-0.6090851748156966,-0.05753196718556838,-0.666603097082616,-2.5945565370258534,-0.05562143941554,2.507976027223799,0.8763108487046415,-0.00024638844098875024,-0.0004042977585384974,-0.00026699968911421076,-0.0007798421170017689,-0.00025564993359191785,-7.367376560840023e-05,0.0014464392868975883,0.0,0.0,0.0,0.0,0.0,0.0,0.0,5.195047170891698e-05,-1.612606801484895e-05,-3.0491114972885924e-05,0.00012242272298124135,0.00011777951828189498,0.00011210759480784205,-1.5157065458848429e-05,0.00024638844098875024,0.0004042977585384974,0.00026699968911421076,0.0007798421170017689,0.00025564993359191785,7.367376560840023e-05,-0.0014464392868975883,-0.13260537385940552,18.154138565063477,-1.1441986560821533,-18.269685745239258,-0.4150291085243225,-2.3138461112976074,0.26858848333358765,0
12,0.05509638786315918,0.08103066682815552,-18.229516983032227,1.1680023670196533,18.245882034301758,0.4095359444618225,2.3202548027038574,-0.26217979192733765,0.0,0.0,0.0,0.0,0.0,0.0,0.0,0.09034909776914461,0.4968404361997858,0.278094483746473,0.6315216419445614,-0.012566838539437087,0.1345036768004823,-0.23591204446938577,-0.6091335059007015,-0.05751055140401187,-0.6665771654256171,-2.5946765996068435,-0.05573875825857497,2.5078632075521683,0.8763252936932775,-0.6090851748156966,-0.05753196718556838,-0.666603097082616,-2.5945565370258534,-0.05562143941554,2.507976027223799,0.8763108487046415,0.0012851769505033421,0.0011425445419100094,-0.0011705021836922046,0.00041006657781300773,0.00020446755350995928,0.00020459082270928616,0.0009854702310497544,0.0,0.0,0.0,0.0,0.0,0.0,0.0,4.833108500490457e-05,-2.1415781556510805e-05,-2.5931656998934294e-05,0.00012006258099006573,0.00011731884303497336,0.00011281967163068174,-1.4444988636008738e-05,-0.0012851769505033421,-0.0011425445419100094,0.0011705021836922046,-0.00041006657781300773,-0.00020446755350995928,-0.00020459082270928616,-0.0009854702310497544,-0.08103066682815552,18.229516983032227,-1.1680023670196533,-18.245882034301758,-0.4095359444618225,-2.3202548027038574,0.26217979192733765,0
13,0.06000232696533203,0.08103066682815552,-18.229516983032227,1.1680023670196533,18.245882034301758,0.4095359444618225,2.3202548027038574,-0.26217979192733765,0.0,0.0,0.0,0.0,0.0,0.0,0.0,0.09034909776914461,0.4968404361997858,0.278094483746473,0.6315216419445614,-0.012566838539437087,0.1345036768004823,-0.23591204446938577,-0.6091335059007015,-0.05751055140401187,-0.6665771654256171,-2.5946765996068435,-0.05573875825857497,2.5078632075521683,0.8763252936932775,-0.6090851748156966,-0.05753196718556838,-0.666603097082616,-2.5945565370258534,-0.05562143941554,2.507976027223799,0.8763108487046415,0.0012851769505033421,0.0011425445419100094,-0.0011705021836922046,0.00041006657781300773,0.00020446755350995928,0.00020459082270928616,0.0009854702310497544,0.0,0.0,0.0,0.0,0.0,0.0,0.0,4.833108500490457e-05,-2.1415781556510805e-05,-2.5931656998934294e-05,0.00012006258099006573,0.00011731884303497336,0.00011281967163068174,-1.4444988636008738e-05,-0.0012851769505033421,-0.0011425445419100094,0.0011705021836922046,-0.00041006657781300773,-0.00020446755350995928,-0.00020459082270928616,-0.0009854702310497544,-0.08103066682815552,18.229516983032227,-1.1680023670196533,-18.245882034301758,-0.4095359444618225,-2.3202548027038574,0.26217979192733765,0
14,0.06499934196472168,0.08103066682815552,-18.229516983032227,1.1680023670196533,18.245882034301758,0.4095359444618225,2.3202548027038574,-0.26217979192733765,0.0,0.0,0.0,0.0,0.0,0.0,0.0,0.09034909776914461,0.4968404361997858,0.278094483746473,0.6315216419445614,-0.012566838539437087,0.1345036768004823,-0.23591204446938577,-0.6091335059007015,-0.05751055140401187,-0.6665771654256171,-2.5946765996068435,-0.05573875825857497,2.5078632075521683,0.8763252936932775,-0.6090851748156966,-0.05753196718556838,-0.666603097082616,-2.5945565370258534,-0.05562143941554,2.507976027223799,0.8763108487046415,0.0012851769505033421,0.0011425445419100094,-0.0011705021836922046,0.00041006657781300773,0.00020446755350995928,0.00020459082270928616,0.0009854702310497544,0.0,0.0,0.0,0.0,0.0,0.0,0.0,4.833108500490457e-05,-2.1415781556510805e-05,-2.5931656998934294e-05,0.00012006258099006573,0.00011731884303497336,0.00011281967163068174,-1.4444988636008738e-05,-0.0012851769505033421,-0.0011425445419100094,0.0011705021836922046,-0.00041006657781300773,-0.00020446755350995928,-0.00020459082270928616,-0.0009854702310497544,-0.08103066682815552,18.229516983032227,-1.1680023670196533,-18.245882034301758,-0.4095359444618225,-2.3202548027038574,0.26217979192733765,0
15,0.07000899314880371,0.08103066682815552,-18.229516983032227,1.1680023670196533,18.245882034301758,0.4095359444618225,2.3202548027038574,-0.26217979192733765,0.0,0.0,0.0,0.0,0.0,0.0,0.0,0.09034909776914461,0.4968404361997858,0.278094483746473,0.6315216419445614,-0.012566838539437087,0.1345036768004823,-0.23591204446938577,-0.6091335059007015,-0.05751055140401187,-0.6665771654256171,-2.5946765996068435,-0.05573875825857497,2.5078632075521683,0.8763252936932775,-0.6090851748156966,-0.05753196718556838,-0.666603097082616,-2.5945565370258534,-0.05562143941554,2.507976027223799,0.8763108487046415,0.0012851769505033421,0.0011425445419100094,-0.0011705021836922046,0.00041006657781300773,0.00020446755350995928,0.00020459082270928616,0.0009854702310497544,0.0,0.0,0.0,0.0,0.0,0.0,0.0,4.833108500490457e-05,-2.1415781556510805e-05,-2.5931656998934294e-05,0.00012006258099006573,0.00011731884303497336,0.00011281967163068174,-1.4444988636008738e-05,-0.0012851769505033421,-0.0011425445419100094,0.0011705021836922046,-0.00041006657781300773,-0.00020446755350995928,-0.00020459082270928616,-0.0009854702310497544,-0.08103066682815552,18.229516983032227,-1.1680023670196533,-18.245882034301758,-0.4095359444618225,-2.3202548027038574,0.26217979192733765,0
16,0.07500052452087402,0.05722695589065552,-18.205713272094727,1.0926239490509033,18.269685745239258,0.4150291085243225,2.3074374198913574,-0.25485557317733765,0.0,0.0,0.0,0.0,0.0,0.0,0.0,0.09160567176173053,0.498084762351292,0.28134412089071165,0.6267892328494388,-0.012253796365261405,0.1345976922404463,-0.23749542795766027,-0.6091318354648456,-0.057512221839867136,-0.6665689587255811,-2.5946782955486123,-0.05574256110967229,2.507864631705814,0.8763244406453375,-0.6090851748156966,-0.05753196718556838,-0.666603097082616,-2.5945565370258534,-0.05562143941554,2.507976027223799,0.8763108487046415,0.0010590308475419295,0.0008751819945091721,0.0006090610559114653,-0.00044871266832931803,-0.00023746949659860607,0.0002564501683995276,0.0006143561215613122,0.0,0.0,0.0,0.0,0.0,0.0,0.0,4.6660649149044e-05,-1.9745345701246975e-05,-3.413835703491852e-05,0.00012175852275886356,0.00012112169413228818,0.00011139551798500236,-1.359194069605607e-05,-0.0010590308475419295,-0.0008751819945091721,-0.0006090610559114653,0.00044871266832931803,0.00023746949659860607,-0.0002564501683995276,-0.0006143561215613122,-0.05722695589065552,18.205713272094727,-1.0926239490509033,-18.269685745239258,-0.4150291085243225,-2.3074374198913574,0.25485557317733765,0
17,0.07999849319458008,0.05722695589065552,-18.205713272094727,1.0926239490509033,18.269685745239258,0.4150291085243225,2.3074374198913574,-0.25485557317733765,0.0,0.0,0.0,0.0,0.0,0.0,0.0,0.09160567176173053,0.498084762351292,0.28134412089071165,0.6267892328494388,-0.012253796365261405,0.1345976922404463,-0.23749542795766027,-0.6091318354648456,-0.057512221839867136,-0.6665689587255811,-2.5946782955486123,-0.05574256110967229,2.507864631705814,0.8763244406453375,-0.6090851748156966,-0.05753196718556838,-0.666603097082616,-2.5945565370258534,-0.05562143941554,2.507976027223799,0.8763108487046415,0.0010590308475419295,0.0008751819945091721,0.0006090610559114653,-0.00044871266832931803,-0.00023746949659860607,0.0002564501683995276,0.0006143561215613122,0.0,0.0,0.0,0.0,0.0,0.0,0.0,4.6660649149044e-05,-1.9745345701246975e-05,-3.413835703491852e-05,0.00012175852275886356,0.00012112169413228818,0.00011139551798500236,-1.359194069605607e-05,-0.0010590308475419295,-0.0008751819945091721,-0.0006090610559114653,0.00044871266832931803,0.00023746949659860607,-0.0002564501683995276,-0.0006143561215613122,-0.05722695589065552,18.205713272094727,-1.0926239490509033,-18.269685745239258,-0.4150291085243225,-2.3074374198913574,0.25485557317733765,0
18,0.08509254455566406,0.03342324495315552,-18.154138565063477,1.0926239490509033,18.269685745239258,0.4031272530555725,2.3074374198913574,-0.21457235515117645,0.0,0.0,0.0,0.0,0.0,0.0,0.0,0.08403164881726372,0.4994292906249319,0.2780848119181807,0.6274477332813926,-0.012121843320909539,0.13366492148638304,-0.23700335945958484,-0.609130165356039,-0.057515841117553534,-0.6665692105737064,-2.5946782700739424,-0.055741481496707844,2.507864631705814,0.8763200039778586,-0.6090851748156966,-0.05753196718556838,-0.666603097082616,-2.5945565370258534,-0.05562143941554,2.507976027223799,0.8763108487046415,0.000248079255736182,0.0002648916745652286,-0.0006748408708090479,-0.00040263828576394335,0.00037880918124246984,0.00032414645604819577,-0.0006651540774967922,0.0,0.0,0.0,0.0,0.0,0.0,0.0,4.499054034245997e-05,-1.612606801484895e-05,-3.388650890956413e-05,0.00012173304808893448,0.00012004208116784404,0.00011139551798500236,-9.155273217098525e-06,-0.000248079255736182,-0.0002648916745652286,0.0006748408708090479,0.00040263828576394335,-0.00037880918124246984,-0.00032414645604819577,0.0006651540774967922,-0.03342324495315552,18.154138565063477,-1.0926239490509033,-18.269685745239258,-0.4031272530555725,-2.3074374198913574,0.21457235515117645,0
19,0.0900115966796875,0.03342324495315552,-18.154138565063477,1.0926239490509033,18.269685745239258,0.4031272530555725,2.3074374198913574,-0.21457235515117645,0.0,0.0,0.0,0.0,0.0,0.0,0.0,0.08403164881726372,0.4994292906249319,0.2780848119181807,0.6274477332813926,-0.012121843320909539,0.13366492148638304,-0.23700335945958484,-0.609130165356039,-0.057515841117553534,-0.6665692105737064,-2.5946782700739424,-0.055741481496707844,2.507864631705814,0.8763200039778586,-0.6090851748156966,-0.05753196718556838,-0.666603097082616,-2.5945565370258534,-0.05562143941554,2.507976027223799,0.8763108487046415,0.000248079255736182,0.0002648916745652286,-0.0006748408708090479,-0.00040263828576394335,0.00037880918124246984,0.00032414645604819577,-0.0006651540774967922,0.0,0.0,0.0,0.0,0.0,0.0,0.0,4.499054034245997e-05,-1.612606801484895e-05,-3.388650890956413e-05,0.00012173304808893448,0.00012004208116784404,0.00011139551798500236,-9.155273217098525e-06,-0.000248079255736182,-0.0002648916745652286,0.0006748408708090479,0.00040263828576394335,-0.00037880918124246984,-0.00032414645604819577,0.0006651540774967922,-0.03342324495315552,18.154138565063477,-1.0926239490509033,-18.269685745239258,-0.4031272530555725,-2.3074374198913574,0.21457235515117645,0
20,0.09501767158508301,0.05722695589065552,-18.177942276000977,1.0410492420196533,18.297456741333008,0.4150291085243225,2.3394808769226074,-0.25485557317733765,0.0,0.0,0.0,0.0,0.0,0.0,0.0,0.08255085765712443,0.4928976094857207,0.28188359558142717,0.632345525354475,-0.013063163645708054,0.13411517778885704,-0.23615358009676907,-0.6091318707861184,-0.05751417068169827,-0.6665653434671247,-2.5946802189156295,-0.05573924398137539,2.5078610713216993,0.8763244798911941,-0.6090851748156966,-0.05753196718556838,-0.666603097082616,-2.5945565370258534,-0.05562143941554,2.507976027223799,0.8763108487046415,4.461315092548962e-05,7.742156791909054e-05,0.00021112655110291342,-0.0008025313860723226,-5.400032555908608e-05,-0.0005323270352635144,0.0010208010959131821,0.0,0.0,0.0,0.0,0.0,0.0,0.0,4.669597042183948e-05,-1.779650387011278e-05,-3.77536154912983e-05,0.00012368188977607275,0.00011780456583539156,0.0001149559020996449,-1.3631186552620633e-05,-4.461315092548962e-05,-7.742156791909054e-05,-0.00021112655110291342,0.0008025313860723226,5.400032555908608e-05,0.0005323270352635144,-0.0010208010959131821,-0.05722695589065552,18.177942276000977,-1.0410492420196533,-18.297456741333008,-0.4150291085243225,-2.3394808769226074,0.25485557317733765,0
21,0.10000777244567871,0.05722695589065552,-18.177942276000977,1.0410492420196533,18.297456741333008,0.4150291085243225,2.3394808769226074,-0.25485557317733765,0.0,0.0,0.0,0.0,0.0,0.0,0.0,0.08255085765712443,0.4928976094857207,0.28188359558142717,0.632345525354475,-0.013063163645708054,0.13411517778885704,-0.23615358009676907,-0.6091318707861184,-0.05751417068169827,-0.6665653434671247,-2.5946802189156295,-0.05573924398137539,2.5078610713216993,0.8763244798911941,-0.6090851748156966,-0.05753196718556838,-0.666603097082616,-2.5945565370258534,-0.05562143941554,2.507976027223799,0.8763108487046415,4.461315092548962e-05,7.742156791909054e-05,0.00021112655110291342,-0.0008025313860723226,-5.400032555908608e-05,-0.0005323270352635144,0.0010208010959131821,0.0,0.0,0.0,0.0,0.0,0.0,0.0,4.669597042183948e-05,-1.779650387011278e-05,-3.77536154912983e-05,0.00012368188977607275,0.00011780456583539156,0.0001149559020996449,-1.3631186552620633e-05,-4.461315092548962e-05,-7.742156791909054e-05,-0.00021112655110291342,0.0008025313860723226,5.400032555908608e-05,0.0005323270352635144,-0.0010208010959131821,-0.05722695589065552,18.177942276000977,-1.0410492420196533,-18.297456741333008,-0.4150291085243225,-2.3394808769226074,0.25485557317733765,0
22,0.10500383377075195,0.03342324495315552,-18.177942276000977,1.0688202381134033,18.245882034301758,0.4095359444618225,2.3074374198913574,-0.24112264811992645,0.0,0.0,0.0,0.0,0.0,0.0,0.0,0.07761602565122833,0.495042629360511,0.2775939035496292,0.6302907797782863,-0.013413501940116,0.13433281119729554,-0.234153340827613,-0.609130165138206,-0.05751417068169827,-0.6665672886063873,-2.594676599707929,-0.055738731443742556,2.507864631705814,0.8763229540106322,-0.6090851748156966,-0.05753196718556838,-0.666603097082616,-2.5945565370258534,-0.05562143941554,2.507976027223799,0.8763108487046415,0.00048698246693574523,-0.00020538343963324762,-0.00011405945911116633,0.00019446542382339622,6.10424088405674e-05,0.0001982110449834689,0.00033238055965266445,0.0,0.0,0.0,0.0,0.0,0.0,0.0,4.499032250937507e-05,-1.779650387011278e-05,-3.5808476228749164e-05,0.00012006268207542803,0.00011729202820255635,0.00011139551798500236,-1.2105305990717241e-05,-0.00048698246693574523,0.00020538343963324762,0.00011405945911116633,-0.00019446542382339622,-6.10424088405674e-05,-0.0001982110449834689,-0.00033238055965266445,-0.03342324495315552,18.177942276000977,-1.0688202381134033,-18.245882034301758,-0.4095359444618225,-2.3074374198913574,0.24112264811992645,0
23,0.10996270179748535,0.03342324495315552,-18.177942276000977,1.0688202381134033,18.245882034301758,0.4095359444618225,2.3074374198913574,-0.24112264811992645,0.0,0.0,0.0,0.0,0.0,0.0,0.0,0.07761602565122833,0.495042629360511,0.2775939035496292,0.6302907797782863,-0.013413501940116,0.13433281119729554,-0.234153340827613,-0.609130165138206,-0.05751417068169827,-0.6665672886063873,-2.594676599707929,-0.055738731443742556,2.507864631705814,0.8763229540106322,-0.6090851748156966,-0.05753196718556838,-0.666603097082616,-2.5945565370258534,-0.05562143941554,2.507976027223799,0.8763108487046415,0.00048698246693574523,-0.00020538343963324762,-0.00011405945911116633,0.00019446542382339622,6.10424088405674e-05,0.0001982110449834689,0.00033238055965266445,0.0,0.0,0.0,0.0,0.0,0.0,0.0,4.499032250937507e-05,-1.779650387011278e-05,-3.5808476228749164e-05,0.00012006268207542803,0.00011729202820255635,0.00011139551798500236,-1.2105305990717241e-05,-0.00048698246693574523,0.00020538343963324762,0.00011405945911116633,-0.00019446542382339622,-6.10424088405674e-05,-0.0001982110449834689,-0.00033238055965266445,-0.03342324495315552,18.177942276000977,-1.0688202381134033,-18.245882034301758,-0.4095359444618225,-2.3074374198913574,0.24112264811992645,0
24,0.11500120162963867,0.05722695589065552,-18.154138565063477,1.0688202381134033,18.297456741333008,0.3976340889930725,2.3138461112976074,-0.22830526530742645,0.0,0.0,0.0,0.0,0.0,0.0,0.0,0.07817363795114939,0.5025450826300459,0.2799415071501377,0.6282746130098559,-0.01387870905837723,0.1325012706091972,-0.23310428151663984,-0.6091319149377059,-0.057515841117553534,-0.6665672882732611,-2.594680218880637,-0.055741933108278394,2.507863919628991,0.8763215298569863,-0.6090851748156966,-0.05753196718556838,-0.666603097082616,-2.5945565370258534,-0.05562143941554,2.507976027223799,0.8763108487046415,0.0009298702118355005,0.0005640086138978216,0.0003267674921952468,-0.0011507680865735232,0.0004816179436865009,-4.187286170953655e-05,-0.0004187284648292747,0.0,0.0,0.0,0.0,0.0,0.0,0.0,4.674012200933664e-05,-1.612606801484895e-05,-3.580880935494246e-05,0.00012368185478361937,0.00012049369273839372,0.00011210759480784205,-1.0681152344815814e-05,-0.0009298702118355005,-0.0005640086138978216,-0.0003267674921952468,0.0011507680865735232,-0.0004816179436865009,4.187286170953655e-05,0.0004187284648292747,-0.05722695589065552,18.154138565063477,-1.0688202381134033,-18.297456741333008,-0.3976340889930725,-2.3138461112976074,0.22830526530742645,0
25,0.12000441551208496,0.05722695589065552,-18.154138565063477,1.0688202381134033,18.297456741333008,0.3976340889930725,2.3138461112976074,-0.22830526530742645,0.0,0.0,0.0,0.0,0.0,0.0,0.0,0.07817363795114939,0.5025450826300459,0.2799415071501377,0.6282746130098559,-0.01387870905837723,0.1325012706091972,-0.23310428151663984,-0.6091319149377059,-0.057515841117553534,-0.6665672882732611,-2.594680218880637,-0.055741933108278394,2.507863919628991,0.8763215298569863,-0.6090851748156966,-0.05753196718556838,-0.666603097082616,-2.5945565370258534,-0.05562143941554,2.507976027223799,0.8763108487046415,0.0009298702118355005,0.0005640086138978216,0.0003267674921952468,-0.0011507680865735232,0.0004816179436865009,-4.187286170953655e-05,-0.0004187284648292747,0.0,0.0,0.0,0.0,0.0,0.0,0.0,4.674012200933664e-05,-1.612606801484895e-05,-3.580880935494246e-05,0.00012368185478361937,0.00012049369273839372,0.00011210759480784205,-1.0681152344815814e-05,-0.0009298702118355005,-0.0005640086138978216,-0.0003267674921952468,0.0011507680865735232,-0.0004816179436865009,4.187286170953655e-05,0.0004187284648292747,-0.05722695589065552,18.154138565063477,-1.0688202381134033,-18.297456741333008,-0.3976340889930725,-2.3138461112976074,0.22830526530742645,0
26,0.1250004768371582,0.08103066682815552,-18.154138565063477,1.0926239490509033,18.321260452270508,0.3976340889930725,2.3202548027038574,-0.20083944499492645,0.0,0.0,0.0,0.0,0.0,0.0,0.0,0.07165863615340884,0.5004300677720437,0.2731060853599551,0.6361439328823832,-0.013694552136919613,0.1329067023952986,-0.2338461388292524,-0.609133585701058,-0.057515841117553534,-0.6665689587091145,-2.5946819149312774,-0.05573728975544324,2.5078632075521683,0.8763184780991738,-0.6090851748156966,-0.05753196718556838,-0.666603097082616,-2.5945565370258534,-0.05562143941554,2.507976027223799,0.8763108487046415,4.112318065584931e-05,0.0005774298072353208,0.00010821124219464806,-0.0013043077057107958,0.0005392323995806517,5.813109231875057e-05,-0.0007592440138431922,0.0,0.0,0.0,0.0,0.0,0.0,0.0,4.841088536144955e-05,-1.612606801484895e-05,-3.413837350152438e-05,0.00012537790542399563,0.00011585033990323818,0.00011281967163068174,-7.629394532360223e-06,-4.112318065584931e-05,-0.0005774298072353208,-0.00010821124219464806,0.0013043077057107958,-0.0005392323995806517,-5.813109231875057e-05,0.0007592440138431922,-0.08103066682815552,18.154138565063477,-1.0926239490509033,-18.321260452270508,-0.3976340889930725,-2.3202548027038574,0.20083944499492645,0
27,0.12999892234802246,0.08103066682815552,-18.154138565063477,1.0926239490509033,18.321260452270508,0.3976340889930725,2.3202548027038574,-0.20083944499492645,0.0,0.0,0.0,0.0,0.0,0.0,0.0,0.07165863615340884,0.5004300677720437,0.2731060853599551,0.6361439328823832,-0.013694552136919613,0.1329067023952986,-0.2338461388292524,-0.609133585701058,-0.057515841117553534,-0.6665689587091145,-2.5946819149312774,-0.05573728975544324,2.5078632075521683,0.8763184780991738,-0.6090851748156966,-0.05753196718556838,-0.666603097082616,-2.5945565370258534,-0.05562143941554,2.507976027223799,0.8763108487046415,4.112318065584931e-05,0.0005774298072353208,0.00010821124219464806,-0.0013043077057107958,0.0005392323995806517,5.813109231875057e-05,-0.0007592440138431922,0.0,0.0,0.0,0.0,0.0,0.0,0.0,4.841088536144955e-05,-1.612606801484895e-05,-3.413837350152438e-05,0.00012537790542399563,0.00011585033990323818,0.00011281967163068174,-7.629394532360223e-06,-4.112318065584931e-05,-0.0005774298072353208,-0.00010821124219464806,0.0013043077057107958,-0.0005392323995806517,-5.813109231875057e-05,0.0007592440138431922,-0.08103066682815552,18.154138565063477,-1.0926239490509033,-18.321260452270508,-0.3976340889930725,-2.3202548027038574,0.20083944499492645,0
28,0.13500165939331055,0.08103066682815552,-18.177942276000977,1.0926239490509033,18.245882034301758,0.4269309639930725,2.3138461112976074,-0.26217979192733765,0.0,0.0,0.0,0.0,0.0,0.0,0.0,0.07087711069247245,0.4993806876766378,0.2706524392347195,0.6352384770753711,-0.013434753891292877,0.1328596485078628,-0.23261064613729548,-0.6091335059011513,-0.05751417068169827,-0.6665690396536939,-2.5946765999180306,-0.055741610548372386,2.507863919628991,0.8763252936932775,-0.6090851748156966,-0.05753196718556838,-0.666603097082616,-2.5945565370258534,-0.05562143941554,2.507976027223799,0.8763108487046415,0.00017274587158566502,-1.2485390171308509e-05,-5.7043121437123984e-05,0.00013808368532231425,-0.0004250492835389563,-0.00011372845096524093,0.0009553333235940307,0.0,0.0,0.0,0.0,0.0,0.0,0.0,4.833108545476694e-05,-1.779650387011278e-05,-3.40574289221518e-05,0.00012006289217714183,0.00012017113283238623,0.00011210759480784205,-1.4444988636008738e-05,-0.00017274587158566502,1.2485390171308509e-05,5.7043121437123984e-05,-0.00013808368532231425,0.0004250492835389563,0.00011372845096524093,-0.0009553333235940307,-0.08103066682815552,18.177942276000977,-1.0926239490509033,-18.245882034301758,-0.4269309639930725,-2.3138461112976074,0.26217979192733765,0
29,0.1399989128112793,0.08103066682815552,-18.177942276000977,1.0926239490509033,18.245882034301758,0.4269309639930725,2.3138461112976074,-0.26217979192733765,0.0,0.0,0.0,0.0,0.0,0.0,0.0,0.07087711069247245,0.4993806876766378,0.2706524392347195,0.6352384770753711,-0.013434753891292877,0.1328596485078628,-0.23261064613729548,-0.6091335059011513,-0.05751417068169827,-0.6665690396536939,-2.5946765999180306,-0.055741610548372386,2.507863919628991,0.8763252936932775,-0.6090851748156966,-0.05753196718556838,-0.666603097082616,-2.5945565370258534,-0.05562143941554,2.507976027223799,0.8763108487046415,0.00017274587158566502,-1.2485390171308509e-05,-5.7043121437123984e-05,0.00013808368532231425,-0.0004250492835389563,-0.00011372845096524093,0.0009553333235940307,0.0,0.0,0.0,0.0,0.0,0.0,0.0,4.833108545476694e-05,-1.779650387011278e-05,-3.40574289221518e-05,0.00012006289217714183,0.00012017113283238623,0.00011210759480784205,-1.4444988636008738e-05,-0.00017274587158566502,1.2485390171308509e-05,5.7043121437123984e-05,-0.00013808368532231425,0.0004250492835389563,0.00011372845096524093,-0.0009553333235940307,-0.08103066682815552,18.177942276000977,-1.0926239490509033,-18.245882034301758,-0.4269309639930725,-2.3138461112976074,0.26217979192733765,0
30,0.14499783515930176,0.10880166292190552,-18.154138565063477,1.1164276599884033,18.269685745239258,0.4150291085243225,2.3266634941101074,-0.24844686686992645,0.0,0.0,0.0,0.0,0.0,0.0,0.0,0.08011942332472244,0.4949526688873371,0.277108530176333,0.6371732073949687,-0.013204428680629855,0.13260871417663267,-0.23142343572835042,-0.6091354547425321,-0.057515841117553534,-0.6665706292564618,-2.594678278542076,-0.055742403150289964,2.507862495475345,0.8763237678127155,-0.6090851748156966,-0.05753196718556838,-0.666603097082616,-2.5945565370258534,-0.05562143941554,2.507976027223799,0.8763108487046415,-0.00015668204494238808,-0.0009109739945392796,-2.9721686614079136e-05,-3.44154806105093e-05,-0.0003531694247728715,-0.000460416185672679,0.0008432814719798405,0.0,0.0,0.0,0.0,0.0,0.0,0.0,5.027992683548366e-05,-1.612606801484895e-05,-3.246782615418109e-05,0.00012174151622268425,0.00012096373474996397,0.00011353174845396552,-1.2919108073994323e-05,0.00015668204494238808,0.0009109739945392796,2.9721686614079136e-05,3.44154806105093e-05,0.0003531694247728715,0.000460416185672679,-0.0008432814719798405,-0.10880166292190552,18.154138565063477,-1.1164276599884033,-18.269685745239258,-0.4150291085243225,-2.3266634941101074,0.24844686686992645,0
31,0.15000057220458984,0.10880166292190552,-18.154138565063477,1.1164276599884033,18.269685745239258,0.4150291085243225,2.3266634941101074,-0.24844686686992645,0.0,0.0,0.0,0.0,0.0,0.0,0.0,0.08011942332472244,0.4949526688873371,0.277108530176333,0.6371732073949687,-0.013204428680629855,0.13260871417663267,-0.23142343572835042,-0.6091354547425321,-0.057515841117553534,-0.6665706292564618,-2.594678278542076,-0.055742403150289964,2.507862495475345,0.8763237678127155,-0.6090851748156966,-0.05753196718556838,-0.666603097082616,-2.5945565370258534,-0.05562143941554,2.507976027223799,0.8763108487046415,-0.00015668204494238808,-0.0009109739945392796,-2.9721686614079136e-05,-3.44154806105093e-05,-0.0003531694247728715,-0.000460416185672679,0.0008432814719798405,0.0,0.0,0.0,0.0,0.0,0.0,0.0,5.027992683548366e-05,-1.612606801484895e-05,-3.246782615418109e-05,0.00012174151622268425,0.00012096373474996397,0.00011353174845396552,-1.2919108073994323e-05,0.00015668204494238808,0.0009109739945392796,2.9721686614079136e-05,3.44154806105093e-05,0.0003531694247728715,0.000460416185672679,-0.0008432814719798405,-0.10880166292190552,18.154138565063477,-1.1164276599884033,-18.269685745239258,-0.4150291085243225,-2.3266634941101074,0.24844686686992645,0
32,0.1550002098083496,0.10880166292190552,-18.154138565063477,1.0926239490509033,18.245882034301758,0.4150291085243225,2.3138461112976074,-0.22098104655742645,0.0,0.0,0.0,0.0,0.0,0.0,0.0,0.0829647588376394,0.4941525301858149,0.2785083465746791,0.6344682596293592,-0.01326259512677662,0.1326281936575273,-0.232513312873783,-0.6091356941422575,-0.057515841117553534,-0.6665711472107042,-2.594676599637991,-0.05573921911431911,2.507863919628991,0.876320716054903,-0.6090851748156966,-0.05753196718556838,-0.666603097082616,-2.5945565370258534,-0.05562143941554,2.507976027223799,0.8763108487046415,-1.7939264861915666e-05,-0.00041868516147621453,0.00022452547221389515,0.0007208248983476133,-0.00019116072962566312,0.0002681329169443472,-0.0004737489012082022,0.0,0.0,0.0,0.0,0.0,0.0,0.0,5.051932656097158e-05,-1.612606801484895e-05,-3.19498719117961e-05,0.00012006261213759473,0.00011777969877910938,0.00011210759480784205,-9.867350261538732e-06,1.7939264861915666e-05,0.00041868516147621453,-0.00022452547221389515,-0.0007208248983476133,0.00019116072962566312,-0.0002681329169443472,0.0004737489012082022,-0.10880166292190552,18.154138565063477,-1.0926239490509033,-18.245882034301758,-0.4150291085243225,-2.3138461112976074,0.22098104655742645,0
33,0.15999937057495117,0.10880166292190552,-18.154138565063477,1.0926239490509033,18.245882034301758,0.4150291085243225,2.3138461112976074,-0.22098104655742645,0.0,0.0,0.0,0.0,0.0,0.0,0.0,0.0829647588376394,0.4941525301858149,0.2785083465746791,0.6344682596293592,-0.01326259512677662,0.1326281936575273,-0.232513312873783,-0.6091356941422575,-0.057515841117553534,-0.6665711472107042,-2.594676599637991,-0.05573921911431911,2.507863919628991,0.876320716054903,-0.6090851748156966,-0.05753196718556838,-0.666603097082616,-2.5945565370258534,-0.05562143941554,2.507976027223799,0.8763108487046415,-1.7939264861915666e-05,-0.00041868516147621453,0.00022452547221389515,0.0007208248983476133,-0.00019116072962566312,0.0002681329169443472,-0.0004737489012082022,0.0,0.0,0.0,0.0,0.0,0.0,0.0,5.051932656097158e-05,-1.612606801484895e-05,-3.19498719117961e-05,0.00012006261213759473,0.00011777969877910938,0.00011210759480784205,-9.867350261538732e-06,1.7939264861915666e-05,0.00041868516147621453,-0.00022452547221389515,-0.0007208248983476133,0.00019116072962566312,-0.0002681329169443472,0.0004737489012082022,-0.10880166292190552,18.154138565063477,-1.0926239490509033,-18.245882034301758,-0.4150291085243225,-2.3138461112976074,0.22098104655742645,0
34,0.16500163078308105,0.08103066682815552,-18.130334854125977,1.0926239490509033,18.222078323364258,0.4031272530555725,2.3138461112976074,-0.20083944499492645,0.0,0.0,0.0,0.0,0.0,0.0,0.0,0.08663873841675324,0.4977907312716808,0.2780471199050871,0.6277626255387463,-0.013017930643823486,0.13266949450232543,-0.23352807067901601,-0.6091335059020523,-0.05751751151736445,-0.6665689587584803,-2.5946770209712544,-0.05573789558452643,2.507863919628991,0.8763184780991738,-0.6090851748156966,-0.05753196718556838,-0.666603097082616,-2.5945565370258534,-0.05562143941554,2.507976027223799,0.8763108487046415,0.0003314164335237595,-0.0007667757579167412,-0.00014165918444411548,0.0004702641909464581,0.0003996675590087704,-0.00012315871447955923,-0.0012326646802798965,0.0,0.0,0.0,0.0,0.0,0.0,0.0,4.833108635571293e-05,-1.445566820393318e-05,-3.413832413567963e-05,0.00012048394540098428,0.00011645616898642991,0.00011210759480784205,-7.629394532360223e-06,-0.0003314164335237595,0.0007667757579167412,0.00014165918444411548,-0.0004702641909464581,-0.0003996675590087704,0.00012315871447955923,0.0012326646802798965,-0.08103066682815552,18.130334854125977,-1.0926239490509033,-18.222078323364258,-0.4031272530555725,-2.3138461112976074,0.20083944499492645,0
35,0.17027688026428223,0.08103066682815552,-18.130334854125977,1.0926239490509033,18.222078323364258,0.4031272530555725,2.3138461112976074,-0.20083944499492645,0.0,0.0,0.0,0.0,0.0,0.0,0.0,0.08663873841675324,0.4977907312716808,0.2780471199050871,0.6277626255387463,-0.013017930643823486,0.13266949450232543,-0.23352807067901601,-0.6091335059020523,-0.05751751151736445,-0.6665689587584803,-2.5946770209712544,-0.05573789558452643,2.507863919628991,0.8763184780991738,-0.6090851748156966,-0.05753196718556838,-0.666603097082616,-2.5945565370258534,-0.05562143941554,2.507976027223799,0.8763108487046415,0.0003314164335237595,-0.0007667757579167412,-0.00014165918444411548,0.0004702641909464581,0.0003996675590087704,-0.00012315871447955923,-0.0012326646802798965,0.0,0.0,0.0,0.0,0.0,0.0,0.0,4.833108635571293e-05,-1.445566820393318e-05,-3.413832413567963e-05,0.00012048394540098428,0.00011645616898642991,0.00011210759480784205,-7.629394532360223e-06,-0.0003314164335237595,0.0007667757579167412,0.00014165918444411548,-0.0004702641909464581,-0.0003996675590087704,0.00012315871447955923,0.0012326646802798965,-0.08103066682815552,18.130334854125977,-1.0926239490509033,-18.222078323364258,-0.4031272530555725,-2.3138461112976074,0.20083944499492645,0
36,0.17500567436218262,0.05722695589065552,-18.177942276000977,1.0926239490509033,18.269685745239258,0.4031272530555725,2.3138461112976074,-0.27591270208358765,0.0,0.0,0.0,0.0,0.0,0.0,0.0,0.0945240353657156,0.4938807453674257,0.28339816994344347,0.6329333729476272,-0.012908416083486087,0.1333002377586015,-0.23293260226739385,-0.6091318354648456,-0.057513934194750975,-0.6665689587461264,-2.594678499638875,-0.05573896574574769,2.50786391526834,0.8763268195721837,-0.6090851748156966,-0.05753196718556838,-0.666603097082616,-2.5945565370258534,-0.05562143941554,2.507976027223799,0.8763108487046415,0.0011473930121605766,0.000383437405851071,0.0002798658942992515,-0.00014055796635592738,0.0003178322894331518,-0.0001464262803227097,0.0012812091059387688,0.0,0.0,0.0,0.0,0.0,0.0,0.0,4.6660649149044e-05,-1.8032990817408445e-05,-3.4138336489575316e-05,0.00012196261302177547,0.00011752633020768732,0.00011211195545879349,-1.5970867542236533e-05,-0.0011473930121605766,-0.000383437405851071,-0.0002798658942992515,0.00014055796635592738,-0.0003178322894331518,0.0001464262803227097,-0.0012812091059387688,-0.05722695589065552,18.177942276000977,-1.0926239490509033,-18.269685745239258,-0.4031272530555725,-2.3138461112976074,0.27591270208358765,0
37,0.18000388145446777,0.05722695589065552,-18.177942276000977,1.0926239490509033,18.269685745239258,0.4031272530555725,2.3138461112976074,-0.27591270208358765,0.0,0.0,0.0,0.0,0.0,0.0,0.0,0.0945240353657156,0.4938807453674257,0.28339816994344347,0.6329333729476272,-0.012908416083486087,0.1333002377586015,-0.23293260226739385,-0.6091318354648456,-0.057513934194750975,-0.6665689587461264,-2.594678499638875,-0.05573896574574769,2.50786391526834,0.8763268195721837,-0.6090851748156966,-0.05753196718556838,-0.666603097082616,-2.5945565370258534,-0.05562143941554,2.507976027223799,0.8763108487046415,0.0011473930121605766,0.000383437405851071,0.0002798658942992515,-0.00014055796635592738,0.0003178322894331518,-0.0001464262803227097,0.0012812091059387688,0.0,0.0,0.0,0.0,0.0,0.0,0.0,4.6660649149044e-05,-1.8032990817408445e-05,-3.4138336489575316e-05,0.00012196261302177547,0.00011752633020768732,0.00011211195545879349,-1.5970867542236533e-05,-0.0011473930121605766,-0.000383437405851071,-0.0002798658942992515,0.00014055796635592738,-0.0003178322894331518,0.0001464262803227097,-0.0012812091059387688,-0.05722695589065552,18.177942276000977,-1.0926239490509033,-18.269685745239258,-0.4031272530555725,-2.3138461112976074,0.27591270208358765,0
38,0.18559765815734863,0.05722695589065552,-18.177942276000977,1.0926239490509033,18.269685745239258,0.4031272530555725,2.3138461112976074,-0.27591270208358765,0.0,0.0,0.0,0.0,0.0,0.0,0.0,0.0945240353657156,0.4938807453674257,0.28339816994344347,0.6329333729476272,-0.012908416083486087,0.1333002377586015,-0.23293260226739385,-0.6091318354648456,-0.057513934194750975,-0.6665689587461264,-2.594678499638875,-0.05573896574574769,2.50786391526834,0.8763268195721837,-0.6090851748156966,-0.05753196718556838,-0.666603097082616,-2.5945565370258534,-0.05562143941554,2.507976027223799,0.8763108487046415,0.0011473930121605766,0.000383437405851071,0.0002798658942992515,-0.00014055796635592738,0.0003178322894331518,-0.0001464262803227097,0.0012812091059387688,0.0,0.0,0.0,0.0,0.0,0.0,0.0,4.6660649149044e-05,-1.8032990817408445e-05,-3.4138336489575316e-05,0.00012196261302177547,0.00011752633020768732,0.00011211195545879349,-1.5970867542236533e-05,-0.0011473930121605766,-0.000383437405851071,-0.0002798658942992515,0.00014055796635592738,-0.0003178322894331518,0.0001464262803227097,-0.0012812091059387688,-0.05722695589065552,18.177942276000977,-1.0926239490509033,-18.269685745239258,-0.4031272530555725,-2.3138461112976074,0.27591270208358765,0
39,0.19000005722045898,0.05722695589065552,-18.177942276000977,1.0926239490509033,18.269685745239258,0.4031272530555725,2.3138461112976074,-0.27591270208358765,0.0,0.0,0.0,0.0,0.0,0.0,0.0,0.0945240353657156,0.4938807453674257,0.28339816994344347,0.6329333729476272,-0.012908416083486087,0.1333002377586015,-0.23293260226739385,-0.6091318354648456,-0.057513934194750975,-0.6665689587461264,-2.594678499638875,-0.05573896574574769,2.50786391526834,0.8763268195721837,-0.6090851748156966,-0.05753196718556838,-0.666603097082616,-2.5945565370258534,-0.05562143941554,2.507976027223799,0.8763108487046415,0.0011473930121605766,0.000383437405851071,0.0002798658942992515,-0.00014055796635592738,0.0003178322894331518,-0.0001464262803227097,0.0012812091059387688,0.0,0.0,0.0,0.0,0.0,0.0,0.0,4.6660649149044e-05,-1.8032990817408445e-05,-3.4138336489575316e-05,0.00012196261302177547,0.00011752633020768732,0.00011211195545879349,-1.5970867542236533e-05,-0.0011473930121605766,-0.000383437405851071,-0.0002798658942992515,0.00014055796635592738,-0.0003178322894331518,0.0001464262803227097,-0.0012812091059387688,-0.05722695589065552,18.177942276000977,-1.0926239490509033,-18.269685745239258,-0.4031272530555725,-2.3138461112976074,0.27591270208358765,0
40,0.19499778747558594,0.03342324495315552,-18.154138565063477,1.0926239490509033,18.245882034301758,0.4214377999305725,2.3138461112976074,-0.26858848333358765,0.0,0.0,0.0,0.0,0.0,0.0,0.0,0.0778709774940996,0.49526727368289464,0.2650177426210474,0.6301387121221024,-0.012242095380743757,0.1312665894407425,-0.23319447475545366,-0.6091301650289903,-0.05751584111621856,-0.6665689587091147,-2.5946768291925073,-0.05574102414670105,2.5078639196289663,0.8763260057701003,-0.6090851748156966,-0.05753196718556838,-0.666603097082616,-2.5945565370258534,-0.05562143941554,2.507976027223799,0.8763108487046415,9.751432447489105e-05,-7.514396730050633e-05,-0.001267029153714415,0.00017734993998090733,-0.00036220903923331376,-0.00013282331137015252,0.0016757923093344595,0.0,0.0,0.0,0.0,0.0,0.0,0.0,4.4990213293738535e-05,-1.6126069349822747e-05,-3.413837350130233e-05,0.0001202921666538792,0.00011958473116104734,0.00011210759483271104,-1.5157065458848429e-05,-9.751432447489105e-05,7.514396730050633e-05,0.001267029153714415,-0.00017734993998090733,0.00036220903923331376,0.00013282331137015252,-0.0016757923093344595,-0.03342324495315552,18.154138565063477,-1.0926239490509033,-18.245882034301758,-0.4214377999305725,-2.3138461112976074,0.26858848333358765,0
41,0.20000410079956055,0.03342324495315552,-18.154138565063477,1.0926239490509033,18.245882034301758,0.4214377999305725,2.3138461112976074,-0.26858848333358765,0.0,0.0,0.0,0.0,0.0,0.0,0.0,0.0778709774940996,0.49526727368289464,0.2650177426210474,0.6301387121221024,-0.012242095380743757,0.1312665894407425,-0.23319447475545366,-0.6091301650289903,-0.05751584111621856,-0.6665689587091147,-2.5946768291925073,-0.05574102414670105,2.5078639196289663,0.8763260057701003,-0.6090851748156966,-0.05753196718556838,-0.666603097082616,-2.5945565370258534,-0.05562143941554,2.507976027223799,0.8763108487046415,9.751432447489105e-05,-7.514396730050633e-05,-0.001267029153714415,0.00017734993998090733,-0.00036220903923331376,-0.00013282331137015252,0.0016757923093344595,0.0,0.0,0.0,0.0,0.0,0.0,0.0,4.4990213293738535e-05,-1.6126069349822747e-05,-3.413837350130233e-05,0.0001202921666538792,0.00011958473116104734,0.00011210759483271104,-1.5157065458848429e-05,-9.751432447489105e-05,7.514396730050633e-05,0.001267029153714415,-0.00017734993998090733,0.00036220903923331376,0.00013282331137015252,-0.0016757923093344595,-0.03342324495315552,18.154138565063477,-1.0926239490509033,-18.245882034301758,-0.4214377999305725,-2.3138461112976074,0.26858848333358765,0
42,0.20499825477600098,0.05722695589065552,-18.229516983032227,1.0688202381134033,18.269685745239258,0.4150291085243225,2.3138461112976074,-0.22830526530742645,0.0,0.0,0.0,0.0,0.0,0.0,0.0,0.07805936049350023,0.4953942190476649,0.26582472389462386,0.6320273341434421,-0.012314140138194629,0.13113084766023433,-0.23322406827193534,-0.6091318355738619,-0.057510551404011866,-0.6665673692178385,-2.594681025099238,-0.05574288300302718,2.5078639196289907,0.8763215298569863,-0.6090851748156966,-0.05753196718556838,-0.666603097082616,-2.5945565370258534,-0.05562143941554,2.507976027223799,0.8763108487046415,-0.0006202730380505153,0.0014914518515311082,-0.0006708235642889857,-0.0003796591188787841,-0.0002227009705634412,0.00014541641885271233,-0.0001245674337701893,0.0,0.0,0.0,0.0,0.0,0.0,0.0,4.666075816528448e-05,-2.1415781556517743e-05,-3.572786477745726e-05,0.00012448807338438783,0.00012144358748718276,0.00011210759480828614,-1.0681152344815814e-05,0.0006202730380505153,-0.0014914518515311082,0.0006708235642889857,0.0003796591188787841,0.0002227009705634412,-0.00014541641885271233,0.0001245674337701893,-0.05722695589065552,18.229516983032227,-1.0688202381134033,-18.269685745239258,-0.4150291085243225,-2.3138461112976074,0.22830526530742645,0
43,0.21000099182128906,0.05722695589065552,-18.229516983032227,1.0688202381134033,18.269685745239258,0.4150291085243225,2.3138461112976074,-0.22830526530742645,0.0,0.0,0.0,0.0,0.0,0.0,0.0,0.07805936049350023,0.4953942190476649,0.26582472389462386,0.6320273341434421,-0.012314140138194629,0.13113084766023433,-0.23322406827193534,-0.6091318355738619,-0.057510551404011866,-0.6665673692178385,-2.594681025099238,-0.05574288300302718,2.5078639196289907,0.8763215298569863,-0.6090851748156966,-0.05753196718556838,-0.666603097082616,-2.5945565370258534,-0.05562143941554,2.507976027223799,0.8763108487046415,-0.0006202730380505153,0.0014914518515311082,-0.0006708235642889857,-0.0003796591188787841,-0.0002227009705634412,0.00014541641885271233,-0.0001245674337701893,0.0,0.0,0.0,0.0,0.0,0.0,0.0,4.666075816528448e-05,-2.1415781556517743e-05,-3.572786477745726e-05,0.00012448807338438783,0.00012144358748718276,0.00011210759480828614,-1.0681152344815814e-05,0.0006202730380505153,-0.0014914518515311082,0.0006708235642889857,0.0003796591188787841,0.0002227009705634412,-0.00014541641885271233,0.0001245674337701893,-0.05722695589065552,18.229516983032227,-1.0688202381134033,-18.269685745239258,-0.4150291085243225,-2.3138461112976074,0.22830526530742645,0
44,0.21499896049499512,0.05722695589065552,-18.205713272094727,1.1164276599884033,18.222078323364258,0.4150291085243225,2.3202548027038574,-0.21457235515117645,0.0,0.0,0.0,0.0,0.0,0.0,0.0,0.07977367068643924,0.49122627360869314,0.2688001729942091,0.6352292069997492,-0.013033371084782685,0.1324908505344089,-0.2329665715804568,-0.6091319149377059,-0.057512221839867136,-0.6665706591249005,-2.5946749376859164,-0.055739327243669756,2.507863207552168,0.8763200039780801,-0.6090851748156966,-0.05753196718556838,-0.666603097082616,-2.5945565370258534,-0.05562143941554,2.507976027223799,0.8763108487046415,0.0002740497402134143,0.00035116894280155125,-0.0009301646769152508,0.001065481037731283,-0.0002567950613091656,-0.00010760629215085768,-0.0013404530003235102,0.0,0.0,0.0,0.0,0.0,0.0,0.0,4.674012200933664e-05,-1.9745345701246975e-05,-3.2437957715458765e-05,0.00011840066006296723,0.00011788782812975629,0.00011281967163112583,-9.155273438588019e-06,-0.0002740497402134143,-0.00035116894280155125,0.0009301646769152508,-0.001065481037731283,0.0002567950613091656,0.00010760629215085768,0.0013404530003235102,-0.05722695589065552,18.205713272094727,-1.1164276599884033,-18.222078323364258,-0.4150291085243225,-2.3202548027038574,0.21457235515117645,0
45,0.21999835968017578,0.05722695589065552,-18.205713272094727,1.1164276599884033,18.222078323364258,0.4150291085243225,2.3202548027038574,-0.21457235515117645,0.0,0.0,0.0,0.0,0.0,0.0,0.0,0.07977367068643924,0.49122627360869314,0.2688001729942091,0.6352292069997492,-0.013033371084782685,0.1324908505344089,-0.2329665715804568,-0.6091319149377059,-0.057512221839867136,-0.6665706591249005,-2.5946749376859164,-0.055739327243669756,2.507863207552168,0.8763200039780801,-0.6090851748156966,-0.05753196718556838,-0.666603097082616,-2.5945565370258534,-0.05562143941554,2.507976027223799,0.8763108487046415,0.0002740497402134143,0.00035116894280155125,-0.0009301646769152508,0.001065481037731283,-0.0002567950613091656,-0.00010760629215085768,-0.0013404530003235102,0.0,0.0,0.0,0.0,0.0,0.0,0.0,4.674012200933664e-05,-1.9745345701246975e-05,-3.2437957715458765e-05,0.00011840066006296723,0.00011788782812975629,0.00011281967163112583,-9.155273438588019e-06,-0.0002740497402134143,-0.00035116894280155125,0.0009301646769152508,-0.001065481037731283,0.0002567950613091656,0.00010760629215085768,0.0013404530003235102,-0.05722695589065552,18.205713272094727,-1.1164276599884033,-18.222078323364258,-0.4150291085243225,-2.3202548027038574,0.21457235515117645,0
46,0.22500133514404297,0.16037636995315552,-18.177942276000977,1.1441986560821533,18.245882034301758,0.4031272530555725,2.3138461112976074,-0.26217979192733765,0.0,0.0,0.0,0.0,0.0,0.0,0.0,0.07912010707362999,0.48818697535028016,0.2698377382035689,0.6327975769096171,-0.013003695266728704,0.13248739983272478,-0.2336847464586965,-0.6091391005116202,-0.05751417068169827,-0.6665747725214657,-2.594676602437421,-0.055737895530965156,2.5078639196289907,0.8763252936932775,-0.6090851748156966,-0.05753196718556838,-0.666603097082616,-2.5945565370258534,-0.05562143941554,2.507976027223799,0.8763108487046415,-0.0011900937965787528,-0.00039522019240828413,-0.0008180692181563901,0.0003031098808891989,5.178574302939599e-05,-3.4555246873135755e-05,0.0006103203275082642,0.0,0.0,0.0,0.0,0.0,0.0,0.0,5.3925695923662254e-05,-1.779650387011278e-05,-2.8324561150316896e-05,0.00012006541156761585,0.00011645611542515644,0.00011210759480828614,-1.4444988636008738e-05,0.0011900937965787528,0.00039522019240828413,0.0008180692181563901,-0.0003031098808891989,-5.178574302939599e-05,3.4555246873135755e-05,-0.0006103203275082642,-0.16037636995315552,18.177942276000977,-1.1441986560821533,-18.245882034301758,-0.4031272530555725,-2.3138461112976074,0.26217979192733765,0
47,0.23000025749206543,0.16037636995315552,-18.177942276000977,1.1441986560821533,18.245882034301758,0.4031272530555725,2.3138461112976074,-0.26217979192733765,0.0,0.0,0.0,0.0,0.0,0.0,0.0,0.07912010707362999,0.48818697535028016,0.2698377382035689,0.6327975769096171,-0.013003695266728704,0.13248739983272478,-0.2336847464586965,-0.6091391005116202,-0.05751417068169827,-0.6665747725214657,-2.594676602437421,-0.055737895530965156,2.5078639196289907,0.8763252936932775,-0.6090851748156966,-0.05753196718556838,-0.666603097082616,-2.5945565370258534,-0.05562143941554,2.507976027223799,0.8763108487046415,-0.0011900937965787528,-0.00039522019240828413,-0.0008180692181563901,0.0003031098808891989,5.178574302939599e-05,-3.4555246873135755e-05,0.0006103203275082642,0.0,0.0,0.0,0.0,0.0,0.0,0.0,5.3925695923662254e-05,-1.779650387011278e-05,-2.8324561150316896e-05,0.00012006541156761585,0.00011645611542515644,0.00011210759480828614,-1.4444988636008738e-05,0.0011900937965787528,0.00039522019240828413,0.0008180692181563901,-0.0003031098808891989,-5.178574302939599e-05,3.4555246873135755e-05,-0.0006103203275082642,-0.16037636995315552,18.177942276000977,-1.1441986560821533,-18.245882034301758,-0.4031272530555725,-2.3138461112976074,0.26217979192733765,0
48,0.23500394821166992,0.10880166292190552,-18.130334854125977,1.0926239490509033,18.269685745239258,0.4031272530555725,2.3074374198913574,-0.23471395671367645,0.0,0.0,0.0,0.0,0.0,0.0,0.0,0.08214496798183119,0.4908535075095831,0.27045933116192444,0.6329881104934516,-0.012966311103846169,0.13228490083752745,-0.23481911698878072,-0.6091354548516978,-0.05751751144527576,-0.6665689587215027,-2.5946783469881565,-0.05573837348694202,2.5078646317058135,0.8763222419338093,-0.6090851748156966,-0.05753196718556838,-0.666603097082616,-2.5945565370258534,-0.05562143941554,2.507976027223799,0.8763108487046415,0.00043058256399693747,-0.0007757266857326017,0.0007426817714697219,-6.560571360035794e-05,0.0002799002779553918,0.00019595454340314627,0.0005769181309520107,0.0,0.0,0.0,0.0,0.0,0.0,0.0,5.028003600127118e-05,-1.4455740292622365e-05,-3.41383611133228e-05,0.0001218099623030433,0.00011693407140202228,0.00011139551798544645,-1.1393229167766528e-05,-0.00043058256399693747,0.0007757266857326017,-0.0007426817714697219,6.560571360035794e-05,-0.0002799002779553918,-0.00019595454340314627,-0.0005769181309520107,-0.10880166292190552,18.130334854125977,-1.0926239490509033,-18.269685745239258,-0.4031272530555725,-2.3074374198913574,0.23471395671367645,0
49,0.24001765251159668,0.10880166292190552,-18.130334854125977,1.0926239490509033,18.269685745239258,0.4031272530555725,2.3074374198913574,-0.23471395671367645,0.0,0.0,0.0,0.0,0.0,0.0,0.0,0.08214496798183119,0.4908535075095831,0.27045933116192444,0.6329881104934516,-0.012966311103846169,0.13228490083752745,-0.23481911698878072,-0.6091354548516978,-0.05751751144527576,-0.6665689587215027,-2.5946783469881565,-0.05573837348694202,2.5078646317058135,0.8763222419338093,-0.6090851748156966,-0.05753196718556838,-0.666603097082616,-2.5945565370258534,-0.05562143941554,2.507976027223799,0.8763108487046415,0.00043058256399693747,-0.0007757266857326017,0.0007426817714697219,-6.560571360035794e-05,0.0002799002779553918,0.00019595454340314627,0.0005769181309520107,0.0,0.0,0.0,0.0,0.0,0.0,0.0,5.028003600127118e-05,-1.4455740292622365e-05,-3.41383611133228e-05,0.0001218099623030433,0.00011693407140202228,0.00011139551798544645,-1.1393229167766528e-05,-0.00043058256399693747,0.0007757266857326017,-0.0007426817714697219,6.560571360035794e-05,-0.0002799002779553918,-0.00019595454340314627,-0.0005769181309520107,-0.10880166292190552,18.130334854125977,-1.0926239490509033,-18.269685745239258,-0.4031272530555725,-2.3074374198913574,0.23471395671367645,0
50,0.24500441551208496,0.05722695589065552,-18.106531143188477,1.1441986560821533,18.269685745239258,0.4150291085243225,2.3138461112976074,-0.24844686686992645,0.0,0.0,0.0,0.0,0.0,0.0,0.0,0.08891127716351341,0.4952869300291567,0.2753703840707968,0.6342532836170067,-0.013142172664551699,0.13203827190001668,-0.2337532795049378,-0.6091319414286591,-0.05751918166486435,-0.6665725780978361,-2.5946782709840472,-0.055739205772807277,2.5078639196289907,0.8763237678127155,-0.6090851748156966,-0.05753196718556838,-0.666603097082616,-2.5945565370258534,-0.05562143941554,2.507976027223799,0.8763108487046415,0.001395895153198926,-0.0005617065306233855,-0.0006528337183797978,-0.0002018648127636985,-0.00027303135414060234,-3.5992999020348963e-06,0.0007671348780010306,0.0,0.0,0.0,0.0,0.0,0.0,0.0,4.676661296254547e-05,-1.2785520704036712e-05,-3.051898477990367e-05,0.00012173395819381483,0.00011776635726727658,0.00011210759480828614,-1.2919108073994323e-05,-0.001395895153198926,0.0005617065306233855,0.0006528337183797978,0.0002018648127636985,0.00027303135414060234,3.5992999020348963e-06,-0.0007671348780010306,-0.05722695589065552,18.106531143188477,-1.1441986560821533,-18.269685745239258,-0.4150291085243225,-2.3138461112976074,0.24844686686992645,0
51,0.250011682510376,0.05722695589065552,-18.106531143188477,1.1441986560821533,18.269685745239258,0.4150291085243225,2.3138461112976074,-0.24844686686992645,0.0,0.0,0.0,0.0,0.0,0.0,0.0,0.08891127716351341,0.4952869300291567,0.2753703840707968,0.6342532836170067,-0.013142172664551699,0.13203827190001668,-0.2337532795049378,-0.6091319414286591,-0.05751918166486435,-0.6665725780978361,-2.5946782709840472,-0.055739205772807277,2.5078639196289907,0.8763237678127155,-0.6090851748156966,-0.05753196718556838,-0.666603097082616,-2.5945565370258534,-0.05562143941554,2.507976027223799,0.8763108487046415,0.001395895153198926,-0.0005617065306233855,-0.0006528337183797978,-0.0002018648127636985,-0.00027303135414060234,-3.5992999020348963e-06,0.0007671348780010306,0.0,0.0,0.0,0.0,0.0,0.0,0.0,4.676661296254547e-05,-1.2785520704036712e-05,-3.051898477990367e-05,0.00012173395819381483,0.00011776635726727658,0.00011210759480828614,-1.2919108073994323e-05,-0.001395895153198926,0.0005617065306233855,0.0006528337183797978,0.0002018648127636985,0.00027303135414060234,3.5992999020348963e-06,-0.0007671348780010306,-0.05722695589065552,18.106531143188477,-1.1441986560821533,-18.269685745239258,-0.4150291085243225,-2.3138461112976074,0.24844686686992645,0
52,0.25501298904418945,0.10880166292190552,-18.106531143188477,1.0926239490509033,18.245882034301758,0.4031272530555725,2.3074374198913574,-0.24112264811992645,0.0,0.0,0.0,0.0,0.0,0.0,0.0,0.08805793192060617,0.49780103637273676,0.27578296544446995,0.6395195028390718,-0.013504928585964707,0.13310414347660895,-0.2335496329410725,-0.6091354639004967,-0.05751918198926223,-0.6665689590422204,-2.594676608211203,-0.055738395751427236,2.5078646317058135,0.8763229540106322,-0.6090851748156966,-0.05753196718556838,-0.666603097082616,-2.5945565370258534,-0.05562143941554,2.507976027223799,0.8763108487046415,-0.0007933809911252013,-0.0007486458056153831,5.249750353730074e-05,0.000628123827727816,0.00027876475335162585,0.00034822070085566067,-0.00032031172968731805,0.0,0.0,0.0,0.0,0.0,0.0,0.0,5.028908480009253e-05,-1.2785196306153157e-05,-3.413804039564816e-05,0.00012007118534951289,0.00011695633588723608,0.00011139551798544645,-1.2105305990717241e-05,0.0007933809911252013,0.0007486458056153831,-5.249750353730074e-05,-0.000628123827727816,-0.00027876475335162585,-0.00034822070085566067,0.00032031172968731805,-0.10880166292190552,18.106531143188477,-1.0926239490509033,-18.245882034301758,-0.4031272530555725,-2.3074374198913574,0.24112264811992645,0
53,0.26000070571899414,0.10880166292190552,-18.106531143188477,1.0926239490509033,18.245882034301758,0.4031272530555725,2.3074374198913574,-0.24112264811992645,0.0,0.0,0.0,0.0,0.0,0.0,0.0,0.08805793192060617,0.49780103637273676,0.27578296544446995,0.6395195028390718,-0.013504928585964707,0.13310414347660895,-0.2335496329410725,-0.6091354639004967,-0.05751918198926223,-0.6665689590422204,-2.594676608211203,-0.055738395751427236,2.5078646317058135,0.8763229540106322,-0.6090851748156966,-0.05753196718556838,-0.666603097082616,-2.5945565370258534,-0.05562143941554,2.507976027223799,0.8763108487046415,-0.0007933809911252013,-0.0007486458056153831,5.249750353730074e-05,0.000628123827727816,0.00027876475335162585,0.00034822070085566067,-0.00032031172968731805,0.0,0.0,0.0,0.0,0.0,0.0,0.0,5.028908480009253e-05,-1.2785196306153157e-05,-3.413804039564816e-05,0.00012007118534951289,0.00011695633588723608,0.00011139551798544645,-1.2105305990717241e-05,0.0007933809911252013,0.0007486458056153831,-5.249750353730074e-05,-0.000628123827727816,-0.00027876475335162585,-0.00034822070085566067,0.00032031172968731805,-0.10880166292190552,18.106531143188477,-1.0926239490509033,-18.245882034301758,-0.4031272530555725,-2.3074374198913574,0.24112264811992645,0
54,0.2650270462036133,0.03342324495315552,-18.205713272094727,1.0926239490509033,18.245882034301758,0.4031272530555725,2.3138461112976074,-0.23471395671367645,0.0,0.0,0.0,0.0,0.0,0.0,0.0,0.08627966591588153,0.5022156961263554,0.2754636468972955,0.6365515142633215,-0.014327326531097072,0.13305335727503104,-0.23452342387123892,-0.6091302454830481,-0.057512221839867136,-0.6665689857276546,-2.594676599917934,-0.055738243640286546,2.5078639196289907,0.8763222419338093,-0.6090851748156966,-0.05753196718556838,-0.666603097082616,-2.5945565370258534,-0.05562143941554,2.507976027223799,0.8763108487046415,0.00031120195272128364,0.0009669893047741701,-0.0005492789423162629,0.00019860211208929903,0.00024758749912983974,0.0001803135087875365,0.0004444289909748206,0.0,0.0,0.0,0.0,0.0,0.0,0.0,4.507066735148779e-05,-1.9745345701246975e-05,-3.4111354961452456e-05,0.00012006289208077447,0.00011680422474654589,0.00011210759480828614,-1.1393229167766528e-05,-0.00031120195272128364,-0.0009669893047741701,0.0005492789423162629,-0.00019860211208929903,-0.00024758749912983974,-0.0001803135087875365,-0.0004444289909748206,-0.03342324495315552,18.205713272094727,-1.0926239490509033,-18.245882034301758,-0.4031272530555725,-2.3138461112976074,0.23471395671367645,0
55,0.26999592781066895,0.03342324495315552,-18.205713272094727,1.0926239490509033,18.245882034301758,0.4031272530555725,2.3138461112976074,-0.23471395671367645,0.0,0.0,0.0,0.0,0.0,0.0,0.0,0.08627966591588153,0.5022156961263554,0.2754636468972955,0.6365515142633215,-0.014327326531097072,0.13305335727503104,-0.23452342387123892,-0.6091302454830481,-0.057512221839867136,-0.6665689857276546,-2.594676599917934,-0.055738243640286546,2.5078639196289907,0.8763222419338093,-0.6090851748156966,-0.05753196718556838,-0.666603097082616,-2.5945565370258534,-0.05562143941554,2.507976027223799,0.8763108487046415,0.00031120195272128364,0.0009669893047741701,-0.0005492789423162629,0.00019860211208929903,0.00024758749912983974,0.0001803135087875365,0.0004444289909748206,0.0,0.0,0.0,0.0,0.0,0.0,0.0,4.507066735148779e-05,-1.9745345701246975e-05,-3.4111354961452456e-05,0.00012006289208077447,0.00011680422474654589,0.00011210759480828614,-1.1393229167766528e-05,-0.00031120195272128364,-0.0009669893047741701,0.0005492789423162629,-0.00019860211208929903,-0.00024758749912983974,-0.0001803135087875365,-0.0004444289909748206,-0.03342324495315552,18.205713272094727,-1.0926239490509033,-18.245882034301758,-0.4031272530555725,-2.3138461112976074,0.23471395671367645,0
56,0.27500271797180176,0.08103066682815552,-18.154138565063477,1.0410492420196533,18.321260452270508,0.4031272530555725,2.3266634941101074,-0.22098104655742645,0.0,0.0,0.0,0.0,0.0,0.0,0.0,0.08554491083048127,0.5046232101025429,0.2797921733246535,0.6375897565958856,-0.015194700088370185,0.13442829477327845,-0.23410054282094728,-0.6091342211568923,-0.057515841117553534,-0.6665653665241421,-2.5946825780812777,-0.05573825257775248,2.5078624954753446,0.876320716054903,-0.6090851748156966,-0.05753196718556838,-0.666603097082616,-2.5945565370258534,-0.05562143941554,2.507976027223799,0.8763108487046415,-0.00011197209234665035,-0.00012679539217730484,0.00047163920489438573,-0.001273899901618283,8.722426688586548e-05,-0.007517335605825938,-0.0008173647331571211,0.0,0.0,0.0,0.0,0.0,0.0,0.0,4.9046341195735366e-05,-1.612606801484895e-05,-3.773055847389184e-05,0.00012604105542424193,0.00011681316221247989,0.00011353174845440961,-9.867350261538732e-06,0.00011197209234665035,0.00012679539217730484,-0.00047163920489438573,0.001273899901618283,-8.722426688586548e-05,0.007517335605825938,0.0008173647331571211,-0.08103066682815552,18.154138565063477,-1.0410492420196533,-18.321260452270508,-0.4031272530555725,-2.3266634941101074,0.22098104655742645,0
57,0.2800006866455078,0.08103066682815552,-18.154138565063477,1.0410492420196533,18.321260452270508,0.4031272530555725,2.3266634941101074,-0.22098104655742645,0.0,0.0,0.0,0.0,0.0,0.0,0.0,0.08554491083048127,0.5046232101025429,0.2797921733246535,0.6375897565958856,-0.015194700088370185,0.13442829477327845,-0.23410054282094728,-0.6091342211568923,-0.057515841117553534,-0.6665653665241421,-2.5946825780812777,-0.05573825257775248,2.5078624954753446,0.876320716054903,-0.6090851748156966,-0.05753196718556838,-0.666603097082616,-2.5945565370258534,-0.05562143941554,2.507976027223799,0.8763108487046415,-0.00011197209234665035,-0.00012679539217730484,0.00047163920489438573,-0.001273899901618283,8.722426688586548e-05,-0.007517335605825938,-0.0008173647331571211,0.0,0.0,0.0,0.0,0.0,0.0,0.0,4.9046341195735366e-05,-1.612606801484895e-05,-3.773055847389184e-05,0.00012604105542424193,0.00011681316221247989,0.00011353174845440961,-9.867350261538732e-06,0.00011197209234665035,0.00012679539217730484,-0.00047163920489438573,0.001273899901618283,-8.722426688586548e-05,0.007517335605825938,0.0008173647331571211,-0.08103066682815552,18.154138565063477,-1.0410492420196533,-18.321260452270508,-0.4031272530555725,-2.3266634941101074,0.22098104655742645,0
58,0.2850041389465332,0.08103066682815552,-18.154138565063477,1.1164276599884033,18.269685745239258,0.4150291085243225,2.3202548027038574,-0.26858848333358765,0.0,0.0,0.0,0.0,0.0,0.0,0.0,0.08454936300109743,0.5032052978167078,0.27761395171632797,0.6368949643380278,-0.015807653053482203,0.13527842290687142,-0.23302977351997076,-0.6091335059047385,-0.057515841117553534,-0.6665706291451228,-2.5946782955525003,-0.055739560217324,2.507863207552168,0.8763260057701003,-0.6090851748156966,-0.05753196718556838,-0.666603097082616,-2.5945565370258534,-0.05562143941554,2.507976027223799,0.8763108487046415,-8.324453731232417e-05,0.0001296409555705041,-0.0008710027690876463,-0.00042773094322388634,-0.00023112263965514897,-0.00024110663074492102,0.0013766926192496434,0.0,0.0,0.0,0.0,0.0,0.0,0.0,4.8331089041897535e-05,-1.612606801484895e-05,-3.246793749323018e-05,0.0001217585266468646,0.00011812080178399964,0.00011281967163112583,-1.5157065458848429e-05,8.324453731232417e-05,-0.0001296409555705041,0.0008710027690876463,0.00042773094322388634,0.00023112263965514897,0.00024110663074492102,-0.0013766926192496434,-0.08103066682815552,18.154138565063477,-1.1164276599884033,-18.269685745239258,-0.4150291085243225,-2.3202548027038574,0.26858848333358765,0
59,0.28999972343444824,0.08103066682815552,-18.154138565063477,1.1164276599884033,18.269685745239258,0.4150291085243225,2.3202548027038574,-0.26858848333358765,0.0,0.0,0.0,0.0,0.0,0.0,0.0,0.08454936300109743,0.5032052978167078,0.27761395171632797,0.6368949643380278,-0.015807653053482203,0.13527842290687142,-0.23302977351997076,-0.6091335059047385,-0.057515841117553534,-0.6665706291451228,-2.5946782955525003,-0.055739560217324,2.507863207552168,0.8763260057701003,-0.6090851748156966,-0.05753196718556838,-0.666603097082616,-2.5945565370258534,-0.05562143941554,2.507976027223799,0.8763108487046415,-8.324453731232417e-05,0.0001296409555705041,-0.0008710027690876463,-0.00042773094322388634,-0.00023112263965514897,-0.00024110663074492102,0.0013766926192496434,0.0,0.0,0.0,0.0,0.0,0.0,0.0,4.8331089041897535e-05,-1.612606801484895e-05,-3.246793749323018e-05,0.0001217585266468646,0.00011812080178399964,0.00011281967163112583,-1.5157065458848429e-05,8.324453731232417e-05,-0.0001296409555705041,0.0008710027690876463,0.00042773094322388634,0.00023112263965514897,0.00024110663074492102,-0.0013766926192496434,-0.08103066682815552,18.154138565063477,-1.1164276599884033,-18.269685745239258,-0.4150291085243225,-2.3202548027038574,0.26858848333358765,0
60,0.2950007915496826,0.13260537385940552,-18.177942276000977,1.1164276599884033,18.269685745239258,0.4095359444618225,2.3202548027038574,-0.26858848333358765,0.0,0.0,0.0,0.0,0.0,0.0,0.0,0.08479032018550184,0.502992383037948,0.2784373803624078,0.6270861573287319,-0.015451115647890501,0.13319456629288162,-0.23214992367609008,-0.609137125505436,-0.05751417057356523,-0.6665706291819815,-2.594680339167725,-0.05574183732372646,2.507863207552168,0.8763260057701003,-0.6090851748156966,-0.05753196718556838,-0.666603097082616,-2.5945565370258534,-0.05562143941554,2.507976027223799,0.8763108487046415,-0.0009039512807461781,2.6845705859855145e-05,-0.0005451556971215961,-0.0006447473891814582,7.462671193231472e-05,0.005277631391393112,0.0013610961650754104,0.0,0.0,0.0,0.0,0.0,0.0,0.0,5.1950689739399536e-05,-1.7796612003150025e-05,-3.24679006344919e-05,0.0001238021418714652,0.00012039790818645785,0.00011281967163112583,-1.5157065458848429e-05,0.0009039512807461781,-2.6845705859855145e-05,0.0005451556971215961,0.0006447473891814582,-7.462671193231472e-05,-0.005277631391393112,-0.0013610961650754104,-0.13260537385940552,18.177942276000977,-1.1164276599884033,-18.269685745239258,-0.4095359444618225,-2.3202548027038574,0.26858848333358765,0
61,0.29999876022338867,0.13260537385940552,-18.177942276000977,1.1164276599884033,18.269685745239258,0.4095359444618225,2.3202548027038574,-0.26858848333358765,0.0,0.0,0.0,0.0,0.0,0.0,0.0,0.08479032018550184,0.502992383037948,0.2784373803624078,0.6270861573287319,-0.015451115647890501,0.13319456629288162,-0.23214992367609008,-0.609137125505436,-0.05751417057356523,-0.6665706291819815,-2.594680339167725,-0.05574183732372646,2.507863207552168,0.8763260057701003,-0.6090851748156966,-0.05753196718556838,-0.666603097082616,-2.5945565370258534,-0.05562143941554,2.507976027223799,0.8763108487046415,-0.0009039512807461781,2.6845705859855145e-05,-0.0005451556971215961,-0.0006447473891814582,7.462671193231472e-05,0.005277631391393112,0.0013610961650754104,0.0,0.0,0.0,0.0,0.0,0.0,0.0,5.1950689739399536e-05,-1.7796612003150025e-05,-3.24679006344919e-05,0.0001238021418714652,0.00012039790818645785,0.00011281967163112583,-1.5157065458848429e-05,0.0009039512807461781,-2.6845705859855145e-05,0.0005451556971215961,0.0006447473891814582,-7.462671193231472e-05,-0.005277631391393112,-0.0013610961650754104,-0.13260537385940552,18.177942276000977,-1.1164276599884033,-18.269685745239258,-0.4095359444618225,-2.3202548027038574,0.26858848333358765,0
62,0.30500340461730957,0.13260537385940552,-18.177942276000977,1.1164276599884033,18.269685745239258,0.4095359444618225,2.3202548027038574,-0.26858848333358765,0.0,0.0,0.0,0.0,0.0,0.0,0.0,0.08479032018550184,0.502992383037948,0.2784373803624078,0.6270861573287319,-0.015451115647890501,0.13319456629288162,-0.23214992367609008,-0.609137125505436,-0.05751417057356523,-0.6665706291819815,-2.594680339167725,-0.05574183732372646,2.507863207552168,0.8763260057701003,-0.6090851748156966,-0.05753196718556838,-0.666603097082616,-2.5945565370258534,-0.05562143941554,2.507976027223799,0.8763108487046415,-0.0009039512807461781,2.6845705859855145e-05,-0.0005451556971215961,-0.0006447473891814582,7.462671193231472e-05,0.005277631391393112,0.0013610961650754104,0.0,0.0,0.0,0.0,0.0,0.0,0.0,5.1950689739399536e-05,-1.7796612003150025e-05,-3.24679006344919e-05,0.0001238021418714652,0.00012039790818645785,0.00011281967163112583,-1.5157065458848429e-05,0.0009039512807461781,-2.6845705859855145e-05,0.0005451556971215961,0.0006447473891814582,-7.462671193231472e-05,-0.005277631391393112,-0.0013610961650754104,-0.13260537385940552,18.177942276000977,-1.1164276599884033,-18.269685745239258,-0.4095359444618225,-2.3202548027038574,0.26858848333358765,0
63,0.31000208854675293,0.13260537385940552,-18.177942276000977,1.1164276599884033,18.269685745239258,0.4095359444618225,2.3202548027038574,-0.26858848333358765,0.0,0.0,0.0,0.0,0.0,0.0,0.0,0.08479032018550184,0.502992383037948,0.2784373803624078,0.6270861573287319,-0.015451115647890501,0.13319456629288162,-0.23214992367609008,-0.609137125505436,-0.05751417057356523,-0.6665706291819815,-2.594680339167725,-0.05574183732372646,2.507863207552168,0.8763260057701003,-0.6090851748156966,-0.05753196718556838,-0.666603097082616,-2.5945565370258534,-0.05562143941554,2.507976027223799,0.8763108487046415,-0.0009039512807461781,2.6845705859855145e-05,-0.0005451556971215961,-0.0006447473891814582,7.462671193231472e-05,0.005277631391393112,0.0013610961650754104,0.0,0.0,0.0,0.0,0.0,0.0,0.0,5.1950689739399536e-05,-1.7796612003150025e-05,-3.24679006344919e-05,0.0001238021418714652,0.00012039790818645785,0.00011281967163112583,-1.5157065458848429e-05,0.0009039512807461781,-2.6845705859855145e-05,0.0005451556971215961,0.0006447473891814582,-7.462671193231472e-05,-0.005277631391393112,-0.0013610961650754104,-0.13260537385940552,18.177942276000977,-1.1164276599884033,-18.269685745239258,-0.4095359444618225,-2.3202548027038574,0.26858848333358765,0
64,0.3149993419647217,0.08103066682815552,-18.154138565063477,1.0926239490509033,18.269685745239258,0.4031272530555725,2.3074374198913574,-0.20724813640117645,0.0,0.0,0.0,0.0,0.0,0.0,0.0,0.07856773962182016,0.5004269541839245,0.2710407108120411,0.6250730883163176,-0.014620821239823232,0.13335007101766824,-0.23315416250538268,-0.6091335059007064,-0.0575158411175517,-0.6665689590422204,-2.594678270388782,-0.05573895258271096,2.5078646317058135,0.8763191901759968,-0.6090851748156966,-0.05753196718556838,-0.666603097082616,-2.5945565370258534,-0.05562143941554,2.507976027223799,0.8763108487046415,1.2514068287111579e-05,-0.0005753000213275508,-9.296289655352932e-05,-0.00046779329821545573,0.0003043302966453698,0.0006339179260707954,-0.0007572205143510957,0.0,0.0,0.0,0.0,0.0,0.0,0.0,4.8331085009789554e-05,-1.6126068016680817e-05,-3.413804039564816e-05,0.00012173336292864434,0.00011751316717095728,0.00011139551798544645,-8.341471355310937e-06,-1.2514068287111579e-05,0.0005753000213275508,9.296289655352932e-05,0.00046779329821545573,-0.0003043302966453698,-0.0006339179260707954,0.0007572205143510957,-0.08103066682815552,18.154138565063477,-1.0926239490509033,-18.269685745239258,-0.4031272530555725,-2.3074374198913574,0.20724813640117645,0
65,0.3200066089630127,0.08103066682815552,-18.154138565063477,1.0926239490509033,18.269685745239258,0.4031272530555725,2.3074374198913574,-0.20724813640117645,0.0,0.0,0.0,0.0,0.0,0.0,0.0,0.07856773962182016,0.5004269541839245,0.2710407108120411,0.6250730883163176,-0.014620821239823232,0.13335007101766824,-0.23315416250538268,-0.6091335059007064,-0.0575158411175517,-0.6665689590422204,-2.594678270388782,-0.05573895258271096,2.5078646317058135,0.8763191901759968,-0.6090851748156966,-0.05753196718556838,-0.666603097082616,-2.5945565370258534,-0.05562143941554,2.507976027223799,0.8763108487046415,1.2514068287111579e-05,-0.0005753000213275508,-9.296289655352932e-05,-0.00046779329821545573,0.0003043302966453698,0.0006339179260707954,-0.0007572205143510957,0.0,0.0,0.0,0.0,0.0,0.0,0.0,4.8331085009789554e-05,-1.6126068016680817e-05,-3.413804039564816e-05,0.00012173336292864434,0.00011751316717095728,0.00011139551798544645,-8.341471355310937e-06,-1.2514068287111579e-05,0.0005753000213275508,9.296289655352932e-05,0.00046779329821545573,-0.0003043302966453698,-0.0006339179260707954,0.0007572205143510957,-0.08103066682815552,18.154138565063477,-1.0926239490509033,-18.269685745239258,-0.4031272530555725,-2.3074374198913574,0.20724813640117645,0
66,0.3249995708465576,0.10880166292190552,-18.177942276000977,1.0688202381134033,18.245882034301758,0.4150291085243225,2.3202548027038574,-0.19351522624492645,0.0,0.0,0.0,0.0,0.0,0.0,0.0,0.08510180068565058,0.49449367473342637,0.27660763188766213,0.6305524458133119,-0.01471354360984458,0.1349181085019929,-0.23255653616506244,-0.6091354576859712,-0.05751417068169827,-0.6665673152547862,-2.5946765996029506,-0.05573920582621852,2.507863207552168,0.8763166046589612,-0.6090851748156966,-0.05753196718556838,-0.666603097082616,-2.5945565370258534,-0.05562143941554,2.507976027223799,0.8763108487046415,-0.0005725243253016698,0.00042910712232069873,0.00045109934144864404,0.00024557958822937423,-1.299759484902238e-05,1.5044514474375394e-06,-0.0017372473333395128,0.0,0.0,0.0,0.0,0.0,0.0,0.0,5.028287027464273e-05,-1.779650387011278e-05,-3.57818278298172e-05,0.00012006257709717971,0.00011776641067851729,0.00011281967163112583,-5.755954319730527e-06,0.0005725243253016698,-0.00042910712232069873,-0.00045109934144864404,-0.00024557958822937423,1.299759484902238e-05,-1.5044514474375394e-06,0.0017372473333395128,-0.10880166292190552,18.177942276000977,-1.0688202381134033,-18.245882034301758,-0.4150291085243225,-2.3202548027038574,0.19351522624492645,0
67,0.3300008773803711,0.10880166292190552,-18.177942276000977,1.0688202381134033,18.245882034301758,0.4150291085243225,2.3202548027038574,-0.19351522624492645,0.0,0.0,0.0,0.0,0.0,0.0,0.0,0.08510180068565058,0.49449367473342637,0.27660763188766213,0.6305524458133119,-0.01471354360984458,0.1349181085019929,-0.23255653616506244,-0.6091354576859712,-0.05751417068169827,-0.6665673152547862,-2.5946765996029506,-0.05573920582621852,2.507863207552168,0.8763166046589612,-0.6090851748156966,-0.05753196718556838,-0.666603097082616,-2.5945565370258534,-0.05562143941554,2.507976027223799,0.8763108487046415,-0.0005725243253016698,0.00042910712232069873,0.00045109934144864404,0.00024557958822937423,-1.299759484902238e-05,1.5044514474375394e-06,-0.0017372473333395128,0.0,0.0,0.0,0.0,0.0,0.0,0.0,5.028287027464273e-05,-1.779650387011278e-05,-3.57818278298172e-05,0.00012006257709717971,0.00011776641067851729,0.00011281967163112583,-5.755954319730527e-06,0.0005725243253016698,-0.00042910712232069873,-0.00045109934144864404,-0.00024557958822937423,1.299759484902238e-05,-1.5044514474375394e-06,0.0017372473333395128,-0.10880166292190552,18.177942276000977,-1.0688202381134033,-18.245882034301758,-0.4150291085243225,-2.3202548027038574,0.19351522624492645,0
68,0.33500075340270996,0.10880166292190552,-18.154138565063477,1.0926239490509033,18.321260452270508,0.4031272530555725,2.3202548027038574,-0.23471395671367645,0.0,0.0,0.0,0.0,0.0,0.0,0.0,0.08242892419532326,0.4959643684327074,0.2720179468711151,0.633756957327895,-0.013784721444221399,0.13546199050680577,-0.23288991232096817,-0.609135534251747,-0.057515841117553534,-0.6665711442129085,-2.5946825866895233,-0.05574266485777295,2.507863207552168,0.8763222419278276,-0.6090851748156966,-0.05753196718556838,-0.666603097082616,-2.5945565370258534,-0.05562143941554,2.507976027223799,0.8763108487046415,-0.000835465586310595,0.00016715105588601046,-0.0002474336930277056,-0.0012930553523485232,0.0003527863774504674,-2.3690873635711986e-05,-0.0002556255252737347,0.0,0.0,0.0,0.0,0.0,0.0,0.0,5.035943605047333e-05,-1.612606801484895e-05,-3.195286970747446e-05,0.00012604966366991377,0.00012122544223294729,0.00011281967163112583,-1.1393223186106916e-05,0.000835465586310595,-0.00016715105588601046,0.0002474336930277056,0.0012930553523485232,-0.0003527863774504674,2.3690873635711986e-05,0.0002556255252737347,-0.10880166292190552,18.154138565063477,-1.0926239490509033,-18.321260452270508,-0.4031272530555725,-2.3202548027038574,0.23471395671367645,0
69,0.34001874923706055,0.10880166292190552,-18.154138565063477,1.0926239490509033,18.321260452270508,0.4031272530555725,2.3202548027038574,-0.23471395671367645,0.0,0.0,0.0,0.0,0.0,0.0,0.0,0.08242892419532326,0.4959643684327074,0.2720179468711151,0.633756957327895,-0.013784721444221399,0.13546199050680577,-0.23288991232096817,-0.609135534251747,-0.057515841117553534,-0.6665711442129085,-2.5946825866895233,-0.05574266485777295,2.507863207552168,0.8763222419278276,-0.6090851748156966,-0.05753196718556838,-0.666603097082616,-2.5945565370258534,-0.05562143941554,2.507976027223799,0.8763108487046415,-0.000835465586310595,0.00016715105588601046,-0.0002474336930277056,-0.0012930553523485232,0.0003527863774504674,-2.3690873635711986e-05,-0.0002556255252737347,0.0,0.0,0.0,0.0,0.0,0.0,0.0,5.035943605047333e-05,-1.612606801484895e-05,-3.195286970747446e-05,0.00012604966366991377,0.00012122544223294729,0.00011281967163112583,-1.1393223186106916e-05,0.000835465586310595,-0.00016715105588601046,0.0002474336930277056,0.0012930553523485232,-0.0003527863774504674,2.3690873635711986e-05,0.0002556255252737347,-0.10880166292190552,18.154138565063477,-1.0926239490509033,-18.321260452270508,-0.4031272530555725,-2.3202548027038574,0.23471395671367645,0
70,0.344998836517334,0.08103066682815552,-18.154138565063477,1.0926239490509033,18.297456741333008,0.4095359444618225,2.3138461112976074,-0.25485557317733765,0.0,0.0,0.0,0.0,0.0,0.0,0.0,0.0850344913345539,0.5008173415917283,0.27566143102171703,0.6324358992457506,-0.013661128551034657,0.13430014448012137,-0.23284668768188713,-0.6091335059011497,-0.057515841117553534,-0.6665696872596774,-2.5946811372376186,-0.05573982015845531,2.5078639196289907,0.8763244798911941,-0.6090851748156966,-0.05753196718556838,-0.666603097082616,-2.5945565370258534,-0.05562143941554,2.507976027223799,0.8763108487046415,0.000356307814571937,0.0002969959057138649,0.00018404469104105802,-0.0011262328151105975,6.036462980767041e-05,-0.00017361920642955224,0.0008727494831853662,0.0,0.0,0.0,0.0,0.0,0.0,0.0,4.833108545310161e-05,-1.612606801484895e-05,-3.340982293864592e-05,0.0001246002117651912,0.00011838074291530692,0.00011210759480828614,-1.3631186552620633e-05,-0.000356307814571937,-0.0002969959057138649,-0.00018404469104105802,0.0011262328151105975,-6.036462980767041e-05,0.00017361920642955224,-0.0008727494831853662,-0.08103066682815552,18.154138565063477,-1.0926239490509033,-18.297456741333008,-0.4095359444618225,-2.3138461112976074,0.25485557317733765,0
71,0.35000157356262207,0.08103066682815552,-18.154138565063477,1.0926239490509033,18.297456741333008,0.4095359444618225,2.3138461112976074,-0.25485557317733765,0.0,0.0,0.0,0.0,0.0,0.0,0.0,0.0850344913345539,0.5008173415917283,0.27566143102171703,0.6324358992457506,-0.013661128551034657,0.13430014448012137,-0.23284668768188713,-0.6091335059011497,-0.057515841117553534,-0.6665696872596774,-2.5946811372376186,-0.05573982015845531,2.5078639196289907,0.8763244798911941,-0.6090851748156966,-0.05753196718556838,-0.666603097082616,-2.5945565370258534,-0.05562143941554,2.507976027223799,0.8763108487046415,0.000356307814571937,0.0002969959057138649,0.00018404469104105802,-0.0011262328151105975,6.036462980767041e-05,-0.00017361920642955224,0.0008727494831853662,0.0,0.0,0.0,0.0,0.0,0.0,0.0,4.833108545310161e-05,-1.612606801484895e-05,-3.340982293864592e-05,0.0001246002117651912,0.00011838074291530692,0.00011210759480828614,-1.3631186552620633e-05,-0.000356307814571937,-0.0002969959057138649,-0.00018404469104105802,0.0011262328151105975,-6.036462980767041e-05,0.00017361920642955224,-0.0008727494831853662,-0.08103066682815552,18.154138565063477,-1.0926239490509033,-18.297456741333008,-0.4095359444618225,-2.3138461112976074,0.25485557317733765,0
72,0.35500288009643555,0.08103066682815552,-18.177942276000977,1.1164276599884033,18.245882034301758,0.4095359444618225,2.3074374198913574,-0.22098104655742645,0.0,0.0,0.0,0.0,0.0,0.0,0.0,0.08539745525581793,0.5024244988254746,0.2755791533447261,0.6326377038692191,-0.013531667393486158,0.13314527937107293,-0.23357609346684666,-0.6091335059007009,-0.05751417068169827,-0.666570656130609,-2.5946772884079112,-0.05573966038613929,2.5078646317058135,0.876320716054903,-0.6090851748156966,-0.05753196718556838,-0.666603097082616,-2.5945565370258534,-0.05562143941554,2.507976027223799,0.8763108487046415,0.00044482855342596763,0.0007527237328883231,-0.0003984253232209201,1.8612963680500593e-05,4.494437685916844e-05,0.000344072912109891,-0.00018884081481534924,0.0,0.0,0.0,0.0,0.0,0.0,0.0,4.833108500434946e-05,-1.779650387011278e-05,-3.2440952007051216e-05,0.00012075138205780434,0.00011822097059929065,0.00011139551798544645,-9.867350261538732e-06,-0.00044482855342596763,-0.0007527237328883231,0.0003984253232209201,-1.8612963680500593e-05,-4.494437685916844e-05,-0.000344072912109891,0.00018884081481534924,-0.08103066682815552,18.177942276000977,-1.1164276599884033,-18.245882034301758,-0.4095359444618225,-2.3074374198913574,0.22098104655742645,0
73,0.36001086235046387,0.08103066682815552,-18.177942276000977,1.1164276599884033,18.245882034301758,0.4095359444618225,2.3074374198913574,-0.22098104655742645,0.0,0.0,0.0,0.0,0.0,0.0,0.0,0.08539745525581793,0.5024244988254746,0.2755791533447261,0.6326377038692191,-0.013531667393486158,0.13314527937107293,-0.23357609346684666,-0.6091335059007009,-0.05751417068169827,-0.666570656130609,-2.5946772884079112,-0.05573966038613929,2.5078646317058135,0.876320716054903,-0.6090851748156966,-0.05753196718556838,-0.666603097082616,-2.5945565370258534,-0.05562143941554,2.507976027223799,0.8763108487046415,0.00044482855342596763,0.0007527237328883231,-0.0003984253232209201,1.8612963680500593e-05,4.494437685916844e-05,0.000344072912109891,-0.00018884081481534924,0.0,0.0,0.0,0.0,0.0,0.0,0.0,4.833108500434946e-05,-1.779650387011278e-05,-3.2440952007051216e-05,0.00012075138205780434,0.00011822097059929065,0.00011139551798544645,-9.867350261538732e-06,-0.00044482855342596763,-0.0007527237328883231,0.0003984253232209201,-1.8612963680500593e-05,-4.494437685916844e-05,-0.000344072912109891,0.00018884081481534924,-0.08103066682815552,18.177942276000977,-1.1164276599884033,-18.245882034301758,-0.4095359444618225,-2.3074374198913574,0.22098104655742645,0
74,0.36501145362854004,0.08103066682815552,-18.177942276000977,1.0410492420196533,18.245882034301758,0.4150291085243225,2.3138461112976074,-0.22830526530742645,0.0,0.0,0.0,0.0,0.0,0.0,0.0,0.08318482405658434,0.4982637000872523,0.27156925760762257,0.6354492013085287,-0.013286494240926013,0.13357185701544638,-0.23328117541314256,-0.6091335059007009,-0.05751417068169827,-0.6665653484254225,-2.594676599606838,-0.055740310282114784,2.5078639196289907,0.8763215298569863,-0.6090851748156966,-0.05753196718556838,-0.666603097082616,-2.5945565370258534,-0.05562143941554,2.507976027223799,0.8763108487046415,-0.00018708721940550286,2.4732674890924728e-05,0.001049181797339721,9.152257580501402e-05,-0.000354507281210395,-4.666627580714811e-05,-0.00036561541667112996,0.0,0.0,0.0,0.0,0.0,0.0,0.0,4.833108500434946e-05,-1.779650387011278e-05,-3.7748657193525936e-05,0.00012006258098473666,0.00011887086657478424,0.00011210759480828614,-1.0681152344815814e-05,0.00018708721940550286,-2.4732674890924728e-05,-0.001049181797339721,-9.152257580501402e-05,0.000354507281210395,4.666627580714811e-05,0.00036561541667112996,-0.08103066682815552,18.177942276000977,-1.0410492420196533,-18.245882034301758,-0.4150291085243225,-2.3138461112976074,0.22830526530742645,0
75,0.3699984550476074,0.08103066682815552,-18.177942276000977,1.0410492420196533,18.245882034301758,0.4150291085243225,2.3138461112976074,-0.22830526530742645,0.0,0.0,0.0,0.0,0.0,0.0,0.0,0.08318482405658434,0.4982637000872523,0.27156925760762257,0.6354492013085287,-0.013286494240926013,0.13357185701544638,-0.23328117541314256,-0.6091335059007009,-0.05751417068169827,-0.6665653484254225,-2.594676599606838,-0.055740310282114784,2.5078639196289907,0.8763215298569863,-0.6090851748156966,-0.05753196718556838,-0.666603097082616,-2.5945565370258534,-0.05562143941554,2.507976027223799,0.8763108487046415,-0.00018708721940550286,2.4732674890924728e-05,0.001049181797339721,9.152257580501402e-05,-0.000354507281210395,-4.666627580714811e-05,-0.00036561541667112996,0.0,0.0,0.0,0.0,0.0,0.0,0.0,4.833108500434946e-05,-1.779650387011278e-05,-3.7748657193525936e-05,0.00012006258098473666,0.00011887086657478424,0.00011210759480828614,-1.0681152344815814e-05,0.00018708721940550286,-2.4732674890924728e-05,-0.001049181797339721,-9.152257580501402e-05,0.000354507281210395,4.666627580714811e-05,0.00036561541667112996,-0.08103066682815552,18.177942276000977,-1.0410492420196533,-18.245882034301758,-0.4150291085243225,-2.3138461112976074,0.22830526530742645,0
76,0.3750307559967041,0.08103066682815552,-18.177942276000977,1.0410492420196533,18.345064163208008,0.4095359444618225,2.3202548027038574,-0.20724813640117645,0.0,0.0,0.0,0.0,0.0,0.0,0.0,0.08274361205766124,0.5011233629470424,0.27146778670504296,0.6315815943558601,-0.013568677179413579,0.1327716061638479,-0.2339305303337251,-0.6091335059007009,-0.05751417068169827,-0.6665653394314788,-2.594683559752347,-0.055739125386104364,2.507863207552168,0.8763191901759968,-0.6090851748156966,-0.05753196718556838,-0.666603097082616,-2.5945565370258534,-0.05562143941554,2.507976027223799,0.8763108487046415,-0.0004911661908334847,0.00034438363230867306,0.0008353372965923756,-0.0021835157895504563,0.00012663233599224716,6.11829003248341e-05,-0.00238290846511696,0.0,0.0,0.0,0.0,0.0,0.0,0.0,4.833108500434946e-05,-1.779650387011278e-05,-3.7757651137226844e-05,0.00012702272649356416,0.0001176859705643643,0.00011281967163112583,-8.341471355310937e-06,0.0004911661908334847,-0.00034438363230867306,-0.0008353372965923756,0.0021835157895504563,-0.00012663233599224716,-6.11829003248341e-05,0.00238290846511696,-0.08103066682815552,18.177942276000977,-1.0410492420196533,-18.345064163208008,-0.4095359444618225,-2.3202548027038574,0.20724813640117645,0
77,0.38004088401794434,0.08103066682815552,-18.177942276000977,1.0410492420196533,18.345064163208008,0.4095359444618225,2.3202548027038574,-0.20724813640117645,0.0,0.0,0.0,0.0,0.0,0.0,0.0,0.08274361205766124,0.5011233629470424,0.27146778670504296,0.6315815943558601,-0.013568677179413579,0.1327716061638479,-0.2339305303337251,-0.6091335059007009,-0.05751417068169827,-0.6665653394314788,-2.594683559752347,-0.055739125386104364,2.507863207552168,0.8763191901759968,-0.6090851748156966,-0.05753196718556838,-0.666603097082616,-2.5945565370258534,-0.05562143941554,2.507976027223799,0.8763108487046415,-0.0004911661908334847,0.00034438363230867306,0.0008353372965923756,-0.0021835157895504563,0.00012663233599224716,6.11829003248341e-05,-0.00238290846511696,0.0,0.0,0.0,0.0,0.0,0.0,0.0,4.833108500434946e-05,-1.779650387011278e-05,-3.7757651137226844e-05,0.00012702272649356416,0.0001176859705643643,0.00011281967163112583,-8.341471355310937e-06,0.0004911661908334847,-0.00034438363230867306,-0.0008353372965923756,0.0021835157895504563,-0.00012663233599224716,-6.11829003248341e-05,0.00238290846511696,-0.08103066682815552,18.177942276000977,-1.0410492420196533,-18.345064163208008,-0.4095359444618225,-2.3202548027038574,0.20724813640117645,0
78,0.38500118255615234,0.03342324495315552,-18.205713272094727,1.0688202381134033,18.269685745239258,0.4214377999305725,2.3138461112976074,-0.23471395671367645,0.0,0.0,0.0,0.0,0.0,0.0,0.0,0.08045561585813346,0.49665746886209494,0.2704550096310583,0.6319478328436477,-0.014006458322004204,0.13314418586157592,-0.23466713027930058,-0.6091301680935587,-0.057512221839867136,-0.6665672916043118,-2.5946782955486123,-0.055739934099354314,2.5078639196289907,0.8763222419338093,-0.6090851748156966,-0.05753196718556838,-0.666603097082616,-2.5945565370258534,-0.05562143941554,2.507976027223799,0.8763108487046415,0.0005693428174704619,0.0004501948199929901,0.0002713603210514256,-0.00011857094590191589,-0.0004620022691203703,0.0001976657113040224,0.0003474745449115643,0.0,0.0,0.0,0.0,0.0,0.0,0.0,4.499327786211538e-05,-1.9745345701246975e-05,-3.580547830417391e-05,0.00012175852275886356,0.00011849468381431444,0.00011210759480828614,-1.1393229167766528e-05,-0.0005693428174704619,-0.0004501948199929901,-0.0002713603210514256,0.00011857094590191589,0.0004620022691203703,-0.0001976657113040224,-0.0003474745449115643,-0.03342324495315552,18.205713272094727,-1.0688202381134033,-18.269685745239258,-0.4214377999305725,-2.3138461112976074,0.23471395671367645,0
79,0.39003920555114746,0.03342324495315552,-18.205713272094727,1.0688202381134033,18.269685745239258,0.4214377999305725,2.3138461112976074,-0.23471395671367645,0.0,0.0,0.0,0.0,0.0,0.0,0.0,0.08045561585813346,0.49665746886209494,0.2704550096310583,0.6319478328436477,-0.014006458322004204,0.13314418586157592,-0.23466713027930058,-0.6091301680935587,-0.057512221839867136,-0.6665672916043118,-2.5946782955486123,-0.055739934099354314,2.5078639196289907,0.8763222419338093,-0.6090851748156966,-0.05753196718556838,-0.666603097082616,-2.5945565370258534,-0.05562143941554,2.507976027223799,0.8763108487046415,0.0005693428174704619,0.0004501948199929901,0.0002713603210514256,-0.00011857094590191589,-0.0004620022691203703,0.0001976657113040224,0.0003474745449115643,0.0,0.0,0.0,0.0,0.0,0.0,0.0,4.499327786211538e-05,-1.9745345701246975e-05,-3.580547830417391e-05,0.00012175852275886356,0.00011849468381431444,0.00011210759480828614,-1.1393229167766528e-05,-0.0005693428174704619,-0.0004501948199929901,-0.0002713603210514256,0.00011857094590191589,0.0004620022691203703,-0.0001976657113040224,-0.0003474745449115643,-0.03342324495315552,18.205713272094727,-1.0688202381134033,-18.269685745239258,-0.4214377999305725,-2.3138461112976074,0.23471395671367645,0
