rezayati/contactInterpretation/dataset/franka_main/labeled_data/link7/a3_7.csv
index,time,tau_J0,tau_J1,tau_J2,tau_J3,tau_J4,tau_J5,tau_J6,tau_J_d0,tau_J_d1,tau_J_d2,tau_J_d3,tau_J_d4,tau_J_d5,tau_J_d6,tau_ext0,tau_ext1,tau_ext2,tau_ext3,tau_ext4,tau_ext5,tau_ext6,q0,q1,q2,q3,q4,q5,q6,q_d0,q_d1,q_d2,q_d3,q_d4,q_d5,q_d6,dq0,dq1,dq2,dq3,dq4,dq5,dq6,dq_d0,dq_d1,dq_d2,dq_d3,dq_d4,dq_d5,dq_d6,e0,e1,e2,e3,e4,e5,e6,de0,de1,de2,de3,de4,de5,de6,etau_J0,etau_J1,etau_J2,etau_J3,etau_J4,etau_J5,etau_J6,label
1,0.0,-0.2998287081718445,-11.727136611938477,0.9696381092071533,21.669649124145508,0.3555198311805725,2.5335726737976074,-0.29605430364608765,0.0,0.0,0.0,0.0,0.0,0.0,0.0,-0.2964776909795719,0.6034900628926955,-0.20933501132353213,0.38329287002134665,-0.18086744016609405,0.13082365234150595,-0.2691086569897564,0.1730253251121755,-0.487580572305068,-0.11130083215027524,-1.9462686501759052,0.1334658399525711,2.5954443059447554,0.9452575987526686,0.1728802376190821,-0.48752024683155326,-0.11147110072896137,-1.9463801863486305,0.1336059019074957,2.595550359778934,0.9452445589611904,0.00028597514228468496,-0.00012395544801387418,0.00013398285884555242,4.824018922572858e-05,-6.935491929991058e-05,3.968247284170363e-05,0.0008772534096099867,0.0,0.0,0.0,0.0,0.0,0.0,0.0,-0.00014508749309338764,6.0325473514755146e-05,-0.000170268578686128,-0.0001115361727253017,0.00014006195492458073,0.00010605383417860992,-1.3039791478153262e-05,-0.00028597514228468496,0.00012395544801387418,-0.00013398285884555242,-4.824018922572858e-05,6.935491929991058e-05,-3.968247284170363e-05,-0.0008772534096099867,0.2998287081718445,11.727136611938477,-0.9696381092071533,-21.669649124145508,-0.3555198311805725,-2.5335726737976074,0.29605430364608765,0
2,0.005002021789550781,-0.3236324191093445,-11.802515029907227,0.9180634021759033,21.669649124145508,0.3500266671180725,2.5335726737976074,-0.23471395671367645,0.0,0.0,0.0,0.0,0.0,0.0,0.0,-0.30322315019862256,0.5810849165143966,-0.22151495579455613,0.39193890943983767,-0.18018746820328005,0.13263281805229177,-0.2714270262007963,0.17302699554803075,-0.4875752822599932,-0.11129721287258883,-1.9462665753899961,0.133465379661405,2.5954478038241406,0.9452507831591704,0.1728802376190821,-0.48752024683155326,-0.11147110072896137,-1.9463801863486305,0.1336059019074957,2.595550359778934,0.9452445589611904,7.663119500711468e-05,0.00031899620112203395,0.0007298204252321511,0.00012902738403495147,0.00024337740046203877,-9.448641440674613e-05,-0.0007357200281287982,0.0,0.0,0.0,0.0,0.0,0.0,0.0,-0.0001467579289486376,5.5035428439931255e-05,-0.0001738878563725399,-0.00011361095863438031,0.00014052224609067965,0.00010255595479335966,-6.224197980020385e-06,-7.663119500711468e-05,-0.00031899620112203395,-0.0007298204252321511,-0.00012902738403495147,-0.00024337740046203877,9.448641440674613e-05,0.0007357200281287982,0.3236324191093445,11.802515029907227,-0.9180634021759033,-21.669649124145508,-0.3500266671180725,-2.5335726737976074,0.23471395671367645,0
3,0.009999275207519531,-0.3236324191093445,-11.802515029907227,0.9180634021759033,21.669649124145508,0.3500266671180725,2.5335726737976074,-0.23471395671367645,0.0,0.0,0.0,0.0,0.0,0.0,0.0,-0.30322315019862256,0.5810849165143966,-0.22151495579455613,0.39193890943983767,-0.18018746820328005,0.13263281805229177,-0.2714270262007963,0.17302699554803075,-0.4875752822599932,-0.11129721287258883,-1.9462665753899961,0.133465379661405,2.5954478038241406,0.9452507831591704,0.1728802376190821,-0.48752024683155326,-0.11147110072896137,-1.9463801863486305,0.1336059019074957,2.595550359778934,0.9452445589611904,7.663119500711468e-05,0.00031899620112203395,0.0007298204252321511,0.00012902738403495147,0.00024337740046203877,-9.448641440674613e-05,-0.0007357200281287982,0.0,0.0,0.0,0.0,0.0,0.0,0.0,-0.0001467579289486376,5.5035428439931255e-05,-0.0001738878563725399,-0.00011361095863438031,0.00014052224609067965,0.00010255595479335966,-6.224197980020385e-06,-7.663119500711468e-05,-0.00031899620112203395,-0.0007298204252321511,-0.00012902738403495147,-0.00024337740046203877,9.448641440674613e-05,0.0007357200281287982,0.3236324191093445,11.802515029907227,-0.9180634021759033,-21.669649124145508,-0.3500266671180725,-2.5335726737976074,0.23471395671367645,0
4,0.014997720718383789,-0.2998287081718445,-11.699365615844727,0.9180634021759033,21.693452835083008,0.3500266671180725,2.5335726737976074,-0.23471395671367645,0.0,0.0,0.0,0.0,0.0,0.0,0.0,-0.29709298982649535,0.6060695008779173,-0.2161859888962688,0.3761575525119374,-0.18055755454154435,0.12965186023405345,-0.27092327755317924,0.1730253251121755,-0.48758252081536413,-0.11129721287258883,-1.9462682458141394,0.1334653796553613,2.5954446611466833,0.9452506624795238,0.1728802376190821,-0.48752024683155326,-0.11147110072896137,-1.9463801863486305,0.1336059019074957,2.595550359778934,0.9452445589611904,-0.00012250138371100797,-0.001457314738532207,0.0006787201870922247,-0.0003465372761314786,0.00016972628963781144,-0.00022966374930792662,-0.0007962925774846388,0.0,0.0,0.0,0.0,0.0,0.0,0.0,-0.00014508749309338764,6.227398381086768e-05,-0.0001738878563725399,-0.0001119405344911506,0.00014052225213440073,0.00010569863225073917,-6.103518333411273e-06,0.00012250138371100797,0.001457314738532207,-0.0006787201870922247,0.0003465372761314786,-0.00016972628963781144,0.00022966374930792662,0.0007962925774846388,0.2998287081718445,11.699365615844727,-0.9180634021759033,-21.693452835083008,-0.3500266671180725,-2.5335726737976074,0.23471395671367645,0
5,0.020018339157104492,-0.2998287081718445,-11.699365615844727,0.9180634021759033,21.693452835083008,0.3500266671180725,2.5335726737976074,-0.23471395671367645,0.0,0.0,0.0,0.0,0.0,0.0,0.0,-0.29709298982649535,0.6060695008779173,-0.2161859888962688,0.3761575525119374,-0.18055755454154435,0.12965186023405345,-0.27092327755317924,0.1730253251121755,-0.48758252081536413,-0.11129721287258883,-1.9462682458141394,0.1334653796553613,2.5954446611466833,0.9452506624795238,0.1728802376190821,-0.48752024683155326,-0.11147110072896137,-1.9463801863486305,0.1336059019074957,2.595550359778934,0.9452445589611904,-0.00012250138371100797,-0.001457314738532207,0.0006787201870922247,-0.0003465372761314786,0.00016972628963781144,-0.00022966374930792662,-0.0007962925774846388,0.0,0.0,0.0,0.0,0.0,0.0,0.0,-0.00014508749309338764,6.227398381086768e-05,-0.0001738878563725399,-0.0001119405344911506,0.00014052225213440073,0.00010569863225073917,-6.103518333411273e-06,0.00012250138371100797,0.001457314738532207,-0.0006787201870922247,0.0003465372761314786,-0.00016972628963781144,0.00022966374930792662,0.0007962925774846388,0.2998287081718445,11.699365615844727,-0.9180634021759033,-21.693452835083008,-0.3500266671180725,-2.5335726737976074,0.23471395671367645,0
6,0.025014162063598633,-0.3236324191093445,-11.727136611938477,0.9180634021759033,21.669649124145508,0.3500266671180725,2.5271639823913574,-0.29605430364608765,0.0,0.0,0.0,0.0,0.0,0.0,0.0,-0.29831873839995626,0.5813216244862894,-0.21687465181351623,0.3857607248901064,-0.18085998168988535,0.130169926316437,-0.2688740340963968,0.17302699554803075,-0.48758057197353294,-0.11129721287258883,-1.946266575378284,0.13346537965536118,2.595446082498351,0.9452585642006662,0.1728802376190821,-0.48752024683155326,-0.11147110072896137,-1.9463801863486305,0.1336059019074957,2.595550359778934,0.9452445589611904,0.00012090058461450607,-0.0013805920894751913,0.0012818392451608997,-9.692147223127012e-05,0.0001155484394436019,2.458230279655145e-05,0.0020035887508083575,0.0,0.0,0.0,0.0,0.0,0.0,0.0,-0.0001467579289486376,6.0325141979677976e-05,-0.0001738878563725399,-0.00011361097034656709,0.00014052225213451175,0.00010427728058282071,-1.400523947581167e-05,-0.00012090058461450607,0.0013805920894751913,-0.0012818392451608997,9.692147223127012e-05,-0.0001155484394436019,-2.458230279655145e-05,-0.0020035887508083575,0.3236324191093445,11.727136611938477,-0.9180634021759033,-21.669649124145508,-0.3500266671180725,-2.5271639823913574,0.29605430364608765,0
7,0.03001999855041504,-0.3236324191093445,-11.727136611938477,0.9180634021759033,21.669649124145508,0.3500266671180725,2.5271639823913574,-0.29605430364608765,0.0,0.0,0.0,0.0,0.0,0.0,0.0,-0.29831873839995626,0.5813216244862894,-0.21687465181351623,0.3857607248901064,-0.18085998168988535,0.130169926316437,-0.2688740340963968,0.17302699554803075,-0.48758057197353294,-0.11129721287258883,-1.946266575378284,0.13346537965536118,2.595446082498351,0.9452585642006662,0.1728802376190821,-0.48752024683155326,-0.11147110072896137,-1.9463801863486305,0.1336059019074957,2.595550359778934,0.9452445589611904,0.00012090058461450607,-0.0013805920894751913,0.0012818392451608997,-9.692147223127012e-05,0.0001155484394436019,2.458230279655145e-05,0.0020035887508083575,0.0,0.0,0.0,0.0,0.0,0.0,0.0,-0.0001467579289486376,6.0325141979677976e-05,-0.0001738878563725399,-0.00011361097034656709,0.00014052225213451175,0.00010427728058282071,-1.400523947581167e-05,-0.00012090058461450607,0.0013805920894751913,-0.0012818392451608997,9.692147223127012e-05,-0.0001155484394436019,-2.458230279655145e-05,-0.0020035887508083575,0.3236324191093445,11.727136611938477,-0.9180634021759033,-21.669649124145508,-0.3500266671180725,-2.5271639823913574,0.29605430364608765,0
8,0.03500223159790039,-0.2998287081718445,-11.699365615844727,0.9696381092071533,21.669649124145508,0.3500266671180725,2.5271639823913574,-0.24112264811992645,0.0,0.0,0.0,0.0,0.0,0.0,0.0,-0.3054987114425602,0.5860691340909049,-0.2257656184858104,0.38301635418226765,-0.18101021654731278,0.12929501306917102,-0.2666094158841271,0.1730253251121755,-0.48758252081536413,-0.11130083215027524,-1.946266575378284,0.1334657350756504,2.5954492221708865,0.9452513745604342,0.1728802376190821,-0.48752024683155326,-0.11147110072896137,-1.9463801863486305,0.1336059019074957,2.595550359778934,0.9452445589611904,-0.0002661971374246664,-0.0009671732193093228,-0.0004513845581133006,0.0003149333795419941,-1.0328721405743558e-05,0.00016879782963549959,-0.0004926871195450379,0.0,0.0,0.0,0.0,0.0,0.0,0.0,-0.00014508749309338764,6.227398381086768e-05,-0.000170268578686128,-0.00011361097034656709,0.00014016683184528422,0.00010113760804753014,-6.815599243759074e-06,0.0002661971374246664,0.0009671732193093228,0.0004513845581133006,-0.0003149333795419941,1.0328721405743558e-05,-0.00016879782963549959,0.0004926871195450379,0.2998287081718445,11.699365615844727,-0.9696381092071533,-21.669649124145508,-0.3500266671180725,-2.5271639823913574,0.24112264811992645,0
9,0.03995537757873535,-0.2998287081718445,-11.699365615844727,0.9696381092071533,21.669649124145508,0.3500266671180725,2.5271639823913574,-0.24112264811992645,0.0,0.0,0.0,0.0,0.0,0.0,0.0,-0.3054987114425602,0.5860691340909049,-0.2257656184858104,0.38301635418226765,-0.18101021654731278,0.12929501306917102,-0.2666094158841271,0.1730253251121755,-0.48758252081536413,-0.11130083215027524,-1.946266575378284,0.1334657350756504,2.5954492221708865,0.9452513745604342,0.1728802376190821,-0.48752024683155326,-0.11147110072896137,-1.9463801863486305,0.1336059019074957,2.595550359778934,0.9452445589611904,-0.0002661971374246664,-0.0009671732193093228,-0.0004513845581133006,0.0003149333795419941,-1.0328721405743558e-05,0.00016879782963549959,-0.0004926871195450379,0.0,0.0,0.0,0.0,0.0,0.0,0.0,-0.00014508749309338764,6.227398381086768e-05,-0.000170268578686128,-0.00011361097034656709,0.00014016683184528422,0.00010113760804753014,-6.815599243759074e-06,0.0002661971374246664,0.0009671732193093228,0.0004513845581133006,-0.0003149333795419941,1.0328721405743558e-05,-0.00016879782963549959,0.0004926871195450379,0.2998287081718445,11.699365615844727,-0.9696381092071533,-21.669649124145508,-0.3500266671180725,-2.5271639823913574,0.24112264811992645,0
10,0.04499936103820801,-0.2998287081718445,-11.699365615844727,0.9696381092071533,21.669649124145508,0.3500266671180725,2.5271639823913574,-0.24112264811992645,0.0,0.0,0.0,0.0,0.0,0.0,0.0,-0.3054987114425602,0.5860691340909049,-0.2257656184858104,0.38301635418226765,-0.18101021654731278,0.12929501306917102,-0.2666094158841271,0.1730253251121755,-0.48758252081536413,-0.11130083215027524,-1.946266575378284,0.1334657350756504,2.5954492221708865,0.9452513745604342,0.1728802376190821,-0.48752024683155326,-0.11147110072896137,-1.9463801863486305,0.1336059019074957,2.595550359778934,0.9452445589611904,-0.0002661971374246664,-0.0009671732193093228,-0.0004513845581133006,0.0003149333795419941,-1.0328721405743558e-05,0.00016879782963549959,-0.0004926871195450379,0.0,0.0,0.0,0.0,0.0,0.0,0.0,-0.00014508749309338764,6.227398381086768e-05,-0.000170268578686128,-0.00011361097034656709,0.00014016683184528422,0.00010113760804753014,-6.815599243759074e-06,0.0002661971374246664,0.0009671732193093228,0.0004513845581133006,-0.0003149333795419941,1.0328721405743558e-05,-0.00016879782963549959,0.0004926871195450379,0.2998287081718445,11.699365615844727,-0.9696381092071533,-21.669649124145508,-0.3500266671180725,-2.5271639823913574,0.24112264811992645,0
11,0.05000138282775879,-0.2998287081718445,-11.699365615844727,0.9696381092071533,21.669649124145508,0.3500266671180725,2.5271639823913574,-0.24112264811992645,0.0,0.0,0.0,0.0,0.0,0.0,0.0,-0.3054987114425602,0.5860691340909049,-0.2257656184858104,0.38301635418226765,-0.18101021654731278,0.12929501306917102,-0.2666094158841271,0.1730253251121755,-0.48758252081536413,-0.11130083215027524,-1.946266575378284,0.1334657350756504,2.5954492221708865,0.9452513745604342,0.1728802376190821,-0.48752024683155326,-0.11147110072896137,-1.9463801863486305,0.1336059019074957,2.595550359778934,0.9452445589611904,-0.0002661971374246664,-0.0009671732193093228,-0.0004513845581133006,0.0003149333795419941,-1.0328721405743558e-05,0.00016879782963549959,-0.0004926871195450379,0.0,0.0,0.0,0.0,0.0,0.0,0.0,-0.00014508749309338764,6.227398381086768e-05,-0.000170268578686128,-0.00011361097034656709,0.00014016683184528422,0.00010113760804753014,-6.815599243759074e-06,0.0002661971374246664,0.0009671732193093228,0.0004513845581133006,-0.0003149333795419941,1.0328721405743558e-05,-0.00016879782963549959,0.0004926871195450379,0.2998287081718445,11.699365615844727,-0.9696381092071533,-21.669649124145508,-0.3500266671180725,-2.5271639823913574,0.24112264811992645,0
12,0.054999589920043945,-0.24825400114059448,-11.727136611938477,0.9696381092071533,21.693452835083008,0.3555198311805725,2.5207552909851074,-0.23471395671367645,0.0,0.0,0.0,0.0,0.0,0.0,0.0,-0.3041207168114921,0.5795044278501519,-0.21749808312761923,0.3876796565914034,-0.18209266258800338,0.12926654135925578,-0.2644340194543914,0.1730217058344891,-0.48758057197353294,-0.11130083215027524,-1.9462682458141392,0.13346476930580503,2.5954458522656605,0.94525066247748,0.1728802376190821,-0.48752024683155326,-0.11147110072896137,-1.9463801863486305,0.1336059019074957,2.595550359778934,0.9452445589611904,-0.0014476588810559184,-0.00017287502004151702,0.0006562438447398415,-0.0004905203443115818,-9.499654808408888e-06,0.00024432699479245913,-0.0009735692698507516,0.0,0.0,0.0,0.0,0.0,0.0,0.0,-0.00014146821540697574,6.0325141979677976e-05,-0.000170268578686128,-0.00011194053449137265,0.00014113260169065778,0.00010450751327351071,-6.103516289601707e-06,0.0014476588810559184,0.00017287502004151702,-0.0006562438447398415,0.0004905203443115818,9.499654808408888e-06,-0.00024432699479245913,0.0009735692698507516,0.24825400114059448,11.727136611938477,-0.9696381092071533,-21.693452835083008,-0.3555198311805725,-2.5207552909851074,0.23471395671367645,0
13,0.06000185012817383,-0.24825400114059448,-11.727136611938477,0.9696381092071533,21.693452835083008,0.3555198311805725,2.5207552909851074,-0.23471395671367645,0.0,0.0,0.0,0.0,0.0,0.0,0.0,-0.3041207168114921,0.5795044278501519,-0.21749808312761923,0.3876796565914034,-0.18209266258800338,0.12926654135925578,-0.2644340194543914,0.1730217058344891,-0.48758057197353294,-0.11130083215027524,-1.9462682458141392,0.13346476930580503,2.5954458522656605,0.94525066247748,0.1728802376190821,-0.48752024683155326,-0.11147110072896137,-1.9463801863486305,0.1336059019074957,2.595550359778934,0.9452445589611904,-0.0014476588810559184,-0.00017287502004151702,0.0006562438447398415,-0.0004905203443115818,-9.499654808408888e-06,0.00024432699479245913,-0.0009735692698507516,0.0,0.0,0.0,0.0,0.0,0.0,0.0,-0.00014146821540697574,6.0325141979677976e-05,-0.000170268578686128,-0.00011194053449137265,0.00014113260169065778,0.00010450751327351071,-6.103516289601707e-06,0.0014476588810559184,0.00017287502004151702,-0.0006562438447398415,0.0004905203443115818,9.499654808408888e-06,-0.00024432699479245913,0.0009735692698507516,0.24825400114059448,11.727136611938477,-0.9696381092071533,-21.693452835083008,-0.3555198311805725,-2.5207552909851074,0.23471395671367645,0
14,0.06500029563903809,-0.2998287081718445,-11.699365615844727,0.9934418201446533,21.618074417114258,0.3555198311805725,2.5271639823913574,-0.24844686686992645,0.0,0.0,0.0,0.0,0.0,0.0,0.0,-0.3076274717949681,0.5920759821587105,-0.22234205492704134,0.38270135418127094,-0.18148332458057784,0.12822649817099566,-0.2642417407492364,0.1730253251121755,-0.48758252081536413,-0.1113025025861305,-1.9462636448653816,0.13346476930379866,2.595446435386734,0.9452521883563862,0.1728802376190821,-0.48752024683155326,-0.11147110072896137,-1.9463801863486305,0.1336059019074957,2.595550359778934,0.9452445589611904,0.0001429737262961811,-0.0002093285304900228,-0.0005356181052135361,0.0013890935650982613,5.097762028101596e-05,-5.9761974221847074e-05,-0.00020646300656161035,0.0,0.0,0.0,0.0,0.0,0.0,0.0,-0.00014508749309338764,6.227398381086768e-05,-0.00016859814283086416,-0.00011654148324891089,0.00014113260369702507,0.00010392439219986116,-7.629395195829503e-06,-0.0001429737262961811,0.0002093285304900228,0.0005356181052135361,-0.0013890935650982613,-5.097762028101596e-05,5.9761974221847074e-05,0.00020646300656161035,0.2998287081718445,11.699365615844727,-0.9934418201446533,-21.618074417114258,-0.3555198311805725,-2.5271639823913574,0.24844686686992645,0
15,0.06999921798706055,-0.2998287081718445,-11.699365615844727,0.9934418201446533,21.618074417114258,0.3555198311805725,2.5271639823913574,-0.24844686686992645,0.0,0.0,0.0,0.0,0.0,0.0,0.0,-0.3076274717949681,0.5920759821587105,-0.22234205492704134,0.38270135418127094,-0.18148332458057784,0.12822649817099566,-0.2642417407492364,0.1730253251121755,-0.48758252081536413,-0.1113025025861305,-1.9462636448653816,0.13346476930379866,2.595446435386734,0.9452521883563862,0.1728802376190821,-0.48752024683155326,-0.11147110072896137,-1.9463801863486305,0.1336059019074957,2.595550359778934,0.9452445589611904,0.0001429737262961811,-0.0002093285304900228,-0.0005356181052135361,0.0013890935650982613,5.097762028101596e-05,-5.9761974221847074e-05,-0.00020646300656161035,0.0,0.0,0.0,0.0,0.0,0.0,0.0,-0.00014508749309338764,6.227398381086768e-05,-0.00016859814283086416,-0.00011654148324891089,0.00014113260369702507,0.00010392439219986116,-7.629395195829503e-06,-0.0001429737262961811,0.0002093285304900228,0.0005356181052135361,-0.0013890935650982613,-5.097762028101596e-05,5.9761974221847074e-05,0.00020646300656161035,0.2998287081718445,11.699365615844727,-0.9934418201446533,-21.618074417114258,-0.3555198311805725,-2.5271639823913574,0.24844686686992645,0
16,0.07579636573791504,-0.2998287081718445,-11.727136611938477,0.9934418201446533,21.693452835083008,0.3555198311805725,2.5271639823913574,-0.24844686686992645,0.0,0.0,0.0,0.0,0.0,0.0,0.0,-0.30267633809071104,0.5862878566848291,-0.21443393527081406,0.38829986218257945,-0.18117383410368443,0.12886567138386318,-0.2644895580529509,0.1730253251121755,-0.4875805749169722,-0.1113025025861305,-1.9462682458154352,0.1334690359724192,2.5954497411566146,0.9452521883563862,0.1728802376190821,-0.48752024683155326,-0.11147110072896137,-1.9463801863486305,0.1336059019074957,2.595550359778934,0.9452445589611904,0.0003121062561300213,0.0005550115626344736,-0.00024113325113701666,-0.0005835283768027823,6.614400231882163e-05,-1.1548263600377266e-05,-0.00031728576016929534,0.0,0.0,0.0,0.0,0.0,0.0,0.0,-0.00014508749309338764,6.0328085418948074e-05,-0.00016859814283086416,-0.00011194053319529829,0.00013686593507650224,0.00010061862231935947,-7.629395195829503e-06,-0.0003121062561300213,-0.0005550115626344736,0.00024113325113701666,0.0005835283768027823,-6.614400231882163e-05,1.1548263600377266e-05,0.00031728576016929534,0.2998287081718445,11.727136611938477,-0.9934418201446533,-21.693452835083008,-0.3555198311805725,-2.5271639823913574,0.24844686686992645,0
17,0.08001971244812012,-0.2998287081718445,-11.727136611938477,0.9934418201446533,21.693452835083008,0.3555198311805725,2.5271639823913574,-0.24844686686992645,0.0,0.0,0.0,0.0,0.0,0.0,0.0,-0.30267633809071104,0.5862878566848291,-0.21443393527081406,0.38829986218257945,-0.18117383410368443,0.12886567138386318,-0.2644895580529509,0.1730253251121755,-0.4875805749169722,-0.1113025025861305,-1.9462682458154352,0.1334690359724192,2.5954497411566146,0.9452521883563862,0.1728802376190821,-0.48752024683155326,-0.11147110072896137,-1.9463801863486305,0.1336059019074957,2.595550359778934,0.9452445589611904,0.0003121062561300213,0.0005550115626344736,-0.00024113325113701666,-0.0005835283768027823,6.614400231882163e-05,-1.1548263600377266e-05,-0.00031728576016929534,0.0,0.0,0.0,0.0,0.0,0.0,0.0,-0.00014508749309338764,6.0328085418948074e-05,-0.00016859814283086416,-0.00011194053319529829,0.00013686593507650224,0.00010061862231935947,-7.629395195829503e-06,-0.0003121062561300213,-0.0005550115626344736,0.00024113325113701666,0.0005835283768027823,-6.614400231882163e-05,1.1548263600377266e-05,0.00031728576016929534,0.2998287081718445,11.727136611938477,-0.9934418201446533,-21.693452835083008,-0.3555198311805725,-2.5271639823913574,0.24844686686992645,0
18,0.08502960205078125,-0.2998287081718445,-11.727136611938477,0.9934418201446533,21.693452835083008,0.3555198311805725,2.5271639823913574,-0.24112264811992645,0.0,0.0,0.0,0.0,0.0,0.0,0.0,-0.2983197489753544,0.6039018407997768,-0.2119378649246944,0.384444873821472,-0.1810043102447229,0.12777776762205406,-0.2657135336314267,0.1730253251121755,-0.48758057197354954,-0.1113025025861305,-1.9462682458141392,0.133468329543831,2.595449257292086,0.945251374554303,0.1728802376190821,-0.48752024683155326,-0.11147110072896137,-1.9463801863486305,0.1336059019074957,2.595550359778934,0.9452445589611904,0.00048342547864648524,0.0010773224750338748,-2.2467445275747315e-05,-0.0002370939004784757,-0.00017213500196235925,-0.00011458627141729652,-0.0005551710136079514,0.0,0.0,0.0,0.0,0.0,0.0,0.0,-0.00014508749309338764,6.032514199627581e-05,-0.00016859814283086416,-0.00011194053449137265,0.00013757236366468417,0.00010110248684780387,-6.8155931125524205e-06,-0.00048342547864648524,-0.0010773224750338748,2.2467445275747315e-05,0.0002370939004784757,0.00017213500196235925,0.00011458627141729652,0.0005551710136079514,0.2998287081718445,11.727136611938477,-0.9934418201446533,-21.693452835083008,-0.3555198311805725,-2.5271639823913574,0.24112264811992645,0
19,0.09001636505126953,-0.2998287081718445,-11.727136611938477,0.9934418201446533,21.693452835083008,0.3555198311805725,2.5271639823913574,-0.24112264811992645,0.0,0.0,0.0,0.0,0.0,0.0,0.0,-0.2983197489753544,0.6039018407997768,-0.2119378649246944,0.384444873821472,-0.1810043102447229,0.12777776762205406,-0.2657135336314267,0.1730253251121755,-0.48758057197354954,-0.1113025025861305,-1.9462682458141392,0.133468329543831,2.595449257292086,0.945251374554303,0.1728802376190821,-0.48752024683155326,-0.11147110072896137,-1.9463801863486305,0.1336059019074957,2.595550359778934,0.9452445589611904,0.00048342547864648524,0.0010773224750338748,-2.2467445275747315e-05,-0.0002370939004784757,-0.00017213500196235925,-0.00011458627141729652,-0.0005551710136079514,0.0,0.0,0.0,0.0,0.0,0.0,0.0,-0.00014508749309338764,6.032514199627581e-05,-0.00016859814283086416,-0.00011194053449137265,0.00013757236366468417,0.00010110248684780387,-6.8155931125524205e-06,-0.00048342547864648524,-0.0010773224750338748,2.2467445275747315e-05,0.0002370939004784757,0.00017213500196235925,0.00011458627141729652,0.0005551710136079514,0.2998287081718445,11.727136611938477,-0.9934418201446533,-21.693452835083008,-0.3555198311805725,-2.5271639823913574,0.24112264811992645,0
20,0.09500765800476074,-0.2998287081718445,-11.727136611938477,0.9418671131134033,21.669649124145508,0.3555198311805725,2.5271639823913574,-0.28232139348983765,0.0,0.0,0.0,0.0,0.0,0.0,0.0,-0.30561575920325684,0.5986181024470209,-0.22090037330854467,0.38981138659377346,-0.18027245995655675,0.12822617164533548,-0.2664244968694222,0.1730253251121755,-0.48758057197353294,-0.11129896241337389,-1.946266575378284,0.13346512913209035,2.595445372757075,0.9452559656016785,0.1728802376190821,-0.48752024683155326,-0.11147110072896137,-1.9463801863486305,0.1336059019074957,2.595550359778934,0.9452445589611904,-0.000698806657792059,0.0003668168281242765,0.0008687635096238999,-0.0001016958919615432,3.091401456336314e-05,-0.00021160299324447663,0.001177108078151476,0.0,0.0,0.0,0.0,0.0,0.0,0.0,-0.00014508749309338764,6.0325141979677976e-05,-0.00017213831558747505,-0.00011361097034656709,0.0001407727754053345,0.00010498702185879338,-1.1406640488043074e-05,0.000698806657792059,-0.0003668168281242765,-0.0008687635096238999,0.0001016958919615432,-3.091401456336314e-05,0.00021160299324447663,-0.001177108078151476,0.2998287081718445,11.727136611938477,-0.9418671131134033,-21.669649124145508,-0.3555198311805725,-2.5271639823913574,0.28232139348983765,0
21,0.10000467300415039,-0.2998287081718445,-11.727136611938477,0.9418671131134033,21.669649124145508,0.3555198311805725,2.5271639823913574,-0.28232139348983765,0.0,0.0,0.0,0.0,0.0,0.0,0.0,-0.30561575920325684,0.5986181024470209,-0.22090037330854467,0.38981138659377346,-0.18027245995655675,0.12822617164533548,-0.2664244968694222,0.1730253251121755,-0.48758057197353294,-0.11129896241337389,-1.946266575378284,0.13346512913209035,2.595445372757075,0.9452559656016785,0.1728802376190821,-0.48752024683155326,-0.11147110072896137,-1.9463801863486305,0.1336059019074957,2.595550359778934,0.9452445589611904,-0.000698806657792059,0.0003668168281242765,0.0008687635096238999,-0.0001016958919615432,3.091401456336314e-05,-0.00021160299324447663,0.001177108078151476,0.0,0.0,0.0,0.0,0.0,0.0,0.0,-0.00014508749309338764,6.0325141979677976e-05,-0.00017213831558747505,-0.00011361097034656709,0.0001407727754053345,0.00010498702185879338,-1.1406640488043074e-05,0.000698806657792059,-0.0003668168281242765,-0.0008687635096238999,0.0001016958919615432,-3.091401456336314e-05,0.00021160299324447663,-0.001177108078151476,0.2998287081718445,11.727136611938477,-0.9418671131134033,-21.669649124145508,-0.3555198311805725,-2.5271639823913574,0.28232139348983765,0
22,0.10501265525817871,-0.24825400114059448,-11.675561904907227,0.9934418201446533,21.641878128051758,0.3555198311805725,2.5271639823913574,-0.26217979192733765,0.0,0.0,0.0,0.0,0.0,0.0,0.0,-0.3003585168109394,0.5978819197727875,-0.20890509620446526,0.3937955112750635,-0.1804201049220735,0.12872560859639526,-0.2671500447114186,0.1730217058344891,-0.4875842001178759,-0.11130250551638926,-1.9462646265364527,0.1334680909497674,2.5954465114571765,0.945253715726913,0.1728802376190821,-0.48752024683155326,-0.11147110072896137,-1.9463801863486305,0.1336059019074957,2.595550359778934,0.9452445589611904,-0.0012016804765332802,-0.000890083827041486,-0.0006414152214543665,0.0013059778078297942,-6.906846902600232e-05,0.00014123361405030086,5.458654392836399e-05,0.0,0.0,0.0,0.0,0.0,0.0,0.0,-0.00014146821540697574,6.395328632263775e-05,-0.0001685952125721063,-0.0001155598121778123,0.00013781095772830154,0.0001038483217574715,-9.156765722551086e-06,0.0012016804765332802,0.000890083827041486,0.0006414152214543665,-0.0013059778078297942,6.906846902600232e-05,-0.00014123361405030086,-5.458654392836399e-05,0.24825400114059448,11.675561904907227,-0.9934418201446533,-21.641878128051758,-0.3555198311805725,-2.5271639823913574,0.26217979192733765,0
23,0.11000251770019531,-0.24825400114059448,-11.675561904907227,0.9934418201446533,21.641878128051758,0.3555198311805725,2.5271639823913574,-0.26217979192733765,0.0,0.0,0.0,0.0,0.0,0.0,0.0,-0.3003585168109394,0.5978819197727875,-0.20890509620446526,0.3937955112750635,-0.1804201049220735,0.12872560859639526,-0.2671500447114186,0.1730217058344891,-0.4875842001178759,-0.11130250551638926,-1.9462646265364527,0.1334680909497674,2.5954465114571765,0.945253715726913,0.1728802376190821,-0.48752024683155326,-0.11147110072896137,-1.9463801863486305,0.1336059019074957,2.595550359778934,0.9452445589611904,-0.0012016804765332802,-0.000890083827041486,-0.0006414152214543665,0.0013059778078297942,-6.906846902600232e-05,0.00014123361405030086,5.458654392836399e-05,0.0,0.0,0.0,0.0,0.0,0.0,0.0,-0.00014146821540697574,6.395328632263775e-05,-0.0001685952125721063,-0.0001155598121778123,0.00013781095772830154,0.0001038483217574715,-9.156765722551086e-06,0.0012016804765332802,0.000890083827041486,0.0006414152214543665,-0.0013059778078297942,6.906846902600232e-05,-0.00014123361405030086,-5.458654392836399e-05,0.24825400114059448,11.675561904907227,-0.9934418201446533,-21.641878128051758,-0.3555198311805725,-2.5271639823913574,0.26217979192733765,0
24,0.11500239372253418,-0.3514034152030945,-11.774744033813477,0.9418671131134033,21.693452835083008,0.3619285225868225,2.5271639823913574,-0.23471395671367645,0.0,0.0,0.0,0.0,0.0,0.0,0.0,-0.30418525944534763,0.5909173419223922,-0.21894403674447882,0.3968263959367896,-0.1800196790439229,0.1300851890850377,-0.26757619830130636,0.1730289443898619,-0.4875774695204516,-0.11129888330846063,-1.9462682458141392,0.13346547892688343,2.595448565383937,0.9452506624774885,0.1728802376190821,-0.48752024683155326,-0.11147110072896137,-1.9463801863486305,0.1336059019074957,2.595550359778934,0.9452445589611904,0.0012504187787092604,0.0006671333037103226,0.0005375293113631446,5.5903714475045353e-05,-0.00018747483760152023,0.0001495816806711141,-0.001269817933151989,0.0,0.0,0.0,0.0,0.0,0.0,0.0,-0.00014870677077979955,5.722268889835069e-05,-0.00017221742050073374,-0.00011194053449137265,0.00014042298061225922,0.00010179439499680143,-6.103516298039402e-06,-0.0012504187787092604,-0.0006671333037103226,-0.0005375293113631446,-5.5903714475045353e-05,0.00018747483760152023,-0.0001495816806711141,0.001269817933151989,0.3514034152030945,11.774744033813477,-0.9418671131134033,-21.693452835083008,-0.3619285225868225,-2.5271639823913574,0.23471395671367645,0
25,0.11999940872192383,-0.3514034152030945,-11.774744033813477,0.9418671131134033,21.693452835083008,0.3619285225868225,2.5271639823913574,-0.23471395671367645,0.0,0.0,0.0,0.0,0.0,0.0,0.0,-0.30418525944534763,0.5909173419223922,-0.21894403674447882,0.3968263959367896,-0.1800196790439229,0.1300851890850377,-0.26757619830130636,0.1730289443898619,-0.4875774695204516,-0.11129888330846063,-1.9462682458141392,0.13346547892688343,2.595448565383937,0.9452506624774885,0.1728802376190821,-0.48752024683155326,-0.11147110072896137,-1.9463801863486305,0.1336059019074957,2.595550359778934,0.9452445589611904,0.0012504187787092604,0.0006671333037103226,0.0005375293113631446,5.5903714475045353e-05,-0.00018747483760152023,0.0001495816806711141,-0.001269817933151989,0.0,0.0,0.0,0.0,0.0,0.0,0.0,-0.00014870677077979955,5.722268889835069e-05,-0.00017221742050073374,-0.00011194053449137265,0.00014042298061225922,0.00010179439499680143,-6.103516298039402e-06,-0.0012504187787092604,-0.0006671333037103226,-0.0005375293113631446,-5.5903714475045353e-05,0.00018747483760152023,-0.0001495816806711141,0.001269817933151989,0.3514034152030945,11.774744033813477,-0.9418671131134033,-21.693452835083008,-0.3619285225868225,-2.5271639823913574,0.23471395671367645,0
26,0.1250007152557373,-0.2998287081718445,-11.750940322875977,0.9934418201446533,21.693452835083008,0.3500266671180725,2.5271639823913574,-0.24844686686992645,0.0,0.0,0.0,0.0,0.0,0.0,0.0,-0.30843984078023867,0.5922130368782264,-0.22594883005167216,0.39225056621951787,-0.17939297501076104,0.1299773407413002,-0.26790968588887853,0.1730253251121755,-0.48757890153902356,-0.1113025025861305,-1.9462682467589467,0.1334653845388365,2.59544643136843,0.9452521883563862,0.1728802376190821,-0.48752024683155326,-0.11147110072896137,-1.9463801863486305,0.1336059019074957,2.595550359778934,0.9452445589611904,-0.0010893247943750274,-0.0006073917924813653,-0.0009458103018487481,-0.00023828240327757738,0.00024155184583071312,0.0001374824397001141,-0.00012913679278547964,0.0,0.0,0.0,0.0,0.0,0.0,0.0,-0.00014508749309338764,5.8654707470295886e-05,-0.00016859814283086416,-0.00011193958968380713,0.00014051736865919318,0.00010392841050421708,-7.629395195829503e-06,0.0010893247943750274,0.0006073917924813653,0.0009458103018487481,0.00023828240327757738,-0.00024155184583071312,-0.0001374824397001141,0.00012913679278547964,0.2998287081718445,11.750940322875977,-0.9934418201446533,-21.693452835083008,-0.3500266671180725,-2.5271639823913574,0.24844686686992645,0
27,0.12999820709228516,-0.2998287081718445,-11.750940322875977,0.9934418201446533,21.693452835083008,0.3500266671180725,2.5271639823913574,-0.24844686686992645,0.0,0.0,0.0,0.0,0.0,0.0,0.0,-0.30843984078023867,0.5922130368782264,-0.22594883005167216,0.39225056621951787,-0.17939297501076104,0.1299773407413002,-0.26790968588887853,0.1730253251121755,-0.48757890153902356,-0.1113025025861305,-1.9462682467589467,0.1334653845388365,2.59544643136843,0.9452521883563862,0.1728802376190821,-0.48752024683155326,-0.11147110072896137,-1.9463801863486305,0.1336059019074957,2.595550359778934,0.9452445589611904,-0.0010893247943750274,-0.0006073917924813653,-0.0009458103018487481,-0.00023828240327757738,0.00024155184583071312,0.0001374824397001141,-0.00012913679278547964,0.0,0.0,0.0,0.0,0.0,0.0,0.0,-0.00014508749309338764,5.8654707470295886e-05,-0.00016859814283086416,-0.00011193958968380713,0.00014051736865919318,0.00010392841050421708,-7.629395195829503e-06,0.0010893247943750274,0.0006073917924813653,0.0009458103018487481,0.00023828240327757738,-0.00024155184583071312,-0.0001374824397001141,0.00012913679278547964,0.2998287081718445,11.750940322875977,-0.9934418201446533,-21.693452835083008,-0.3500266671180725,-2.5271639823913574,0.24844686686992645,0
28,0.13500022888183594,-0.2998287081718445,-11.774744033813477,0.9696381092071533,21.693452835083008,0.3555198311805725,2.5271639823913574,-0.26858848333358765,0.0,0.0,0.0,0.0,0.0,0.0,0.0,-0.3021566299331805,0.5904535333352715,-0.2124309868222623,0.3913910440024389,-0.1801117801130811,0.1301111401134069,-0.26768374619094765,0.1730253251121755,-0.4875772575927757,-0.11130154409464339,-1.9462682458141445,0.13346904751101124,2.5954454511790006,0.9452547883567987,0.1728802376190821,-0.48752024683155326,-0.11147110072896137,-1.9463801863486305,0.1336059019074957,2.595550359778934,0.9452445589611904,1.4950329129726387e-05,0.0007073312009817493,0.00022098793861601455,0.00014817319585134307,4.8625716723498276e-05,0.0002722716456665439,-8.454550666883635e-05,0.0,0.0,0.0,0.0,0.0,0.0,0.0,-0.00014508749309338764,5.701076122244242e-05,-0.0001695566343179744,-0.00011194053448604357,0.0001368543964844482,0.00010490859993339541,-1.0229395608241099e-05,-1.4950329129726387e-05,-0.0007073312009817493,-0.00022098793861601455,-0.00014817319585134307,-4.8625716723498276e-05,-0.0002722716456665439,8.454550666883635e-05,0.2998287081718445,11.774744033813477,-0.9696381092071533,-21.693452835083008,-0.3555198311805725,-2.5271639823913574,0.26858848333358765,0
29,0.14000201225280762,-0.2998287081718445,-11.774744033813477,0.9696381092071533,21.693452835083008,0.3555198311805725,2.5271639823913574,-0.26858848333358765,0.0,0.0,0.0,0.0,0.0,0.0,0.0,-0.3021566299331805,0.5904535333352715,-0.2124309868222623,0.3913910440024389,-0.1801117801130811,0.1301111401134069,-0.26768374619094765,0.1730253251121755,-0.4875772575927757,-0.11130154409464339,-1.9462682458141445,0.13346904751101124,2.5954454511790006,0.9452547883567987,0.1728802376190821,-0.48752024683155326,-0.11147110072896137,-1.9463801863486305,0.1336059019074957,2.595550359778934,0.9452445589611904,1.4950329129726387e-05,0.0007073312009817493,0.00022098793861601455,0.00014817319585134307,4.8625716723498276e-05,0.0002722716456665439,-8.454550666883635e-05,0.0,0.0,0.0,0.0,0.0,0.0,0.0,-0.00014508749309338764,5.701076122244242e-05,-0.0001695566343179744,-0.00011194053448604357,0.0001368543964844482,0.00010490859993339541,-1.0229395608241099e-05,-1.4950329129726387e-05,-0.0007073312009817493,-0.00022098793861601455,-0.00014817319585134307,-4.8625716723498276e-05,-0.0002722716456665439,8.454550666883635e-05,0.2998287081718445,11.774744033813477,-0.9696381092071533,-21.693452835083008,-0.3555198311805725,-2.5271639823913574,0.26858848333358765,0
30,0.14502286911010742,-0.2998287081718445,-11.675561904907227,1.0172455310821533,21.669649124145508,0.3436179757118225,2.5271639823913574,-0.23471395671367645,0.0,0.0,0.0,0.0,0.0,0.0,0.0,-0.30651355977977446,0.5983054867110433,-0.2195460992503977,0.382381564501201,-0.17987683276916477,0.12944230243869867,-0.26807879950838565,0.1730253251121755,-0.4875841912513689,-0.1113041730260047,-1.946266575378284,0.13346610492004912,2.595449262436048,0.9452506624795237,0.1728802376190821,-0.48752024683155326,-0.11147110072896137,-1.9463801863486305,0.1336059019074957,2.595550359778934,0.9452445589611904,-0.00037360313733122844,-0.0014433158407834417,-0.0011644362143273363,-5.793899143248934e-05,0.00023933316510931911,-5.054332161071223e-05,-0.0007837230222566795,0.0,0.0,0.0,0.0,0.0,0.0,0.0,-0.00014508749309338764,6.394441981566468e-05,-0.00016692770295666237,-0.00011361097034656709,0.00013979698744656655,0.00010109734288610284,-6.103518333300251e-06,0.00037360313733122844,0.0014433158407834417,0.0011644362143273363,5.793899143248934e-05,-0.00023933316510931911,5.054332161071223e-05,0.0007837230222566795,0.2998287081718445,11.675561904907227,-1.0172455310821533,-21.669649124145508,-0.3436179757118225,-2.5271639823913574,0.23471395671367645,0
31,0.1500082015991211,-0.2998287081718445,-11.675561904907227,1.0172455310821533,21.669649124145508,0.3436179757118225,2.5271639823913574,-0.23471395671367645,0.0,0.0,0.0,0.0,0.0,0.0,0.0,-0.30651355977977446,0.5983054867110433,-0.2195460992503977,0.382381564501201,-0.17987683276916477,0.12944230243869867,-0.26807879950838565,0.1730253251121755,-0.4875841912513689,-0.1113041730260047,-1.946266575378284,0.13346610492004912,2.595449262436048,0.9452506624795237,0.1728802376190821,-0.48752024683155326,-0.11147110072896137,-1.9463801863486305,0.1336059019074957,2.595550359778934,0.9452445589611904,-0.00037360313733122844,-0.0014433158407834417,-0.0011644362143273363,-5.793899143248934e-05,0.00023933316510931911,-5.054332161071223e-05,-0.0007837230222566795,0.0,0.0,0.0,0.0,0.0,0.0,0.0,-0.00014508749309338764,6.394441981566468e-05,-0.00016692770295666237,-0.00011361097034656709,0.00013979698744656655,0.00010109734288610284,-6.103518333300251e-06,0.00037360313733122844,0.0014433158407834417,0.0011644362143273363,5.793899143248934e-05,-0.00023933316510931911,5.054332161071223e-05,0.0007837230222566795,0.2998287081718445,11.675561904907227,-1.0172455310821533,-21.669649124145508,-0.3436179757118225,-2.5271639823913574,0.23471395671367645,0
32,0.15500593185424805,-0.2720577120780945,-11.727136611938477,1.0172455310821533,21.693452835083008,0.3619285225868225,2.5335726737976074,-0.23471395671367645,0.0,0.0,0.0,0.0,0.0,0.0,0.0,-0.2976645662144992,0.5825559111577396,-0.20362578879227977,0.38979468426396574,-0.18092974093475694,0.13051833872161853,-0.26707230543866967,0.17302337627034436,-0.48758057197353294,-0.11130417302198578,-1.9462682458141392,0.1334651629790611,2.5954447396565112,0.94525066247748,0.1728802376190821,-0.48752024683155326,-0.11147110072896137,-1.9463801863486305,0.1336059019074957,2.595550359778934,0.9452445589611904,0.00016304778951837433,8.873895931567287e-05,-0.00013548500480391648,-0.0005479201110639812,-0.00043925130587309946,-0.00020604699740453544,-0.0009374501380957485,0.0,0.0,0.0,0.0,0.0,0.0,0.0,-0.00014313865126225345,6.0325141979677976e-05,-0.00016692770697558645,-0.00011194053449137265,0.00014073892843458058,0.00010562012242276708,-6.103516289601707e-06,-0.00016304778951837433,-8.873895931567287e-05,0.00013548500480391648,0.0005479201110639812,0.00043925130587309946,0.00020604699740453544,0.0009374501380957485,0.2720577120780945,11.727136611938477,-1.0172455310821533,-21.693452835083008,-0.3619285225868225,-2.5335726737976074,0.23471395671367645,0
33,0.15999865531921387,-0.2720577120780945,-11.727136611938477,1.0172455310821533,21.693452835083008,0.3619285225868225,2.5335726737976074,-0.23471395671367645,0.0,0.0,0.0,0.0,0.0,0.0,0.0,-0.2976645662144992,0.5825559111577396,-0.20362578879227977,0.38979468426396574,-0.18092974093475694,0.13051833872161853,-0.26707230543866967,0.17302337627034436,-0.48758057197353294,-0.11130417302198578,-1.9462682458141392,0.1334651629790611,2.5954447396565112,0.94525066247748,0.1728802376190821,-0.48752024683155326,-0.11147110072896137,-1.9463801863486305,0.1336059019074957,2.595550359778934,0.9452445589611904,0.00016304778951837433,8.873895931567287e-05,-0.00013548500480391648,-0.0005479201110639812,-0.00043925130587309946,-0.00020604699740453544,-0.0009374501380957485,0.0,0.0,0.0,0.0,0.0,0.0,0.0,-0.00014313865126225345,6.0325141979677976e-05,-0.00016692770697558645,-0.00011194053449137265,0.00014073892843458058,0.00010562012242276708,-6.103516289601707e-06,-0.00016304778951837433,-8.873895931567287e-05,0.00013548500480391648,0.0005479201110639812,0.00043925130587309946,0.00020604699740453544,0.0009374501380957485,0.2720577120780945,11.727136611938477,-1.0172455310821533,-21.693452835083008,-0.3619285225868225,-2.5335726737976074,0.23471395671367645,0
34,0.16499805450439453,-0.2720577120780945,-11.727136611938477,1.0172455310821533,21.693452835083008,0.3619285225868225,2.5335726737976074,-0.23471395671367645,0.0,0.0,0.0,0.0,0.0,0.0,0.0,-0.2976645662144992,0.5825559111577396,-0.20362578879227977,0.38979468426396574,-0.18092974093475694,0.13051833872161853,-0.26707230543866967,0.17302337627034436,-0.48758057197353294,-0.11130417302198578,-1.9462682458141392,0.1334651629790611,2.5954447396565112,0.94525066247748,0.1728802376190821,-0.48752024683155326,-0.11147110072896137,-1.9463801863486305,0.1336059019074957,2.595550359778934,0.9452445589611904,0.00016304778951837433,8.873895931567287e-05,-0.00013548500480391648,-0.0005479201110639812,-0.00043925130587309946,-0.00020604699740453544,-0.0009374501380957485,0.0,0.0,0.0,0.0,0.0,0.0,0.0,-0.00014313865126225345,6.0325141979677976e-05,-0.00016692770697558645,-0.00011194053449137265,0.00014073892843458058,0.00010562012242276708,-6.103516289601707e-06,-0.00016304778951837433,-8.873895931567287e-05,0.00013548500480391648,0.0005479201110639812,0.00043925130587309946,0.00020604699740453544,0.0009374501380957485,0.2720577120780945,11.727136611938477,-1.0172455310821533,-21.693452835083008,-0.3619285225868225,-2.5335726737976074,0.23471395671367645,0
35,0.17001605033874512,-0.2720577120780945,-11.727136611938477,1.0172455310821533,21.693452835083008,0.3619285225868225,2.5335726737976074,-0.23471395671367645,0.0,0.0,0.0,0.0,0.0,0.0,0.0,-0.2976645662144992,0.5825559111577396,-0.20362578879227977,0.38979468426396574,-0.18092974093475694,0.13051833872161853,-0.26707230543866967,0.17302337627034436,-0.48758057197353294,-0.11130417302198578,-1.9462682458141392,0.1334651629790611,2.5954447396565112,0.94525066247748,0.1728802376190821,-0.48752024683155326,-0.11147110072896137,-1.9463801863486305,0.1336059019074957,2.595550359778934,0.9452445589611904,0.00016304778951837433,8.873895931567287e-05,-0.00013548500480391648,-0.0005479201110639812,-0.00043925130587309946,-0.00020604699740453544,-0.0009374501380957485,0.0,0.0,0.0,0.0,0.0,0.0,0.0,-0.00014313865126225345,6.0325141979677976e-05,-0.00016692770697558645,-0.00011194053449137265,0.00014073892843458058,0.00010562012242276708,-6.103516289601707e-06,-0.00016304778951837433,-8.873895931567287e-05,0.00013548500480391648,0.0005479201110639812,0.00043925130587309946,0.00020604699740453544,0.0009374501380957485,0.2720577120780945,11.727136611938477,-1.0172455310821533,-21.693452835083008,-0.3619285225868225,-2.5335726737976074,0.23471395671367645,0
36,0.1750023365020752,-0.3236324191093445,-11.699365615844727,0.9696381092071533,21.717256546020508,0.3500266671180725,2.5207552909851074,-0.28232139348983765,0.0,0.0,0.0,0.0,0.0,0.0,0.0,-0.3013919528001574,0.5969209329113866,-0.21362497683159687,0.3830234882628243,-0.18082727922351488,0.12991272285614597,-0.2680528511585406,0.17302699554803075,-0.48758252081536413,-0.11130083215027524,-1.9462699162499943,0.1334653816117831,2.5954472235882804,0.9452559521926774,0.1728802376190821,-0.48752024683155326,-0.11147110072896137,-1.9463801863486305,0.1336059019074957,2.595550359778934,0.9452445589611904,0.0009191802524980459,0.00024385849906244733,0.0008103933281359905,-0.0009175162066398779,8.329306791316568e-05,0.00034662786216563133,0.0006847394456613005,0.0,0.0,0.0,0.0,0.0,0.0,0.0,-0.0001467579289486376,6.227398381086768e-05,-0.000170268578686128,-0.0001102700986361782,0.0001405202957125984,0.00010313619065360768,-1.1393231487022426e-05,-0.0009191802524980459,-0.00024385849906244733,-0.0008103933281359905,0.0009175162066398779,-8.329306791316568e-05,-0.00034662786216563133,-0.0006847394456613005,0.3236324191093445,11.699365615844727,-0.9696381092071533,-21.717256546020508,-0.3500266671180725,-2.5207552909851074,0.28232139348983765,0
37,0.18000078201293945,-0.3236324191093445,-11.699365615844727,0.9696381092071533,21.717256546020508,0.3500266671180725,2.5207552909851074,-0.28232139348983765,0.0,0.0,0.0,0.0,0.0,0.0,0.0,-0.3013919528001574,0.5969209329113866,-0.21362497683159687,0.3830234882628243,-0.18082727922351488,0.12991272285614597,-0.2680528511585406,0.17302699554803075,-0.48758252081536413,-0.11130083215027524,-1.9462699162499943,0.1334653816117831,2.5954472235882804,0.9452559521926774,0.1728802376190821,-0.48752024683155326,-0.11147110072896137,-1.9463801863486305,0.1336059019074957,2.595550359778934,0.9452445589611904,0.0009191802524980459,0.00024385849906244733,0.0008103933281359905,-0.0009175162066398779,8.329306791316568e-05,0.00034662786216563133,0.0006847394456613005,0.0,0.0,0.0,0.0,0.0,0.0,0.0,-0.0001467579289486376,6.227398381086768e-05,-0.000170268578686128,-0.0001102700986361782,0.0001405202957125984,0.00010313619065360768,-1.1393231487022426e-05,-0.0009191802524980459,-0.00024385849906244733,-0.0008103933281359905,0.0009175162066398779,-8.329306791316568e-05,-0.00034662786216563133,-0.0006847394456613005,0.3236324191093445,11.699365615844727,-0.9696381092071533,-21.717256546020508,-0.3500266671180725,-2.5207552909851074,0.28232139348983765,0
38,0.1849992275238037,-0.2998287081718445,-11.699365615844727,0.9934418201446533,21.641878128051758,0.3619285225868225,2.5207552909851074,-0.22830526530742645,0.0,0.0,0.0,0.0,0.0,0.0,0.0,-0.30147073431822774,0.583483718227166,-0.21260661917733342,0.3918567413857286,-0.1803776290153236,0.13106852273246028,-0.26844460566666717,0.1730253251121755,-0.48758252081536413,-0.1113025025861305,-1.9462646274812603,0.13346405722698682,2.5954461029070233,0.9452499504006571,0.1728802376190821,-0.48752024683155326,-0.11147110072896137,-1.9463801863486305,0.1336059019074957,2.595550359778934,0.9452445589611904,-6.370299649420098e-06,-0.0006281428246553211,-0.00018144018242040503,0.0013454074441519486,-0.00029711232520424004,0.0004971475134998324,-0.001261584003427644,0.0,0.0,0.0,0.0,0.0,0.0,0.0,-0.00014508749309338764,6.227398381086768e-05,-0.00016859814283086416,-0.00011555886737024679,0.00014184468050887356,0.00010425687191073507,-5.3914394666509935e-06,6.370299649420098e-06,0.0006281428246553211,0.00018144018242040503,-0.0013454074441519486,0.00029711232520424004,-0.0004971475134998324,0.001261584003427644,0.2998287081718445,11.699365615844727,-0.9934418201446533,-21.641878128051758,-0.3619285225868225,-2.5207552909851074,0.22830526530742645,0
39,0.1900005340576172,-0.2998287081718445,-11.699365615844727,0.9934418201446533,21.641878128051758,0.3619285225868225,2.5207552909851074,-0.22830526530742645,0.0,0.0,0.0,0.0,0.0,0.0,0.0,-0.30147073431822774,0.583483718227166,-0.21260661917733342,0.3918567413857286,-0.1803776290153236,0.13106852273246028,-0.26844460566666717,0.1730253251121755,-0.48758252081536413,-0.1113025025861305,-1.9462646274812603,0.13346405722698682,2.5954461029070233,0.9452499504006571,0.1728802376190821,-0.48752024683155326,-0.11147110072896137,-1.9463801863486305,0.1336059019074957,2.595550359778934,0.9452445589611904,-6.370299649420098e-06,-0.0006281428246553211,-0.00018144018242040503,0.0013454074441519486,-0.00029711232520424004,0.0004971475134998324,-0.001261584003427644,0.0,0.0,0.0,0.0,0.0,0.0,0.0,-0.00014508749309338764,6.227398381086768e-05,-0.00016859814283086416,-0.00011555886737024679,0.00014184468050887356,0.00010425687191073507,-5.3914394666509935e-06,6.370299649420098e-06,0.0006281428246553211,0.00018144018242040503,-0.0013454074441519486,0.00029711232520424004,-0.0004971475134998324,0.001261584003427644,0.2998287081718445,11.699365615844727,-0.9934418201446533,-21.641878128051758,-0.3619285225868225,-2.5207552909851074,0.22830526530742645,0
40,0.19500017166137695,-0.2998287081718445,-11.699365615844727,0.9696381092071533,21.618074417114258,0.3555198311805725,2.5335726737976074,-0.28232139348983765,0.0,0.0,0.0,0.0,0.0,0.0,0.0,-0.2943391029836897,0.6045163330059097,-0.2011761806913701,0.3830924295425018,-0.1805074249695153,0.1288441356427462,-0.2681929189774789,0.1730253251121755,-0.48758252114241296,-0.11130084093971189,-1.9462629561006028,0.13346583556466632,2.5954477994655942,0.9452559536825664,0.1728802376190821,-0.48752024683155326,-0.11147110072896137,-1.9463801863486305,0.1336059019074957,2.595550359778934,0.9452445589611904,0.0002668752926715686,-0.00039760743310042024,0.0006229284735322128,0.0011924260539195885,-0.00020242013599485617,-0.00018426744674448958,0.0006891182524295964,0.0,0.0,0.0,0.0,0.0,0.0,0.0,-0.00014508749309338764,6.227431085970014e-05,-0.00017025978924947727,-0.00011723024802767767,0.00014006634282937025,0.00010256031333977234,-1.1394721376012384e-05,-0.0002668752926715686,0.00039760743310042024,-0.0006229284735322128,-0.0011924260539195885,0.00020242013599485617,0.00018426744674448958,-0.0006891182524295964,0.2998287081718445,11.699365615844727,-0.9696381092071533,-21.618074417114258,-0.3555198311805725,-2.5335726737976074,0.28232139348983765,0
41,0.2000102996826172,-0.2998287081718445,-11.699365615844727,0.9696381092071533,21.618074417114258,0.3555198311805725,2.5335726737976074,-0.28232139348983765,0.0,0.0,0.0,0.0,0.0,0.0,0.0,-0.2943391029836897,0.6045163330059097,-0.2011761806913701,0.3830924295425018,-0.1805074249695153,0.1288441356427462,-0.2681929189774789,0.1730253251121755,-0.48758252114241296,-0.11130084093971189,-1.9462629561006028,0.13346583556466632,2.5954477994655942,0.9452559536825664,0.1728802376190821,-0.48752024683155326,-0.11147110072896137,-1.9463801863486305,0.1336059019074957,2.595550359778934,0.9452445589611904,0.0002668752926715686,-0.00039760743310042024,0.0006229284735322128,0.0011924260539195885,-0.00020242013599485617,-0.00018426744674448958,0.0006891182524295964,0.0,0.0,0.0,0.0,0.0,0.0,0.0,-0.00014508749309338764,6.227431085970014e-05,-0.00017025978924947727,-0.00011723024802767767,0.00014006634282937025,0.00010256031333977234,-1.1394721376012384e-05,-0.0002668752926715686,0.00039760743310042024,-0.0006229284735322128,-0.0011924260539195885,0.00020242013599485617,0.00018426744674448958,-0.0006891182524295964,0.2998287081718445,11.699365615844727,-0.9696381092071533,-21.618074417114258,-0.3555198311805725,-2.5335726737976074,0.28232139348983765,0
42,0.2050185203552246,-0.3236324191093445,-11.699365615844727,0.9696381092071533,21.669649124145508,0.3500266671180725,2.5335726737976074,-0.29605430364608765,0.0,0.0,0.0,0.0,0.0,0.0,0.0,-0.30167065509358637,0.5887576645375034,-0.2132642872872117,0.39275924894747766,-0.18018566859725696,0.13051745131803982,-0.2686284926878318,0.17302699554803075,-0.4875825211424148,-0.11130083215032485,-1.946266575378284,0.13346537966138025,2.595448640442781,0.9452575987526013,0.1728802376190821,-0.48752024683155326,-0.11147110072896137,-1.9463801863486305,0.1336059019074957,2.595550359778934,0.9452445589611904,0.00016535564257191723,-0.0008917280927383268,-4.3039536221601985e-05,0.0001842676150184971,8.519957527048647e-05,-0.0002857639837691614,0.0018951362050187983,0.0,0.0,0.0,0.0,0.0,0.0,0.0,-0.0001467579289486376,6.227431086153201e-05,-0.0001702685786365149,-0.00011361097034656709,0.00014052224611543762,0.00010171933615321649,-1.3039791410873747e-05,-0.00016535564257191723,0.0008917280927383268,4.3039536221601985e-05,-0.0001842676150184971,-8.519957527048647e-05,0.0002857639837691614,-0.0018951362050187983,0.3236324191093445,11.699365615844727,-0.9696381092071533,-21.669649124145508,-0.3500266671180725,-2.5335726737976074,0.29605430364608765,0
43,0.21003341674804688,-0.3236324191093445,-11.699365615844727,0.9696381092071533,21.669649124145508,0.3500266671180725,2.5335726737976074,-0.29605430364608765,0.0,0.0,0.0,0.0,0.0,0.0,0.0,-0.30167065509358637,0.5887576645375034,-0.2132642872872117,0.39275924894747766,-0.18018566859725696,0.13051745131803982,-0.2686284926878318,0.17302699554803075,-0.4875825211424148,-0.11130083215032485,-1.946266575378284,0.13346537966138025,2.595448640442781,0.9452575987526013,0.1728802376190821,-0.48752024683155326,-0.11147110072896137,-1.9463801863486305,0.1336059019074957,2.595550359778934,0.9452445589611904,0.00016535564257191723,-0.0008917280927383268,-4.3039536221601985e-05,0.0001842676150184971,8.519957527048647e-05,-0.0002857639837691614,0.0018951362050187983,0.0,0.0,0.0,0.0,0.0,0.0,0.0,-0.0001467579289486376,6.227431086153201e-05,-0.0001702685786365149,-0.00011361097034656709,0.00014052224611543762,0.00010171933615321649,-1.3039791410873747e-05,-0.00016535564257191723,0.0008917280927383268,4.3039536221601985e-05,-0.0001842676150184971,-8.519957527048647e-05,0.0002857639837691614,-0.0018951362050187983,0.3236324191093445,11.699365615844727,-0.9696381092071533,-21.669649124145508,-0.3500266671180725,-2.5335726737976074,0.29605430364608765,0
44,0.21500444412231445,-0.3514034152030945,-11.750940322875977,0.9696381092071533,21.693452835083008,0.3500266671180725,2.5399813652038574,-0.24112264811992645,0.0,0.0,0.0,0.0,0.0,0.0,0.0,-0.3011013833542063,0.6005703664486359,-0.21281731816782665,0.3868014741551483,-0.18114079408503825,0.12994434719610415,-0.2679902337131497,0.1730289443898619,-0.4875789015376795,-0.11130083215027524,-1.9462684754373933,0.13346859598958336,2.5954447757817274,0.9452513745549842,0.1728802376190821,-0.48752024683155326,-0.11147110072896137,-1.9463801863486305,0.1336059019074957,2.595550359778934,0.9452445589611904,0.0009361976080742734,0.0006134783922476167,-0.00042227209674631805,-0.00024377633354216973,0.00021421600580101907,-0.00046967671926251503,-0.0001480570506092754,0.0,0.0,0.0,0.0,0.0,0.0,0.0,-0.00014870677077979955,5.865470612625989e-05,-0.000170268578686128,-0.00011171091123718391,0.0001373059179123337,0.00010558399720661527,-6.815593793785268e-06,-0.0009361976080742734,-0.0006134783922476167,0.00042227209674631805,0.00024377633354216973,-0.00021421600580101907,0.00046967671926251503,0.0001480570506092754,0.3514034152030945,11.750940322875977,-0.9696381092071533,-21.693452835083008,-0.3500266671180725,-2.5399813652038574,0.24112264811992645,0
45,0.22038960456848145,-0.3514034152030945,-11.750940322875977,0.9696381092071533,21.693452835083008,0.3500266671180725,2.5399813652038574,-0.24112264811992645,0.0,0.0,0.0,0.0,0.0,0.0,0.0,-0.3011013833542063,0.6005703664486359,-0.21281731816782665,0.3868014741551483,-0.18114079408503825,0.12994434719610415,-0.2679902337131497,0.1730289443898619,-0.4875789015376795,-0.11130083215027524,-1.9462684754373933,0.13346859598958336,2.5954447757817274,0.9452513745549842,0.1728802376190821,-0.48752024683155326,-0.11147110072896137,-1.9463801863486305,0.1336059019074957,2.595550359778934,0.9452445589611904,0.0009361976080742734,0.0006134783922476167,-0.00042227209674631805,-0.00024377633354216973,0.00021421600580101907,-0.00046967671926251503,-0.0001480570506092754,0.0,0.0,0.0,0.0,0.0,0.0,0.0,-0.00014870677077979955,5.865470612625989e-05,-0.000170268578686128,-0.00011171091123718391,0.0001373059179123337,0.00010558399720661527,-6.815593793785268e-06,-0.0009361976080742734,-0.0006134783922476167,0.00042227209674631805,0.00024377633354216973,-0.00021421600580101907,0.00046967671926251503,0.0001480570506092754,0.3514034152030945,11.750940322875977,-0.9696381092071533,-21.693452835083008,-0.3500266671180725,-2.5399813652038574,0.24112264811992645,0
46,0.2249584197998047,-0.3514034152030945,-11.750940322875977,0.9696381092071533,21.693452835083008,0.3500266671180725,2.5399813652038574,-0.27591270208358765,0.0,0.0,0.0,0.0,0.0,0.0,0.0,-0.3042969063545644,0.5965448453905028,-0.21421080175800952,0.38717754343726574,-0.1811005973509403,0.13034378886538778,-0.267280038479704,0.1730289443898619,-0.4875789015376777,-0.11130083218644576,-1.9462682458154354,0.13346550009712713,2.5954447368949207,0.9452552803428576,0.1728802376190821,-0.48752024683155326,-0.11147110072896137,-1.9463801863486305,0.1336059019074957,2.595550359778934,0.9452445589611904,0.0005167340500943273,0.00011540150259883457,-0.00013280779735805976,-0.0007405429832268108,0.00011984244726063937,-0.00033413242087878555,0.0006466290064501951,0.0,0.0,0.0,0.0,0.0,0.0,0.0,-0.00014870677077979955,5.8654706124428024e-05,-0.00017026854251560308,-0.00011194053319507624,0.00014040181036856225,0.0001056228840132789,-1.0721381667133656e-05,-0.0005167340500943273,-0.00011540150259883457,0.00013280779735805976,0.0007405429832268108,-0.00011984244726063937,0.00033413242087878555,-0.0006466290064501951,0.3514034152030945,11.750940322875977,-0.9696381092071533,-21.693452835083008,-0.3500266671180725,-2.5399813652038574,0.27591270208358765,0
47,0.23000001907348633,-0.3514034152030945,-11.750940322875977,0.9696381092071533,21.693452835083008,0.3500266671180725,2.5399813652038574,-0.27591270208358765,0.0,0.0,0.0,0.0,0.0,0.0,0.0,-0.3042969063545644,0.5965448453905028,-0.21421080175800952,0.38717754343726574,-0.1811005973509403,0.13034378886538778,-0.267280038479704,0.1730289443898619,-0.4875789015376777,-0.11130083218644576,-1.9462682458154354,0.13346550009712713,2.5954447368949207,0.9452552803428576,0.1728802376190821,-0.48752024683155326,-0.11147110072896137,-1.9463801863486305,0.1336059019074957,2.595550359778934,0.9452445589611904,0.0005167340500943273,0.00011540150259883457,-0.00013280779735805976,-0.0007405429832268108,0.00011984244726063937,-0.00033413242087878555,0.0006466290064501951,0.0,0.0,0.0,0.0,0.0,0.0,0.0,-0.00014870677077979955,5.8654706124428024e-05,-0.00017026854251560308,-0.00011194053319507624,0.00014040181036856225,0.0001056228840132789,-1.0721381667133656e-05,-0.0005167340500943273,-0.00011540150259883457,0.00013280779735805976,0.0007405429832268108,-0.00011984244726063937,0.00033413242087878555,-0.0006466290064501951,0.3514034152030945,11.750940322875977,-0.9696381092071533,-21.693452835083008,-0.3500266671180725,-2.5399813652038574,0.27591270208358765,0
48,0.23500895500183105,-0.2998287081718445,-11.802515029907227,0.9934418201446533,21.641878128051758,0.3555198311805725,2.5143465995788574,-0.24844686686992645,0.0,0.0,0.0,0.0,0.0,0.0,0.0,-0.31155258025326155,0.5898916534396735,-0.21978389005066695,0.38897996371647603,-0.1806409071982878,0.13118018315698096,-0.2669022095759584,0.1730253251121755,-0.4875752822599913,-0.11130250258613071,-1.9462646265364527,0.13346476930447856,2.5954478303674673,0.9452521898465023,0.1728802376190821,-0.48752024683155326,-0.11147110072896137,-1.9463801863486305,0.1336059019074957,2.595550359778934,0.9452445589611904,-0.0006223588016340118,0.0011698905428092282,-0.0008890596413390309,0.0008803018271666745,0.00010197146506773685,0.0007331118991143222,-0.0008933410875670005,0.0,0.0,0.0,0.0,0.0,0.0,0.0,-0.00014508749309338764,5.5035428438043876e-05,-0.000168598142830656,-0.0001155598121778123,0.0001411326030171245,0.0001025294114667119,-7.63088531186007e-06,0.0006223588016340118,-0.0011698905428092282,0.0008890596413390309,-0.0008803018271666745,-0.00010197146506773685,-0.0007331118991143222,0.0008933410875670005,0.2998287081718445,11.802515029907227,-0.9934418201446533,-21.641878128051758,-0.3555198311805725,-2.5143465995788574,0.24844686686992645,0
49,0.24002599716186523,-0.2998287081718445,-11.802515029907227,0.9934418201446533,21.641878128051758,0.3555198311805725,2.5143465995788574,-0.24844686686992645,0.0,0.0,0.0,0.0,0.0,0.0,0.0,-0.31155258025326155,0.5898916534396735,-0.21978389005066695,0.38897996371647603,-0.1806409071982878,0.13118018315698096,-0.2669022095759584,0.1730253251121755,-0.4875752822599913,-0.11130250258613071,-1.9462646265364527,0.13346476930447856,2.5954478303674673,0.9452521898465023,0.1728802376190821,-0.48752024683155326,-0.11147110072896137,-1.9463801863486305,0.1336059019074957,2.595550359778934,0.9452445589611904,-0.0006223588016340118,0.0011698905428092282,-0.0008890596413390309,0.0008803018271666745,0.00010197146506773685,0.0007331118991143222,-0.0008933410875670005,0.0,0.0,0.0,0.0,0.0,0.0,0.0,-0.00014508749309338764,5.5035428438043876e-05,-0.000168598142830656,-0.0001155598121778123,0.0001411326030171245,0.0001025294114667119,-7.63088531186007e-06,0.0006223588016340118,-0.0011698905428092282,0.0008890596413390309,-0.0008803018271666745,-0.00010197146506773685,-0.0007331118991143222,0.0008933410875670005,0.2998287081718445,11.802515029907227,-0.9934418201446533,-21.641878128051758,-0.3555198311805725,-2.5143465995788574,0.24844686686992645,0
50,0.24500775337219238,-0.3236324191093445,-11.727136611938477,0.9934418201446533,21.641878128051758,0.3555198311805725,2.5271639823913574,-0.26217979192733765,0.0,0.0,0.0,0.0,0.0,0.0,0.0,-0.3052801639770468,0.5894741448431051,-0.20876812105343853,0.38579981693459564,-0.1807023401339845,0.1303409292707713,-0.2682668747497982,0.17302699554803075,-0.4875812882104167,-0.1113025025861305,-1.9462646265714456,0.1334647707664336,2.59544643237911,0.9452537142369567,0.1728802376190821,-0.48752024683155326,-0.11147110072896137,-1.9463801863486305,0.1336059019074957,2.595550359778934,0.9452445589611904,0.0008216578050890063,-0.0009049063997991704,0.00016472661062488564,0.0009108495230036182,1.8254556409133244e-05,0.00025493103092941345,0.0003254643167770035,0.0,0.0,0.0,0.0,0.0,0.0,0.0,-0.0001467579289486376,6.104137886342453e-05,-0.00016859814283086416,-0.00011555977718491484,0.00014113114106209523,0.00010392739982378885,-9.155275766281612e-06,-0.0008216578050890063,0.0009049063997991704,-0.00016472661062488564,-0.0009108495230036182,-1.8254556409133244e-05,-0.00025493103092941345,-0.0003254643167770035,0.3236324191093445,11.727136611938477,-0.9934418201446533,-21.641878128051758,-0.3555198311805725,-2.5271639823913574,0.26217979192733765,0
51,0.25000643730163574,-0.3236324191093445,-11.727136611938477,0.9934418201446533,21.641878128051758,0.3555198311805725,2.5271639823913574,-0.26217979192733765,0.0,0.0,0.0,0.0,0.0,0.0,0.0,-0.3052801639770468,0.5894741448431051,-0.20876812105343853,0.38579981693459564,-0.1807023401339845,0.1303409292707713,-0.2682668747497982,0.17302699554803075,-0.4875812882104167,-0.1113025025861305,-1.9462646265714456,0.1334647707664336,2.59544643237911,0.9452537142369567,0.1728802376190821,-0.48752024683155326,-0.11147110072896137,-1.9463801863486305,0.1336059019074957,2.595550359778934,0.9452445589611904,0.0008216578050890063,-0.0009049063997991704,0.00016472661062488564,0.0009108495230036182,1.8254556409133244e-05,0.00025493103092941345,0.0003254643167770035,0.0,0.0,0.0,0.0,0.0,0.0,0.0,-0.0001467579289486376,6.104137886342453e-05,-0.00016859814283086416,-0.00011555977718491484,0.00014113114106209523,0.00010392739982378885,-9.155275766281612e-06,-0.0008216578050890063,0.0009049063997991704,-0.00016472661062488564,-0.0009108495230036182,-1.8254556409133244e-05,-0.00025493103092941345,-0.0003254643167770035,0.3236324191093445,11.727136611938477,-0.9934418201446533,-21.641878128051758,-0.3555198311805725,-2.5271639823913574,0.26217979192733765,0
52,0.25499820709228516,-0.2720577120780945,-11.727136611938477,1.0172455310821533,21.693452835083008,0.3500266671180725,2.5271639823913574,-0.26858848333358765,0.0,0.0,0.0,0.0,0.0,0.0,0.0,-0.30761861072143204,0.5876772206788835,-0.21327702285980765,0.384608220759731,-0.1799291785505772,0.12961217154271898,-0.26807833866769204,0.17302337627034436,-0.4875805719775761,-0.11130417302198575,-1.9462682458141394,0.13346537981788442,2.595445149325072,0.9452544263137711,0.1728802376190821,-0.48752024683155326,-0.11147110072896137,-1.9463801863486305,0.1336059019074957,2.595550359778934,0.9452445589611904,-0.0005873086493855984,-0.00034426215034547144,-0.0004240333027580319,-0.00032875507839907257,0.00010799627829844275,6.41310328312533e-05,0.00015993483514383902,0.0,0.0,0.0,0.0,0.0,0.0,0.0,-0.00014313865126225345,6.0325146022832676e-05,-0.0001669277069756142,-0.0001119405344911506,0.0001405220896112669,0.00010521045386191474,-9.867352580683608e-06,0.0005873086493855984,0.00034426215034547144,0.0004240333027580319,0.00032875507839907257,-0.00010799627829844275,-6.41310328312533e-05,-0.00015993483514383902,0.2720577120780945,11.727136611938477,-1.0172455310821533,-21.693452835083008,-0.3500266671180725,-2.5271639823913574,0.26858848333358765,0
53,0.2600090503692627,-0.2720577120780945,-11.727136611938477,1.0172455310821533,21.693452835083008,0.3500266671180725,2.5271639823913574,-0.26858848333358765,0.0,0.0,0.0,0.0,0.0,0.0,0.0,-0.30761861072143204,0.5876772206788835,-0.21327702285980765,0.384608220759731,-0.1799291785505772,0.12961217154271898,-0.26807833866769204,0.17302337627034436,-0.4875805719775761,-0.11130417302198575,-1.9462682458141394,0.13346537981788442,2.595445149325072,0.9452544263137711,0.1728802376190821,-0.48752024683155326,-0.11147110072896137,-1.9463801863486305,0.1336059019074957,2.595550359778934,0.9452445589611904,-0.0005873086493855984,-0.00034426215034547144,-0.0004240333027580319,-0.00032875507839907257,0.00010799627829844275,6.41310328312533e-05,0.00015993483514383902,0.0,0.0,0.0,0.0,0.0,0.0,0.0,-0.00014313865126225345,6.0325146022832676e-05,-0.0001669277069756142,-0.0001119405344911506,0.0001405220896112669,0.00010521045386191474,-9.867352580683608e-06,0.0005873086493855984,0.00034426215034547144,0.0004240333027580319,0.00032875507839907257,-0.00010799627829844275,-6.41310328312533e-05,-0.00015993483514383902,0.2720577120780945,11.727136611938477,-1.0172455310821533,-21.693452835083008,-0.3500266671180725,-2.5271639823913574,0.26858848333358765,0
54,0.26500487327575684,-0.2998287081718445,-11.750940322875977,0.9696381092071533,21.693452835083008,0.3619285225868225,2.5335726737976074,-0.23471395671367645,0.0,0.0,0.0,0.0,0.0,0.0,0.0,-0.30493456774219363,0.5865736663501548,-0.2073757008148381,0.38574854450596857,-0.17996587808102332,0.12909374562337866,-0.2678851010543154,0.1730253251121755,-0.4875791399562568,-0.11130083312687931,-1.9462682458141392,0.1334640703906911,2.5954479346444037,0.94525066247748,0.1728802376190821,-0.48752024683155326,-0.11147110072896137,-1.9463801863486305,0.1336059019074957,2.595550359778934,0.9452445589611904,6.824505522723493e-05,0.0004985956731189618,0.0009362248885416689,-0.00029966573408128915,-0.0005453816695559985,-0.00017717025875150727,-0.0006716051109238229,0.0,0.0,0.0,0.0,0.0,0.0,0.0,-0.00014508749309338764,5.889312470352959e-05,-0.0001702676020820526,-0.00011194053449137265,0.00014183151680458028,0.0001024251345302929,-6.103516289601707e-06,-6.824505522723493e-05,-0.0004985956731189618,-0.0009362248885416689,0.00029966573408128915,0.0005453816695559985,0.00017717025875150727,0.0006716051109238229,0.2998287081718445,11.750940322875977,-0.9696381092071533,-21.693452835083008,-0.3619285225868225,-2.5335726737976074,0.23471395671367645,0
55,0.270003080368042,-0.2998287081718445,-11.750940322875977,0.9696381092071533,21.693452835083008,0.3619285225868225,2.5335726737976074,-0.23471395671367645,0.0,0.0,0.0,0.0,0.0,0.0,0.0,-0.30493456774219363,0.5865736663501548,-0.2073757008148381,0.38574854450596857,-0.17996587808102332,0.12909374562337866,-0.2678851010543154,0.1730253251121755,-0.4875791399562568,-0.11130083312687931,-1.9462682458141392,0.1334640703906911,2.5954479346444037,0.94525066247748,0.1728802376190821,-0.48752024683155326,-0.11147110072896137,-1.9463801863486305,0.1336059019074957,2.595550359778934,0.9452445589611904,6.824505522723493e-05,0.0004985956731189618,0.0009362248885416689,-0.00029966573408128915,-0.0005453816695559985,-0.00017717025875150727,-0.0006716051109238229,0.0,0.0,0.0,0.0,0.0,0.0,0.0,-0.00014508749309338764,5.889312470352959e-05,-0.0001702676020820526,-0.00011194053449137265,0.00014183151680458028,0.0001024251345302929,-6.103516289601707e-06,-6.824505522723493e-05,-0.0004985956731189618,-0.0009362248885416689,0.00029966573408128915,0.0005453816695559985,0.00017717025875150727,0.0006716051109238229,0.2998287081718445,11.750940322875977,-0.9696381092071533,-21.693452835083008,-0.3619285225868225,-2.5335726737976074,0.23471395671367645,0
56,0.27501487731933594,-0.2998287081718445,-11.699365615844727,0.9696381092071533,21.669649124145508,0.3436179757118225,2.5335726737976074,-0.23471395671367645,0.0,0.0,0.0,0.0,0.0,0.0,0.0,-0.30558583597023964,0.592616974764723,-0.21174232434654347,0.38286987025956615,-0.17980219561062788,0.1286857039102958,-0.26728094374802946,0.1730253251121755,-0.48758252114375883,-0.11130083215028075,-1.946266575378284,0.1334660917322584,2.5954454505467766,0.94525066247748,0.1728802376190821,-0.48752024683155326,-0.11147110072896137,-1.9463801863486305,0.1336059019074957,2.595550359778934,0.9452445589611904,0.000746579164535062,-0.0002749001047576587,0.00017256594567864342,0.00015705664866323593,0.00020607826215433218,-6.948266395238465e-05,-0.000924044906001711,0.0,0.0,0.0,0.0,0.0,0.0,0.0,-0.00014508749309338764,6.2274312205568e-05,-0.0001702685786806185,-0.00011361097034656709,0.00013981017523728712,0.0001049092321574463,-6.103516289601707e-06,-0.000746579164535062,0.0002749001047576587,-0.00017256594567864342,-0.00015705664866323593,-0.00020607826215433218,6.948266395238465e-05,0.000924044906001711,0.2998287081718445,11.699365615844727,-0.9696381092071533,-21.669649124145508,-0.3436179757118225,-2.5335726737976074,0.23471395671367645,0
57,0.2800107002258301,-0.2998287081718445,-11.699365615844727,0.9696381092071533,21.669649124145508,0.3436179757118225,2.5335726737976074,-0.23471395671367645,0.0,0.0,0.0,0.0,0.0,0.0,0.0,-0.30558583597023964,0.592616974764723,-0.21174232434654347,0.38286987025956615,-0.17980219561062788,0.1286857039102958,-0.26728094374802946,0.1730253251121755,-0.48758252114375883,-0.11130083215028075,-1.946266575378284,0.1334660917322584,2.5954454505467766,0.94525066247748,0.1728802376190821,-0.48752024683155326,-0.11147110072896137,-1.9463801863486305,0.1336059019074957,2.595550359778934,0.9452445589611904,0.000746579164535062,-0.0002749001047576587,0.00017256594567864342,0.00015705664866323593,0.00020607826215433218,-6.948266395238465e-05,-0.000924044906001711,0.0,0.0,0.0,0.0,0.0,0.0,0.0,-0.00014508749309338764,6.2274312205568e-05,-0.0001702685786806185,-0.00011361097034656709,0.00013981017523728712,0.0001049092321574463,-6.103516289601707e-06,-0.000746579164535062,0.0002749001047576587,-0.00017256594567864342,-0.00015705664866323593,-0.00020607826215433218,6.948266395238465e-05,0.000924044906001711,0.2998287081718445,11.699365615844727,-0.9696381092071533,-21.669649124145508,-0.3436179757118225,-2.5335726737976074,0.23471395671367645,0
58,0.2850010395050049,-0.2998287081718445,-11.699365615844727,0.9696381092071533,21.669649124145508,0.3436179757118225,2.5335726737976074,-0.23471395671367645,0.0,0.0,0.0,0.0,0.0,0.0,0.0,-0.30558583597023964,0.592616974764723,-0.21174232434654347,0.38286987025956615,-0.17980219561062788,0.1286857039102958,-0.26728094374802946,0.1730253251121755,-0.48758252114375883,-0.11130083215028075,-1.946266575378284,0.1334660917322584,2.5954454505467766,0.94525066247748,0.1728802376190821,-0.48752024683155326,-0.11147110072896137,-1.9463801863486305,0.1336059019074957,2.595550359778934,0.9452445589611904,0.000746579164535062,-0.0002749001047576587,0.00017256594567864342,0.00015705664866323593,0.00020607826215433218,-6.948266395238465e-05,-0.000924044906001711,0.0,0.0,0.0,0.0,0.0,0.0,0.0,-0.00014508749309338764,6.2274312205568e-05,-0.0001702685786806185,-0.00011361097034656709,0.00013981017523728712,0.0001049092321574463,-6.103516289601707e-06,-0.000746579164535062,0.0002749001047576587,-0.00017256594567864342,-0.00015705664866323593,-0.00020607826215433218,6.948266395238465e-05,0.000924044906001711,0.2998287081718445,11.699365615844727,-0.9696381092071533,-21.669649124145508,-0.3436179757118225,-2.5335726737976074,0.23471395671367645,0
59,0.29000067710876465,-0.2998287081718445,-11.699365615844727,0.9696381092071533,21.669649124145508,0.3436179757118225,2.5335726737976074,-0.23471395671367645,0.0,0.0,0.0,0.0,0.0,0.0,0.0,-0.30558583597023964,0.592616974764723,-0.21174232434654347,0.38286987025956615,-0.17980219561062788,0.1286857039102958,-0.26728094374802946,0.1730253251121755,-0.48758252114375883,-0.11130083215028075,-1.946266575378284,0.1334660917322584,2.5954454505467766,0.94525066247748,0.1728802376190821,-0.48752024683155326,-0.11147110072896137,-1.9463801863486305,0.1336059019074957,2.595550359778934,0.9452445589611904,0.000746579164535062,-0.0002749001047576587,0.00017256594567864342,0.00015705664866323593,0.00020607826215433218,-6.948266395238465e-05,-0.000924044906001711,0.0,0.0,0.0,0.0,0.0,0.0,0.0,-0.00014508749309338764,6.2274312205568e-05,-0.0001702685786806185,-0.00011361097034656709,0.00013981017523728712,0.0001049092321574463,-6.103516289601707e-06,-0.000746579164535062,0.0002749001047576587,-0.00017256594567864342,-0.00015705664866323593,-0.00020607826215433218,6.948266395238465e-05,0.000924044906001711,0.2998287081718445,11.699365615844727,-0.9696381092071533,-21.669649124145508,-0.3436179757118225,-2.5335726737976074,0.23471395671367645,0
60,0.29509496688842773,-0.3236324191093445,-11.750940322875977,0.9418671131134033,21.669649124145508,0.3500266671180725,2.5335726737976074,-0.26217979192733765,0.0,0.0,0.0,0.0,0.0,0.0,0.0,-0.3032117491672729,0.593563324698161,-0.21016704680314996,0.38276103178762944,-0.1805448266779412,0.12907258527587334,-0.2662619449478891,0.17302699554803075,-0.4875789015740183,-0.11129888374249035,-1.946266575378284,0.13346537981787618,2.595447460308227,0.9452537142369483,0.1728802376190821,-0.48752024683155326,-0.11147110072896137,-1.9463801863486305,0.1336059019074957,2.595550359778934,0.9452445589611904,0.00018994470554944653,0.0008138704201848826,0.0009812510117136947,-0.0001471995991932435,0.00026674285236188256,-0.00015666694499126847,0.0001630881938867031,0.0,0.0,0.0,0.0,0.0,0.0,0.0,-0.0001467579289486376,5.865474246502522e-05,-0.0001722169864710188,-0.00011361097034656709,0.0001405220896195103,0.00010289947070685201,-9.155275757843917e-06,-0.00018994470554944653,-0.0008138704201848826,-0.0009812510117136947,0.0001471995991932435,-0.00026674285236188256,0.00015666694499126847,-0.0001630881938867031,0.3236324191093445,11.750940322875977,-0.9418671131134033,-21.669649124145508,-0.3500266671180725,-2.5335726737976074,0.26217979192733765,0
61,0.300020694732666,-0.3236324191093445,-11.750940322875977,0.9418671131134033,21.669649124145508,0.3500266671180725,2.5335726737976074,-0.26217979192733765,0.0,0.0,0.0,0.0,0.0,0.0,0.0,-0.3032117491672729,0.593563324698161,-0.21016704680314996,0.38276103178762944,-0.1805448266779412,0.12907258527587334,-0.2662619449478891,0.17302699554803075,-0.4875789015740183,-0.11129888374249035,-1.946266575378284,0.13346537981787618,2.595447460308227,0.9452537142369483,0.1728802376190821,-0.48752024683155326,-0.11147110072896137,-1.9463801863486305,0.1336059019074957,2.595550359778934,0.9452445589611904,0.00018994470554944653,0.0008138704201848826,0.0009812510117136947,-0.0001471995991932435,0.00026674285236188256,-0.00015666694499126847,0.0001630881938867031,0.0,0.0,0.0,0.0,0.0,0.0,0.0,-0.0001467579289486376,5.865474246502522e-05,-0.0001722169864710188,-0.00011361097034656709,0.0001405220896195103,0.00010289947070685201,-9.155275757843917e-06,-0.00018994470554944653,-0.0008138704201848826,-0.0009812510117136947,0.0001471995991932435,-0.00026674285236188256,0.00015666694499126847,-0.0001630881938867031,0.3236324191093445,11.750940322875977,-0.9418671131134033,-21.669649124145508,-0.3500266671180725,-2.5335726737976074,0.26217979192733765,0
62,0.3050041198730469,-0.2720577120780945,-11.699365615844727,0.9696381092071533,21.693452835083008,0.3555198311805725,2.5207552909851074,-0.28232139348983765,0.0,0.0,0.0,0.0,0.0,0.0,0.0,-0.2969189668354796,0.5951408835855603,-0.19672155991368145,0.3831448091482853,-0.1809376114723589,0.12929432513146033,-0.26592831726606114,0.17302337627034436,-0.48758474605543595,-0.1113008321502777,-1.9462682458141392,0.13346477417924937,2.59544570981181,0.9452559521926774,0.1728802376190821,-0.48752024683155326,-0.11147110072896137,-1.9463801863486305,0.1336059019074957,2.595550359778934,0.9452445589611904,-0.0005354360702177495,-0.00029965734091780613,0.0005983814155333933,-0.0006813397564131043,-0.00019475578210691752,0.00031219524616527027,0.0012417202873352701,0.0,0.0,0.0,0.0,0.0,0.0,0.0,-0.00014313865126225345,6.449922388268581e-05,-0.00017026857868367162,-0.00011194053449137265,0.00014112772824631525,0.0001046499671240042,-1.1393231487022426e-05,0.0005354360702177495,0.00029965734091780613,-0.0005983814155333933,0.0006813397564131043,0.00019475578210691752,-0.00031219524616527027,-0.0012417202873352701,0.2720577120780945,11.699365615844727,-0.9696381092071533,-21.693452835083008,-0.3555198311805725,-2.5207552909851074,0.28232139348983765,0
63,0.31006312370300293,-0.2720577120780945,-11.699365615844727,0.9696381092071533,21.693452835083008,0.3555198311805725,2.5207552909851074,-0.28232139348983765,0.0,0.0,0.0,0.0,0.0,0.0,0.0,-0.2969189668354796,0.5951408835855603,-0.19672155991368145,0.3831448091482853,-0.1809376114723589,0.12929432513146033,-0.26592831726606114,0.17302337627034436,-0.48758474605543595,-0.1113008321502777,-1.9462682458141392,0.13346477417924937,2.59544570981181,0.9452559521926774,0.1728802376190821,-0.48752024683155326,-0.11147110072896137,-1.9463801863486305,0.1336059019074957,2.595550359778934,0.9452445589611904,-0.0005354360702177495,-0.00029965734091780613,0.0005983814155333933,-0.0006813397564131043,-0.00019475578210691752,0.00031219524616527027,0.0012417202873352701,0.0,0.0,0.0,0.0,0.0,0.0,0.0,-0.00014313865126225345,6.449922388268581e-05,-0.00017026857868367162,-0.00011194053449137265,0.00014112772824631525,0.0001046499671240042,-1.1393231487022426e-05,0.0005354360702177495,0.00029965734091780613,-0.0005983814155333933,0.0006813397564131043,0.00019475578210691752,-0.00031219524616527027,-0.0012417202873352701,0.2720577120780945,11.699365615844727,-0.9696381092071533,-21.693452835083008,-0.3555198311805725,-2.5207552909851074,0.28232139348983765,0
64,0.3150181770324707,-0.2998287081718445,-11.699365615844727,0.9418671131134033,21.669649124145508,0.3436179757118225,2.5463900566101074,-0.22098104655742645,0.0,0.0,0.0,0.0,0.0,0.0,0.0,-0.30074394178807756,0.5901270770411826,-0.20762349334243005,0.38717569807802693,-0.18055256786519897,0.1299435886097036,-0.2654300158522006,0.1730253251121755,-0.4875825208279257,-0.11129888330844409,-1.9462668049665452,0.13346621020564137,2.5954472169691574,0.9452491365985738,0.1728802376190821,-0.48752024683155326,-0.11147110072896137,-1.9463801863486305,0.1336059019074957,2.595550359778934,0.9452445589611904,0.000259327016143329,-0.0005727423058380427,0.0005552808765044328,9.760790119938395e-05,0.0002365975236692269,-0.0007649201171124204,-0.0013695474802972404,0.0,0.0,0.0,0.0,0.0,0.0,0.0,-0.00014508749309338764,6.227399637243058e-05,-0.00017221742051727607,-0.00011338138208527582,0.000139691701854322,0.00010314280977663515,-4.5776373833739115e-06,-0.000259327016143329,0.0005727423058380427,-0.0005552808765044328,-9.760790119938395e-05,-0.0002365975236692269,0.0007649201171124204,0.0013695474802972404,0.2998287081718445,11.699365615844727,-0.9418671131134033,-21.669649124145508,-0.3436179757118225,-2.5463900566101074,0.22098104655742645,0
65,0.32001519203186035,-0.2998287081718445,-11.699365615844727,0.9418671131134033,21.669649124145508,0.3436179757118225,2.5463900566101074,-0.22098104655742645,0.0,0.0,0.0,0.0,0.0,0.0,0.0,-0.30074394178807756,0.5901270770411826,-0.20762349334243005,0.38717569807802693,-0.18055256786519897,0.1299435886097036,-0.2654300158522006,0.1730253251121755,-0.4875825208279257,-0.11129888330844409,-1.9462668049665452,0.13346621020564137,2.5954472169691574,0.9452491365985738,0.1728802376190821,-0.48752024683155326,-0.11147110072896137,-1.9463801863486305,0.1336059019074957,2.595550359778934,0.9452445589611904,0.000259327016143329,-0.0005727423058380427,0.0005552808765044328,9.760790119938395e-05,0.0002365975236692269,-0.0007649201171124204,-0.0013695474802972404,0.0,0.0,0.0,0.0,0.0,0.0,0.0,-0.00014508749309338764,6.227399637243058e-05,-0.00017221742051727607,-0.00011338138208527582,0.000139691701854322,0.00010314280977663515,-4.5776373833739115e-06,-0.000259327016143329,0.0005727423058380427,-0.0005552808765044328,-9.760790119938395e-05,-0.0002365975236692269,0.0007649201171124204,0.0013695474802972404,0.2998287081718445,11.699365615844727,-0.9418671131134033,-21.669649124145508,-0.3436179757118225,-2.5463900566101074,0.22098104655742645,0
66,0.324998140335083,-0.3236324191093445,-11.774744033813477,0.9418671131134033,21.669649124145508,0.3555198311805725,2.5271639823913574,-0.26858848333358765,0.0,0.0,0.0,0.0,0.0,0.0,0.0,-0.30110071667604477,0.5850921837670722,-0.21281318325561582,0.3892305385790389,-0.18140370306356546,0.13020798662192432,-0.2646556217200006,0.17302699554803075,-0.4875772311018225,-0.11129888330844409,-1.946266583882849,0.13346584878322118,2.595445454640947,0.9452545872217833,0.1728802376190821,-0.48752024683155326,-0.11147110072896137,-1.9463801863486305,0.1336059019074957,2.595550359778934,0.9452445589611904,0.000140821985072216,0.0008183385447071898,0.0009477997884905572,3.34127360718177e-06,-1.577079058055364e-05,0.0002170957321470517,0.0004199184480549046,0.0,0.0,0.0,0.0,0.0,0.0,0.0,-0.0001467579289486376,5.6984270269233583e-05,-0.00017221742051727607,-0.0001136024657815149,0.00014005312427450844,0.00010490513798711021,-1.0028260592931382e-05,-0.000140821985072216,-0.0008183385447071898,-0.0009477997884905572,-3.34127360718177e-06,1.577079058055364e-05,-0.0002170957321470517,-0.0004199184480549046,0.3236324191093445,11.774744033813477,-0.9418671131134033,-21.669649124145508,-0.3555198311805725,-2.5271639823913574,0.26858848333358765,0
67,0.3300023078918457,-0.3236324191093445,-11.774744033813477,0.9418671131134033,21.669649124145508,0.3555198311805725,2.5271639823913574,-0.26858848333358765,0.0,0.0,0.0,0.0,0.0,0.0,0.0,-0.30110071667604477,0.5850921837670722,-0.21281318325561582,0.3892305385790389,-0.18140370306356546,0.13020798662192432,-0.2646556217200006,0.17302699554803075,-0.4875772311018225,-0.11129888330844409,-1.946266583882849,0.13346584878322118,2.595445454640947,0.9452545872217833,0.1728802376190821,-0.48752024683155326,-0.11147110072896137,-1.9463801863486305,0.1336059019074957,2.595550359778934,0.9452445589611904,0.000140821985072216,0.0008183385447071898,0.0009477997884905572,3.34127360718177e-06,-1.577079058055364e-05,0.0002170957321470517,0.0004199184480549046,0.0,0.0,0.0,0.0,0.0,0.0,0.0,-0.0001467579289486376,5.6984270269233583e-05,-0.00017221742051727607,-0.0001136024657815149,0.00014005312427450844,0.00010490513798711021,-1.0028260592931382e-05,-0.000140821985072216,-0.0008183385447071898,-0.0009477997884905572,-3.34127360718177e-06,1.577079058055364e-05,-0.0002170957321470517,-0.0004199184480549046,0.3236324191093445,11.774744033813477,-0.9418671131134033,-21.669649124145508,-0.3555198311805725,-2.5271639823913574,0.26858848333358765,0
68,0.33499860763549805,-0.3236324191093445,-11.750940322875977,0.9696381092071533,21.693452835083008,0.3555198311805725,2.5399813652038574,-0.28964561223983765,0.0,0.0,0.0,0.0,0.0,0.0,0.0,-0.30027310203749474,0.5870649463319964,-0.20954523301841138,0.3863825216647038,-0.1816085058608046,0.12997649050503843,-0.2651557112040741,0.17302699554803075,-0.4875789015376777,-0.11130083215027524,-1.9462682458141871,0.1334649419008147,2.5954468925057284,0.9452567659956691,0.1728802376190821,-0.48752024683155326,-0.11147110072896137,-1.9463801863486305,0.1336059019074957,2.595550359778934,0.9452445589611904,0.0005404073457391161,4.829216521608615e-05,0.00042987957613027444,-0.00044576737399407715,-0.0001314850732692141,-0.00033535351465367464,0.001450764817713928,0.0,0.0,0.0,0.0,0.0,0.0,0.0,-0.0001467579289486376,5.8654706124428024e-05,-0.000170268578686128,-0.00011194053444341101,0.00014096000668098463,0.00010346727320564852,-1.2207034478683987e-05,-0.0005404073457391161,-4.829216521608615e-05,-0.00042987957613027444,0.00044576737399407715,0.0001314850732692141,0.00033535351465367464,-0.001450764817713928,0.3236324191093445,11.750940322875977,-0.9696381092071533,-21.693452835083008,-0.3555198311805725,-2.5399813652038574,0.28964561223983765,0
69,0.34002208709716797,-0.3236324191093445,-11.750940322875977,0.9696381092071533,21.693452835083008,0.3555198311805725,2.5399813652038574,-0.28964561223983765,0.0,0.0,0.0,0.0,0.0,0.0,0.0,-0.30027310203749474,0.5870649463319964,-0.20954523301841138,0.3863825216647038,-0.1816085058608046,0.12997649050503843,-0.2651557112040741,0.17302699554803075,-0.4875789015376777,-0.11130083215027524,-1.9462682458141871,0.1334649419008147,2.5954468925057284,0.9452567659956691,0.1728802376190821,-0.48752024683155326,-0.11147110072896137,-1.9463801863486305,0.1336059019074957,2.595550359778934,0.9452445589611904,0.0005404073457391161,4.829216521608615e-05,0.00042987957613027444,-0.00044576737399407715,-0.0001314850732692141,-0.00033535351465367464,0.001450764817713928,0.0,0.0,0.0,0.0,0.0,0.0,0.0,-0.0001467579289486376,5.8654706124428024e-05,-0.000170268578686128,-0.00011194053444341101,0.00014096000668098463,0.00010346727320564852,-1.2207034478683987e-05,-0.0005404073457391161,-4.829216521608615e-05,-0.00042987957613027444,0.00044576737399407715,0.0001314850732692141,0.00033535351465367464,-0.001450764817713928,0.3236324191093445,11.750940322875977,-0.9696381092071533,-21.693452835083008,-0.3555198311805725,-2.5399813652038574,0.28964561223983765,0
70,0.34504199028015137,-0.3236324191093445,-11.750940322875977,0.9418671131134033,21.693452835083008,0.3436179757118225,2.5463900566101074,-0.25485557317733765,0.0,0.0,0.0,0.0,0.0,0.0,0.0,-0.3059149053581495,0.5976989380289236,-0.21611354334680064,0.3763712190860096,-0.18116430014092633,0.1292272891734419,-0.265099247573769,0.17302699554803075,-0.4875789015376777,-0.11129888330844409,-1.9462684782368236,0.1334660961384709,2.5954432103627756,0.9452529004348649,0.1728802376190821,-0.48752024683155326,-0.11147110072896137,-1.9463801863486305,0.1336059019074957,2.595550359778934,0.9452445589611904,0.0002656621318846505,0.0007371727780186968,0.0005195022104103957,-0.0008114810002983578,0.0001793319157680755,-0.0006520360081690642,-2.780061316458968e-05,0.0,0.0,0.0,0.0,0.0,0.0,0.0,-0.0001467579289486376,5.8654706124428024e-05,-0.00017221742051727607,-0.00011170811180694074,0.00013980576902478115,0.00010714941615841411,-8.341473674455813e-06,-0.0002656621318846505,-0.0007371727780186968,-0.0005195022104103957,0.0008114810002983578,-0.0001793319157680755,0.0006520360081690642,2.780061316458968e-05,0.3236324191093445,11.750940322875977,-0.9418671131134033,-21.693452835083008,-0.3436179757118225,-2.5463900566101074,0.25485557317733765,0
71,0.3500397205352783,-0.3236324191093445,-11.750940322875977,0.9418671131134033,21.693452835083008,0.3436179757118225,2.5463900566101074,-0.25485557317733765,0.0,0.0,0.0,0.0,0.0,0.0,0.0,-0.3059149053581495,0.5976989380289236,-0.21611354334680064,0.3763712190860096,-0.18116430014092633,0.1292272891734419,-0.265099247573769,0.17302699554803075,-0.4875789015376777,-0.11129888330844409,-1.9462684782368236,0.1334660961384709,2.5954432103627756,0.9452529004348649,0.1728802376190821,-0.48752024683155326,-0.11147110072896137,-1.9463801863486305,0.1336059019074957,2.595550359778934,0.9452445589611904,0.0002656621318846505,0.0007371727780186968,0.0005195022104103957,-0.0008114810002983578,0.0001793319157680755,-0.0006520360081690642,-2.780061316458968e-05,0.0,0.0,0.0,0.0,0.0,0.0,0.0,-0.0001467579289486376,5.8654706124428024e-05,-0.00017221742051727607,-0.00011170811180694074,0.00013980576902478115,0.00010714941615841411,-8.341473674455813e-06,-0.0002656621318846505,-0.0007371727780186968,-0.0005195022104103957,0.0008114810002983578,-0.0001793319157680755,0.0006520360081690642,2.780061316458968e-05,0.3236324191093445,11.750940322875977,-0.9418671131134033,-21.693452835083008,-0.3436179757118225,-2.5463900566101074,0.25485557317733765,0
72,0.35505032539367676,-0.3236324191093445,-11.750940322875977,0.9418671131134033,21.693452835083008,0.3436179757118225,2.5463900566101074,-0.25485557317733765,0.0,0.0,0.0,0.0,0.0,0.0,0.0,-0.3059149053581495,0.5976989380289236,-0.21611354334680064,0.3763712190860096,-0.18116430014092633,0.1292272891734419,-0.265099247573769,0.17302699554803075,-0.4875789015376777,-0.11129888330844409,-1.9462684782368236,0.1334660961384709,2.5954432103627756,0.9452529004348649,0.1728802376190821,-0.48752024683155326,-0.11147110072896137,-1.9463801863486305,0.1336059019074957,2.595550359778934,0.9452445589611904,0.0002656621318846505,0.0007371727780186968,0.0005195022104103957,-0.0008114810002983578,0.0001793319157680755,-0.0006520360081690642,-2.780061316458968e-05,0.0,0.0,0.0,0.0,0.0,0.0,0.0,-0.0001467579289486376,5.8654706124428024e-05,-0.00017221742051727607,-0.00011170811180694074,0.00013980576902478115,0.00010714941615841411,-8.341473674455813e-06,-0.0002656621318846505,-0.0007371727780186968,-0.0005195022104103957,0.0008114810002983578,-0.0001793319157680755,0.0006520360081690642,2.780061316458968e-05,0.3236324191093445,11.750940322875977,-0.9418671131134033,-21.693452835083008,-0.3436179757118225,-2.5463900566101074,0.25485557317733765,0
73,0.3601410388946533,-0.2998287081718445,-11.750940322875977,1.0172455310821533,21.693452835083008,0.3674216866493225,2.5335726737976074,-0.26217979192733765,0.0,0.0,0.0,0.0,0.0,0.0,0.0,-0.3015882010470946,0.5907018348363018,-0.20863527287648787,0.38157449970295587,-0.18180584253196497,0.13058782698887106,-0.2659821441544286,0.1730253251121755,-0.4875789015376777,-0.11130630885509021,-1.9462682458154512,0.13346451329882078,2.5954446728787652,0.9452537142369483,0.1728802376190821,-0.48752024683155326,-0.11147110072896137,-1.9463801863486305,0.1336059019074957,2.595550359778934,0.9452445589611904,0.0003444611387382866,0.0007111923909297194,-0.0007844886497862991,-0.00024221240891951555,-0.0005095448434262734,-7.02333765277509e-05,-7.567672389967261e-05,0.0,0.0,0.0,0.0,0.0,0.0,0.0,-0.00014508749309338764,5.8654706124428024e-05,-0.00016479187387115346,-0.00011194053317931107,0.00014138860867490832,0.00010568690016876658,-9.155275757843917e-06,-0.0003444611387382866,-0.0007111923909297194,0.0007844886497862991,0.00024221240891951555,0.0005095448434262734,7.02333765277509e-05,7.567672389967261e-05,0.2998287081718445,11.750940322875977,-1.0172455310821533,-21.693452835083008,-0.3674216866493225,-2.5335726737976074,0.26217979192733765,0
74,0.3650054931640625,-0.2998287081718445,-11.750940322875977,1.0172455310821533,21.693452835083008,0.3674216866493225,2.5335726737976074,-0.26217979192733765,0.0,0.0,0.0,0.0,0.0,0.0,0.0,-0.3015882010470946,0.5907018348363018,-0.20863527287648787,0.38157449970295587,-0.18180584253196497,0.13058782698887106,-0.2659821441544286,0.1730253251121755,-0.4875789015376777,-0.11130630885509021,-1.9462682458154512,0.13346451329882078,2.5954446728787652,0.9452537142369483,0.1728802376190821,-0.48752024683155326,-0.11147110072896137,-1.9463801863486305,0.1336059019074957,2.595550359778934,0.9452445589611904,0.0003444611387382866,0.0007111923909297194,-0.0007844886497862991,-0.00024221240891951555,-0.0005095448434262734,-7.02333765277509e-05,-7.567672389967261e-05,0.0,0.0,0.0,0.0,0.0,0.0,0.0,-0.00014508749309338764,5.8654706124428024e-05,-0.00016479187387115346,-0.00011194053317931107,0.00014138860867490832,0.00010568690016876658,-9.155275757843917e-06,-0.0003444611387382866,-0.0007111923909297194,0.0007844886497862991,0.00024221240891951555,0.0005095448434262734,7.02333765277509e-05,7.567672389967261e-05,0.2998287081718445,11.750940322875977,-1.0172455310821533,-21.693452835083008,-0.3674216866493225,-2.5335726737976074,0.26217979192733765,0
75,0.369997501373291,-0.2720577120780945,-11.727136611938477,0.9934418201446533,21.669649124145508,0.3436179757118225,2.5207552909851074,-0.23471395671367645,0.0,0.0,0.0,0.0,0.0,0.0,0.0,-0.3026032120622765,0.5927620013645148,-0.2113191128423981,0.3835460847692079,-0.1813997146364361,0.13100549752628265,-0.26753408912087634,0.17302337627034436,-0.48758057197353294,-0.11130253775593392,-1.9462668049665452,0.13346613707988708,2.595450402286951,0.9452506625326611,0.1728802376190821,-0.48752024683155326,-0.11147110072896137,-1.9463801863486305,0.1336059019074957,2.595550359778934,0.9452445589611904,-0.0004962343861763653,0.0001345512550005622,4.449097587389227e-05,0.00041474509112536734,0.00019439673740086194,0.0003725010791374673,-0.0008142134417598681,0.0,0.0,0.0,0.0,0.0,0.0,0.0,-0.00014313865126225345,6.0325141979677976e-05,-0.00016856297302744738,-0.00011338138208527582,0.0001397648276086072,9.995749198310477e-05,-6.103571470683633e-06,0.0004962343861763653,-0.0001345512550005622,-4.449097587389227e-05,-0.00041474509112536734,-0.00019439673740086194,-0.0003725010791374673,0.0008142134417598681,0.2720577120780945,11.727136611938477,-0.9934418201446533,-21.669649124145508,-0.3436179757118225,-2.5207552909851074,0.23471395671367645,0
76,0.37500524520874023,-0.2720577120780945,-11.727136611938477,0.9934418201446533,21.669649124145508,0.3436179757118225,2.5207552909851074,-0.23471395671367645,0.0,0.0,0.0,0.0,0.0,0.0,0.0,-0.3026032120622765,0.5927620013645148,-0.2113191128423981,0.3835460847692079,-0.1813997146364361,0.13100549752628265,-0.26753408912087634,0.17302337627034436,-0.48758057197353294,-0.11130253775593392,-1.9462668049665452,0.13346613707988708,2.595450402286951,0.9452506625326611,0.1728802376190821,-0.48752024683155326,-0.11147110072896137,-1.9463801863486305,0.1336059019074957,2.595550359778934,0.9452445589611904,-0.0004962343861763653,0.0001345512550005622,4.449097587389227e-05,0.00041474509112536734,0.00019439673740086194,0.0003725010791374673,-0.0008142134417598681,0.0,0.0,0.0,0.0,0.0,0.0,0.0,-0.00014313865126225345,6.0325141979677976e-05,-0.00016856297302744738,-0.00011338138208527582,0.0001397648276086072,9.995749198310477e-05,-6.103571470683633e-06,0.0004962343861763653,-0.0001345512550005622,-4.449097587389227e-05,-0.00041474509112536734,-0.00019439673740086194,-0.0003725010791374673,0.0008142134417598681,0.2720577120780945,11.727136611938477,-0.9934418201446533,-21.669649124145508,-0.3436179757118225,-2.5207552909851074,0.23471395671367645,0
77,0.3800201416015625,-0.2720577120780945,-11.750940322875977,0.9418671131134033,21.641878128051758,0.3555198311805725,2.5207552909851074,-0.26858848333358765,0.0,0.0,0.0,0.0,0.0,0.0,0.0,-0.2987014649632397,0.5966741205203833,-0.2072709611406506,0.3823867815547458,-0.18232830988332696,0.13061219709323632,-0.2672971321275627,0.17302337627034436,-0.4875789015376777,-0.11129888330851027,-1.9462646350401536,0.13346477370984602,2.5954458100617246,0.9452544263137712,0.1728802376190821,-0.48752024683155326,-0.11147110072896137,-1.9463801863486305,0.1336059019074957,2.595550359778934,0.9452445589611904,-7.316826940467648e-05,0.0006650505904897033,0.0012719968994091965,0.00036759162317516903,-0.00010235684122481342,0.000340757135948321,0.0001337703404802969,0.0,0.0,0.0,0.0,0.0,0.0,0.0,-0.00014313865126225345,5.8654706124428024e-05,-0.0001722174204510929,-0.00011555130847695771,0.00014112819764966478,0.00010454971720941231,-9.86735258079463e-06,7.316826940467648e-05,-0.0006650505904897033,-0.0012719968994091965,-0.00036759162317516903,0.00010235684122481342,-0.000340757135948321,-0.0001337703404802969,0.2720577120780945,11.750940322875977,-0.9418671131134033,-21.641878128051758,-0.3555198311805725,-2.5207552909851074,0.26858848333358765,0
78,0.38500547409057617,-0.2720577120780945,-11.750940322875977,0.9418671131134033,21.641878128051758,0.3555198311805725,2.5207552909851074,-0.26858848333358765,0.0,0.0,0.0,0.0,0.0,0.0,0.0,-0.2987014649632397,0.5966741205203833,-0.2072709611406506,0.3823867815547458,-0.18232830988332696,0.13061219709323632,-0.2672971321275627,0.17302337627034436,-0.4875789015376777,-0.11129888330851027,-1.9462646350401536,0.13346477370984602,2.5954458100617246,0.9452544263137712,0.1728802376190821,-0.48752024683155326,-0.11147110072896137,-1.9463801863486305,0.1336059019074957,2.595550359778934,0.9452445589611904,-7.316826940467648e-05,0.0006650505904897033,0.0012719968994091965,0.00036759162317516903,-0.00010235684122481342,0.000340757135948321,0.0001337703404802969,0.0,0.0,0.0,0.0,0.0,0.0,0.0,-0.00014313865126225345,5.8654706124428024e-05,-0.0001722174204510929,-0.00011555130847695771,0.00014112819764966478,0.00010454971720941231,-9.86735258079463e-06,7.316826940467648e-05,-0.0006650505904897033,-0.0012719968994091965,-0.00036759162317516903,0.00010235684122481342,-0.000340757135948321,-0.0001337703404802969,0.2720577120780945,11.750940322875977,-0.9418671131134033,-21.641878128051758,-0.3555198311805725,-2.5207552909851074,0.26858848333358765,0
79,0.3899967670440674,-0.3236324191093445,-11.727136611938477,0.9418671131134033,21.641878128051758,0.3500266671180725,2.5271639823913574,-0.22830526530742645,0.0,0.0,0.0,0.0,0.0,0.0,0.0,-0.29791748776431537,0.5943638098558088,-0.21049066036190336,0.3857390118119912,-0.18192467862957265,0.13089385365430076,-0.2684032378499597,0.17302699554803075,-0.48758057197353294,-0.11129888428504817,-1.9462646265365007,0.13346538404329086,2.595446550701482,0.9452499504006571,0.1728802376190821,-0.48752024683155326,-0.11147110072896137,-1.9463801863486305,0.1336059019074957,2.595550359778934,0.9452445589611904,0.0011404273363519284,0.00022925579600255975,0.0009460808882126792,0.0010988052948896292,0.00016031534250218225,0.00011025238037856789,-0.0012783194873357989,0.0,0.0,0.0,0.0,0.0,0.0,0.0,-0.0001467579289486376,6.0325141979677976e-05,-0.00017221644391320068,-0.00011555981212985067,0.00014051786420482548,0.0001038090774518885,-5.3914394666509935e-06,-0.0011404273363519284,-0.00022925579600255975,-0.0009460808882126792,-0.0010988052948896292,-0.00016031534250218225,-0.00011025238037856789,0.0012783194873357989,0.3236324191093445,11.727136611938477,-0.9418671131134033,-21.641878128051758,-0.3500266671180725,-2.5271639823913574,0.22830526530742645,0
