rezayati/contactInterpretation/dataset/franka_main/labeled_data/link7/a3_8.csv
index,time,tau_J0,tau_J1,tau_J2,tau_J3,tau_J4,tau_J5,tau_J6,tau_J_d0,tau_J_d1,tau_J_d2,tau_J_d3,tau_J_d4,tau_J_d5,tau_J_d6,tau_ext0,tau_ext1,tau_ext2,tau_ext3,tau_ext4,tau_ext5,tau_ext6,q0,q1,q2,q3,q4,q5,q6,q_d0,q_d1,q_d2,q_d3,q_d4,q_d5,q_d6,dq0,dq1,dq2,dq3,dq4,dq5,dq6,dq_d0,dq_d1,dq_d2,dq_d3,dq_d4,dq_d5,dq_d6,e0,e1,e2,e3,e4,e5,e6,de0,de1,de2,de3,de4,de5,de6,etau_J0,etau_J1,etau_J2,etau_J3,etau_J4,etau_J5,etau_J6,label
1,0.0,-0.2720577120780945,-22.847436904907227,0.07303168624639511,14.179414749145508,0.01036602258682251,2.1517977714538574,-0.42605918645858765,0.0,0.0,0.0,0.0,0.0,0.0,0.0,-0.2766506955438168,-0.018390488946846795,-0.033397919635339966,0.3199195814156047,-0.22918736515630714,-0.036960574052077345,-0.4096893136490356,1.6754969541273619,0.05230778949668533,0.02990110331992785,-2.752573139224136,0.03445737136735781,2.766332093108214,0.7691996831825476,1.6754973547542302,0.052104326824870026,0.029969505109285054,-2.752394845125968,0.0342448039870148,2.7663679543071322,0.7691630533470046,0.0004099098992523172,0.0008402419006314505,-0.0006590278362642061,-7.577824256847867e-05,-0.00022170126519780435,-0.00011818782058541663,0.0009361336882749271,0.0,0.0,0.0,0.0,0.0,0.0,0.0,4.0062686834652084e-07,-0.00020346267181530625,6.840178935720378e-05,0.00017829409816805253,-0.00021256738034301087,3.5861198918407666e-05,-3.6629835542978384e-05,-0.0004099098992523172,-0.0008402419006314505,0.0006590278362642061,7.577824256847867e-05,0.00022170126519780435,0.00011818782058541663,-0.0009361336882749271,0.2720577120780945,22.847436904907227,-0.07303168624639511,-14.179414749145508,-0.01036602258682251,-2.1517977714538574,0.42605918645858765,0
2,0.005013227462768555,-0.2720577120780945,-22.772058486938477,0.02542426437139511,14.155611038208008,0.01036602258682251,2.1517977714538574,-0.40591758489608765,0.0,0.0,0.0,0.0,0.0,0.0,0.0,-0.27433291376983293,-0.014721564094868207,-0.032287721210340334,0.3146775941633263,-0.2292876199056371,-0.037305662268769975,-0.4103277017532827,1.6754969541273617,0.05230249978314366,0.02990437437201478,-2.7525714687882807,0.034456425527735916,2.7663334880299324,0.76919744522704,1.6754973547542302,0.052104326824870026,0.029969505109285054,-2.752394845125968,0.0342448039870148,2.7663679543071322,0.7691630533470046,-0.00021569659722627085,-0.0005276507976959057,0.0009676529083629881,0.0002969534306078784,-0.0003689266637914069,-7.323047015565096e-05,-0.000114455985943836,0.0,0.0,0.0,0.0,0.0,0.0,0.0,4.0062686856856544e-07,-0.00019817295827363746,6.513073727027266e-05,0.00017662366231263604,-0.00021162154072111583,3.446627719982942e-05,-3.439188003540039e-05,0.00021569659722627085,0.0005276507976959057,-0.0009676529083629881,-0.0002969534306078784,0.0003689266637914069,7.323047015565096e-05,0.000114455985943836,0.2720577120780945,22.772058486938477,-0.02542426437139511,-14.155611038208008,-0.01036602258682251,-2.1517977714538574,0.40591758489608765,0
3,0.010006189346313477,-0.2720577120780945,-22.772058486938477,0.02542426437139511,14.155611038208008,0.01036602258682251,2.1517977714538574,-0.40591758489608765,0.0,0.0,0.0,0.0,0.0,0.0,0.0,-0.27433291376983293,-0.014721564094868207,-0.032287721210340334,0.3146775941633263,-0.2292876199056371,-0.037305662268769975,-0.4103277017532827,1.6754969541273617,0.05230249978314366,0.02990437437201478,-2.7525714687882807,0.034456425527735916,2.7663334880299324,0.76919744522704,1.6754973547542302,0.052104326824870026,0.029969505109285054,-2.752394845125968,0.0342448039870148,2.7663679543071322,0.7691630533470046,-0.00021569659722627085,-0.0005276507976959057,0.0009676529083629881,0.0002969534306078784,-0.0003689266637914069,-7.323047015565096e-05,-0.000114455985943836,0.0,0.0,0.0,0.0,0.0,0.0,0.0,4.0062686856856544e-07,-0.00019817295827363746,6.513073727027266e-05,0.00017662366231263604,-0.00021162154072111583,3.446627719982942e-05,-3.439188003540039e-05,0.00021569659722627085,0.0005276507976959057,-0.0009676529083629881,-0.0002969534306078784,0.0003689266637914069,7.323047015565096e-05,0.000114455985943836,0.2720577120780945,22.772058486938477,-0.02542426437139511,-14.155611038208008,-0.01036602258682251,-2.1517977714538574,0.40591758489608765,0
4,0.014992952346801758,-0.2720577120780945,-22.847436904907227,0.04922797530889511,14.179414749145508,-0.0015358328819274902,2.1517977714538574,-0.37845176458358765,0.0,0.0,0.0,0.0,0.0,0.0,0.0,-0.27747994530317405,-0.02228750146608251,-0.03554024628384685,0.31686250025512935,-0.22927639759642074,-0.03617067051431561,-0.41129085567536483,1.675497669383099,0.05230778949668533,0.029902690792659753,-2.752573139224136,0.03445758568814172,2.766330271869464,0.7691943934692276,1.6754973547542302,0.052104326824870026,0.029969505109285054,-2.752394845125968,0.0342448039870148,2.7663679543071322,0.7691630533470046,-0.0004284408127104128,0.000388691364339342,-0.0001289848308588881,-0.0002761185948649708,0.00012908475131530943,-0.00026191371810331266,-0.0016782106484427243,0.0,0.0,0.0,0.0,0.0,0.0,0.0,-3.1462886873612206e-07,-0.00020346267181530625,6.681431662530074e-05,0.00017829409816805253,-0.00021278170112692257,3.768243766844037e-05,-3.13401222229448e-05,0.0004284408127104128,-0.000388691364339342,0.0001289848308588881,0.0002761185948649708,-0.00012908475131530943,0.00026191371810331266,0.0016782106484427243,0.2720577120780945,22.847436904907227,-0.04922797530889511,-14.179414749145508,0.0015358328819274902,-2.1517977714538574,0.37845176458358765,0
5,0.019990921020507812,-0.2720577120780945,-22.847436904907227,0.04922797530889511,14.179414749145508,-0.0015358328819274902,2.1517977714538574,-0.37845176458358765,0.0,0.0,0.0,0.0,0.0,0.0,0.0,-0.27747994530317405,-0.02228750146608251,-0.03554024628384685,0.31686250025512935,-0.22927639759642074,-0.03617067051431561,-0.41129085567536483,1.675497669383099,0.05230778949668533,0.029902690792659753,-2.752573139224136,0.03445758568814172,2.766330271869464,0.7691943934692276,1.6754973547542302,0.052104326824870026,0.029969505109285054,-2.752394845125968,0.0342448039870148,2.7663679543071322,0.7691630533470046,-0.0004284408127104128,0.000388691364339342,-0.0001289848308588881,-0.0002761185948649708,0.00012908475131530943,-0.00026191371810331266,-0.0016782106484427243,0.0,0.0,0.0,0.0,0.0,0.0,0.0,-3.1462886873612206e-07,-0.00020346267181530625,6.681431662530074e-05,0.00017829409816805253,-0.00021278170112692257,3.768243766844037e-05,-3.13401222229448e-05,0.0004284408127104128,-0.000388691364339342,0.0001289848308588881,0.0002761185948649708,-0.00012908475131530943,0.00026191371810331266,0.0016782106484427243,0.2720577120780945,22.847436904907227,-0.04922797530889511,-14.179414749145508,0.0015358328819274902,-2.1517977714538574,0.37845176458358765,0
6,0.024990320205688477,-0.2998287081718445,-22.795862197875977,0.001620553433895111,14.155611038208008,0.01036602258682251,2.1517977714538574,-0.39950889348983765,0.0,0.0,0.0,0.0,0.0,0.0,0.0,-0.28348724994966135,-0.013932197744711623,-0.04273233553361866,0.3106327297860969,-0.22916666322848853,-0.037592202746371414,-0.41215200345505515,1.6754989029732306,0.05230417021899893,0.029906123774357796,-2.7525714687882807,0.03446016637847786,2.7663335713565322,0.7691967331502172,1.6754973547542302,0.052104326824870026,0.029969505109285054,-2.752394845125968,0.0342448039870148,2.7663679543071322,0.7691630533470046,-0.00023641677307361777,-0.00017428009875310042,0.00021806899084008403,0.0005501260504067056,-0.00027158272377092425,-0.0002203286550984644,-0.0008230242998666329,0.0,0.0,0.0,0.0,0.0,0.0,0.0,-1.5482190003357488e-06,-0.00019984339412890129,6.338133492725731e-05,0.00017662366231263604,-0.00021536239146306008,3.438295059998708e-05,-3.36798032125607e-05,0.00023641677307361777,0.00017428009875310042,-0.00021806899084008403,-0.0005501260504067056,0.00027158272377092425,0.0002203286550984644,0.0008230242998666329,0.2998287081718445,22.795862197875977,-0.001620553433895111,-14.155611038208008,-0.01036602258682251,-2.1517977714538574,0.39950889348983765,0
7,0.02999424934387207,-0.2998287081718445,-22.795862197875977,0.001620553433895111,14.155611038208008,0.01036602258682251,2.1517977714538574,-0.39950889348983765,0.0,0.0,0.0,0.0,0.0,0.0,0.0,-0.28348724994966135,-0.013932197744711623,-0.04273233553361866,0.3106327297860969,-0.22916666322848853,-0.037592202746371414,-0.41215200345505515,1.6754989029732306,0.05230417021899893,0.029906123774357796,-2.7525714687882807,0.03446016637847786,2.7663335713565322,0.7691967331502172,1.6754973547542302,0.052104326824870026,0.029969505109285054,-2.752394845125968,0.0342448039870148,2.7663679543071322,0.7691630533470046,-0.00023641677307361777,-0.00017428009875310042,0.00021806899084008403,0.0005501260504067056,-0.00027158272377092425,-0.0002203286550984644,-0.0008230242998666329,0.0,0.0,0.0,0.0,0.0,0.0,0.0,-1.5482190003357488e-06,-0.00019984339412890129,6.338133492725731e-05,0.00017662366231263604,-0.00021536239146306008,3.438295059998708e-05,-3.36798032125607e-05,0.00023641677307361777,0.00017428009875310042,-0.00021806899084008403,-0.0005501260504067056,0.00027158272377092425,0.0002203286550984644,0.0008230242998666329,0.2998287081718445,22.795862197875977,-0.001620553433895111,-14.155611038208008,-0.01036602258682251,-2.1517977714538574,0.39950889348983765,0
8,0.03499293327331543,-0.2998287081718445,-22.772058486938477,0.02542426437139511,14.131807327270508,-0.0015358328819274902,2.1582064628601074,-0.42605918645858765,0.0,0.0,0.0,0.0,0.0,0.0,0.0,-0.27888660758400313,-0.015372976045217394,-0.037461614378188235,0.3119536430941403,-0.22980938085812463,-0.037167734671523796,-0.4122369975574442,1.675498902969193,0.05230249978314366,0.029904426041803104,-2.7525697983524258,0.03445840226309182,2.766328656653284,0.7691996831827692,1.6754973547542302,0.052104326824870026,0.029969505109285054,-2.752394845125968,0.0342448039870148,2.7663679543071322,0.7691630533470046,0.00047111256649580457,-0.0009302972600525406,0.00018618897934524013,0.0010798252167463272,0.0003728654133374089,-0.0002455210470040065,0.0006867737075566431,0.0,0.0,0.0,0.0,0.0,0.0,0.0,-1.5482149626766528e-06,-0.00019817295827363746,6.507906748194972e-05,0.00017495322645766365,-0.00021359827607701776,3.929765384835804e-05,-3.66298357645789e-05,-0.00047111256649580457,0.0009302972600525406,-0.00018618897934524013,-0.0010798252167463272,-0.0003728654133374089,0.0002455210470040065,-0.0006867737075566431,0.2998287081718445,22.772058486938477,-0.02542426437139511,-14.131807327270508,0.0015358328819274902,-2.1582064628601074,0.42605918645858765,0
9,0.03999638557434082,-0.2998287081718445,-22.772058486938477,0.02542426437139511,14.131807327270508,-0.0015358328819274902,2.1582064628601074,-0.42605918645858765,0.0,0.0,0.0,0.0,0.0,0.0,0.0,-0.27888660758400313,-0.015372976045217394,-0.037461614378188235,0.3119536430941403,-0.22980938085812463,-0.037167734671523796,-0.4122369975574442,1.675498902969193,0.05230249978314366,0.029904426041803104,-2.7525697983524258,0.03445840226309182,2.766328656653284,0.7691996831827692,1.6754973547542302,0.052104326824870026,0.029969505109285054,-2.752394845125968,0.0342448039870148,2.7663679543071322,0.7691630533470046,0.00047111256649580457,-0.0009302972600525406,0.00018618897934524013,0.0010798252167463272,0.0003728654133374089,-0.0002455210470040065,0.0006867737075566431,0.0,0.0,0.0,0.0,0.0,0.0,0.0,-1.5482149626766528e-06,-0.00019817295827363746,6.507906748194972e-05,0.00017495322645766365,-0.00021359827607701776,3.929765384835804e-05,-3.66298357645789e-05,-0.00047111256649580457,0.0009302972600525406,-0.00018618897934524013,-0.0010798252167463272,-0.0003728654133374089,0.0002455210470040065,-0.0006867737075566431,0.2998287081718445,22.772058486938477,-0.02542426437139511,-14.131807327270508,0.0015358328819274902,-2.1582064628601074,0.42605918645858765,0
10,0.04499626159667969,-0.2998287081718445,-22.772058486938477,0.02542426437139511,14.131807327270508,-0.0015358328819274902,2.1582064628601074,-0.42605918645858765,0.0,0.0,0.0,0.0,0.0,0.0,0.0,-0.27888660758400313,-0.015372976045217394,-0.037461614378188235,0.3119536430941403,-0.22980938085812463,-0.037167734671523796,-0.4122369975574442,1.675498902969193,0.05230249978314366,0.029904426041803104,-2.7525697983524258,0.03445840226309182,2.766328656653284,0.7691996831827692,1.6754973547542302,0.052104326824870026,0.029969505109285054,-2.752394845125968,0.0342448039870148,2.7663679543071322,0.7691630533470046,0.00047111256649580457,-0.0009302972600525406,0.00018618897934524013,0.0010798252167463272,0.0003728654133374089,-0.0002455210470040065,0.0006867737075566431,0.0,0.0,0.0,0.0,0.0,0.0,0.0,-1.5482149626766528e-06,-0.00019817295827363746,6.507906748194972e-05,0.00017495322645766365,-0.00021359827607701776,3.929765384835804e-05,-3.66298357645789e-05,-0.00047111256649580457,0.0009302972600525406,-0.00018618897934524013,-0.0010798252167463272,-0.0003728654133374089,0.0002455210470040065,-0.0006867737075566431,0.2998287081718445,22.772058486938477,-0.02542426437139511,-14.131807327270508,0.0015358328819274902,-2.1582064628601074,0.42605918645858765,0
11,0.04999256134033203,-0.2998287081718445,-22.772058486938477,0.02542426437139511,14.131807327270508,-0.0015358328819274902,2.1582064628601074,-0.42605918645858765,0.0,0.0,0.0,0.0,0.0,0.0,0.0,-0.27888660758400313,-0.015372976045217394,-0.037461614378188235,0.3119536430941403,-0.22980938085812463,-0.037167734671523796,-0.4122369975574442,1.675498902969193,0.05230249978314366,0.029904426041803104,-2.7525697983524258,0.03445840226309182,2.766328656653284,0.7691996831827692,1.6754973547542302,0.052104326824870026,0.029969505109285054,-2.752394845125968,0.0342448039870148,2.7663679543071322,0.7691630533470046,0.00047111256649580457,-0.0009302972600525406,0.00018618897934524013,0.0010798252167463272,0.0003728654133374089,-0.0002455210470040065,0.0006867737075566431,0.0,0.0,0.0,0.0,0.0,0.0,0.0,-1.5482149626766528e-06,-0.00019817295827363746,6.507906748194972e-05,0.00017495322645766365,-0.00021359827607701776,3.929765384835804e-05,-3.66298357645789e-05,-0.00047111256649580457,0.0009302972600525406,-0.00018618897934524013,-0.0010798252167463272,-0.0003728654133374089,0.0002455210470040065,-0.0006867737075566431,0.2998287081718445,22.772058486938477,-0.02542426437139511,-14.131807327270508,0.0015358328819274902,-2.1582064628601074,0.42605918645858765,0
12,0.05499386787414551,-0.3236324191093445,-22.795862197875977,0.07303168624639511,14.179414749145508,0.00487285852432251,2.1453890800476074,-0.42605918645858765,0.0,0.0,0.0,0.0,0.0,0.0,0.0,-0.278496704437468,-0.01583992154998294,-0.038384999255316264,0.30930018950051386,-0.2294389602890963,-0.0366851807060509,-0.41163946836897297,1.675500573405048,0.05230417021899893,0.029901021801496223,-2.752573139224136,0.03445773181765713,2.7663338125298855,0.7691996831827692,1.6754973547542302,0.052104326824870026,0.029969505109285054,-2.752394845125968,0.0342448039870148,2.7663679543071322,0.7691630533470046,0.001162299366076002,-0.0006540012699327587,-0.0003987377149706558,-0.0005385316442935952,-1.3705714130486676e-05,9.621770792820982e-05,-0.0010768169135330632,0.0,0.0,0.0,0.0,0.0,0.0,0.0,-3.2186508178710938e-06,-0.00019984339412890129,6.848330778883027e-05,0.00017829409816805253,-0.0002129278306423274,3.414177724669898e-05,-3.66298357645789e-05,-0.001162299366076002,0.0006540012699327587,0.0003987377149706558,0.0005385316442935952,1.3705714130486676e-05,-9.621770792820982e-05,0.0010768169135330632,0.3236324191093445,22.795862197875977,-0.07303168624639511,-14.179414749145508,-0.00487285852432251,-2.1453890800476074,0.42605918645858765,0
13,0.0599970817565918,-0.3236324191093445,-22.795862197875977,0.07303168624639511,14.179414749145508,0.00487285852432251,2.1453890800476074,-0.42605918645858765,0.0,0.0,0.0,0.0,0.0,0.0,0.0,-0.278496704437468,-0.01583992154998294,-0.038384999255316264,0.30930018950051386,-0.2294389602890963,-0.0366851807060509,-0.41163946836897297,1.675500573405048,0.05230417021899893,0.029901021801496223,-2.752573139224136,0.03445773181765713,2.7663338125298855,0.7691996831827692,1.6754973547542302,0.052104326824870026,0.029969505109285054,-2.752394845125968,0.0342448039870148,2.7663679543071322,0.7691630533470046,0.001162299366076002,-0.0006540012699327587,-0.0003987377149706558,-0.0005385316442935952,-1.3705714130486676e-05,9.621770792820982e-05,-0.0010768169135330632,0.0,0.0,0.0,0.0,0.0,0.0,0.0,-3.2186508178710938e-06,-0.00019984339412890129,6.848330778883027e-05,0.00017829409816805253,-0.0002129278306423274,3.414177724669898e-05,-3.66298357645789e-05,-0.001162299366076002,0.0006540012699327587,0.0003987377149706558,0.0005385316442935952,1.3705714130486676e-05,-9.621770792820982e-05,0.0010768169135330632,0.3236324191093445,22.795862197875977,-0.07303168624639511,-14.179414749145508,-0.00487285852432251,-2.1453890800476074,0.42605918645858765,0
14,0.06501555442810059,-0.3236324191093445,-22.795862197875977,0.07303168624639511,14.179414749145508,0.00487285852432251,2.1453890800476074,-0.42605918645858765,0.0,0.0,0.0,0.0,0.0,0.0,0.0,-0.278496704437468,-0.01583992154998294,-0.038384999255316264,0.30930018950051386,-0.2294389602890963,-0.0366851807060509,-0.41163946836897297,1.675500573405048,0.05230417021899893,0.029901021801496223,-2.752573139224136,0.03445773181765713,2.7663338125298855,0.7691996831827692,1.6754973547542302,0.052104326824870026,0.029969505109285054,-2.752394845125968,0.0342448039870148,2.7663679543071322,0.7691630533470046,0.001162299366076002,-0.0006540012699327587,-0.0003987377149706558,-0.0005385316442935952,-1.3705714130486676e-05,9.621770792820982e-05,-0.0010768169135330632,0.0,0.0,0.0,0.0,0.0,0.0,0.0,-3.2186508178710938e-06,-0.00019984339412890129,6.848330778883027e-05,0.00017829409816805253,-0.0002129278306423274,3.414177724669898e-05,-3.66298357645789e-05,-0.001162299366076002,0.0006540012699327587,0.0003987377149706558,0.0005385316442935952,1.3705714130486676e-05,-9.621770792820982e-05,0.0010768169135330632,0.3236324191093445,22.795862197875977,-0.07303168624639511,-14.179414749145508,-0.00487285852432251,-2.1453890800476074,0.42605918645858765,0
15,0.07044434547424316,-0.3236324191093445,-22.795862197875977,0.07303168624639511,14.179414749145508,0.00487285852432251,2.1453890800476074,-0.42605918645858765,0.0,0.0,0.0,0.0,0.0,0.0,0.0,-0.278496704437468,-0.01583992154998294,-0.038384999255316264,0.30930018950051386,-0.2294389602890963,-0.0366851807060509,-0.41163946836897297,1.675500573405048,0.05230417021899893,0.029901021801496223,-2.752573139224136,0.03445773181765713,2.7663338125298855,0.7691996831827692,1.6754973547542302,0.052104326824870026,0.029969505109285054,-2.752394845125968,0.0342448039870148,2.7663679543071322,0.7691630533470046,0.001162299366076002,-0.0006540012699327587,-0.0003987377149706558,-0.0005385316442935952,-1.3705714130486676e-05,9.621770792820982e-05,-0.0010768169135330632,0.0,0.0,0.0,0.0,0.0,0.0,0.0,-3.2186508178710938e-06,-0.00019984339412890129,6.848330778883027e-05,0.00017829409816805253,-0.0002129278306423274,3.414177724669898e-05,-3.66298357645789e-05,-0.001162299366076002,0.0006540012699327587,0.0003987377149706558,0.0005385316442935952,1.3705714130486676e-05,-9.621770792820982e-05,0.0010768169135330632,0.3236324191093445,22.795862197875977,-0.07303168624639511,-14.179414749145508,-0.00487285852432251,-2.1453890800476074,0.42605918645858765,0
16,0.07502532005310059,-0.3236324191093445,-22.795862197875977,0.07303168624639511,14.179414749145508,0.00487285852432251,2.1453890800476074,-0.42605918645858765,0.0,0.0,0.0,0.0,0.0,0.0,0.0,-0.278496704437468,-0.01583992154998294,-0.038384999255316264,0.30930018950051386,-0.2294389602890963,-0.0366851807060509,-0.41163946836897297,1.675500573405048,0.05230417021899893,0.029901021801496223,-2.752573139224136,0.03445773181765713,2.7663338125298855,0.7691996831827692,1.6754973547542302,0.052104326824870026,0.029969505109285054,-2.752394845125968,0.0342448039870148,2.7663679543071322,0.7691630533470046,0.001162299366076002,-0.0006540012699327587,-0.0003987377149706558,-0.0005385316442935952,-1.3705714130486676e-05,9.621770792820982e-05,-0.0010768169135330632,0.0,0.0,0.0,0.0,0.0,0.0,0.0,-3.2186508178710938e-06,-0.00019984339412890129,6.848330778883027e-05,0.00017829409816805253,-0.0002129278306423274,3.414177724669898e-05,-3.66298357645789e-05,-0.001162299366076002,0.0006540012699327587,0.0003987377149706558,0.0005385316442935952,1.3705714130486676e-05,-9.621770792820982e-05,0.0010768169135330632,0.3236324191093445,22.795862197875977,-0.07303168624639511,-14.179414749145508,-0.00487285852432251,-2.1453890800476074,0.42605918645858765,0
17,0.08000636100769043,-0.24825400114059448,-22.819665908813477,0.10080268234014511,14.131807327270508,-0.0015358328819274902,2.1517977714538574,-0.44711631536483765,0.0,0.0,0.0,0.0,0.0,0.0,0.0,-0.2756009844441026,-0.025837950065569423,-0.036954887836473695,0.32109881247395333,-0.2288950221646488,-0.03479633224249545,-0.4106850002091843,1.6754952925218243,0.05230584065485419,0.02989908465807898,-2.7525697983524258,0.03446153323495715,2.766332511305666,0.7692020228637588,1.6754973547542302,0.052104326824870026,0.029969505109285054,-2.752394845125968,0.0342448039870148,2.7663679543071322,0.7691630533470046,-0.0005651056407464984,-0.0001878170303892715,-0.0010323749108459698,-0.0037138457124497814,0.00010285942650252263,-0.00018670512240405955,0.0010685076582269144,0.0,0.0,0.0,0.0,0.0,0.0,0.0,2.062232405952713e-06,-0.00020151382998416512,7.04204512060741e-05,0.00017495322645766365,-0.00021672924794234605,3.54430014661844e-05,-3.89695167541948e-05,0.0005651056407464984,0.0001878170303892715,0.0010323749108459698,0.0037138457124497814,-0.00010285942650252263,0.00018670512240405955,-0.0010685076582269144,0.24825400114059448,22.819665908813477,-0.10080268234014511,-14.131807327270508,0.0015358328819274902,-2.1517977714538574,0.44711631536483765,0
18,0.08500528335571289,-0.24825400114059448,-22.819665908813477,0.10080268234014511,14.131807327270508,-0.0015358328819274902,2.1517977714538574,-0.44711631536483765,0.0,0.0,0.0,0.0,0.0,0.0,0.0,-0.2756009844441026,-0.025837950065569423,-0.036954887836473695,0.32109881247395333,-0.2288950221646488,-0.03479633224249545,-0.4106850002091843,1.6754952925218243,0.05230584065485419,0.02989908465807898,-2.7525697983524258,0.03446153323495715,2.766332511305666,0.7692020228637588,1.6754973547542302,0.052104326824870026,0.029969505109285054,-2.752394845125968,0.0342448039870148,2.7663679543071322,0.7691630533470046,-0.0005651056407464984,-0.0001878170303892715,-0.0010323749108459698,-0.0037138457124497814,0.00010285942650252263,-0.00018670512240405955,0.0010685076582269144,0.0,0.0,0.0,0.0,0.0,0.0,0.0,2.062232405952713e-06,-0.00020151382998416512,7.04204512060741e-05,0.00017495322645766365,-0.00021672924794234605,3.54430014661844e-05,-3.89695167541948e-05,0.0005651056407464984,0.0001878170303892715,0.0010323749108459698,0.0037138457124497814,-0.00010285942650252263,0.00018670512240405955,-0.0010685076582269144,0.24825400114059448,22.819665908813477,-0.10080268234014511,-14.131807327270508,0.0015358328819274902,-2.1517977714538574,0.44711631536483765,0
19,0.09003543853759766,-0.2720577120780945,-22.847436904907227,0.04922797530889511,14.207185745239258,0.00487285852432251,2.1517977714538574,-0.43979209661483765,0.0,0.0,0.0,0.0,0.0,0.0,0.0,-0.27449877959702923,-0.029741996704071294,-0.034459872711175045,0.331448022743819,-0.22841206100891143,-0.03335704361684015,-0.41205481968928115,1.6754969541274114,0.05230778949668533,0.029899940092302593,-2.752575088065967,0.034456664800668745,2.7663331130163296,0.7692012085771587,1.6754973547542302,0.052104326824870026,0.029969505109285054,-2.752394845125968,0.0342448039870148,2.7663679543071322,0.7691630533470046,-0.0001713683569023267,0.0009561036250069054,1.6213999136542659e-06,-0.001025698512397637,-2.009569677796969e-05,2.332165882115123e-07,0.0013204331799367402,0.0,0.0,0.0,0.0,0.0,0.0,0.0,4.0062681883057394e-07,-0.00020346267181530625,6.956501698246118e-05,0.0001802429399990757,-0.00021186081365394405,3.48412908026674e-05,-3.815523015404665e-05,0.0001713683569023267,-0.0009561036250069054,-1.6213999136542659e-06,0.001025698512397637,2.009569677796969e-05,-2.332165882115123e-07,-0.0013204331799367402,0.2720577120780945,22.847436904907227,-0.04922797530889511,-14.207185745239258,-0.00487285852432251,-2.1517977714538574,0.43979209661483765,0
20,0.09504294395446777,-0.2720577120780945,-22.847436904907227,0.04922797530889511,14.207185745239258,0.00487285852432251,2.1517977714538574,-0.43979209661483765,0.0,0.0,0.0,0.0,0.0,0.0,0.0,-0.27449877959702923,-0.029741996704071294,-0.034459872711175045,0.331448022743819,-0.22841206100891143,-0.03335704361684015,-0.41205481968928115,1.6754969541274114,0.05230778949668533,0.029899940092302593,-2.752575088065967,0.034456664800668745,2.7663331130163296,0.7692012085771587,1.6754973547542302,0.052104326824870026,0.029969505109285054,-2.752394845125968,0.0342448039870148,2.7663679543071322,0.7691630533470046,-0.0001713683569023267,0.0009561036250069054,1.6213999136542659e-06,-0.001025698512397637,-2.009569677796969e-05,2.332165882115123e-07,0.0013204331799367402,0.0,0.0,0.0,0.0,0.0,0.0,0.0,4.0062681883057394e-07,-0.00020346267181530625,6.956501698246118e-05,0.0001802429399990757,-0.00021186081365394405,3.48412908026674e-05,-3.815523015404665e-05,0.0001713683569023267,-0.0009561036250069054,-1.6213999136542659e-06,0.001025698512397637,2.009569677796969e-05,-2.332165882115123e-07,-0.0013204331799367402,0.2720577120780945,22.847436904907227,-0.04922797530889511,-14.207185745239258,-0.00487285852432251,-2.1517977714538574,0.43979209661483765,0
21,0.10002303123474121,-0.2998287081718445,-22.795862197875977,0.02542426437139511,14.207185745239258,0.01036602258682251,2.1582064628601074,-0.42605918645858765,0.0,0.0,0.0,0.0,0.0,0.0,0.0,-0.271539188405761,-0.0109883320331734,-0.030774811828325078,0.29909836666037326,-0.2293010832832209,-0.03853059340391159,-0.41335378570625697,1.675498902969193,0.05230417021899893,0.029904203748397508,-2.752575088065967,0.034456367971152105,2.7663297205962496,0.7691996831827664,1.6754973547542302,0.052104326824870026,0.029969505109285054,-2.752394845125968,0.0342448039870148,2.7663679543071322,0.7691630533470046,0.0006522532837764655,9.129364724437967e-05,0.0002932434304971934,-0.0005897401973426693,-0.00020230466661057644,-0.0004235444746425888,0.0006961764319568844,0.0,0.0,0.0,0.0,0.0,0.0,0.0,-1.5482149626766528e-06,-0.00019984339412890129,6.530136088754579e-05,0.0001802429399990757,-0.00021156398413730432,3.823371088262917e-05,-3.662983576180334e-05,-0.0006522532837764655,-9.129364724437967e-05,-0.0002932434304971934,0.0005897401973426693,0.00020230466661057644,0.0004235444746425888,-0.0006961764319568844,0.2998287081718445,22.795862197875977,-0.02542426437139511,-14.207185745239258,-0.01036602258682251,-2.1582064628601074,0.42605918645858765,0
22,0.10499835014343262,-0.2998287081718445,-22.795862197875977,0.02542426437139511,14.207185745239258,0.01036602258682251,2.1582064628601074,-0.42605918645858765,0.0,0.0,0.0,0.0,0.0,0.0,0.0,-0.271539188405761,-0.0109883320331734,-0.030774811828325078,0.29909836666037326,-0.2293010832832209,-0.03853059340391159,-0.41335378570625697,1.675498902969193,0.05230417021899893,0.029904203748397508,-2.752575088065967,0.034456367971152105,2.7663297205962496,0.7691996831827664,1.6754973547542302,0.052104326824870026,0.029969505109285054,-2.752394845125968,0.0342448039870148,2.7663679543071322,0.7691630533470046,0.0006522532837764655,9.129364724437967e-05,0.0002932434304971934,-0.0005897401973426693,-0.00020230466661057644,-0.0004235444746425888,0.0006961764319568844,0.0,0.0,0.0,0.0,0.0,0.0,0.0,-1.5482149626766528e-06,-0.00019984339412890129,6.530136088754579e-05,0.0001802429399990757,-0.00021156398413730432,3.823371088262917e-05,-3.662983576180334e-05,-0.0006522532837764655,-9.129364724437967e-05,-0.0002932434304971934,0.0005897401973426693,0.00020230466661057644,0.0004235444746425888,-0.0006961764319568844,0.2998287081718445,22.795862197875977,-0.02542426437139511,-14.207185745239258,-0.01036602258682251,-2.1582064628601074,0.42605918645858765,0
23,0.11000275611877441,-0.2998287081718445,-22.819665908813477,0.02542426437139511,14.179414749145508,0.01036602258682251,2.1517977714538574,-0.39950889348983765,0.0,0.0,0.0,0.0,0.0,0.0,0.0,-0.2718044657265803,-0.008304141170637176,-0.030674371395374045,0.30012083105923454,-0.22949088330546924,-0.03832027031713331,-0.41355496215346016,1.675498902969193,0.05230584065485419,0.029904450051837145,-2.752573139224136,0.03445925213726591,2.7663293718892734,0.7691967331502172,1.6754973547542302,0.052104326824870026,0.029969505109285054,-2.752394845125968,0.0342448039870148,2.7663679543071322,0.7691630533470046,0.0004806597238972167,0.0006275337223078849,0.0007181913715733205,0.00014517473930315356,-0.0003478068987942672,-0.00016210685830603318,1.6181350121135534e-05,0.0,0.0,0.0,0.0,0.0,0.0,0.0,-1.5482149626766528e-06,-0.00020151382998416512,6.50550574479089e-05,0.00017829409816805253,-0.0002144481502511092,3.8582417858812335e-05,-3.36798032125607e-05,-0.0004806597238972167,-0.0006275337223078849,-0.0007181913715733205,-0.00014517473930315356,0.0003478068987942672,0.00016210685830603318,-1.6181350121135534e-05,0.2998287081718445,22.819665908813477,-0.02542426437139511,-14.179414749145508,-0.01036602258682251,-2.1517977714538574,0.39950889348983765,0
24,0.11499404907226562,-0.2998287081718445,-22.819665908813477,0.02542426437139511,14.179414749145508,0.01036602258682251,2.1517977714538574,-0.39950889348983765,0.0,0.0,0.0,0.0,0.0,0.0,0.0,-0.2718044657265803,-0.008304141170637176,-0.030674371395374045,0.30012083105923454,-0.22949088330546924,-0.03832027031713331,-0.41355496215346016,1.675498902969193,0.05230584065485419,0.029904450051837145,-2.752573139224136,0.03445925213726591,2.7663293718892734,0.7691967331502172,1.6754973547542302,0.052104326824870026,0.029969505109285054,-2.752394845125968,0.0342448039870148,2.7663679543071322,0.7691630533470046,0.0004806597238972167,0.0006275337223078849,0.0007181913715733205,0.00014517473930315356,-0.0003478068987942672,-0.00016210685830603318,1.6181350121135534e-05,0.0,0.0,0.0,0.0,0.0,0.0,0.0,-1.5482149626766528e-06,-0.00020151382998416512,6.50550574479089e-05,0.00017829409816805253,-0.0002144481502511092,3.8582417858812335e-05,-3.36798032125607e-05,-0.0004806597238972167,-0.0006275337223078849,-0.0007181913715733205,-0.00014517473930315356,0.0003478068987942672,0.00016210685830603318,-1.6181350121135534e-05,0.2998287081718445,22.819665908813477,-0.02542426437139511,-14.179414749145508,-0.01036602258682251,-2.1517977714538574,0.39950889348983765,0
25,0.12000632286071777,-0.2720577120780945,-22.795862197875977,0.04922797530889511,14.179414749145508,0.00487285852432251,2.1389803886413574,-0.39218467473983765,0.0,0.0,0.0,0.0,0.0,0.0,0.0,-0.27083347015099685,-0.006780053440573245,-0.0329254086149819,0.3059317569917813,-0.22941111500554076,-0.03797627261647347,-0.41196150535794307,1.6754969541273617,0.05230417021899893,0.02990251870502394,-2.752573139224136,0.03446009831063099,2.766331852289258,0.7691959193481338,1.6754973547542302,0.052104326824870026,0.029969505109285054,-2.752394845125968,0.0342448039870148,2.7663679543071322,0.7691630533470046,0.00026855625290665014,-0.00011848310105971563,-0.0004771428031388913,0.00022136598655044074,6.376991713995447e-05,0.0002459315348845316,-0.0007583460067195474,0.0,0.0,0.0,0.0,0.0,0.0,0.0,4.0062686856856544e-07,-0.00019984339412890129,6.698640426111221e-05,0.00017829409816805253,-0.00021529432361618722,3.6102017874295456e-05,-3.2866001129172595e-05,-0.00026855625290665014,0.00011848310105971563,0.0004771428031388913,-0.00022136598655044074,-6.376991713995447e-05,-0.0002459315348845316,0.0007583460067195474,0.2720577120780945,22.795862197875977,-0.04922797530889511,-14.179414749145508,-0.00487285852432251,-2.1389803886413574,0.39218467473983765,0
26,0.12498736381530762,-0.2720577120780945,-22.795862197875977,0.04922797530889511,14.179414749145508,0.00487285852432251,2.1389803886413574,-0.39218467473983765,0.0,0.0,0.0,0.0,0.0,0.0,0.0,-0.27083347015099685,-0.006780053440573245,-0.0329254086149819,0.3059317569917813,-0.22941111500554076,-0.03797627261647347,-0.41196150535794307,1.6754969541273617,0.05230417021899893,0.02990251870502394,-2.752573139224136,0.03446009831063099,2.766331852289258,0.7691959193481338,1.6754973547542302,0.052104326824870026,0.029969505109285054,-2.752394845125968,0.0342448039870148,2.7663679543071322,0.7691630533470046,0.00026855625290665014,-0.00011848310105971563,-0.0004771428031388913,0.00022136598655044074,6.376991713995447e-05,0.0002459315348845316,-0.0007583460067195474,0.0,0.0,0.0,0.0,0.0,0.0,0.0,4.0062686856856544e-07,-0.00019984339412890129,6.698640426111221e-05,0.00017829409816805253,-0.00021529432361618722,3.6102017874295456e-05,-3.2866001129172595e-05,-0.00026855625290665014,0.00011848310105971563,0.0004771428031388913,-0.00022136598655044074,-6.376991713995447e-05,-0.0002459315348845316,0.0007583460067195474,0.2720577120780945,22.795862197875977,-0.04922797530889511,-14.179414749145508,-0.00487285852432251,-2.1389803886413574,0.39218467473983765,0
27,0.13001203536987305,-0.2998287081718445,-22.819665908813477,0.04922797530889511,14.155611038208008,0.01036602258682251,2.1517977714538574,-0.41324180364608765,0.0,0.0,0.0,0.0,0.0,0.0,0.0,-0.2732316773205361,-0.004703566755452475,-0.03814776857393022,0.30608069746257066,-0.22872994402305935,-0.03840216345618327,-0.41113047431490857,1.6754989295691625,0.05230584065485419,0.02990254600180186,-2.7525714687882807,0.034457491177037294,2.7663332138499204,0.7691971993909941,1.6754973547542302,0.052104326824870026,0.029969505109285054,-2.752394845125968,0.0342448039870148,2.7663679543071322,0.7691630533470046,0.0002672674986842665,0.00020050433222751457,-0.00019093167927033156,5.923810781109022e-05,-0.00011312650829619169,-0.00017097952209679763,7.011954239897774e-05,0.0,0.0,0.0,0.0,0.0,0.0,0.0,-1.5748149322369898e-06,-0.00020151382998416512,6.695910748319434e-05,0.00017662366231263604,-0.00021268719002249387,3.4740457211857034e-05,-3.414604398943588e-05,-0.0002672674986842665,-0.00020050433222751457,0.00019093167927033156,-5.923810781109022e-05,0.00011312650829619169,0.00017097952209679763,-7.011954239897774e-05,0.2998287081718445,22.819665908813477,-0.04922797530889511,-14.155611038208008,-0.01036602258682251,-2.1517977714538574,0.41324180364608765,0
28,0.13499689102172852,-0.2998287081718445,-22.819665908813477,0.04922797530889511,14.155611038208008,0.01036602258682251,2.1517977714538574,-0.41324180364608765,0.0,0.0,0.0,0.0,0.0,0.0,0.0,-0.2732316773205361,-0.004703566755452475,-0.03814776857393022,0.30608069746257066,-0.22872994402305935,-0.03840216345618327,-0.41113047431490857,1.6754989295691625,0.05230584065485419,0.02990254600180186,-2.7525714687882807,0.034457491177037294,2.7663332138499204,0.7691971993909941,1.6754973547542302,0.052104326824870026,0.029969505109285054,-2.752394845125968,0.0342448039870148,2.7663679543071322,0.7691630533470046,0.0002672674986842665,0.00020050433222751457,-0.00019093167927033156,5.923810781109022e-05,-0.00011312650829619169,-0.00017097952209679763,7.011954239897774e-05,0.0,0.0,0.0,0.0,0.0,0.0,0.0,-1.5748149322369898e-06,-0.00020151382998416512,6.695910748319434e-05,0.00017662366231263604,-0.00021268719002249387,3.4740457211857034e-05,-3.414604398943588e-05,-0.0002672674986842665,-0.00020050433222751457,0.00019093167927033156,-5.923810781109022e-05,0.00011312650829619169,0.00017097952209679763,-7.011954239897774e-05,0.2998287081718445,22.819665908813477,-0.04922797530889511,-14.155611038208008,-0.01036602258682251,-2.1517977714538574,0.41324180364608765,0
29,0.1400606632232666,-0.24825400114059448,-22.795862197875977,0.02542426437139511,14.155611038208008,0.00487285852432251,2.1389803886413574,-0.41324180364608765,0.0,0.0,0.0,0.0,0.0,0.0,0.0,-0.2715957779381695,-0.01614934803600192,-0.033781068304698764,0.314797776067066,-0.22879060810602522,-0.03637458394042672,-0.41127680619652096,1.6754952837279953,0.05230417021899893,0.02990161049115888,-2.7525714687882807,0.03445810129647101,2.7663350488236276,0.7691981412855718,1.6754973547542302,0.052104326824870026,0.029969505109285054,-2.752394845125968,0.0342448039870148,2.7663679543071322,0.7691630533470046,-0.0003145576181537895,-0.0011885772120240274,0.0004930854895569878,0.0008322864866407584,-6.410467389860173e-05,0.00031763323231933277,-0.00014398218819505374,0.0,0.0,0.0,0.0,0.0,0.0,0.0,2.0710262349510344e-06,-0.00019984339412890129,6.789461812617414e-05,0.00017662366231263604,-0.00021329730945621184,3.290548350465272e-05,-3.508793856721315e-05,0.0003145576181537895,0.0011885772120240274,-0.0004930854895569878,-0.0008322864866407584,6.410467389860173e-05,-0.00031763323231933277,0.00014398218819505374,0.24825400114059448,22.795862197875977,-0.02542426437139511,-14.155611038208008,-0.00487285852432251,-2.1389803886413574,0.41324180364608765,0
30,0.14503002166748047,-0.24825400114059448,-22.795862197875977,0.02542426437139511,14.155611038208008,0.00487285852432251,2.1389803886413574,-0.41324180364608765,0.0,0.0,0.0,0.0,0.0,0.0,0.0,-0.2715957779381695,-0.01614934803600192,-0.033781068304698764,0.314797776067066,-0.22879060810602522,-0.03637458394042672,-0.41127680619652096,1.6754952837279953,0.05230417021899893,0.02990161049115888,-2.7525714687882807,0.03445810129647101,2.7663350488236276,0.7691981412855718,1.6754973547542302,0.052104326824870026,0.029969505109285054,-2.752394845125968,0.0342448039870148,2.7663679543071322,0.7691630533470046,-0.0003145576181537895,-0.0011885772120240274,0.0004930854895569878,0.0008322864866407584,-6.410467389860173e-05,0.00031763323231933277,-0.00014398218819505374,0.0,0.0,0.0,0.0,0.0,0.0,0.0,2.0710262349510344e-06,-0.00019984339412890129,6.789461812617414e-05,0.00017662366231263604,-0.00021329730945621184,3.290548350465272e-05,-3.508793856721315e-05,0.0003145576181537895,0.0011885772120240274,-0.0004930854895569878,-0.0008322864866407584,6.410467389860173e-05,-0.00031763323231933277,0.00014398218819505374,0.24825400114059448,22.795862197875977,-0.02542426437139511,-14.155611038208008,-0.00487285852432251,-2.1389803886413574,0.41324180364608765,0
31,0.15002107620239258,-0.24825400114059448,-22.819665908813477,0.04922797530889511,14.179414749145508,0.00487285852432251,2.1582064628601074,-0.39218467473983765,0.0,0.0,0.0,0.0,0.0,0.0,0.0,-0.2757154020184236,-0.017020881015357776,-0.04007945658076697,0.31165023073127723,-0.22823459368211665,-0.03674157497345001,-0.4132441349065924,1.6754952836915067,0.05230584065485419,0.029902747754586918,-2.752573139224136,0.03445987028377436,2.7663292487336597,0.7691959193474691,1.6754973547542302,0.052104326824870026,0.029969505109285054,-2.752394845125968,0.0342448039870148,2.7663679543071322,0.7691630533470046,-0.00043696717017359653,-0.0005108900906333921,1.3065135088786362e-05,0.00019860031017953375,-5.778230320080549e-05,-0.0003907764381908787,-0.0008957617847962407,0.0,0.0,0.0,0.0,0.0,0.0,0.0,2.0710627235409618e-06,-0.00020151382998416512,6.675735469813607e-05,0.00017829409816805253,-0.00021506629675956124,3.870557347251946e-05,-3.286600046448207e-05,0.00043696717017359653,0.0005108900906333921,-1.3065135088786362e-05,-0.00019860031017953375,5.778230320080549e-05,0.0003907764381908787,0.0008957617847962407,0.24825400114059448,22.819665908813477,-0.04922797530889511,-14.179414749145508,-0.00487285852432251,-2.1582064628601074,0.39218467473983765,0
32,0.15499544143676758,-0.24825400114059448,-22.819665908813477,0.04922797530889511,14.179414749145508,0.00487285852432251,2.1582064628601074,-0.39218467473983765,0.0,0.0,0.0,0.0,0.0,0.0,0.0,-0.2757154020184236,-0.017020881015357776,-0.04007945658076697,0.31165023073127723,-0.22823459368211665,-0.03674157497345001,-0.4132441349065924,1.6754952836915067,0.05230584065485419,0.029902747754586918,-2.752573139224136,0.03445987028377436,2.7663292487336597,0.7691959193474691,1.6754973547542302,0.052104326824870026,0.029969505109285054,-2.752394845125968,0.0342448039870148,2.7663679543071322,0.7691630533470046,-0.00043696717017359653,-0.0005108900906333921,1.3065135088786362e-05,0.00019860031017953375,-5.778230320080549e-05,-0.0003907764381908787,-0.0008957617847962407,0.0,0.0,0.0,0.0,0.0,0.0,0.0,2.0710627235409618e-06,-0.00020151382998416512,6.675735469813607e-05,0.00017829409816805253,-0.00021506629675956124,3.870557347251946e-05,-3.286600046448207e-05,0.00043696717017359653,0.0005108900906333921,-1.3065135088786362e-05,-0.00019860031017953375,5.778230320080549e-05,0.0003907764381908787,0.0008957617847962407,0.24825400114059448,22.819665908813477,-0.04922797530889511,-14.179414749145508,-0.00487285852432251,-2.1582064628601074,0.39218467473983765,0
33,0.16000580787658691,-0.2998287081718445,-22.795862197875977,0.07303168624639511,14.179414749145508,0.00487285852432251,2.1517977714538574,-0.37845176458358765,0.0,0.0,0.0,0.0,0.0,0.0,0.0,-0.2693029417775142,-0.01349974196224376,-0.033858365760199315,0.30889603144174116,-0.22836080349709317,-0.03697408001672209,-0.41425561231867114,1.675498902969193,0.05230630108504965,0.029900128756207553,-2.752573139224136,0.03446088232584796,2.766333618891253,0.7691943934692276,1.6754973547542302,0.052104326824870026,0.029969505109285054,-2.752394845125968,0.0342448039870148,2.7663679543071322,0.7691630533470046,0.0012583732565216417,-0.0002816013593566141,-0.00031952383349768547,2.741663447575311e-05,-6.431931064359119e-05,-0.00015087887090740271,-0.0012417916291939959,0.0,0.0,0.0,0.0,0.0,0.0,0.0,-1.5482149626766528e-06,-0.0002019742601796215,6.937635307750073e-05,0.00017829409816805253,-0.00021607833883315747,3.4335415879382936e-05,-3.13401222229448e-05,-0.0012583732565216417,0.0002816013593566141,0.00031952383349768547,-2.741663447575311e-05,6.431931064359119e-05,0.00015087887090740271,0.0012417916291939959,0.2998287081718445,22.795862197875977,-0.07303168624639511,-14.179414749145508,-0.00487285852432251,-2.1517977714538574,0.37845176458358765,0
34,0.1649940013885498,-0.2998287081718445,-22.795862197875977,0.07303168624639511,14.179414749145508,0.00487285852432251,2.1517977714538574,-0.37845176458358765,0.0,0.0,0.0,0.0,0.0,0.0,0.0,-0.2693029417775142,-0.01349974196224376,-0.033858365760199315,0.30889603144174116,-0.22836080349709317,-0.03697408001672209,-0.41425561231867114,1.675498902969193,0.05230630108504965,0.029900128756207553,-2.752573139224136,0.03446088232584796,2.766333618891253,0.7691943934692276,1.6754973547542302,0.052104326824870026,0.029969505109285054,-2.752394845125968,0.0342448039870148,2.7663679543071322,0.7691630533470046,0.0012583732565216417,-0.0002816013593566141,-0.00031952383349768547,2.741663447575311e-05,-6.431931064359119e-05,-0.00015087887090740271,-0.0012417916291939959,0.0,0.0,0.0,0.0,0.0,0.0,0.0,-1.5482149626766528e-06,-0.0002019742601796215,6.937635307750073e-05,0.00017829409816805253,-0.00021607833883315747,3.4335415879382936e-05,-3.13401222229448e-05,-0.0012583732565216417,0.0002816013593566141,0.00031952383349768547,-2.741663447575311e-05,6.431931064359119e-05,0.00015087887090740271,0.0012417916291939959,0.2998287081718445,22.795862197875977,-0.07303168624639511,-14.179414749145508,-0.00487285852432251,-2.1517977714538574,0.37845176458358765,0
35,0.17004084587097168,-0.2998287081718445,-22.795862197875977,0.07303168624639511,14.179414749145508,0.00487285852432251,2.1517977714538574,-0.37845176458358765,0.0,0.0,0.0,0.0,0.0,0.0,0.0,-0.2693029417775142,-0.01349974196224376,-0.033858365760199315,0.30889603144174116,-0.22836080349709317,-0.03697408001672209,-0.41425561231867114,1.675498902969193,0.05230630108504965,0.029900128756207553,-2.752573139224136,0.03446088232584796,2.766333618891253,0.7691943934692276,1.6754973547542302,0.052104326824870026,0.029969505109285054,-2.752394845125968,0.0342448039870148,2.7663679543071322,0.7691630533470046,0.0012583732565216417,-0.0002816013593566141,-0.00031952383349768547,2.741663447575311e-05,-6.431931064359119e-05,-0.00015087887090740271,-0.0012417916291939959,0.0,0.0,0.0,0.0,0.0,0.0,0.0,-1.5482149626766528e-06,-0.0002019742601796215,6.937635307750073e-05,0.00017829409816805253,-0.00021607833883315747,3.4335415879382936e-05,-3.13401222229448e-05,-0.0012583732565216417,0.0002816013593566141,0.00031952383349768547,-2.741663447575311e-05,6.431931064359119e-05,0.00015087887090740271,0.0012417916291939959,0.2998287081718445,22.795862197875977,-0.07303168624639511,-14.179414749145508,-0.00487285852432251,-2.1517977714538574,0.37845176458358765,0
36,0.17499899864196777,-0.2998287081718445,-22.795862197875977,0.07303168624639511,14.179414749145508,0.00487285852432251,2.1517977714538574,-0.37845176458358765,0.0,0.0,0.0,0.0,0.0,0.0,0.0,-0.2693029417775142,-0.01349974196224376,-0.033858365760199315,0.30889603144174116,-0.22836080349709317,-0.03697408001672209,-0.41425561231867114,1.675498902969193,0.05230630108504965,0.029900128756207553,-2.752573139224136,0.03446088232584796,2.766333618891253,0.7691943934692276,1.6754973547542302,0.052104326824870026,0.029969505109285054,-2.752394845125968,0.0342448039870148,2.7663679543071322,0.7691630533470046,0.0012583732565216417,-0.0002816013593566141,-0.00031952383349768547,2.741663447575311e-05,-6.431931064359119e-05,-0.00015087887090740271,-0.0012417916291939959,0.0,0.0,0.0,0.0,0.0,0.0,0.0,-1.5482149626766528e-06,-0.0002019742601796215,6.937635307750073e-05,0.00017829409816805253,-0.00021607833883315747,3.4335415879382936e-05,-3.13401222229448e-05,-0.0012583732565216417,0.0002816013593566141,0.00031952383349768547,-2.741663447575311e-05,6.431931064359119e-05,0.00015087887090740271,0.0012417916291939959,0.2998287081718445,22.795862197875977,-0.07303168624639511,-14.179414749145508,-0.00487285852432251,-2.1517977714538574,0.37845176458358765,0
37,0.18001365661621094,-0.2720577120780945,-22.748254776000977,0.02542426437139511,14.207185745239258,-0.0015358328819274902,2.1453890800476074,-0.37204307317733765,0.0,0.0,0.0,0.0,0.0,0.0,0.0,-0.26931330028142386,-0.01897859287079484,-0.03136524762839375,0.3128167527112762,-0.22811054537434225,-0.03644112024124088,-0.41349000685344384,1.6754969541273617,0.052300829359317194,0.029904453008502523,-2.752575088065967,0.03446152144428329,2.7663341614078636,0.7691936813924046,1.6754973547542302,0.052104326824870026,0.029969505109285054,-2.752394845125968,0.0342448039870148,2.7663679543071322,0.7691630533470046,0.0005434608114335473,-0.0015030146209419398,0.0008443718170104156,-0.0006874682402861299,0.00026344393376616506,3.205327778322508e-05,-0.0015923121491118952,0.0,0.0,0.0,0.0,0.0,0.0,0.0,4.0062686856856544e-07,-0.00019650253444716825,6.50521007825311e-05,0.0001802429399990757,-0.00021671745726849212,3.379289926863649e-05,-3.0628045399994086e-05,-0.0005434608114335473,0.0015030146209419398,-0.0008443718170104156,0.0006874682402861299,-0.00026344393376616506,-3.205327778322508e-05,0.0015923121491118952,0.2720577120780945,22.748254776000977,-0.02542426437139511,-14.207185745239258,0.0015358328819274902,-2.1453890800476074,0.37204307317733765,0
38,0.1850581169128418,-0.2720577120780945,-22.748254776000977,0.02542426437139511,14.207185745239258,-0.0015358328819274902,2.1453890800476074,-0.37204307317733765,0.0,0.0,0.0,0.0,0.0,0.0,0.0,-0.26931330028142386,-0.01897859287079484,-0.03136524762839375,0.3128167527112762,-0.22811054537434225,-0.03644112024124088,-0.41349000685344384,1.6754969541273617,0.052300829359317194,0.029904453008502523,-2.752575088065967,0.03446152144428329,2.7663341614078636,0.7691936813924046,1.6754973547542302,0.052104326824870026,0.029969505109285054,-2.752394845125968,0.0342448039870148,2.7663679543071322,0.7691630533470046,0.0005434608114335473,-0.0015030146209419398,0.0008443718170104156,-0.0006874682402861299,0.00026344393376616506,3.205327778322508e-05,-0.0015923121491118952,0.0,0.0,0.0,0.0,0.0,0.0,0.0,4.0062686856856544e-07,-0.00019650253444716825,6.50521007825311e-05,0.0001802429399990757,-0.00021671745726849212,3.379289926863649e-05,-3.0628045399994086e-05,-0.0005434608114335473,0.0015030146209419398,-0.0008443718170104156,0.0006874682402861299,-0.00026344393376616506,-3.205327778322508e-05,0.0015923121491118952,0.2720577120780945,22.748254776000977,-0.02542426437139511,-14.207185745239258,0.0015358328819274902,-2.1453890800476074,0.37204307317733765,0
39,0.18999886512756348,-0.3236324191093445,-22.748254776000977,0.02542426437139511,14.155611038208008,0.01036602258682251,2.1517977714538574,-0.37845176458358765,0.0,0.0,0.0,0.0,0.0,0.0,0.0,-0.271751181208739,-0.014255937489960483,-0.032928984484292656,0.31246789554342513,-0.2276287426409728,-0.036657154549697125,-0.41178797119952293,1.675500573405048,0.05230082934728846,0.029904452039153043,-2.7525714687882807,0.034460198528698104,2.766330053836709,0.7691943934692276,1.6754973547542302,0.052104326824870026,0.029969505109285054,-2.752394845125968,0.0342448039870148,2.7663679543071322,0.7691630533470046,0.0010070967074137264,-0.0011306325288049034,0.000419603081387435,0.0007404952255355774,-0.0002648744234981577,-0.0001466216201658319,-0.0018074872218923057,0.0,0.0,0.0,0.0,0.0,0.0,0.0,-3.2186508178710938e-06,-0.00019650252241843608,6.505307013201025e-05,0.00017662366231263604,-0.00021539454168330308,3.7900470423402055e-05,-3.13401222229448e-05,-0.0010070967074137264,0.0011306325288049034,-0.000419603081387435,-0.0007404952255355774,0.0002648744234981577,0.0001466216201658319,0.0018074872218923057,0.3236324191093445,22.748254776000977,-0.02542426437139511,-14.155611038208008,-0.01036602258682251,-2.1517977714538574,0.37845176458358765,0
40,0.19499492645263672,-0.3236324191093445,-22.748254776000977,0.02542426437139511,14.155611038208008,0.01036602258682251,2.1517977714538574,-0.37845176458358765,0.0,0.0,0.0,0.0,0.0,0.0,0.0,-0.271751181208739,-0.014255937489960483,-0.032928984484292656,0.31246789554342513,-0.2276287426409728,-0.036657154549697125,-0.41178797119952293,1.675500573405048,0.05230082934728846,0.029904452039153043,-2.7525714687882807,0.034460198528698104,2.766330053836709,0.7691943934692276,1.6754973547542302,0.052104326824870026,0.029969505109285054,-2.752394845125968,0.0342448039870148,2.7663679543071322,0.7691630533470046,0.0010070967074137264,-0.0011306325288049034,0.000419603081387435,0.0007404952255355774,-0.0002648744234981577,-0.0001466216201658319,-0.0018074872218923057,0.0,0.0,0.0,0.0,0.0,0.0,0.0,-3.2186508178710938e-06,-0.00019650252241843608,6.505307013201025e-05,0.00017662366231263604,-0.00021539454168330308,3.7900470423402055e-05,-3.13401222229448e-05,-0.0010070967074137264,0.0011306325288049034,-0.000419603081387435,-0.0007404952255355774,0.0002648744234981577,0.0001466216201658319,0.0018074872218923057,0.3236324191093445,22.748254776000977,-0.02542426437139511,-14.155611038208008,-0.01036602258682251,-2.1517977714538574,0.37845176458358765,0
41,0.19999241828918457,-0.2720577120780945,-22.871240615844727,0.04922797530889511,14.207185745239258,0.01677471399307251,2.1517977714538574,-0.43979209661483765,0.0,0.0,0.0,0.0,0.0,0.0,0.0,-0.26828451647325063,-0.02053692299017516,-0.03014202497459143,0.3160211793200493,-0.22839712398556095,-0.035511295473416214,-0.4107453950697424,1.6754969541273617,0.05230945993254059,0.029902694187196894,-2.752575088065967,0.034456247310959025,2.766329974787476,0.7692012090616754,1.6754973547542302,0.052104326824870026,0.029969505109285054,-2.752394845125968,0.0342448039870148,2.7663679543071322,0.7691630533470046,-0.0002284407753794551,0.0010570441903034865,-0.00018788176675327392,-0.0006745660727797559,-0.00031535630447336377,-0.0003614054978658593,0.0011786046627154055,0.0,0.0,0.0,0.0,0.0,0.0,0.0,4.0062686856856544e-07,-0.00020513310767056314,6.681092208815978e-05,0.0001802429399990757,-0.00021144332394422427,3.797951965633928e-05,-3.8155714670806695e-05,0.0002284407753794551,-0.0010570441903034865,0.00018788176675327392,0.0006745660727797559,0.00031535630447336377,0.0003614054978658593,-0.0011786046627154055,0.2720577120780945,22.871240615844727,-0.04922797530889511,-14.207185745239258,-0.01677471399307251,-2.1517977714538574,0.43979209661483765,0
42,0.20500659942626953,-0.2720577120780945,-22.871240615844727,0.04922797530889511,14.207185745239258,0.01677471399307251,2.1517977714538574,-0.43979209661483765,0.0,0.0,0.0,0.0,0.0,0.0,0.0,-0.26828451647325063,-0.02053692299017516,-0.03014202497459143,0.3160211793200493,-0.22839712398556095,-0.035511295473416214,-0.4107453950697424,1.6754969541273617,0.05230945993254059,0.029902694187196894,-2.752575088065967,0.034456247310959025,2.766329974787476,0.7692012090616754,1.6754973547542302,0.052104326824870026,0.029969505109285054,-2.752394845125968,0.0342448039870148,2.7663679543071322,0.7691630533470046,-0.0002284407753794551,0.0010570441903034865,-0.00018788176675327392,-0.0006745660727797559,-0.00031535630447336377,-0.0003614054978658593,0.0011786046627154055,0.0,0.0,0.0,0.0,0.0,0.0,0.0,4.0062686856856544e-07,-0.00020513310767056314,6.681092208815978e-05,0.0001802429399990757,-0.00021144332394422427,3.797951965633928e-05,-3.8155714670806695e-05,0.0002284407753794551,-0.0010570441903034865,0.00018788176675327392,0.0006745660727797559,0.00031535630447336377,0.0003614054978658593,-0.0011786046627154055,0.2720577120780945,22.871240615844727,-0.04922797530889511,-14.207185745239258,-0.01677471399307251,-2.1517977714538574,0.43979209661483765,0
43,0.21032142639160156,-0.2720577120780945,-22.871240615844727,0.04922797530889511,14.207185745239258,-0.00702899694442749,2.1582064628601074,-0.42605918645858765,0.0,0.0,0.0,0.0,0.0,0.0,0.0,-0.2741839057567707,-0.0193676195062349,-0.03441606793852376,0.3151993005126653,-0.22785378113813357,-0.03630971836558089,-0.41054258804955446,1.6754969541273617,0.05230945993254059,0.029902700686041377,-2.752575088065967,0.034458184576157964,2.766332559362165,0.7691996831827692,1.6754973547542302,0.052104326824870026,0.029969505109285054,-2.752394845125968,0.0342448039870148,2.7663679543071322,0.7691630533470046,-0.0005751329119134847,0.001036701128322126,0.0002289394148268615,-0.00030468520830784587,0.0005867301372406639,-0.00033536486633449264,0.0005852322038209323,0.0,0.0,0.0,0.0,0.0,0.0,0.0,4.0062686856856544e-07,-0.00020513310767056314,6.680442324367639e-05,0.0001802429399990757,-0.00021338058914316393,3.539494496740403e-05,-3.66298357645789e-05,0.0005751329119134847,-0.001036701128322126,-0.0002289394148268615,0.00030468520830784587,-0.0005867301372406639,0.00033536486633449264,-0.0005852322038209323,0.2720577120780945,22.871240615844727,-0.04922797530889511,-14.207185745239258,0.00702899694442749,-2.1582064628601074,0.42605918645858765,0
44,0.21500134468078613,-0.2720577120780945,-22.871240615844727,0.04922797530889511,14.207185745239258,-0.00702899694442749,2.1582064628601074,-0.42605918645858765,0.0,0.0,0.0,0.0,0.0,0.0,0.0,-0.2741839057567707,-0.0193676195062349,-0.03441606793852376,0.3151993005126653,-0.22785378113813357,-0.03630971836558089,-0.41054258804955446,1.6754969541273617,0.05230945993254059,0.029902700686041377,-2.752575088065967,0.034458184576157964,2.766332559362165,0.7691996831827692,1.6754973547542302,0.052104326824870026,0.029969505109285054,-2.752394845125968,0.0342448039870148,2.7663679543071322,0.7691630533470046,-0.0005751329119134847,0.001036701128322126,0.0002289394148268615,-0.00030468520830784587,0.0005867301372406639,-0.00033536486633449264,0.0005852322038209323,0.0,0.0,0.0,0.0,0.0,0.0,0.0,4.0062686856856544e-07,-0.00020513310767056314,6.680442324367639e-05,0.0001802429399990757,-0.00021338058914316393,3.539494496740403e-05,-3.66298357645789e-05,0.0005751329119134847,-0.001036701128322126,-0.0002289394148268615,0.00030468520830784587,-0.0005867301372406639,0.00033536486633449264,-0.0005852322038209323,0.2720577120780945,22.871240615844727,-0.04922797530889511,-14.207185745239258,0.00702899694442749,-2.1582064628601074,0.42605918645858765,0
45,0.22002267837524414,-0.2720577120780945,-22.819665908813477,0.04922797530889511,14.179414749145508,-0.0015358328819274902,2.1453890800476074,-0.41324180364608765,0.0,0.0,0.0,0.0,0.0,0.0,0.0,-0.2777960191704091,-0.008228915516499078,-0.035833623776139245,0.3094490641393281,-0.2278791281621146,-0.037759915333078355,-0.4114303325231918,1.6754969541273617,0.05230584065485419,0.029902755280516835,-2.752573139224136,0.034458297046576124,2.7663342194940768,0.7691982590291234,1.6754973547542302,0.052104326824870026,0.029969505109285054,-2.752394845125968,0.0342448039870148,2.7663679543071322,0.7691630533470046,-0.0003073751024952374,0.0005935532730458629,-0.00017570580277894603,-0.0002176040267611303,9.263813107738045e-05,4.3265817275559985e-05,0.00012058135231681967,0.0,0.0,0.0,0.0,0.0,0.0,0.0,4.0062686856856544e-07,-0.00020151382998416512,6.674982876821861e-05,0.00017829409816805253,-0.00021349305956132325,3.3734813055463775e-05,-3.5205682118788495e-05,0.0003073751024952374,-0.0005935532730458629,0.00017570580277894603,0.0002176040267611303,-9.263813107738045e-05,-4.3265817275559985e-05,-0.00012058135231681967,0.2720577120780945,22.819665908813477,-0.04922797530889511,-14.179414749145508,0.0015358328819274902,-2.1453890800476074,0.41324180364608765,0
46,0.22501230239868164,-0.2720577120780945,-22.819665908813477,0.04922797530889511,14.179414749145508,-0.0015358328819274902,2.1453890800476074,-0.41324180364608765,0.0,0.0,0.0,0.0,0.0,0.0,0.0,-0.2777960191704091,-0.008228915516499078,-0.035833623776139245,0.3094490641393281,-0.2278791281621146,-0.037759915333078355,-0.4114303325231918,1.6754969541273617,0.05230584065485419,0.029902755280516835,-2.752573139224136,0.034458297046576124,2.7663342194940768,0.7691982590291234,1.6754973547542302,0.052104326824870026,0.029969505109285054,-2.752394845125968,0.0342448039870148,2.7663679543071322,0.7691630533470046,-0.0003073751024952374,0.0005935532730458629,-0.00017570580277894603,-0.0002176040267611303,9.263813107738045e-05,4.3265817275559985e-05,0.00012058135231681967,0.0,0.0,0.0,0.0,0.0,0.0,0.0,4.0062686856856544e-07,-0.00020151382998416512,6.674982876821861e-05,0.00017829409816805253,-0.00021349305956132325,3.3734813055463775e-05,-3.5205682118788495e-05,0.0003073751024952374,-0.0005935532730458629,0.00017570580277894603,0.0002176040267611303,-9.263813107738045e-05,-4.3265817275559985e-05,-0.00012058135231681967,0.2720577120780945,22.819665908813477,-0.04922797530889511,-14.179414749145508,0.0015358328819274902,-2.1453890800476074,0.41324180364608765,0
47,0.23004436492919922,-0.2998287081718445,-22.795862197875977,0.04922797530889511,14.179414749145508,-0.0015358328819274902,2.1517977714538574,-0.41965049505233765,0.0,0.0,0.0,0.0,0.0,0.0,0.0,-0.27220520996506303,-0.015249155414353916,-0.030965643831553844,0.3147981793001036,-0.2286651640211364,-0.03694302079767683,-0.41244472484216876,1.675498902969193,0.05230417021899893,0.029902756544585178,-2.752573139224136,0.03446078534824563,2.7663325480754235,0.7691989711059464,1.6754973547542302,0.052104326824870026,0.029969505109285054,-2.752394845125968,0.0342448039870148,2.7663679543071322,0.7691630533470046,0.0012774609308069688,-0.00027626343912726933,7.154829319450586e-05,-0.000510038847108788,6.955739781525968e-05,-0.00021488709381792186,-0.00011603729834937239,0.0,0.0,0.0,0.0,0.0,0.0,0.0,-1.5482149626766528e-06,-0.00019984339412890129,6.674856469987556e-05,0.00017829409816805253,-0.000215981361230827,3.540623170872337e-05,-3.591775894173921e-05,-0.0012774609308069688,0.00027626343912726933,-7.154829319450586e-05,0.000510038847108788,-6.955739781525968e-05,0.00021488709381792186,0.00011603729834937239,0.2998287081718445,22.795862197875977,-0.04922797530889511,-14.179414749145508,0.0015358328819274902,-2.1517977714538574,0.41965049505233765,0
48,0.23503494262695312,-0.2998287081718445,-22.795862197875977,0.04922797530889511,14.179414749145508,-0.0015358328819274902,2.1517977714538574,-0.41965049505233765,0.0,0.0,0.0,0.0,0.0,0.0,0.0,-0.27220520996506303,-0.015249155414353916,-0.030965643831553844,0.3147981793001036,-0.2286651640211364,-0.03694302079767683,-0.41244472484216876,1.675498902969193,0.05230417021899893,0.029902756544585178,-2.752573139224136,0.03446078534824563,2.7663325480754235,0.7691989711059464,1.6754973547542302,0.052104326824870026,0.029969505109285054,-2.752394845125968,0.0342448039870148,2.7663679543071322,0.7691630533470046,0.0012774609308069688,-0.00027626343912726933,7.154829319450586e-05,-0.000510038847108788,6.955739781525968e-05,-0.00021488709381792186,-0.00011603729834937239,0.0,0.0,0.0,0.0,0.0,0.0,0.0,-1.5482149626766528e-06,-0.00019984339412890129,6.674856469987556e-05,0.00017829409816805253,-0.000215981361230827,3.540623170872337e-05,-3.591775894173921e-05,-0.0012774609308069688,0.00027626343912726933,-7.154829319450586e-05,0.000510038847108788,-6.955739781525968e-05,0.00021488709381792186,0.00011603729834937239,0.2998287081718445,22.795862197875977,-0.04922797530889511,-14.179414749145508,0.0015358328819274902,-2.1517977714538574,0.41965049505233765,0
49,0.24002408981323242,-0.2720577120780945,-22.847436904907227,0.07303168624639511,14.207185745239258,0.01036602258682251,2.1655306816101074,-0.37845176458358765,0.0,0.0,0.0,0.0,0.0,0.0,0.0,-0.2749267773352996,-0.01615127529799939,-0.036485568593102605,0.31713662805210663,-0.22863327535228808,-0.03691370800318829,-0.41371321285302753,1.6754969541273617,0.05230778949668533,0.029900401764558462,-2.752575088065967,0.0344605655626352,2.766327466645694,0.7691943934692276,1.6754973547542302,0.052104326824870026,0.029969505109285054,-2.752394845125968,0.0342448039870148,2.7663679543071322,0.7691630533470046,0.0004071588771328611,0.0011627316216630981,-0.0008063422348118156,-0.00048212736752618825,-0.0003697749276336847,-0.0008488775061352269,-0.0016775438307156786,0.0,0.0,0.0,0.0,0.0,0.0,0.0,4.0062686856856544e-07,-0.00020346267181530625,6.910334472659194e-05,0.0001802429399990757,-0.00021576157562040038,4.048766143815996e-05,-3.13401222229448e-05,-0.0004071588771328611,-0.0011627316216630981,0.0008063422348118156,0.00048212736752618825,0.0003697749276336847,0.0008488775061352269,0.0016775438307156786,0.2720577120780945,22.847436904907227,-0.07303168624639511,-14.207185745239258,-0.01036602258682251,-2.1655306816101074,0.37845176458358765,0
50,0.24499201774597168,-0.2720577120780945,-22.847436904907227,0.07303168624639511,14.207185745239258,0.01036602258682251,2.1655306816101074,-0.37845176458358765,0.0,0.0,0.0,0.0,0.0,0.0,0.0,-0.2749267773352996,-0.01615127529799939,-0.036485568593102605,0.31713662805210663,-0.22863327535228808,-0.03691370800318829,-0.41371321285302753,1.6754969541273617,0.05230778949668533,0.029900401764558462,-2.752575088065967,0.0344605655626352,2.766327466645694,0.7691943934692276,1.6754973547542302,0.052104326824870026,0.029969505109285054,-2.752394845125968,0.0342448039870148,2.7663679543071322,0.7691630533470046,0.0004071588771328611,0.0011627316216630981,-0.0008063422348118156,-0.00048212736752618825,-0.0003697749276336847,-0.0008488775061352269,-0.0016775438307156786,0.0,0.0,0.0,0.0,0.0,0.0,0.0,4.0062686856856544e-07,-0.00020346267181530625,6.910334472659194e-05,0.0001802429399990757,-0.00021576157562040038,4.048766143815996e-05,-3.13401222229448e-05,-0.0004071588771328611,-0.0011627316216630981,0.0008063422348118156,0.00048212736752618825,0.0003697749276336847,0.0008488775061352269,0.0016775438307156786,0.2720577120780945,22.847436904907227,-0.07303168624639511,-14.207185745239258,-0.01036602258682251,-2.1655306816101074,0.37845176458358765,0
51,0.24999761581420898,-0.2720577120780945,-22.871240615844727,0.04922797530889511,14.155611038208008,-0.0015358328819274902,2.1389803886413574,-0.37845176458358765,0.0,0.0,0.0,0.0,0.0,0.0,0.0,-0.26963091734792155,-0.016184916563620876,-0.035431021509674636,0.31413747290307426,-0.2293263418169238,-0.03753979727943678,-0.41358243258375676,1.6754969541273617,0.05230945993254059,0.029901823596874034,-2.7525714687882807,0.03445840075675462,2.766334996956506,0.7691943934692276,1.6754973547542302,0.052104326824870026,0.029969505109285054,-2.752394845125968,0.0342448039870148,2.7663679543071322,0.7691630533470046,0.00026213687067267464,0.0013180152961051413,0.00021277462673439888,0.0004852681712098963,0.0002067423333095064,0.000476256757939367,-0.0011696802363260676,0.0,0.0,0.0,0.0,0.0,0.0,0.0,4.0062686856856544e-07,-0.00020513310767056314,6.768151241101986e-05,0.00017662366231263604,-0.00021359676973981695,3.2957350626361404e-05,-3.13401222229448e-05,-0.00026213687067267464,-0.0013180152961051413,-0.00021277462673439888,-0.0004852681712098963,-0.0002067423333095064,-0.000476256757939367,0.0011696802363260676,0.2720577120780945,22.871240615844727,-0.04922797530889511,-14.155611038208008,0.0015358328819274902,-2.1389803886413574,0.37845176458358765,0
52,0.25578808784484863,-0.2720577120780945,-22.871240615844727,0.04922797530889511,14.155611038208008,-0.0015358328819274902,2.1389803886413574,-0.37845176458358765,0.0,0.0,0.0,0.0,0.0,0.0,0.0,-0.26963091734792155,-0.016184916563620876,-0.035431021509674636,0.31413747290307426,-0.2293263418169238,-0.03753979727943678,-0.41358243258375676,1.6754969541273617,0.05230945993254059,0.029901823596874034,-2.7525714687882807,0.03445840075675462,2.766334996956506,0.7691943934692276,1.6754973547542302,0.052104326824870026,0.029969505109285054,-2.752394845125968,0.0342448039870148,2.7663679543071322,0.7691630533470046,0.00026213687067267464,0.0013180152961051413,0.00021277462673439888,0.0004852681712098963,0.0002067423333095064,0.000476256757939367,-0.0011696802363260676,0.0,0.0,0.0,0.0,0.0,0.0,0.0,4.0062686856856544e-07,-0.00020513310767056314,6.768151241101986e-05,0.00017662366231263604,-0.00021359676973981695,3.2957350626361404e-05,-3.13401222229448e-05,-0.00026213687067267464,-0.0013180152961051413,-0.00021277462673439888,-0.0004852681712098963,-0.0002067423333095064,-0.000476256757939367,0.0011696802363260676,0.2720577120780945,22.871240615844727,-0.04922797530889511,-14.155611038208008,0.0015358328819274902,-2.1389803886413574,0.37845176458358765,0
53,0.2599918842315674,-0.2720577120780945,-22.772058486938477,0.04922797530889511,14.179414749145508,-0.0015358328819274902,2.1517977714538574,-0.39218467473983765,0.0,0.0,0.0,0.0,0.0,0.0,0.0,-0.2655771802450996,-0.014557328943483548,-0.03135588626553973,0.31311608018645465,-0.229340114649606,-0.03766053559972516,-0.4112485014491509,1.6754969541273617,0.05230249978314366,0.02990064749573576,-2.752573139224136,0.03445761586822371,2.7663331527887824,0.7691958801022771,1.6754973547542302,0.052104326824870026,0.029969505109285054,-2.752394845125968,0.0342448039870148,2.7663679543071322,0.7691630533470046,-0.00011561933481747041,-0.0009262109582773159,0.0005920026073307962,-0.000159245244483743,0.00010929138703846849,-0.00023498260668566525,-0.0006659053767030128,0.0,0.0,0.0,0.0,0.0,0.0,0.0,4.0062686856856544e-07,-0.00019817295827363746,6.885761354929326e-05,0.00017829409816805253,-0.00021281188120891165,3.4801518349780736e-05,-3.282675527249701e-05,0.00011561933481747041,0.0009262109582773159,-0.0005920026073307962,0.000159245244483743,-0.00010929138703846849,0.00023498260668566525,0.0006659053767030128,0.2720577120780945,22.772058486938477,-0.04922797530889511,-14.179414749145508,0.0015358328819274902,-2.1517977714538574,0.39218467473983765,0
54,0.2649970054626465,-0.2720577120780945,-22.772058486938477,0.04922797530889511,14.179414749145508,-0.0015358328819274902,2.1517977714538574,-0.39218467473983765,0.0,0.0,0.0,0.0,0.0,0.0,0.0,-0.2655771802450996,-0.014557328943483548,-0.03135588626553973,0.31311608018645465,-0.229340114649606,-0.03766053559972516,-0.4112485014491509,1.6754969541273617,0.05230249978314366,0.02990064749573576,-2.752573139224136,0.03445761586822371,2.7663331527887824,0.7691958801022771,1.6754973547542302,0.052104326824870026,0.029969505109285054,-2.752394845125968,0.0342448039870148,2.7663679543071322,0.7691630533470046,-0.00011561933481747041,-0.0009262109582773159,0.0005920026073307962,-0.000159245244483743,0.00010929138703846849,-0.00023498260668566525,-0.0006659053767030128,0.0,0.0,0.0,0.0,0.0,0.0,0.0,4.0062686856856544e-07,-0.00019817295827363746,6.885761354929326e-05,0.00017829409816805253,-0.00021281188120891165,3.4801518349780736e-05,-3.282675527249701e-05,0.00011561933481747041,0.0009262109582773159,-0.0005920026073307962,0.000159245244483743,-0.00010929138703846849,0.00023498260668566525,0.0006659053767030128,0.2720577120780945,22.772058486938477,-0.04922797530889511,-14.179414749145508,0.0015358328819274902,-2.1517977714538574,0.39218467473983765,0
55,0.27003979682922363,-0.2720577120780945,-22.819665908813477,0.02542426437139511,14.155611038208008,-0.0015358328819274902,2.1582064628601074,-0.41324180364608765,0.0,0.0,0.0,0.0,0.0,0.0,0.0,-0.2686185294809639,-0.018500760273752064,-0.032581421518914785,0.31953181330854,-0.22913930126105578,-0.03651539870003241,-0.4090919350918373,1.6754969541273617,0.05230584065485419,0.02990421249038962,-2.7525714687882807,0.03446053583854711,2.7663323980360275,0.7691981412913319,1.6754973547542302,0.052104326824870026,0.029969505109285054,-2.752394845125968,0.0342448039870148,2.7663679543071322,0.7691630533470046,0.00011747702969065018,0.00027921636134605214,0.0004604956330091321,0.0011163232470122267,0.00026728517968409586,-0.00030969668844414613,0.00010654691497980924,0.0,0.0,0.0,0.0,0.0,0.0,0.0,4.0062686856856544e-07,-0.00020151382998416512,6.529261889543295e-05,0.00017662366231263604,-0.00021573185153230673,3.555627110474191e-05,-3.508794432727225e-05,-0.00011747702969065018,-0.00027921636134605214,-0.0004604956330091321,-0.0011163232470122267,-0.00026728517968409586,0.00030969668844414613,-0.00010654691497980924,0.2720577120780945,22.819665908813477,-0.02542426437139511,-14.155611038208008,0.0015358328819274902,-2.1582064628601074,0.41324180364608765,0
56,0.27501511573791504,-0.2720577120780945,-22.819665908813477,0.02542426437139511,14.155611038208008,-0.0015358328819274902,2.1582064628601074,-0.41324180364608765,0.0,0.0,0.0,0.0,0.0,0.0,0.0,-0.2686185294809639,-0.018500760273752064,-0.032581421518914785,0.31953181330854,-0.22913930126105578,-0.03651539870003241,-0.4090919350918373,1.6754969541273617,0.05230584065485419,0.02990421249038962,-2.7525714687882807,0.03446053583854711,2.7663323980360275,0.7691981412913319,1.6754973547542302,0.052104326824870026,0.029969505109285054,-2.752394845125968,0.0342448039870148,2.7663679543071322,0.7691630533470046,0.00011747702969065018,0.00027921636134605214,0.0004604956330091321,0.0011163232470122267,0.00026728517968409586,-0.00030969668844414613,0.00010654691497980924,0.0,0.0,0.0,0.0,0.0,0.0,0.0,4.0062686856856544e-07,-0.00020151382998416512,6.529261889543295e-05,0.00017662366231263604,-0.00021573185153230673,3.555627110474191e-05,-3.508794432727225e-05,-0.00011747702969065018,-0.00027921636134605214,-0.0004604956330091321,-0.0011163232470122267,-0.00026728517968409586,0.00030969668844414613,-0.00010654691497980924,0.2720577120780945,22.819665908813477,-0.02542426437139511,-14.155611038208008,0.0015358328819274902,-2.1582064628601074,0.41324180364608765,0
57,0.2800297737121582,-0.2720577120780945,-22.819665908813477,0.02542426437139511,14.155611038208008,-0.0015358328819274902,2.1582064628601074,-0.41324180364608765,0.0,0.0,0.0,0.0,0.0,0.0,0.0,-0.2686185294809639,-0.018500760273752064,-0.032581421518914785,0.31953181330854,-0.22913930126105578,-0.03651539870003241,-0.4090919350918373,1.6754969541273617,0.05230584065485419,0.02990421249038962,-2.7525714687882807,0.03446053583854711,2.7663323980360275,0.7691981412913319,1.6754973547542302,0.052104326824870026,0.029969505109285054,-2.752394845125968,0.0342448039870148,2.7663679543071322,0.7691630533470046,0.00011747702969065018,0.00027921636134605214,0.0004604956330091321,0.0011163232470122267,0.00026728517968409586,-0.00030969668844414613,0.00010654691497980924,0.0,0.0,0.0,0.0,0.0,0.0,0.0,4.0062686856856544e-07,-0.00020151382998416512,6.529261889543295e-05,0.00017662366231263604,-0.00021573185153230673,3.555627110474191e-05,-3.508794432727225e-05,-0.00011747702969065018,-0.00027921636134605214,-0.0004604956330091321,-0.0011163232470122267,-0.00026728517968409586,0.00030969668844414613,-0.00010654691497980924,0.2720577120780945,22.819665908813477,-0.02542426437139511,-14.155611038208008,0.0015358328819274902,-2.1582064628601074,0.41324180364608765,0
58,0.28501176834106445,-0.2720577120780945,-22.819665908813477,0.02542426437139511,14.155611038208008,-0.0015358328819274902,2.1582064628601074,-0.41324180364608765,0.0,0.0,0.0,0.0,0.0,0.0,0.0,-0.2686185294809639,-0.018500760273752064,-0.032581421518914785,0.31953181330854,-0.22913930126105578,-0.03651539870003241,-0.4090919350918373,1.6754969541273617,0.05230584065485419,0.02990421249038962,-2.7525714687882807,0.03446053583854711,2.7663323980360275,0.7691981412913319,1.6754973547542302,0.052104326824870026,0.029969505109285054,-2.752394845125968,0.0342448039870148,2.7663679543071322,0.7691630533470046,0.00011747702969065018,0.00027921636134605214,0.0004604956330091321,0.0011163232470122267,0.00026728517968409586,-0.00030969668844414613,0.00010654691497980924,0.0,0.0,0.0,0.0,0.0,0.0,0.0,4.0062686856856544e-07,-0.00020151382998416512,6.529261889543295e-05,0.00017662366231263604,-0.00021573185153230673,3.555627110474191e-05,-3.508794432727225e-05,-0.00011747702969065018,-0.00027921636134605214,-0.0004604956330091321,-0.0011163232470122267,-0.00026728517968409586,0.00030969668844414613,-0.00010654691497980924,0.2720577120780945,22.819665908813477,-0.02542426437139511,-14.155611038208008,0.0015358328819274902,-2.1582064628601074,0.41324180364608765,0
59,0.29006361961364746,-0.2998287081718445,-22.772058486938477,0.07303168624639511,14.179414749145508,-0.00702899694442749,2.1453890800476074,-0.37204307317733765,0.0,0.0,0.0,0.0,0.0,0.0,0.0,-0.2670053402752815,-0.016231968212110252,-0.031742394911640236,0.3181995676157532,-0.2290373879803681,-0.03612347406875353,-0.4091364743788916,1.6754991678787252,0.05230249978314366,0.02989897710846925,-2.752573139224136,0.03445796537205493,2.766332918619531,0.76919368139174,1.6754973547542302,0.052104326824870026,0.029969505109285054,-2.752394845125968,0.0342448039870148,2.7663679543071322,0.7691630533470046,0.0004845118940587668,-0.0009211803341581915,-0.0007047295457722291,-1.909842832722054e-05,0.000418445696993077,0.00011117784890240483,-0.0017341317717722072,0.0,0.0,0.0,0.0,0.0,0.0,0.0,-1.8131244949870506e-06,-0.00019817295827363746,7.052800081580254e-05,0.00017829409816805253,-0.00021316138504012816,3.5035687601325805e-05,-3.0628044735414583e-05,-0.0004845118940587668,0.0009211803341581915,0.0007047295457722291,1.909842832722054e-05,-0.000418445696993077,-0.00011117784890240483,0.0017341317717722072,0.2998287081718445,22.772058486938477,-0.07303168624639511,-14.179414749145508,0.00702899694442749,-2.1453890800476074,0.37204307317733765,0
60,0.29499220848083496,-0.2998287081718445,-22.772058486938477,0.07303168624639511,14.179414749145508,-0.00702899694442749,2.1453890800476074,-0.37204307317733765,0.0,0.0,0.0,0.0,0.0,0.0,0.0,-0.2670053402752815,-0.016231968212110252,-0.031742394911640236,0.3181995676157532,-0.2290373879803681,-0.03612347406875353,-0.4091364743788916,1.6754991678787252,0.05230249978314366,0.02989897710846925,-2.752573139224136,0.03445796537205493,2.766332918619531,0.76919368139174,1.6754973547542302,0.052104326824870026,0.029969505109285054,-2.752394845125968,0.0342448039870148,2.7663679543071322,0.7691630533470046,0.0004845118940587668,-0.0009211803341581915,-0.0007047295457722291,-1.909842832722054e-05,0.000418445696993077,0.00011117784890240483,-0.0017341317717722072,0.0,0.0,0.0,0.0,0.0,0.0,0.0,-1.8131244949870506e-06,-0.00019817295827363746,7.052800081580254e-05,0.00017829409816805253,-0.00021316138504012816,3.5035687601325805e-05,-3.0628044735414583e-05,-0.0004845118940587668,0.0009211803341581915,0.0007047295457722291,1.909842832722054e-05,-0.000418445696993077,-0.00011117784890240483,0.0017341317717722072,0.2998287081718445,22.772058486938477,-0.07303168624639511,-14.179414749145508,0.00702899694442749,-2.1453890800476074,0.37204307317733765,0
61,0.30004024505615234,-0.3236324191093445,-22.847436904907227,0.04922797530889511,14.207185745239258,0.00487285852432251,2.1453890800476074,-0.42605918645858765,0.0,0.0,0.0,0.0,0.0,0.0,0.0,-0.2673613729041737,-0.012427116029593815,-0.030388066482095542,0.31719495312738505,-0.22927459855294197,-0.03644562331360361,-0.4086464838356818,1.6755005734065436,0.05230778949668533,0.029900561959013618,-2.752575088065967,0.034457930912464935,2.7663338133553594,0.769199670100817,1.6754973547542302,0.052104326824870026,0.029969505109285054,-2.752394845125968,0.0342448039870148,2.7663679543071322,0.7691630533470046,0.0013912600245920715,0.001115803170765511,0.00017884275150088286,-0.0005901072790449957,-9.528776295431816e-05,0.0002972071995801865,0.00012957962786351915,0.0,0.0,0.0,0.0,0.0,0.0,0.0,-3.218652313341508e-06,-0.00020346267181530625,6.894315027143605e-05,0.0001802429399990757,-0.00021312692545013417,3.414095177278753e-05,-3.661675381239071e-05,-0.0013912600245920715,-0.001115803170765511,-0.00017884275150088286,0.0005901072790449957,9.528776295431816e-05,-0.0002972071995801865,-0.00012957962786351915,0.3236324191093445,22.847436904907227,-0.04922797530889511,-14.207185745239258,-0.00487285852432251,-2.1453890800476074,0.42605918645858765,0
62,0.3050069808959961,-0.3236324191093445,-22.847436904907227,0.04922797530889511,14.207185745239258,0.00487285852432251,2.1453890800476074,-0.42605918645858765,0.0,0.0,0.0,0.0,0.0,0.0,0.0,-0.2673613729041737,-0.012427116029593815,-0.030388066482095542,0.31719495312738505,-0.22927459855294197,-0.03644562331360361,-0.4086464838356818,1.6755005734065436,0.05230778949668533,0.029900561959013618,-2.752575088065967,0.034457930912464935,2.7663338133553594,0.769199670100817,1.6754973547542302,0.052104326824870026,0.029969505109285054,-2.752394845125968,0.0342448039870148,2.7663679543071322,0.7691630533470046,0.0013912600245920715,0.001115803170765511,0.00017884275150088286,-0.0005901072790449957,-9.528776295431816e-05,0.0002972071995801865,0.00012957962786351915,0.0,0.0,0.0,0.0,0.0,0.0,0.0,-3.218652313341508e-06,-0.00020346267181530625,6.894315027143605e-05,0.0001802429399990757,-0.00021312692545013417,3.414095177278753e-05,-3.661675381239071e-05,-0.0013912600245920715,-0.001115803170765511,-0.00017884275150088286,0.0005901072790449957,9.528776295431816e-05,-0.0002972071995801865,-0.00012957962786351915,0.3236324191093445,22.847436904907227,-0.04922797530889511,-14.207185745239258,-0.00487285852432251,-2.1453890800476074,0.42605918645858765,0
63,0.309995174407959,-0.3236324191093445,-22.847436904907227,0.04922797530889511,14.179414749145508,0.00487285852432251,2.1453890800476074,-0.46084922552108765,0.0,0.0,0.0,0.0,0.0,0.0,0.0,-0.2698496745159673,-0.01808960397134573,-0.03050607428307854,0.3178220795205362,-0.22908529290798169,-0.03586859579663294,-0.4092032239187286,1.6755005735140645,0.05230778949668533,0.029902782565663043,-2.752573139224136,0.03445804504445924,2.7663309880894134,0.7692035487425912,1.6754973547542302,0.052104326824870026,0.029969505109285054,-2.752394845125968,0.0342448039870148,2.7663679543071322,0.7691630533470046,0.0015116707826632687,0.0001805717378680628,-1.4226846646123996e-05,-2.788181444923452e-05,0.0001607467816792032,0.00017013160110288943,0.002007211931964519,0.0,0.0,0.0,0.0,0.0,0.0,0.0,-3.2187598342225954e-06,-0.00020346267181530625,6.672254362201022e-05,0.00017829409816805253,-0.000213241057444441,3.69662177188701e-05,-4.0495395586592764e-05,-0.0015116707826632687,-0.0001805717378680628,1.4226846646123996e-05,2.788181444923452e-05,-0.0001607467816792032,-0.00017013160110288943,-0.002007211931964519,0.3236324191093445,22.847436904907227,-0.04922797530889511,-14.179414749145508,-0.00487285852432251,-2.1453890800476074,0.46084922552108765,0
64,0.3149909973144531,-0.3236324191093445,-22.847436904907227,0.04922797530889511,14.179414749145508,0.00487285852432251,2.1453890800476074,-0.46084922552108765,0.0,0.0,0.0,0.0,0.0,0.0,0.0,-0.2698496745159673,-0.01808960397134573,-0.03050607428307854,0.3178220795205362,-0.22908529290798169,-0.03586859579663294,-0.4092032239187286,1.6755005735140645,0.05230778949668533,0.029902782565663043,-2.752573139224136,0.03445804504445924,2.7663309880894134,0.7692035487425912,1.6754973547542302,0.052104326824870026,0.029969505109285054,-2.752394845125968,0.0342448039870148,2.7663679543071322,0.7691630533470046,0.0015116707826632687,0.0001805717378680628,-1.4226846646123996e-05,-2.788181444923452e-05,0.0001607467816792032,0.00017013160110288943,0.002007211931964519,0.0,0.0,0.0,0.0,0.0,0.0,0.0,-3.2187598342225954e-06,-0.00020346267181530625,6.672254362201022e-05,0.00017829409816805253,-0.000213241057444441,3.69662177188701e-05,-4.0495395586592764e-05,-0.0015116707826632687,-0.0001805717378680628,1.4226846646123996e-05,2.788181444923452e-05,-0.0001607467816792032,-0.00017013160110288943,-0.002007211931964519,0.3236324191093445,22.847436904907227,-0.04922797530889511,-14.179414749145508,-0.00487285852432251,-2.1453890800476074,0.46084922552108765,0
65,0.32002997398376465,-0.2998287081718445,-22.795862197875977,0.04922797530889511,14.179414749145508,0.00487285852432251,2.1453890800476074,-0.40591758489608765,0.0,0.0,0.0,0.0,0.0,0.0,0.0,-0.27335310614634734,-0.00031982862018305056,-0.034101718914193835,0.2793521203518097,-0.22885003471799678,-0.04103163959720881,-0.4098372351440179,1.6754996182249309,0.05230417021899893,0.029902756580846637,-2.752573139224136,0.03446019107669671,2.766333848337338,0.76919744522704,1.6754973547542302,0.052104326824870026,0.029969505109285054,-2.752394845125968,0.0342448039870148,2.7663679543071322,0.7691630533470046,0.00021368252025327344,-0.0013384343436300505,2.9708683791102426e-05,0.00041300111036699817,-3.240662771700051e-05,-1.0389071840486739e-05,-0.000297392209171933,0.0,0.0,0.0,0.0,0.0,0.0,0.0,-2.263470700647474e-06,-0.00019984339412890129,6.674852843841644e-05,0.00017829409816805253,-0.00021538708968191211,3.410596979414038e-05,-3.439188003540039e-05,-0.00021368252025327344,0.0013384343436300505,-2.9708683791102426e-05,-0.00041300111036699817,3.240662771700051e-05,1.0389071840486739e-05,0.000297392209171933,0.2998287081718445,22.795862197875977,-0.04922797530889511,-14.179414749145508,-0.00487285852432251,-2.1453890800476074,0.40591758489608765,0
66,0.3250107765197754,-0.2998287081718445,-22.795862197875977,0.04922797530889511,14.179414749145508,0.00487285852432251,2.1453890800476074,-0.40591758489608765,0.0,0.0,0.0,0.0,0.0,0.0,0.0,-0.27335310614634734,-0.00031982862018305056,-0.034101718914193835,0.2793521203518097,-0.22885003471799678,-0.04103163959720881,-0.4098372351440179,1.6754996182249309,0.05230417021899893,0.029902756580846637,-2.752573139224136,0.03446019107669671,2.766333848337338,0.76919744522704,1.6754973547542302,0.052104326824870026,0.029969505109285054,-2.752394845125968,0.0342448039870148,2.7663679543071322,0.7691630533470046,0.00021368252025327344,-0.0013384343436300505,2.9708683791102426e-05,0.00041300111036699817,-3.240662771700051e-05,-1.0389071840486739e-05,-0.000297392209171933,0.0,0.0,0.0,0.0,0.0,0.0,0.0,-2.263470700647474e-06,-0.00019984339412890129,6.674852843841644e-05,0.00017829409816805253,-0.00021538708968191211,3.410596979414038e-05,-3.439188003540039e-05,-0.00021368252025327344,0.0013384343436300505,-2.9708683791102426e-05,-0.00041300111036699817,3.240662771700051e-05,1.0389071840486739e-05,0.000297392209171933,0.2998287081718445,22.795862197875977,-0.04922797530889511,-14.179414749145508,-0.00487285852432251,-2.1453890800476074,0.40591758489608765,0
67,0.33001089096069336,-0.3236324191093445,-22.772058486938477,0.04922797530889511,14.179414749145508,-0.0015358328819274902,2.1453890800476074,-0.37845176458358765,0.0,0.0,0.0,0.0,0.0,0.0,0.0,-0.2714854057532526,-0.02078216766888322,-0.03210850759672705,0.31791341493570324,-0.22835551603948448,-0.03596662864162683,-0.41019074300546887,1.6755005734090858,0.05230249978314366,0.029902665553861233,-2.752573139224136,0.03445735513074103,2.766333145319682,0.7691943934692276,1.6754973547542302,0.052104326824870026,0.029969505109285054,-2.752394845125968,0.0342448039870148,2.7663679543071322,0.7691630533470046,0.0014984276855824327,-0.001033021914304494,0.00016327854565697578,6.026920692236439e-05,8.490259106477812e-05,8.430151577936131e-05,-0.0017218587076934973,0.0,0.0,0.0,0.0,0.0,0.0,0.0,-3.2186548555301897e-06,-0.00019817295827363746,6.683955542382061e-05,0.00017829409816805253,-0.00021255114372623063,3.480898745022998e-05,-3.13401222229448e-05,-0.0014984276855824327,0.001033021914304494,-0.00016327854565697578,-6.026920692236439e-05,-8.490259106477812e-05,-8.430151577936131e-05,0.0017218587076934973,0.3236324191093445,22.772058486938477,-0.04922797530889511,-14.179414749145508,0.0015358328819274902,-2.1453890800476074,0.37845176458358765,0
68,0.33504176139831543,-0.3236324191093445,-22.772058486938477,0.04922797530889511,14.179414749145508,-0.0015358328819274902,2.1453890800476074,-0.37845176458358765,0.0,0.0,0.0,0.0,0.0,0.0,0.0,-0.2714854057532526,-0.02078216766888322,-0.03210850759672705,0.31791341493570324,-0.22835551603948448,-0.03596662864162683,-0.41019074300546887,1.6755005734090858,0.05230249978314366,0.029902665553861233,-2.752573139224136,0.03445735513074103,2.766333145319682,0.7691943934692276,1.6754973547542302,0.052104326824870026,0.029969505109285054,-2.752394845125968,0.0342448039870148,2.7663679543071322,0.7691630533470046,0.0014984276855824327,-0.001033021914304494,0.00016327854565697578,6.026920692236439e-05,8.490259106477812e-05,8.430151577936131e-05,-0.0017218587076934973,0.0,0.0,0.0,0.0,0.0,0.0,0.0,-3.2186548555301897e-06,-0.00019817295827363746,6.683955542382061e-05,0.00017829409816805253,-0.00021255114372623063,3.480898745022998e-05,-3.13401222229448e-05,-0.0014984276855824327,0.001033021914304494,-0.00016327854565697578,-6.026920692236439e-05,-8.490259106477812e-05,-8.430151577936131e-05,0.0017218587076934973,0.3236324191093445,22.772058486938477,-0.04922797530889511,-14.179414749145508,0.0015358328819274902,-2.1453890800476074,0.37845176458358765,0
69,0.34003305435180664,-0.22445029020309448,-22.748254776000977,0.10080268234014511,14.207185745239258,-0.00702899694442749,2.1453890800476074,-0.42605918645858765,0.0,0.0,0.0,0.0,0.0,0.0,0.0,-0.26721575403270037,-0.024429531844960117,-0.02909907380651769,0.3249255033100857,-0.22889773834750482,-0.03545637299332995,-0.41084699703168825,1.675495759022863,0.0523008293472884,0.029897022309608813,-2.752575088065967,0.034461184104008016,2.766333103216591,0.7691996831827692,1.6754973547542302,0.052104326824870026,0.029969505109285054,-2.752394845125968,0.0342448039870148,2.7663679543071322,0.7691630533470046,-0.0007051645700033492,-0.0011198334576107076,-0.0008182302333565781,-0.0005581626159223801,0.00026093750131564843,-0.00012798924737827507,0.0001251247092117702,0.0,0.0,0.0,0.0,0.0,0.0,0.0,1.5957313672654294e-06,-0.00019650252241837363,7.24827996762406e-05,0.0001802429399990757,-0.00021638011699321585,3.4851090541021534e-05,-3.66298357645789e-05,0.0007051645700033492,0.0011198334576107076,0.0008182302333565781,0.0005581626159223801,-0.00026093750131564843,0.00012798924737827507,-0.0001251247092117702,0.22445029020309448,22.748254776000977,-0.10080268234014511,-14.207185745239258,0.00702899694442749,-2.1453890800476074,0.42605918645858765,0
70,0.34499669075012207,-0.22445029020309448,-22.748254776000977,0.10080268234014511,14.207185745239258,-0.00702899694442749,2.1453890800476074,-0.42605918645858765,0.0,0.0,0.0,0.0,0.0,0.0,0.0,-0.26721575403270037,-0.024429531844960117,-0.02909907380651769,0.3249255033100857,-0.22889773834750482,-0.03545637299332995,-0.41084699703168825,1.675495759022863,0.0523008293472884,0.029897022309608813,-2.752575088065967,0.034461184104008016,2.766333103216591,0.7691996831827692,1.6754973547542302,0.052104326824870026,0.029969505109285054,-2.752394845125968,0.0342448039870148,2.7663679543071322,0.7691630533470046,-0.0007051645700033492,-0.0011198334576107076,-0.0008182302333565781,-0.0005581626159223801,0.00026093750131564843,-0.00012798924737827507,0.0001251247092117702,0.0,0.0,0.0,0.0,0.0,0.0,0.0,1.5957313672654294e-06,-0.00019650252241837363,7.24827996762406e-05,0.0001802429399990757,-0.00021638011699321585,3.4851090541021534e-05,-3.66298357645789e-05,0.0007051645700033492,0.0011198334576107076,0.0008182302333565781,0.0005581626159223801,-0.00026093750131564843,0.00012798924737827507,-0.0001251247092117702,0.22445029020309448,22.748254776000977,-0.10080268234014511,-14.207185745239258,0.00702899694442749,-2.1453890800476074,0.42605918645858765,0
71,0.34999585151672363,-0.22445029020309448,-22.819665908813477,0.02542426437139511,14.131807327270508,0.00487285852432251,2.1453890800476074,-0.43979209661483765,0.0,0.0,0.0,0.0,0.0,0.0,0.0,-0.2687513306152091,-0.0217963965603624,-0.0326646664943296,0.3222226819798243,-0.22863715347787492,-0.03673007810730604,-0.4120137622766087,1.675493613267764,0.05230584065485419,0.029903742588222558,-2.7525697983524258,0.03446081763709343,2.766329939644996,0.7691980301472875,1.6754973547542302,0.052104326824870026,0.029969505109285054,-2.752394845125968,0.0342448039870148,2.7663679543071322,0.7691630533470046,-0.0011410081152999738,0.00030890671414506244,0.00079377451886377,0.0008098796337303415,4.918346931730587e-05,4.5816039333473303e-05,0.0006669914085567417,0.0,0.0,0.0,0.0,0.0,0.0,0.0,3.741486466202204e-06,-0.00020151382998416512,6.57625210624957e-05,0.00017495322645766365,-0.00021601365007863083,3.801466213637639e-05,-3.497680028285988e-05,0.0011410081152999738,-0.00030890671414506244,-0.00079377451886377,-0.0008098796337303415,-4.918346931730587e-05,-4.5816039333473303e-05,-0.0006669914085567417,0.22445029020309448,22.819665908813477,-0.02542426437139511,-14.131807327270508,-0.00487285852432251,-2.1453890800476074,0.43979209661483765,0
72,0.3550074100494385,-0.22445029020309448,-22.819665908813477,0.02542426437139511,14.131807327270508,0.00487285852432251,2.1453890800476074,-0.43979209661483765,0.0,0.0,0.0,0.0,0.0,0.0,0.0,-0.2687513306152091,-0.0217963965603624,-0.0326646664943296,0.3222226819798243,-0.22863715347787492,-0.03673007810730604,-0.4120137622766087,1.675493613267764,0.05230584065485419,0.029903742588222558,-2.7525697983524258,0.03446081763709343,2.766329939644996,0.7691980301472875,1.6754973547542302,0.052104326824870026,0.029969505109285054,-2.752394845125968,0.0342448039870148,2.7663679543071322,0.7691630533470046,-0.0011410081152999738,0.00030890671414506244,0.00079377451886377,0.0008098796337303415,4.918346931730587e-05,4.5816039333473303e-05,0.0006669914085567417,0.0,0.0,0.0,0.0,0.0,0.0,0.0,3.741486466202204e-06,-0.00020151382998416512,6.57625210624957e-05,0.00017495322645766365,-0.00021601365007863083,3.801466213637639e-05,-3.497680028285988e-05,0.0011410081152999738,-0.00030890671414506244,-0.00079377451886377,-0.0008098796337303415,-4.918346931730587e-05,-4.5816039333473303e-05,-0.0006669914085567417,0.22445029020309448,22.819665908813477,-0.02542426437139511,-14.131807327270508,-0.00487285852432251,-2.1453890800476074,0.43979209661483765,0
73,0.3600020408630371,-0.24825400114059448,-22.819665908813477,0.04922797530889511,14.179414749145508,-0.00702899694442749,2.1517977714538574,-0.44711631536483765,0.0,0.0,0.0,0.0,0.0,0.0,0.0,-0.2707103683179098,-0.021576188809089042,-0.035789628288882255,0.3255103181831502,-0.22780501951383192,-0.03622209765520957,-0.4142383093821121,1.6754975089315782,0.05230584065485419,0.029900571679955062,-2.752573139224136,0.03445942428106441,2.7663300792769236,0.7692020228458137,1.6754973547542302,0.052104326824870026,0.029969505109285054,-2.752394845125968,0.0342448039870148,2.7663679543071322,0.7691630533470046,-0.0006984162696209488,0.0002739541841094296,-0.0004471903778925866,0.00029978793612113247,0.000359322900409896,-0.00020659311874246885,0.0009896363328433639,0.0,0.0,0.0,0.0,0.0,0.0,0.0,-1.541773479996067e-07,-0.00020151382998416512,6.893342932999189e-05,0.00017829409816805253,-0.00021462029404960975,3.787503020857841e-05,-3.896949880910494e-05,0.0006984162696209488,-0.0002739541841094296,0.0004471903778925866,-0.00029978793612113247,-0.000359322900409896,0.00020659311874246885,-0.0009896363328433639,0.24825400114059448,22.819665908813477,-0.04922797530889511,-14.179414749145508,0.00702899694442749,-2.1517977714538574,0.44711631536483765,0
74,0.36501121520996094,-0.24825400114059448,-22.819665908813477,0.04922797530889511,14.179414749145508,-0.00702899694442749,2.1517977714538574,-0.44711631536483765,0.0,0.0,0.0,0.0,0.0,0.0,0.0,-0.2707103683179098,-0.021576188809089042,-0.035789628288882255,0.3255103181831502,-0.22780501951383192,-0.03622209765520957,-0.4142383093821121,1.6754975089315782,0.05230584065485419,0.029900571679955062,-2.752573139224136,0.03445942428106441,2.7663300792769236,0.7692020228458137,1.6754973547542302,0.052104326824870026,0.029969505109285054,-2.752394845125968,0.0342448039870148,2.7663679543071322,0.7691630533470046,-0.0006984162696209488,0.0002739541841094296,-0.0004471903778925866,0.00029978793612113247,0.000359322900409896,-0.00020659311874246885,0.0009896363328433639,0.0,0.0,0.0,0.0,0.0,0.0,0.0,-1.541773479996067e-07,-0.00020151382998416512,6.893342932999189e-05,0.00017829409816805253,-0.00021462029404960975,3.787503020857841e-05,-3.896949880910494e-05,0.0006984162696209488,-0.0002739541841094296,0.0004471903778925866,-0.00029978793612113247,-0.000359322900409896,0.00020659311874246885,-0.0009896363328433639,0.24825400114059448,22.819665908813477,-0.04922797530889511,-14.179414749145508,0.00702899694442749,-2.1517977714538574,0.44711631536483765,0
75,0.3700289726257324,-0.2720577120780945,-22.847436904907227,0.04922797530889511,14.179414749145508,-0.0015358328819274902,2.1453890800476074,-0.43338340520858765,0.0,0.0,0.0,0.0,0.0,0.0,0.0,-0.2713129843109405,-0.020062509067262944,-0.035574254318936634,0.31921530482601546,-0.22842642781766334,-0.03674324585179857,-0.41629668610259335,1.675497033612783,0.05230778949668533,0.029902756135076924,-2.752573139224136,0.034458400577138816,2.766331143763736,0.7692004969848525,1.6754973547542302,0.052104326824870026,0.029969505109285054,-2.752394845125968,0.0342448039870148,2.7663679543071322,0.7691630533470046,-0.0007392266120659722,0.00033327127275231005,-0.0001557239171933795,-7.397078361606018e-06,0.00019855977316736412,0.00024236675169993474,0.0009744382700541824,0.0,0.0,0.0,0.0,0.0,0.0,0.0,3.2114144721262505e-07,-0.00020346267181530625,6.674897420812925e-05,0.00017829409816805253,-0.00021359659012401555,3.681054339610412e-05,-3.744363784785598e-05,0.0007392266120659722,-0.00033327127275231005,0.0001557239171933795,7.397078361606018e-06,-0.00019855977316736412,-0.00024236675169993474,-0.0009744382700541824,0.2720577120780945,22.847436904907227,-0.04922797530889511,-14.179414749145508,0.0015358328819274902,-2.1453890800476074,0.43338340520858765,0
76,0.3750605583190918,-0.2720577120780945,-22.847436904907227,0.04922797530889511,14.179414749145508,-0.0015358328819274902,2.1453890800476074,-0.43338340520858765,0.0,0.0,0.0,0.0,0.0,0.0,0.0,-0.2713129843109405,-0.020062509067262944,-0.035574254318936634,0.31921530482601546,-0.22842642781766334,-0.03674324585179857,-0.41629668610259335,1.675497033612783,0.05230778949668533,0.029902756135076924,-2.752573139224136,0.034458400577138816,2.766331143763736,0.7692004969848525,1.6754973547542302,0.052104326824870026,0.029969505109285054,-2.752394845125968,0.0342448039870148,2.7663679543071322,0.7691630533470046,-0.0007392266120659722,0.00033327127275231005,-0.0001557239171933795,-7.397078361606018e-06,0.00019855977316736412,0.00024236675169993474,0.0009744382700541824,0.0,0.0,0.0,0.0,0.0,0.0,0.0,3.2114144721262505e-07,-0.00020346267181530625,6.674897420812925e-05,0.00017829409816805253,-0.00021359659012401555,3.681054339610412e-05,-3.744363784785598e-05,0.0007392266120659722,-0.00033327127275231005,0.0001557239171933795,7.397078361606018e-06,-0.00019855977316736412,-0.00024236675169993474,-0.0009744382700541824,0.2720577120780945,22.847436904907227,-0.04922797530889511,-14.179414749145508,0.0015358328819274902,-2.1453890800476074,0.43338340520858765,0
77,0.3800520896911621,-0.2720577120780945,-22.795862197875977,0.04922797530889511,14.207185745239258,0.00487285852432251,2.1389803886413574,-0.38577598333358765,0.0,0.0,0.0,0.0,0.0,0.0,0.0,-0.27500894029752504,-0.021405423798384622,-0.03463958779024434,0.3218743295764129,-0.22864296809538995,-0.036123351994003704,-0.4156437655606167,1.6754969541278104,0.052304170543776556,0.029900649350904654,-2.752575088065967,0.03446116421782549,2.7663317394508584,0.7691952071098053,1.6754973547542302,0.052104326824870026,0.029969505109285054,-2.752394845125968,0.0342448039870148,2.7663679543071322,0.7691630533470046,-0.0001813667227380128,-0.0007841663838056004,-0.0002978821995394781,-0.00011513364614665654,0.00015757348111125515,0.0003462768631253411,-0.0010007000571310002,0.0,0.0,0.0,0.0,0.0,0.0,0.0,4.006264198164189e-07,-0.0001998437189065297,6.885575838039976e-05,0.0001802429399990757,-0.00021636023081068878,3.621485627380849e-05,-3.21537628006352e-05,0.0001813667227380128,0.0007841663838056004,0.0002978821995394781,0.00011513364614665654,-0.00015757348111125515,-0.0003462768631253411,0.0010007000571310002,0.2720577120780945,22.795862197875977,-0.04922797530889511,-14.207185745239258,-0.00487285852432251,-2.1389803886413574,0.38577598333358765,0
78,0.3850059509277344,-0.2720577120780945,-22.795862197875977,0.04922797530889511,14.207185745239258,0.00487285852432251,2.1389803886413574,-0.38577598333358765,0.0,0.0,0.0,0.0,0.0,0.0,0.0,-0.27500894029752504,-0.021405423798384622,-0.03463958779024434,0.3218743295764129,-0.22864296809538995,-0.036123351994003704,-0.4156437655606167,1.6754969541278104,0.052304170543776556,0.029900649350904654,-2.752575088065967,0.03446116421782549,2.7663317394508584,0.7691952071098053,1.6754973547542302,0.052104326824870026,0.029969505109285054,-2.752394845125968,0.0342448039870148,2.7663679543071322,0.7691630533470046,-0.0001813667227380128,-0.0007841663838056004,-0.0002978821995394781,-0.00011513364614665654,0.00015757348111125515,0.0003462768631253411,-0.0010007000571310002,0.0,0.0,0.0,0.0,0.0,0.0,0.0,4.006264198164189e-07,-0.0001998437189065297,6.885575838039976e-05,0.0001802429399990757,-0.00021636023081068878,3.621485627380849e-05,-3.21537628006352e-05,0.0001813667227380128,0.0007841663838056004,0.0002978821995394781,0.00011513364614665654,-0.00015757348111125515,-0.0003462768631253411,0.0010007000571310002,0.2720577120780945,22.795862197875977,-0.04922797530889511,-14.207185745239258,-0.00487285852432251,-2.1389803886413574,0.38577598333358765,0
79,0.3900325298309326,-0.2720577120780945,-22.795862197875977,0.04922797530889511,14.207185745239258,0.00487285852432251,2.1389803886413574,-0.38577598333358765,0.0,0.0,0.0,0.0,0.0,0.0,0.0,-0.27500894029752504,-0.021405423798384622,-0.03463958779024434,0.3218743295764129,-0.22864296809538995,-0.036123351994003704,-0.4156437655606167,1.6754969541278104,0.052304170543776556,0.029900649350904654,-2.752575088065967,0.03446116421782549,2.7663317394508584,0.7691952071098053,1.6754973547542302,0.052104326824870026,0.029969505109285054,-2.752394845125968,0.0342448039870148,2.7663679543071322,0.7691630533470046,-0.0001813667227380128,-0.0007841663838056004,-0.0002978821995394781,-0.00011513364614665654,0.00015757348111125515,0.0003462768631253411,-0.0010007000571310002,0.0,0.0,0.0,0.0,0.0,0.0,0.0,4.006264198164189e-07,-0.0001998437189065297,6.885575838039976e-05,0.0001802429399990757,-0.00021636023081068878,3.621485627380849e-05,-3.21537628006352e-05,0.0001813667227380128,0.0007841663838056004,0.0002978821995394781,0.00011513364614665654,-0.00015757348111125515,-0.0003462768631253411,0.0010007000571310002,0.2720577120780945,22.795862197875977,-0.04922797530889511,-14.207185745239258,-0.00487285852432251,-2.1389803886413574,0.38577598333358765,0
