rezayati/contactInterpretation/dataset/franka_main/labeled_data/link7/a4_1.csv
index,time,tau_J0,tau_J1,tau_J2,tau_J3,tau_J4,tau_J5,tau_J6,tau_J_d0,tau_J_d1,tau_J_d2,tau_J_d3,tau_J_d4,tau_J_d5,tau_J_d6,tau_ext0,tau_ext1,tau_ext2,tau_ext3,tau_ext4,tau_ext5,tau_ext6,q0,q1,q2,q3,q4,q5,q6,q_d0,q_d1,q_d2,q_d3,q_d4,q_d5,q_d6,dq0,dq1,dq2,dq3,dq4,dq5,dq6,dq_d0,dq_d1,dq_d2,dq_d3,dq_d4,dq_d5,dq_d6,e0,e1,e2,e3,e4,e5,e6,de0,de1,de2,de3,de4,de5,de6,etau_J0,etau_J1,etau_J2,etau_J3,etau_J4,etau_J5,etau_J6,label
1,0.0,-0.5021602511405945,-47.27004623413086,-1.2163360118865967,20.975374221801758,0.4269309639930725,2.3596224784851074,-0.37204307317733765,0.0,0.0,0.0,0.0,0.0,0.0,0.0,-0.5248343951563483,-0.5071414956305751,-0.3102312255933459,0.591308252529219,-0.14501702345151957,0.13959845654680972,-0.3474508782914028,0.06242349147530801,0.6882940384047048,-0.07862991998969628,-1.620953162025987,0.02820213529261799,2.2878044438661553,0.8466405593487951,0.06226373270833701,0.6884179775783729,-0.07863937525950354,-1.6210372792796082,0.028167345702647853,2.2878312372101677,0.8466366937888992,-0.0008402229052116099,0.0011425552995501893,8.932837906085016e-05,0.0005754234289499855,0.00013086247609450527,-7.99860044051088e-05,0.0012849953365379964,0.0,0.0,0.0,0.0,0.0,0.0,0.0,-0.0001597587669710035,0.00012393917366804175,-9.455269807265299e-06,-8.411725362122979e-05,-3.478958997013559e-05,2.6793344012343567e-05,-3.865559895954718e-06,0.0008402229052116099,-0.0011425552995501893,-8.932837906085016e-05,-0.0005754234289499855,-0.00013086247609450527,7.99860044051088e-05,-0.0012849953365379964,0.5021602511405945,47.27004623413086,1.2163360118865967,-20.975374221801758,-0.4269309639930725,-2.3596224784851074,0.37204307317733765,0
2,0.004999637603759766,-0.5021602511405945,-47.27004623413086,-1.2163360118865967,20.975374221801758,0.4269309639930725,2.3596224784851074,-0.37204307317733765,0.0,0.0,0.0,0.0,0.0,0.0,0.0,-0.5248343951563483,-0.5071414956305751,-0.3102312255933459,0.591308252529219,-0.14501702345151957,0.13959845654680972,-0.3474508782914028,0.06242349147530801,0.6882940384047048,-0.07862991998969628,-1.620953162025987,0.02820213529261799,2.2878044438661553,0.8466405593487951,0.06226373270833701,0.6884179775783729,-0.07863937525950354,-1.6210372792796082,0.028167345702647853,2.2878312372101677,0.8466366937888992,-0.0008402229052116099,0.0011425552995501893,8.932837906085016e-05,0.0005754234289499855,0.00013086247609450527,-7.99860044051088e-05,0.0012849953365379964,0.0,0.0,0.0,0.0,0.0,0.0,0.0,-0.0001597587669710035,0.00012393917366804175,-9.455269807265299e-06,-8.411725362122979e-05,-3.478958997013559e-05,2.6793344012343567e-05,-3.865559895954718e-06,0.0008402229052116099,-0.0011425552995501893,-8.932837906085016e-05,-0.0005754234289499855,-0.00013086247609450527,7.99860044051088e-05,-0.0012849953365379964,0.5021602511405945,47.27004623413086,1.2163360118865967,-20.975374221801758,-0.4269309639930725,-2.3596224784851074,0.37204307317733765,0
3,0.009997129440307617,-0.5537349581718445,-47.27004623413086,-1.2163360118865967,21.022981643676758,0.4388328194618225,2.3596224784851074,-0.30978721380233765,0.0,0.0,0.0,0.0,0.0,0.0,0.0,-0.5476303934235155,-0.521335975872747,-0.33588785370911417,0.6033998731218138,-0.14452502605493364,0.13936737060096002,-0.34753555719932294,0.06242713670482396,0.6882940413294485,-0.07862999890887894,-1.6209565028976973,0.028200457997139824,2.2878044453196975,0.8466336420310868,0.06226373270833701,0.6884179775783729,-0.07863937525950354,-1.6210372792796082,0.028167345702647853,2.2878312372101677,0.8466366937888992,4.630305728190373e-05,-1.5042154644953828e-05,0.00025945254017174134,-0.00027505858972207977,-0.00017222518382214652,0.00015307666769429263,-0.0015708991635620478,0.0,0.0,0.0,0.0,0.0,0.0,0.0,-0.00016340399648694798,0.00012393624892437227,-9.37635062460418e-06,-8.077638191084091e-05,-3.311229449197081e-05,2.6791890470168056e-05,3.0517578123445688e-06,-4.630305728190373e-05,1.5042154644953828e-05,-0.00025945254017174134,0.00027505858972207977,0.00017222518382214652,-0.00015307666769429263,0.0015708991635620478,0.5537349581718445,47.27004623413086,1.2163360118865967,-21.022981643676758,-0.4388328194618225,-2.3596224784851074,0.30978721380233765,0
4,0.014997720718383789,-0.5537349581718445,-47.27004623413086,-1.2163360118865967,21.022981643676758,0.4388328194618225,2.3596224784851074,-0.30978721380233765,0.0,0.0,0.0,0.0,0.0,0.0,0.0,-0.5476303934235155,-0.521335975872747,-0.33588785370911417,0.6033998731218138,-0.14452502605493364,0.13936737060096002,-0.34753555719932294,0.06242713670482396,0.6882940413294485,-0.07862999890887894,-1.6209565028976973,0.028200457997139824,2.2878044453196975,0.8466336420310868,0.06226373270833701,0.6884179775783729,-0.07863937525950354,-1.6210372792796082,0.028167345702647853,2.2878312372101677,0.8466366937888992,4.630305728190373e-05,-1.5042154644953828e-05,0.00025945254017174134,-0.00027505858972207977,-0.00017222518382214652,0.00015307666769429263,-0.0015708991635620478,0.0,0.0,0.0,0.0,0.0,0.0,0.0,-0.00016340399648694798,0.00012393624892437227,-9.37635062460418e-06,-8.077638191084091e-05,-3.311229449197081e-05,2.6791890470168056e-05,3.0517578123445688e-06,-4.630305728190373e-05,1.5042154644953828e-05,-0.00025945254017174134,0.00027505858972207977,0.00017222518382214652,-0.00015307666769429263,0.0015708991635620478,0.5537349581718445,47.27004623413086,1.2163360118865967,-21.022981643676758,-0.4388328194618225,-2.3596224784851074,0.30978721380233765,0
5,0.014997720718383789,-0.5537349581718445,-47.27004623413086,-1.2163360118865967,21.022981643676758,0.4388328194618225,2.3596224784851074,-0.30978721380233765,0.0,0.0,0.0,0.0,0.0,0.0,0.0,-0.5476303934235155,-0.521335975872747,-0.33588785370911417,0.6033998731218138,-0.14452502605493364,0.13936737060096002,-0.34753555719932294,0.06242713670482396,0.6882940413294485,-0.07862999890887894,-1.6209565028976973,0.028200457997139824,2.2878044453196975,0.8466336420310868,0.06226373270833701,0.6884179775783729,-0.07863937525950354,-1.6210372792796082,0.028167345702647853,2.2878312372101677,0.8466366937888992,4.630305728190373e-05,-1.5042154644953828e-05,0.00025945254017174134,-0.00027505858972207977,-0.00017222518382214652,0.00015307666769429263,-0.0015708991635620478,0.0,0.0,0.0,0.0,0.0,0.0,0.0,-0.00016340399648694798,0.00012393624892437227,-9.37635062460418e-06,-8.077638191084091e-05,-3.311229449197081e-05,2.6791890470168056e-05,3.0517578123445688e-06,-4.630305728190373e-05,1.5042154644953828e-05,-0.00025945254017174134,0.00027505858972207977,0.00017222518382214652,-0.00015307666769429263,0.0015708991635620478,0.5537349581718445,47.27004623413086,1.2163360118865967,-21.022981643676758,-0.4388328194618225,-2.3596224784851074,0.30978721380233765,0
6,0.024999141693115234,-0.5299312472343445,-47.36922836303711,-1.1687285900115967,21.022981643676758,0.4269309639930725,2.3852572441101074,-0.30978721380233765,0.0,0.0,0.0,0.0,0.0,0.0,0.0,-0.5153274775571917,-0.5329463847730732,-0.3151719394553627,0.6091009019796882,-0.14412470037213201,0.13885236839296128,-0.34768832134241034,0.06242239226320207,0.6883009728748773,-0.0786328661469867,-1.6209565028976973,0.028201781883885765,2.2878015970124137,0.8466336420310868,0.06226373270833701,0.6884179775783729,-0.07863937525950354,-1.6210372792796082,0.028167345702647853,2.2878312372101677,0.8466366937888992,0.0005335137984530921,0.0006185720513589829,0.00025788794158502554,-0.00022537101982713007,0.00014862340895785558,-0.0006428244691169245,-0.0015290959255885165,0.0,0.0,0.0,0.0,0.0,0.0,0.0,-0.0001586595548650621,0.00011700470349551573,-6.509112516844828e-06,-8.077638191084091e-05,-3.443618123791237e-05,2.9640197753977304e-05,3.0517578123445688e-06,-0.0005335137984530921,-0.0006185720513589829,-0.00025788794158502554,0.00022537101982713007,-0.00014862340895785558,0.0006428244691169245,0.0015290959255885165,0.5299312472343445,47.36922836303711,1.1687285900115967,-21.022981643676758,-0.4269309639930725,-2.3852572441101074,0.30978721380233765,0
7,0.029998064041137695,-0.5299312472343445,-47.36922836303711,-1.1687285900115967,21.022981643676758,0.4269309639930725,2.3852572441101074,-0.30978721380233765,0.0,0.0,0.0,0.0,0.0,0.0,0.0,-0.5153274775571917,-0.5329463847730732,-0.3151719394553627,0.6091009019796882,-0.14412470037213201,0.13885236839296128,-0.34768832134241034,0.06242239226320207,0.6883009728748773,-0.0786328661469867,-1.6209565028976973,0.028201781883885765,2.2878015970124137,0.8466336420310868,0.06226373270833701,0.6884179775783729,-0.07863937525950354,-1.6210372792796082,0.028167345702647853,2.2878312372101677,0.8466366937888992,0.0005335137984530921,0.0006185720513589829,0.00025788794158502554,-0.00022537101982713007,0.00014862340895785558,-0.0006428244691169245,-0.0015290959255885165,0.0,0.0,0.0,0.0,0.0,0.0,0.0,-0.0001586595548650621,0.00011700470349551573,-6.509112516844828e-06,-8.077638191084091e-05,-3.443618123791237e-05,2.9640197753977304e-05,3.0517578123445688e-06,-0.0005335137984530921,-0.0006185720513589829,-0.00025788794158502554,0.00022537101982713007,-0.00014862340895785558,0.0006428244691169245,0.0015290959255885165,0.5299312472343445,47.36922836303711,1.1687285900115967,-21.022981643676758,-0.4269309639930725,-2.3852572441101074,0.30978721380233765,0
8,0.034999847412109375,-0.5021602511405945,-47.34542465209961,-1.1687285900115967,21.022981643676758,0.4333396553993225,2.3980746269226074,-0.30978721380233765,0.0,0.0,0.0,0.0,0.0,0.0,0.0,-0.5045846742728131,-0.5234016044832346,-0.302684067720588,0.6016035878569238,-0.14438244998705962,0.14087882742456226,-0.3469032852493499,0.062421389135540385,0.6882993801190083,-0.07863355027035393,-1.6209565028976973,0.028201068346707322,2.287800172858768,0.8466336420310868,0.06226373270833701,0.6884179775783729,-0.07863937525950354,-1.6210372792796082,0.028167345702647853,2.2878312372101677,0.8466366937888992,0.0009642480654798481,-0.0004825277401857262,0.0010679624536676293,0.0003495168185666755,-0.00012861116833680824,-0.000457838476071082,-0.001410903446254563,0.0,0.0,0.0,0.0,0.0,0.0,0.0,-0.00015765642720337592,0.00011859745936459998,-5.824989149610937e-06,-8.077638191084091e-05,-3.372264405946887e-05,3.106435139965669e-05,3.0517578123445688e-06,-0.0009642480654798481,0.0004825277401857262,-0.0010679624536676293,-0.0003495168185666755,0.00012861116833680824,0.000457838476071082,0.001410903446254563,0.5021602511405945,47.34542465209961,1.1687285900115967,-21.022981643676758,-0.4333396553993225,-2.3980746269226074,0.30978721380233765,0
9,0.04091525077819824,-0.5299312472343445,-47.34542465209961,-1.1687285900115967,21.022981643676758,0.4269309639930725,2.3660311698913574,-0.38577598333358765,0.0,0.0,0.0,0.0,0.0,0.0,0.0,-0.522734466438351,-0.5030796243193155,-0.31398809285900625,0.5847823491796788,-0.14471470164870315,0.14207618119429682,-0.34655975180938847,0.062425124953198775,0.6883021189331402,-0.07863357658120411,-1.6209565028976973,0.028201784804613283,2.2878037332428827,0.8466420852277013,0.06226373270833701,0.6884179775783729,-0.07863937525950354,-1.6210372792796082,0.028167345702647853,2.2878312372101677,0.8466366937888992,0.001871512600694136,0.00018315611797654904,0.00015093915272537258,-0.00024954162687097314,0.0001632683424959589,-0.00011131539359810069,0.001541892658295068,0.0,0.0,0.0,0.0,0.0,0.0,0.0,-0.00016139224486176607,0.00011585864523266931,-5.798678299431814e-06,-8.077638191084091e-05,-3.443910196542985e-05,2.750396728501414e-05,-5.391438802182513e-06,-0.001871512600694136,-0.00018315611797654904,-0.00015093915272537258,0.00024954162687097314,-0.0001632683424959589,0.00011131539359810069,-0.001541892658295068,0.5299312472343445,47.34542465209961,1.1687285900115967,-21.022981643676758,-0.4269309639930725,-2.3660311698913574,0.38577598333358765,0
10,0.04500436782836914,-0.5299312472343445,-47.34542465209961,-1.1687285900115967,21.022981643676758,0.4269309639930725,2.3660311698913574,-0.38577598333358765,0.0,0.0,0.0,0.0,0.0,0.0,0.0,-0.522734466438351,-0.5030796243193155,-0.31398809285900625,0.5847823491796788,-0.14471470164870315,0.14207618119429682,-0.34655975180938847,0.062425124953198775,0.6883021189331402,-0.07863357658120411,-1.6209565028976973,0.028201784804613283,2.2878037332428827,0.8466420852277013,0.06226373270833701,0.6884179775783729,-0.07863937525950354,-1.6210372792796082,0.028167345702647853,2.2878312372101677,0.8466366937888992,0.001871512600694136,0.00018315611797654904,0.00015093915272537258,-0.00024954162687097314,0.0001632683424959589,-0.00011131539359810069,0.001541892658295068,0.0,0.0,0.0,0.0,0.0,0.0,0.0,-0.00016139224486176607,0.00011585864523266931,-5.798678299431814e-06,-8.077638191084091e-05,-3.443910196542985e-05,2.750396728501414e-05,-5.391438802182513e-06,-0.001871512600694136,-0.00018315611797654904,-0.00015093915272537258,0.00024954162687097314,-0.0001632683424959589,0.00011131539359810069,-0.001541892658295068,0.5299312472343445,47.34542465209961,1.1687285900115967,-21.022981643676758,-0.4269309639930725,-2.3660311698913574,0.38577598333358765,0
11,0.050002336502075195,-0.5299312472343445,-47.34542465209961,-1.1687285900115967,21.022981643676758,0.4269309639930725,2.3660311698913574,-0.38577598333358765,0.0,0.0,0.0,0.0,0.0,0.0,0.0,-0.522734466438351,-0.5030796243193155,-0.31398809285900625,0.5847823491796788,-0.14471470164870315,0.14207618119429682,-0.34655975180938847,0.062425124953198775,0.6883021189331402,-0.07863357658120411,-1.6209565028976973,0.028201784804613283,2.2878037332428827,0.8466420852277013,0.06226373270833701,0.6884179775783729,-0.07863937525950354,-1.6210372792796082,0.028167345702647853,2.2878312372101677,0.8466366937888992,0.001871512600694136,0.00018315611797654904,0.00015093915272537258,-0.00024954162687097314,0.0001632683424959589,-0.00011131539359810069,0.001541892658295068,0.0,0.0,0.0,0.0,0.0,0.0,0.0,-0.00016139224486176607,0.00011585864523266931,-5.798678299431814e-06,-8.077638191084091e-05,-3.443910196542985e-05,2.750396728501414e-05,-5.391438802182513e-06,-0.001871512600694136,-0.00018315611797654904,-0.00015093915272537258,0.00024954162687097314,-0.0001632683424959589,0.00011131539359810069,-0.001541892658295068,0.5299312472343445,47.34542465209961,1.1687285900115967,-21.022981643676758,-0.4269309639930725,-2.3660311698913574,0.38577598333358765,0
12,0.05500173568725586,-0.4783565402030945,-47.29384994506836,-1.2163360118865967,20.999177932739258,0.4333396553993225,2.3788485527038574,-0.37204307317733765,0.0,0.0,0.0,0.0,0.0,0.0,0.0,-0.5374142424295404,-0.5172682304191152,-0.3269896300435216,0.5884946174196004,-0.1444652756333943,0.1422445964291476,-0.34665912055252834,0.06241964021052798,0.6882957955243943,-0.07863023534877808,-1.6209548324618421,0.02820106834672381,2.287802309089237,0.8466405593487951,0.06226373270833701,0.6884179775783729,-0.07863937525950354,-1.6210372792796082,0.028167345702647853,2.2878312372101677,0.8466366937888992,-0.0011301224228087794,-0.00010076639782332519,0.0009769980935579964,0.00016103081181283188,-0.0001771628523670522,-0.0005442534717461895,-0.002120500205023153,0.0,0.0,0.0,0.0,0.0,0.0,0.0,-0.0001559075021909731,0.00012218205397851456,-9.139910725458611e-06,-8.244681776603535e-05,-3.372264407595568e-05,2.8928120930693524e-05,-3.865559895954718e-06,0.0011301224228087794,0.00010076639782332519,-0.0009769980935579964,-0.00016103081181283188,0.0001771628523670522,0.0005442534717461895,0.002120500205023153,0.4783565402030945,47.29384994506836,1.2163360118865967,-20.999177932739258,-0.4333396553993225,-2.3788485527038574,0.37204307317733765,0
13,0.0599977970123291,-0.4783565402030945,-47.29384994506836,-1.2163360118865967,20.999177932739258,0.4333396553993225,2.3788485527038574,-0.37204307317733765,0.0,0.0,0.0,0.0,0.0,0.0,0.0,-0.5374142424295404,-0.5172682304191152,-0.3269896300435216,0.5884946174196004,-0.1444652756333943,0.1422445964291476,-0.34665912055252834,0.06241964021052798,0.6882957955243943,-0.07863023534877808,-1.6209548324618421,0.02820106834672381,2.287802309089237,0.8466405593487951,0.06226373270833701,0.6884179775783729,-0.07863937525950354,-1.6210372792796082,0.028167345702647853,2.2878312372101677,0.8466366937888992,-0.0011301224228087794,-0.00010076639782332519,0.0009769980935579964,0.00016103081181283188,-0.0001771628523670522,-0.0005442534717461895,-0.002120500205023153,0.0,0.0,0.0,0.0,0.0,0.0,0.0,-0.0001559075021909731,0.00012218205397851456,-9.139910725458611e-06,-8.244681776603535e-05,-3.372264407595568e-05,2.8928120930693524e-05,-3.865559895954718e-06,0.0011301224228087794,0.00010076639782332519,-0.0009769980935579964,-0.00016103081181283188,0.0001771628523670522,0.0005442534717461895,0.002120500205023153,0.4783565402030945,47.29384994506836,1.2163360118865967,-20.999177932739258,-0.4333396553993225,-2.3788485527038574,0.37204307317733765,0
14,0.06499838829040527,-0.4783565402030945,-47.21847152709961,-1.1687285900115967,20.999177932739258,0.4333396553993225,2.3458895683288574,-0.35098594427108765,0.0,0.0,0.0,0.0,0.0,0.0,0.0,-0.49524054351189206,-0.5151784937277873,-0.2964752642088674,0.5911294119268347,-0.1453865133555314,0.1423902219639494,-0.34776284973698574,0.062420898219724165,0.6882903931272745,-0.07863357647309138,-1.6209548324618421,0.02820106834669908,2.287805971198612,0.8466382196678056,0.06226373270833701,0.6884179775783729,-0.07863937525950354,-1.6210372792796082,0.028167345702647853,2.2878312372101677,0.8466366937888992,-0.0004056440868893061,-0.0005669350904202519,-1.8318750573518966e-05,0.0004479222837528217,-0.00025361042766290035,0.00044048486018155857,-0.0001036227935736067,0.0,0.0,0.0,0.0,0.0,0.0,0.0,-0.00015716551138715562,0.00012758445109839478,-5.798786412158918e-06,-8.244681776603535e-05,-3.3722644051225464e-05,2.5266011555835632e-05,-1.5258789064498401e-06,0.0004056440868893061,0.0005669350904202519,1.8318750573518966e-05,-0.0004479222837528217,0.00025361042766290035,-0.00044048486018155857,0.0001036227935736067,0.4783565402030945,47.21847152709961,1.1687285900115967,-20.999177932739258,-0.4333396553993225,-2.3458895683288574,0.35098594427108765,0
15,0.06999683380126953,-0.4783565402030945,-47.21847152709961,-1.1687285900115967,20.999177932739258,0.4333396553993225,2.3458895683288574,-0.35098594427108765,0.0,0.0,0.0,0.0,0.0,0.0,0.0,-0.49524054351189206,-0.5151784937277873,-0.2964752642088674,0.5911294119268347,-0.1453865133555314,0.1423902219639494,-0.34776284973698574,0.062420898219724165,0.6882903931272745,-0.07863357647309138,-1.6209548324618421,0.02820106834669908,2.287805971198612,0.8466382196678056,0.06226373270833701,0.6884179775783729,-0.07863937525950354,-1.6210372792796082,0.028167345702647853,2.2878312372101677,0.8466366937888992,-0.0004056440868893061,-0.0005669350904202519,-1.8318750573518966e-05,0.0004479222837528217,-0.00025361042766290035,0.00044048486018155857,-0.0001036227935736067,0.0,0.0,0.0,0.0,0.0,0.0,0.0,-0.00015716551138715562,0.00012758445109839478,-5.798786412158918e-06,-8.244681776603535e-05,-3.3722644051225464e-05,2.5266011555835632e-05,-1.5258789064498401e-06,0.0004056440868893061,0.0005669350904202519,1.8318750573518966e-05,-0.0004479222837528217,0.00025361042766290035,-0.00044048486018155857,0.0001036227935736067,0.4783565402030945,47.21847152709961,1.1687285900115967,-20.999177932739258,-0.4333396553993225,-2.3458895683288574,0.35098594427108765,0
16,0.07499885559082031,-0.5021602511405945,-47.27004623413086,-1.1925323009490967,20.975374221801758,0.4269309639930725,2.3394808769226074,-0.36471885442733765,0.0,0.0,0.0,0.0,0.0,0.0,0.0,-0.5192800880498721,-0.5263884185710204,-0.3141221896834047,0.600914902679243,-0.1457787842149657,0.14042734427105677,-0.3485317809590792,0.06242340936098211,0.6882940124043248,-0.07863190610941036,-1.620953162025987,0.028201793566795856,2.2878066832754347,0.8466397455467118,0.06226373270833701,0.6884179775783729,-0.07863937525950354,-1.6210372792796082,0.028167345702647853,2.2878312372101677,0.8466366937888992,-0.0008227267477733809,0.00019682454380336726,0.00047170494567407527,0.00012825435158382876,4.733715581421859e-05,-0.0002712535037467367,0.0004794857850768707,0.0,0.0,0.0,0.0,0.0,0.0,0.0,-0.0001596766526451021,0.00012396517404811291,-7.4691500931839405e-06,-8.411725362122979e-05,-3.4447864148003104e-05,2.455393473299594e-05,-3.0517578126776357e-06,0.0008227267477733809,-0.00019682454380336726,-0.00047170494567407527,-0.00012825435158382876,-4.733715581421859e-05,0.0002712535037467367,-0.0004794857850768707,0.5021602511405945,47.27004623413086,1.1925323009490967,-20.975374221801758,-0.4269309639930725,-2.3394808769226074,0.36471885442733765,0
17,0.07999897003173828,-0.5021602511405945,-47.27004623413086,-1.1925323009490967,20.975374221801758,0.4269309639930725,2.3394808769226074,-0.36471885442733765,0.0,0.0,0.0,0.0,0.0,0.0,0.0,-0.5192800880498721,-0.5263884185710204,-0.3141221896834047,0.600914902679243,-0.1457787842149657,0.14042734427105677,-0.3485317809590792,0.06242340936098211,0.6882940124043248,-0.07863190610941036,-1.620953162025987,0.028201793566795856,2.2878066832754347,0.8466397455467118,0.06226373270833701,0.6884179775783729,-0.07863937525950354,-1.6210372792796082,0.028167345702647853,2.2878312372101677,0.8466366937888992,-0.0008227267477733809,0.00019682454380336726,0.00047170494567407527,0.00012825435158382876,4.733715581421859e-05,-0.0002712535037467367,0.0004794857850768707,0.0,0.0,0.0,0.0,0.0,0.0,0.0,-0.0001596766526451021,0.00012396517404811291,-7.4691500931839405e-06,-8.411725362122979e-05,-3.4447864148003104e-05,2.455393473299594e-05,-3.0517578126776357e-06,0.0008227267477733809,-0.00019682454380336726,-0.00047170494567407527,-0.00012825435158382876,-4.733715581421859e-05,0.0002712535037467367,-0.0004794857850768707,0.5021602511405945,47.27004623413086,1.1925323009490967,-20.975374221801758,-0.4269309639930725,-2.3394808769226074,0.36471885442733765,0
18,0.08500194549560547,-0.5815059542655945,-47.29384994506836,-1.2163360118865967,21.022981643676758,0.4269309639930725,2.3852572441101074,-0.30978721380233765,0.0,0.0,0.0,0.0,0.0,0.0,0.0,-0.5253728375113068,-0.5264019746892652,-0.3124956076629316,0.6048356955204436,-0.14627054219844696,0.1374253536097763,-0.34903425611339145,0.06242670910648589,0.688295685729111,-0.07863023567355551,-1.6209565028976973,0.02820195566724772,2.2878015970124137,0.8466336420310868,0.06226373270833701,0.6884179775783729,-0.07863937525950354,-1.6210372792796082,0.028167345702647853,2.2878312372101677,0.8466366937888992,0.0005111486492850076,0.00011451987029336317,0.0012248922155805315,-0.0005228817430011798,0.0002762334196614324,-0.0005391352403617968,-0.0017645942945640305,0.0,0.0,0.0,0.0,0.0,0.0,0.0,-0.0001629763981488841,0.00012229184926182413,-9.139585948031437e-06,-8.077638191084091e-05,-3.460996459986668e-05,2.9640197753977304e-05,3.0517578123445688e-06,-0.0005111486492850076,-0.00011451987029336317,-0.0012248922155805315,0.0005228817430011798,-0.0002762334196614324,0.0005391352403617968,0.0017645942945640305,0.5815059542655945,47.29384994506836,1.2163360118865967,-21.022981643676758,-0.4269309639930725,-2.3852572441101074,0.30978721380233765,0
19,0.09000730514526367,-0.5815059542655945,-47.29384994506836,-1.2163360118865967,21.022981643676758,0.4269309639930725,2.3852572441101074,-0.30978721380233765,0.0,0.0,0.0,0.0,0.0,0.0,0.0,-0.5253728375113068,-0.5264019746892652,-0.3124956076629316,0.6048356955204436,-0.14627054219844696,0.1374253536097763,-0.34903425611339145,0.06242670910648589,0.688295685729111,-0.07863023567355551,-1.6209565028976973,0.02820195566724772,2.2878015970124137,0.8466336420310868,0.06226373270833701,0.6884179775783729,-0.07863937525950354,-1.6210372792796082,0.028167345702647853,2.2878312372101677,0.8466366937888992,0.0005111486492850076,0.00011451987029336317,0.0012248922155805315,-0.0005228817430011798,0.0002762334196614324,-0.0005391352403617968,-0.0017645942945640305,0.0,0.0,0.0,0.0,0.0,0.0,0.0,-0.0001629763981488841,0.00012229184926182413,-9.139585948031437e-06,-8.077638191084091e-05,-3.460996459986668e-05,2.9640197753977304e-05,3.0517578123445688e-06,-0.0005111486492850076,-0.00011451987029336317,-0.0012248922155805315,0.0005228817430011798,-0.0002762334196614324,0.0005391352403617968,0.0017645942945640305,0.5815059542655945,47.29384994506836,1.2163360118865967,-21.022981643676758,-0.4269309639930725,-2.3852572441101074,0.30978721380233765,0
20,0.09500861167907715,-0.5299312472343445,-47.34542465209961,-1.1925323009490967,20.999177932739258,0.4388328194618225,2.3724398612976074,-0.35831016302108765,0.0,0.0,0.0,0.0,0.0,0.0,0.0,-0.5454300425889602,-0.5337612551366605,-0.32012170501853116,0.6074365942553517,-0.14614359414260572,0.14129649357995436,-0.34883503510449954,0.062424482425305225,0.688299302438875,-0.07862977527944644,-1.6209548324618421,0.028200457996125833,2.28780302116606,0.8466390334698889,0.06226373270833701,0.6884179775783729,-0.07863937525950354,-1.6210372792796082,0.028167345702647853,2.2878312372101677,0.8466366937888992,-0.0014099838041150517,-0.00013666966762948426,-0.00034546734288764354,0.0003865776778377601,-0.0004400989444531593,-6.754937328338497e-05,0.0006668424785077165,0.0,0.0,0.0,0.0,0.0,0.0,0.0,-0.00016074971696821566,0.00011867513949781472,-9.59998005710394e-06,-8.244681776603535e-05,-3.311229347797984e-05,2.8216044107853833e-05,-2.339680989726922e-06,0.0014099838041150517,0.00013666966762948426,0.00034546734288764354,-0.0003865776778377601,0.0004400989444531593,6.754937328338497e-05,-0.0006668424785077165,0.5299312472343445,47.34542465209961,1.1925323009490967,-20.999177932739258,-0.4388328194618225,-2.3724398612976074,0.35831016302108765,0
21,0.10001802444458008,-0.5299312472343445,-47.34542465209961,-1.1925323009490967,20.999177932739258,0.4388328194618225,2.3724398612976074,-0.35831016302108765,0.0,0.0,0.0,0.0,0.0,0.0,0.0,-0.5454300425889602,-0.5337612551366605,-0.32012170501853116,0.6074365942553517,-0.14614359414260572,0.14129649357995436,-0.34883503510449954,0.062424482425305225,0.688299302438875,-0.07862977527944644,-1.6209548324618421,0.028200457996125833,2.28780302116606,0.8466390334698889,0.06226373270833701,0.6884179775783729,-0.07863937525950354,-1.6210372792796082,0.028167345702647853,2.2878312372101677,0.8466366937888992,-0.0014099838041150517,-0.00013666966762948426,-0.00034546734288764354,0.0003865776778377601,-0.0004400989444531593,-6.754937328338497e-05,0.0006668424785077165,0.0,0.0,0.0,0.0,0.0,0.0,0.0,-0.00016074971696821566,0.00011867513949781472,-9.59998005710394e-06,-8.244681776603535e-05,-3.311229347797984e-05,2.8216044107853833e-05,-2.339680989726922e-06,0.0014099838041150517,0.00013666966762948426,0.00034546734288764354,-0.0003865776778377601,0.0004400989444531593,6.754937328338497e-05,-0.0006668424785077165,0.5299312472343445,47.34542465209961,1.1925323009490967,-20.999177932739258,-0.4388328194618225,-2.3724398612976074,0.35831016302108765,0
22,0.10500168800354004,-0.5299312472343445,-47.34542465209961,-1.1925323009490967,20.999177932739258,0.4388328194618225,2.3724398612976074,-0.35831016302108765,0.0,0.0,0.0,0.0,0.0,0.0,0.0,-0.5454300425889602,-0.5337612551366605,-0.32012170501853116,0.6074365942553517,-0.14614359414260572,0.14129649357995436,-0.34883503510449954,0.062424482425305225,0.688299302438875,-0.07862977527944644,-1.6209548324618421,0.028200457996125833,2.28780302116606,0.8466390334698889,0.06226373270833701,0.6884179775783729,-0.07863937525950354,-1.6210372792796082,0.028167345702647853,2.2878312372101677,0.8466366937888992,-0.0014099838041150517,-0.00013666966762948426,-0.00034546734288764354,0.0003865776778377601,-0.0004400989444531593,-6.754937328338497e-05,0.0006668424785077165,0.0,0.0,0.0,0.0,0.0,0.0,0.0,-0.00016074971696821566,0.00011867513949781472,-9.59998005710394e-06,-8.244681776603535e-05,-3.311229347797984e-05,2.8216044107853833e-05,-2.339680989726922e-06,0.0014099838041150517,0.00013666966762948426,0.00034546734288764354,-0.0003865776778377601,0.0004400989444531593,6.754937328338497e-05,-0.0006668424785077165,0.5299312472343445,47.34542465209961,1.1925323009490967,-20.999177932739258,-0.4388328194618225,-2.3724398612976074,0.35831016302108765,0
23,0.11000323295593262,-0.5299312472343445,-47.34542465209961,-1.1925323009490967,20.999177932739258,0.4388328194618225,2.3724398612976074,-0.35831016302108765,0.0,0.0,0.0,0.0,0.0,0.0,0.0,-0.5454300425889602,-0.5337612551366605,-0.32012170501853116,0.6074365942553517,-0.14614359414260572,0.14129649357995436,-0.34883503510449954,0.062424482425305225,0.688299302438875,-0.07862977527944644,-1.6209548324618421,0.028200457996125833,2.28780302116606,0.8466390334698889,0.06226373270833701,0.6884179775783729,-0.07863937525950354,-1.6210372792796082,0.028167345702647853,2.2878312372101677,0.8466366937888992,-0.0014099838041150517,-0.00013666966762948426,-0.00034546734288764354,0.0003865776778377601,-0.0004400989444531593,-6.754937328338497e-05,0.0006668424785077165,0.0,0.0,0.0,0.0,0.0,0.0,0.0,-0.00016074971696821566,0.00011867513949781472,-9.59998005710394e-06,-8.244681776603535e-05,-3.311229347797984e-05,2.8216044107853833e-05,-2.339680989726922e-06,0.0014099838041150517,0.00013666966762948426,0.00034546734288764354,-0.0003865776778377601,0.0004400989444531593,6.754937328338497e-05,-0.0006668424785077165,0.5299312472343445,47.34542465209961,1.1925323009490967,-20.999177932739258,-0.4388328194618225,-2.3724398612976074,0.35831016302108765,0
24,0.11500000953674316,-0.5537349581718445,-47.34542465209961,-1.2163360118865967,21.022981643676758,0.4269309639930725,2.3596224784851074,-0.31711143255233765,0.0,0.0,0.0,0.0,0.0,0.0,0.0,-0.5276081555569089,-0.5165477886559665,-0.30617501050504753,0.5938327044458519,-0.146794770358868,0.14157755961834184,-0.3475530153415506,0.062427058194833365,0.6882993021178682,-0.07862997262773051,-1.6209565028976973,0.02820284502870507,2.2878044453197055,0.8466344558331701,0.06226373270833701,0.6884179775783729,-0.07863937525950354,-1.6210372792796082,0.028167345702647853,2.2878312372101677,0.8466366937888992,5.465419210077438e-05,-0.000308851775344537,0.00020352455728035143,-0.0005383491051161575,0.0001111581270297969,-0.00021419456044288667,-0.0013348005736281976,0.0,0.0,0.0,0.0,0.0,0.0,0.0,-0.00016332548649635598,0.00011867546050470246,-9.402631773028358e-06,-8.077638191084091e-05,-3.5499326057217284e-05,2.679189046217445e-05,2.2379557290674867e-06,-5.465419210077438e-05,0.000308851775344537,-0.00020352455728035143,0.0005383491051161575,-0.0001111581270297969,0.00021419456044288667,0.0013348005736281976,0.5537349581718445,47.34542465209961,1.2163360118865967,-21.022981643676758,-0.4269309639930725,-2.3596224784851074,0.31711143255233765,0
25,0.11999797821044922,-0.5537349581718445,-47.34542465209961,-1.2163360118865967,21.022981643676758,0.4269309639930725,2.3596224784851074,-0.31711143255233765,0.0,0.0,0.0,0.0,0.0,0.0,0.0,-0.5276081555569089,-0.5165477886559665,-0.30617501050504753,0.5938327044458519,-0.146794770358868,0.14157755961834184,-0.3475530153415506,0.062427058194833365,0.6882993021178682,-0.07862997262773051,-1.6209565028976973,0.02820284502870507,2.2878044453197055,0.8466344558331701,0.06226373270833701,0.6884179775783729,-0.07863937525950354,-1.6210372792796082,0.028167345702647853,2.2878312372101677,0.8466366937888992,5.465419210077438e-05,-0.000308851775344537,0.00020352455728035143,-0.0005383491051161575,0.0001111581270297969,-0.00021419456044288667,-0.0013348005736281976,0.0,0.0,0.0,0.0,0.0,0.0,0.0,-0.00016332548649635598,0.00011867546050470246,-9.402631773028358e-06,-8.077638191084091e-05,-3.5499326057217284e-05,2.679189046217445e-05,2.2379557290674867e-06,-5.465419210077438e-05,0.000308851775344537,-0.00020352455728035143,0.0005383491051161575,-0.0001111581270297969,0.00021419456044288667,0.0013348005736281976,0.5537349581718445,47.34542465209961,1.2163360118865967,-21.022981643676758,-0.4269309639930725,-2.3596224784851074,0.31711143255233765,0
26,0.1249995231628418,-0.5299312472343445,-47.24624252319336,-1.1925323009490967,21.046785354614258,0.4214377999305725,2.3852572441101074,-0.33084434270858765,0.0,0.0,0.0,0.0,0.0,0.0,0.0,-0.5349671793225512,-0.5054008023791405,-0.3133273145820626,0.5851191736780502,-0.14772667416839366,0.14095306836041346,-0.3470194381940485,0.062425440088759894,0.6882923680758469,-0.07863190517066942,-1.6209581736606014,0.028202390777087735,2.2878015970124137,0.8466359817120764,0.06226373270833701,0.6884179775783729,-0.07863937525950354,-1.6210372792796082,0.028167345702647853,2.2878312372101677,0.8466366937888992,-0.0004060840392568076,-0.0019038361253890359,-3.485813954893282e-05,-0.001109528481225208,0.00027609593632822813,-0.000309263353501065,-0.0009193129820962104,0.0,0.0,0.0,0.0,0.0,0.0,0.0,-0.00016170738042288468,0.00012560950252593628,-7.470088834116151e-06,-7.910561900681401e-05,-3.504507443988225e-05,2.9640197753977304e-05,7.120768227286689e-07,0.0004060840392568076,0.0019038361253890359,3.485813954893282e-05,0.001109528481225208,-0.00027609593632822813,0.000309263353501065,0.0009193129820962104,0.5299312472343445,47.24624252319336,1.1925323009490967,-21.046785354614258,-0.4214377999305725,-2.3852572441101074,0.33084434270858765,0
27,0.13000130653381348,-0.5299312472343445,-47.24624252319336,-1.1925323009490967,21.046785354614258,0.4214377999305725,2.3852572441101074,-0.33084434270858765,0.0,0.0,0.0,0.0,0.0,0.0,0.0,-0.5349671793225512,-0.5054008023791405,-0.3133273145820626,0.5851191736780502,-0.14772667416839366,0.14095306836041346,-0.3470194381940485,0.062425440088759894,0.6882923680758469,-0.07863190517066942,-1.6209581736606014,0.028202390777087735,2.2878015970124137,0.8466359817120764,0.06226373270833701,0.6884179775783729,-0.07863937525950354,-1.6210372792796082,0.028167345702647853,2.2878312372101677,0.8466366937888992,-0.0004060840392568076,-0.0019038361253890359,-3.485813954893282e-05,-0.001109528481225208,0.00027609593632822813,-0.000309263353501065,-0.0009193129820962104,0.0,0.0,0.0,0.0,0.0,0.0,0.0,-0.00016170738042288468,0.00012560950252593628,-7.470088834116151e-06,-7.910561900681401e-05,-3.504507443988225e-05,2.9640197753977304e-05,7.120768227286689e-07,0.0004060840392568076,0.0019038361253890359,3.485813954893282e-05,0.001109528481225208,-0.00027609593632822813,0.000309263353501065,0.0009193129820962104,0.5299312472343445,47.24624252319336,1.1925323009490967,-21.046785354614258,-0.4214377999305725,-2.3852572441101074,0.33084434270858765,0
28,0.13617587089538574,-0.4783565402030945,-47.24624252319336,-1.1925323009490967,20.999177932739258,0.4388328194618225,2.3394808769226074,-0.35831016302108765,0.0,0.0,0.0,0.0,0.0,0.0,0.0,-0.5211776400982382,-0.504428511815617,-0.30516606718479394,0.5839005879327439,-0.1484611432913247,0.14279943995393254,-0.3477385554314983,0.06242175677228564,0.6882923419686168,-0.07862977527944114,-1.620954832461844,0.02820045799513659,2.2878066832754347,0.8466390334698889,0.06226373270833701,0.6884179775783729,-0.07863937525950354,-1.6210372792796082,0.028167345702647853,2.2878312372101677,0.8466366937888992,-0.000444588351823199,-0.0007040669739359753,0.00033988511935898076,-0.00047459769661233937,-0.00038987215406145623,0.00037587801928770447,0.0005731520371697555,0.0,0.0,0.0,0.0,0.0,0.0,0.0,-0.00015802406394863078,0.00012563560975609178,-9.599980062405256e-06,-8.2446817764259e-05,-3.311229248873643e-05,2.455393473299594e-05,-2.339680989726922e-06,0.000444588351823199,0.0007040669739359753,-0.00033988511935898076,0.00047459769661233937,0.00038987215406145623,-0.00037587801928770447,-0.0005731520371697555,0.4783565402030945,47.24624252319336,1.1925323009490967,-20.999177932739258,-0.4388328194618225,-2.3394808769226074,0.35831016302108765,0
29,0.13999581336975098,-0.4783565402030945,-47.24624252319336,-1.1925323009490967,20.999177932739258,0.4388328194618225,2.3394808769226074,-0.35831016302108765,0.0,0.0,0.0,0.0,0.0,0.0,0.0,-0.5211776400982382,-0.504428511815617,-0.30516606718479394,0.5839005879327439,-0.1484611432913247,0.14279943995393254,-0.3477385554314983,0.06242175677228564,0.6882923419686168,-0.07862977527944114,-1.620954832461844,0.02820045799513659,2.2878066832754347,0.8466390334698889,0.06226373270833701,0.6884179775783729,-0.07863937525950354,-1.6210372792796082,0.028167345702647853,2.2878312372101677,0.8466366937888992,-0.000444588351823199,-0.0007040669739359753,0.00033988511935898076,-0.00047459769661233937,-0.00038987215406145623,0.00037587801928770447,0.0005731520371697555,0.0,0.0,0.0,0.0,0.0,0.0,0.0,-0.00015802406394863078,0.00012563560975609178,-9.599980062405256e-06,-8.2446817764259e-05,-3.311229248873643e-05,2.455393473299594e-05,-2.339680989726922e-06,0.000444588351823199,0.0007040669739359753,-0.00033988511935898076,0.00047459769661233937,0.00038987215406145623,-0.00037587801928770447,-0.0005731520371697555,0.4783565402030945,47.24624252319336,1.1925323009490967,-20.999177932739258,-0.4388328194618225,-2.3394808769226074,0.35831016302108765,0
30,0.14502239227294922,-0.4505855441093445,-47.24624252319336,-1.1409575939178467,20.999177932739258,0.4269309639930725,2.3458895683288574,-0.36471885442733765,0.0,0.0,0.0,0.0,0.0,0.0,0.0,-0.5331071643490567,-0.5150473372018242,-0.31815402362550266,0.5929966772730586,-0.14819137618506056,0.14061677766565062,-0.34815277679701423,0.06241989566202856,0.6882923419684694,-0.07863331562413942,-1.6209548324618421,0.02820284940979635,2.287805971198612,0.8466365666323238,0.06226373270833701,0.6884179775783729,-0.07863937525950354,-1.6210372792796082,0.028167345702647853,2.2878312372101677,0.8466366937888992,-0.001130480149985982,-0.00026638666824028203,-0.0005804690013805448,2.98272406267025e-05,0.00011735718439254578,-0.0002900609121449326,0.0007693081276698831,0.0,0.0,0.0,0.0,0.0,0.0,0.0,-0.0001561629536915507,0.00012563560990341838,-6.059635364125127e-06,-8.244681776603535e-05,-3.550370714849871e-05,2.5266011555835632e-05,1.2715657538020508e-07,0.001130480149985982,0.00026638666824028203,0.0005804690013805448,-2.98272406267025e-05,-0.00011735718439254578,0.0002900609121449326,-0.0007693081276698831,0.4505855441093445,47.24624252319336,1.1409575939178467,-20.999177932739258,-0.4269309639930725,-2.3458895683288574,0.36471885442733765,0
31,0.15000486373901367,-0.4505855441093445,-47.24624252319336,-1.1409575939178467,20.999177932739258,0.4269309639930725,2.3458895683288574,-0.36471885442733765,0.0,0.0,0.0,0.0,0.0,0.0,0.0,-0.5331071643490567,-0.5150473372018242,-0.31815402362550266,0.5929966772730586,-0.14819137618506056,0.14061677766565062,-0.34815277679701423,0.06241989566202856,0.6882923419684694,-0.07863331562413942,-1.6209548324618421,0.02820284940979635,2.287805971198612,0.8466365666323238,0.06226373270833701,0.6884179775783729,-0.07863937525950354,-1.6210372792796082,0.028167345702647853,2.2878312372101677,0.8466366937888992,-0.001130480149985982,-0.00026638666824028203,-0.0005804690013805448,2.98272406267025e-05,0.00011735718439254578,-0.0002900609121449326,0.0007693081276698831,0.0,0.0,0.0,0.0,0.0,0.0,0.0,-0.0001561629536915507,0.00012563560990341838,-6.059635364125127e-06,-8.244681776603535e-05,-3.550370714849871e-05,2.5266011555835632e-05,1.2715657538020508e-07,0.001130480149985982,0.00026638666824028203,0.0005804690013805448,-2.98272406267025e-05,-0.00011735718439254578,0.0002900609121449326,-0.0007693081276698831,0.4505855441093445,47.24624252319336,1.1409575939178467,-20.999177932739258,-0.4269309639930725,-2.3458895683288574,0.36471885442733765,0
32,0.15592122077941895,-0.5021602511405945,-47.31765365600586,-1.1409575939178467,20.999177932739258,0.4150291085243225,2.3724398612976074,-0.36471885442733765,0.0,0.0,0.0,0.0,0.0,0.0,0.0,-0.534743989137296,-0.5323471952334616,-0.3200332408040866,0.6049773450147325,-0.14763185327886238,0.13962569963359345,-0.34816911826405583,0.06242137927673968,0.6882994683302688,-0.07863481508222687,-1.6209548324618421,0.028203102853918898,2.28780302116606,0.8466397455407302,0.06226373270833701,0.6884179775783729,-0.07863937525950354,-1.6210372792796082,0.028167345702647853,2.2878312372101677,0.8466366937888992,-6.463454908692657e-05,0.0003086965728720533,-0.0005208341607867065,-5.302882681985765e-05,0.000574098593214469,-5.207043259907537e-05,0.0003408956358910686,0.0,0.0,0.0,0.0,0.0,0.0,0.0,-0.00015764656840266955,0.0001185092481040817,-4.560177276666244e-06,-8.244681776603535e-05,-3.5757151271045146e-05,2.8216044107853833e-05,-3.0517518310180236e-06,6.463454908692657e-05,-0.0003086965728720533,0.0005208341607867065,5.302882681985765e-05,-0.000574098593214469,5.207043259907537e-05,-0.0003408956358910686,0.5021602511405945,47.31765365600586,1.1409575939178467,-20.999177932739258,-0.4150291085243225,-2.3724398612976074,0.36471885442733765,0
33,0.15999984741210938,-0.5021602511405945,-47.31765365600586,-1.1409575939178467,20.999177932739258,0.4150291085243225,2.3724398612976074,-0.36471885442733765,0.0,0.0,0.0,0.0,0.0,0.0,0.0,-0.534743989137296,-0.5323471952334616,-0.3200332408040866,0.6049773450147325,-0.14763185327886238,0.13962569963359345,-0.34816911826405583,0.06242137927673968,0.6882994683302688,-0.07863481508222687,-1.6209548324618421,0.028203102853918898,2.28780302116606,0.8466397455407302,0.06226373270833701,0.6884179775783729,-0.07863937525950354,-1.6210372792796082,0.028167345702647853,2.2878312372101677,0.8466366937888992,-6.463454908692657e-05,0.0003086965728720533,-0.0005208341607867065,-5.302882681985765e-05,0.000574098593214469,-5.207043259907537e-05,0.0003408956358910686,0.0,0.0,0.0,0.0,0.0,0.0,0.0,-0.00015764656840266955,0.0001185092481040817,-4.560177276666244e-06,-8.244681776603535e-05,-3.5757151271045146e-05,2.8216044107853833e-05,-3.0517518310180236e-06,6.463454908692657e-05,-0.0003086965728720533,0.0005208341607867065,5.302882681985765e-05,-0.000574098593214469,5.207043259907537e-05,-0.0003408956358910686,0.5021602511405945,47.31765365600586,1.1409575939178467,-20.999177932739258,-0.4150291085243225,-2.3724398612976074,0.36471885442733765,0
34,0.16500186920166016,-0.4783565402030945,-47.34542465209961,-1.1925323009490967,21.022981643676758,0.4333396553993225,2.3660311698913574,-0.33725303411483765,0.0,0.0,0.0,0.0,0.0,0.0,0.0,-0.5352865559939448,-0.5182897038185488,-0.3192151626185348,0.5980003902144052,-0.14726090363228042,0.14076393978637453,-0.34902109069276355,0.06241970914925011,0.6882993021218462,-0.07862903575943946,-1.6209565028976973,0.028201068346699082,2.2878037332428827,0.8466366937888993,0.06226373270833701,0.6884179775783729,-0.07863937525950354,-1.6210372792796082,0.028167345702647853,2.2878312372101677,0.8466366937888992,-0.0009780070279285897,0.0006966520416284829,6.716710539026368e-05,-0.00030361940620429105,9.949131761528681e-05,-0.00029874936788118445,0.00015918263422706638,0.0,0.0,0.0,0.0,0.0,0.0,0.0,-0.0001559764409130998,0.00011867545652666234,-1.033950006408546e-05,-8.077638191084091e-05,-3.3722644051228934e-05,2.750396728501414e-05,-1.1102230246251565e-16,0.0009780070279285897,-0.0006966520416284829,-6.716710539026368e-05,0.00030361940620429105,-9.949131761528681e-05,0.00029874936788118445,-0.00015918263422706638,0.4783565402030945,47.34542465209961,1.1925323009490967,-21.022981643676758,-0.4333396553993225,-2.3660311698913574,0.33725303411483765,0
35,0.1700000762939453,-0.4783565402030945,-47.34542465209961,-1.1925323009490967,21.022981643676758,0.4333396553993225,2.3660311698913574,-0.33725303411483765,0.0,0.0,0.0,0.0,0.0,0.0,0.0,-0.5352865559939448,-0.5182897038185488,-0.3192151626185348,0.5980003902144052,-0.14726090363228042,0.14076393978637453,-0.34902109069276355,0.06241970914925011,0.6882993021218462,-0.07862903575943946,-1.6209565028976973,0.028201068346699082,2.2878037332428827,0.8466366937888993,0.06226373270833701,0.6884179775783729,-0.07863937525950354,-1.6210372792796082,0.028167345702647853,2.2878312372101677,0.8466366937888992,-0.0009780070279285897,0.0006966520416284829,6.716710539026368e-05,-0.00030361940620429105,9.949131761528681e-05,-0.00029874936788118445,0.00015918263422706638,0.0,0.0,0.0,0.0,0.0,0.0,0.0,-0.0001559764409130998,0.00011867545652666234,-1.033950006408546e-05,-8.077638191084091e-05,-3.3722644051228934e-05,2.750396728501414e-05,-1.1102230246251565e-16,0.0009780070279285897,-0.0006966520416284829,-6.716710539026368e-05,0.00030361940620429105,-9.949131761528681e-05,0.00029874936788118445,-0.00015918263422706638,0.4783565402030945,47.34542465209961,1.1925323009490967,-21.022981643676758,-0.4333396553993225,-2.3660311698913574,0.33725303411483765,0
36,0.17499637603759766,-0.5537349581718445,-47.39303207397461,-1.2163360118865967,21.022981643676758,0.4333396553993225,2.3852572441101074,-0.37204307317733765,0.0,0.0,0.0,0.0,0.0,0.0,0.0,-0.516005053647021,-0.5176543766730166,-0.3070858032011257,0.5970658269989709,-0.14672063254790296,0.14123142498277455,-0.3456835829356524,0.06242500827433408,0.6883027210263828,-0.07863014702914486,-1.6209565028976973,0.02820106834669908,2.2878015970124137,0.8466405593487951,0.06226373270833701,0.6884179775783729,-0.07863937525950354,-1.6210372792796082,0.028167345702647853,2.2878312372101677,0.8466366937888992,0.0005731592404938922,0.0012414848762281815,0.001100067341624231,-0.00023886501637295323,1.3266415472898213e-07,-0.0008344774504878237,0.0008308724451891238,0.0,0.0,0.0,0.0,0.0,0.0,0.0,-0.00016127556599707105,0.00011525655199007279,-9.228230358676592e-06,-8.077638191084091e-05,-3.3722644051225464e-05,2.9640197753977304e-05,-3.865559895954718e-06,-0.0005731592404938922,-0.0012414848762281815,-0.001100067341624231,0.00023886501637295323,-1.3266415472898213e-07,0.0008344774504878237,-0.0008308724451891238,0.5537349581718445,47.39303207397461,1.2163360118865967,-21.022981643676758,-0.4333396553993225,-2.3852572441101074,0.37204307317733765,0
37,0.17999839782714844,-0.5537349581718445,-47.39303207397461,-1.2163360118865967,21.022981643676758,0.4333396553993225,2.3852572441101074,-0.37204307317733765,0.0,0.0,0.0,0.0,0.0,0.0,0.0,-0.516005053647021,-0.5176543766730166,-0.3070858032011257,0.5970658269989709,-0.14672063254790296,0.14123142498277455,-0.3456835829356524,0.06242500827433408,0.6883027210263828,-0.07863014702914486,-1.6209565028976973,0.02820106834669908,2.2878015970124137,0.8466405593487951,0.06226373270833701,0.6884179775783729,-0.07863937525950354,-1.6210372792796082,0.028167345702647853,2.2878312372101677,0.8466366937888992,0.0005731592404938922,0.0012414848762281815,0.001100067341624231,-0.00023886501637295323,1.3266415472898213e-07,-0.0008344774504878237,0.0008308724451891238,0.0,0.0,0.0,0.0,0.0,0.0,0.0,-0.00016127556599707105,0.00011525655199007279,-9.228230358676592e-06,-8.077638191084091e-05,-3.3722644051225464e-05,2.9640197753977304e-05,-3.865559895954718e-06,-0.0005731592404938922,-0.0012414848762281815,-0.001100067341624231,0.00023886501637295323,-1.3266415472898213e-07,0.0008344774504878237,-0.0008308724451891238,0.5537349581718445,47.39303207397461,1.2163360118865967,-21.022981643676758,-0.4333396553993225,-2.3852572441101074,0.37204307317733765,0
38,0.18500041961669922,-0.5537349581718445,-47.36922836303711,-1.1925323009490967,20.975374221801758,0.4333396553993225,2.3660311698913574,-0.33725303411483765,0.0,0.0,0.0,0.0,0.0,0.0,0.0,-0.5377264897931161,-0.5076284058399195,-0.3209268204180533,0.5890312434104586,-0.146383015782935,0.14211198590627436,-0.34705154427972645,0.06242690053040741,0.6883009728751546,-0.07863190614499677,-1.620953162025987,0.02820106834669908,2.2878037332428827,0.8466366937888993,0.06226373270833701,0.6884179775783729,-0.07863937525950354,-1.6210372792796082,0.028167345702647853,2.2878312372101677,0.8466366937888992,0.00012828148320453216,0.0010679428090165277,0.00013294919971663891,0.0008309240847778355,9.757559820752288e-05,0.00015852856835615867,-0.00042132848797516196,0.0,0.0,0.0,0.0,0.0,0.0,0.0,-0.0001631678220704036,0.00011700470321829304,-7.469114506775121e-06,-8.411725362122979e-05,-3.3722644051225464e-05,2.750396728501414e-05,-1.1102230246251565e-16,-0.00012828148320453216,-0.0010679428090165277,-0.00013294919971663891,-0.0008309240847778355,-9.757559820752288e-05,-0.00015852856835615867,0.00042132848797516196,0.5537349581718445,47.36922836303711,1.1925323009490967,-20.975374221801758,-0.4333396553993225,-2.3660311698913574,0.33725303411483765,0
39,0.19000792503356934,-0.5537349581718445,-47.36922836303711,-1.1925323009490967,20.975374221801758,0.4333396553993225,2.3660311698913574,-0.33725303411483765,0.0,0.0,0.0,0.0,0.0,0.0,0.0,-0.5377264897931161,-0.5076284058399195,-0.3209268204180533,0.5890312434104586,-0.146383015782935,0.14211198590627436,-0.34705154427972645,0.06242690053040741,0.6883009728751546,-0.07863190614499677,-1.620953162025987,0.02820106834669908,2.2878037332428827,0.8466366937888993,0.06226373270833701,0.6884179775783729,-0.07863937525950354,-1.6210372792796082,0.028167345702647853,2.2878312372101677,0.8466366937888992,0.00012828148320453216,0.0010679428090165277,0.00013294919971663891,0.0008309240847778355,9.757559820752288e-05,0.00015852856835615867,-0.00042132848797516196,0.0,0.0,0.0,0.0,0.0,0.0,0.0,-0.0001631678220704036,0.00011700470321829304,-7.469114506775121e-06,-8.411725362122979e-05,-3.3722644051225464e-05,2.750396728501414e-05,-1.1102230246251565e-16,-0.00012828148320453216,-0.0010679428090165277,-0.00013294919971663891,-0.0008309240847778355,-9.757559820752288e-05,-0.00015852856835615867,0.00042132848797516196,0.5537349581718445,47.36922836303711,1.1925323009490967,-20.975374221801758,-0.4333396553993225,-2.3660311698913574,0.33725303411483765,0
40,0.1950056552886963,-0.5537349581718445,-47.27004623413086,-1.1925323009490967,20.999177932739258,0.4333396553993225,2.3522982597351074,-0.35831016302108765,0.0,0.0,0.0,0.0,0.0,0.0,0.0,-0.5265083306433611,-0.508405154517283,-0.31172727629339597,0.5878323025038172,-0.14640763183078312,0.14314087037590398,-0.34726597439384416,0.06242710696705268,0.6882940904411324,-0.07863190603723816,-1.6209548324618421,0.028204262162248292,2.287802080207401,0.8466390334698889,0.06226373270833701,0.6884179775783729,-0.07863937525950354,-1.6210372792796082,0.028167345702647853,2.2878312372101677,0.8466366937888992,0.000246343027718343,-0.0004325322445801674,-0.0003450878177028047,0.000215851838032486,-0.00010691901795587463,-4.169996533350086e-05,0.0005177174367816217,0.0,0.0,0.0,0.0,0.0,0.0,0.0,-0.0001633742587156678,0.00012388713724043043,-7.469222265382713e-06,-8.244681776603535e-05,-3.691645960043899e-05,2.9157002766844187e-05,-2.339680989726922e-06,-0.000246343027718343,0.0004325322445801674,0.0003450878177028047,-0.000215851838032486,0.00010691901795587463,4.169996533350086e-05,-0.0005177174367816217,0.5537349581718445,47.27004623413086,1.1925323009490967,-20.999177932739258,-0.4333396553993225,-2.3522982597351074,0.35831016302108765,0
41,0.20002269744873047,-0.5537349581718445,-47.27004623413086,-1.1925323009490967,20.999177932739258,0.4333396553993225,2.3522982597351074,-0.35831016302108765,0.0,0.0,0.0,0.0,0.0,0.0,0.0,-0.5265083306433611,-0.508405154517283,-0.31172727629339597,0.5878323025038172,-0.14640763183078312,0.14314087037590398,-0.34726597439384416,0.06242710696705268,0.6882940904411324,-0.07863190603723816,-1.6209548324618421,0.028204262162248292,2.287802080207401,0.8466390334698889,0.06226373270833701,0.6884179775783729,-0.07863937525950354,-1.6210372792796082,0.028167345702647853,2.2878312372101677,0.8466366937888992,0.000246343027718343,-0.0004325322445801674,-0.0003450878177028047,0.000215851838032486,-0.00010691901795587463,-4.169996533350086e-05,0.0005177174367816217,0.0,0.0,0.0,0.0,0.0,0.0,0.0,-0.0001633742587156678,0.00012388713724043043,-7.469222265382713e-06,-8.244681776603535e-05,-3.691645960043899e-05,2.9157002766844187e-05,-2.339680989726922e-06,-0.000246343027718343,0.0004325322445801674,0.0003450878177028047,-0.000215851838032486,0.00010691901795587463,4.169996533350086e-05,-0.0005177174367816217,0.5537349581718445,47.27004623413086,1.1925323009490967,-20.999177932739258,-0.4333396553993225,-2.3522982597351074,0.35831016302108765,0
42,0.20611333847045898,-0.5537349581718445,-47.27004623413086,-1.1925323009490967,20.999177932739258,0.4333396553993225,2.3522982597351074,-0.35831016302108765,0.0,0.0,0.0,0.0,0.0,0.0,0.0,-0.5265083306433611,-0.508405154517283,-0.31172727629339597,0.5878323025038172,-0.14640763183078312,0.14314087037590398,-0.34726597439384416,0.06242710696705268,0.6882940904411324,-0.07863190603723816,-1.6209548324618421,0.028204262162248292,2.287802080207401,0.8466390334698889,0.06226373270833701,0.6884179775783729,-0.07863937525950354,-1.6210372792796082,0.028167345702647853,2.2878312372101677,0.8466366937888992,0.000246343027718343,-0.0004325322445801674,-0.0003450878177028047,0.000215851838032486,-0.00010691901795587463,-4.169996533350086e-05,0.0005177174367816217,0.0,0.0,0.0,0.0,0.0,0.0,0.0,-0.0001633742587156678,0.00012388713724043043,-7.469222265382713e-06,-8.244681776603535e-05,-3.691645960043899e-05,2.9157002766844187e-05,-2.339680989726922e-06,-0.000246343027718343,0.0004325322445801674,0.0003450878177028047,-0.000215851838032486,0.00010691901795587463,4.169996533350086e-05,-0.0005177174367816217,0.5537349581718445,47.27004623413086,1.1925323009490967,-20.999177932739258,-0.4333396553993225,-2.3522982597351074,0.35831016302108765,0
43,0.20999932289123535,-0.5537349581718445,-47.27004623413086,-1.1925323009490967,20.999177932739258,0.4333396553993225,2.3522982597351074,-0.35831016302108765,0.0,0.0,0.0,0.0,0.0,0.0,0.0,-0.5265083306433611,-0.508405154517283,-0.31172727629339597,0.5878323025038172,-0.14640763183078312,0.14314087037590398,-0.34726597439384416,0.06242710696705268,0.6882940904411324,-0.07863190603723816,-1.6209548324618421,0.028204262162248292,2.287802080207401,0.8466390334698889,0.06226373270833701,0.6884179775783729,-0.07863937525950354,-1.6210372792796082,0.028167345702647853,2.2878312372101677,0.8466366937888992,0.000246343027718343,-0.0004325322445801674,-0.0003450878177028047,0.000215851838032486,-0.00010691901795587463,-4.169996533350086e-05,0.0005177174367816217,0.0,0.0,0.0,0.0,0.0,0.0,0.0,-0.0001633742587156678,0.00012388713724043043,-7.469222265382713e-06,-8.244681776603535e-05,-3.691645960043899e-05,2.9157002766844187e-05,-2.339680989726922e-06,-0.000246343027718343,0.0004325322445801674,0.0003450878177028047,-0.000215851838032486,0.00010691901795587463,4.169996533350086e-05,-0.0005177174367816217,0.5537349581718445,47.27004623413086,1.1925323009490967,-20.999177932739258,-0.4333396553993225,-2.3522982597351074,0.35831016302108765,0
44,0.21500062942504883,-0.5537349581718445,-47.27004623413086,-1.1687285900115967,20.999177932739258,0.4214377999305725,2.3458895683288574,-0.34457725286483765,0.0,0.0,0.0,0.0,0.0,0.0,0.0,-0.521468922113477,-0.5147367133763344,-0.30838046898824095,0.5933075388234291,-0.14639499852863885,0.14261389858049345,-0.34884400410262034,0.062426112036164876,0.6882942724085656,-0.07863357658135202,-1.6209548324618421,0.028202404152737726,2.2878059711806666,0.8466375075909827,0.06226373270833701,0.6884179775783729,-0.07863937525950354,-1.6210372792796082,0.028167345702647853,2.2878312372101677,0.8466366937888992,2.5988360568245474e-05,0.00010057395156918341,-0.0004243543488878257,0.0003289848476404926,0.000363568410917071,0.0005041187710242477,-0.0007748127528466967,0.0,0.0,0.0,0.0,0.0,0.0,0.0,-0.00016237932782786624,0.00012370516980730883,-5.798678151522352e-06,-8.244681776603535e-05,-3.505845008987263e-05,2.5266029501036513e-05,-8.138020834991266e-07,-2.5988360568245474e-05,-0.00010057395156918341,0.0004243543488878257,-0.0003289848476404926,-0.000363568410917071,-0.0005041187710242477,0.0007748127528466967,0.5537349581718445,47.27004623413086,1.1687285900115967,-20.999177932739258,-0.4214377999305725,-2.3458895683288574,0.34457725286483765,0
45,0.2199995517730713,-0.5537349581718445,-47.27004623413086,-1.1687285900115967,20.999177932739258,0.4214377999305725,2.3458895683288574,-0.34457725286483765,0.0,0.0,0.0,0.0,0.0,0.0,0.0,-0.521468922113477,-0.5147367133763344,-0.30838046898824095,0.5933075388234291,-0.14639499852863885,0.14261389858049345,-0.34884400410262034,0.062426112036164876,0.6882942724085656,-0.07863357658135202,-1.6209548324618421,0.028202404152737726,2.2878059711806666,0.8466375075909827,0.06226373270833701,0.6884179775783729,-0.07863937525950354,-1.6210372792796082,0.028167345702647853,2.2878312372101677,0.8466366937888992,2.5988360568245474e-05,0.00010057395156918341,-0.0004243543488878257,0.0003289848476404926,0.000363568410917071,0.0005041187710242477,-0.0007748127528466967,0.0,0.0,0.0,0.0,0.0,0.0,0.0,-0.00016237932782786624,0.00012370516980730883,-5.798678151522352e-06,-8.244681776603535e-05,-3.505845008987263e-05,2.5266029501036513e-05,-8.138020834991266e-07,-2.5988360568245474e-05,-0.00010057395156918341,0.0004243543488878257,-0.0003289848476404926,-0.000363568410917071,-0.0005041187710242477,0.0007748127528466967,0.5537349581718445,47.27004623413086,1.1687285900115967,-20.999177932739258,-0.4214377999305725,-2.3458895683288574,0.34457725286483765,0
46,0.22499942779541016,-0.5021602511405945,-47.29384994506836,-1.1925323009490967,20.975374221801758,0.4333396553993225,2.3522982597351074,-0.36471885442733765,0.0,0.0,0.0,0.0,0.0,0.0,0.0,-0.536454805291975,-0.5065856796178758,-0.31626074387116593,0.5918548643077264,-0.14645425973984508,0.14109806837717773,-0.3501960097169668,0.062423517817987564,0.688295691508441,-0.07863190614549737,-1.620953162025987,0.028202132951957667,2.287805259121789,0.8466397455467118,0.06226373270833701,0.6884179775783729,-0.07863937525950354,-1.6210372792796082,0.028167345702647853,2.2878312372101677,0.8466366937888992,-0.0011262688021571072,0.0008102935126498303,-0.0002062763433513805,0.0006226153620087114,3.329317655814474e-05,6.538908916738494e-05,0.000405066888887555,0.0,0.0,0.0,0.0,0.0,0.0,0.0,-0.0001597851096505551,0.00012228606993180957,-7.469114006175559e-06,-8.411725362122979e-05,-3.478724930981378e-05,2.5978088378675324e-05,-3.0517578126776357e-06,0.0011262688021571072,-0.0008102935126498303,0.0002062763433513805,-0.0006226153620087114,-3.329317655814474e-05,-6.538908916738494e-05,-0.000405066888887555,0.5021602511405945,47.29384994506836,1.1925323009490967,-20.975374221801758,-0.4333396553993225,-2.3522982597351074,0.36471885442733765,0
47,0.23000073432922363,-0.5021602511405945,-47.29384994506836,-1.1925323009490967,20.975374221801758,0.4333396553993225,2.3522982597351074,-0.36471885442733765,0.0,0.0,0.0,0.0,0.0,0.0,0.0,-0.536454805291975,-0.5065856796178758,-0.31626074387116593,0.5918548643077264,-0.14645425973984508,0.14109806837717773,-0.3501960097169668,0.062423517817987564,0.688295691508441,-0.07863190614549737,-1.620953162025987,0.028202132951957667,2.287805259121789,0.8466397455467118,0.06226373270833701,0.6884179775783729,-0.07863937525950354,-1.6210372792796082,0.028167345702647853,2.2878312372101677,0.8466366937888992,-0.0011262688021571072,0.0008102935126498303,-0.0002062763433513805,0.0006226153620087114,3.329317655814474e-05,6.538908916738494e-05,0.000405066888887555,0.0,0.0,0.0,0.0,0.0,0.0,0.0,-0.0001597851096505551,0.00012228606993180957,-7.469114006175559e-06,-8.411725362122979e-05,-3.478724930981378e-05,2.5978088378675324e-05,-3.0517578126776357e-06,0.0011262688021571072,-0.0008102935126498303,0.0002062763433513805,-0.0006226153620087114,-3.329317655814474e-05,-6.538908916738494e-05,-0.000405066888887555,0.5021602511405945,47.29384994506836,1.1925323009490967,-20.975374221801758,-0.4333396553993225,-2.3522982597351074,0.36471885442733765,0
48,0.23506855964660645,-0.5021602511405945,-47.27004623413086,-1.1925323009490967,21.022981643676758,0.4269309639930725,2.3724398612976074,-0.37845176458358765,0.0,0.0,0.0,0.0,0.0,0.0,0.0,-0.5331310072695512,-0.531962975961439,-0.3161751144171959,0.6052540212022106,-0.1457403843318347,0.14229840910143557,-0.3496723102176032,0.06242320239971156,0.6882961184351557,-0.07862977398033612,-1.6209565028976973,0.02820178481062301,2.28780302116606,0.8466412714256181,0.06226373270833701,0.6884179775783729,-0.07863937525950354,-1.6210372792796082,0.028167345702647853,2.2878312372101677,0.8466366937888992,-0.0005047476877691959,-0.0010905453594326122,-9.624759354927318e-05,-0.0005117160824272369,0.00020607324526803917,-0.00013281159301473369,-0.0010746078493377147,0.0,0.0,0.0,0.0,0.0,0.0,0.0,-0.00015946969137455025,0.00012185914321716229,-9.60127916742326e-06,-8.077638191084091e-05,-3.4439107975157285e-05,2.8216044107853833e-05,-4.577636718905431e-06,0.0005047476877691959,0.0010905453594326122,9.624759354927318e-05,0.0005117160824272369,-0.00020607324526803917,0.00013281159301473369,0.0010746078493377147,0.5021602511405945,47.27004623413086,1.1925323009490967,-21.022981643676758,-0.4269309639930725,-2.3724398612976074,0.37845176458358765,0
49,0.2400197982788086,-0.5021602511405945,-47.27004623413086,-1.1925323009490967,21.022981643676758,0.4269309639930725,2.3724398612976074,-0.37845176458358765,0.0,0.0,0.0,0.0,0.0,0.0,0.0,-0.5331310072695512,-0.531962975961439,-0.3161751144171959,0.6052540212022106,-0.1457403843318347,0.14229840910143557,-0.3496723102176032,0.06242320239971156,0.6882961184351557,-0.07862977398033612,-1.6209565028976973,0.02820178481062301,2.28780302116606,0.8466412714256181,0.06226373270833701,0.6884179775783729,-0.07863937525950354,-1.6210372792796082,0.028167345702647853,2.2878312372101677,0.8466366937888992,-0.0005047476877691959,-0.0010905453594326122,-9.624759354927318e-05,-0.0005117160824272369,0.00020607324526803917,-0.00013281159301473369,-0.0010746078493377147,0.0,0.0,0.0,0.0,0.0,0.0,0.0,-0.00015946969137455025,0.00012185914321716229,-9.60127916742326e-06,-8.077638191084091e-05,-3.4439107975157285e-05,2.8216044107853833e-05,-4.577636718905431e-06,0.0005047476877691959,0.0010905453594326122,9.624759354927318e-05,0.0005117160824272369,-0.00020607324526803917,0.00013281159301473369,0.0010746078493377147,0.5021602511405945,47.27004623413086,1.1925323009490967,-21.022981643676758,-0.4269309639930725,-2.3724398612976074,0.37845176458358765,0
50,0.2459096908569336,-0.5537349581718445,-47.34542465209961,-1.1409575939178467,21.022981643676758,0.4333396553993225,2.3660311698913574,-0.32352012395858765,0.0,0.0,0.0,0.0,0.0,0.0,0.0,-0.5157784672730815,-0.5186240784265099,-0.3055153963190827,0.5961087764568934,-0.14648764322765465,0.14302461803534508,-0.34995175832594744,0.06242709917020145,0.6882993024547102,-0.07863549810176415,-1.6209565028976973,0.028201069807071096,2.2878037332428827,0.846635167909993,0.06226373270833701,0.6884179775783729,-0.07863937525950354,-1.6210372792796082,0.028167345702647853,2.2878312372101677,0.8466366937888992,0.0013776517373792997,0.0003463967211714684,-0.00029072583944820017,-0.0006824519646285258,0.0001281158191162158,8.244514005006192e-05,-6.592240930137267e-05,0.0,0.0,0.0,0.0,0.0,0.0,0.0,-0.00016336646186444065,0.00011867512366270372,-3.877157739390347e-06,-8.077638191084091e-05,-3.372410442324322e-05,2.750396728501414e-05,1.5258789061167732e-06,-0.0013776517373792997,-0.0003463967211714684,0.00029072583944820017,0.0006824519646285258,-0.0001281158191162158,-8.244514005006192e-05,6.592240930137267e-05,0.5537349581718445,47.34542465209961,1.1409575939178467,-21.022981643676758,-0.4333396553993225,-2.3660311698913574,0.32352012395858765,0
51,0.2500033378601074,-0.5537349581718445,-47.34542465209961,-1.1409575939178467,21.022981643676758,0.4333396553993225,2.3660311698913574,-0.32352012395858765,0.0,0.0,0.0,0.0,0.0,0.0,0.0,-0.5157784672730815,-0.5186240784265099,-0.3055153963190827,0.5961087764568934,-0.14648764322765465,0.14302461803534508,-0.34995175832594744,0.06242709917020145,0.6882993024547102,-0.07863549810176415,-1.6209565028976973,0.028201069807071096,2.2878037332428827,0.846635167909993,0.06226373270833701,0.6884179775783729,-0.07863937525950354,-1.6210372792796082,0.028167345702647853,2.2878312372101677,0.8466366937888992,0.0013776517373792997,0.0003463967211714684,-0.00029072583944820017,-0.0006824519646285258,0.0001281158191162158,8.244514005006192e-05,-6.592240930137267e-05,0.0,0.0,0.0,0.0,0.0,0.0,0.0,-0.00016336646186444065,0.00011867512366270372,-3.877157739390347e-06,-8.077638191084091e-05,-3.372410442324322e-05,2.750396728501414e-05,1.5258789061167732e-06,-0.0013776517373792997,-0.0003463967211714684,0.00029072583944820017,0.0006824519646285258,-0.0001281158191162158,-8.244514005006192e-05,6.592240930137267e-05,0.5537349581718445,47.34542465209961,1.1409575939178467,-21.022981643676758,-0.4333396553993225,-2.3660311698913574,0.32352012395858765,0
52,0.2550020217895508,-0.5021602511405945,-47.31765365600586,-1.1687285900115967,21.022981643676758,0.4333396553993225,2.3660311698913574,-0.34457725286483765,0.0,0.0,0.0,0.0,0.0,0.0,0.0,-0.5382654367620794,-0.5231203814598534,-0.32016839072837805,0.5969552410947744,-0.14579025837054888,0.1450626662745659,-0.34641971333358407,0.06242111503543815,0.6882973543460117,-0.0786335765811984,-1.6209565030067137,0.028201186636172108,2.2878037332428827,0.8466375075909827,0.06226373270833701,0.6884179775783729,-0.07863937525950354,-1.6210372792796082,0.028167345702647853,2.2878312372101677,0.8466366937888992,-0.0002903168425165371,-5.648656498023664e-05,-0.0002950990297395567,-4.936148235649822e-05,0.00010017383757173898,-0.0001567228125999663,-0.00013259304856010678,0.0,0.0,0.0,0.0,0.0,0.0,0.0,-0.00015738232710114236,0.00012062323236117223,-5.798678305135585e-06,-8.077627289448941e-05,-3.3840933524254685e-05,2.750396728501414e-05,-8.138020834991266e-07,0.0002903168425165371,5.648656498023664e-05,0.0002950990297395567,4.936148235649822e-05,-0.00010017383757173898,0.0001567228125999663,0.00013259304856010678,0.5021602511405945,47.31765365600586,1.1687285900115967,-21.022981643676758,-0.4333396553993225,-2.3660311698913574,0.34457725286483765,0
53,0.2599973678588867,-0.5021602511405945,-47.31765365600586,-1.1687285900115967,21.022981643676758,0.4333396553993225,2.3660311698913574,-0.34457725286483765,0.0,0.0,0.0,0.0,0.0,0.0,0.0,-0.5382654367620794,-0.5231203814598534,-0.32016839072837805,0.5969552410947744,-0.14579025837054888,0.1450626662745659,-0.34641971333358407,0.06242111503543815,0.6882973543460117,-0.0786335765811984,-1.6209565030067137,0.028201186636172108,2.2878037332428827,0.8466375075909827,0.06226373270833701,0.6884179775783729,-0.07863937525950354,-1.6210372792796082,0.028167345702647853,2.2878312372101677,0.8466366937888992,-0.0002903168425165371,-5.648656498023664e-05,-0.0002950990297395567,-4.936148235649822e-05,0.00010017383757173898,-0.0001567228125999663,-0.00013259304856010678,0.0,0.0,0.0,0.0,0.0,0.0,0.0,-0.00015738232710114236,0.00012062323236117223,-5.798678305135585e-06,-8.077627289448941e-05,-3.3840933524254685e-05,2.750396728501414e-05,-8.138020834991266e-07,0.0002903168425165371,5.648656498023664e-05,0.0002950990297395567,4.936148235649822e-05,-0.00010017383757173898,0.0001567228125999663,0.00013259304856010678,0.5021602511405945,47.31765365600586,1.1687285900115967,-21.022981643676758,-0.4333396553993225,-2.3660311698913574,0.34457725286483765,0
54,0.2653510570526123,-0.5021602511405945,-47.27004623413086,-1.1925323009490967,21.022981643676758,0.4388328194618225,2.3596224784851074,-0.37845176458358765,0.0,0.0,0.0,0.0,0.0,0.0,0.0,-0.5194393140327912,-0.5026350313389302,-0.30885487895369,0.587133112790457,-0.14574000470224086,0.14377555104927292,-0.3480380479814401,0.06242351773812159,0.6882940127253231,-0.07863190610941097,-1.62095864866491,0.02820365181135354,2.2878044453197055,0.8466412714256181,0.06226373270833701,0.6884179775783729,-0.07863937525950354,-1.6210372792796082,0.028167345702647853,2.2878312372101677,0.8466366937888992,0.0002150911284388245,-5.8334268216364064e-05,0.0001997315044399713,-0.0003243097320234655,-0.00038378448732242246,-6.250766782534081e-06,0.00131731517083257,0.0,0.0,0.0,0.0,0.0,0.0,0.0,-0.00015978502978458015,0.0001239648530497739,-7.469150092573318e-06,-7.863061469826071e-05,-3.630610870568665e-05,2.679189046217445e-05,-4.577636718905431e-06,-0.0002150911284388245,5.8334268216364064e-05,-0.0001997315044399713,0.0003243097320234655,0.00038378448732242246,6.250766782534081e-06,-0.00131731517083257,0.5021602511405945,47.27004623413086,1.1925323009490967,-21.022981643676758,-0.4388328194618225,-2.3596224784851074,0.37845176458358765,0
55,0.26999855041503906,-0.5021602511405945,-47.27004623413086,-1.1925323009490967,21.022981643676758,0.4388328194618225,2.3596224784851074,-0.37845176458358765,0.0,0.0,0.0,0.0,0.0,0.0,0.0,-0.5194393140327912,-0.5026350313389302,-0.30885487895369,0.587133112790457,-0.14574000470224086,0.14377555104927292,-0.3480380479814401,0.06242351773812159,0.6882940127253231,-0.07863190610941097,-1.62095864866491,0.02820365181135354,2.2878044453197055,0.8466412714256181,0.06226373270833701,0.6884179775783729,-0.07863937525950354,-1.6210372792796082,0.028167345702647853,2.2878312372101677,0.8466366937888992,0.0002150911284388245,-5.8334268216364064e-05,0.0001997315044399713,-0.0003243097320234655,-0.00038378448732242246,-6.250766782534081e-06,0.00131731517083257,0.0,0.0,0.0,0.0,0.0,0.0,0.0,-0.00015978502978458015,0.0001239648530497739,-7.469150092573318e-06,-7.863061469826071e-05,-3.630610870568665e-05,2.679189046217445e-05,-4.577636718905431e-06,-0.0002150911284388245,5.8334268216364064e-05,-0.0001997315044399713,0.0003243097320234655,0.00038378448732242246,6.250766782534081e-06,-0.00131731517083257,0.5021602511405945,47.27004623413086,1.1925323009490967,-21.022981643676758,-0.4388328194618225,-2.3596224784851074,0.37845176458358765,0
56,0.2756502628326416,-0.5299312472343445,-47.29384994506836,-1.1687285900115967,20.975374221801758,0.4333396553993225,2.3394808769226074,-0.34457725286483765,0.0,0.0,0.0,0.0,0.0,0.0,0.0,-0.5096817001634285,-0.5096959827993652,-0.3063728787841249,0.5934045148151061,-0.14618699130962498,0.14342118231174167,-0.34770125959053205,0.06242332919990597,0.6882956828401817,-0.07863356781235634,-1.6209531620381,0.028201068364728264,2.2878066832754347,0.8466375075909827,0.06226373270833701,0.6884179775783729,-0.07863937525950354,-1.6210372792796082,0.028167345702647853,2.2878312372101677,0.8466366937888992,0.0006572162067070259,0.000657999871048516,0.0001581577939166619,0.0002948690992976997,-8.075830548355124e-05,0.0004900048694180904,0.0003327534150603771,0.0,0.0,0.0,0.0,0.0,0.0,0.0,-0.00015959649156896405,0.00012229473819114212,-5.807447147204714e-06,-8.41172415082525e-05,-3.372266208041125e-05,2.455393473299594e-05,-8.138020834991266e-07,-0.0006572162067070259,-0.000657999871048516,-0.0001581577939166619,-0.0002948690992976997,8.075830548355124e-05,-0.0004900048694180904,-0.0003327534150603771,0.5299312472343445,47.29384994506836,1.1687285900115967,-20.975374221801758,-0.4333396553993225,-2.3394808769226074,0.34457725286483765,0
57,0.28000712394714355,-0.5299312472343445,-47.29384994506836,-1.1687285900115967,20.975374221801758,0.4333396553993225,2.3394808769226074,-0.34457725286483765,0.0,0.0,0.0,0.0,0.0,0.0,0.0,-0.5096817001634285,-0.5096959827993652,-0.3063728787841249,0.5934045148151061,-0.14618699130962498,0.14342118231174167,-0.34770125959053205,0.06242332919990597,0.6882956828401817,-0.07863356781235634,-1.6209531620381,0.028201068364728264,2.2878066832754347,0.8466375075909827,0.06226373270833701,0.6884179775783729,-0.07863937525950354,-1.6210372792796082,0.028167345702647853,2.2878312372101677,0.8466366937888992,0.0006572162067070259,0.000657999871048516,0.0001581577939166619,0.0002948690992976997,-8.075830548355124e-05,0.0004900048694180904,0.0003327534150603771,0.0,0.0,0.0,0.0,0.0,0.0,0.0,-0.00015959649156896405,0.00012229473819114212,-5.807447147204714e-06,-8.41172415082525e-05,-3.372266208041125e-05,2.455393473299594e-05,-8.138020834991266e-07,-0.0006572162067070259,-0.000657999871048516,-0.0001581577939166619,-0.0002948690992976997,8.075830548355124e-05,-0.0004900048694180904,-0.0003327534150603771,0.5299312472343445,47.29384994506836,1.1687285900115967,-20.975374221801758,-0.4333396553993225,-2.3394808769226074,0.34457725286483765,0
58,0.28501391410827637,-0.5537349581718445,-47.27004623413086,-1.1687285900115967,21.022981643676758,0.4333396553993225,2.3596224784851074,-0.34457725286483765,0.0,0.0,0.0,0.0,0.0,0.0,0.0,-0.5258180660191154,-0.5128732826691809,-0.31749516036411124,0.5975151327833773,-0.14584566869726037,0.14134224543826704,-0.34744338322240237,0.06242713323264952,0.6882940124043248,-0.07863357658130313,-1.6209565028976973,0.028201068400786726,2.2878044453197055,0.8466375075909827,0.06226373270833701,0.6884179775783729,-0.07863937525950354,-1.6210372792796082,0.028167345702647853,2.2878312372101677,0.8466366937888992,0.0006743347230578253,-0.00010074906533512607,0.00010284840544505713,-0.0007211566030878541,-9.659491251142591e-05,-0.00015495227433574745,-0.00011788617092928332,0.0,0.0,0.0,0.0,0.0,0.0,0.0,-0.00016340052431251112,0.00012396517404811291,-5.798678200413798e-06,-8.077638191084091e-05,-3.372269813887302e-05,2.679189046217445e-05,-8.138020834991266e-07,-0.0006743347230578253,0.00010074906533512607,-0.00010284840544505713,0.0007211566030878541,9.659491251142591e-05,0.00015495227433574745,0.00011788617092928332,0.5537349581718445,47.27004623413086,1.1687285900115967,-21.022981643676758,-0.4333396553993225,-2.3596224784851074,0.34457725286483765,0
59,0.29055190086364746,-0.5537349581718445,-47.27004623413086,-1.1687285900115967,21.022981643676758,0.4333396553993225,2.3596224784851074,-0.34457725286483765,0.0,0.0,0.0,0.0,0.0,0.0,0.0,-0.5258180660191154,-0.5128732826691809,-0.31749516036411124,0.5975151327833773,-0.14584566869726037,0.14134224543826704,-0.34744338322240237,0.06242713323264952,0.6882940124043248,-0.07863357658130313,-1.6209565028976973,0.028201068400786726,2.2878044453197055,0.8466375075909827,0.06226373270833701,0.6884179775783729,-0.07863937525950354,-1.6210372792796082,0.028167345702647853,2.2878312372101677,0.8466366937888992,0.0006743347230578253,-0.00010074906533512607,0.00010284840544505713,-0.0007211566030878541,-9.659491251142591e-05,-0.00015495227433574745,-0.00011788617092928332,0.0,0.0,0.0,0.0,0.0,0.0,0.0,-0.00016340052431251112,0.00012396517404811291,-5.798678200413798e-06,-8.077638191084091e-05,-3.372269813887302e-05,2.679189046217445e-05,-8.138020834991266e-07,-0.0006743347230578253,0.00010074906533512607,-0.00010284840544505713,0.0007211566030878541,9.659491251142591e-05,0.00015495227433574745,0.00011788617092928332,0.5537349581718445,47.27004623413086,1.1687285900115967,-21.022981643676758,-0.4333396553993225,-2.3596224784851074,0.34457725286483765,0
60,0.294999361038208,-0.5299312472343445,-47.31765365600586,-1.1925323009490967,20.999177932739258,0.4269309639930725,2.3724398612976074,-0.32352012395858765,0.0,0.0,0.0,0.0,0.0,0.0,0.0,-0.517447582315556,-0.5239336824728114,-0.3085243452131306,0.6064906873933461,-0.14558104935453478,0.14136420512667858,-0.34692550786385323,0.06242513938293141,0.6882973533830327,-0.07863189726824206,-1.6209548324618421,0.0282017804235223,2.28780302116606,0.846635167909993,0.06226373270833701,0.6884179775783729,-0.07863937525950354,-1.6210372792796082,0.028167345702647853,2.2878312372101677,0.8466366937888992,0.000556072535663983,0.00034630246699567167,0.00010302935286058233,0.000530001943323058,0.00037874324676274946,-0.00027333153242949375,-0.0010672807872478508,0.0,0.0,0.0,0.0,0.0,0.0,0.0,-0.000161406674594404,0.00012062419534020208,-7.477991261481409e-06,-8.244681776603535e-05,-3.4434720874446795e-05,2.8216044107853833e-05,1.5258789061167732e-06,-0.000556072535663983,-0.00034630246699567167,-0.00010302935286058233,-0.000530001943323058,-0.00037874324676274946,0.00027333153242949375,0.0010672807872478508,0.5299312472343445,47.31765365600586,1.1925323009490967,-20.999177932739258,-0.4269309639930725,-2.3724398612976074,0.32352012395858765,0
61,0.300018310546875,-0.5299312472343445,-47.31765365600586,-1.1925323009490967,20.999177932739258,0.4269309639930725,2.3724398612976074,-0.32352012395858765,0.0,0.0,0.0,0.0,0.0,0.0,0.0,-0.517447582315556,-0.5239336824728114,-0.3085243452131306,0.6064906873933461,-0.14558104935453478,0.14136420512667858,-0.34692550786385323,0.06242513938293141,0.6882973533830327,-0.07863189726824206,-1.6209548324618421,0.0282017804235223,2.28780302116606,0.846635167909993,0.06226373270833701,0.6884179775783729,-0.07863937525950354,-1.6210372792796082,0.028167345702647853,2.2878312372101677,0.8466366937888992,0.000556072535663983,0.00034630246699567167,0.00010302935286058233,0.000530001943323058,0.00037874324676274946,-0.00027333153242949375,-0.0010672807872478508,0.0,0.0,0.0,0.0,0.0,0.0,0.0,-0.000161406674594404,0.00012062419534020208,-7.477991261481409e-06,-8.244681776603535e-05,-3.4434720874446795e-05,2.8216044107853833e-05,1.5258789061167732e-06,-0.000556072535663983,-0.00034630246699567167,-0.00010302935286058233,-0.000530001943323058,-0.00037874324676274946,0.00027333153242949375,0.0010672807872478508,0.5299312472343445,47.31765365600586,1.1925323009490967,-20.999177932739258,-0.4269309639930725,-2.3724398612976074,0.32352012395858765,0
62,0.30500292778015137,-0.5815059542655945,-47.31765365600586,-1.2163360118865967,21.046785354614258,0.4269309639930725,2.3724398612976074,-0.35098594427108765,0.0,0.0,0.0,0.0,0.0,0.0,0.0,-0.5350728239609225,-0.5208784463920647,-0.32082683329441364,0.6047771286902492,-0.14509816277418414,0.14208017730866845,-0.34663972456834385,0.06242827043814004,0.6882995374149554,-0.078628078536553,-1.6209581733335525,0.028201780585784632,2.28780302116606,0.8466382196678056,0.06226373270833701,0.6884179775783729,-0.07863937525950354,-1.6210372792796082,0.028167345702647853,2.2878312372101677,0.8466366937888992,0.00031757923345672386,-0.0003822195189272922,0.0006139020964627833,-0.0008211932249343359,0.00025771531062682233,-0.00039764477087284256,-0.0001826217276796104,0.0,0.0,0.0,0.0,0.0,0.0,0.0,-0.00016453772980302983,0.00011844016341744368,-1.1296722950540627e-05,-7.910594605564647e-05,-3.443488313677884e-05,2.8216044107853833e-05,-1.5258789064498401e-06,-0.00031757923345672386,0.0003822195189272922,-0.0006139020964627833,0.0008211932249343359,-0.00025771531062682233,0.00039764477087284256,0.0001826217276796104,0.5815059542655945,47.31765365600586,1.2163360118865967,-21.046785354614258,-0.4269309639930725,-2.3724398612976074,0.35098594427108765,0
63,0.3100011348724365,-0.5815059542655945,-47.31765365600586,-1.2163360118865967,21.046785354614258,0.4269309639930725,2.3724398612976074,-0.35098594427108765,0.0,0.0,0.0,0.0,0.0,0.0,0.0,-0.5350728239609225,-0.5208784463920647,-0.32082683329441364,0.6047771286902492,-0.14509816277418414,0.14208017730866845,-0.34663972456834385,0.06242827043814004,0.6882995374149554,-0.078628078536553,-1.6209581733335525,0.028201780585784632,2.28780302116606,0.8466382196678056,0.06226373270833701,0.6884179775783729,-0.07863937525950354,-1.6210372792796082,0.028167345702647853,2.2878312372101677,0.8466366937888992,0.00031757923345672386,-0.0003822195189272922,0.0006139020964627833,-0.0008211932249343359,0.00025771531062682233,-0.00039764477087284256,-0.0001826217276796104,0.0,0.0,0.0,0.0,0.0,0.0,0.0,-0.00016453772980302983,0.00011844016341744368,-1.1296722950540627e-05,-7.910594605564647e-05,-3.443488313677884e-05,2.8216044107853833e-05,-1.5258789064498401e-06,-0.00031757923345672386,0.0003822195189272922,-0.0006139020964627833,0.0008211932249343359,-0.00025771531062682233,0.00039764477087284256,0.0001826217276796104,0.5815059542655945,47.31765365600586,1.2163360118865967,-21.046785354614258,-0.4269309639930725,-2.3724398612976074,0.35098594427108765,0
64,0.31499671936035156,-0.5299312472343445,-47.34542465209961,-1.2401397228240967,20.999177932739258,0.4269309639930725,2.3660311698913574,-0.35831016302108765,0.0,0.0,0.0,0.0,0.0,0.0,0.0,-0.531112519931461,-0.513267248310155,-0.31416179244543413,0.5991869912998776,-0.14501538617878357,0.14179037573974593,-0.3476413438521457,0.06242307551441759,0.6882993031918092,-0.07862785487550752,-1.6209548324618421,0.028202174721746187,2.2878037332428827,0.8466390334698889,0.06226373270833701,0.6884179775783729,-0.07863937525950354,-1.6210372792796082,0.028167345702647853,2.2878312372101677,0.8466366937888992,-0.0011608234799902347,0.0002067794527612445,0.000742769422235565,0.0003830298185826635,4.397667109515484e-05,1.4501306499994019e-06,-0.002089253377169814,0.0,0.0,0.0,0.0,0.0,0.0,0.0,-0.00015934280608058404,0.00011867438656365525,-1.1520383996016514e-05,-8.244681776603535e-05,-3.4829019098334135e-05,2.750396728501414e-05,-2.339680989726922e-06,0.0011608234799902347,-0.0002067794527612445,-0.000742769422235565,-0.0003830298185826635,-4.397667109515484e-05,-1.4501306499994019e-06,0.002089253377169814,0.5299312472343445,47.34542465209961,1.2401397228240967,-20.999177932739258,-0.4269309639930725,-2.3660311698913574,0.35831016302108765,0
65,0.32051539421081543,-0.5299312472343445,-47.34542465209961,-1.2401397228240967,20.999177932739258,0.4269309639930725,2.3660311698913574,-0.35831016302108765,0.0,0.0,0.0,0.0,0.0,0.0,0.0,-0.531112519931461,-0.513267248310155,-0.31416179244543413,0.5991869912998776,-0.14501538617878357,0.14179037573974593,-0.3476413438521457,0.06242307551441759,0.6882993031918092,-0.07862785487550752,-1.6209548324618421,0.028202174721746187,2.2878037332428827,0.8466390334698889,0.06226373270833701,0.6884179775783729,-0.07863937525950354,-1.6210372792796082,0.028167345702647853,2.2878312372101677,0.8466366937888992,-0.0011608234799902347,0.0002067794527612445,0.000742769422235565,0.0003830298185826635,4.397667109515484e-05,1.4501306499994019e-06,-0.002089253377169814,0.0,0.0,0.0,0.0,0.0,0.0,0.0,-0.00015934280608058404,0.00011867438656365525,-1.1520383996016514e-05,-8.244681776603535e-05,-3.4829019098334135e-05,2.750396728501414e-05,-2.339680989726922e-06,0.0011608234799902347,-0.0002067794527612445,-0.000742769422235565,-0.0003830298185826635,-4.397667109515484e-05,-1.4501306499994019e-06,0.002089253377169814,0.5299312472343445,47.34542465209961,1.2401397228240967,-20.999177932739258,-0.4269309639930725,-2.3660311698913574,0.35831016302108765,0
66,0.32500386238098145,-0.5299312472343445,-47.34542465209961,-1.2401397228240967,20.999177932739258,0.4269309639930725,2.3660311698913574,-0.35831016302108765,0.0,0.0,0.0,0.0,0.0,0.0,0.0,-0.531112519931461,-0.513267248310155,-0.31416179244543413,0.5991869912998776,-0.14501538617878357,0.14179037573974593,-0.3476413438521457,0.06242307551441759,0.6882993031918092,-0.07862785487550752,-1.6209548324618421,0.028202174721746187,2.2878037332428827,0.8466390334698889,0.06226373270833701,0.6884179775783729,-0.07863937525950354,-1.6210372792796082,0.028167345702647853,2.2878312372101677,0.8466366937888992,-0.0011608234799902347,0.0002067794527612445,0.000742769422235565,0.0003830298185826635,4.397667109515484e-05,1.4501306499994019e-06,-0.002089253377169814,0.0,0.0,0.0,0.0,0.0,0.0,0.0,-0.00015934280608058404,0.00011867438656365525,-1.1520383996016514e-05,-8.244681776603535e-05,-3.4829019098334135e-05,2.750396728501414e-05,-2.339680989726922e-06,0.0011608234799902347,-0.0002067794527612445,-0.000742769422235565,-0.0003830298185826635,-4.397667109515484e-05,-1.4501306499994019e-06,0.002089253377169814,0.5299312472343445,47.34542465209961,1.2401397228240967,-20.999177932739258,-0.4269309639930725,-2.3660311698913574,0.35831016302108765,0
67,0.33002424240112305,-0.5299312472343445,-47.34542465209961,-1.2401397228240967,20.999177932739258,0.4269309639930725,2.3660311698913574,-0.35831016302108765,0.0,0.0,0.0,0.0,0.0,0.0,0.0,-0.531112519931461,-0.513267248310155,-0.31416179244543413,0.5991869912998776,-0.14501538617878357,0.14179037573974593,-0.3476413438521457,0.06242307551441759,0.6882993031918092,-0.07862785487550752,-1.6209548324618421,0.028202174721746187,2.2878037332428827,0.8466390334698889,0.06226373270833701,0.6884179775783729,-0.07863937525950354,-1.6210372792796082,0.028167345702647853,2.2878312372101677,0.8466366937888992,-0.0011608234799902347,0.0002067794527612445,0.000742769422235565,0.0003830298185826635,4.397667109515484e-05,1.4501306499994019e-06,-0.002089253377169814,0.0,0.0,0.0,0.0,0.0,0.0,0.0,-0.00015934280608058404,0.00011867438656365525,-1.1520383996016514e-05,-8.244681776603535e-05,-3.4829019098334135e-05,2.750396728501414e-05,-2.339680989726922e-06,0.0011608234799902347,-0.0002067794527612445,-0.000742769422235565,-0.0003830298185826635,-4.397667109515484e-05,-1.4501306499994019e-06,0.002089253377169814,0.5299312472343445,47.34542465209961,1.2401397228240967,-20.999177932739258,-0.4269309639930725,-2.3660311698913574,0.35831016302108765,0
68,0.3350064754486084,-0.5537349581718445,-47.24624252319336,-1.1925323009490967,20.975374221801758,0.4333396553993225,2.3724398612976074,-0.33084434270858765,0.0,0.0,0.0,0.0,0.0,0.0,0.0,-0.5334154525089754,-0.5070285612580243,-0.3160858362342911,0.5930187045557692,-0.14583850619829739,0.1426197194702485,-0.3458905659343986,0.06242712541859349,0.6882923689318285,-0.0786316693812661,-1.6209531620381,0.02820106834744102,2.28780302116606,0.8466359817120764,0.06226373270833701,0.6884179775783729,-0.07863937525950354,-1.6210372792796082,0.028167345702647853,2.2878312372101677,0.8466366937888992,0.00017536210843917914,-0.0014754094377314787,-0.0005543655485667557,0.000860007590531798,-0.00010545865033306159,-5.5551720619157984e-05,-0.0004217116741768745,0.0,0.0,0.0,0.0,0.0,0.0,0.0,-0.00016339271025648389,0.00012560864654431736,-7.705878237437847e-06,-8.41172415082525e-05,-3.3722644793166695e-05,2.8216044107853833e-05,7.120768227286689e-07,-0.00017536210843917914,0.0014754094377314787,0.0005543655485667557,-0.000860007590531798,0.00010545865033306159,5.5551720619157984e-05,0.0004217116741768745,0.5537349581718445,47.24624252319336,1.1925323009490967,-20.975374221801758,-0.4333396553993225,-2.3724398612976074,0.33084434270858765,0
69,0.34001684188842773,-0.5537349581718445,-47.24624252319336,-1.1925323009490967,20.975374221801758,0.4333396553993225,2.3724398612976074,-0.33084434270858765,0.0,0.0,0.0,0.0,0.0,0.0,0.0,-0.5334154525089754,-0.5070285612580243,-0.3160858362342911,0.5930187045557692,-0.14583850619829739,0.1426197194702485,-0.3458905659343986,0.06242712541859349,0.6882923689318285,-0.0786316693812661,-1.6209531620381,0.02820106834744102,2.28780302116606,0.8466359817120764,0.06226373270833701,0.6884179775783729,-0.07863937525950354,-1.6210372792796082,0.028167345702647853,2.2878312372101677,0.8466366937888992,0.00017536210843917914,-0.0014754094377314787,-0.0005543655485667557,0.000860007590531798,-0.00010545865033306159,-5.5551720619157984e-05,-0.0004217116741768745,0.0,0.0,0.0,0.0,0.0,0.0,0.0,-0.00016339271025648389,0.00012560864654431736,-7.705878237437847e-06,-8.41172415082525e-05,-3.3722644793166695e-05,2.8216044107853833e-05,7.120768227286689e-07,-0.00017536210843917914,0.0014754094377314787,0.0005543655485667557,-0.000860007590531798,0.00010545865033306159,5.5551720619157984e-05,0.0004217116741768745,0.5537349581718445,47.24624252319336,1.1925323009490967,-20.975374221801758,-0.4333396553993225,-2.3724398612976074,0.33084434270858765,0
70,0.34001684188842773,-0.5537349581718445,-47.24624252319336,-1.1925323009490967,20.975374221801758,0.4333396553993225,2.3724398612976074,-0.33084434270858765,0.0,0.0,0.0,0.0,0.0,0.0,0.0,-0.5334154525089754,-0.5070285612580243,-0.3160858362342911,0.5930187045557692,-0.14583850619829739,0.1426197194702485,-0.3458905659343986,0.06242712541859349,0.6882923689318285,-0.0786316693812661,-1.6209531620381,0.02820106834744102,2.28780302116606,0.8466359817120764,0.06226373270833701,0.6884179775783729,-0.07863937525950354,-1.6210372792796082,0.028167345702647853,2.2878312372101677,0.8466366937888992,0.00017536210843917914,-0.0014754094377314787,-0.0005543655485667557,0.000860007590531798,-0.00010545865033306159,-5.5551720619157984e-05,-0.0004217116741768745,0.0,0.0,0.0,0.0,0.0,0.0,0.0,-0.00016339271025648389,0.00012560864654431736,-7.705878237437847e-06,-8.41172415082525e-05,-3.3722644793166695e-05,2.8216044107853833e-05,7.120768227286689e-07,-0.00017536210843917914,0.0014754094377314787,0.0005543655485667557,-0.000860007590531798,0.00010545865033306159,5.5551720619157984e-05,0.0004217116741768745,0.5537349581718445,47.24624252319336,1.1925323009490967,-20.975374221801758,-0.4333396553993225,-2.3724398612976074,0.33084434270858765,0
71,0.35197877883911133,-0.5299312472343445,-47.24624252319336,-1.1925323009490967,20.975374221801758,0.4333396553993225,2.3522982597351074,-0.30978721380233765,0.0,0.0,0.0,0.0,0.0,0.0,0.0,-0.5182379795202458,-0.4999048164000211,-0.30552292895832417,0.5843656566846311,-0.14618345081635722,0.1408651909424638,-0.34526928169456395,0.062425352513098886,0.688292350635415,-0.07863190516982793,-1.620953162025987,0.02820107272779037,2.287805259606306,0.8466368606819047,0.06226373270833701,0.6884179775783729,-0.07863937525950354,-1.6210372792796082,0.028167345702647853,2.2878312372101677,0.8466366937888992,0.0004071679616450597,-0.0008296958463829347,0.00044562054649689394,0.0006165525474012434,-6.408060926841028e-06,0.002945091925079861,-0.0019579753543690903,0.0,0.0,0.0,0.0,0.0,0.0,0.0,-0.00016161980476187693,0.00012562694295781274,-7.470089675609692e-06,-8.411725362122979e-05,-3.37270251425173e-05,2.5977603861804255e-05,-1.6689300552652497e-07,-0.0004071679616450597,0.0008296958463829347,-0.00044562054649689394,-0.0006165525474012434,6.408060926841028e-06,-0.002945091925079861,0.0019579753543690903,0.5299312472343445,47.24624252319336,1.1925323009490967,-20.975374221801758,-0.4333396553993225,-2.3522982597351074,0.30978721380233765,0
72,0.35501956939697266,-0.5299312472343445,-47.24624252319336,-1.1925323009490967,20.975374221801758,0.4333396553993225,2.3522982597351074,-0.30978721380233765,0.0,0.0,0.0,0.0,0.0,0.0,0.0,-0.5182379795202458,-0.4999048164000211,-0.30552292895832417,0.5843656566846311,-0.14618345081635722,0.1408651909424638,-0.34526928169456395,0.062425352513098886,0.688292350635415,-0.07863190516982793,-1.620953162025987,0.02820107272779037,2.287805259606306,0.8466368606819047,0.06226373270833701,0.6884179775783729,-0.07863937525950354,-1.6210372792796082,0.028167345702647853,2.2878312372101677,0.8466366937888992,0.0004071679616450597,-0.0008296958463829347,0.00044562054649689394,0.0006165525474012434,-6.408060926841028e-06,0.002945091925079861,-0.0019579753543690903,0.0,0.0,0.0,0.0,0.0,0.0,0.0,-0.00016161980476187693,0.00012562694295781274,-7.470089675609692e-06,-8.411725362122979e-05,-3.37270251425173e-05,2.5977603861804255e-05,-1.6689300552652497e-07,-0.0004071679616450597,0.0008296958463829347,-0.00044562054649689394,-0.0006165525474012434,6.408060926841028e-06,-0.002945091925079861,0.0019579753543690903,0.5299312472343445,47.24624252319336,1.1925323009490967,-20.975374221801758,-0.4333396553993225,-2.3522982597351074,0.30978721380233765,0
73,0.3600156307220459,-0.4783565402030945,-47.29384994506836,-1.1925323009490967,21.022981643676758,0.4269309639930725,2.3660311698913574,-0.33725303411483765,0.0,0.0,0.0,0.0,0.0,0.0,0.0,-0.5187419350618581,-0.5102072175507275,-0.3048540910999914,0.5941980413793513,-0.14595697127830204,0.1408239698314956,-0.3461583917863111,0.06242175983556059,0.6882959168793149,-0.07863190614549186,-1.6209572181534346,0.028204974239095938,2.2878037332428853,0.8466366938070686,0.06226373270833701,0.6884179775783729,-0.07863937525950354,-1.6210372792796082,0.028167345702647853,2.2878312372101677,0.8466366937888992,-0.00044368716707647864,0.0007124463117070173,0.0009003471036076153,-0.0004390269236218694,6.362888635023077e-05,-0.0002974829643008283,-3.309084122526941e-05,0.0,0.0,0.0,0.0,0.0,0.0,0.0,-0.00015802712722358392,0.00012206069905795758,-7.469114011685041e-06,-8.006112617353622e-05,-3.7628536448085226e-05,2.7503967282349606e-05,-1.8169465931805462e-11,0.00044368716707647864,-0.0007124463117070173,-0.0009003471036076153,0.0004390269236218694,-6.362888635023077e-05,0.0002974829643008283,3.309084122526941e-05,0.4783565402030945,47.29384994506836,1.1925323009490967,-21.022981643676758,-0.4269309639930725,-2.3660311698913574,0.33725303411483765,0
74,0.365001916885376,-0.4783565402030945,-47.29384994506836,-1.1925323009490967,21.022981643676758,0.4269309639930725,2.3660311698913574,-0.33725303411483765,0.0,0.0,0.0,0.0,0.0,0.0,0.0,-0.5187419350618581,-0.5102072175507275,-0.3048540910999914,0.5941980413793513,-0.14595697127830204,0.1408239698314956,-0.3461583917863111,0.06242175983556059,0.6882959168793149,-0.07863190614549186,-1.6209572181534346,0.028204974239095938,2.2878037332428853,0.8466366938070686,0.06226373270833701,0.6884179775783729,-0.07863937525950354,-1.6210372792796082,0.028167345702647853,2.2878312372101677,0.8466366937888992,-0.00044368716707647864,0.0007124463117070173,0.0009003471036076153,-0.0004390269236218694,6.362888635023077e-05,-0.0002974829643008283,-3.309084122526941e-05,0.0,0.0,0.0,0.0,0.0,0.0,0.0,-0.00015802712722358392,0.00012206069905795758,-7.469114011685041e-06,-8.006112617353622e-05,-3.7628536448085226e-05,2.7503967282349606e-05,-1.8169465931805462e-11,0.00044368716707647864,-0.0007124463117070173,-0.0009003471036076153,0.0004390269236218694,-6.362888635023077e-05,0.0002974829643008283,3.309084122526941e-05,0.4783565402030945,47.29384994506836,1.1925323009490967,-21.022981643676758,-0.4269309639930725,-2.3660311698913574,0.33725303411483765,0
75,0.3699951171875,-0.4783565402030945,-47.29384994506836,-1.1925323009490967,20.999177932739258,0.4269309639930725,2.3724398612976074,-0.30337852239608765,0.0,0.0,0.0,0.0,0.0,0.0,0.0,-0.5385546210236078,-0.5217886280760629,-0.32216963546881155,0.602914256420144,-0.14591737240916713,0.1409040204854975,-0.3456931927930528,0.06241939366864339,0.6882956828415011,-0.0786311831904861,-1.6209548324658798,0.028201780441551177,2.28780302116606,0.846632929954264,0.06226373270833701,0.6884179775783729,-0.07863937525950354,-1.6210372792796082,0.028167345702647853,2.2878312372101677,0.8466366937888992,-0.0008787921247677454,6.152361069884372e-05,0.00036434176282768417,2.1384024963961214e-05,-5.7944459838171934e-05,-0.0005665885567789143,-0.0021747684962899663,0.0,0.0,0.0,0.0,0.0,0.0,0.0,-0.000155660960306378,0.00012229473687175307,-8.192069017434744e-06,-8.244681372837626e-05,-3.44347389033238e-05,2.8216044107853833e-05,3.76383463518426e-06,0.0008787921247677454,-6.152361069884372e-05,-0.00036434176282768417,-2.1384024963961214e-05,5.7944459838171934e-05,0.0005665885567789143,0.0021747684962899663,0.4783565402030945,47.29384994506836,1.1925323009490967,-20.999177932739258,-0.4269309639930725,-2.3724398612976074,0.30337852239608765,0
76,0.37501072883605957,-0.4783565402030945,-47.29384994506836,-1.1925323009490967,20.999177932739258,0.4269309639930725,2.3724398612976074,-0.30337852239608765,0.0,0.0,0.0,0.0,0.0,0.0,0.0,-0.5385546210236078,-0.5217886280760629,-0.32216963546881155,0.602914256420144,-0.14591737240916713,0.1409040204854975,-0.3456931927930528,0.06241939366864339,0.6882956828415011,-0.0786311831904861,-1.6209548324658798,0.028201780441551177,2.28780302116606,0.846632929954264,0.06226373270833701,0.6884179775783729,-0.07863937525950354,-1.6210372792796082,0.028167345702647853,2.2878312372101677,0.8466366937888992,-0.0008787921247677454,6.152361069884372e-05,0.00036434176282768417,2.1384024963961214e-05,-5.7944459838171934e-05,-0.0005665885567789143,-0.0021747684962899663,0.0,0.0,0.0,0.0,0.0,0.0,0.0,-0.000155660960306378,0.00012229473687175307,-8.192069017434744e-06,-8.244681372837626e-05,-3.44347389033238e-05,2.8216044107853833e-05,3.76383463518426e-06,0.0008787921247677454,-6.152361069884372e-05,-0.00036434176282768417,-2.1384024963961214e-05,5.7944459838171934e-05,0.0005665885567789143,0.0021747684962899663,0.4783565402030945,47.29384994506836,1.1925323009490967,-20.999177932739258,-0.4269309639930725,-2.3724398612976074,0.30337852239608765,0
77,0.37999844551086426,-0.5299312472343445,-47.31765365600586,-1.1687285900115967,20.999177932739258,0.4333396553993225,2.3660311698913574,-0.33725303411483765,0.0,0.0,0.0,0.0,0.0,0.0,0.0,-0.5247132670037892,-0.5251865199419704,-0.3154293823850576,0.6053239712002598,-0.14635178253038028,0.14154770823662383,-0.3476359104204358,0.062424441911027514,0.6882973532760353,-0.0786314447368879,-1.6209548324618421,0.028201069807062943,2.2878037332428827,0.8466366937888993,0.06226373270833701,0.6884179775783729,-0.07863937525950354,-1.6210372792796082,0.028167345702647853,2.2878312372101677,0.8466366937888992,0.0005512554638196196,0.00038871346673228667,-0.00021321692165482222,0.0007464538798484927,-0.00012746828908394013,-0.00018492728825010238,-0.0010339229947193803,0.0,0.0,0.0,0.0,0.0,0.0,0.0,-0.0001607092026905052,0.00012062430233761301,-7.930522615634539e-06,-8.244681776603535e-05,-3.372410441509002e-05,2.750396728501414e-05,-1.1102230246251565e-16,-0.0005512554638196196,-0.00038871346673228667,0.00021321692165482222,-0.0007464538798484927,0.00012746828908394013,0.00018492728825010238,0.0010339229947193803,0.5299312472343445,47.31765365600586,1.1687285900115967,-20.999177932739258,-0.4333396553993225,-2.3660311698913574,0.33725303411483765,0
78,0.38500404357910156,-0.5299312472343445,-47.31765365600586,-1.1687285900115967,20.999177932739258,0.4333396553993225,2.3660311698913574,-0.33725303411483765,0.0,0.0,0.0,0.0,0.0,0.0,0.0,-0.5247132670037892,-0.5251865199419704,-0.3154293823850576,0.6053239712002598,-0.14635178253038028,0.14154770823662383,-0.3476359104204358,0.062424441911027514,0.6882973532760353,-0.0786314447368879,-1.6209548324618421,0.028201069807062943,2.2878037332428827,0.8466366937888993,0.06226373270833701,0.6884179775783729,-0.07863937525950354,-1.6210372792796082,0.028167345702647853,2.2878312372101677,0.8466366937888992,0.0005512554638196196,0.00038871346673228667,-0.00021321692165482222,0.0007464538798484927,-0.00012746828908394013,-0.00018492728825010238,-0.0010339229947193803,0.0,0.0,0.0,0.0,0.0,0.0,0.0,-0.0001607092026905052,0.00012062430233761301,-7.930522615634539e-06,-8.244681776603535e-05,-3.372410441509002e-05,2.750396728501414e-05,-1.1102230246251565e-16,-0.0005512554638196196,-0.00038871346673228667,0.00021321692165482222,-0.0007464538798484927,0.00012746828908394013,0.00018492728825010238,0.0010339229947193803,0.5299312472343445,47.31765365600586,1.1687285900115967,-20.999177932739258,-0.4333396553993225,-2.3660311698913574,0.33725303411483765,0
79,0.39000678062438965,-0.5021602511405945,-47.36922836303711,-1.1687285900115967,21.046785354614258,0.4214377999305725,2.3596224784851074,-0.37845176458358765,0.0,0.0,0.0,0.0,0.0,0.0,0.0,-0.522964962167762,-0.5324942160737134,-0.31383081487825,0.6066828268665898,-0.14654044991823548,0.14286380176534005,-0.3482167365389895,0.062422805365467404,0.6883009725537217,-0.07863357656931831,-1.6209581733335525,0.02820558459064195,2.2878044453197055,0.8466412714256181,0.06226373270833701,0.6884179775783729,-0.07863937525950354,-1.6210372792796082,0.028167345702647853,2.2878312372101677,0.8466366937888992,-0.0004744405372489412,0.00031855815664539873,-9.793087579373791e-05,-0.0008058099051812858,0.0004141518380418043,0.00033429724182840436,-0.001522642468314979,0.0,0.0,0.0,0.0,0.0,0.0,0.0,-0.00015907265713039492,0.00011700502465117335,-5.798690185229716e-06,-7.910594605564647e-05,-3.823888799409786e-05,2.679189046217445e-05,-4.577636718905431e-06,0.0004744405372489412,-0.00031855815664539873,9.793087579373791e-05,0.0008058099051812858,-0.0004141518380418043,-0.00033429724182840436,0.001522642468314979,0.5021602511405945,47.36922836303711,1.1687285900115967,-21.046785354614258,-0.4214377999305725,-2.3596224784851074,0.37845176458358765,0
