rezayati/contactInterpretation/dataset/franka_main/labeled_data/link7/a4_3.csv
index,time,tau_J0,tau_J1,tau_J2,tau_J3,tau_J4,tau_J5,tau_J6,tau_J_d0,tau_J_d1,tau_J_d2,tau_J_d3,tau_J_d4,tau_J_d5,tau_J_d6,tau_ext0,tau_ext1,tau_ext2,tau_ext3,tau_ext4,tau_ext5,tau_ext6,q0,q1,q2,q3,q4,q5,q6,q_d0,q_d1,q_d2,q_d3,q_d4,q_d5,q_d6,dq0,dq1,dq2,dq3,dq4,dq5,dq6,dq_d0,dq_d1,dq_d2,dq_d3,dq_d4,dq_d5,dq_d6,e0,e1,e2,e3,e4,e5,e6,de0,de1,de2,de3,de4,de5,de6,etau_J0,etau_J1,etau_J2,etau_J3,etau_J4,etau_J5,etau_J6,label
1,0.0,-0.3752071261405945,-34.01534652709961,-3.7990386486053467,19.289278030395508,0.10008770227432251,1.777347207069397,-0.17978231608867645,0.0,0.0,0.0,0.0,0.0,0.0,0.0,-0.38024425925380206,0.06705518008283055,-0.23835759428763326,0.27204706698003484,0.048292428382507906,-0.12983352305733958,-0.15324148078100236,1.054529532762996,0.3237751970834899,-0.39250568805397335,-2.153043153793614,0.8647945775382943,2.465997744164349,0.544501709775035,1.0544104758940245,0.3238615046091247,-0.39250456234122666,-2.153291787532338,0.8647539153680389,2.46587817577521,0.5445020185570556,-4.377513193400425e-05,-0.0001217003820475987,8.987111605416876e-05,0.00023516750565648865,-0.00016819967947478886,-1.0026785333713947e-05,0.0017750482119718836,0.0,0.0,0.0,0.0,0.0,0.0,0.0,-0.00011905686897151213,8.630752563482114e-05,1.1257127466857142e-06,-0.00024863373872374694,-4.066217025533447e-05,-0.00011956838913906864,3.08782020619347e-07,4.377513193400425e-05,0.0001217003820475987,-8.987111605416876e-05,-0.00023516750565648865,0.00016819967947478886,1.0026785333713947e-05,-0.0017750482119718836,0.3752071261405945,34.01534652709961,3.7990386486053467,-19.289278030395508,-0.10008770227432251,-1.777347207069397,0.17978231608867645,0
2,0.004595518112182617,-0.3752071261405945,-34.01534652709961,-3.7990386486053467,19.289278030395508,0.10008770227432251,1.777347207069397,-0.17978231608867645,0.0,0.0,0.0,0.0,0.0,0.0,0.0,-0.38024425925380206,0.06705518008283055,-0.23835759428763326,0.27204706698003484,0.048292428382507906,-0.12983352305733958,-0.15324148078100236,1.054529532762996,0.3237751970834899,-0.39250568805397335,-2.153043153793614,0.8647945775382943,2.465997744164349,0.544501709775035,1.0544104758940245,0.3238615046091247,-0.39250456234122666,-2.153291787532338,0.8647539153680389,2.46587817577521,0.5445020185570556,-4.377513193400425e-05,-0.0001217003820475987,8.987111605416876e-05,0.00023516750565648865,-0.00016819967947478886,-1.0026785333713947e-05,0.0017750482119718836,0.0,0.0,0.0,0.0,0.0,0.0,0.0,-0.00011905686897151213,8.630752563482114e-05,1.1257127466857142e-06,-0.00024863373872374694,-4.066217025533447e-05,-0.00011956838913906864,3.08782020619347e-07,4.377513193400425e-05,0.0001217003820475987,-8.987111605416876e-05,-0.00023516750565648865,0.00016819967947478886,1.0026785333713947e-05,-0.0017750482119718836,0.3752071261405945,34.01534652709961,3.7990386486053467,-19.289278030395508,-0.10008770227432251,-1.777347207069397,0.17978231608867645,0
3,0.009598016738891602,-0.3752071261405945,-34.01534652709961,-3.7990386486053467,19.289278030395508,0.10008770227432251,1.777347207069397,-0.17978231608867645,0.0,0.0,0.0,0.0,0.0,0.0,0.0,-0.38024425925380206,0.06705518008283055,-0.23835759428763326,0.27204706698003484,0.048292428382507906,-0.12983352305733958,-0.15324148078100236,1.054529532762996,0.3237751970834899,-0.39250568805397335,-2.153043153793614,0.8647945775382943,2.465997744164349,0.544501709775035,1.0544104758940245,0.3238615046091247,-0.39250456234122666,-2.153291787532338,0.8647539153680389,2.46587817577521,0.5445020185570556,-4.377513193400425e-05,-0.0001217003820475987,8.987111605416876e-05,0.00023516750565648865,-0.00016819967947478886,-1.0026785333713947e-05,0.0017750482119718836,0.0,0.0,0.0,0.0,0.0,0.0,0.0,-0.00011905686897151213,8.630752563482114e-05,1.1257127466857142e-06,-0.00024863373872374694,-4.066217025533447e-05,-0.00011956838913906864,3.08782020619347e-07,4.377513193400425e-05,0.0001217003820475987,-8.987111605416876e-05,-0.00023516750565648865,0.00016819967947478886,1.0026785333713947e-05,-0.0017750482119718836,0.3752071261405945,34.01534652709961,3.7990386486053467,-19.289278030395508,-0.10008770227432251,-1.777347207069397,0.17978231608867645,0
4,0.014547586441040039,-0.3514034152030945,-33.96377182006836,-3.7990386486053467,19.313081741333008,0.10558086633682251,1.770938515663147,-0.14590780436992645,0.0,0.0,0.0,0.0,0.0,0.0,0.0,-0.38104713464315315,0.05833947283875398,-0.23874001157301813,0.2792970309574352,0.047355335005040404,-0.1279250502917498,-0.1533545397769971,1.0545278623271406,0.32377157780580346,-0.39250509173312403,-2.153044091654051,0.8647939671874046,2.465998573978077,0.5444982598895284,1.0544104758940245,0.3238615046091247,-0.39250456234122666,-2.153291787532338,0.8647539153680389,2.46587817577521,0.5445020185570556,-0.0005493091129658694,-0.0013520595149402713,-1.8235221835418945e-05,0.000213877136832644,-0.00012859594590651757,0.00011842946509718634,-0.0001515967828516966,0.0,0.0,0.0,0.0,0.0,0.0,0.0,-0.00011738643311609565,8.99268033212608e-05,5.293918973747758e-07,-0.0002476958782868799,-4.0051819365727326e-05,-0.00012039820286702252,3.7586675272205383e-06,0.0005493091129658694,0.0013520595149402713,1.8235221835418945e-05,-0.000213877136832644,0.00012859594590651757,-0.00011842946509718634,0.0001515967828516966,0.3514034152030945,33.96377182006836,3.7990386486053467,-19.313081741333008,-0.10558086633682251,-1.770938515663147,0.14590780436992645,0
5,0.019594192504882812,-0.3514034152030945,-33.96377182006836,-3.7990386486053467,19.313081741333008,0.10558086633682251,1.770938515663147,-0.14590780436992645,0.0,0.0,0.0,0.0,0.0,0.0,0.0,-0.38104713464315315,0.05833947283875398,-0.23874001157301813,0.2792970309574352,0.047355335005040404,-0.1279250502917498,-0.1533545397769971,1.0545278623271406,0.32377157780580346,-0.39250509173312403,-2.153044091654051,0.8647939671874046,2.465998573978077,0.5444982598895284,1.0544104758940245,0.3238615046091247,-0.39250456234122666,-2.153291787532338,0.8647539153680389,2.46587817577521,0.5445020185570556,-0.0005493091129658694,-0.0013520595149402713,-1.8235221835418945e-05,0.000213877136832644,-0.00012859594590651757,0.00011842946509718634,-0.0001515967828516966,0.0,0.0,0.0,0.0,0.0,0.0,0.0,-0.00011738643311609565,8.99268033212608e-05,5.293918973747758e-07,-0.0002476958782868799,-4.0051819365727326e-05,-0.00012039820286702252,3.7586675272205383e-06,0.0005493091129658694,0.0013520595149402713,1.8235221835418945e-05,-0.000213877136832644,0.00012859594590651757,-0.00011842946509718634,0.0001515967828516966,0.3514034152030945,33.96377182006836,3.7990386486053467,-19.313081741333008,-0.10558086633682251,-1.770938515663147,0.14590780436992645,0
6,0.024596452713012695,-0.3752071261405945,-33.99154281616211,-3.7990386486053467,19.289278030395508,0.11198955774307251,1.783755898475647,-0.11844198405742645,0.0,0.0,0.0,0.0,0.0,0.0,0.0,-0.3792687977740007,0.064325899903124,-0.23819233452251196,0.27657560230474176,0.04791172235958016,-0.12851440383408297,-0.15263357042330647,1.054529532762996,0.3237735266476346,-0.39250356975363393,-2.1530431629607505,0.8647964340249696,2.465997149825096,0.544494860896485,1.0544104758940245,0.3238615046091247,-0.39250456234122666,-2.153291787532338,0.8647539153680389,2.46587817577521,0.5445020185570556,-7.956244838251422e-05,-0.0005723488421789771,0.0002556126957104483,0.0003097286563369856,-0.0011512485083739082,-0.00019943065401874428,-0.0014236115879416123,0.0,0.0,0.0,0.0,0.0,0.0,0.0,-0.00011905686897151213,8.79779614901266e-05,-9.925875927296879e-07,-0.0002486245715873636,-4.251865693072343e-05,-0.00011897404988614468,7.157660570578095e-06,7.956244838251422e-05,0.0005723488421789771,-0.0002556126957104483,-0.0003097286563369856,0.0011512485083739082,0.00019943065401874428,0.0014236115879416123,0.3752071261405945,33.99154281616211,3.7990386486053467,-19.289278030395508,-0.11198955774307251,-1.783755898475647,0.11844198405742645,0
7,0.030003070831298828,-0.3752071261405945,-33.99154281616211,-3.7990386486053467,19.289278030395508,0.11198955774307251,1.783755898475647,-0.11844198405742645,0.0,0.0,0.0,0.0,0.0,0.0,0.0,-0.3792687977740007,0.064325899903124,-0.23819233452251196,0.27657560230474176,0.04791172235958016,-0.12851440383408297,-0.15263357042330647,1.054529532762996,0.3237735266476346,-0.39250356975363393,-2.1530431629607505,0.8647964340249696,2.465997149825096,0.544494860896485,1.0544104758940245,0.3238615046091247,-0.39250456234122666,-2.153291787532338,0.8647539153680389,2.46587817577521,0.5445020185570556,-7.956244838251422e-05,-0.0005723488421789771,0.0002556126957104483,0.0003097286563369856,-0.0011512485083739082,-0.00019943065401874428,-0.0014236115879416123,0.0,0.0,0.0,0.0,0.0,0.0,0.0,-0.00011905686897151213,8.79779614901266e-05,-9.925875927296879e-07,-0.0002486245715873636,-4.251865693072343e-05,-0.00011897404988614468,7.157660570578095e-06,7.956244838251422e-05,0.0005723488421789771,-0.0002556126957104483,-0.0003097286563369856,0.0011512485083739082,0.00019943065401874428,0.0014236115879416123,0.3752071261405945,33.99154281616211,3.7990386486053467,-19.289278030395508,-0.11198955774307251,-1.783755898475647,0.11844198405742645,0
8,0.0345609188079834,-0.3752071261405945,-33.99154281616211,-3.7990386486053467,19.289278030395508,0.11198955774307251,1.783755898475647,-0.11844198405742645,0.0,0.0,0.0,0.0,0.0,0.0,0.0,-0.3792687977740007,0.064325899903124,-0.23819233452251196,0.27657560230474176,0.04791172235958016,-0.12851440383408297,-0.15263357042330647,1.054529532762996,0.3237735266476346,-0.39250356975363393,-2.1530431629607505,0.8647964340249696,2.465997149825096,0.544494860896485,1.0544104758940245,0.3238615046091247,-0.39250456234122666,-2.153291787532338,0.8647539153680389,2.46587817577521,0.5445020185570556,-7.956244838251422e-05,-0.0005723488421789771,0.0002556126957104483,0.0003097286563369856,-0.0011512485083739082,-0.00019943065401874428,-0.0014236115879416123,0.0,0.0,0.0,0.0,0.0,0.0,0.0,-0.00011905686897151213,8.79779614901266e-05,-9.925875927296879e-07,-0.0002486245715873636,-4.251865693072343e-05,-0.00011897404988614468,7.157660570578095e-06,7.956244838251422e-05,0.0005723488421789771,-0.0002556126957104483,-0.0003097286563369856,0.0011512485083739082,0.00019943065401874428,0.0014236115879416123,0.3752071261405945,33.99154281616211,3.7990386486053467,-19.289278030395508,-0.11198955774307251,-1.783755898475647,0.11844198405742645,0
9,0.039552927017211914,-0.3752071261405945,-33.99154281616211,-3.7990386486053467,19.289278030395508,0.11198955774307251,1.783755898475647,-0.11844198405742645,0.0,0.0,0.0,0.0,0.0,0.0,0.0,-0.3792687977740007,0.064325899903124,-0.23819233452251196,0.27657560230474176,0.04791172235958016,-0.12851440383408297,-0.15263357042330647,1.054529532762996,0.3237735266476346,-0.39250356975363393,-2.1530431629607505,0.8647964340249696,2.465997149825096,0.544494860896485,1.0544104758940245,0.3238615046091247,-0.39250456234122666,-2.153291787532338,0.8647539153680389,2.46587817577521,0.5445020185570556,-7.956244838251422e-05,-0.0005723488421789771,0.0002556126957104483,0.0003097286563369856,-0.0011512485083739082,-0.00019943065401874428,-0.0014236115879416123,0.0,0.0,0.0,0.0,0.0,0.0,0.0,-0.00011905686897151213,8.79779614901266e-05,-9.925875927296879e-07,-0.0002486245715873636,-4.251865693072343e-05,-0.00011897404988614468,7.157660570578095e-06,7.956244838251422e-05,0.0005723488421789771,-0.0002556126957104483,-0.0003097286563369856,0.0011512485083739082,0.00019943065401874428,0.0014236115879416123,0.3752071261405945,33.99154281616211,3.7990386486053467,-19.289278030395508,-0.11198955774307251,-1.783755898475647,0.11844198405742645,0
10,0.04496288299560547,-0.3752071261405945,-34.01534652709961,-3.7752349376678467,19.261507034301758,0.10008770227432251,1.777347207069397,-0.10470907390117645,0.0,0.0,0.0,0.0,0.0,0.0,0.0,-0.37985232121475315,0.06368156049965058,-0.238519202859764,0.2753316972702843,0.047681873417125625,-0.12754989809658795,-0.1526523033440446,1.054529532762996,0.3237751970834899,-0.39250667389018273,-2.153041214123107,0.8647945775569122,2.465997861901919,0.544493329039912,1.0544104758940245,0.3238615046091247,-0.39250456234122666,-2.153291787532338,0.8647539153680389,2.46587817577521,0.5445020185570556,0.00011231152577075877,-0.00018850563453489812,-0.0006628919587180539,0.0007336485759978434,4.0898539588466574e-05,5.553376249960541e-05,-0.0016385929128866742,0.0,0.0,0.0,0.0,0.0,0.0,0.0,-0.00011905686897151213,8.630752563482114e-05,2.1115489560741274e-06,-0.00025057340923106963,-4.066218887333051e-05,-0.00011968612670898438,8.68951714361188e-06,-0.00011231152577075877,0.00018850563453489812,0.0006628919587180539,-0.0007336485759978434,-4.0898539588466574e-05,-5.553376249960541e-05,0.0016385929128866742,0.3752071261405945,34.01534652709961,3.7752349376678467,-19.261507034301758,-0.10008770227432251,-1.777347207069397,0.10470907390117645,0
11,0.0495450496673584,-0.3752071261405945,-34.01534652709961,-3.7752349376678467,19.261507034301758,0.10008770227432251,1.777347207069397,-0.10470907390117645,0.0,0.0,0.0,0.0,0.0,0.0,0.0,-0.37985232121475315,0.06368156049965058,-0.238519202859764,0.2753316972702843,0.047681873417125625,-0.12754989809658795,-0.1526523033440446,1.054529532762996,0.3237751970834899,-0.39250667389018273,-2.153041214123107,0.8647945775569122,2.465997861901919,0.544493329039912,1.0544104758940245,0.3238615046091247,-0.39250456234122666,-2.153291787532338,0.8647539153680389,2.46587817577521,0.5445020185570556,0.00011231152577075877,-0.00018850563453489812,-0.0006628919587180539,0.0007336485759978434,4.0898539588466574e-05,5.553376249960541e-05,-0.0016385929128866742,0.0,0.0,0.0,0.0,0.0,0.0,0.0,-0.00011905686897151213,8.630752563482114e-05,2.1115489560741274e-06,-0.00025057340923106963,-4.066218887333051e-05,-0.00011968612670898438,8.68951714361188e-06,-0.00011231152577075877,0.00018850563453489812,0.0006628919587180539,-0.0007336485759978434,-4.0898539588466574e-05,-5.553376249960541e-05,0.0016385929128866742,0.3752071261405945,34.01534652709961,3.7752349376678467,-19.261507034301758,-0.10008770227432251,-1.777347207069397,0.10470907390117645,0
12,0.05454826354980469,-0.4029781222343445,-34.06295394897461,-3.7752349376678467,19.313081741333008,0.09367901086807251,1.777347207069397,-0.12485067546367645,0.0,0.0,0.0,0.0,0.0,0.0,0.0,-0.37251025020908224,0.06211594747421499,-0.23355935139861492,0.27482550627118124,0.04768833185285663,-0.1277576277926033,-0.1524536075207939,1.0545314816411657,0.3237785379552004,-0.3925069123895326,-2.1530448334007932,0.8647952896157901,2.465997861901919,0.5444955669956075,1.0544104758940245,0.3238615046091247,-0.39250456234122666,-2.153291787532338,0.8647539153680389,2.46587817577521,0.5445020185570556,0.0007733470757987542,0.000981079546344718,-0.0004104516039730865,-0.00016658618544610097,0.00030908071660484544,-5.508529498967649e-05,-0.0011891790915623055,0.0,0.0,0.0,0.0,0.0,0.0,0.0,-0.00012100574714124512,8.296665392432123e-05,2.350048305954644e-06,-0.00024695413154463,-4.137424775119136e-05,-0.00011968612670898438,6.451561448073129e-06,-0.0007733470757987542,-0.000981079546344718,0.0004104516039730865,0.00016658618544610097,-0.00030908071660484544,5.508529498967649e-05,0.0011891790915623055,0.4029781222343445,34.06295394897461,3.7752349376678467,-19.313081741333008,-0.09367901086807251,-1.777347207069397,0.12485067546367645,0
13,0.059648752212524414,-0.4029781222343445,-34.06295394897461,-3.7752349376678467,19.313081741333008,0.09367901086807251,1.777347207069397,-0.12485067546367645,0.0,0.0,0.0,0.0,0.0,0.0,0.0,-0.37251025020908224,0.06211594747421499,-0.23355935139861492,0.27482550627118124,0.04768833185285663,-0.1277576277926033,-0.1524536075207939,1.0545314816411657,0.3237785379552004,-0.3925069123895326,-2.1530448334007932,0.8647952896157901,2.465997861901919,0.5444955669956075,1.0544104758940245,0.3238615046091247,-0.39250456234122666,-2.153291787532338,0.8647539153680389,2.46587817577521,0.5445020185570556,0.0007733470757987542,0.000981079546344718,-0.0004104516039730865,-0.00016658618544610097,0.00030908071660484544,-5.508529498967649e-05,-0.0011891790915623055,0.0,0.0,0.0,0.0,0.0,0.0,0.0,-0.00012100574714124512,8.296665392432123e-05,2.350048305954644e-06,-0.00024695413154463,-4.137424775119136e-05,-0.00011968612670898438,6.451561448073129e-06,-0.0007733470757987542,-0.000981079546344718,0.0004104516039730865,0.00016658618544610097,-0.00030908071660484544,5.508529498967649e-05,0.0011891790915623055,0.4029781222343445,34.06295394897461,3.7752349376678467,-19.313081741333008,-0.09367901086807251,-1.777347207069397,0.12485067546367645,0
14,0.0645914077758789,-0.4029781222343445,-34.03915023803711,-3.7990386486053467,19.360689163208008,0.09367901086807251,1.783755898475647,-0.16604940593242645,0.0,0.0,0.0,0.0,0.0,0.0,0.0,-0.3787796723012007,0.057876086428802126,-0.2393977600219812,0.2785926494538858,0.047684721936257946,-0.12669050787003636,-0.15361775712762,1.054531481604827,0.32377686748367934,-0.3925052202638105,-2.1530471849377544,0.86479528961579,2.465997149825096,0.5445001465703931,1.0544104758940245,0.3238615046091247,-0.39250456234122666,-2.153291787532338,0.8647539153680389,2.46587817577521,0.5445020185570556,0.00037566491502645174,0.00048444767969821486,-0.00025811319116538574,-0.0004249490999733601,4.517039762320408e-05,-0.00022993629310018386,0.0005180510166473724,0.0,0.0,0.0,0.0,0.0,0.0,0.0,-0.0001210057108025353,8.463712544537483e-05,6.579225838576619e-07,-0.0002446025945834762,-4.137424775108034e-05,-0.00011897404988614468,1.8719866624605785e-06,-0.00037566491502645174,-0.00048444767969821486,0.00025811319116538574,0.0004249490999733601,-4.517039762320408e-05,0.00022993629310018386,-0.0005180510166473724,0.4029781222343445,34.03915023803711,3.7990386486053467,-19.360689163208008,-0.09367901086807251,-1.783755898475647,0.16604940593242645,0
15,0.06960701942443848,-0.4029781222343445,-34.03915023803711,-3.7990386486053467,19.360689163208008,0.09367901086807251,1.783755898475647,-0.16604940593242645,0.0,0.0,0.0,0.0,0.0,0.0,0.0,-0.3787796723012007,0.057876086428802126,-0.2393977600219812,0.2785926494538858,0.047684721936257946,-0.12669050787003636,-0.15361775712762,1.054531481604827,0.32377686748367934,-0.3925052202638105,-2.1530471849377544,0.86479528961579,2.465997149825096,0.5445001465703931,1.0544104758940245,0.3238615046091247,-0.39250456234122666,-2.153291787532338,0.8647539153680389,2.46587817577521,0.5445020185570556,0.00037566491502645174,0.00048444767969821486,-0.00025811319116538574,-0.0004249490999733601,4.517039762320408e-05,-0.00022993629310018386,0.0005180510166473724,0.0,0.0,0.0,0.0,0.0,0.0,0.0,-0.0001210057108025353,8.463712544537483e-05,6.579225838576619e-07,-0.0002446025945834762,-4.137424775108034e-05,-0.00011897404988614468,1.8719866624605785e-06,-0.00037566491502645174,-0.00048444767969821486,0.00025811319116538574,0.0004249490999733601,-4.517039762320408e-05,0.00022993629310018386,-0.0005180510166473724,0.4029781222343445,34.03915023803711,3.7990386486053467,-19.360689163208008,-0.09367901086807251,-1.783755898475647,0.16604940593242645,0
16,0.07459759712219238,-0.3752071261405945,-34.03915023803711,-3.7752349376678467,19.336885452270508,0.09367901086807251,1.777347207069397,-0.13217489421367645,0.0,0.0,0.0,0.0,0.0,0.0,0.0,-0.3845015685672924,0.060009639532407566,-0.24337956615634568,0.2772619153101785,0.04709469024482011,-0.12700143924119423,-0.15430392865857157,1.054529532762996,0.3237768675193451,-0.3925047387063728,-2.153046256472836,0.86479528961579,2.465997861901919,0.5444964985352643,1.0544104758940245,0.3238615046091247,-0.39250456234122666,-2.153291787532338,0.8647539153680389,2.46587817577521,0.5445020185570556,-0.0007867531954983754,0.0001253984136446283,-0.0008573726218694233,-0.0007818209052774438,0.00040882451881233593,-5.300052541507199e-05,-0.0009268139780580652,0.0,0.0,0.0,0.0,0.0,0.0,0.0,-0.00011905686897151213,8.46370897796267e-05,1.7636514615393395e-07,-0.0002455310595017579,-4.137424775108034e-05,-0.00011968612670898438,5.520021791327601e-06,0.0007867531954983754,-0.0001253984136446283,0.0008573726218694233,0.0007818209052774438,-0.00040882451881233593,5.300052541507199e-05,0.0009268139780580652,0.3752071261405945,34.03915023803711,3.7752349376678467,-19.336885452270508,-0.09367901086807251,-1.777347207069397,0.13217489421367645,0
17,0.07959747314453125,-0.3752071261405945,-34.03915023803711,-3.7752349376678467,19.336885452270508,0.09367901086807251,1.777347207069397,-0.13217489421367645,0.0,0.0,0.0,0.0,0.0,0.0,0.0,-0.3845015685672924,0.060009639532407566,-0.24337956615634568,0.2772619153101785,0.04709469024482011,-0.12700143924119423,-0.15430392865857157,1.054529532762996,0.3237768675193451,-0.3925047387063728,-2.153046256472836,0.86479528961579,2.465997861901919,0.5444964985352643,1.0544104758940245,0.3238615046091247,-0.39250456234122666,-2.153291787532338,0.8647539153680389,2.46587817577521,0.5445020185570556,-0.0007867531954983754,0.0001253984136446283,-0.0008573726218694233,-0.0007818209052774438,0.00040882451881233593,-5.300052541507199e-05,-0.0009268139780580652,0.0,0.0,0.0,0.0,0.0,0.0,0.0,-0.00011905686897151213,8.46370897796267e-05,1.7636514615393395e-07,-0.0002455310595017579,-4.137424775108034e-05,-0.00011968612670898438,5.520021791327601e-06,0.0007867531954983754,-0.0001253984136446283,0.0008573726218694233,0.0007818209052774438,-0.00040882451881233593,5.300052541507199e-05,0.0009268139780580652,0.3752071261405945,34.03915023803711,3.7752349376678467,-19.336885452270508,-0.09367901086807251,-1.777347207069397,0.13217489421367645,0
18,0.08459782600402832,-0.4029781222343445,-34.01534652709961,-3.7990386486053467,19.313081741333008,0.10558086633682251,1.770938515663147,-0.18710653483867645,0.0,0.0,0.0,0.0,0.0,0.0,0.0,-0.374572363206994,0.06525038827033311,-0.2330795546136685,0.27641309947089293,0.04719272375745729,-0.12833058600527422,-0.1539378430316411,1.054531481604827,0.3237751970834899,-0.39250505607001546,-2.153044833399397,0.8647939671874046,2.465998573978742,0.5445057024742251,1.0544104758940245,0.3238615046091247,-0.39250456234122666,-2.153291787532338,0.8647539153680389,2.46587817577521,0.5445020185570556,0.0007520978611660314,2.0073310670171862e-05,0.00013552153333748303,-0.00018957890395477557,-4.755495652438659e-06,0.0001742663663848735,0.0008167024479876388,0.0,0.0,0.0,0.0,0.0,0.0,0.0,-0.0001210057108025353,8.630752563482114e-05,4.937287887973874e-07,-0.00024695413294084645,-4.0051819365727326e-05,-0.00012039820353182407,-3.683917169539086e-06,-0.0007520978611660314,-2.0073310670171862e-05,-0.00013552153333748303,0.00018957890395477557,4.755495652438659e-06,-0.0001742663663848735,-0.0008167024479876388,0.4029781222343445,34.01534652709961,3.7990386486053467,-19.313081741333008,-0.10558086633682251,-1.770938515663147,0.18710653483867645,0
19,0.08960700035095215,-0.4029781222343445,-34.01534652709961,-3.7990386486053467,19.313081741333008,0.10558086633682251,1.770938515663147,-0.18710653483867645,0.0,0.0,0.0,0.0,0.0,0.0,0.0,-0.374572363206994,0.06525038827033311,-0.2330795546136685,0.27641309947089293,0.04719272375745729,-0.12833058600527422,-0.1539378430316411,1.054531481604827,0.3237751970834899,-0.39250505607001546,-2.153044833399397,0.8647939671874046,2.465998573978742,0.5445057024742251,1.0544104758940245,0.3238615046091247,-0.39250456234122666,-2.153291787532338,0.8647539153680389,2.46587817577521,0.5445020185570556,0.0007520978611660314,2.0073310670171862e-05,0.00013552153333748303,-0.00018957890395477557,-4.755495652438659e-06,0.0001742663663848735,0.0008167024479876388,0.0,0.0,0.0,0.0,0.0,0.0,0.0,-0.0001210057108025353,8.630752563482114e-05,4.937287887973874e-07,-0.00024695413294084645,-4.0051819365727326e-05,-0.00012039820353182407,-3.683917169539086e-06,-0.0007520978611660314,-2.0073310670171862e-05,-0.00013552153333748303,0.00018957890395477557,4.755495652438659e-06,-0.0001742663663848735,-0.0008167024479876388,0.4029781222343445,34.01534652709961,3.7990386486053467,-19.313081741333008,-0.10558086633682251,-1.770938515663147,0.18710653483867645,0
20,0.09459638595581055,-0.3514034152030945,-33.99154281616211,-3.7752349376678467,19.289278030395508,0.09367901086807251,1.790164589881897,-0.13858358561992645,0.0,0.0,0.0,0.0,0.0,0.0,0.0,-0.37655092926970707,0.06127174570294806,-0.23446147789780927,0.2757400701828617,0.04843103771700799,-0.12802984816933052,-0.1551776996012119,1.0545278633082869,0.3237735266476346,-0.3925077148585817,-2.153042915716041,0.86479528961579,2.4659964377482733,0.5444970945077361,1.0544104758940245,0.3238615046091247,-0.39250456234122666,-2.153291787532338,0.8647539153680389,2.46587817577521,0.5445020185570556,-0.00040993470606185745,-0.0007175913162842167,-0.0005255983357788259,0.00013054015875733053,0.0004745865277229489,-0.0004680724969345023,-0.0010067219279078043,0.0,0.0,0.0,0.0,0.0,0.0,0.0,-0.00011738741426237098,8.79779614901266e-05,3.152517355053952e-06,-0.0002488718162969583,-4.137424775108034e-05,-0.00011826197306330499,4.924049319510182e-06,0.00040993470606185745,0.0007175913162842167,0.0005255983357788259,-0.00013054015875733053,-0.0004745865277229489,0.0004680724969345023,0.0010067219279078043,0.3514034152030945,33.99154281616211,3.7752349376678467,-19.289278030395508,-0.09367901086807251,-1.790164589881897,0.13858358561992645,0
21,0.0996084213256836,-0.3514034152030945,-33.99154281616211,-3.7752349376678467,19.289278030395508,0.09367901086807251,1.790164589881897,-0.13858358561992645,0.0,0.0,0.0,0.0,0.0,0.0,0.0,-0.37655092926970707,0.06127174570294806,-0.23446147789780927,0.2757400701828617,0.04843103771700799,-0.12802984816933052,-0.1551776996012119,1.0545278633082869,0.3237735266476346,-0.3925077148585817,-2.153042915716041,0.86479528961579,2.4659964377482733,0.5444970945077361,1.0544104758940245,0.3238615046091247,-0.39250456234122666,-2.153291787532338,0.8647539153680389,2.46587817577521,0.5445020185570556,-0.00040993470606185745,-0.0007175913162842167,-0.0005255983357788259,0.00013054015875733053,0.0004745865277229489,-0.0004680724969345023,-0.0010067219279078043,0.0,0.0,0.0,0.0,0.0,0.0,0.0,-0.00011738741426237098,8.79779614901266e-05,3.152517355053952e-06,-0.0002488718162969583,-4.137424775108034e-05,-0.00011826197306330499,4.924049319510182e-06,0.00040993470606185745,0.0007175913162842167,0.0005255983357788259,-0.00013054015875733053,-0.0004745865277229489,0.0004680724969345023,0.0010067219279078043,0.3514034152030945,33.99154281616211,3.7752349376678467,-19.289278030395508,-0.09367901086807251,-1.790164589881897,0.13858358561992645,0
22,0.10459494590759277,-0.3752071261405945,-33.99154281616211,-3.7990386486053467,19.313081741333008,0.10558086633682251,1.777347207069397,-0.12485067546367645,0.0,0.0,0.0,0.0,0.0,0.0,0.0,-0.37638391314947484,0.057156420017686144,-0.23524222514254473,0.2757799368029605,0.04916734814732942,-0.12759199250890668,-0.1550693697923525,1.0545295330900502,0.3237735266476346,-0.39250291031960405,-2.1530448333993975,0.8647939671874046,2.465997861901919,0.5444955800775689,1.0544104758940245,0.3238615046091247,-0.39250456234122666,-2.153291787532338,0.8647539153680389,2.46587817577521,0.5445020185570556,7.532797376768902e-05,-0.00031182267576017775,2.5305453293822392e-05,-0.00016230286390679245,-6.848945650478673e-05,0.00014565389229752817,-0.0009571162455696574,0.0,0.0,0.0,0.0,0.0,0.0,0.0,-0.00011905719602567366,8.79779614901266e-05,-1.6520216226112439e-06,-0.00024695413294040236,-4.0051819365727326e-05,-0.00011968612670898438,6.43847948667009e-06,-7.532797376768902e-05,0.00031182267576017775,-2.5305453293822392e-05,0.00016230286390679245,6.848945650478673e-05,-0.00014565389229752817,0.0009571162455696574,0.3752071261405945,33.99154281616211,3.7990386486053467,-19.313081741333008,-0.10558086633682251,-1.777347207069397,0.12485067546367645,0
23,0.10964393615722656,-0.3752071261405945,-33.99154281616211,-3.7990386486053467,19.313081741333008,0.10558086633682251,1.777347207069397,-0.12485067546367645,0.0,0.0,0.0,0.0,0.0,0.0,0.0,-0.37638391314947484,0.057156420017686144,-0.23524222514254473,0.2757799368029605,0.04916734814732942,-0.12759199250890668,-0.1550693697923525,1.0545295330900502,0.3237735266476346,-0.39250291031960405,-2.1530448333993975,0.8647939671874046,2.465997861901919,0.5444955800775689,1.0544104758940245,0.3238615046091247,-0.39250456234122666,-2.153291787532338,0.8647539153680389,2.46587817577521,0.5445020185570556,7.532797376768902e-05,-0.00031182267576017775,2.5305453293822392e-05,-0.00016230286390679245,-6.848945650478673e-05,0.00014565389229752817,-0.0009571162455696574,0.0,0.0,0.0,0.0,0.0,0.0,0.0,-0.00011905719602567366,8.79779614901266e-05,-1.6520216226112439e-06,-0.00024695413294040236,-4.0051819365727326e-05,-0.00011968612670898438,6.43847948667009e-06,-7.532797376768902e-05,0.00031182267576017775,-2.5305453293822392e-05,0.00016230286390679245,6.848945650478673e-05,-0.00014565389229752817,0.0009571162455696574,0.3752071261405945,33.99154281616211,3.7990386486053467,-19.313081741333008,-0.10558086633682251,-1.777347207069397,0.12485067546367645,0
24,0.11460113525390625,-0.3514034152030945,-34.03915023803711,-3.7990386486053467,19.289278030395508,0.10558086633682251,1.770938515663147,-0.14590780436992645,0.0,0.0,0.0,0.0,0.0,0.0,0.0,-0.3727859635617455,0.061960348315006984,-0.2313720459654327,0.2732067086910549,0.04878108893312256,-0.12752859509831083,-0.15421314724567398,1.0545278623271424,0.32377686751934515,-0.39250529099918235,-2.153043162964938,0.8647971461017926,2.465998573978742,0.544497908130221,1.0544104758940245,0.3238615046091247,-0.39250456234122666,-2.153291787532338,0.8647539153680389,2.46587817577521,0.5445020185570556,-0.0002326200688346208,0.0010190227031314225,-0.0001996445091974405,0.0005974633285316147,5.7217551946063986e-05,8.710356432186453e-05,-0.0005493161163650435,0.0,0.0,0.0,0.0,0.0,0.0,0.0,-0.000117386433117872,8.463708977957118e-05,7.286579556953221e-07,-0.00024862456740004646,-4.3230733753674144e-05,-0.00012039820353182407,4.110426834569303e-06,0.0002326200688346208,-0.0010190227031314225,0.0001996445091974405,-0.0005974633285316147,-5.7217551946063986e-05,-8.710356432186453e-05,0.0005493161163650435,0.3514034152030945,34.03915023803711,3.7990386486053467,-19.289278030395508,-0.10558086633682251,-1.770938515663147,0.14590780436992645,0
25,0.11961078643798828,-0.3514034152030945,-34.03915023803711,-3.7990386486053467,19.289278030395508,0.10558086633682251,1.770938515663147,-0.14590780436992645,0.0,0.0,0.0,0.0,0.0,0.0,0.0,-0.3727859635617455,0.061960348315006984,-0.2313720459654327,0.2732067086910549,0.04878108893312256,-0.12752859509831083,-0.15421314724567398,1.0545278623271424,0.32377686751934515,-0.39250529099918235,-2.153043162964938,0.8647971461017926,2.465998573978742,0.544497908130221,1.0544104758940245,0.3238615046091247,-0.39250456234122666,-2.153291787532338,0.8647539153680389,2.46587817577521,0.5445020185570556,-0.0002326200688346208,0.0010190227031314225,-0.0001996445091974405,0.0005974633285316147,5.7217551946063986e-05,8.710356432186453e-05,-0.0005493161163650435,0.0,0.0,0.0,0.0,0.0,0.0,0.0,-0.000117386433117872,8.463708977957118e-05,7.286579556953221e-07,-0.00024862456740004646,-4.3230733753674144e-05,-0.00012039820353182407,4.110426834569303e-06,0.0002326200688346208,-0.0010190227031314225,0.0001996445091974405,-0.0005974633285316147,-5.7217551946063986e-05,-8.710356432186453e-05,0.0005493161163650435,0.3514034152030945,34.03915023803711,3.7990386486053467,-19.289278030395508,-0.10558086633682251,-1.770938515663147,0.14590780436992645,0
26,0.12459826469421387,-0.3752071261405945,-34.06295394897461,-3.7752349376678467,19.289278030395508,0.10008770227432251,1.777347207069397,-0.12485067546367645,0.0,0.0,0.0,0.0,0.0,0.0,0.0,-0.3698057369844548,0.06329419412365173,-0.23025214199709448,0.2709387999891797,0.04926867206889956,-0.1281036657669146,-0.15354537597035642,1.054529532762996,0.3237785379552004,-0.3925052921913741,-2.1530428332997418,0.8647945775569122,2.465997861901919,0.544498758991956,1.0544104758940245,0.3238615046091247,-0.39250456234122666,-2.153291787532338,0.8647539153680389,2.46587817577521,0.5445020185570556,0.00041071165309991786,0.001114551307453548,-8.75050658895662e-05,-9.146763514595303e-05,0.00020761201952426887,2.8598189143655714e-05,-0.0009172002224042333,0.0,0.0,0.0,0.0,0.0,0.0,0.0,-0.00011905686897151213,8.296665392432123e-05,7.298501474295449e-07,-0.00024895423259607696,-4.066218887333051e-05,-0.00011968612670898438,3.25956509961145e-06,-0.00041071165309991786,-0.001114551307453548,8.75050658895662e-05,9.146763514595303e-05,-0.00020761201952426887,-2.8598189143655714e-05,0.0009172002224042333,0.3752071261405945,34.06295394897461,3.7752349376678467,-19.289278030395508,-0.10008770227432251,-1.777347207069397,0.12485067546367645,0
27,0.12959718704223633,-0.3752071261405945,-34.06295394897461,-3.7752349376678467,19.289278030395508,0.10008770227432251,1.777347207069397,-0.12485067546367645,0.0,0.0,0.0,0.0,0.0,0.0,0.0,-0.3698057369844548,0.06329419412365173,-0.23025214199709448,0.2709387999891797,0.04926867206889956,-0.1281036657669146,-0.15354537597035642,1.054529532762996,0.3237785379552004,-0.3925052921913741,-2.1530428332997418,0.8647945775569122,2.465997861901919,0.544498758991956,1.0544104758940245,0.3238615046091247,-0.39250456234122666,-2.153291787532338,0.8647539153680389,2.46587817577521,0.5445020185570556,0.00041071165309991786,0.001114551307453548,-8.75050658895662e-05,-9.146763514595303e-05,0.00020761201952426887,2.8598189143655714e-05,-0.0009172002224042333,0.0,0.0,0.0,0.0,0.0,0.0,0.0,-0.00011905686897151213,8.296665392432123e-05,7.298501474295449e-07,-0.00024895423259607696,-4.066218887333051e-05,-0.00011968612670898438,3.25956509961145e-06,-0.00041071165309991786,-0.001114551307453548,8.75050658895662e-05,9.146763514595303e-05,-0.00020761201952426887,-2.8598189143655714e-05,0.0009172002224042333,0.3752071261405945,34.06295394897461,3.7752349376678467,-19.289278030395508,-0.10008770227432251,-1.777347207069397,0.12485067546367645,0
28,0.13459396362304688,-0.3752071261405945,-34.06295394897461,-3.7752349376678467,19.289278030395508,0.10008770227432251,1.777347207069397,-0.12485067546367645,0.0,0.0,0.0,0.0,0.0,0.0,0.0,-0.3698057369844548,0.06329419412365173,-0.23025214199709448,0.2709387999891797,0.04926867206889956,-0.1281036657669146,-0.15354537597035642,1.054529532762996,0.3237785379552004,-0.3925052921913741,-2.1530428332997418,0.8647945775569122,2.465997861901919,0.544498758991956,1.0544104758940245,0.3238615046091247,-0.39250456234122666,-2.153291787532338,0.8647539153680389,2.46587817577521,0.5445020185570556,0.00041071165309991786,0.001114551307453548,-8.75050658895662e-05,-9.146763514595303e-05,0.00020761201952426887,2.8598189143655714e-05,-0.0009172002224042333,0.0,0.0,0.0,0.0,0.0,0.0,0.0,-0.00011905686897151213,8.296665392432123e-05,7.298501474295449e-07,-0.00024895423259607696,-4.066218887333051e-05,-0.00011968612670898438,3.25956509961145e-06,-0.00041071165309991786,-0.001114551307453548,8.75050658895662e-05,9.146763514595303e-05,-0.00020761201952426887,-2.8598189143655714e-05,0.0009172002224042333,0.3752071261405945,34.06295394897461,3.7752349376678467,-19.289278030395508,-0.10008770227432251,-1.777347207069397,0.12485067546367645,0
29,0.13959622383117676,-0.3752071261405945,-34.06295394897461,-3.7752349376678467,19.289278030395508,0.10008770227432251,1.777347207069397,-0.12485067546367645,0.0,0.0,0.0,0.0,0.0,0.0,0.0,-0.3698057369844548,0.06329419412365173,-0.23025214199709448,0.2709387999891797,0.04926867206889956,-0.1281036657669146,-0.15354537597035642,1.054529532762996,0.3237785379552004,-0.3925052921913741,-2.1530428332997418,0.8647945775569122,2.465997861901919,0.544498758991956,1.0544104758940245,0.3238615046091247,-0.39250456234122666,-2.153291787532338,0.8647539153680389,2.46587817577521,0.5445020185570556,0.00041071165309991786,0.001114551307453548,-8.75050658895662e-05,-9.146763514595303e-05,0.00020761201952426887,2.8598189143655714e-05,-0.0009172002224042333,0.0,0.0,0.0,0.0,0.0,0.0,0.0,-0.00011905686897151213,8.296665392432123e-05,7.298501474295449e-07,-0.00024895423259607696,-4.066218887333051e-05,-0.00011968612670898438,3.25956509961145e-06,-0.00041071165309991786,-0.001114551307453548,8.75050658895662e-05,9.146763514595303e-05,-0.00020761201952426887,-2.8598189143655714e-05,0.0009172002224042333,0.3752071261405945,34.06295394897461,3.7752349376678467,-19.289278030395508,-0.10008770227432251,-1.777347207069397,0.12485067546367645,0
30,0.14464759826660156,-0.3514034152030945,-34.06295394897461,-3.8506133556365967,19.289278030395508,0.11198955774307251,1.783755898475647,-0.11111776530742645,0.0,0.0,0.0,0.0,0.0,0.0,0.0,-0.3710592758569445,0.0529776599122593,-0.2316386119372227,0.2776089283014182,0.04973862591733517,-0.1271285082787273,-0.1536797369407437,1.0545278623271406,0.3237785379552004,-0.3925023899610273,-2.1530431629630766,0.8647937260608615,2.465997149825096,0.5444940425882703,1.0544104758940245,0.3238615046091247,-0.39250456234122666,-2.153291787532338,0.8647539153680389,2.46587817577521,0.5445020185570556,-2.8419009350221257e-05,0.0010695541112564356,0.0013197582962760869,0.0009739504527071928,-0.0002623018447979445,-0.00026648693505628123,-0.0016264658348319975,0.0,0.0,0.0,0.0,0.0,0.0,0.0,-0.00011738643311609565,8.296665392432123e-05,-2.1723801993389635e-06,-0.00024862456926122434,-3.9810692822550564e-05,-0.00011897404988614468,7.97596878532314e-06,2.8419009350221257e-05,-0.0010695541112564356,-0.0013197582962760869,-0.0009739504527071928,0.0002623018447979445,0.00026648693505628123,0.0016264658348319975,0.3514034152030945,34.06295394897461,3.8506133556365967,-19.289278030395508,-0.11198955774307251,-1.783755898475647,0.11111776530742645,0
31,0.1496589183807373,-0.3514034152030945,-34.06295394897461,-3.8506133556365967,19.289278030395508,0.11198955774307251,1.783755898475647,-0.11111776530742645,0.0,0.0,0.0,0.0,0.0,0.0,0.0,-0.3710592758569445,0.0529776599122593,-0.2316386119372227,0.2776089283014182,0.04973862591733517,-0.1271285082787273,-0.1536797369407437,1.0545278623271406,0.3237785379552004,-0.3925023899610273,-2.1530431629630766,0.8647937260608615,2.465997149825096,0.5444940425882703,1.0544104758940245,0.3238615046091247,-0.39250456234122666,-2.153291787532338,0.8647539153680389,2.46587817577521,0.5445020185570556,-2.8419009350221257e-05,0.0010695541112564356,0.0013197582962760869,0.0009739504527071928,-0.0002623018447979445,-0.00026648693505628123,-0.0016264658348319975,0.0,0.0,0.0,0.0,0.0,0.0,0.0,-0.00011738643311609565,8.296665392432123e-05,-2.1723801993389635e-06,-0.00024862456926122434,-3.9810692822550564e-05,-0.00011897404988614468,7.97596878532314e-06,2.8419009350221257e-05,-0.0010695541112564356,-0.0013197582962760869,-0.0009739504527071928,0.0002623018447979445,0.00026648693505628123,0.0016264658348319975,0.3514034152030945,34.06295394897461,3.8506133556365967,-19.289278030395508,-0.11198955774307251,-1.783755898475647,0.11111776530742645,0
32,0.1569983959197998,-0.4029781222343445,-33.99154281616211,-3.7990386486053467,19.313081741333008,0.10008770227432251,1.777347207069397,-0.11844198405742645,0.0,0.0,0.0,0.0,0.0,0.0,0.0,-0.3686742342375216,0.06849917095117547,-0.22898467779111353,0.26662638829397994,0.048840398981756614,-0.12804045088317162,-0.15492728673229025,1.054531481604827,0.3237735237587035,-0.3925035699768458,-2.1530448334007932,0.8647945775416257,2.465997861901919,0.5444948549726281,1.0544104758940245,0.3238615046091247,-0.39250456234122666,-2.153291787532338,0.8647539153680389,2.46587817577521,0.5445020185570556,0.0009048637333116461,-0.00038506671392641776,2.0814964529318463e-05,-0.0003863040049597547,0.0022043436530405705,7.94515068566204e-05,-0.0013930912166963648,0.0,0.0,0.0,0.0,0.0,0.0,0.0,-0.0001210057108025353,8.798085042122095e-05,-9.923643808362748e-07,-0.00024695413154463,-4.06621735867807e-05,-0.00011968612670898438,7.163584427538616e-06,-0.0009048637333116461,0.00038506671392641776,-2.0814964529318463e-05,0.0003863040049597547,-0.0022043436530405705,-7.94515068566204e-05,0.0013930912166963648,0.4029781222343445,33.99154281616211,3.7990386486053467,-19.313081741333008,-0.10008770227432251,-1.777347207069397,0.11844198405742645,0
33,0.15960144996643066,-0.4029781222343445,-33.99154281616211,-3.7990386486053467,19.313081741333008,0.10008770227432251,1.777347207069397,-0.11844198405742645,0.0,0.0,0.0,0.0,0.0,0.0,0.0,-0.3686742342375216,0.06849917095117547,-0.22898467779111353,0.26662638829397994,0.048840398981756614,-0.12804045088317162,-0.15492728673229025,1.054531481604827,0.3237735237587035,-0.3925035699768458,-2.1530448334007932,0.8647945775416257,2.465997861901919,0.5444948549726281,1.0544104758940245,0.3238615046091247,-0.39250456234122666,-2.153291787532338,0.8647539153680389,2.46587817577521,0.5445020185570556,0.0009048637333116461,-0.00038506671392641776,2.0814964529318463e-05,-0.0003863040049597547,0.0022043436530405705,7.94515068566204e-05,-0.0013930912166963648,0.0,0.0,0.0,0.0,0.0,0.0,0.0,-0.0001210057108025353,8.798085042122095e-05,-9.923643808362748e-07,-0.00024695413154463,-4.06621735867807e-05,-0.00011968612670898438,7.163584427538616e-06,-0.0009048637333116461,0.00038506671392641776,-2.0814964529318463e-05,0.0003863040049597547,-0.0022043436530405705,-7.94515068566204e-05,0.0013930912166963648,0.4029781222343445,33.99154281616211,3.7990386486053467,-19.313081741333008,-0.10008770227432251,-1.777347207069397,0.11844198405742645,0
34,0.1645951271057129,-0.3752071261405945,-34.01534652709961,-3.7752349376678467,19.289278030395508,0.10558086633682251,1.777347207069397,-0.14590780436992645,0.0,0.0,0.0,0.0,0.0,0.0,0.0,-0.37547208553197164,0.05814768958353885,-0.23494808989398394,0.2723272839335539,0.04894636592735751,-0.12715110074206729,-0.1562549415476704,1.054529532762996,0.32377519708347363,-0.39250461606276194,-2.153043162964938,0.8647939671874046,2.465997861901919,0.5444979066765973,1.0544104758940245,0.3238615046091247,-0.39250456234122666,-2.153291787532338,0.8647539153680389,2.46587817577521,0.5445020185570556,-0.0002154373420314081,5.0777750535741634e-05,-0.0004760797377858606,0.0004798978110794413,-0.00015838284372531877,-0.00012108091057291248,-0.0009333671101488241,0.0,0.0,0.0,0.0,0.0,0.0,0.0,-0.00011905686897151213,8.63075256510859e-05,5.3721535275830234e-08,-0.00024862456740004646,-4.0051819365727326e-05,-0.00011968612670898438,4.1118804583462065e-06,0.0002154373420314081,-5.0777750535741634e-05,0.0004760797377858606,-0.0004798978110794413,0.00015838284372531877,0.00012108091057291248,0.0009333671101488241,0.3752071261405945,34.01534652709961,3.7752349376678467,-19.289278030395508,-0.10558086633682251,-1.777347207069397,0.14590780436992645,0
35,0.16954660415649414,-0.3752071261405945,-34.01534652709961,-3.7752349376678467,19.289278030395508,0.10558086633682251,1.777347207069397,-0.14590780436992645,0.0,0.0,0.0,0.0,0.0,0.0,0.0,-0.37547208553197164,0.05814768958353885,-0.23494808989398394,0.2723272839335539,0.04894636592735751,-0.12715110074206729,-0.1562549415476704,1.054529532762996,0.32377519708347363,-0.39250461606276194,-2.153043162964938,0.8647939671874046,2.465997861901919,0.5444979066765973,1.0544104758940245,0.3238615046091247,-0.39250456234122666,-2.153291787532338,0.8647539153680389,2.46587817577521,0.5445020185570556,-0.0002154373420314081,5.0777750535741634e-05,-0.0004760797377858606,0.0004798978110794413,-0.00015838284372531877,-0.00012108091057291248,-0.0009333671101488241,0.0,0.0,0.0,0.0,0.0,0.0,0.0,-0.00011905686897151213,8.63075256510859e-05,5.3721535275830234e-08,-0.00024862456740004646,-4.0051819365727326e-05,-0.00011968612670898438,4.1118804583462065e-06,0.0002154373420314081,-5.0777750535741634e-05,0.0004760797377858606,-0.0004798978110794413,0.00015838284372531877,0.00012108091057291248,0.0009333671101488241,0.3752071261405945,34.01534652709961,3.7752349376678467,-19.289278030395508,-0.10558086633682251,-1.777347207069397,0.14590780436992645,0
36,0.17459774017333984,-0.4029781222343445,-33.96377182006836,-3.8228423595428467,19.289278030395508,0.09367901086807251,1.796573281288147,-0.16604940593242645,0.0,0.0,0.0,0.0,0.0,0.0,0.0,-0.37489234438963953,0.06086532175686675,-0.23373406875812525,0.2731738899170013,0.048361386611824986,-0.1277967705897245,-0.15815213545256154,1.054531481604827,0.32377157780580346,-0.3925011598483149,-2.153043162964938,0.86479528961579,2.4659957256714504,0.5445001446323262,1.0544104758940245,0.3238615046091247,-0.39250456234122666,-2.153291787532338,0.8647539153680389,2.46587817577521,0.5445020185570556,0.0008045797192258996,-0.0009590269504743837,0.0003822624822161602,0.00047559776473916345,0.00020665427106966863,-0.00048343756446452425,0.0004490348122609014,0.0,0.0,0.0,0.0,0.0,0.0,0.0,-0.0001210057108025353,8.99268033212608e-05,-3.4024929117526526e-06,-0.00024862456740004646,-4.137424775108034e-05,-0.0001175498962404653,1.873924729389742e-06,-0.0008045797192258996,0.0009590269504743837,-0.0003822624822161602,-0.00047559776473916345,-0.00020665427106966863,0.00048343756446452425,-0.0004490348122609014,0.4029781222343445,33.96377182006836,3.8228423595428467,-19.289278030395508,-0.09367901086807251,-1.796573281288147,0.16604940593242645,0
37,0.1796579360961914,-0.4029781222343445,-33.96377182006836,-3.8228423595428467,19.289278030395508,0.09367901086807251,1.796573281288147,-0.16604940593242645,0.0,0.0,0.0,0.0,0.0,0.0,0.0,-0.37489234438963953,0.06086532175686675,-0.23373406875812525,0.2731738899170013,0.048361386611824986,-0.1277967705897245,-0.15815213545256154,1.054531481604827,0.32377157780580346,-0.3925011598483149,-2.153043162964938,0.86479528961579,2.4659957256714504,0.5445001446323262,1.0544104758940245,0.3238615046091247,-0.39250456234122666,-2.153291787532338,0.8647539153680389,2.46587817577521,0.5445020185570556,0.0008045797192258996,-0.0009590269504743837,0.0003822624822161602,0.00047559776473916345,0.00020665427106966863,-0.00048343756446452425,0.0004490348122609014,0.0,0.0,0.0,0.0,0.0,0.0,0.0,-0.0001210057108025353,8.99268033212608e-05,-3.4024929117526526e-06,-0.00024862456740004646,-4.137424775108034e-05,-0.0001175498962404653,1.873924729389742e-06,-0.0008045797192258996,0.0009590269504743837,-0.0003822624822161602,-0.00047559776473916345,-0.00020665427106966863,0.00048343756446452425,-0.0004490348122609014,0.4029781222343445,33.96377182006836,3.8228423595428467,-19.289278030395508,-0.09367901086807251,-1.796573281288147,0.16604940593242645,0
38,0.18459749221801758,-0.3752071261405945,-33.99154281616211,-3.7990386486053467,19.289278030395508,0.10558086633682251,1.783755898475647,-0.15964071452617645,0.0,0.0,0.0,0.0,0.0,0.0,0.0,-0.377682988063162,0.05505494580518024,-0.2371808406664272,0.2751897403350388,0.04791572240769677,-0.12661988087559922,-0.15804685096857762,1.054529532762996,0.3237735266476346,-0.39250389842491734,-2.1530429126635853,0.8647939671874046,2.465997149825096,0.5444994325555033,1.0544104758940245,0.3238615046091247,-0.39250456234122666,-2.153291787532338,0.8647539153680389,2.46587817577521,0.5445020185570556,-0.0002532168093933282,-0.0008176846697602741,-8.195633496831346e-05,0.0002485007152947404,-0.0001564133077815995,-0.00018108487382649494,0.00043102108352244137,0.0,0.0,0.0,0.0,0.0,0.0,0.0,-0.00011905686897151213,8.79779614901266e-05,-6.639163093180578e-07,-0.0002488748687525799,-4.0051819365727326e-05,-0.00011897404988614468,2.5860015523404556e-06,0.0002532168093933282,0.0008176846697602741,8.195633496831346e-05,-0.0002485007152947404,0.0001564133077815995,0.00018108487382649494,-0.00043102108352244137,0.3752071261405945,33.99154281616211,3.7990386486053467,-19.289278030395508,-0.10558086633682251,-1.783755898475647,0.15964071452617645,0
39,0.18959832191467285,-0.3752071261405945,-33.99154281616211,-3.7990386486053467,19.289278030395508,0.10558086633682251,1.783755898475647,-0.15964071452617645,0.0,0.0,0.0,0.0,0.0,0.0,0.0,-0.377682988063162,0.05505494580518024,-0.2371808406664272,0.2751897403350388,0.04791572240769677,-0.12661988087559922,-0.15804685096857762,1.054529532762996,0.3237735266476346,-0.39250389842491734,-2.1530429126635853,0.8647939671874046,2.465997149825096,0.5444994325555033,1.0544104758940245,0.3238615046091247,-0.39250456234122666,-2.153291787532338,0.8647539153680389,2.46587817577521,0.5445020185570556,-0.0002532168093933282,-0.0008176846697602741,-8.195633496831346e-05,0.0002485007152947404,-0.0001564133077815995,-0.00018108487382649494,0.00043102108352244137,0.0,0.0,0.0,0.0,0.0,0.0,0.0,-0.00011905686897151213,8.79779614901266e-05,-6.639163093180578e-07,-0.0002488748687525799,-4.0051819365727326e-05,-0.00011897404988614468,2.5860015523404556e-06,0.0002532168093933282,0.0008176846697602741,8.195633496831346e-05,-0.0002485007152947404,0.0001564133077815995,0.00018108487382649494,-0.00043102108352244137,0.3752071261405945,33.99154281616211,3.7990386486053467,-19.289278030395508,-0.10558086633682251,-1.783755898475647,0.15964071452617645,0
40,0.19459795951843262,-0.3752071261405945,-33.99154281616211,-3.7990386486053467,19.336885452270508,0.10008770227432251,1.783755898475647,-0.14590780436992645,0.0,0.0,0.0,0.0,0.0,0.0,0.0,-0.37517299933205567,0.05592727200305645,-0.23265819714040595,0.27465928218200397,0.04733962943300233,-0.12647447624571417,-0.15710125605822658,1.054529532762996,0.3237735266476346,-0.392502862663348,-2.1530442785961057,0.8647945775389672,2.465997149825096,0.544497906676597,1.0544104758940245,0.3238615046091247,-0.39250456234122666,-2.153291787532338,0.8647539153680389,2.46587817577521,0.5445020185570556,3.664187029528739e-05,-0.0005021870067480141,0.0001546968252571956,-0.0008429696188692037,-0.00019378179863876227,-0.00038923992814067005,-0.0005605790923604729,0.0,0.0,0.0,0.0,0.0,0.0,0.0,-0.00011905686897151213,8.79779614901266e-05,-1.6996778786637634e-06,-0.00024750893623215475,-4.066217092824065e-05,-0.00011897404988614468,4.111880458568251e-06,-3.664187029528739e-05,0.0005021870067480141,-0.0001546968252571956,0.0008429696188692037,0.00019378179863876227,0.00038923992814067005,0.0005605790923604729,0.3752071261405945,33.99154281616211,3.7990386486053467,-19.336885452270508,-0.10008770227432251,-1.783755898475647,0.14590780436992645,0
41,0.19959807395935059,-0.3752071261405945,-33.99154281616211,-3.7990386486053467,19.336885452270508,0.10008770227432251,1.783755898475647,-0.14590780436992645,0.0,0.0,0.0,0.0,0.0,0.0,0.0,-0.37517299933205567,0.05592727200305645,-0.23265819714040595,0.27465928218200397,0.04733962943300233,-0.12647447624571417,-0.15710125605822658,1.054529532762996,0.3237735266476346,-0.392502862663348,-2.1530442785961057,0.8647945775389672,2.465997149825096,0.544497906676597,1.0544104758940245,0.3238615046091247,-0.39250456234122666,-2.153291787532338,0.8647539153680389,2.46587817577521,0.5445020185570556,3.664187029528739e-05,-0.0005021870067480141,0.0001546968252571956,-0.0008429696188692037,-0.00019378179863876227,-0.00038923992814067005,-0.0005605790923604729,0.0,0.0,0.0,0.0,0.0,0.0,0.0,-0.00011905686897151213,8.79779614901266e-05,-1.6996778786637634e-06,-0.00024750893623215475,-4.066217092824065e-05,-0.00011897404988614468,4.111880458568251e-06,-3.664187029528739e-05,0.0005021870067480141,-0.0001546968252571956,0.0008429696188692037,0.00019378179863876227,0.00038923992814067005,0.0005605790923604729,0.3752071261405945,33.99154281616211,3.7990386486053467,-19.336885452270508,-0.10008770227432251,-1.783755898475647,0.14590780436992645,0
42,0.20455145835876465,-0.3752071261405945,-34.01534652709961,-3.8228423595428467,19.336885452270508,0.08177715539932251,1.770938515663147,-0.17978231608867645,0.0,0.0,0.0,0.0,0.0,0.0,0.0,-0.37925690420988883,0.06047282989483949,-0.23643280760153784,0.2717577468750994,0.04662524046722648,-0.12669128738630422,-0.1573582072101778,1.054529532762996,0.3237751970834899,-0.39250142530286397,-2.153046503798964,0.8647966120441755,2.465998573978742,0.5445017882488024,1.0544104758940245,0.3238615046091247,-0.39250456234122666,-2.153291787532338,0.8647539153680389,2.46587817577521,0.5445020185570556,0.00033886787536893843,0.0002623562951145931,0.00015482080270061535,-0.0010622299564726743,0.0006256725409608082,0.0003980010634889491,0.000512895262595224,0.0,0.0,0.0,0.0,0.0,0.0,0.0,-0.00011905686897151213,8.630752563482114e-05,-3.1370383626883047e-06,-0.00024528373337373566,-4.2696676136544376e-05,-0.00012039820353182407,2.3030825324621418e-07,-0.00033886787536893843,-0.0002623562951145931,-0.00015482080270061535,0.0010622299564726743,-0.0006256725409608082,-0.0003980010634889491,-0.000512895262595224,0.3752071261405945,34.01534652709961,3.8228423595428467,-19.336885452270508,-0.08177715539932251,-1.770938515663147,0.17978231608867645,0
43,0.20961499214172363,-0.3752071261405945,-34.01534652709961,-3.8228423595428467,19.336885452270508,0.08177715539932251,1.770938515663147,-0.17978231608867645,0.0,0.0,0.0,0.0,0.0,0.0,0.0,-0.37925690420988883,0.06047282989483949,-0.23643280760153784,0.2717577468750994,0.04662524046722648,-0.12669128738630422,-0.1573582072101778,1.054529532762996,0.3237751970834899,-0.39250142530286397,-2.153046503798964,0.8647966120441755,2.465998573978742,0.5445017882488024,1.0544104758940245,0.3238615046091247,-0.39250456234122666,-2.153291787532338,0.8647539153680389,2.46587817577521,0.5445020185570556,0.00033886787536893843,0.0002623562951145931,0.00015482080270061535,-0.0010622299564726743,0.0006256725409608082,0.0003980010634889491,0.000512895262595224,0.0,0.0,0.0,0.0,0.0,0.0,0.0,-0.00011905686897151213,8.630752563482114e-05,-3.1370383626883047e-06,-0.00024528373337373566,-4.2696676136544376e-05,-0.00012039820353182407,2.3030825324621418e-07,-0.00033886787536893843,-0.0002623562951145931,-0.00015482080270061535,0.0010622299564726743,-0.0006256725409608082,-0.0003980010634889491,-0.000512895262595224,0.3752071261405945,34.01534652709961,3.8228423595428467,-19.336885452270508,-0.08177715539932251,-1.770938515663147,0.17978231608867645,0
44,0.21464204788208008,-0.4029781222343445,-34.03915023803711,-3.7990386486053467,19.289278030395508,0.10008770227432251,1.770938515663147,-0.15231649577617645,0.0,0.0,0.0,0.0,0.0,0.0,0.0,-0.3687706736239061,0.06281023268039851,-0.22932142037995243,0.2708599915961765,0.04596045295917886,-0.1279197849759378,-0.15805481198131216,1.0545321968605643,0.32377686751934515,-0.39250309315856785,-2.153043162964938,0.8647977564533551,2.4659989271914515,0.5444996783917708,1.0544104758940245,0.3238615046091247,-0.39250456234122666,-2.153291787532338,0.8647539153680389,2.46587817577521,0.5445020185570556,0.000895203937923561,0.0005387069387643975,0.0004014477192787477,0.0006494908995466765,0.00018000535434769966,0.005389195013293269,-0.0002570122053431605,0.0,0.0,0.0,0.0,0.0,0.0,0.0,-0.00012172096653983999,8.463708977957118e-05,-1.4691826588086876e-06,-0.00024862456740004646,-4.384108531618747e-05,-0.00012075141624157126,2.3401652847754306e-06,-0.000895203937923561,-0.0005387069387643975,-0.0004014477192787477,-0.0006494908995466765,-0.00018000535434769966,-0.005389195013293269,0.0002570122053431605,0.4029781222343445,34.03915023803711,3.7990386486053467,-19.289278030395508,-0.10008770227432251,-1.770938515663147,0.15231649577617645,0
45,0.21962428092956543,-0.4029781222343445,-34.03915023803711,-3.7990386486053467,19.289278030395508,0.10008770227432251,1.770938515663147,-0.15231649577617645,0.0,0.0,0.0,0.0,0.0,0.0,0.0,-0.3687706736239061,0.06281023268039851,-0.22932142037995243,0.2708599915961765,0.04596045295917886,-0.1279197849759378,-0.15805481198131216,1.0545321968605643,0.32377686751934515,-0.39250309315856785,-2.153043162964938,0.8647977564533551,2.4659989271914515,0.5444996783917708,1.0544104758940245,0.3238615046091247,-0.39250456234122666,-2.153291787532338,0.8647539153680389,2.46587817577521,0.5445020185570556,0.000895203937923561,0.0005387069387643975,0.0004014477192787477,0.0006494908995466765,0.00018000535434769966,0.005389195013293269,-0.0002570122053431605,0.0,0.0,0.0,0.0,0.0,0.0,0.0,-0.00012172096653983999,8.463708977957118e-05,-1.4691826588086876e-06,-0.00024862456740004646,-4.384108531618747e-05,-0.00012075141624157126,2.3401652847754306e-06,-0.000895203937923561,-0.0005387069387643975,-0.0004014477192787477,-0.0006494908995466765,-0.00018000535434769966,-0.005389195013293269,0.0002570122053431605,0.4029781222343445,34.03915023803711,3.7990386486053467,-19.289278030395508,-0.10008770227432251,-1.770938515663147,0.15231649577617645,0
46,0.22462010383605957,-0.3752071261405945,-34.01534652709961,-3.7752349376678467,19.336885452270508,0.10008770227432251,1.763614296913147,-0.15964071452617645,0.0,0.0,0.0,0.0,0.0,0.0,0.0,-0.37684914044836887,0.0649129363512916,-0.2345630227460527,0.26858383258097235,0.04698759462525868,-0.1281896728995293,-0.15804934458526818,1.0545295327670334,0.3237751970834899,-0.3925077128852082,-2.1530465038366486,0.8647945775569122,2.4659993877828192,0.5444994325614849,1.0544104758940245,0.3238615046091247,-0.39250456234122666,-2.153291787532338,0.8647539153680389,2.46587817577521,0.5445020185570556,0.0006876394643266405,-6.13637961689265e-05,-0.0008216233210412599,-0.0008408210916392777,-0.0018046128713254338,0.000792041640564266,0.0002800496246191895,0.0,0.0,0.0,0.0,0.0,0.0,0.0,-0.00011905687300894918,8.630752563482114e-05,3.1505439815338043e-06,-0.0002452836956892135,-4.066218887333051e-05,-0.00012121200760928375,2.5859955706808435e-06,-0.0006876394643266405,6.13637961689265e-05,0.0008216233210412599,0.0008408210916392777,0.0018046128713254338,-0.000792041640564266,-0.0002800496246191895,0.3752071261405945,34.01534652709961,3.7752349376678467,-19.336885452270508,-0.10008770227432251,-1.763614296913147,0.15964071452617645,0
47,0.22959256172180176,-0.3752071261405945,-34.01534652709961,-3.7752349376678467,19.336885452270508,0.10008770227432251,1.763614296913147,-0.15964071452617645,0.0,0.0,0.0,0.0,0.0,0.0,0.0,-0.37684914044836887,0.0649129363512916,-0.2345630227460527,0.26858383258097235,0.04698759462525868,-0.1281896728995293,-0.15804934458526818,1.0545295327670334,0.3237751970834899,-0.3925077128852082,-2.1530465038366486,0.8647945775569122,2.4659993877828192,0.5444994325614849,1.0544104758940245,0.3238615046091247,-0.39250456234122666,-2.153291787532338,0.8647539153680389,2.46587817577521,0.5445020185570556,0.0006876394643266405,-6.13637961689265e-05,-0.0008216233210412599,-0.0008408210916392777,-0.0018046128713254338,0.000792041640564266,0.0002800496246191895,0.0,0.0,0.0,0.0,0.0,0.0,0.0,-0.00011905687300894918,8.630752563482114e-05,3.1505439815338043e-06,-0.0002452836956892135,-4.066218887333051e-05,-0.00012121200760928375,2.5859955706808435e-06,-0.0006876394643266405,6.13637961689265e-05,0.0008216233210412599,0.0008408210916392777,0.0018046128713254338,-0.000792041640564266,-0.0002800496246191895,0.3752071261405945,34.01534652709961,3.7752349376678467,-19.336885452270508,-0.10008770227432251,-1.763614296913147,0.15964071452617645,0
48,0.2346034049987793,-0.3752071261405945,-34.01534652709961,-3.8228423595428467,19.313081741333008,0.10558086633682251,1.770938515663147,-0.14590780436992645,0.0,0.0,0.0,0.0,0.0,0.0,0.0,-0.38481451998959226,0.06089005369316768,-0.24668715199887115,0.2748020252873,0.04621325566692905,-0.12636472460057277,-0.15735276010992374,1.054529532762996,0.3237751970834899,-0.392501980758298,-2.1530448303483376,0.8647939671874048,2.465998573978742,0.5444979067304322,1.0544104758940245,0.3238615046091247,-0.39250456234122666,-2.153291787532338,0.8647539153680389,2.46587817577521,0.5445020185570556,-0.00022094573618360418,0.0004091884318553531,0.00028600785940910287,0.00022351244361124774,-0.0002112994893064745,0.00016321536715378337,0.00010602928724079492,0.0,0.0,0.0,0.0,0.0,0.0,0.0,-0.00011905686897151213,8.630752563482114e-05,-2.5815829286512937e-06,-0.00024695718400025157,-4.005181936583835e-05,-0.00012039820353182407,4.111826623409698e-06,0.00022094573618360418,-0.0004091884318553531,-0.00028600785940910287,-0.00022351244361124774,0.0002112994893064745,-0.00016321536715378337,-0.00010602928724079492,0.3752071261405945,34.01534652709961,3.8228423595428467,-19.313081741333008,-0.10558086633682251,-1.770938515663147,0.14590780436992645,0
49,0.2395942211151123,-0.3752071261405945,-34.01534652709961,-3.8228423595428467,19.313081741333008,0.10558086633682251,1.770938515663147,-0.14590780436992645,0.0,0.0,0.0,0.0,0.0,0.0,0.0,-0.38481451998959226,0.06089005369316768,-0.24668715199887115,0.2748020252873,0.04621325566692905,-0.12636472460057277,-0.15735276010992374,1.054529532762996,0.3237751970834899,-0.392501980758298,-2.1530448303483376,0.8647939671874048,2.465998573978742,0.5444979067304322,1.0544104758940245,0.3238615046091247,-0.39250456234122666,-2.153291787532338,0.8647539153680389,2.46587817577521,0.5445020185570556,-0.00022094573618360418,0.0004091884318553531,0.00028600785940910287,0.00022351244361124774,-0.0002112994893064745,0.00016321536715378337,0.00010602928724079492,0.0,0.0,0.0,0.0,0.0,0.0,0.0,-0.00011905686897151213,8.630752563482114e-05,-2.5815829286512937e-06,-0.00024695718400025157,-4.005181936583835e-05,-0.00012039820353182407,4.111826623409698e-06,0.00022094573618360418,-0.0004091884318553531,-0.00028600785940910287,-0.00022351244361124774,0.0002112994893064745,-0.00016321536715378337,-0.00010602928724079492,0.3752071261405945,34.01534652709961,3.8228423595428467,-19.313081741333008,-0.10558086633682251,-1.770938515663147,0.14590780436992645,0
50,0.2445971965789795,-0.3752071261405945,-34.01534652709961,-3.8228423595428467,19.313081741333008,0.10558086633682251,1.770938515663147,-0.14590780436992645,0.0,0.0,0.0,0.0,0.0,0.0,0.0,-0.38481451998959226,0.06089005369316768,-0.24668715199887115,0.2748020252873,0.04621325566692905,-0.12636472460057277,-0.15735276010992374,1.054529532762996,0.3237751970834899,-0.392501980758298,-2.1530448303483376,0.8647939671874048,2.465998573978742,0.5444979067304322,1.0544104758940245,0.3238615046091247,-0.39250456234122666,-2.153291787532338,0.8647539153680389,2.46587817577521,0.5445020185570556,-0.00022094573618360418,0.0004091884318553531,0.00028600785940910287,0.00022351244361124774,-0.0002112994893064745,0.00016321536715378337,0.00010602928724079492,0.0,0.0,0.0,0.0,0.0,0.0,0.0,-0.00011905686897151213,8.630752563482114e-05,-2.5815829286512937e-06,-0.00024695718400025157,-4.005181936583835e-05,-0.00012039820353182407,4.111826623409698e-06,0.00022094573618360418,-0.0004091884318553531,-0.00028600785940910287,-0.00022351244361124774,0.0002112994893064745,-0.00016321536715378337,-0.00010602928724079492,0.3752071261405945,34.01534652709961,3.8228423595428467,-19.313081741333008,-0.10558086633682251,-1.770938515663147,0.14590780436992645,0
51,0.24959921836853027,-0.3752071261405945,-34.01534652709961,-3.8228423595428467,19.313081741333008,0.10558086633682251,1.770938515663147,-0.14590780436992645,0.0,0.0,0.0,0.0,0.0,0.0,0.0,-0.38481451998959226,0.06089005369316768,-0.24668715199887115,0.2748020252873,0.04621325566692905,-0.12636472460057277,-0.15735276010992374,1.054529532762996,0.3237751970834899,-0.392501980758298,-2.1530448303483376,0.8647939671874048,2.465998573978742,0.5444979067304322,1.0544104758940245,0.3238615046091247,-0.39250456234122666,-2.153291787532338,0.8647539153680389,2.46587817577521,0.5445020185570556,-0.00022094573618360418,0.0004091884318553531,0.00028600785940910287,0.00022351244361124774,-0.0002112994893064745,0.00016321536715378337,0.00010602928724079492,0.0,0.0,0.0,0.0,0.0,0.0,0.0,-0.00011905686897151213,8.630752563482114e-05,-2.5815829286512937e-06,-0.00024695718400025157,-4.005181936583835e-05,-0.00012039820353182407,4.111826623409698e-06,0.00022094573618360418,-0.0004091884318553531,-0.00028600785940910287,-0.00022351244361124774,0.0002112994893064745,-0.00016321536715378337,-0.00010602928724079492,0.3752071261405945,34.01534652709961,3.8228423595428467,-19.313081741333008,-0.10558086633682251,-1.770938515663147,0.14590780436992645,0
52,0.25459885597229004,-0.3514034152030945,-33.99154281616211,-3.7752349376678467,19.289278030395508,0.10008770227432251,1.777347207069397,-0.16604940593242645,0.0,0.0,0.0,0.0,0.0,0.0,0.0,-0.36799148449635555,0.06689854017359548,-0.23228119602018504,0.27334133413959383,0.04537708240912537,-0.12868463610510514,-0.15620310701164822,1.0545278623271406,0.3237735266476346,-0.3925054819067632,-2.153043153807554,0.8647945906209193,2.465997861901919,0.5445001460858767,1.0544104758940245,0.3238615046091247,-0.39250456234122666,-2.153291787532338,0.8647539153680389,2.46587817577521,0.5445020185570556,-0.000716214547712679,-0.00019883684925503273,-0.0003196498586531979,0.0004530860046724652,0.002290571154810399,-0.0003001917868279119,0.00043508234549618623,0.0,0.0,0.0,0.0,0.0,0.0,0.0,-0.00011738643311609565,8.79779614901266e-05,9.195655365501487e-07,-0.00024863372478378665,-4.0675252880428836e-05,-0.00011968612670898438,1.872471178887558e-06,0.000716214547712679,0.00019883684925503273,0.0003196498586531979,-0.0004530860046724652,-0.002290571154810399,0.0003001917868279119,-0.00043508234549618623,0.3514034152030945,33.99154281616211,3.7752349376678467,-19.289278030395508,-0.10008770227432251,-1.777347207069397,0.16604940593242645,0
53,0.2596123218536377,-0.3514034152030945,-33.99154281616211,-3.7752349376678467,19.289278030395508,0.10008770227432251,1.777347207069397,-0.16604940593242645,0.0,0.0,0.0,0.0,0.0,0.0,0.0,-0.36799148449635555,0.06689854017359548,-0.23228119602018504,0.27334133413959383,0.04537708240912537,-0.12868463610510514,-0.15620310701164822,1.0545278623271406,0.3237735266476346,-0.3925054819067632,-2.153043153807554,0.8647945906209193,2.465997861901919,0.5445001460858767,1.0544104758940245,0.3238615046091247,-0.39250456234122666,-2.153291787532338,0.8647539153680389,2.46587817577521,0.5445020185570556,-0.000716214547712679,-0.00019883684925503273,-0.0003196498586531979,0.0004530860046724652,0.002290571154810399,-0.0003001917868279119,0.00043508234549618623,0.0,0.0,0.0,0.0,0.0,0.0,0.0,-0.00011738643311609565,8.79779614901266e-05,9.195655365501487e-07,-0.00024863372478378665,-4.0675252880428836e-05,-0.00011968612670898438,1.872471178887558e-06,0.000716214547712679,0.00019883684925503273,0.0003196498586531979,-0.0004530860046724652,-0.002290571154810399,0.0003001917868279119,-0.00043508234549618623,0.3514034152030945,33.99154281616211,3.7752349376678467,-19.289278030395508,-0.10008770227432251,-1.777347207069397,0.16604940593242645,0
54,0.26460719108581543,-0.4267818331718445,-34.03915023803711,-3.7752349376678467,19.289278030395508,0.11198955774307251,1.763614296913147,-0.13858358561992645,0.0,0.0,0.0,0.0,0.0,0.0,0.0,-0.3706910695816144,0.057197213634009474,-0.23399155118450043,0.2788713872399876,0.0468744359013485,-0.1291900418613617,-0.15449670481470862,1.0545331520406824,0.32377686751934515,-0.3925074379865728,-2.1530431629648863,0.8647932551106555,2.4659993877808253,0.5444971059564742,1.0544104758940245,0.3238615046091247,-0.39250456234122666,-2.153291787532338,0.8647539153680389,2.46587817577521,0.5445020185570556,0.0015249871456474086,0.0005830944922999686,-0.00021888030351982819,0.0007051074492664328,-0.0004829234865773457,0.0004977206399804037,0.0003119244834464994,0.0,0.0,0.0,0.0,0.0,0.0,0.0,-0.0001226761466579518,8.463708977957118e-05,2.875645346123168e-06,-0.0002486245674515608,-3.9339742616606443e-05,-0.00012121200561532319,4.912600581441495e-06,-0.0015249871456474086,-0.0005830944922999686,0.00021888030351982819,-0.0007051074492664328,0.0004829234865773457,-0.0004977206399804037,-0.0003119244834464994,0.4267818331718445,34.03915023803711,3.7752349376678467,-19.289278030395508,-0.11198955774307251,-1.763614296913147,0.13858358561992645,0
55,0.26959228515625,-0.4267818331718445,-34.03915023803711,-3.7752349376678467,19.289278030395508,0.11198955774307251,1.763614296913147,-0.13858358561992645,0.0,0.0,0.0,0.0,0.0,0.0,0.0,-0.3706910695816144,0.057197213634009474,-0.23399155118450043,0.2788713872399876,0.0468744359013485,-0.1291900418613617,-0.15449670481470862,1.0545331520406824,0.32377686751934515,-0.3925074379865728,-2.1530431629648863,0.8647932551106555,2.4659993877808253,0.5444971059564742,1.0544104758940245,0.3238615046091247,-0.39250456234122666,-2.153291787532338,0.8647539153680389,2.46587817577521,0.5445020185570556,0.0015249871456474086,0.0005830944922999686,-0.00021888030351982819,0.0007051074492664328,-0.0004829234865773457,0.0004977206399804037,0.0003119244834464994,0.0,0.0,0.0,0.0,0.0,0.0,0.0,-0.0001226761466579518,8.463708977957118e-05,2.875645346123168e-06,-0.0002486245674515608,-3.9339742616606443e-05,-0.00012121200561532319,4.912600581441495e-06,-0.0015249871456474086,-0.0005830944922999686,0.00021888030351982819,-0.0007051074492664328,0.0004829234865773457,-0.0004977206399804037,-0.0003119244834464994,0.4267818331718445,34.03915023803711,3.7752349376678467,-19.289278030395508,-0.11198955774307251,-1.763614296913147,0.13858358561992645,0
56,0.27460646629333496,-0.4029781222343445,-34.03915023803711,-3.7990386486053467,19.313081741333008,0.10558086633682251,1.770938515663147,-0.16604940593242645,0.0,0.0,0.0,0.0,0.0,0.0,0.0,-0.37678493376014344,0.058273964726598314,-0.23514325681473153,0.2773896658307329,0.047115991192537836,-0.1297082094803406,-0.1518962433331173,1.054531481604827,0.32377686751934515,-0.39250389051964946,-2.1530448334007932,0.8647939802693568,2.465998573978742,0.5445001446324,1.0544104758940245,0.3238615046091247,-0.39250456234122666,-2.153291787532338,0.8647539153680389,2.46587817577521,0.5445020185570556,0.0007227033200564888,0.0005244388920502913,0.00010491105846138973,0.00018401490714917864,-0.00019032670319581282,0.00018161114031505814,0.00039674434708923765,0.0,0.0,0.0,0.0,0.0,0.0,0.0,-0.0001210057108025353,8.463708977957118e-05,-6.718215772028024e-07,-0.00024695413154463,-4.006490131791551e-05,-0.00012039820353182407,1.873924655559911e-06,-0.0007227033200564888,-0.0005244388920502913,-0.00010491105846138973,-0.00018401490714917864,0.00019032670319581282,-0.00018161114031505814,-0.00039674434708923765,0.4029781222343445,34.03915023803711,3.7990386486053467,-19.313081741333008,-0.10558086633682251,-1.770938515663147,0.16604940593242645,0
57,0.2796289920806885,-0.4029781222343445,-34.03915023803711,-3.7990386486053467,19.313081741333008,0.10558086633682251,1.770938515663147,-0.16604940593242645,0.0,0.0,0.0,0.0,0.0,0.0,0.0,-0.37678493376014344,0.058273964726598314,-0.23514325681473153,0.2773896658307329,0.047115991192537836,-0.1297082094803406,-0.1518962433331173,1.054531481604827,0.32377686751934515,-0.39250389051964946,-2.1530448334007932,0.8647939802693568,2.465998573978742,0.5445001446324,1.0544104758940245,0.3238615046091247,-0.39250456234122666,-2.153291787532338,0.8647539153680389,2.46587817577521,0.5445020185570556,0.0007227033200564888,0.0005244388920502913,0.00010491105846138973,0.00018401490714917864,-0.00019032670319581282,0.00018161114031505814,0.00039674434708923765,0.0,0.0,0.0,0.0,0.0,0.0,0.0,-0.0001210057108025353,8.463708977957118e-05,-6.718215772028024e-07,-0.00024695413154463,-4.006490131791551e-05,-0.00012039820353182407,1.873924655559911e-06,-0.0007227033200564888,-0.0005244388920502913,-0.00010491105846138973,-0.00018401490714917864,0.00019032670319581282,-0.00018161114031505814,-0.00039674434708923765,0.4029781222343445,34.03915023803711,3.7990386486053467,-19.313081741333008,-0.10558086633682251,-1.770938515663147,0.16604940593242645,0
58,0.28464221954345703,-0.3752071261405945,-34.03915023803711,-3.7990386486053467,19.289278030395508,0.10008770227432251,1.783755898475647,-0.15964071452617645,0.0,0.0,0.0,0.0,0.0,0.0,0.0,-0.3785345821717049,0.06177045966224148,-0.2350591758170483,0.27414918387896203,0.04714403890025179,-0.1303334164679638,-0.15194847071872478,1.054529532762996,0.32377686751934515,-0.3925030949164366,-2.153043162964938,0.8647945775389918,2.465997149825096,0.5444994340090534,1.0544104758940245,0.3238615046091247,-0.39250456234122666,-2.153291787532338,0.8647539153680389,2.46587817577521,0.5445020185570556,-0.0001375783895511324,0.0005761457482392134,-0.00011610347327559464,0.00016703923093491413,5.125072246659483e-05,-0.0002917678568333353,0.0001747780470816422,0.0,0.0,0.0,0.0,0.0,0.0,0.0,-0.00011905686897151213,8.463708977957118e-05,-1.4674247900692272e-06,-0.00024862456740004646,-4.06621709528876e-05,-0.00011897404988614468,2.5845480021713385e-06,0.0001375783895511324,-0.0005761457482392134,0.00011610347327559464,-0.00016703923093491413,-5.125072246659483e-05,0.0002917678568333353,-0.0001747780470816422,0.3752071261405945,34.03915023803711,3.7990386486053467,-19.289278030395508,-0.10008770227432251,-1.783755898475647,0.15964071452617645,0
59,0.2896099090576172,-0.3752071261405945,-34.03915023803711,-3.7990386486053467,19.289278030395508,0.10008770227432251,1.783755898475647,-0.15964071452617645,0.0,0.0,0.0,0.0,0.0,0.0,0.0,-0.3785345821717049,0.06177045966224148,-0.2350591758170483,0.27414918387896203,0.04714403890025179,-0.1303334164679638,-0.15194847071872478,1.054529532762996,0.32377686751934515,-0.3925030949164366,-2.153043162964938,0.8647945775389918,2.465997149825096,0.5444994340090534,1.0544104758940245,0.3238615046091247,-0.39250456234122666,-2.153291787532338,0.8647539153680389,2.46587817577521,0.5445020185570556,-0.0001375783895511324,0.0005761457482392134,-0.00011610347327559464,0.00016703923093491413,5.125072246659483e-05,-0.0002917678568333353,0.0001747780470816422,0.0,0.0,0.0,0.0,0.0,0.0,0.0,-0.00011905686897151213,8.463708977957118e-05,-1.4674247900692272e-06,-0.00024862456740004646,-4.06621709528876e-05,-0.00011897404988614468,2.5845480021713385e-06,0.0001375783895511324,-0.0005761457482392134,0.00011610347327559464,-0.00016703923093491413,-5.125072246659483e-05,0.0002917678568333353,-0.0001747780470816422,0.3752071261405945,34.03915023803711,3.7990386486053467,-19.289278030395508,-0.10008770227432251,-1.783755898475647,0.15964071452617645,0
60,0.29459452629089355,-0.3752071261405945,-33.99154281616211,-3.7752349376678467,19.336885452270508,0.11198955774307251,1.777347207069397,-0.17337362468242645,0.0,0.0,0.0,0.0,0.0,0.0,0.0,-0.3757327000884789,0.06621651159555579,-0.23227043653744917,0.26975412169417046,0.046991724135723334,-0.13078682752106183,-0.1516088067080437,1.054529532762996,0.3237735266476346,-0.3925054513427291,-2.1530465038366486,0.8647932551105817,2.465997861901919,0.5445009976802744,1.0544104758940245,0.3238615046091247,-0.39250456234122666,-2.153291787532338,0.8647539153680389,2.46587817577521,0.5445020185570556,0.00010806381822499286,5.395528868378397e-05,-0.0007711702298153361,-0.0010911738210009827,-0.0004260316701877773,-4.4306256733857256e-05,0.0007409340644208169,0.0,0.0,0.0,0.0,0.0,0.0,0.0,-0.00011905686897151213,8.79779614901266e-05,8.890015024132225e-07,-0.0002452836956892135,-3.933974254277661e-05,-0.00011968612670898438,1.0208767812214248e-06,-0.00010806381822499286,-5.395528868378397e-05,0.0007711702298153361,0.0010911738210009827,0.0004260316701877773,4.4306256733857256e-05,-0.0007409340644208169,0.3752071261405945,33.99154281616211,3.7752349376678467,-19.336885452270508,-0.11198955774307251,-1.777347207069397,0.17337362468242645,0
61,0.2995491027832031,-0.3752071261405945,-33.99154281616211,-3.7752349376678467,19.336885452270508,0.11198955774307251,1.777347207069397,-0.17337362468242645,0.0,0.0,0.0,0.0,0.0,0.0,0.0,-0.3757327000884789,0.06621651159555579,-0.23227043653744917,0.26975412169417046,0.046991724135723334,-0.13078682752106183,-0.1516088067080437,1.054529532762996,0.3237735266476346,-0.3925054513427291,-2.1530465038366486,0.8647932551105817,2.465997861901919,0.5445009976802744,1.0544104758940245,0.3238615046091247,-0.39250456234122666,-2.153291787532338,0.8647539153680389,2.46587817577521,0.5445020185570556,0.00010806381822499286,5.395528868378397e-05,-0.0007711702298153361,-0.0010911738210009827,-0.0004260316701877773,-4.4306256733857256e-05,0.0007409340644208169,0.0,0.0,0.0,0.0,0.0,0.0,0.0,-0.00011905686897151213,8.79779614901266e-05,8.890015024132225e-07,-0.0002452836956892135,-3.933974254277661e-05,-0.00011968612670898438,1.0208767812214248e-06,-0.00010806381822499286,-5.395528868378397e-05,0.0007711702298153361,0.0010911738210009827,0.0004260316701877773,4.4306256733857256e-05,-0.0007409340644208169,0.3752071261405945,33.99154281616211,3.7752349376678467,-19.336885452270508,-0.11198955774307251,-1.777347207069397,0.17337362468242645,0
62,0.304593563079834,-0.3752071261405945,-34.03915023803711,-3.7990386486053467,19.313081741333008,0.10008770227432251,1.783755898475647,-0.13858358561992645,0.0,0.0,0.0,0.0,0.0,0.0,0.0,-0.38712538788598005,0.05582741989823182,-0.24345806718499066,0.2771569816177413,0.047487438546758805,-0.1285257964797862,-0.15221844893018507,1.054529532762996,0.32377686751934515,-0.39250364912084845,-2.1530448334007932,0.8647945775389672,2.465997149825096,0.5444970930366839,1.0544104758940245,0.3238615046091247,-0.39250456234122666,-2.153291787532338,0.8647539153680389,2.46587817577521,0.5445020185570556,-0.000468831025958732,0.0010497353779330071,-0.0005975406649818814,0.00030795651602670294,7.189546887152578e-05,-0.00014369259614757814,-0.00042453575184136903,0.0,0.0,0.0,0.0,0.0,0.0,0.0,-0.00011905686897151213,8.463708977957118e-05,-9.132203782069581e-07,-0.00024695413154463,-4.066217092824065e-05,-0.00011897404988614468,4.9255203716791485e-06,0.000468831025958732,-0.0010497353779330071,0.0005975406649818814,-0.00030795651602670294,-7.189546887152578e-05,0.00014369259614757814,0.00042453575184136903,0.3752071261405945,34.03915023803711,3.7990386486053467,-19.313081741333008,-0.10008770227432251,-1.783755898475647,0.13858358561992645,0
63,0.3099968433380127,-0.3752071261405945,-34.03915023803711,-3.7990386486053467,19.313081741333008,0.10008770227432251,1.783755898475647,-0.13858358561992645,0.0,0.0,0.0,0.0,0.0,0.0,0.0,-0.38712538788598005,0.05582741989823182,-0.24345806718499066,0.2771569816177413,0.047487438546758805,-0.1285257964797862,-0.15221844893018507,1.054529532762996,0.32377686751934515,-0.39250364912084845,-2.1530448334007932,0.8647945775389672,2.465997149825096,0.5444970930366839,1.0544104758940245,0.3238615046091247,-0.39250456234122666,-2.153291787532338,0.8647539153680389,2.46587817577521,0.5445020185570556,-0.000468831025958732,0.0010497353779330071,-0.0005975406649818814,0.00030795651602670294,7.189546887152578e-05,-0.00014369259614757814,-0.00042453575184136903,0.0,0.0,0.0,0.0,0.0,0.0,0.0,-0.00011905686897151213,8.463708977957118e-05,-9.132203782069581e-07,-0.00024695413154463,-4.066217092824065e-05,-0.00011897404988614468,4.9255203716791485e-06,0.000468831025958732,-0.0010497353779330071,0.0005975406649818814,-0.00030795651602670294,-7.189546887152578e-05,0.00014369259614757814,0.00042453575184136903,0.3752071261405945,34.03915023803711,3.7990386486053467,-19.313081741333008,-0.10008770227432251,-1.783755898475647,0.13858358561992645,0
64,0.31462717056274414,-0.3514034152030945,-34.03915023803711,-3.7990386486053467,19.313081741333008,0.10558086633682251,1.763614296913147,-0.16604940593242645,0.0,0.0,0.0,0.0,0.0,0.0,0.0,-0.3690327635438246,0.05674035077141715,-0.2288844524322521,0.2778862337212737,0.0469249324128351,-0.12934422806812218,-0.1531694872200567,1.0545278623271406,0.32377686751934515,-0.3925038875248186,-2.1530448334007932,0.8647939671874046,2.4659993877808253,0.5445001838781831,1.0544104758940245,0.3238615046091247,-0.39250456234122666,-2.153291787532338,0.8647539153680389,2.46587817577521,0.5445020185570556,-0.0002741692277411011,0.0001684451739706173,0.0001711413937042177,-0.00029785267987178775,-0.00015822418551381947,0.0004825672297319464,0.00044249446659342127,0.0,0.0,0.0,0.0,0.0,0.0,0.0,-0.00011738643311609565,8.463708977957118e-05,-6.748164080860874e-07,-0.00024695413154463,-4.0051819365727326e-05,-0.00012121200561532319,1.8346788724921126e-06,0.0002741692277411011,-0.0001684451739706173,-0.0001711413937042177,0.00029785267987178775,0.00015822418551381947,-0.0004825672297319464,-0.00044249446659342127,0.3514034152030945,34.03915023803711,3.7990386486053467,-19.313081741333008,-0.10558086633682251,-1.763614296913147,0.16604940593242645,0
65,0.31960201263427734,-0.3514034152030945,-34.03915023803711,-3.7990386486053467,19.313081741333008,0.10558086633682251,1.763614296913147,-0.16604940593242645,0.0,0.0,0.0,0.0,0.0,0.0,0.0,-0.3690327635438246,0.05674035077141715,-0.2288844524322521,0.2778862337212737,0.0469249324128351,-0.12934422806812218,-0.1531694872200567,1.0545278623271406,0.32377686751934515,-0.3925038875248186,-2.1530448334007932,0.8647939671874046,2.4659993877808253,0.5445001838781831,1.0544104758940245,0.3238615046091247,-0.39250456234122666,-2.153291787532338,0.8647539153680389,2.46587817577521,0.5445020185570556,-0.0002741692277411011,0.0001684451739706173,0.0001711413937042177,-0.00029785267987178775,-0.00015822418551381947,0.0004825672297319464,0.00044249446659342127,0.0,0.0,0.0,0.0,0.0,0.0,0.0,-0.00011738643311609565,8.463708977957118e-05,-6.748164080860874e-07,-0.00024695413154463,-4.0051819365727326e-05,-0.00012121200561532319,1.8346788724921126e-06,0.0002741692277411011,-0.0001684451739706173,-0.0001711413937042177,0.00029785267987178775,0.00015822418551381947,-0.0004825672297319464,-0.00044249446659342127,0.3514034152030945,34.03915023803711,3.7990386486053467,-19.313081741333008,-0.10558086633682251,-1.763614296913147,0.16604940593242645,0
66,0.32460522651672363,-0.3514034152030945,-34.01534652709961,-3.7752349376678467,19.313081741333008,0.10558086633682251,1.777347207069397,-0.13217489421367645,0.0,0.0,0.0,0.0,0.0,0.0,0.0,-0.3876166119900998,0.05195640462657342,-0.24733309814202878,0.2811645428058361,0.047817724265228706,-0.12585036075642353,-0.15425193330276626,1.0545278623271406,0.3237751970834899,-0.39250696136787644,-2.1530448303483376,0.8647939671874046,2.465997861901919,0.5444963807979123,1.0544104758940245,0.3238615046091247,-0.39250456234122666,-2.153291787532338,0.8647539153680389,2.46587817577521,0.5445020185570556,-0.0005962245231674932,-0.00022462845554241018,-0.0003818179939302362,-0.0002824765289926983,8.41078161972939e-05,-0.0010837672731448715,-0.0004991923143448074,0.0,0.0,0.0,0.0,0.0,0.0,0.0,-0.00011738643311609565,8.630752563482114e-05,2.3990266497797563e-06,-0.00024695718400025157,-4.0051819365727326e-05,-0.00011968612670898438,5.637759143306553e-06,0.0005962245231674932,0.00022462845554241018,0.0003818179939302362,0.0002824765289926983,-8.41078161972939e-05,0.0010837672731448715,0.0004991923143448074,0.3514034152030945,34.01534652709961,3.7752349376678467,-19.313081741333008,-0.10558086633682251,-1.777347207069397,0.13217489421367645,0
67,0.3296535015106201,-0.3514034152030945,-34.01534652709961,-3.7752349376678467,19.313081741333008,0.10558086633682251,1.777347207069397,-0.13217489421367645,0.0,0.0,0.0,0.0,0.0,0.0,0.0,-0.3876166119900998,0.05195640462657342,-0.24733309814202878,0.2811645428058361,0.047817724265228706,-0.12585036075642353,-0.15425193330276626,1.0545278623271406,0.3237751970834899,-0.39250696136787644,-2.1530448303483376,0.8647939671874046,2.465997861901919,0.5444963807979123,1.0544104758940245,0.3238615046091247,-0.39250456234122666,-2.153291787532338,0.8647539153680389,2.46587817577521,0.5445020185570556,-0.0005962245231674932,-0.00022462845554241018,-0.0003818179939302362,-0.0002824765289926983,8.41078161972939e-05,-0.0010837672731448715,-0.0004991923143448074,0.0,0.0,0.0,0.0,0.0,0.0,0.0,-0.00011738643311609565,8.630752563482114e-05,2.3990266497797563e-06,-0.00024695718400025157,-4.0051819365727326e-05,-0.00011968612670898438,5.637759143306553e-06,0.0005962245231674932,0.00022462845554241018,0.0003818179939302362,0.0002824765289926983,-8.41078161972939e-05,0.0010837672731448715,0.0004991923143448074,0.3514034152030945,34.01534652709961,3.7752349376678467,-19.313081741333008,-0.10558086633682251,-1.777347207069397,0.13217489421367645,0
68,0.3345963954925537,-0.3514034152030945,-34.03915023803711,-3.7752349376678467,19.336885452270508,0.10558086633682251,1.770938515663147,-0.15231649577617645,0.0,0.0,0.0,0.0,0.0,0.0,0.0,-0.3651336605693582,0.054422927906090615,-0.22632656990390604,0.27750322609640976,0.048379579733296034,-0.1294176583830519,-0.15395134710500114,1.0545278623271406,0.32377686751934515,-0.39250767924792646,-2.1530465038366313,0.8647939671874046,2.465998573978742,0.54449861875342,1.0544104758940245,0.3238615046091247,-0.39250456234122666,-2.153291787532338,0.8647539153680389,2.46587817577521,0.5445020185570556,0.0001649625770615592,0.0005270293099502655,0.0002008223291291047,-0.00015258437173347076,-1.619976278337576e-05,0.00031124656375977714,-0.00016585148636788375,0.0,0.0,0.0,0.0,0.0,0.0,0.0,-0.00011738643311609565,8.463708977957118e-05,3.1169066997960293e-06,-0.00024528369570653297,-4.0051819365727326e-05,-0.00012039820353182407,3.3998036356175376e-06,-0.0001649625770615592,-0.0005270293099502655,-0.0002008223291291047,0.00015258437173347076,1.619976278337576e-05,-0.00031124656375977714,0.00016585148636788375,0.3514034152030945,34.03915023803711,3.7752349376678467,-19.336885452270508,-0.10558086633682251,-1.770938515663147,0.15231649577617645,0
69,0.3396131992340088,-0.3514034152030945,-34.03915023803711,-3.7752349376678467,19.336885452270508,0.10558086633682251,1.770938515663147,-0.15231649577617645,0.0,0.0,0.0,0.0,0.0,0.0,0.0,-0.3651336605693582,0.054422927906090615,-0.22632656990390604,0.27750322609640976,0.048379579733296034,-0.1294176583830519,-0.15395134710500114,1.0545278623271406,0.32377686751934515,-0.39250767924792646,-2.1530465038366313,0.8647939671874046,2.465998573978742,0.54449861875342,1.0544104758940245,0.3238615046091247,-0.39250456234122666,-2.153291787532338,0.8647539153680389,2.46587817577521,0.5445020185570556,0.0001649625770615592,0.0005270293099502655,0.0002008223291291047,-0.00015258437173347076,-1.619976278337576e-05,0.00031124656375977714,-0.00016585148636788375,0.0,0.0,0.0,0.0,0.0,0.0,0.0,-0.00011738643311609565,8.463708977957118e-05,3.1169066997960293e-06,-0.00024528369570653297,-4.0051819365727326e-05,-0.00012039820353182407,3.3998036356175376e-06,-0.0001649625770615592,-0.0005270293099502655,-0.0002008223291291047,0.00015258437173347076,1.619976278337576e-05,-0.00031124656375977714,0.00016585148636788375,0.3514034152030945,34.03915023803711,3.7752349376678467,-19.336885452270508,-0.10558086633682251,-1.770938515663147,0.15231649577617645,0
70,0.34461236000061035,-0.3514034152030945,-34.01534652709961,-3.7514312267303467,19.313081741333008,0.11748272180557251,1.777347207069397,-0.14590780436992645,0.0,0.0,0.0,0.0,0.0,0.0,0.0,-0.3830934521918,0.06387666492253817,-0.24050051789935198,0.2680736591851051,0.04973496633784628,-0.12870739267057477,-0.1538509646307942,1.0545278623271406,0.3237751970834899,-0.3925065165730497,-2.153044824243427,0.8647926447590192,2.465997861901919,0.544498024414167,1.0544104758940245,0.3238615046091247,-0.39250456234122666,-2.153291787532338,0.8647539153680389,2.46587817577521,0.5445020185570556,-0.0007254637786227511,0.00036974780710371516,-0.0012740769713196645,-2.8544263364649214e-05,-0.000499645238933957,-3.365661846379852e-05,1.0985070231328458e-06,0.0,0.0,0.0,0.0,0.0,0.0,0.0,-0.00011738643311609565,8.630752563482114e-05,1.9542318230314493e-06,-0.0002469632889110507,-3.872939098026329e-05,-0.00011968612670898438,3.994142888652519e-06,0.0007254637786227511,-0.00036974780710371516,0.0012740769713196645,2.8544263364649214e-05,0.000499645238933957,3.365661846379852e-05,-1.0985070231328458e-06,0.3514034152030945,34.01534652709961,3.7514312267303467,-19.313081741333008,-0.11748272180557251,-1.777347207069397,0.14590780436992645,0
71,0.3495972156524658,-0.3514034152030945,-34.01534652709961,-3.7514312267303467,19.313081741333008,0.11748272180557251,1.777347207069397,-0.14590780436992645,0.0,0.0,0.0,0.0,0.0,0.0,0.0,-0.3830934521918,0.06387666492253817,-0.24050051789935198,0.2680736591851051,0.04973496633784628,-0.12870739267057477,-0.1538509646307942,1.0545278623271406,0.3237751970834899,-0.3925065165730497,-2.153044824243427,0.8647926447590192,2.465997861901919,0.544498024414167,1.0544104758940245,0.3238615046091247,-0.39250456234122666,-2.153291787532338,0.8647539153680389,2.46587817577521,0.5445020185570556,-0.0007254637786227511,0.00036974780710371516,-0.0012740769713196645,-2.8544263364649214e-05,-0.000499645238933957,-3.365661846379852e-05,1.0985070231328458e-06,0.0,0.0,0.0,0.0,0.0,0.0,0.0,-0.00011738643311609565,8.630752563482114e-05,1.9542318230314493e-06,-0.0002469632889110507,-3.872939098026329e-05,-0.00011968612670898438,3.994142888652519e-06,0.0007254637786227511,-0.00036974780710371516,0.0012740769713196645,2.8544263364649214e-05,0.000499645238933957,3.365661846379852e-05,-1.0985070231328458e-06,0.3514034152030945,34.01534652709961,3.7514312267303467,-19.313081741333008,-0.11748272180557251,-1.777347207069397,0.14590780436992645,0
72,0.3545560836791992,-0.3514034152030945,-34.01534652709961,-3.7514312267303467,19.313081741333008,0.11748272180557251,1.777347207069397,-0.14590780436992645,0.0,0.0,0.0,0.0,0.0,0.0,0.0,-0.3830934521918,0.06387666492253817,-0.24050051789935198,0.2680736591851051,0.04973496633784628,-0.12870739267057477,-0.1538509646307942,1.0545278623271406,0.3237751970834899,-0.3925065165730497,-2.153044824243427,0.8647926447590192,2.465997861901919,0.544498024414167,1.0544104758940245,0.3238615046091247,-0.39250456234122666,-2.153291787532338,0.8647539153680389,2.46587817577521,0.5445020185570556,-0.0007254637786227511,0.00036974780710371516,-0.0012740769713196645,-2.8544263364649214e-05,-0.000499645238933957,-3.365661846379852e-05,1.0985070231328458e-06,0.0,0.0,0.0,0.0,0.0,0.0,0.0,-0.00011738643311609565,8.630752563482114e-05,1.9542318230314493e-06,-0.0002469632889110507,-3.872939098026329e-05,-0.00011968612670898438,3.994142888652519e-06,0.0007254637786227511,-0.00036974780710371516,0.0012740769713196645,2.8544263364649214e-05,0.000499645238933957,3.365661846379852e-05,-1.0985070231328458e-06,0.3514034152030945,34.01534652709961,3.7514312267303467,-19.313081741333008,-0.11748272180557251,-1.777347207069397,0.14590780436992645,0
73,0.35960865020751953,-0.3514034152030945,-34.01534652709961,-3.7514312267303467,19.313081741333008,0.11748272180557251,1.777347207069397,-0.14590780436992645,0.0,0.0,0.0,0.0,0.0,0.0,0.0,-0.3830934521918,0.06387666492253817,-0.24050051789935198,0.2680736591851051,0.04973496633784628,-0.12870739267057477,-0.1538509646307942,1.0545278623271406,0.3237751970834899,-0.3925065165730497,-2.153044824243427,0.8647926447590192,2.465997861901919,0.544498024414167,1.0544104758940245,0.3238615046091247,-0.39250456234122666,-2.153291787532338,0.8647539153680389,2.46587817577521,0.5445020185570556,-0.0007254637786227511,0.00036974780710371516,-0.0012740769713196645,-2.8544263364649214e-05,-0.000499645238933957,-3.365661846379852e-05,1.0985070231328458e-06,0.0,0.0,0.0,0.0,0.0,0.0,0.0,-0.00011738643311609565,8.630752563482114e-05,1.9542318230314493e-06,-0.0002469632889110507,-3.872939098026329e-05,-0.00011968612670898438,3.994142888652519e-06,0.0007254637786227511,-0.00036974780710371516,0.0012740769713196645,2.8544263364649214e-05,0.000499645238933957,3.365661846379852e-05,-1.0985070231328458e-06,0.3514034152030945,34.01534652709961,3.7514312267303467,-19.313081741333008,-0.11748272180557251,-1.777347207069397,0.14590780436992645,0
74,0.3645970821380615,-0.4267818331718445,-34.01534652709961,-3.8228423595428467,19.313081741333008,0.10008770227432251,1.770938515663147,-0.10470907390117645,0.0,0.0,0.0,0.0,0.0,0.0,0.0,-0.37019525731505154,0.06107153458284693,-0.23056177666557176,0.2723756273565059,0.05008839004860219,-0.12885872767445175,-0.1541604725470744,1.0545331520406824,0.3237751970834899,-0.39250147872219887,-2.1530448334007417,0.8647945775389672,2.465998573978742,0.5444933290405429,1.0544104758940245,0.3238615046091247,-0.39250456234122666,-2.153291787532338,0.8647539153680389,2.46587817577521,0.5445020185570556,0.001543569799828556,0.0005993050226521712,0.00031601567052274426,-0.00018617915585786033,0.00023101116153792468,0.00037757552768719673,-0.0018217737205882918,0.0,0.0,0.0,0.0,0.0,0.0,0.0,-0.0001226761466579518,8.630752563482114e-05,-3.083619027788309e-06,-0.0002469541315961443,-4.066217092824065e-05,-0.00012039820353182407,8.689516512672135e-06,-0.001543569799828556,-0.0005993050226521712,-0.00031601567052274426,0.00018617915585786033,-0.00023101116153792468,-0.00037757552768719673,0.0018217737205882918,0.4267818331718445,34.01534652709961,3.8228423595428467,-19.313081741333008,-0.10008770227432251,-1.770938515663147,0.10470907390117645,0
75,0.3695962429046631,-0.4267818331718445,-34.01534652709961,-3.8228423595428467,19.313081741333008,0.10008770227432251,1.770938515663147,-0.10470907390117645,0.0,0.0,0.0,0.0,0.0,0.0,0.0,-0.37019525731505154,0.06107153458284693,-0.23056177666557176,0.2723756273565059,0.05008839004860219,-0.12885872767445175,-0.1541604725470744,1.0545331520406824,0.3237751970834899,-0.39250147872219887,-2.1530448334007417,0.8647945775389672,2.465998573978742,0.5444933290405429,1.0544104758940245,0.3238615046091247,-0.39250456234122666,-2.153291787532338,0.8647539153680389,2.46587817577521,0.5445020185570556,0.001543569799828556,0.0005993050226521712,0.00031601567052274426,-0.00018617915585786033,0.00023101116153792468,0.00037757552768719673,-0.0018217737205882918,0.0,0.0,0.0,0.0,0.0,0.0,0.0,-0.0001226761466579518,8.630752563482114e-05,-3.083619027788309e-06,-0.0002469541315961443,-4.066217092824065e-05,-0.00012039820353182407,8.689516512672135e-06,-0.001543569799828556,-0.0005993050226521712,-0.00031601567052274426,0.00018617915585786033,-0.00023101116153792468,-0.00037757552768719673,0.0018217737205882918,0.4267818331718445,34.01534652709961,3.8228423595428467,-19.313081741333008,-0.10008770227432251,-1.770938515663147,0.10470907390117645,0
76,0.37543320655822754,-0.3514034152030945,-33.99154281616211,-3.8228423595428467,19.289278030395508,0.10558086633682251,1.777347207069397,-0.14590780436992645,0.0,0.0,0.0,0.0,0.0,0.0,0.0,-0.3653697873549081,0.06691075098419037,-0.2294459426488313,0.2719986143716254,0.050062931295414365,-0.12884405900976592,-0.15430945757807069,1.0545278623271406,0.3237735266476346,-0.39250222639195687,-2.153043159912482,0.8647939671874046,2.465997861901919,0.544497906676597,1.0544104758940245,0.3238615046091247,-0.39250456234122666,-2.153291787532338,0.8647539153680389,2.46587817577521,0.5445020185570556,-0.000567356271433504,0.0003580749450039162,0.00042476318829882915,0.00048494605964694167,-7.20473568592478e-05,-3.8802791746930745e-05,-0.0002130490628991167,0.0,0.0,0.0,0.0,0.0,0.0,0.0,-0.00011738643311609565,8.79779614901266e-05,-2.3359492697938578e-06,-0.00024862761985566806,-4.0051819365727326e-05,-0.00011968612670898438,4.111880458568251e-06,0.000567356271433504,-0.0003580749450039162,-0.00042476318829882915,-0.00048494605964694167,7.20473568592478e-05,3.8802791746930745e-05,0.0002130490628991167,0.3514034152030945,33.99154281616211,3.8228423595428467,-19.289278030395508,-0.10558086633682251,-1.777347207069397,0.14590780436992645,0
77,0.379565954208374,-0.3514034152030945,-33.99154281616211,-3.8228423595428467,19.289278030395508,0.10558086633682251,1.777347207069397,-0.14590780436992645,0.0,0.0,0.0,0.0,0.0,0.0,0.0,-0.3653697873549081,0.06691075098419037,-0.2294459426488313,0.2719986143716254,0.050062931295414365,-0.12884405900976592,-0.15430945757807069,1.0545278623271406,0.3237735266476346,-0.39250222639195687,-2.153043159912482,0.8647939671874046,2.465997861901919,0.544497906676597,1.0544104758940245,0.3238615046091247,-0.39250456234122666,-2.153291787532338,0.8647539153680389,2.46587817577521,0.5445020185570556,-0.000567356271433504,0.0003580749450039162,0.00042476318829882915,0.00048494605964694167,-7.20473568592478e-05,-3.8802791746930745e-05,-0.0002130490628991167,0.0,0.0,0.0,0.0,0.0,0.0,0.0,-0.00011738643311609565,8.79779614901266e-05,-2.3359492697938578e-06,-0.00024862761985566806,-4.0051819365727326e-05,-0.00011968612670898438,4.111880458568251e-06,0.000567356271433504,-0.0003580749450039162,-0.00042476318829882915,-0.00048494605964694167,7.20473568592478e-05,3.8802791746930745e-05,0.0002130490628991167,0.3514034152030945,33.99154281616211,3.8228423595428467,-19.289278030395508,-0.10558086633682251,-1.777347207069397,0.14590780436992645,0
78,0.38535070419311523,-0.3514034152030945,-33.96377182006836,-3.8228423595428467,19.313081741333008,0.10558086633682251,1.783755898475647,-0.16604940593242645,0.0,0.0,0.0,0.0,0.0,0.0,0.0,-0.37165103149495776,0.05256000685741279,-0.2370697380923729,0.28311181150590914,0.04996041881108353,-0.12754343266377027,-0.1547936122544291,1.0545278623271406,0.32377157780580346,-0.39250118296513337,-2.153044833400776,0.8647939671874046,2.465997149825096,0.5445001446323262,1.0544104758940245,0.3238615046091247,-0.39250456234122666,-2.153291787532338,0.8647539153680389,2.46587817577521,0.5445020185570556,-0.0009732580275812352,-0.0014045995240774259,0.0005707751203696525,0.0005572321102090152,-0.00018359696534324732,-0.00023203075736445656,0.0002566183056254441,0.0,0.0,0.0,0.0,0.0,0.0,0.0,-0.00011738643311609565,8.99268033212608e-05,-3.379376093293196e-06,-0.00024695413156194945,-4.0051819365727326e-05,-0.00011897404988614468,1.873924729389742e-06,0.0009732580275812352,0.0014045995240774259,-0.0005707751203696525,-0.0005572321102090152,0.00018359696534324732,0.00023203075736445656,-0.0002566183056254441,0.3514034152030945,33.96377182006836,3.8228423595428467,-19.313081741333008,-0.10558086633682251,-1.783755898475647,0.16604940593242645,0
79,0.38959836959838867,-0.3514034152030945,-33.96377182006836,-3.8228423595428467,19.313081741333008,0.10558086633682251,1.783755898475647,-0.16604940593242645,0.0,0.0,0.0,0.0,0.0,0.0,0.0,-0.37165103149495776,0.05256000685741279,-0.2370697380923729,0.28311181150590914,0.04996041881108353,-0.12754343266377027,-0.1547936122544291,1.0545278623271406,0.32377157780580346,-0.39250118296513337,-2.153044833400776,0.8647939671874046,2.465997149825096,0.5445001446323262,1.0544104758940245,0.3238615046091247,-0.39250456234122666,-2.153291787532338,0.8647539153680389,2.46587817577521,0.5445020185570556,-0.0009732580275812352,-0.0014045995240774259,0.0005707751203696525,0.0005572321102090152,-0.00018359696534324732,-0.00023203075736445656,0.0002566183056254441,0.0,0.0,0.0,0.0,0.0,0.0,0.0,-0.00011738643311609565,8.99268033212608e-05,-3.379376093293196e-06,-0.00024695413156194945,-4.0051819365727326e-05,-0.00011897404988614468,1.873924729389742e-06,0.0009732580275812352,0.0014045995240774259,-0.0005707751203696525,-0.0005572321102090152,0.00018359696534324732,0.00023203075736445656,-0.0002566183056254441,0.3514034152030945,33.96377182006836,3.8228423595428467,-19.313081741333008,-0.10558086633682251,-1.783755898475647,0.16604940593242645,0
80,0.3945958614349365,-0.4267818331718445,-34.01534652709961,-3.8228423595428467,19.313081741333008,0.10008770227432251,1.770938515663147,-0.16604940593242645,0.0,0.0,0.0,0.0,0.0,0.0,0.0,-0.37459420886359057,0.06296986407225184,-0.23796367359983145,0.2766199047682527,0.049816991565330315,-0.1284165509460484,-0.15591872053795788,1.0545331520406824,0.3237751970834899,-0.3925033061964263,-2.1530448334007932,0.8647945775389672,2.465998573978742,0.5445012086311063,1.0544104758940245,0.3238615046091247,-0.39250456234122666,-2.153291787532338,0.8647539153680389,2.46587817577521,0.5445020185570556,0.0008879148782881329,-6.277711495529706e-05,0.000506263815752481,0.0001255104794668606,-7.374962991073532e-07,0.00019259424308306182,0.0011095576581867984,0.0,0.0,0.0,0.0,0.0,0.0,0.0,-0.0001226761466579518,8.630752563482114e-05,-1.2561448003434172e-06,-0.00024695413154463,-4.066217092824065e-05,-0.00012039820353182407,8.099259493077327e-07,-0.0008879148782881329,6.277711495529706e-05,-0.000506263815752481,-0.0001255104794668606,7.374962991073532e-07,-0.00019259424308306182,-0.0011095576581867984,0.4267818331718445,34.01534652709961,3.8228423595428467,-19.313081741333008,-0.10008770227432251,-1.770938515663147,0.16604940593242645,0
