rezayati/contactInterpretation/dataset/franka_main/labeled_data/link7/a4_4.csv
index,time,tau_J0,tau_J1,tau_J2,tau_J3,tau_J4,tau_J5,tau_J6,tau_J_d0,tau_J_d1,tau_J_d2,tau_J_d3,tau_J_d4,tau_J_d5,tau_J_d6,tau_ext0,tau_ext1,tau_ext2,tau_ext3,tau_ext4,tau_ext5,tau_ext6,q0,q1,q2,q3,q4,q5,q6,q_d0,q_d1,q_d2,q_d3,q_d4,q_d5,q_d6,dq0,dq1,dq2,dq3,dq4,dq5,dq6,dq_d0,dq_d1,dq_d2,dq_d3,dq_d4,dq_d5,dq_d6,e0,e1,e2,e3,e4,e5,e6,de0,de1,de2,de3,de4,de5,de6,etau_J0,etau_J1,etau_J2,etau_J3,etau_J4,etau_J5,etau_J6,label
1,0.0,-0.2720577120780945,-19.745019912719727,-0.2483184039592743,19.983552932739258,0.4507346749305725,2.4630770683288574,-0.13217489421367645,0.0,0.0,0.0,0.0,0.0,0.0,0.0,-0.23378911452049841,-0.007800837012691019,-0.0629167574551948,0.18134914959258128,-0.12462322763542323,0.08103926974451864,-0.16045557293470633,1.213340428763182,-0.2203161704895789,-0.007543900422814205,-2.6037626031574446,-0.10874701174100239,2.468236952516546,0.8264612193024817,1.2134413937687574,-0.2202432315892585,-0.0075118285948192216,-2.6038483821997875,-0.10888392708698907,2.4681821257803174,0.826474908251239,0.000528050982021195,0.00022379014426699735,0.00011541695420110609,-0.0005809232649247154,0.0003140439578652892,-0.0005445168137340607,-0.0012086759003585952,0.0,0.0,0.0,0.0,0.0,0.0,0.0,0.00010096500557543742,7.293890032042394e-05,3.2071827994983176e-05,-8.577904234297051e-05,-0.0001369153459866851,-5.482673622880796e-05,1.368894875730664e-05,-0.000528050982021195,-0.00022379014426699735,-0.00011541695420110609,0.0005809232649247154,-0.0003140439578652892,0.0005445168137340607,0.0012086759003585952,0.2720577120780945,19.745019912719727,0.2483184039592743,-19.983552932739258,-0.4507346749305725,-2.4630770683288574,0.13217489421367645,0
2,0.004972219467163086,-0.2720577120780945,-19.745019912719727,-0.2483184039592743,19.983552932739258,0.4507346749305725,2.4630770683288574,-0.13217489421367645,0.0,0.0,0.0,0.0,0.0,0.0,0.0,-0.23378911452049841,-0.007800837012691019,-0.0629167574551948,0.18134914959258128,-0.12462322763542323,0.08103926974451864,-0.16045557293470633,1.213340428763182,-0.2203161704895789,-0.007543900422814205,-2.6037626031574446,-0.10874701174100239,2.468236952516546,0.8264612193024817,1.2134413937687574,-0.2202432315892585,-0.0075118285948192216,-2.6038483821997875,-0.10888392708698907,2.4681821257803174,0.826474908251239,0.000528050982021195,0.00022379014426699735,0.00011541695420110609,-0.0005809232649247154,0.0003140439578652892,-0.0005445168137340607,-0.0012086759003585952,0.0,0.0,0.0,0.0,0.0,0.0,0.0,0.00010096500557543742,7.293890032042394e-05,3.2071827994983176e-05,-8.577904234297051e-05,-0.0001369153459866851,-5.482673622880796e-05,1.368894875730664e-05,-0.000528050982021195,-0.00022379014426699735,-0.00011541695420110609,0.0005809232649247154,-0.0003140439578652892,0.0005445168137340607,0.0012086759003585952,0.2720577120780945,19.745019912719727,0.2483184039592743,-19.983552932739258,-0.4507346749305725,-2.4630770683288574,0.13217489421367645,0
3,0.009969949722290039,-0.2720577120780945,-19.745019912719727,-0.2483184039592743,19.983552932739258,0.4507346749305725,2.4630770683288574,-0.13217489421367645,0.0,0.0,0.0,0.0,0.0,0.0,0.0,-0.23378911452049841,-0.007800837012691019,-0.0629167574551948,0.18134914959258128,-0.12462322763542323,0.08103926974451864,-0.16045557293470633,1.213340428763182,-0.2203161704895789,-0.007543900422814205,-2.6037626031574446,-0.10874701174100239,2.468236952516546,0.8264612193024817,1.2134413937687574,-0.2202432315892585,-0.0075118285948192216,-2.6038483821997875,-0.10888392708698907,2.4681821257803174,0.826474908251239,0.000528050982021195,0.00022379014426699735,0.00011541695420110609,-0.0005809232649247154,0.0003140439578652892,-0.0005445168137340607,-0.0012086759003585952,0.0,0.0,0.0,0.0,0.0,0.0,0.0,0.00010096500557543742,7.293890032042394e-05,3.2071827994983176e-05,-8.577904234297051e-05,-0.0001369153459866851,-5.482673622880796e-05,1.368894875730664e-05,-0.000528050982021195,-0.00022379014426699735,-0.00011541695420110609,0.0005809232649247154,-0.0003140439578652892,0.0005445168137340607,0.0012086759003585952,0.2720577120780945,19.745019912719727,0.2483184039592743,-19.983552932739258,-0.4507346749305725,-2.4630770683288574,0.13217489421367645,0
4,0.014970064163208008,-0.2720577120780945,-19.745019912719727,-0.2483184039592743,19.983552932739258,0.4507346749305725,2.4630770683288574,-0.13217489421367645,0.0,0.0,0.0,0.0,0.0,0.0,0.0,-0.23378911452049841,-0.007800837012691019,-0.0629167574551948,0.18134914959258128,-0.12462322763542323,0.08103926974451864,-0.16045557293470633,1.213340428763182,-0.2203161704895789,-0.007543900422814205,-2.6037626031574446,-0.10874701174100239,2.468236952516546,0.8264612193024817,1.2134413937687574,-0.2202432315892585,-0.0075118285948192216,-2.6038483821997875,-0.10888392708698907,2.4681821257803174,0.826474908251239,0.000528050982021195,0.00022379014426699735,0.00011541695420110609,-0.0005809232649247154,0.0003140439578652892,-0.0005445168137340607,-0.0012086759003585952,0.0,0.0,0.0,0.0,0.0,0.0,0.0,0.00010096500557543742,7.293890032042394e-05,3.2071827994983176e-05,-8.577904234297051e-05,-0.0001369153459866851,-5.482673622880796e-05,1.368894875730664e-05,-0.000528050982021195,-0.00022379014426699735,-0.00011541695420110609,0.0005809232649247154,-0.0003140439578652892,0.0005445168137340607,0.0012086759003585952,0.2720577120780945,19.745019912719727,0.2483184039592743,-19.983552932739258,-0.4507346749305725,-2.4630770683288574,0.13217489421367645,0
5,0.019970178604125977,-0.22445029020309448,-19.745019912719727,-0.2721221148967743,19.955781936645508,0.4626365303993225,2.4429354667663574,-0.17978231608867645,0.0,0.0,0.0,0.0,0.0,0.0,0.0,-0.23613770913993687,-0.010574336808605015,-0.06201837544066859,0.1808061214674176,-0.12473158606967741,0.07989881322511207,-0.1608001396919883,1.2133370790607547,-0.2203161704895789,-0.007542151041839911,-2.6037606543156135,-0.1087483341693878,2.468239190472497,0.8264665090160237,1.2134413937687574,-0.2202432315892585,-0.0075118285948192216,-2.6038483821997875,-0.10888392708698907,2.4681821257803174,0.826474908251239,-0.0005518544190341646,0.00011499663917579768,9.90680414801202e-05,0.0002773209886349713,-8.327993669175957e-05,0.0003493845787581055,0.0006788277130794091,0.0,0.0,0.0,0.0,0.0,0.0,0.0,0.00010431470800265075,7.293890032042394e-05,3.0322447020689723e-05,-8.772788417399369e-05,-0.00013559291760127656,-5.7064692179586984e-05,8.399235215339473e-06,0.0005518544190341646,-0.00011499663917579768,-9.90680414801202e-05,-0.0002773209886349713,8.327993669175957e-05,-0.0003493845787581055,-0.0006788277130794091,0.22445029020309448,19.745019912719727,0.2721221148967743,-19.955781936645508,-0.4626365303993225,-2.4429354667663574,0.17978231608867645,0
6,0.02497124671936035,-0.22445029020309448,-19.745019912719727,-0.2721221148967743,19.955781936645508,0.4626365303993225,2.4429354667663574,-0.17978231608867645,0.0,0.0,0.0,0.0,0.0,0.0,0.0,-0.23613770913993687,-0.010574336808605015,-0.06201837544066859,0.1808061214674176,-0.12473158606967741,0.07989881322511207,-0.1608001396919883,1.2133370790607547,-0.2203161704895789,-0.007542151041839911,-2.6037606543156135,-0.1087483341693878,2.468239190472497,0.8264665090160237,1.2134413937687574,-0.2202432315892585,-0.0075118285948192216,-2.6038483821997875,-0.10888392708698907,2.4681821257803174,0.826474908251239,-0.0005518544190341646,0.00011499663917579768,9.90680414801202e-05,0.0002773209886349713,-8.327993669175957e-05,0.0003493845787581055,0.0006788277130794091,0.0,0.0,0.0,0.0,0.0,0.0,0.0,0.00010431470800265075,7.293890032042394e-05,3.0322447020689723e-05,-8.772788417399369e-05,-0.00013559291760127656,-5.7064692179586984e-05,8.399235215339473e-06,0.0005518544190341646,-0.00011499663917579768,-9.90680414801202e-05,-0.0002773209886349713,8.327993669175957e-05,-0.0003493845787581055,-0.0006788277130794091,0.22445029020309448,19.745019912719727,0.2721221148967743,-19.955781936645508,-0.4626365303993225,-2.4429354667663574,0.17978231608867645,0
7,0.02998971939086914,-0.22445029020309448,-19.745019912719727,-0.2721221148967743,19.955781936645508,0.4626365303993225,2.4429354667663574,-0.17978231608867645,0.0,0.0,0.0,0.0,0.0,0.0,0.0,-0.23613770913993687,-0.010574336808605015,-0.06201837544066859,0.1808061214674176,-0.12473158606967741,0.07989881322511207,-0.1608001396919883,1.2133370790607547,-0.2203161704895789,-0.007542151041839911,-2.6037606543156135,-0.1087483341693878,2.468239190472497,0.8264665090160237,1.2134413937687574,-0.2202432315892585,-0.0075118285948192216,-2.6038483821997875,-0.10888392708698907,2.4681821257803174,0.826474908251239,-0.0005518544190341646,0.00011499663917579768,9.90680414801202e-05,0.0002773209886349713,-8.327993669175957e-05,0.0003493845787581055,0.0006788277130794091,0.0,0.0,0.0,0.0,0.0,0.0,0.0,0.00010431470800265075,7.293890032042394e-05,3.0322447020689723e-05,-8.772788417399369e-05,-0.00013559291760127656,-5.7064692179586984e-05,8.399235215339473e-06,0.0005518544190341646,-0.00011499663917579768,-9.90680414801202e-05,-0.0002773209886349713,8.327993669175957e-05,-0.0003493845787581055,-0.0006788277130794091,0.22445029020309448,19.745019912719727,0.2721221148967743,-19.955781936645508,-0.4626365303993225,-2.4429354667663574,0.17978231608867645,0
8,0.03501462936401367,-0.24825400114059448,-19.768823623657227,-0.2721221148967743,19.955781936645508,0.4571433663368225,2.4429354667663574,-0.20083944499492645,0.0,0.0,0.0,0.0,0.0,0.0,0.0,-0.23612563896514618,-0.0037969734393966093,-0.06358632437286654,0.17559788324514117,-0.1248155084567396,0.07895630292597557,-0.16007468375621067,1.2133387494965604,-0.22031450005372366,-0.007542151366124582,-2.6037606543156135,-0.1087477194299205,2.468239190472497,0.8264688486970133,1.2134413937687574,-0.2202432315892585,-0.0075118285948192216,-2.6038483821997875,-0.10888392708698907,2.4681821257803174,0.826474908251239,0.0002222829515376839,0.001050364930601565,0.00011947497888587961,-1.8658123206597326e-05,0.00017275001073672116,0.0002612625651820595,0.0016928544934470102,0.0,0.0,0.0,0.0,0.0,0.0,0.0,0.00010264427219697225,7.126846446517399e-05,3.032277130536002e-05,-8.772788417399369e-05,-0.0001362076570685794,-5.7064692179586984e-05,6.0595542257235735e-06,-0.0002222829515376839,-0.001050364930601565,-0.00011947497888587961,1.8658123206597326e-05,-0.00017275001073672116,-0.0002612625651820595,-0.0016928544934470102,0.24825400114059448,19.768823623657227,0.2721221148967743,-19.955781936645508,-0.4571433663368225,-2.4429354667663574,0.20083944499492645,0
9,0.039968013763427734,-0.24825400114059448,-19.768823623657227,-0.2721221148967743,19.955781936645508,0.4571433663368225,2.4429354667663574,-0.20083944499492645,0.0,0.0,0.0,0.0,0.0,0.0,0.0,-0.23612563896514618,-0.0037969734393966093,-0.06358632437286654,0.17559788324514117,-0.1248155084567396,0.07895630292597557,-0.16007468375621067,1.2133387494965604,-0.22031450005372366,-0.007542151366124582,-2.6037606543156135,-0.1087477194299205,2.468239190472497,0.8264688486970133,1.2134413937687574,-0.2202432315892585,-0.0075118285948192216,-2.6038483821997875,-0.10888392708698907,2.4681821257803174,0.826474908251239,0.0002222829515376839,0.001050364930601565,0.00011947497888587961,-1.8658123206597326e-05,0.00017275001073672116,0.0002612625651820595,0.0016928544934470102,0.0,0.0,0.0,0.0,0.0,0.0,0.0,0.00010264427219697225,7.126846446517399e-05,3.032277130536002e-05,-8.772788417399369e-05,-0.0001362076570685794,-5.7064692179586984e-05,6.0595542257235735e-06,-0.0002222829515376839,-0.001050364930601565,-0.00011947497888587961,1.8658123206597326e-05,-0.00017275001073672116,-0.0002612625651820595,-0.0016928544934470102,0.24825400114059448,19.768823623657227,0.2721221148967743,-19.955781936645508,-0.4571433663368225,-2.4429354667663574,0.20083944499492645,0
10,0.04498481750488281,-0.24825400114059448,-19.745019912719727,-0.2483184039592743,20.007356643676758,0.4507346749305725,2.4630770683288574,-0.20083944499492645,0.0,0.0,0.0,0.0,0.0,0.0,0.0,-0.23221433902559943,-0.010656365761514493,-0.06142748549305165,0.18052268992571316,-0.12511256072364207,0.07998860487652174,-0.16115697990173408,1.213338758326878,-0.2203161704895789,-0.0075438305697002345,-2.6037642735933,-0.10874701174097763,2.468236952516768,0.8264688486970133,1.2134413937687574,-0.2202432315892585,-0.0075118285948192216,-2.6038483821997875,-0.10888392708698907,2.4681821257803174,0.826474908251239,0.00020840042074341298,-0.0002879367578574149,-0.00019316519153656384,-0.0009046426189671987,0.0003267810169916873,-0.0003195576506441469,0.001498828465428937,0.0,0.0,0.0,0.0,0.0,0.0,0.0,0.000102635441879384,7.293890032042394e-05,3.200197488101297e-05,-8.410860648755403e-05,-0.00013691534601144306,-5.4826736450408475e-05,6.0595542257235735e-06,-0.00020840042074341298,0.0002879367578574149,0.00019316519153656384,0.0009046426189671987,-0.0003267810169916873,0.0003195576506441469,-0.001498828465428937,0.24825400114059448,19.745019912719727,0.2483184039592743,-20.007356643676758,-0.4507346749305725,-2.4630770683288574,0.20083944499492645,0
11,0.049967050552368164,-0.24825400114059448,-19.745019912719727,-0.2483184039592743,20.007356643676758,0.4507346749305725,2.4630770683288574,-0.20083944499492645,0.0,0.0,0.0,0.0,0.0,0.0,0.0,-0.23221433902559943,-0.010656365761514493,-0.06142748549305165,0.18052268992571316,-0.12511256072364207,0.07998860487652174,-0.16115697990173408,1.213338758326878,-0.2203161704895789,-0.0075438305697002345,-2.6037642735933,-0.10874701174097763,2.468236952516768,0.8264688486970133,1.2134413937687574,-0.2202432315892585,-0.0075118285948192216,-2.6038483821997875,-0.10888392708698907,2.4681821257803174,0.826474908251239,0.00020840042074341298,-0.0002879367578574149,-0.00019316519153656384,-0.0009046426189671987,0.0003267810169916873,-0.0003195576506441469,0.001498828465428937,0.0,0.0,0.0,0.0,0.0,0.0,0.0,0.000102635441879384,7.293890032042394e-05,3.200197488101297e-05,-8.410860648755403e-05,-0.00013691534601144306,-5.4826736450408475e-05,6.0595542257235735e-06,-0.00020840042074341298,0.0002879367578574149,0.00019316519153656384,0.0009046426189671987,-0.0003267810169916873,0.0003195576506441469,-0.001498828465428937,0.24825400114059448,19.745019912719727,0.2483184039592743,-20.007356643676758,-0.4507346749305725,-2.4630770683288574,0.20083944499492645,0
12,0.0549161434173584,-0.2720577120780945,-19.792627334594727,-0.2721221148967743,19.931978225708008,0.4626365303993225,2.4566683769226074,-0.19351522624492645,0.0,0.0,0.0,0.0,0.0,0.0,0.0,-0.2350959231713928,-0.00769870582574032,-0.06451777583646513,0.1800016736082894,-0.12502576932065212,0.08019744921724019,-0.16292471383745905,1.2133404200414817,-0.22031282961786838,-0.007542154288748759,-2.603758983879758,-0.1087483341693878,2.4682376645935906,0.82646803489493,1.2134413937687574,-0.2202432315892585,-0.0075118285948192216,-2.6038483821997875,-0.10888392708698907,2.4681821257803174,0.826474908251239,0.0007144900431386355,0.0009482652252298349,0.0003255574865870676,0.0007832704069802169,2.7487228527720103e-05,-0.00013222373661645357,0.00046698364671366696,0.0,0.0,0.0,0.0,0.0,0.0,0.0,0.00010097372727568832,6.959802860989628e-05,3.0325693929537413e-05,-8.939832002941017e-05,-0.00013559291760127656,-5.5538813273248167e-05,6.8733563090006555e-06,-0.0007144900431386355,-0.0009482652252298349,-0.0003255574865870676,-0.0007832704069802169,-2.7487228527720103e-05,0.00013222373661645357,-0.00046698364671366696,0.2720577120780945,19.792627334594727,0.2721221148967743,-19.931978225708008,-0.4626365303993225,-2.4566683769226074,0.19351522624492645,0
13,0.059979915618896484,-0.2720577120780945,-19.792627334594727,-0.2721221148967743,19.931978225708008,0.4626365303993225,2.4566683769226074,-0.19351522624492645,0.0,0.0,0.0,0.0,0.0,0.0,0.0,-0.2350959231713928,-0.00769870582574032,-0.06451777583646513,0.1800016736082894,-0.12502576932065212,0.08019744921724019,-0.16292471383745905,1.2133404200414817,-0.22031282961786838,-0.007542154288748759,-2.603758983879758,-0.1087483341693878,2.4682376645935906,0.82646803489493,1.2134413937687574,-0.2202432315892585,-0.0075118285948192216,-2.6038483821997875,-0.10888392708698907,2.4681821257803174,0.826474908251239,0.0007144900431386355,0.0009482652252298349,0.0003255574865870676,0.0007832704069802169,2.7487228527720103e-05,-0.00013222373661645357,0.00046698364671366696,0.0,0.0,0.0,0.0,0.0,0.0,0.0,0.00010097372727568832,6.959802860989628e-05,3.0325693929537413e-05,-8.939832002941017e-05,-0.00013559291760127656,-5.5538813273248167e-05,6.8733563090006555e-06,-0.0007144900431386355,-0.0009482652252298349,-0.0003255574865870676,-0.0007832704069802169,-2.7487228527720103e-05,0.00013222373661645357,-0.00046698364671366696,0.2720577120780945,19.792627334594727,0.2721221148967743,-19.931978225708008,-0.4626365303993225,-2.4566683769226074,0.19351522624492645,0
14,0.06499648094177246,-0.22445029020309448,-19.717248916625977,-0.2245146930217743,19.955781936645508,0.4626365303993225,2.4493441581726074,-0.16604940593242645,0.0,0.0,0.0,0.0,0.0,0.0,0.0,-0.23504107041843345,-0.008935299948842443,-0.06529701176518724,0.1819710901900585,-0.12431690288686408,0.08038634829824506,-0.16445268499346946,1.2133371055879971,-0.22031811933141005,-0.007546202098314187,-2.6037606543039495,-0.10874833562975157,2.468238112101012,0.8264649831371175,1.2134413937687574,-0.2202432315892585,-0.0075118285948192216,-2.6038483821997875,-0.10888392708698907,2.4681821257803174,0.826474908251239,-0.00017141244528112482,-0.0007134301117741632,-0.0008545431193339971,0.00039235279016895896,-0.0003010698007447684,0.0003763109636460607,-0.000543395128428735,0.0,0.0,0.0,0.0,0.0,0.0,0.0,0.00010428818076024804,7.488774215155813e-05,3.437350349496521e-05,-8.772789583799678e-05,-0.0001355914572375022,-5.5986320694589864e-05,9.925114121567269e-06,0.00017141244528112482,0.0007134301117741632,0.0008545431193339971,-0.00039235279016895896,0.0003010698007447684,-0.0003763109636460607,0.000543395128428735,0.22445029020309448,19.717248916625977,0.2245146930217743,-19.955781936645508,-0.4626365303993225,-2.4493441581726074,0.16604940593242645,0
15,0.06998467445373535,-0.22445029020309448,-19.717248916625977,-0.2245146930217743,19.955781936645508,0.4626365303993225,2.4493441581726074,-0.16604940593242645,0.0,0.0,0.0,0.0,0.0,0.0,0.0,-0.23504107041843345,-0.008935299948842443,-0.06529701176518724,0.1819710901900585,-0.12431690288686408,0.08038634829824506,-0.16445268499346946,1.2133371055879971,-0.22031811933141005,-0.007546202098314187,-2.6037606543039495,-0.10874833562975157,2.468238112101012,0.8264649831371175,1.2134413937687574,-0.2202432315892585,-0.0075118285948192216,-2.6038483821997875,-0.10888392708698907,2.4681821257803174,0.826474908251239,-0.00017141244528112482,-0.0007134301117741632,-0.0008545431193339971,0.00039235279016895896,-0.0003010698007447684,0.0003763109636460607,-0.000543395128428735,0.0,0.0,0.0,0.0,0.0,0.0,0.0,0.00010428818076024804,7.488774215155813e-05,3.437350349496521e-05,-8.772789583799678e-05,-0.0001355914572375022,-5.5986320694589864e-05,9.925114121567269e-06,0.00017141244528112482,0.0007134301117741632,0.0008545431193339971,-0.00039235279016895896,0.0003010698007447684,-0.0003763109636460607,0.000543395128428735,0.22445029020309448,19.717248916625977,0.2245146930217743,-19.955781936645508,-0.4626365303993225,-2.4493441581726074,0.16604940593242645,0
16,0.07500624656677246,-0.22445029020309448,-19.717248916625977,-0.2998931109905243,19.955781936645508,0.4626365303993225,2.4429354667663574,-0.20083944499492645,0.0,0.0,0.0,0.0,0.0,0.0,0.0,-0.2372788691031742,-0.007365654837485344,-0.06771359884944422,0.18273377582571806,-0.12462360251268732,0.08029635554917802,-0.16601196437396962,1.2133370790608546,-0.22031811933141005,-0.007540202203572138,-2.6037606543156135,-0.10874833416939605,2.4682391904704293,0.8264688486970133,1.2134413937687574,-0.2202432315892585,-0.0075118285948192216,-2.6038483821997875,-0.10888392708698907,2.4681821257803174,0.826474908251239,-0.000388003665288397,-0.0007140941250645283,0.0009295174134854253,0.00033615354171525984,-0.004019119733471031,0.0003464604212017934,0.0015413697762900014,0.0,0.0,0.0,0.0,0.0,0.0,0.0,0.00010431470790273067,7.488774215155813e-05,2.837360875291607e-05,-8.772788417399369e-05,-0.00013559291759301928,-5.706469011190762e-05,6.0595542257235735e-06,0.000388003665288397,0.0007140941250645283,-0.0009295174134854253,-0.00033615354171525984,0.004019119733471031,-0.0003464604212017934,-0.0015413697762900014,0.22445029020309448,19.717248916625977,0.2998931109905243,-19.955781936645508,-0.4626365303993225,-2.4429354667663574,0.20083944499492645,0
17,0.07999205589294434,-0.22445029020309448,-19.717248916625977,-0.2998931109905243,19.955781936645508,0.4626365303993225,2.4429354667663574,-0.20083944499492645,0.0,0.0,0.0,0.0,0.0,0.0,0.0,-0.2372788691031742,-0.007365654837485344,-0.06771359884944422,0.18273377582571806,-0.12462360251268732,0.08029635554917802,-0.16601196437396962,1.2133370790608546,-0.22031811933141005,-0.007540202203572138,-2.6037606543156135,-0.10874833416939605,2.4682391904704293,0.8264688486970133,1.2134413937687574,-0.2202432315892585,-0.0075118285948192216,-2.6038483821997875,-0.10888392708698907,2.4681821257803174,0.826474908251239,-0.000388003665288397,-0.0007140941250645283,0.0009295174134854253,0.00033615354171525984,-0.004019119733471031,0.0003464604212017934,0.0015413697762900014,0.0,0.0,0.0,0.0,0.0,0.0,0.0,0.00010431470790273067,7.488774215155813e-05,2.837360875291607e-05,-8.772788417399369e-05,-0.00013559291759301928,-5.706469011190762e-05,6.0595542257235735e-06,0.000388003665288397,0.0007140941250645283,-0.0009295174134854253,-0.00033615354171525984,0.004019119733471031,-0.0003464604212017934,-0.0015413697762900014,0.22445029020309448,19.717248916625977,0.2998931109905243,-19.955781936645508,-0.4626365303993225,-2.4429354667663574,0.20083944499492645,0
18,0.08499503135681152,-0.24825400114059448,-19.717248916625977,-0.2483184039592743,19.955781936645508,0.4626365303993225,2.4566683769226074,-0.17337362468242645,0.0,0.0,0.0,0.0,0.0,0.0,0.0,-0.23659373033386866,-0.009570334258137168,-0.06815096110979874,0.17960888230746294,-0.12537517725880082,0.07959186135252333,-0.1652046233391668,1.2133395442251573,-0.22031819843633985,-0.00754390038671658,-2.6037606543156135,-0.10874833416938781,2.4682376645935906,0.8264657969392009,1.2134413937687574,-0.2202432315892585,-0.0075118285948192216,-2.6038483821997875,-0.10888392708698907,2.4681821257803174,0.826474908251239,0.0004638383108104235,-0.0010563387129953878,-0.0006502698040563906,-0.0003994485392568782,-0.00032638713595344894,-0.00028289968539948795,0.00054298329358926,0.0,0.0,0.0,0.0,0.0,0.0,0.0,0.00010184954360004106,7.496684708135914e-05,3.207179189735829e-05,-8.772788417399369e-05,-0.00013559291760126269,-5.5538813273248167e-05,9.111312038179165e-06,-0.0004638383108104235,0.0010563387129953878,0.0006502698040563906,0.0003994485392568782,0.00032638713595344894,0.00028289968539948795,-0.00054298329358926,0.24825400114059448,19.717248916625977,0.2483184039592743,-19.955781936645508,-0.4626365303993225,-2.4566683769226074,0.17337362468242645,0
19,0.09001016616821289,-0.24825400114059448,-19.717248916625977,-0.2483184039592743,19.955781936645508,0.4626365303993225,2.4566683769226074,-0.17337362468242645,0.0,0.0,0.0,0.0,0.0,0.0,0.0,-0.23659373033386866,-0.009570334258137168,-0.06815096110979874,0.17960888230746294,-0.12537517725880082,0.07959186135252333,-0.1652046233391668,1.2133395442251573,-0.22031819843633985,-0.00754390038671658,-2.6037606543156135,-0.10874833416938781,2.4682376645935906,0.8264657969392009,1.2134413937687574,-0.2202432315892585,-0.0075118285948192216,-2.6038483821997875,-0.10888392708698907,2.4681821257803174,0.826474908251239,0.0004638383108104235,-0.0010563387129953878,-0.0006502698040563906,-0.0003994485392568782,-0.00032638713595344894,-0.00028289968539948795,0.00054298329358926,0.0,0.0,0.0,0.0,0.0,0.0,0.0,0.00010184954360004106,7.496684708135914e-05,3.207179189735829e-05,-8.772788417399369e-05,-0.00013559291760126269,-5.5538813273248167e-05,9.111312038179165e-06,-0.0004638383108104235,0.0010563387129953878,0.0006502698040563906,0.0003994485392568782,0.00032638713595344894,0.00028289968539948795,-0.00054298329358926,0.24825400114059448,19.717248916625977,0.2483184039592743,-19.955781936645508,-0.4626365303993225,-2.4566683769226074,0.17337362468242645,0
20,0.09500718116760254,-0.24825400114059448,-19.717248916625977,-0.2483184039592743,20.007356643676758,0.4571433663368225,2.4493441581726074,-0.17978231608867645,0.0,0.0,0.0,0.0,0.0,0.0,0.0,-0.2333851313485634,-0.01070532176936116,-0.0653868731729924,0.17998594003989923,-0.12583208691366424,0.07979142579370889,-0.16484535967232625,1.213339704483558,-0.22032025520113155,-0.007543821477694972,-2.6037642452490704,-0.10874772381782531,2.468238478395674,0.8264665090160237,1.2134413937687574,-0.2202432315892585,-0.0075118285948192216,-2.6038483821997875,-0.10888392708698907,2.4681821257803174,0.826474908251239,0.00014742969091169754,-0.0009201832452464499,-0.00038708985780518655,-0.0010219572565787185,-0.0028913148222760726,0.00011828495300079265,0.0012190747162739008,0.0,0.0,0.0,0.0,0.0,0.0,0.0,0.00010168928519926901,7.702361187306161e-05,3.199288287575059e-05,-8.413695071718408e-05,-0.00013620326916376213,-5.635261535674729e-05,8.399235215339473e-06,-0.00014742969091169754,0.0009201832452464499,0.00038708985780518655,0.0010219572565787185,0.0028913148222760726,-0.00011828495300079265,-0.0012190747162739008,0.24825400114059448,19.717248916625977,0.2483184039592743,-20.007356643676758,-0.4571433663368225,-2.4493441581726074,0.17978231608867645,0
21,0.10000491142272949,-0.24825400114059448,-19.717248916625977,-0.2483184039592743,20.007356643676758,0.4571433663368225,2.4493441581726074,-0.17978231608867645,0.0,0.0,0.0,0.0,0.0,0.0,0.0,-0.2333851313485634,-0.01070532176936116,-0.0653868731729924,0.17998594003989923,-0.12583208691366424,0.07979142579370889,-0.16484535967232625,1.213339704483558,-0.22032025520113155,-0.007543821477694972,-2.6037642452490704,-0.10874772381782531,2.468238478395674,0.8264665090160237,1.2134413937687574,-0.2202432315892585,-0.0075118285948192216,-2.6038483821997875,-0.10888392708698907,2.4681821257803174,0.826474908251239,0.00014742969091169754,-0.0009201832452464499,-0.00038708985780518655,-0.0010219572565787185,-0.0028913148222760726,0.00011828495300079265,0.0012190747162739008,0.0,0.0,0.0,0.0,0.0,0.0,0.0,0.00010168928519926901,7.702361187306161e-05,3.199288287575059e-05,-8.413695071718408e-05,-0.00013620326916376213,-5.635261535674729e-05,8.399235215339473e-06,-0.00014742969091169754,0.0009201832452464499,0.00038708985780518655,0.0010219572565787185,0.0028913148222760726,-0.00011828495300079265,-0.0012190747162739008,0.24825400114059448,19.717248916625977,0.2483184039592743,-20.007356643676758,-0.4571433663368225,-2.4493441581726074,0.17978231608867645,0
22,0.10499215126037598,-0.24825400114059448,-19.745019912719727,-0.2721221148967743,19.955781936645508,0.4626365303993225,2.4630770683288574,-0.21457235515117645,0.0,0.0,0.0,0.0,0.0,0.0,0.0,-0.23471565974861403,-0.010882260871687786,-0.06613538158304585,0.17816093882695028,-0.12483564714221668,0.07982178332242228,-0.16422603402531383,1.2133387495019512,-0.22031617050163596,-0.007542151041394264,-2.6037606543154537,-0.10874833416938781,2.468236952516768,0.8264703745759195,1.2134413937687574,-0.2202432315892585,-0.0075118285948192216,-2.6038483821997875,-0.10888392708698907,2.4681821257803174,0.826474908251239,0.000683572530931494,-0.00038443309455338254,-3.602207874007423e-05,0.00013641623268422192,-0.00022490995021306852,-0.0002779358099729501,0.0017828169947922171,0.0,0.0,0.0,0.0,0.0,0.0,0.0,0.00010264426680617333,7.293891237747374e-05,3.032244657504273e-05,-8.77278843338658e-05,-0.00013559291760126269,-5.4826736450408475e-05,4.533675319495778e-06,-0.000683572530931494,0.00038443309455338254,3.602207874007423e-05,-0.00013641623268422192,0.00022490995021306852,0.0002779358099729501,-0.0017828169947922171,0.24825400114059448,19.745019912719727,0.2721221148967743,-19.955781936645508,-0.4626365303993225,-2.4630770683288574,0.21457235515117645,0
23,0.11000561714172363,-0.24825400114059448,-19.745019912719727,-0.2721221148967743,19.955781936645508,0.4626365303993225,2.4630770683288574,-0.21457235515117645,0.0,0.0,0.0,0.0,0.0,0.0,0.0,-0.23471565974861403,-0.010882260871687786,-0.06613538158304585,0.17816093882695028,-0.12483564714221668,0.07982178332242228,-0.16422603402531383,1.2133387495019512,-0.22031617050163596,-0.007542151041394264,-2.6037606543154537,-0.10874833416938781,2.468236952516768,0.8264703745759195,1.2134413937687574,-0.2202432315892585,-0.0075118285948192216,-2.6038483821997875,-0.10888392708698907,2.4681821257803174,0.826474908251239,0.000683572530931494,-0.00038443309455338254,-3.602207874007423e-05,0.00013641623268422192,-0.00022490995021306852,-0.0002779358099729501,0.0017828169947922171,0.0,0.0,0.0,0.0,0.0,0.0,0.0,0.00010264426680617333,7.293891237747374e-05,3.032244657504273e-05,-8.77278843338658e-05,-0.00013559291760126269,-5.4826736450408475e-05,4.533675319495778e-06,-0.000683572530931494,0.00038443309455338254,3.602207874007423e-05,-0.00013641623268422192,0.00022490995021306852,0.0002779358099729501,-0.0017828169947922171,0.24825400114059448,19.745019912719727,0.2721221148967743,-19.955781936645508,-0.4626365303993225,-2.4630770683288574,0.21457235515117645,0
24,0.11498236656188965,-0.24825400114059448,-19.745019912719727,-0.2483184039592743,19.931978225708008,0.4626365303993225,2.4493441581726074,-0.13217489421367645,0.0,0.0,0.0,0.0,0.0,0.0,0.0,-0.23287533641311367,-0.011352801275957062,-0.0665898153230988,0.17729167592951256,-0.12486256696746273,0.08099469567432135,-0.16407378921085244,1.2133387494965604,-0.22031617048957897,-0.007544058349975207,-2.603758983879758,-0.10874833416938781,2.468238476942124,0.8264612191409765,1.2134413937687574,-0.2202432315892585,-0.0075118285948192216,-2.6038483821997875,-0.10888392708698907,2.4681821257803174,0.826474908251239,0.0003480683250978614,-0.00027317086928333416,-0.00022760523338309386,0.0009308590331131226,-5.4560768882850176e-05,0.0001652935207955132,-0.0015786105335204366,0.0,0.0,0.0,0.0,0.0,0.0,0.0,0.00010264427219697225,7.293890032047945e-05,3.2229755155985425e-05,-8.939832002941017e-05,-0.00013559291760126269,-5.6351161806578176e-05,1.3689110262560256e-05,-0.0003480683250978614,0.00027317086928333416,0.00022760523338309386,-0.0009308590331131226,5.4560768882850176e-05,-0.0001652935207955132,0.0015786105335204366,0.24825400114059448,19.745019912719727,0.2483184039592743,-19.931978225708008,-0.4626365303993225,-2.4493441581726074,0.13217489421367645,0
25,0.12000656127929688,-0.24825400114059448,-19.745019912719727,-0.2483184039592743,19.931978225708008,0.4626365303993225,2.4493441581726074,-0.13217489421367645,0.0,0.0,0.0,0.0,0.0,0.0,0.0,-0.23287533641311367,-0.011352801275957062,-0.0665898153230988,0.17729167592951256,-0.12486256696746273,0.08099469567432135,-0.16407378921085244,1.2133387494965604,-0.22031617048957897,-0.007544058349975207,-2.603758983879758,-0.10874833416938781,2.468238476942124,0.8264612191409765,1.2134413937687574,-0.2202432315892585,-0.0075118285948192216,-2.6038483821997875,-0.10888392708698907,2.4681821257803174,0.826474908251239,0.0003480683250978614,-0.00027317086928333416,-0.00022760523338309386,0.0009308590331131226,-5.4560768882850176e-05,0.0001652935207955132,-0.0015786105335204366,0.0,0.0,0.0,0.0,0.0,0.0,0.0,0.00010264427219697225,7.293890032047945e-05,3.2229755155985425e-05,-8.939832002941017e-05,-0.00013559291760126269,-5.6351161806578176e-05,1.3689110262560256e-05,-0.0003480683250978614,0.00027317086928333416,0.00022760523338309386,-0.0009308590331131226,5.4560768882850176e-05,-0.0001652935207955132,0.0015786105335204366,0.24825400114059448,19.745019912719727,0.2483184039592743,-19.931978225708008,-0.4626365303993225,-2.4493441581726074,0.13217489421367645,0
26,0.12499618530273438,-0.24825400114059448,-19.745019912719727,-0.2483184039592743,19.931978225708008,0.4626365303993225,2.4493441581726074,-0.13217489421367645,0.0,0.0,0.0,0.0,0.0,0.0,0.0,-0.23287533641311367,-0.011352801275957062,-0.0665898153230988,0.17729167592951256,-0.12486256696746273,0.08099469567432135,-0.16407378921085244,1.2133387494965604,-0.22031617048957897,-0.007544058349975207,-2.603758983879758,-0.10874833416938781,2.468238476942124,0.8264612191409765,1.2134413937687574,-0.2202432315892585,-0.0075118285948192216,-2.6038483821997875,-0.10888392708698907,2.4681821257803174,0.826474908251239,0.0003480683250978614,-0.00027317086928333416,-0.00022760523338309386,0.0009308590331131226,-5.4560768882850176e-05,0.0001652935207955132,-0.0015786105335204366,0.0,0.0,0.0,0.0,0.0,0.0,0.0,0.00010264427219697225,7.293890032047945e-05,3.2229755155985425e-05,-8.939832002941017e-05,-0.00013559291760126269,-5.6351161806578176e-05,1.3689110262560256e-05,-0.0003480683250978614,0.00027317086928333416,0.00022760523338309386,-0.0009308590331131226,5.4560768882850176e-05,-0.0001652935207955132,0.0015786105335204366,0.24825400114059448,19.745019912719727,0.2483184039592743,-19.931978225708008,-0.4626365303993225,-2.4493441581726074,0.13217489421367645,0
27,0.1300053596496582,-0.24825400114059448,-19.745019912719727,-0.2483184039592743,19.931978225708008,0.4626365303993225,2.4493441581726074,-0.13217489421367645,0.0,0.0,0.0,0.0,0.0,0.0,0.0,-0.23287533641311367,-0.011352801275957062,-0.0665898153230988,0.17729167592951256,-0.12486256696746273,0.08099469567432135,-0.16407378921085244,1.2133387494965604,-0.22031617048957897,-0.007544058349975207,-2.603758983879758,-0.10874833416938781,2.468238476942124,0.8264612191409765,1.2134413937687574,-0.2202432315892585,-0.0075118285948192216,-2.6038483821997875,-0.10888392708698907,2.4681821257803174,0.826474908251239,0.0003480683250978614,-0.00027317086928333416,-0.00022760523338309386,0.0009308590331131226,-5.4560768882850176e-05,0.0001652935207955132,-0.0015786105335204366,0.0,0.0,0.0,0.0,0.0,0.0,0.0,0.00010264427219697225,7.293890032047945e-05,3.2229755155985425e-05,-8.939832002941017e-05,-0.00013559291760126269,-5.6351161806578176e-05,1.3689110262560256e-05,-0.0003480683250978614,0.00027317086928333416,0.00022760523338309386,-0.0009308590331131226,5.4560768882850176e-05,-0.0001652935207955132,0.0015786105335204366,0.24825400114059448,19.745019912719727,0.2483184039592743,-19.931978225708008,-0.4626365303993225,-2.4493441581726074,0.13217489421367645,0
28,0.13498234748840332,-0.22445029020309448,-19.745019912719727,-0.2245146930217743,20.007356643676758,0.4626365303993225,2.4630770683288574,-0.13217489421367645,0.0,0.0,0.0,0.0,0.0,0.0,0.0,-0.23786031174376676,-0.014666334400758213,-0.06891043870259825,0.18248327565802241,-0.12425662762411896,0.0813905717543138,-0.16484690676689817,1.2133377943164423,-0.2203161704895789,-0.007545491914441942,-2.6037642735933,-0.10874833416938781,2.46823695251676,0.8264612193024812,1.2134413937687574,-0.2202432315892585,-0.0075118285948192216,-2.6038483821997875,-0.10888392708698907,2.4681821257803174,0.826474908251239,-0.0006687161582879702,-0.00013498477082237473,-0.0010144620800536912,-0.0005649347362572263,1.3388077329076644e-05,-0.00028904716008652863,-0.005460055683151392,0.0,0.0,0.0,0.0,0.0,0.0,0.0,0.00010359945231508405,7.293890032042394e-05,3.36633196227204e-05,-8.410860648755403e-05,-0.00013559291760126269,-5.482673644241487e-05,1.3688948757861752e-05,0.0006687161582879702,0.00013498477082237473,0.0010144620800536912,0.0005649347362572263,-1.3388077329076644e-05,0.00028904716008652863,0.005460055683151392,0.22445029020309448,19.745019912719727,0.2245146930217743,-20.007356643676758,-0.4626365303993225,-2.4630770683288574,0.13217489421367645,0
29,0.1399860382080078,-0.22445029020309448,-19.745019912719727,-0.2245146930217743,20.007356643676758,0.4626365303993225,2.4630770683288574,-0.13217489421367645,0.0,0.0,0.0,0.0,0.0,0.0,0.0,-0.23786031174376676,-0.014666334400758213,-0.06891043870259825,0.18248327565802241,-0.12425662762411896,0.0813905717543138,-0.16484690676689817,1.2133377943164423,-0.2203161704895789,-0.007545491914441942,-2.6037642735933,-0.10874833416938781,2.46823695251676,0.8264612193024812,1.2134413937687574,-0.2202432315892585,-0.0075118285948192216,-2.6038483821997875,-0.10888392708698907,2.4681821257803174,0.826474908251239,-0.0006687161582879702,-0.00013498477082237473,-0.0010144620800536912,-0.0005649347362572263,1.3388077329076644e-05,-0.00028904716008652863,-0.005460055683151392,0.0,0.0,0.0,0.0,0.0,0.0,0.0,0.00010359945231508405,7.293890032042394e-05,3.36633196227204e-05,-8.410860648755403e-05,-0.00013559291760126269,-5.482673644241487e-05,1.3688948757861752e-05,0.0006687161582879702,0.00013498477082237473,0.0010144620800536912,0.0005649347362572263,-1.3388077329076644e-05,0.00028904716008652863,0.005460055683151392,0.22445029020309448,19.745019912719727,0.2245146930217743,-20.007356643676758,-0.4626365303993225,-2.4630770683288574,0.13217489421367645,0
30,0.14499258995056152,-0.19667929410934448,-19.768823623657227,-0.2721221148967743,20.007356643676758,0.4626365303993225,2.4566683769226074,-0.12485067546367645,0.0,0.0,0.0,0.0,0.0,0.0,0.0,-0.23341134555139584,-0.01339685763126731,-0.06270865708813593,0.18143516198577606,-0.12394984942286759,0.08065791463779425,-0.16479240255363875,1.2133351302229114,-0.22031450005372366,-0.007542229950861301,-2.6037642735933,-0.108748329781483,2.4682376645935906,0.8264604055003988,1.2134413937687574,-0.2202432315892585,-0.0075118285948192216,-2.6038483821997875,-0.10888392708698907,2.4681821257803174,0.826474908251239,-0.001250080795007623,0.0001290119306405681,0.0007754597416688877,-0.001177605324520957,-0.00033327742553688816,-7.901874574860453e-05,-0.0017398734350918875,0.0,0.0,0.0,0.0,0.0,0.0,0.0,0.00010626354584597486,7.126846446517399e-05,3.0401356042079712e-05,-8.410860648755403e-05,-0.00013559730550607996,-5.5538813273248167e-05,1.4502750840250656e-05,0.001250080795007623,-0.0001290119306405681,-0.0007754597416688877,0.001177605324520957,0.00033327742553688816,7.901874574860453e-05,0.0017398734350918875,0.19667929410934448,19.768823623657227,0.2721221148967743,-20.007356643676758,-0.4626365303993225,-2.4566683769226074,0.12485067546367645,0
31,0.15000486373901367,-0.19667929410934448,-19.768823623657227,-0.2721221148967743,20.007356643676758,0.4626365303993225,2.4566683769226074,-0.12485067546367645,0.0,0.0,0.0,0.0,0.0,0.0,0.0,-0.23341134555139584,-0.01339685763126731,-0.06270865708813593,0.18143516198577606,-0.12394984942286759,0.08065791463779425,-0.16479240255363875,1.2133351302229114,-0.22031450005372366,-0.007542229950861301,-2.6037642735933,-0.108748329781483,2.4682376645935906,0.8264604055003988,1.2134413937687574,-0.2202432315892585,-0.0075118285948192216,-2.6038483821997875,-0.10888392708698907,2.4681821257803174,0.826474908251239,-0.001250080795007623,0.0001290119306405681,0.0007754597416688877,-0.001177605324520957,-0.00033327742553688816,-7.901874574860453e-05,-0.0017398734350918875,0.0,0.0,0.0,0.0,0.0,0.0,0.0,0.00010626354584597486,7.126846446517399e-05,3.0401356042079712e-05,-8.410860648755403e-05,-0.00013559730550607996,-5.5538813273248167e-05,1.4502750840250656e-05,0.001250080795007623,-0.0001290119306405681,-0.0007754597416688877,0.001177605324520957,0.00033327742553688816,7.901874574860453e-05,0.0017398734350918875,0.19667929410934448,19.768823623657227,0.2721221148967743,-20.007356643676758,-0.4626365303993225,-2.4566683769226074,0.12485067546367645,0
32,0.15498042106628418,-0.22445029020309448,-19.745019912719727,-0.2998931109905243,19.931978225708008,0.4571433663368225,2.4429354667663574,-0.16604940593242645,0.0,0.0,0.0,0.0,0.0,0.0,0.0,-0.23211542426479867,-0.015494302443261861,-0.06126400175273663,0.18275365050861467,-0.125185538020877,0.08106201132431838,-0.1643760095121335,1.2133371585335646,-0.220316171466183,-0.007540202200008568,-2.603758983879758,-0.10874736839751131,2.4682391903109915,0.8264649831371175,1.2134413937687574,-0.2202432315892585,-0.0075118285948192216,-2.6038483821997875,-0.10888392708698907,2.4681821257803174,0.826474908251239,-0.00031785149684311745,-0.00046975571380166993,0.0010049492945038343,0.0006590567136586107,0.0017811235749082698,0.00015917424191730936,5.758497668521833e-05,0.0,0.0,0.0,0.0,0.0,0.0,0.0,0.00010423523519276223,7.293987692449933e-05,2.8373605189346493e-05,-8.939832002941017e-05,-0.0001365586894777615,-5.7064530674111325e-05,9.925114121567269e-06,0.00031785149684311745,0.00046975571380166993,-0.0010049492945038343,-0.0006590567136586107,-0.0017811235749082698,-0.00015917424191730936,-5.758497668521833e-05,0.22445029020309448,19.745019912719727,0.2998931109905243,-19.931978225708008,-0.4571433663368225,-2.4429354667663574,0.16604940593242645,0
33,0.1600055694580078,-0.22445029020309448,-19.745019912719727,-0.2998931109905243,19.931978225708008,0.4571433663368225,2.4429354667663574,-0.16604940593242645,0.0,0.0,0.0,0.0,0.0,0.0,0.0,-0.23211542426479867,-0.015494302443261861,-0.06126400175273663,0.18275365050861467,-0.125185538020877,0.08106201132431838,-0.1643760095121335,1.2133371585335646,-0.220316171466183,-0.007540202200008568,-2.603758983879758,-0.10874736839751131,2.4682391903109915,0.8264649831371175,1.2134413937687574,-0.2202432315892585,-0.0075118285948192216,-2.6038483821997875,-0.10888392708698907,2.4681821257803174,0.826474908251239,-0.00031785149684311745,-0.00046975571380166993,0.0010049492945038343,0.0006590567136586107,0.0017811235749082698,0.00015917424191730936,5.758497668521833e-05,0.0,0.0,0.0,0.0,0.0,0.0,0.0,0.00010423523519276223,7.293987692449933e-05,2.8373605189346493e-05,-8.939832002941017e-05,-0.0001365586894777615,-5.7064530674111325e-05,9.925114121567269e-06,0.00031785149684311745,0.00046975571380166993,-0.0010049492945038343,-0.0006590567136586107,-0.0017811235749082698,-0.00015917424191730936,-5.758497668521833e-05,0.22445029020309448,19.745019912719727,0.2998931109905243,-19.931978225708008,-0.4571433663368225,-2.4429354667663574,0.16604940593242645,0
34,0.1649768352508545,-0.24825400114059448,-19.768823623657227,-0.2998931109905243,19.983552932739258,0.4571433663368225,2.4429354667663574,-0.15231649577617645,0.0,0.0,0.0,0.0,0.0,0.0,0.0,-0.2374867844939728,-0.016349299919069162,-0.06557436669532438,0.1831604350254874,-0.12432663324572127,0.08015795554359464,-0.16452964398189968,1.2133387615978146,-0.22031450005372918,-0.007540231425291654,-2.6037626031574446,-0.10874772235318401,2.468239186111845,0.8264634572582112,1.2134413937687574,-0.2202432315892585,-0.0075118285948192216,-2.6038483821997875,-0.10888392708698907,2.4681821257803174,0.826474908251239,-0.0001389714390695326,0.00018677389024913282,0.0007527407395754702,-0.00028673373354541783,0.0001578589746984052,0.00023097141714284127,-0.0002932719608020572,0.0,0.0,0.0,0.0,0.0,0.0,0.0,0.00010263217094275134,7.126846447069735e-05,2.840283047243243e-05,-8.577904234297051e-05,-0.00013620473380505926,-5.7060331527747365e-05,1.1450993027795064e-05,0.0001389714390695326,-0.00018677389024913282,-0.0007527407395754702,0.00028673373354541783,-0.0001578589746984052,-0.00023097141714284127,0.0002932719608020572,0.24825400114059448,19.768823623657227,0.2998931109905243,-19.983552932739258,-0.4571433663368225,-2.4429354667663574,0.15231649577617645,0
35,0.16999435424804688,-0.24825400114059448,-19.768823623657227,-0.2998931109905243,19.983552932739258,0.4571433663368225,2.4429354667663574,-0.15231649577617645,0.0,0.0,0.0,0.0,0.0,0.0,0.0,-0.2374867844939728,-0.016349299919069162,-0.06557436669532438,0.1831604350254874,-0.12432663324572127,0.08015795554359464,-0.16452964398189968,1.2133387615978146,-0.22031450005372918,-0.007540231425291654,-2.6037626031574446,-0.10874772235318401,2.468239186111845,0.8264634572582112,1.2134413937687574,-0.2202432315892585,-0.0075118285948192216,-2.6038483821997875,-0.10888392708698907,2.4681821257803174,0.826474908251239,-0.0001389714390695326,0.00018677389024913282,0.0007527407395754702,-0.00028673373354541783,0.0001578589746984052,0.00023097141714284127,-0.0002932719608020572,0.0,0.0,0.0,0.0,0.0,0.0,0.0,0.00010263217094275134,7.126846447069735e-05,2.840283047243243e-05,-8.577904234297051e-05,-0.00013620473380505926,-5.7060331527747365e-05,1.1450993027795064e-05,0.0001389714390695326,-0.00018677389024913282,-0.0007527407395754702,0.00028673373354541783,-0.0001578589746984052,-0.00023097141714284127,0.0002932719608020572,0.24825400114059448,19.768823623657227,0.2998931109905243,-19.983552932739258,-0.4571433663368225,-2.4429354667663574,0.15231649577617645,0
36,0.17499208450317383,-0.24825400114059448,-19.745019912719727,-0.2998931109905243,19.931978225708008,0.4626365303993225,2.4493441581726074,-0.17337362468242645,0.0,0.0,0.0,0.0,0.0,0.0,0.0,-0.23600183091749868,-0.01632501549087067,-0.05974811223031135,0.18168190066149684,-0.12448558330056768,0.07901019910230486,-0.1643369105086073,1.2133389996889647,-0.2203161704895789,-0.007542332755337964,-2.603758983879758,-0.10874833416937954,2.4682384783956497,0.8264657969392009,1.2134413937687574,-0.2202432315892585,-0.0075118285948192216,-2.6038483821997875,-0.10888392708698907,2.4681821257803174,0.826474908251239,0.00019242744774981005,-0.0003935657853350237,0.0011792704950886964,0.0008086211644182827,-4.854946412103536e-05,0.00010617625024353715,0.0004731558619034158,0.0,0.0,0.0,0.0,0.0,0.0,0.0,0.0001023940797926226,7.293890032042394e-05,3.050416051874217e-05,-8.939832002941017e-05,-0.00013559291760953385,-5.635261533232239e-05,9.111312038179165e-06,-0.00019242744774981005,0.0003935657853350237,-0.0011792704950886964,-0.0008086211644182827,4.854946412103536e-05,-0.00010617625024353715,-0.0004731558619034158,0.24825400114059448,19.745019912719727,0.2998931109905243,-19.931978225708008,-0.4626365303993225,-2.4493441581726074,0.17337362468242645,0
37,0.18000459671020508,-0.24825400114059448,-19.745019912719727,-0.2998931109905243,19.931978225708008,0.4626365303993225,2.4493441581726074,-0.17337362468242645,0.0,0.0,0.0,0.0,0.0,0.0,0.0,-0.23600183091749868,-0.01632501549087067,-0.05974811223031135,0.18168190066149684,-0.12448558330056768,0.07901019910230486,-0.1643369105086073,1.2133389996889647,-0.2203161704895789,-0.007542332755337964,-2.603758983879758,-0.10874833416937954,2.4682384783956497,0.8264657969392009,1.2134413937687574,-0.2202432315892585,-0.0075118285948192216,-2.6038483821997875,-0.10888392708698907,2.4681821257803174,0.826474908251239,0.00019242744774981005,-0.0003935657853350237,0.0011792704950886964,0.0008086211644182827,-4.854946412103536e-05,0.00010617625024353715,0.0004731558619034158,0.0,0.0,0.0,0.0,0.0,0.0,0.0,0.0001023940797926226,7.293890032042394e-05,3.050416051874217e-05,-8.939832002941017e-05,-0.00013559291760953385,-5.635261533232239e-05,9.111312038179165e-06,-0.00019242744774981005,0.0003935657853350237,-0.0011792704950886964,-0.0008086211644182827,4.854946412103536e-05,-0.00010617625024353715,-0.0004731558619034158,0.24825400114059448,19.745019912719727,0.2998931109905243,-19.931978225708008,-0.4626365303993225,-2.4493441581726074,0.17337362468242645,0
38,0.18500351905822754,-0.2720577120780945,-19.768823623657227,-0.2483184039592743,19.955781936645508,0.4452415108680725,2.4429354667663574,-0.13858358561992645,0.0,0.0,0.0,0.0,0.0,0.0,0.0,-0.24193527036261833,-0.01471259171864659,-0.06428033543156891,0.17915087798382853,-0.12434714765922138,0.07905584501622791,-0.16436139692141932,1.2133412146624247,-0.22031450005372366,-0.007544058217677671,-2.6037606543156135,-0.10874640138943989,2.468239190472497,0.826461931379305,1.2134413937687574,-0.2202432315892585,-0.0075118285948192216,-2.6038483821997875,-0.10888392708698907,2.4681821257803174,0.826474908251239,0.0006756343465074472,0.0005130816954870795,-0.00037291645379747317,-0.00019472820106960107,0.0005006975985630976,0.00022393466023908822,-0.0020184734169349096,0.0,0.0,0.0,0.0,0.0,0.0,0.0,0.00010017910633264293,7.126846446517399e-05,3.222962285844965e-05,-8.772788417399369e-05,-0.00013752569754918453,-5.7064692179586984e-05,1.297687193402286e-05,-0.0006756343465074472,-0.0005130816954870795,0.00037291645379747317,0.00019472820106960107,-0.0005006975985630976,-0.00022393466023908822,0.0020184734169349096,0.2720577120780945,19.768823623657227,0.2483184039592743,-19.955781936645508,-0.4452415108680725,-2.4429354667663574,0.13858358561992645,0
39,0.1900043487548828,-0.2720577120780945,-19.768823623657227,-0.2483184039592743,19.955781936645508,0.4452415108680725,2.4429354667663574,-0.13858358561992645,0.0,0.0,0.0,0.0,0.0,0.0,0.0,-0.24193527036261833,-0.01471259171864659,-0.06428033543156891,0.17915087798382853,-0.12434714765922138,0.07905584501622791,-0.16436139692141932,1.2133412146624247,-0.22031450005372366,-0.007544058217677671,-2.6037606543156135,-0.10874640138943989,2.468239190472497,0.826461931379305,1.2134413937687574,-0.2202432315892585,-0.0075118285948192216,-2.6038483821997875,-0.10888392708698907,2.4681821257803174,0.826474908251239,0.0006756343465074472,0.0005130816954870795,-0.00037291645379747317,-0.00019472820106960107,0.0005006975985630976,0.00022393466023908822,-0.0020184734169349096,0.0,0.0,0.0,0.0,0.0,0.0,0.0,0.00010017910633264293,7.126846446517399e-05,3.222962285844965e-05,-8.772788417399369e-05,-0.00013752569754918453,-5.7064692179586984e-05,1.297687193402286e-05,-0.0006756343465074472,-0.0005130816954870795,0.00037291645379747317,0.00019472820106960107,-0.0005006975985630976,-0.00022393466023908822,0.0020184734169349096,0.2720577120780945,19.768823623657227,0.2483184039592743,-19.955781936645508,-0.4452415108680725,-2.4429354667663574,0.13858358561992645,0
40,0.1950232982635498,-0.19667929410934448,-19.717248916625977,-0.2998931109905243,19.955781936645508,0.4690452218055725,2.4493441581726074,-0.13217489421367645,0.0,0.0,0.0,0.0,0.0,0.0,0.0,-0.24130711115590453,-0.018973401333709044,-0.0639160258320659,0.18359586006020312,-0.12503151914075347,0.07980406516196856,-0.16568576507902152,1.2133353686419392,-0.22031811933141005,-0.007542411665976422,-2.6037606543156135,-0.10874904624621072,2.468238478395674,0.8264612193024821,1.2134413937687574,-0.2202432315892585,-0.0075118285948192216,-2.6038483821997875,-0.10888392708698907,2.4681821257803174,0.826474908251239,-0.0007735918398760194,-0.0005994869544898105,0.0008870319652000901,0.00031299168329981363,-0.0003857194685569818,-1.2684203329056855e-05,-0.001137641459717359,0.0,0.0,0.0,0.0,0.0,0.0,0.0,0.00010602512681812115,7.488774215155813e-05,3.058307115720062e-05,-8.772788417399369e-05,-0.0001348808407783536,-5.635261535674729e-05,1.3688948756973573e-05,0.0007735918398760194,0.0005994869544898105,-0.0008870319652000901,-0.00031299168329981363,0.0003857194685569818,1.2684203329056855e-05,0.001137641459717359,0.19667929410934448,19.717248916625977,0.2998931109905243,-19.955781936645508,-0.4690452218055725,-2.4493441581726074,0.13217489421367645,0
41,0.20000672340393066,-0.19667929410934448,-19.717248916625977,-0.2998931109905243,19.955781936645508,0.4690452218055725,2.4493441581726074,-0.13217489421367645,0.0,0.0,0.0,0.0,0.0,0.0,0.0,-0.24130711115590453,-0.018973401333709044,-0.0639160258320659,0.18359586006020312,-0.12503151914075347,0.07980406516196856,-0.16568576507902152,1.2133353686419392,-0.22031811933141005,-0.007542411665976422,-2.6037606543156135,-0.10874904624621072,2.468238478395674,0.8264612193024821,1.2134413937687574,-0.2202432315892585,-0.0075118285948192216,-2.6038483821997875,-0.10888392708698907,2.4681821257803174,0.826474908251239,-0.0007735918398760194,-0.0005994869544898105,0.0008870319652000901,0.00031299168329981363,-0.0003857194685569818,-1.2684203329056855e-05,-0.001137641459717359,0.0,0.0,0.0,0.0,0.0,0.0,0.0,0.00010602512681812115,7.488774215155813e-05,3.058307115720062e-05,-8.772788417399369e-05,-0.0001348808407783536,-5.635261535674729e-05,1.3688948756973573e-05,0.0007735918398760194,0.0005994869544898105,-0.0008870319652000901,-0.00031299168329981363,0.0003857194685569818,1.2684203329056855e-05,0.001137641459717359,0.19667929410934448,19.717248916625977,0.2998931109905243,-19.955781936645508,-0.4690452218055725,-2.4493441581726074,0.13217489421367645,0
42,0.20500707626342773,-0.2720577120780945,-19.745019912719727,-0.2721221148967743,19.931978225708008,0.4626365303993225,2.4493441581726074,-0.20724813640117645,0.0,0.0,0.0,0.0,0.0,0.0,0.0,-0.24184818637280878,-0.018934394954205527,-0.06705668275635081,0.18535336685989875,-0.12495953216585533,0.07982818923673783,-0.1647849138247548,1.213340526224623,-0.2203161704895789,-0.007542151053866764,-2.603758983879758,-0.1087483341693878,2.468238478395674,0.8264695607738363,1.2134413937687574,-0.2202432315892585,-0.0075118285948192216,-2.6038483821997875,-0.10888392708698907,2.4681821257803174,0.826474908251239,0.0005279875760499564,-0.00017503636012195067,8.727016492865114e-05,0.0009234157597776548,-0.00018091569587942879,7.813977941588773e-05,-0.0034884459841189545,0.0,0.0,0.0,0.0,0.0,0.0,0.0,0.00010086754413429766,7.293890032042394e-05,3.0322459047542327e-05,-8.939832002941017e-05,-0.00013559291760127656,-5.635261535674729e-05,5.34747740277286e-06,-0.0005279875760499564,0.00017503636012195067,-8.727016492865114e-05,-0.0009234157597776548,0.00018091569587942879,-7.813977941588773e-05,0.0034884459841189545,0.2720577120780945,19.745019912719727,0.2721221148967743,-19.931978225708008,-0.4626365303993225,-2.4493441581726074,0.20724813640117645,0
43,0.2100059986114502,-0.2720577120780945,-19.745019912719727,-0.2721221148967743,19.931978225708008,0.4626365303993225,2.4493441581726074,-0.20724813640117645,0.0,0.0,0.0,0.0,0.0,0.0,0.0,-0.24184818637280878,-0.018934394954205527,-0.06705668275635081,0.18535336685989875,-0.12495953216585533,0.07982818923673783,-0.1647849138247548,1.213340526224623,-0.2203161704895789,-0.007542151053866764,-2.603758983879758,-0.1087483341693878,2.468238478395674,0.8264695607738363,1.2134413937687574,-0.2202432315892585,-0.0075118285948192216,-2.6038483821997875,-0.10888392708698907,2.4681821257803174,0.826474908251239,0.0005279875760499564,-0.00017503636012195067,8.727016492865114e-05,0.0009234157597776548,-0.00018091569587942879,7.813977941588773e-05,-0.0034884459841189545,0.0,0.0,0.0,0.0,0.0,0.0,0.0,0.00010086754413429766,7.293890032042394e-05,3.0322459047542327e-05,-8.939832002941017e-05,-0.00013559291760127656,-5.635261535674729e-05,5.34747740277286e-06,-0.0005279875760499564,0.00017503636012195067,-8.727016492865114e-05,-0.0009234157597776548,0.00018091569587942879,-7.813977941588773e-05,0.0034884459841189545,0.2720577120780945,19.745019912719727,0.2721221148967743,-19.931978225708008,-0.4626365303993225,-2.4493441581726074,0.20724813640117645,0
44,0.21500849723815918,-0.2998287081718445,-19.816431045532227,-0.2721221148967743,19.955781936645508,0.4626365303993225,2.4630770683288574,-0.11844198405742645,0.0,0.0,0.0,0.0,0.0,0.0,0.0,-0.23835817819667177,-0.015914258925049753,-0.06295455749826298,0.1849843579253385,-0.1252839464751691,0.07892140250564186,-0.16442377800282634,1.2133423687865597,-0.22031115918201313,-0.007542151366124602,-2.6037606543156135,-0.1087483341693878,2.468236952516768,0.8264596934235758,1.2134413937687574,-0.2202432315892585,-0.0075118285948192216,-2.6038483821997875,-0.10888392708698907,2.4681821257803174,0.826474908251239,0.0013769539110603983,0.0013258566206571893,9.962117962150444e-05,0.0003084544210180865,5.236207233354415e-06,-0.0003793945931345586,-0.001616771516037196,0.0,0.0,0.0,0.0,0.0,0.0,0.0,9.902498219771516e-05,6.792759275464633e-05,3.0322771305380837e-05,-8.772788417399369e-05,-0.00013559291760127656,-5.4826736450408475e-05,1.5214827663201369e-05,-0.0013769539110603983,-0.0013258566206571893,-9.962117962150444e-05,-0.0003084544210180865,-5.236207233354415e-06,0.0003793945931345586,0.001616771516037196,0.2998287081718445,19.816431045532227,0.2721221148967743,-19.955781936645508,-0.4626365303993225,-2.4630770683288574,0.11844198405742645,0
45,0.21999287605285645,-0.2998287081718445,-19.816431045532227,-0.2721221148967743,19.955781936645508,0.4626365303993225,2.4630770683288574,-0.11844198405742645,0.0,0.0,0.0,0.0,0.0,0.0,0.0,-0.23835817819667177,-0.015914258925049753,-0.06295455749826298,0.1849843579253385,-0.1252839464751691,0.07892140250564186,-0.16442377800282634,1.2133423687865597,-0.22031115918201313,-0.007542151366124602,-2.6037606543156135,-0.1087483341693878,2.468236952516768,0.8264596934235758,1.2134413937687574,-0.2202432315892585,-0.0075118285948192216,-2.6038483821997875,-0.10888392708698907,2.4681821257803174,0.826474908251239,0.0013769539110603983,0.0013258566206571893,9.962117962150444e-05,0.0003084544210180865,5.236207233354415e-06,-0.0003793945931345586,-0.001616771516037196,0.0,0.0,0.0,0.0,0.0,0.0,0.0,9.902498219771516e-05,6.792759275464633e-05,3.0322771305380837e-05,-8.772788417399369e-05,-0.00013559291760127656,-5.4826736450408475e-05,1.5214827663201369e-05,-0.0013769539110603983,-0.0013258566206571893,-9.962117962150444e-05,-0.0003084544210180865,-5.236207233354415e-06,0.0003793945931345586,0.001616771516037196,0.2998287081718445,19.816431045532227,0.2721221148967743,-19.955781936645508,-0.4626365303993225,-2.4630770683288574,0.11844198405742645,0
46,0.22500944137573242,-0.22445029020309448,-19.768823623657227,-0.2245146930217743,19.955781936645508,0.4507346749305725,2.4493441581726074,-0.15231649577617645,0.0,0.0,0.0,0.0,0.0,0.0,0.0,-0.24034394491551067,-0.014335325455742948,-0.06568337108951675,0.18577259015775915,-0.12503838347450083,0.07953425525676563,-0.1627870230791058,1.213337105587997,-0.22031450005372366,-0.007545494835679474,-2.6037606543156135,-0.10874701174100239,2.468238478395674,0.8264634572582112,1.2134413937687574,-0.2202432315892585,-0.0075118285948192216,-2.6038483821997875,-0.10888392708698907,2.4681821257803174,0.826474908251239,-0.0005110700909941285,0.00046102110144749314,-0.0013254771832860118,0.0008176426792036915,0.00022658697463240316,0.0002002185589412207,-0.00018343860702616803,0.0,0.0,0.0,0.0,0.0,0.0,0.0,0.00010428818076047008,7.126846446517399e-05,3.3666240860252654e-05,-8.772788417399369e-05,-0.0001369153459866851,-5.635261535674729e-05,1.1450993027795064e-05,0.0005110700909941285,-0.00046102110144749314,0.0013254771832860118,-0.0008176426792036915,-0.00022658697463240316,-0.0002002185589412207,0.00018343860702616803,0.22445029020309448,19.768823623657227,0.2245146930217743,-19.955781936645508,-0.4507346749305725,-2.4493441581726074,0.15231649577617645,0
47,0.23001480102539062,-0.22445029020309448,-19.768823623657227,-0.2245146930217743,19.955781936645508,0.4507346749305725,2.4493441581726074,-0.15231649577617645,0.0,0.0,0.0,0.0,0.0,0.0,0.0,-0.24034394491551067,-0.014335325455742948,-0.06568337108951675,0.18577259015775915,-0.12503838347450083,0.07953425525676563,-0.1627870230791058,1.213337105587997,-0.22031450005372366,-0.007545494835679474,-2.6037606543156135,-0.10874701174100239,2.468238478395674,0.8264634572582112,1.2134413937687574,-0.2202432315892585,-0.0075118285948192216,-2.6038483821997875,-0.10888392708698907,2.4681821257803174,0.826474908251239,-0.0005110700909941285,0.00046102110144749314,-0.0013254771832860118,0.0008176426792036915,0.00022658697463240316,0.0002002185589412207,-0.00018343860702616803,0.0,0.0,0.0,0.0,0.0,0.0,0.0,0.00010428818076047008,7.126846446517399e-05,3.3666240860252654e-05,-8.772788417399369e-05,-0.0001369153459866851,-5.635261535674729e-05,1.1450993027795064e-05,0.0005110700909941285,-0.00046102110144749314,0.0013254771832860118,-0.0008176426792036915,-0.00022658697463240316,-0.0002002185589412207,0.00018343860702616803,0.22445029020309448,19.768823623657227,0.2245146930217743,-19.955781936645508,-0.4507346749305725,-2.4493441581726074,0.15231649577617645,0
48,0.2350170612335205,-0.22445029020309448,-19.768823623657227,-0.2245146930217743,19.955781936645508,0.4507346749305725,2.4493441581726074,-0.15231649577617645,0.0,0.0,0.0,0.0,0.0,0.0,0.0,-0.24034394491551067,-0.014335325455742948,-0.06568337108951675,0.18577259015775915,-0.12503838347450083,0.07953425525676563,-0.1627870230791058,1.213337105587997,-0.22031450005372366,-0.007545494835679474,-2.6037606543156135,-0.10874701174100239,2.468238478395674,0.8264634572582112,1.2134413937687574,-0.2202432315892585,-0.0075118285948192216,-2.6038483821997875,-0.10888392708698907,2.4681821257803174,0.826474908251239,-0.0005110700909941285,0.00046102110144749314,-0.0013254771832860118,0.0008176426792036915,0.00022658697463240316,0.0002002185589412207,-0.00018343860702616803,0.0,0.0,0.0,0.0,0.0,0.0,0.0,0.00010428818076047008,7.126846446517399e-05,3.3666240860252654e-05,-8.772788417399369e-05,-0.0001369153459866851,-5.635261535674729e-05,1.1450993027795064e-05,0.0005110700909941285,-0.00046102110144749314,0.0013254771832860118,-0.0008176426792036915,-0.00022658697463240316,-0.0002002185589412207,0.00018343860702616803,0.22445029020309448,19.768823623657227,0.2245146930217743,-19.955781936645508,-0.4507346749305725,-2.4493441581726074,0.15231649577617645,0
49,0.23998761177062988,-0.22445029020309448,-19.768823623657227,-0.2245146930217743,19.955781936645508,0.4507346749305725,2.4493441581726074,-0.15231649577617645,0.0,0.0,0.0,0.0,0.0,0.0,0.0,-0.24034394491551067,-0.014335325455742948,-0.06568337108951675,0.18577259015775915,-0.12503838347450083,0.07953425525676563,-0.1627870230791058,1.213337105587997,-0.22031450005372366,-0.007545494835679474,-2.6037606543156135,-0.10874701174100239,2.468238478395674,0.8264634572582112,1.2134413937687574,-0.2202432315892585,-0.0075118285948192216,-2.6038483821997875,-0.10888392708698907,2.4681821257803174,0.826474908251239,-0.0005110700909941285,0.00046102110144749314,-0.0013254771832860118,0.0008176426792036915,0.00022658697463240316,0.0002002185589412207,-0.00018343860702616803,0.0,0.0,0.0,0.0,0.0,0.0,0.0,0.00010428818076047008,7.126846446517399e-05,3.3666240860252654e-05,-8.772788417399369e-05,-0.0001369153459866851,-5.635261535674729e-05,1.1450993027795064e-05,0.0005110700909941285,-0.00046102110144749314,0.0013254771832860118,-0.0008176426792036915,-0.00022658697463240316,-0.0002002185589412207,0.00018343860702616803,0.22445029020309448,19.768823623657227,0.2245146930217743,-19.955781936645508,-0.4507346749305725,-2.4493441581726074,0.15231649577617645,0
50,0.24500536918640137,-0.19667929410934448,-19.693445205688477,-0.2721221148967743,19.955781936645508,0.4571433663368225,2.4493441581726074,-0.17337362468242645,0.0,0.0,0.0,0.0,0.0,0.0,0.0,-0.24248242516113855,-0.007018262739020839,-0.06878315616508843,0.17943271085875223,-0.12569138751440678,0.0789231800926174,-0.16190066770900016,1.2133351302193232,-0.22031978976726532,-0.007544282571244569,-2.6037606543156135,-0.1087477238178253,2.468238478395674,0.8264657969392009,1.2134413937687574,-0.2202432315892585,-0.0075118285948192216,-2.6038483821997875,-0.10888392708698907,2.4681821257803174,0.826474908251239,-0.0013289537458907956,-0.000725566674371229,0.0001732548373770201,0.00016899060646974906,8.848765847026701e-05,-7.580259622073095e-05,0.0004561076236922296,0.0,0.0,0.0,0.0,0.0,0.0,0.0,0.00010626354943421568,7.655817800683584e-05,3.245397642534769e-05,-8.772788417399369e-05,-0.000136203269163776,-5.635261535674729e-05,9.111312038179165e-06,0.0013289537458907956,0.000725566674371229,-0.0001732548373770201,-0.00016899060646974906,-8.848765847026701e-05,7.580259622073095e-05,-0.0004561076236922296,0.19667929410934448,19.693445205688477,0.2721221148967743,-19.955781936645508,-0.4571433663368225,-2.4493441581726074,0.17337362468242645,0
51,0.25,-0.19667929410934448,-19.693445205688477,-0.2721221148967743,19.955781936645508,0.4571433663368225,2.4493441581726074,-0.17337362468242645,0.0,0.0,0.0,0.0,0.0,0.0,0.0,-0.24248242516113855,-0.007018262739020839,-0.06878315616508843,0.17943271085875223,-0.12569138751440678,0.0789231800926174,-0.16190066770900016,1.2133351302193232,-0.22031978976726532,-0.007544282571244569,-2.6037606543156135,-0.1087477238178253,2.468238478395674,0.8264657969392009,1.2134413937687574,-0.2202432315892585,-0.0075118285948192216,-2.6038483821997875,-0.10888392708698907,2.4681821257803174,0.826474908251239,-0.0013289537458907956,-0.000725566674371229,0.0001732548373770201,0.00016899060646974906,8.848765847026701e-05,-7.580259622073095e-05,0.0004561076236922296,0.0,0.0,0.0,0.0,0.0,0.0,0.0,0.00010626354943421568,7.655817800683584e-05,3.245397642534769e-05,-8.772788417399369e-05,-0.000136203269163776,-5.635261535674729e-05,9.111312038179165e-06,0.0013289537458907956,0.000725566674371229,-0.0001732548373770201,-0.00016899060646974906,-8.848765847026701e-05,7.580259622073095e-05,-0.0004561076236922296,0.19667929410934448,19.693445205688477,0.2721221148967743,-19.955781936645508,-0.4571433663368225,-2.4493441581726074,0.17337362468242645,0
52,0.2549924850463867,-0.19667929410934448,-19.717248916625977,-0.2483184039592743,19.955781936645508,0.4626365303993225,2.4493441581726074,-0.14590780436992645,0.0,0.0,0.0,0.0,0.0,0.0,0.0,-0.24069849557741288,-0.01277917713812929,-0.06581422546212559,0.18498886372256446,-0.12587168695998188,0.079173166923517,-0.16123061059687052,1.213335924947471,-0.22031811933141005,-0.007545953019082887,-2.6037606543156135,-0.1087483341693878,2.468238478395674,0.8264627451813883,1.2134413937687574,-0.2202432315892585,-0.0075118285948192216,-2.6038483821997875,-0.10888392708698907,2.4681821257803174,0.826474908251239,-0.0011703794537481886,-0.000863666246966418,-0.0003347725642875573,0.00025594629173223836,-0.0003080065122136441,3.2840842202040926e-05,-0.0007924175279272646,0.0,0.0,0.0,0.0,0.0,0.0,0.0,0.00010546882128648072,7.488774215155813e-05,3.4124424263665826e-05,-8.772788417399369e-05,-0.00013559291760127656,-5.635261535674729e-05,1.2163069850745778e-05,0.0011703794537481886,0.000863666246966418,0.0003347725642875573,-0.00025594629173223836,0.0003080065122136441,-3.2840842202040926e-05,0.0007924175279272646,0.19667929410934448,19.717248916625977,0.2483184039592743,-19.955781936645508,-0.4626365303993225,-2.4493441581726074,0.14590780436992645,0
53,0.2599940299987793,-0.19667929410934448,-19.717248916625977,-0.2483184039592743,19.955781936645508,0.4626365303993225,2.4493441581726074,-0.14590780436992645,0.0,0.0,0.0,0.0,0.0,0.0,0.0,-0.24069849557741288,-0.01277917713812929,-0.06581422546212559,0.18498886372256446,-0.12587168695998188,0.079173166923517,-0.16123061059687052,1.213335924947471,-0.22031811933141005,-0.007545953019082887,-2.6037606543156135,-0.1087483341693878,2.468238478395674,0.8264627451813883,1.2134413937687574,-0.2202432315892585,-0.0075118285948192216,-2.6038483821997875,-0.10888392708698907,2.4681821257803174,0.826474908251239,-0.0011703794537481886,-0.000863666246966418,-0.0003347725642875573,0.00025594629173223836,-0.0003080065122136441,3.2840842202040926e-05,-0.0007924175279272646,0.0,0.0,0.0,0.0,0.0,0.0,0.0,0.00010546882128648072,7.488774215155813e-05,3.4124424263665826e-05,-8.772788417399369e-05,-0.00013559291760127656,-5.635261535674729e-05,1.2163069850745778e-05,0.0011703794537481886,0.000863666246966418,0.0003347725642875573,-0.00025594629173223836,0.0003080065122136441,-3.2840842202040926e-05,0.0007924175279272646,0.19667929410934448,19.717248916625977,0.2483184039592743,-19.955781936645508,-0.4626365303993225,-2.4493441581726074,0.14590780436992645,0
54,0.26500725746154785,-0.2720577120780945,-19.768823623657227,-0.2721221148967743,19.983552932739258,0.4571433663368225,2.4566683769226074,-0.11844198405742645,0.0,0.0,0.0,0.0,0.0,0.0,0.0,-0.2432280031680474,-0.010058837770366027,-0.06699158451441392,0.1856665278556072,-0.12633641856228342,0.07891411434649029,-0.1606166908528229,1.213340446427855,-0.22031450005372366,-0.007542152027617829,-2.6037626031574446,-0.1087477238178253,2.4682376645935906,0.8264596933697407,1.2134413937687574,-0.2202432315892585,-0.0075118285948192216,-2.6038483821997875,-0.10888392708698907,2.4681821257803174,0.826474908251239,0.0004852007567254335,0.0006245652002824572,0.00036439560184359,-0.0006996213397943633,-5.9330111027313295e-05,-7.034799971159435e-05,-0.0015178868122249897,0.0,0.0,0.0,0.0,0.0,0.0,0.0,0.00010094734090237978,7.126846446517399e-05,3.032343279860735e-05,-8.577904234297051e-05,-0.000136203269163776,-5.5538813273248167e-05,1.5214881498359922e-05,-0.0004852007567254335,-0.0006245652002824572,-0.00036439560184359,0.0006996213397943633,5.9330111027313295e-05,7.034799971159435e-05,0.0015178868122249897,0.2720577120780945,19.768823623657227,0.2721221148967743,-19.983552932739258,-0.4571433663368225,-2.4566683769226074,0.11844198405742645,0
55,0.2700076103210449,-0.2720577120780945,-19.768823623657227,-0.2721221148967743,19.983552932739258,0.4571433663368225,2.4566683769226074,-0.11844198405742645,0.0,0.0,0.0,0.0,0.0,0.0,0.0,-0.2432280031680474,-0.010058837770366027,-0.06699158451441392,0.1856665278556072,-0.12633641856228342,0.07891411434649029,-0.1606166908528229,1.213340446427855,-0.22031450005372366,-0.007542152027617829,-2.6037626031574446,-0.1087477238178253,2.4682376645935906,0.8264596933697407,1.2134413937687574,-0.2202432315892585,-0.0075118285948192216,-2.6038483821997875,-0.10888392708698907,2.4681821257803174,0.826474908251239,0.0004852007567254335,0.0006245652002824572,0.00036439560184359,-0.0006996213397943633,-5.9330111027313295e-05,-7.034799971159435e-05,-0.0015178868122249897,0.0,0.0,0.0,0.0,0.0,0.0,0.0,0.00010094734090237978,7.126846446517399e-05,3.032343279860735e-05,-8.577904234297051e-05,-0.000136203269163776,-5.5538813273248167e-05,1.5214881498359922e-05,-0.0004852007567254335,-0.0006245652002824572,-0.00036439560184359,0.0006996213397943633,5.9330111027313295e-05,7.034799971159435e-05,0.0015178868122249897,0.2720577120780945,19.768823623657227,0.2721221148967743,-19.983552932739258,-0.4571433663368225,-2.4566683769226074,0.11844198405742645,0
56,0.2750070095062256,-0.24825400114059448,-19.717248916625977,-0.2245146930217743,19.983552932739258,0.4571433663368225,2.4493441581726074,-0.14590780436992645,0.0,0.0,0.0,0.0,0.0,0.0,0.0,-0.23709152683516052,-0.004938494603013903,-0.061408666707419554,0.18096420919419054,-0.12739819146203576,0.07861973098715107,-0.1601840557972303,1.2133389882786765,-0.22031811933141005,-0.0075454922378406725,-2.6037626031574446,-0.1087477238178253,2.468238478341839,0.826462745181388,1.2134413937687574,-0.2202432315892585,-0.0075118285948192216,-2.6038483821997875,-0.10888392708698907,2.4681821257803174,0.826474908251239,0.0004972812809646791,-0.0007754458256396735,-0.0011103870884255024,-0.0007207489820273271,-2.794533487068772e-06,0.00012257524797394624,-0.0005605085768600914,0.0,0.0,0.0,0.0,0.0,0.0,0.0,0.00010240549008089239,7.488774215155813e-05,3.366364302145094e-05,-8.577904234297051e-05,-0.000136203269163776,-5.635256152158874e-05,1.2163069851078845e-05,-0.0004972812809646791,0.0007754458256396735,0.0011103870884255024,0.0007207489820273271,2.794533487068772e-06,-0.00012257524797394624,0.0005605085768600914,0.24825400114059448,19.717248916625977,0.2245146930217743,-19.983552932739258,-0.4571433663368225,-2.4493441581726074,0.14590780436992645,0
57,0.280012845993042,-0.24825400114059448,-19.717248916625977,-0.2245146930217743,19.983552932739258,0.4571433663368225,2.4493441581726074,-0.14590780436992645,0.0,0.0,0.0,0.0,0.0,0.0,0.0,-0.23709152683516052,-0.004938494603013903,-0.061408666707419554,0.18096420919419054,-0.12739819146203576,0.07861973098715107,-0.1601840557972303,1.2133389882786765,-0.22031811933141005,-0.0075454922378406725,-2.6037626031574446,-0.1087477238178253,2.468238478341839,0.826462745181388,1.2134413937687574,-0.2202432315892585,-0.0075118285948192216,-2.6038483821997875,-0.10888392708698907,2.4681821257803174,0.826474908251239,0.0004972812809646791,-0.0007754458256396735,-0.0011103870884255024,-0.0007207489820273271,-2.794533487068772e-06,0.00012257524797394624,-0.0005605085768600914,0.0,0.0,0.0,0.0,0.0,0.0,0.0,0.00010240549008089239,7.488774215155813e-05,3.366364302145094e-05,-8.577904234297051e-05,-0.000136203269163776,-5.635256152158874e-05,1.2163069851078845e-05,-0.0004972812809646791,0.0007754458256396735,0.0011103870884255024,0.0007207489820273271,2.794533487068772e-06,-0.00012257524797394624,0.0005605085768600914,0.24825400114059448,19.717248916625977,0.2245146930217743,-19.983552932739258,-0.4571433663368225,-2.4493441581726074,0.14590780436992645,0
58,0.2850072383880615,-0.22445029020309448,-19.768823623657227,-0.2998931109905243,19.955781936645508,0.4626365303993225,2.4493441581726074,-0.15231649577617645,0.0,0.0,0.0,0.0,0.0,0.0,0.0,-0.23339480275237476,-0.004710914960206475,-0.060004489176620476,0.1799163414488793,-0.12761736854050898,0.0785307774969195,-0.16075333381747337,1.2133370790620528,-0.22031450005372366,-0.007541157880887897,-2.6037606543156135,-0.1087483341693878,2.4682384783956737,0.8264634572582112,1.2134413937687574,-0.2202432315892585,-0.0075118285948192216,-2.6038483821997875,-0.10888392708698907,2.4681821257803174,0.826474908251239,-0.00019298099085084933,0.0004403174589296268,0.0011909106649531213,8.93602485580351e-05,-3.490967660028632e-06,0.00023917915379356917,-0.000224397453111869,0.0,0.0,0.0,0.0,0.0,0.0,0.0,0.00010431470670457799,7.126846446517399e-05,2.9329286068675506e-05,-8.772788417399369e-05,-0.00013559291760127656,-5.6352615356303204e-05,1.1450993027795064e-05,0.00019298099085084933,-0.0004403174589296268,-0.0011909106649531213,-8.93602485580351e-05,3.490967660028632e-06,-0.00023917915379356917,0.000224397453111869,0.22445029020309448,19.768823623657227,0.2998931109905243,-19.955781936645508,-0.4626365303993225,-2.4493441581726074,0.15231649577617645,0
59,0.2900102138519287,-0.22445029020309448,-19.768823623657227,-0.2998931109905243,19.955781936645508,0.4626365303993225,2.4493441581726074,-0.15231649577617645,0.0,0.0,0.0,0.0,0.0,0.0,0.0,-0.23339480275237476,-0.004710914960206475,-0.060004489176620476,0.1799163414488793,-0.12761736854050898,0.0785307774969195,-0.16075333381747337,1.2133370790620528,-0.22031450005372366,-0.007541157880887897,-2.6037606543156135,-0.1087483341693878,2.4682384783956737,0.8264634572582112,1.2134413937687574,-0.2202432315892585,-0.0075118285948192216,-2.6038483821997875,-0.10888392708698907,2.4681821257803174,0.826474908251239,-0.00019298099085084933,0.0004403174589296268,0.0011909106649531213,8.93602485580351e-05,-3.490967660028632e-06,0.00023917915379356917,-0.000224397453111869,0.0,0.0,0.0,0.0,0.0,0.0,0.0,0.00010431470670457799,7.126846446517399e-05,2.9329286068675506e-05,-8.772788417399369e-05,-0.00013559291760127656,-5.6352615356303204e-05,1.1450993027795064e-05,0.00019298099085084933,-0.0004403174589296268,-0.0011909106649531213,-8.93602485580351e-05,3.490967660028632e-06,-0.00023917915379356917,0.000224397453111869,0.22445029020309448,19.768823623657227,0.2998931109905243,-19.955781936645508,-0.4626365303993225,-2.4493441581726074,0.15231649577617645,0
60,0.29500722885131836,-0.24825400114059448,-19.768823623657227,-0.2483184039592743,19.955781936645508,0.4571433663368225,2.4566683769226074,-0.16604940593242645,0.0,0.0,0.0,0.0,0.0,0.0,0.0,-0.2364519351776652,-0.010166305082612268,-0.06385412199812629,0.18038548142548336,-0.12661803883998296,0.07913545903879798,-0.1606246408871198,1.2133387496055765,-0.22031450005372366,-0.00754405821104547,-2.6037606543156135,-0.1087477238178253,2.4682376645935906,0.8264649831371175,1.2134413937687574,-0.2202432315892585,-0.0075118285948192216,-2.6038483821997875,-0.10888392708698907,2.4681821257803174,0.826474908251239,0.00025492518157021587,8.874102653687237e-05,-0.00044599061311391126,-0.00041028549964481676,0.00012597017275790595,-0.0001789704018946808,0.00033673571352668653,0.0,0.0,0.0,0.0,0.0,0.0,0.0,0.0001026441631808428,7.126846446517399e-05,3.2229616226248786e-05,-8.772788417399369e-05,-0.000136203269163776,-5.5538813273248167e-05,9.925114121567269e-06,-0.00025492518157021587,-8.874102653687237e-05,0.00044599061311391126,0.00041028549964481676,-0.00012597017275790595,0.0001789704018946808,-0.00033673571352668653,0.24825400114059448,19.768823623657227,0.2483184039592743,-19.955781936645508,-0.4571433663368225,-2.4566683769226074,0.16604940593242645,0
61,0.30001044273376465,-0.24825400114059448,-19.768823623657227,-0.2483184039592743,19.955781936645508,0.4571433663368225,2.4566683769226074,-0.16604940593242645,0.0,0.0,0.0,0.0,0.0,0.0,0.0,-0.2364519351776652,-0.010166305082612268,-0.06385412199812629,0.18038548142548336,-0.12661803883998296,0.07913545903879798,-0.1606246408871198,1.2133387496055765,-0.22031450005372366,-0.00754405821104547,-2.6037606543156135,-0.1087477238178253,2.4682376645935906,0.8264649831371175,1.2134413937687574,-0.2202432315892585,-0.0075118285948192216,-2.6038483821997875,-0.10888392708698907,2.4681821257803174,0.826474908251239,0.00025492518157021587,8.874102653687237e-05,-0.00044599061311391126,-0.00041028549964481676,0.00012597017275790595,-0.0001789704018946808,0.00033673571352668653,0.0,0.0,0.0,0.0,0.0,0.0,0.0,0.0001026441631808428,7.126846446517399e-05,3.2229616226248786e-05,-8.772788417399369e-05,-0.000136203269163776,-5.5538813273248167e-05,9.925114121567269e-06,-0.00025492518157021587,-8.874102653687237e-05,0.00044599061311391126,0.00041028549964481676,-0.00012597017275790595,0.0001789704018946808,-0.00033673571352668653,0.24825400114059448,19.768823623657227,0.2483184039592743,-19.955781936645508,-0.4571433663368225,-2.4566683769226074,0.16604940593242645,0
62,0.3050103187561035,-0.24825400114059448,-19.768823623657227,-0.2483184039592743,19.931978225708008,0.4626365303993225,2.4630770683288574,-0.17978231608867645,0.0,0.0,0.0,0.0,0.0,0.0,0.0,-0.2357635646893773,-0.012316457429509878,-0.061122243806058074,0.1806433241371536,-0.12656103450779901,0.07982459389757035,-0.16201448042285446,1.2133387494965608,-0.22031450005372366,-0.007543821803316211,-2.603758983879758,-0.1087483341693878,2.468236952516768,0.8264665090160237,1.2134413937687574,-0.2202432315892585,-0.0075118285948192216,-2.6038483821997875,-0.10888392708698907,2.4681821257803174,0.826474908251239,0.00047077616691843053,0.00023943601275192882,-0.00029678717941247084,0.0005742094729367107,-0.00021869773055854352,-0.0002554396130653326,0.0008086588183787947,0.0,0.0,0.0,0.0,0.0,0.0,0.0,0.00010264427219652816,7.126846446517399e-05,3.1993208496989764e-05,-8.939832002941017e-05,-0.00013559291760127656,-5.4826736450408475e-05,8.399235215339473e-06,-0.00047077616691843053,-0.00023943601275192882,0.00029678717941247084,-0.0005742094729367107,0.00021869773055854352,0.0002554396130653326,-0.0008086588183787947,0.24825400114059448,19.768823623657227,0.2483184039592743,-19.931978225708008,-0.4626365303993225,-2.4630770683288574,0.17978231608867645,0
63,0.31000542640686035,-0.24825400114059448,-19.768823623657227,-0.2483184039592743,19.931978225708008,0.4626365303993225,2.4630770683288574,-0.17978231608867645,0.0,0.0,0.0,0.0,0.0,0.0,0.0,-0.2357635646893773,-0.012316457429509878,-0.061122243806058074,0.1806433241371536,-0.12656103450779901,0.07982459389757035,-0.16201448042285446,1.2133387494965608,-0.22031450005372366,-0.007543821803316211,-2.603758983879758,-0.1087483341693878,2.468236952516768,0.8264665090160237,1.2134413937687574,-0.2202432315892585,-0.0075118285948192216,-2.6038483821997875,-0.10888392708698907,2.4681821257803174,0.826474908251239,0.00047077616691843053,0.00023943601275192882,-0.00029678717941247084,0.0005742094729367107,-0.00021869773055854352,-0.0002554396130653326,0.0008086588183787947,0.0,0.0,0.0,0.0,0.0,0.0,0.0,0.00010264427219652816,7.126846446517399e-05,3.1993208496989764e-05,-8.939832002941017e-05,-0.00013559291760127656,-5.4826736450408475e-05,8.399235215339473e-06,-0.00047077616691843053,-0.00023943601275192882,0.00029678717941247084,-0.0005742094729367107,0.00021869773055854352,0.0002554396130653326,-0.0008086588183787947,0.24825400114059448,19.768823623657227,0.2483184039592743,-19.931978225708008,-0.4626365303993225,-2.4630770683288574,0.17978231608867645,0
64,0.3150062561035156,-0.24825400114059448,-19.768823623657227,-0.2483184039592743,19.983552932739258,0.4507346749305725,2.4493441581726074,-0.17978231608867645,0.0,0.0,0.0,0.0,0.0,0.0,0.0,-0.23822739737210208,-0.014780149754222885,-0.06171709493979227,0.1814807005341283,-0.1264261435117899,0.08021850187951478,-0.1621409308349652,1.2133387525490158,-0.22031450005372366,-0.007543824399824219,-2.6037626031574446,-0.10874701174100239,2.468238478395674,0.8264665090160237,1.2134413937687574,-0.2202432315892585,-0.0075118285948192216,-2.6038483821997875,-0.10888392708698907,2.4681821257803174,0.826474908251239,0.0001362791753832989,0.0001805643505399628,-0.0003154491589371503,-0.0005963741203052925,0.00021384259863985056,9.31428229188689e-05,0.0003470784850668778,0.0,0.0,0.0,0.0,0.0,0.0,0.0,0.0001026412197415727,7.126846446517399e-05,3.19958050049975e-05,-8.577904234297051e-05,-0.0001369153459866851,-5.635261535674729e-05,8.399235215339473e-06,-0.0001362791753832989,-0.0001805643505399628,0.0003154491589371503,0.0005963741203052925,-0.00021384259863985056,-9.31428229188689e-05,-0.0003470784850668778,0.24825400114059448,19.768823623657227,0.2483184039592743,-19.983552932739258,-0.4507346749305725,-2.4493441581726074,0.17978231608867645,0
65,0.3200092315673828,-0.24825400114059448,-19.768823623657227,-0.2483184039592743,19.983552932739258,0.4507346749305725,2.4493441581726074,-0.17978231608867645,0.0,0.0,0.0,0.0,0.0,0.0,0.0,-0.23822739737210208,-0.014780149754222885,-0.06171709493979227,0.1814807005341283,-0.1264261435117899,0.08021850187951478,-0.1621409308349652,1.2133387525490158,-0.22031450005372366,-0.007543824399824219,-2.6037626031574446,-0.10874701174100239,2.468238478395674,0.8264665090160237,1.2134413937687574,-0.2202432315892585,-0.0075118285948192216,-2.6038483821997875,-0.10888392708698907,2.4681821257803174,0.826474908251239,0.0001362791753832989,0.0001805643505399628,-0.0003154491589371503,-0.0005963741203052925,0.00021384259863985056,9.31428229188689e-05,0.0003470784850668778,0.0,0.0,0.0,0.0,0.0,0.0,0.0,0.0001026412197415727,7.126846446517399e-05,3.19958050049975e-05,-8.577904234297051e-05,-0.0001369153459866851,-5.635261535674729e-05,8.399235215339473e-06,-0.0001362791753832989,-0.0001805643505399628,0.0003154491589371503,0.0005963741203052925,-0.00021384259863985056,-9.31428229188689e-05,-0.0003470784850668778,0.24825400114059448,19.768823623657227,0.2483184039592743,-19.983552932739258,-0.4507346749305725,-2.4493441581726074,0.17978231608867645,0
66,0.324998140335083,-0.22445029020309448,-19.717248916625977,-0.2721221148967743,19.908174514770508,0.4571433663368225,2.4493441581726074,-0.13217489421367645,0.0,0.0,0.0,0.0,0.0,0.0,0.0,-0.23487351313980842,-0.01341641889303053,-0.05832340437848073,0.17940896858280816,-0.12696020138182582,0.07978045941035278,-0.16256885745872493,1.2133370820405,-0.22031811933141005,-0.007544290364739181,-2.6037573134439027,-0.1087477238178253,2.4682384391498173,0.8264622789406114,1.2134413937687574,-0.2202432315892585,-0.0075118285948192216,-2.6038483821997875,-0.10888392708698907,2.4681821257803174,0.826474908251239,-0.00010304654362173629,-0.0010491513411602644,0.0003844024253207008,0.0013968279638138191,0.0001297139454558093,0.00012433788689492537,-0.0008306919134842826,0.0,0.0,0.0,0.0,0.0,0.0,0.0,0.00010431172825731139,7.488774215155813e-05,3.2461769919959506e-05,-9.106875588482666e-05,-0.000136203269163776,-5.6313369499960686e-05,1.262931062762096e-05,0.00010304654362173629,0.0010491513411602644,-0.0003844024253207008,-0.0013968279638138191,-0.0001297139454558093,-0.00012433788689492537,0.0008306919134842826,0.22445029020309448,19.717248916625977,0.2721221148967743,-19.908174514770508,-0.4571433663368225,-2.4493441581726074,0.13217489421367645,0
67,0.32999324798583984,-0.22445029020309448,-19.717248916625977,-0.2721221148967743,19.908174514770508,0.4571433663368225,2.4493441581726074,-0.13217489421367645,0.0,0.0,0.0,0.0,0.0,0.0,0.0,-0.23487351313980842,-0.01341641889303053,-0.05832340437848073,0.17940896858280816,-0.12696020138182582,0.07978045941035278,-0.16256885745872493,1.2133370820405,-0.22031811933141005,-0.007544290364739181,-2.6037573134439027,-0.1087477238178253,2.4682384391498173,0.8264622789406114,1.2134413937687574,-0.2202432315892585,-0.0075118285948192216,-2.6038483821997875,-0.10888392708698907,2.4681821257803174,0.826474908251239,-0.00010304654362173629,-0.0010491513411602644,0.0003844024253207008,0.0013968279638138191,0.0001297139454558093,0.00012433788689492537,-0.0008306919134842826,0.0,0.0,0.0,0.0,0.0,0.0,0.0,0.00010431172825731139,7.488774215155813e-05,3.2461769919959506e-05,-9.106875588482666e-05,-0.000136203269163776,-5.6313369499960686e-05,1.262931062762096e-05,0.00010304654362173629,0.0010491513411602644,-0.0003844024253207008,-0.0013968279638138191,-0.0001297139454558093,-0.00012433788689492537,0.0008306919134842826,0.22445029020309448,19.717248916625977,0.2721221148967743,-19.908174514770508,-0.4571433663368225,-2.4493441581726074,0.13217489421367645,0
68,0.33498239517211914,-0.24825400114059448,-19.717248916625977,-0.2721221148967743,19.931978225708008,0.4626365303993225,2.4493441581726074,-0.19351522624492645,0.0,0.0,0.0,0.0,0.0,0.0,0.0,-0.23752106739631632,-0.008170104288862409,-0.06294710693591359,0.17591608091587935,-0.126259095943339,0.07905143484745465,-0.16239439186555318,1.213338831912876,-0.22031811965694473,-0.007542152027661756,-2.603758983879758,-0.1087483341693878,2.4682384783954525,0.8264680349009117,1.2134413937687574,-0.2202432315892585,-0.0075118285948192216,-2.6038483821997875,-0.10888392708698907,2.4681821257803174,0.826474908251239,-0.00011915636093571684,-0.0006707296686016053,0.0003693718988509035,0.0003249323792462647,-5.8104978888579825e-05,0.00015864025983079714,-0.0008842089573714142,0.0,0.0,0.0,0.0,0.0,0.0,0.0,0.0001025618558814223,7.488806768624068e-05,3.032343284253402e-05,-8.939832002941017e-05,-0.00013559291760127656,-5.635261513514678e-05,6.8733503273410435e-06,0.00011915636093571684,0.0006707296686016053,-0.0003693718988509035,-0.0003249323792462647,5.8104978888579825e-05,-0.00015864025983079714,0.0008842089573714142,0.24825400114059448,19.717248916625977,0.2721221148967743,-19.931978225708008,-0.4626365303993225,-2.4493441581726074,0.19351522624492645,0
69,0.3400077819824219,-0.24825400114059448,-19.717248916625977,-0.2721221148967743,19.931978225708008,0.4626365303993225,2.4493441581726074,-0.19351522624492645,0.0,0.0,0.0,0.0,0.0,0.0,0.0,-0.23752106739631632,-0.008170104288862409,-0.06294710693591359,0.17591608091587935,-0.126259095943339,0.07905143484745465,-0.16239439186555318,1.213338831912876,-0.22031811965694473,-0.007542152027661756,-2.603758983879758,-0.1087483341693878,2.4682384783954525,0.8264680349009117,1.2134413937687574,-0.2202432315892585,-0.0075118285948192216,-2.6038483821997875,-0.10888392708698907,2.4681821257803174,0.826474908251239,-0.00011915636093571684,-0.0006707296686016053,0.0003693718988509035,0.0003249323792462647,-5.8104978888579825e-05,0.00015864025983079714,-0.0008842089573714142,0.0,0.0,0.0,0.0,0.0,0.0,0.0,0.0001025618558814223,7.488806768624068e-05,3.032343284253402e-05,-8.939832002941017e-05,-0.00013559291760127656,-5.635261513514678e-05,6.8733503273410435e-06,0.00011915636093571684,0.0006707296686016053,-0.0003693718988509035,-0.0003249323792462647,5.8104978888579825e-05,-0.00015864025983079714,0.0008842089573714142,0.24825400114059448,19.717248916625977,0.2721221148967743,-19.931978225708008,-0.4626365303993225,-2.4493441581726074,0.19351522624492645,0
70,0.3449833393096924,-0.24825400114059448,-19.745019912719727,-0.3236968219280243,19.931978225708008,0.4626365303993225,2.4493441581726074,-0.17978231608867645,0.0,0.0,0.0,0.0,0.0,0.0,0.0,-0.23579774796109387,-0.012920098956523336,-0.05921737672419617,0.17897601043892367,-0.12565368139622357,0.07968493196800784,-0.1626083369181555,1.2133387494970256,-0.22031617048958074,-0.007538610673180458,-2.603758983879758,-0.10874833368184282,2.468238478395674,0.8264665090160237,1.2134413937687574,-0.2202432315892585,-0.0075118285948192216,-2.6038483821997875,-0.10888392708698907,2.4681821257803174,0.826474908251239,0.0003132807319744617,-0.00041778733745226137,0.0017160976606311528,0.0006879899159247726,-6.960491968648251e-05,0.00015998949784670438,0.0008560419650884095,0.0,0.0,0.0,0.0,0.0,0.0,0.0,0.0001026442717317888,7.29389003222558e-05,2.678207836123627e-05,-8.939832002941017e-05,-0.00013559340514625318,-5.635261535674729e-05,8.399235215339473e-06,-0.0003132807319744617,0.00041778733745226137,-0.0017160976606311528,-0.0006879899159247726,6.960491968648251e-05,-0.00015998949784670438,-0.0008560419650884095,0.24825400114059448,19.745019912719727,0.3236968219280243,-19.931978225708008,-0.4626365303993225,-2.4493441581726074,0.17978231608867645,0
71,0.350003719329834,-0.24825400114059448,-19.745019912719727,-0.3236968219280243,19.931978225708008,0.4626365303993225,2.4493441581726074,-0.17978231608867645,0.0,0.0,0.0,0.0,0.0,0.0,0.0,-0.23579774796109387,-0.012920098956523336,-0.05921737672419617,0.17897601043892367,-0.12565368139622357,0.07968493196800784,-0.1626083369181555,1.2133387494970256,-0.22031617048958074,-0.007538610673180458,-2.603758983879758,-0.10874833368184282,2.468238478395674,0.8264665090160237,1.2134413937687574,-0.2202432315892585,-0.0075118285948192216,-2.6038483821997875,-0.10888392708698907,2.4681821257803174,0.826474908251239,0.0003132807319744617,-0.00041778733745226137,0.0017160976606311528,0.0006879899159247726,-6.960491968648251e-05,0.00015998949784670438,0.0008560419650884095,0.0,0.0,0.0,0.0,0.0,0.0,0.0,0.0001026442717317888,7.29389003222558e-05,2.678207836123627e-05,-8.939832002941017e-05,-0.00013559340514625318,-5.635261535674729e-05,8.399235215339473e-06,-0.0003132807319744617,0.00041778733745226137,-0.0017160976606311528,-0.0006879899159247726,6.960491968648251e-05,-0.00015998949784670438,-0.0008560419650884095,0.24825400114059448,19.745019912719727,0.3236968219280243,-19.931978225708008,-0.4626365303993225,-2.4493441581726074,0.17978231608867645,0
72,0.3550076484680176,-0.19667929410934448,-19.717248916625977,-0.2483184039592743,19.955781936645508,0.4571433663368225,2.4429354667663574,-0.15231649577617645,0.0,0.0,0.0,0.0,0.0,0.0,0.0,-0.23377702764314892,-0.005903640836553062,-0.059300074124760904,0.1732861631756553,-0.1251380123575737,0.07916618076138202,-0.1624608368600806,1.213335130218874,-0.22031811933141005,-0.0075440582060960675,-2.603760645812345,-0.10874772376365088,2.468239190472497,0.8264634572582112,1.2134413937687574,-0.2202432315892585,-0.0075118285948192216,-2.6038483821997875,-0.10888392708698907,2.4681821257803174,0.826474908251239,-0.0006243463160096772,-0.00026600332125481047,2.1955226182229063e-05,-0.00014092159582200544,0.004248664730628333,0.00041255848262481423,-0.0005909610297063799,0.0,0.0,0.0,0.0,0.0,0.0,0.0,0.00010626354988341191,7.488774215155813e-05,3.222961127684592e-05,-8.773638744274947e-05,-0.00013620332333819096,-5.7064692179586984e-05,1.1450993027795064e-05,0.0006243463160096772,0.00026600332125481047,-2.1955226182229063e-05,0.00014092159582200544,-0.004248664730628333,-0.00041255848262481423,0.0005909610297063799,0.19667929410934448,19.717248916625977,0.2483184039592743,-19.955781936645508,-0.4571433663368225,-2.4429354667663574,0.15231649577617645,0
73,0.3599989414215088,-0.19667929410934448,-19.717248916625977,-0.2483184039592743,19.955781936645508,0.4571433663368225,2.4429354667663574,-0.15231649577617645,0.0,0.0,0.0,0.0,0.0,0.0,0.0,-0.23377702764314892,-0.005903640836553062,-0.059300074124760904,0.1732861631756553,-0.1251380123575737,0.07916618076138202,-0.1624608368600806,1.213335130218874,-0.22031811933141005,-0.0075440582060960675,-2.603760645812345,-0.10874772376365088,2.468239190472497,0.8264634572582112,1.2134413937687574,-0.2202432315892585,-0.0075118285948192216,-2.6038483821997875,-0.10888392708698907,2.4681821257803174,0.826474908251239,-0.0006243463160096772,-0.00026600332125481047,2.1955226182229063e-05,-0.00014092159582200544,0.004248664730628333,0.00041255848262481423,-0.0005909610297063799,0.0,0.0,0.0,0.0,0.0,0.0,0.0,0.00010626354988341191,7.488774215155813e-05,3.222961127684592e-05,-8.773638744274947e-05,-0.00013620332333819096,-5.7064692179586984e-05,1.1450993027795064e-05,0.0006243463160096772,0.00026600332125481047,-2.1955226182229063e-05,0.00014092159582200544,-0.004248664730628333,-0.00041255848262481423,0.0005909610297063799,0.19667929410934448,19.717248916625977,0.2483184039592743,-19.955781936645508,-0.4571433663368225,-2.4429354667663574,0.15231649577617645,0
74,0.3650071620941162,-0.19667929410934448,-19.717248916625977,-0.2483184039592743,19.955781936645508,0.4571433663368225,2.4429354667663574,-0.15231649577617645,0.0,0.0,0.0,0.0,0.0,0.0,0.0,-0.23377702764314892,-0.005903640836553062,-0.059300074124760904,0.1732861631756553,-0.1251380123575737,0.07916618076138202,-0.1624608368600806,1.213335130218874,-0.22031811933141005,-0.0075440582060960675,-2.603760645812345,-0.10874772376365088,2.468239190472497,0.8264634572582112,1.2134413937687574,-0.2202432315892585,-0.0075118285948192216,-2.6038483821997875,-0.10888392708698907,2.4681821257803174,0.826474908251239,-0.0006243463160096772,-0.00026600332125481047,2.1955226182229063e-05,-0.00014092159582200544,0.004248664730628333,0.00041255848262481423,-0.0005909610297063799,0.0,0.0,0.0,0.0,0.0,0.0,0.0,0.00010626354988341191,7.488774215155813e-05,3.222961127684592e-05,-8.773638744274947e-05,-0.00013620332333819096,-5.7064692179586984e-05,1.1450993027795064e-05,0.0006243463160096772,0.00026600332125481047,-2.1955226182229063e-05,0.00014092159582200544,-0.004248664730628333,-0.00041255848262481423,0.0005909610297063799,0.19667929410934448,19.717248916625977,0.2483184039592743,-19.955781936645508,-0.4571433663368225,-2.4429354667663574,0.15231649577617645,0
75,0.36999011039733887,-0.19667929410934448,-19.717248916625977,-0.2483184039592743,19.955781936645508,0.4571433663368225,2.4429354667663574,-0.15231649577617645,0.0,0.0,0.0,0.0,0.0,0.0,0.0,-0.23377702764314892,-0.005903640836553062,-0.059300074124760904,0.1732861631756553,-0.1251380123575737,0.07916618076138202,-0.1624608368600806,1.213335130218874,-0.22031811933141005,-0.0075440582060960675,-2.603760645812345,-0.10874772376365088,2.468239190472497,0.8264634572582112,1.2134413937687574,-0.2202432315892585,-0.0075118285948192216,-2.6038483821997875,-0.10888392708698907,2.4681821257803174,0.826474908251239,-0.0006243463160096772,-0.00026600332125481047,2.1955226182229063e-05,-0.00014092159582200544,0.004248664730628333,0.00041255848262481423,-0.0005909610297063799,0.0,0.0,0.0,0.0,0.0,0.0,0.0,0.00010626354988341191,7.488774215155813e-05,3.222961127684592e-05,-8.773638744274947e-05,-0.00013620332333819096,-5.7064692179586984e-05,1.1450993027795064e-05,0.0006243463160096772,0.00026600332125481047,-2.1955226182229063e-05,0.00014092159582200544,-0.004248664730628333,-0.00041255848262481423,0.0005909610297063799,0.19667929410934448,19.717248916625977,0.2483184039592743,-19.955781936645508,-0.4571433663368225,-2.4429354667663574,0.15231649577617645,0
76,0.37500619888305664,-0.22445029020309448,-19.717248916625977,-0.2483184039592743,19.955781936645508,0.4626365303993225,2.4566683769226074,-0.15231649577617645,0.0,0.0,0.0,0.0,0.0,0.0,0.0,-0.23459691678519629,-0.011384967160548857,-0.061174274420049815,0.17915459644722426,-0.12390771544636153,0.08003921307385253,-0.16246912888023862,1.213337079060705,-0.22031811933141005,-0.0075459549567685824,-2.6037606543155656,-0.10874833416938749,2.46823770580174,0.8264634572582112,1.2134413937687574,-0.2202432315892585,-0.0075118285948192216,-2.6038483821997875,-0.10888392708698907,2.4681821257803174,0.826474908251239,-0.0002976547297399608,-0.0009328538207514667,-0.00027534211259929586,7.989335045164904e-05,0.0002269912175868239,-9.324204008818125e-05,-0.00012301052849142885,0.0,0.0,0.0,0.0,0.0,0.0,0.0,0.00010431470805238874,7.488774215155813e-05,3.412636194936088e-05,-8.772788422195532e-05,-0.00013559291760158187,-5.5580021422585446e-05,1.1450993027795064e-05,0.0002976547297399608,0.0009328538207514667,0.00027534211259929586,-7.989335045164904e-05,-0.0002269912175868239,9.324204008818125e-05,0.00012301052849142885,0.22445029020309448,19.717248916625977,0.2483184039592743,-19.955781936645508,-0.4626365303993225,-2.4566683769226074,0.15231649577617645,0
77,0.38000988960266113,-0.22445029020309448,-19.717248916625977,-0.2483184039592743,19.955781936645508,0.4626365303993225,2.4566683769226074,-0.15231649577617645,0.0,0.0,0.0,0.0,0.0,0.0,0.0,-0.23459691678519629,-0.011384967160548857,-0.061174274420049815,0.17915459644722426,-0.12390771544636153,0.08003921307385253,-0.16246912888023862,1.213337079060705,-0.22031811933141005,-0.0075459549567685824,-2.6037606543155656,-0.10874833416938749,2.46823770580174,0.8264634572582112,1.2134413937687574,-0.2202432315892585,-0.0075118285948192216,-2.6038483821997875,-0.10888392708698907,2.4681821257803174,0.826474908251239,-0.0002976547297399608,-0.0009328538207514667,-0.00027534211259929586,7.989335045164904e-05,0.0002269912175868239,-9.324204008818125e-05,-0.00012301052849142885,0.0,0.0,0.0,0.0,0.0,0.0,0.0,0.00010431470805238874,7.488774215155813e-05,3.412636194936088e-05,-8.772788422195532e-05,-0.00013559291760158187,-5.5580021422585446e-05,1.1450993027795064e-05,0.0002976547297399608,0.0009328538207514667,0.00027534211259929586,-7.989335045164904e-05,-0.0002269912175868239,9.324204008818125e-05,0.00012301052849142885,0.22445029020309448,19.717248916625977,0.2483184039592743,-19.955781936645508,-0.4626365303993225,-2.4566683769226074,0.15231649577617645,0
78,0.3849961757659912,-0.19667929410934448,-19.768823623657227,-0.2721221148967743,19.931978225708008,0.4626365303993225,2.4429354667663574,-0.16604940593242645,0.0,0.0,0.0,0.0,0.0,0.0,0.0,-0.2348468582368762,-0.01589548184448222,-0.061209154535100646,0.1846767480740964,-0.12296286979005876,0.0808470358287196,-0.1627671213829633,1.2133351312000202,-0.22031450005372366,-0.007542151053437816,-2.603758983879758,-0.1087483341693878,2.4682391904727297,0.8264649831371175,1.2134413937687574,-0.2202432315892585,-0.0075118285948192216,-2.6038483821997875,-0.10888392708698907,2.4681821257803174,0.826474908251239,-0.0012308920847444963,-0.00012081314950894618,0.0006267085756412489,0.0009353274475518174,-4.8929459540505324e-05,0.00031943638816340515,-0.0007763046130744081,0.0,0.0,0.0,0.0,0.0,0.0,0.0,0.00010626256873713658,7.126846446517399e-05,3.032245861859465e-05,-8.939832002941017e-05,-0.00013559291760127656,-5.706469241228973e-05,9.925114121567269e-06,0.0012308920847444963,0.00012081314950894618,-0.0006267085756412489,-0.0009353274475518174,4.8929459540505324e-05,-0.00031943638816340515,0.0007763046130744081,0.19667929410934448,19.768823623657227,0.2721221148967743,-19.931978225708008,-0.4626365303993225,-2.4429354667663574,0.16604940593242645,0
79,0.390000581741333,-0.19667929410934448,-19.768823623657227,-0.2721221148967743,19.931978225708008,0.4626365303993225,2.4429354667663574,-0.16604940593242645,0.0,0.0,0.0,0.0,0.0,0.0,0.0,-0.2348468582368762,-0.01589548184448222,-0.061209154535100646,0.1846767480740964,-0.12296286979005876,0.0808470358287196,-0.1627671213829633,1.2133351312000202,-0.22031450005372366,-0.007542151053437816,-2.603758983879758,-0.1087483341693878,2.4682391904727297,0.8264649831371175,1.2134413937687574,-0.2202432315892585,-0.0075118285948192216,-2.6038483821997875,-0.10888392708698907,2.4681821257803174,0.826474908251239,-0.0012308920847444963,-0.00012081314950894618,0.0006267085756412489,0.0009353274475518174,-4.8929459540505324e-05,0.00031943638816340515,-0.0007763046130744081,0.0,0.0,0.0,0.0,0.0,0.0,0.0,0.00010626256873713658,7.126846446517399e-05,3.032245861859465e-05,-8.939832002941017e-05,-0.00013559291760127656,-5.706469241228973e-05,9.925114121567269e-06,0.0012308920847444963,0.00012081314950894618,-0.0006267085756412489,-0.0009353274475518174,4.8929459540505324e-05,-0.00031943638816340515,0.0007763046130744081,0.19667929410934448,19.768823623657227,0.2721221148967743,-19.931978225708008,-0.4626365303993225,-2.4429354667663574,0.16604940593242645,0
