rezayati/contactInterpretation/dataset/franka_main/labeled_data/link7/a4_6.csv
index,time,tau_J0,tau_J1,tau_J2,tau_J3,tau_J4,tau_J5,tau_J6,tau_J_d0,tau_J_d1,tau_J_d2,tau_J_d3,tau_J_d4,tau_J_d5,tau_J_d6,tau_ext0,tau_ext1,tau_ext2,tau_ext3,tau_ext4,tau_ext5,tau_ext6,q0,q1,q2,q3,q4,q5,q6,q_d0,q_d1,q_d2,q_d3,q_d4,q_d5,q_d6,dq0,dq1,dq2,dq3,dq4,dq5,dq6,dq_d0,dq_d1,dq_d2,dq_d3,dq_d4,dq_d5,dq_d6,e0,e1,e2,e3,e4,e5,e6,de0,de1,de2,de3,de4,de5,de6,etau_J0,etau_J1,etau_J2,etau_J3,etau_J4,etau_J5,etau_J6,label
1,0.0,-0.09352988004684448,-18.253320693969727,0.8942596912384033,18.245882034301758,0.5880637764930725,2.3330721855163574,-0.28232139348983765,0.0,0.0,0.0,0.0,0.0,0.0,0.0,-0.05028291433643272,0.5049310324316887,0.11096097289546884,0.6331365507520553,0.1614827024410833,0.1372712873683615,-0.26544800584062134,-0.6090318457393935,-0.05751846986939631,-0.6665935094065808,-2.5947789521066413,-0.055772826870732185,2.5078612599528713,0.8763275316490067,-0.6090851748156966,-0.05753196718556838,-0.666603097082616,-2.5945565370258534,-0.05562143941554,2.507976027223799,0.8763108487046415,0.0008982944040248868,0.0003153572303126358,0.000595630607296513,2.0317400773608492e-05,-7.85315521912486e-05,-3.0416291578924333e-05,0.0005298826644404779,0.0,0.0,0.0,0.0,0.0,0.0,0.0,-5.3329076303065825e-05,-1.3497316172075835e-05,-9.587676035205384e-06,0.00022241508078790773,0.00015138745519218538,0.00011476727092762928,-1.6682944365187247e-05,-0.0008982944040248868,-0.0003153572303126358,-0.000595630607296513,-2.0317400773608492e-05,7.85315521912486e-05,3.0416291578924333e-05,-0.0005298826644404779,0.09352988004684448,18.253320693969727,-0.8942596912384033,-18.245882034301758,-0.5880637764930725,-2.3330721855163574,0.28232139348983765,0
2,0.004751443862915039,-0.06972616910934448,-18.253320693969727,0.9696381092071533,18.245882034301758,0.5944724678993225,2.3330721855163574,-0.21457235515117645,0.0,0.0,0.0,0.0,0.0,0.0,0.0,-0.05094965664729335,0.4958995999836851,0.11108811373754016,0.6230897115752014,0.16168804221780947,0.13832773179236305,-0.26658651633910585,-0.6090327900059059,-0.05751846986538487,-0.6665987732625523,-2.594779093101411,-0.05577352580435543,2.5078617436651935,0.8763200039780801,-0.6090851748156966,-0.05753196718556838,-0.666603097082616,-2.5945565370258534,-0.05562143941554,2.507976027223799,0.8763108487046415,0.00017911952295845772,0.0002094921704354196,-0.0011153989482417673,-0.00010760269383057643,-0.00022239766613986882,-0.00031771858380267925,-0.0022203436403046063,0.0,0.0,0.0,0.0,0.0,0.0,0.0,-5.2384809790639864e-05,-1.3497320183512851e-05,-4.323820063656392e-06,0.00022255607555754509,0.00015208638881542696,0.00011428355860543249,-9.155273438588019e-06,-0.00017911952295845772,-0.0002094921704354196,0.0011153989482417673,0.00010760269383057643,0.00022239766613986882,0.00031771858380267925,0.0022203436403046063,0.06972616910934448,18.253320693969727,-0.9696381092071533,-18.245882034301758,-0.5944724678993225,-2.3330721855163574,0.21457235515117645,0
3,0.009857654571533203,-0.06972616910934448,-18.253320693969727,0.9696381092071533,18.245882034301758,0.5944724678993225,2.3330721855163574,-0.21457235515117645,0.0,0.0,0.0,0.0,0.0,0.0,0.0,-0.05094965664729335,0.4958995999836851,0.11108811373754016,0.6230897115752014,0.16168804221780947,0.13832773179236305,-0.26658651633910585,-0.6090327900059059,-0.05751846986538487,-0.6665987732625523,-2.594779093101411,-0.05577352580435543,2.5078617436651935,0.8763200039780801,-0.6090851748156966,-0.05753196718556838,-0.666603097082616,-2.5945565370258534,-0.05562143941554,2.507976027223799,0.8763108487046415,0.00017911952295845772,0.0002094921704354196,-0.0011153989482417673,-0.00010760269383057643,-0.00022239766613986882,-0.00031771858380267925,-0.0022203436403046063,0.0,0.0,0.0,0.0,0.0,0.0,0.0,-5.2384809790639864e-05,-1.3497320183512851e-05,-4.323820063656392e-06,0.00022255607555754509,0.00015208638881542696,0.00011428355860543249,-9.155273438588019e-06,-0.00017911952295845772,-0.0002094921704354196,0.0011153989482417673,0.00010760269383057643,0.00022239766613986882,0.00031771858380267925,0.0022203436403046063,0.06972616910934448,18.253320693969727,-0.9696381092071533,-18.245882034301758,-0.5944724678993225,-2.3330721855163574,0.21457235515117645,0
4,0.014853477478027344,-0.04592245817184448,-18.130334854125977,0.9418671131134033,18.245882034301758,0.5880637764930725,2.3266634941101074,-0.26217979192733765,0.0,0.0,0.0,0.0,0.0,0.0,0.0,-0.04977647679636612,0.49122072625904134,0.11409331363596556,0.618856254505259,0.1615865257340703,0.13876247524546886,-0.26589476714861215,-0.6090349471071991,-0.057527100775414675,-0.6665970842817117,-2.5947788812060844,-0.05577281810854961,2.507862323741,0.8763252936932775,-0.6090851748156966,-0.05753196718556838,-0.666603097082616,-2.5945565370258534,-0.05562143941554,2.507976027223799,0.8763108487046415,3.806505413171767e-05,-0.000539578663967207,-0.0005063161864917339,0.0002809728935739491,-0.00024547621881109284,-5.016012148035456e-06,-0.0006889774032452936,0.0,0.0,0.0,0.0,0.0,0.0,0.0,-5.022770849749669e-05,-4.866410153708811e-06,-6.012800904287019e-06,0.00022234418023092672,0.00015137869300960866,0.0001137034827989325,-1.4444988636008738e-05,-3.806505413171767e-05,0.000539578663967207,0.0005063161864917339,-0.0002809728935739491,0.00024547621881109284,5.016012148035456e-06,0.0006889774032452936,0.04592245817184448,18.130334854125977,-0.9418671131134033,-18.245882034301758,-0.5880637764930725,-2.3266634941101074,0.26217979192733765,0
5,0.019753694534301758,-0.04592245817184448,-18.130334854125977,0.9418671131134033,18.245882034301758,0.5880637764930725,2.3266634941101074,-0.26217979192733765,0.0,0.0,0.0,0.0,0.0,0.0,0.0,-0.04977647679636612,0.49122072625904134,0.11409331363596556,0.618856254505259,0.1615865257340703,0.13876247524546886,-0.26589476714861215,-0.6090349471071991,-0.057527100775414675,-0.6665970842817117,-2.5947788812060844,-0.05577281810854961,2.507862323741,0.8763252936932775,-0.6090851748156966,-0.05753196718556838,-0.666603097082616,-2.5945565370258534,-0.05562143941554,2.507976027223799,0.8763108487046415,3.806505413171767e-05,-0.000539578663967207,-0.0005063161864917339,0.0002809728935739491,-0.00024547621881109284,-5.016012148035456e-06,-0.0006889774032452936,0.0,0.0,0.0,0.0,0.0,0.0,0.0,-5.022770849749669e-05,-4.866410153708811e-06,-6.012800904287019e-06,0.00022234418023092672,0.00015137869300960866,0.0001137034827989325,-1.4444988636008738e-05,-3.806505413171767e-05,0.000539578663967207,0.0005063161864917339,-0.0002809728935739491,0.00024547621881109284,5.016012148035456e-06,0.0006889774032452936,0.04592245817184448,18.130334854125977,-0.9418671131134033,-18.245882034301758,-0.5880637764930725,-2.3266634941101074,0.26217979192733765,0
6,0.024753093719482422,-0.04592245817184448,-18.130334854125977,0.9180634021759033,18.198274612426758,0.5880637764930725,2.3074374198913574,-0.26858848333358765,0.0,0.0,0.0,0.0,0.0,0.0,0.0,-0.05455847434836492,0.4850718970381501,0.11131345807737943,0.6225831438235173,0.16184010587632752,0.13875600318220482,-0.26582684270474216,-0.6090351898299038,-0.057527100775416506,-0.6665951538435237,-2.5947755481508454,-0.05577281518784681,2.5078646310049866,0.8763260057701003,-0.6090851748156966,-0.05753196718556838,-0.666603097082616,-2.5945565370258534,-0.05562143941554,2.507976027223799,0.8763108487046415,-0.0004330287940963076,-0.0002828382758174795,0.0002877797724999924,0.0009610565465321989,-0.00016263287121730187,-0.00011933036564244675,9.90610904032429e-05,0.0,0.0,0.0,0.0,0.0,0.0,0.0,-4.9984985792783654e-05,-4.866410151876943e-06,-7.943239092256249e-06,0.00021901112499200792,0.00015137577230681099,0.00011139621881239847,-1.5157065458848429e-05,0.0004330287940963076,0.0002828382758174795,-0.0002877797724999924,-0.0009610565465321989,0.00016263287121730187,0.00011933036564244675,-9.90610904032429e-05,0.04592245817184448,18.130334854125977,-0.9180634021759033,-18.198274612426758,-0.5880637764930725,-2.3074374198913574,0.26858848333358765,0
7,0.0297548770904541,-0.04592245817184448,-18.130334854125977,0.9180634021759033,18.198274612426758,0.5880637764930725,2.3074374198913574,-0.26858848333358765,0.0,0.0,0.0,0.0,0.0,0.0,0.0,-0.05455847434836492,0.4850718970381501,0.11131345807737943,0.6225831438235173,0.16184010587632752,0.13875600318220482,-0.26582684270474216,-0.6090351898299038,-0.057527100775416506,-0.6665951538435237,-2.5947755481508454,-0.05577281518784681,2.5078646310049866,0.8763260057701003,-0.6090851748156966,-0.05753196718556838,-0.666603097082616,-2.5945565370258534,-0.05562143941554,2.507976027223799,0.8763108487046415,-0.0004330287940963076,-0.0002828382758174795,0.0002877797724999924,0.0009610565465321989,-0.00016263287121730187,-0.00011933036564244675,9.90610904032429e-05,0.0,0.0,0.0,0.0,0.0,0.0,0.0,-4.9984985792783654e-05,-4.866410151876943e-06,-7.943239092256249e-06,0.00021901112499200792,0.00015137577230681099,0.00011139621881239847,-1.5157065458848429e-05,0.0004330287940963076,0.0002828382758174795,-0.0002877797724999924,-0.0009610565465321989,0.00016263287121730187,0.00011933036564244675,-9.90610904032429e-05,0.04592245817184448,18.130334854125977,-0.9180634021759033,-18.198274612426758,-0.5880637764930725,-2.3074374198913574,0.26858848333358765,0
8,0.03477764129638672,-0.12130087614059448,-18.154138565063477,0.8942596912384033,18.222078323364258,0.5816550850868225,2.3202548027038574,-0.24112264811992645,0.0,0.0,0.0,0.0,0.0,0.0,0.0,-0.06353681255304211,0.49427349977391194,0.10491907958996113,0.6197438631976208,0.16186185261964947,0.13435301526910898,-0.26542394749270726,-0.6090295764504504,-0.057526219236459605,-0.6665934843691778,-2.5947772107375444,-0.055772103129031095,2.507859674940552,0.8763229540106322,-0.6090851748156966,-0.05753196718556838,-0.666603097082616,-2.5945565370258534,-0.05562143941554,2.507976027223799,0.8763108487046415,0.0007125087959803229,0.0008290571071671449,9.235298844779807e-05,0.0001097127128537339,7.684268829174313e-05,-0.00036390215421140855,0.0029447857823345826,0.0,0.0,0.0,0.0,0.0,0.0,0.0,-5.559836524615669e-05,-5.747949108778072e-06,-9.612713438245102e-06,0.00022067371169098848,0.00015066371349109486,0.00011635228324680114,-1.2105305990717241e-05,-0.0007125087959803229,-0.0008290571071671449,-9.235298844779807e-05,-0.0001097127128537339,-7.684268829174313e-05,0.00036390215421140855,-0.0029447857823345826,0.12130087614059448,18.154138565063477,-0.8942596912384033,-18.222078323364258,-0.5816550850868225,-2.3202548027038574,0.24112264811992645,0
9,0.03977179527282715,-0.12130087614059448,-18.154138565063477,0.8942596912384033,18.222078323364258,0.5816550850868225,2.3202548027038574,-0.24112264811992645,0.0,0.0,0.0,0.0,0.0,0.0,0.0,-0.06353681255304211,0.49427349977391194,0.10491907958996113,0.6197438631976208,0.16186185261964947,0.13435301526910898,-0.26542394749270726,-0.6090295764504504,-0.057526219236459605,-0.6665934843691778,-2.5947772107375444,-0.055772103129031095,2.507859674940552,0.8763229540106322,-0.6090851748156966,-0.05753196718556838,-0.666603097082616,-2.5945565370258534,-0.05562143941554,2.507976027223799,0.8763108487046415,0.0007125087959803229,0.0008290571071671449,9.235298844779807e-05,0.0001097127128537339,7.684268829174313e-05,-0.00036390215421140855,0.0029447857823345826,0.0,0.0,0.0,0.0,0.0,0.0,0.0,-5.559836524615669e-05,-5.747949108778072e-06,-9.612713438245102e-06,0.00022067371169098848,0.00015066371349109486,0.00011635228324680114,-1.2105305990717241e-05,-0.0007125087959803229,-0.0008290571071671449,-9.235298844779807e-05,-0.0001097127128537339,-7.684268829174313e-05,0.00036390215421140855,-0.0029447857823345826,0.12130087614059448,18.154138565063477,-0.8942596912384033,-18.222078323364258,-0.5816550850868225,-2.3202548027038574,0.24112264811992645,0
10,0.045540571212768555,-0.09352988004684448,-18.130334854125977,0.8942596912384033,18.269685745239258,0.5880637764930725,2.3266634941101074,-0.24112264811992645,0.0,0.0,0.0,0.0,0.0,0.0,0.0,-0.06689864734367232,0.491736686942436,0.10497893262392685,0.6283270359204051,0.16183265968929691,0.13548309489106686,-0.2657532444123757,-0.6090295826205503,-0.057527179700834694,-0.6665934834062062,-2.59478055160924,-0.05577281372746666,2.5078591983189282,0.8763229540106322,-0.6090851748156966,-0.05753196718556838,-0.666603097082616,-2.5945565370258534,-0.05562143941554,2.507976027223799,0.8763108487046415,-6.956364722889385e-05,-0.0008241480105419174,2.4444249985012877e-06,0.000371424951686182,-0.00011934297983515204,0.00015165255477059093,-0.001204622913529974,0.0,0.0,0.0,0.0,0.0,0.0,0.0,-5.559219514628122e-05,-4.78748473368984e-06,-9.613676409836458e-06,0.00022401458338672242,0.00015137431192666084,0.00011682890487074715,-1.2105305990717241e-05,6.956364722889385e-05,0.0008241480105419174,-2.4444249985012877e-06,-0.000371424951686182,0.00011934297983515204,-0.00015165255477059093,0.001204622913529974,0.09352988004684448,18.130334854125977,-0.8942596912384033,-18.269685745239258,-0.5880637764930725,-2.3266634941101074,0.24112264811992645,0
11,0.04971170425415039,-0.09352988004684448,-18.130334854125977,0.8942596912384033,18.269685745239258,0.5880637764930725,2.3266634941101074,-0.24112264811992645,0.0,0.0,0.0,0.0,0.0,0.0,0.0,-0.06689864734367232,0.491736686942436,0.10497893262392685,0.6283270359204051,0.16183265968929691,0.13548309489106686,-0.2657532444123757,-0.6090295826205503,-0.057527179700834694,-0.6665934834062062,-2.59478055160924,-0.05577281372746666,2.5078591983189282,0.8763229540106322,-0.6090851748156966,-0.05753196718556838,-0.666603097082616,-2.5945565370258534,-0.05562143941554,2.507976027223799,0.8763108487046415,-6.956364722889385e-05,-0.0008241480105419174,2.4444249985012877e-06,0.000371424951686182,-0.00011934297983515204,0.00015165255477059093,-0.001204622913529974,0.0,0.0,0.0,0.0,0.0,0.0,0.0,-5.559219514628122e-05,-4.78748473368984e-06,-9.613676409836458e-06,0.00022401458338672242,0.00015137431192666084,0.00011682890487074715,-1.2105305990717241e-05,6.956364722889385e-05,0.0008241480105419174,-2.4444249985012877e-06,-0.000371424951686182,0.00011934297983515204,-0.00015165255477059093,0.001204622913529974,0.09352988004684448,18.130334854125977,-0.8942596912384033,-18.269685745239258,-0.5880637764930725,-2.3266634941101074,0.24112264811992645,0
12,0.05475640296936035,-0.04592245817184448,-18.154138565063477,0.9180634021759033,18.245882034301758,0.5880637764930725,2.3074374198913574,-0.28964561223983765,0.0,0.0,0.0,0.0,0.0,0.0,0.0,-0.06505932114398644,0.4993981049392188,0.10908475593891982,0.6244835991516818,0.1614121368347921,0.13737676955301714,-0.26570420192901334,-0.609034424120512,-0.05752543878422524,-0.666595153842056,-2.5947789047208984,-0.055772813889720954,2.5078645095889804,0.87632834545109,-0.6090851748156966,-0.05753196718556838,-0.666603097082616,-2.5945565370258534,-0.05562143941554,2.507976027223799,0.8763108487046415,-0.00021454631396961138,-0.0007532310757529746,2.2645297867000987e-05,0.0008206809492920798,1.1277142949874162e-05,0.0007245305079058244,0.0005450497083432071,0.0,0.0,0.0,0.0,0.0,0.0,0.0,-5.0750695184564876e-05,-6.528401343144918e-06,-7.943240559971088e-06,0.00022236769504502263,0.00015137447418095418,0.00011151763481853649,-1.749674644846433e-05,0.00021454631396961138,0.0007532310757529746,-2.2645297867000987e-05,-0.0008206809492920798,-1.1277142949874162e-05,-0.0007245305079058244,-0.0005450497083432071,0.04592245817184448,18.154138565063477,-0.9180634021759033,-18.245882034301758,-0.5880637764930725,-2.3074374198913574,0.28964561223983765,0
13,0.0597536563873291,-0.04592245817184448,-18.154138565063477,0.9180634021759033,18.245882034301758,0.5880637764930725,2.3074374198913574,-0.28964561223983765,0.0,0.0,0.0,0.0,0.0,0.0,0.0,-0.06505932114398644,0.4993981049392188,0.10908475593891982,0.6244835991516818,0.1614121368347921,0.13737676955301714,-0.26570420192901334,-0.609034424120512,-0.05752543878422524,-0.666595153842056,-2.5947789047208984,-0.055772813889720954,2.5078645095889804,0.87632834545109,-0.6090851748156966,-0.05753196718556838,-0.666603097082616,-2.5945565370258534,-0.05562143941554,2.507976027223799,0.8763108487046415,-0.00021454631396961138,-0.0007532310757529746,2.2645297867000987e-05,0.0008206809492920798,1.1277142949874162e-05,0.0007245305079058244,0.0005450497083432071,0.0,0.0,0.0,0.0,0.0,0.0,0.0,-5.0750695184564876e-05,-6.528401343144918e-06,-7.943240559971088e-06,0.00022236769504502263,0.00015137447418095418,0.00011151763481853649,-1.749674644846433e-05,0.00021454631396961138,0.0007532310757529746,-2.2645297867000987e-05,-0.0008206809492920798,-1.1277142949874162e-05,-0.0007245305079058244,-0.0005450497083432071,0.04592245817184448,18.154138565063477,-0.9180634021759033,-18.245882034301758,-0.5880637764930725,-2.3074374198913574,0.28964561223983765,0
14,0.06475305557250977,-0.04592245817184448,-18.154138565063477,0.9180634021759033,18.245882034301758,0.5880637764930725,2.3074374198913574,-0.28964561223983765,0.0,0.0,0.0,0.0,0.0,0.0,0.0,-0.06505932114398644,0.4993981049392188,0.10908475593891982,0.6244835991516818,0.1614121368347921,0.13737676955301714,-0.26570420192901334,-0.609034424120512,-0.05752543878422524,-0.666595153842056,-2.5947789047208984,-0.055772813889720954,2.5078645095889804,0.87632834545109,-0.6090851748156966,-0.05753196718556838,-0.666603097082616,-2.5945565370258534,-0.05562143941554,2.507976027223799,0.8763108487046415,-0.00021454631396961138,-0.0007532310757529746,2.2645297867000987e-05,0.0008206809492920798,1.1277142949874162e-05,0.0007245305079058244,0.0005450497083432071,0.0,0.0,0.0,0.0,0.0,0.0,0.0,-5.0750695184564876e-05,-6.528401343144918e-06,-7.943240559971088e-06,0.00022236769504502263,0.00015137447418095418,0.00011151763481853649,-1.749674644846433e-05,0.00021454631396961138,0.0007532310757529746,-2.2645297867000987e-05,-0.0008206809492920798,-1.1277142949874162e-05,-0.0007245305079058244,-0.0005450497083432071,0.04592245817184448,18.154138565063477,-0.9180634021759033,-18.245882034301758,-0.5880637764930725,-2.3074374198913574,0.28964561223983765,0
15,0.06975555419921875,-0.04592245817184448,-18.154138565063477,0.9180634021759033,18.245882034301758,0.5880637764930725,2.3074374198913574,-0.28964561223983765,0.0,0.0,0.0,0.0,0.0,0.0,0.0,-0.06505932114398644,0.4993981049392188,0.10908475593891982,0.6244835991516818,0.1614121368347921,0.13737676955301714,-0.26570420192901334,-0.609034424120512,-0.05752543878422524,-0.666595153842056,-2.5947789047208984,-0.055772813889720954,2.5078645095889804,0.87632834545109,-0.6090851748156966,-0.05753196718556838,-0.666603097082616,-2.5945565370258534,-0.05562143941554,2.507976027223799,0.8763108487046415,-0.00021454631396961138,-0.0007532310757529746,2.2645297867000987e-05,0.0008206809492920798,1.1277142949874162e-05,0.0007245305079058244,0.0005450497083432071,0.0,0.0,0.0,0.0,0.0,0.0,0.0,-5.0750695184564876e-05,-6.528401343144918e-06,-7.943240559971088e-06,0.00022236769504502263,0.00015137447418095418,0.00011151763481853649,-1.749674644846433e-05,0.00021454631396961138,0.0007532310757529746,-2.2645297867000987e-05,-0.0008206809492920798,-1.1277142949874162e-05,-0.0007245305079058244,-0.0005450497083432071,0.04592245817184448,18.154138565063477,-0.9180634021759033,-18.245882034301758,-0.5880637764930725,-2.3074374198913574,0.28964561223983765,0
16,0.0747530460357666,-0.018151462078094482,-18.205713272094727,1.0172455310821533,18.245882034301758,0.5816550850868225,2.3202548027038574,-0.23471395671367645,0.0,0.0,0.0,0.0,0.0,0.0,0.0,-0.05577311647678866,0.4967418715195862,0.1160585906398253,0.624229795118476,0.1608715570324641,0.13798557440431136,-0.2670839132684656,-0.6090371387798178,-0.057521810773231284,-0.666602113991453,-2.5947788814642276,-0.05577210165063632,2.507860027129705,0.8763222419338093,-0.6090851748156966,-0.05753196718556838,-0.666603097082616,-2.5945565370258534,-0.05562143941554,2.507976027223799,0.8763108487046415,-0.0002131436777112587,1.4410261884262225e-05,-0.0009221914746461134,2.7756302097956337e-05,8.01877595696823e-05,7.393752906886349e-05,-0.0008799142782452558,0.0,0.0,0.0,0.0,0.0,0.0,0.0,-4.8036035878773475e-05,-1.0156412337099241e-05,-9.830911630315242e-07,0.00022234443837421125,0.0001506622350963202,0.00011600009409384882,-1.1393229167766528e-05,0.0002131436777112587,-1.4410261884262225e-05,0.0009221914746461134,-2.7756302097956337e-05,-8.01877595696823e-05,-7.393752906886349e-05,0.0008799142782452558,0.018151462078094482,18.205713272094727,-1.0172455310821533,-18.245882034301758,-0.5816550850868225,-2.3202548027038574,0.23471395671367645,0
17,0.07975363731384277,-0.018151462078094482,-18.205713272094727,1.0172455310821533,18.245882034301758,0.5816550850868225,2.3202548027038574,-0.23471395671367645,0.0,0.0,0.0,0.0,0.0,0.0,0.0,-0.05577311647678866,0.4967418715195862,0.1160585906398253,0.624229795118476,0.1608715570324641,0.13798557440431136,-0.2670839132684656,-0.6090371387798178,-0.057521810773231284,-0.666602113991453,-2.5947788814642276,-0.05577210165063632,2.507860027129705,0.8763222419338093,-0.6090851748156966,-0.05753196718556838,-0.666603097082616,-2.5945565370258534,-0.05562143941554,2.507976027223799,0.8763108487046415,-0.0002131436777112587,1.4410261884262225e-05,-0.0009221914746461134,2.7756302097956337e-05,8.01877595696823e-05,7.393752906886349e-05,-0.0008799142782452558,0.0,0.0,0.0,0.0,0.0,0.0,0.0,-4.8036035878773475e-05,-1.0156412337099241e-05,-9.830911630315242e-07,0.00022234443837421125,0.0001506622350963202,0.00011600009409384882,-1.1393229167766528e-05,0.0002131436777112587,-1.4410261884262225e-05,0.0009221914746461134,-2.7756302097956337e-05,-8.01877595696823e-05,-7.393752906886349e-05,0.0008799142782452558,0.018151462078094482,18.205713272094727,-1.0172455310821533,-18.245882034301758,-0.5816550850868225,-2.3202548027038574,0.23471395671367645,0
18,0.08475399017333984,-0.018151462078094482,-18.130334854125977,0.9180634021759033,18.245882034301758,0.5816550850868225,2.3266634941101074,-0.27591270208358765,0.0,0.0,0.0,0.0,0.0,0.0,0.0,-0.06243306248708792,0.4927877790609789,0.10732892485523134,0.6259137876456965,0.16138979553542077,0.13807341100188458,-0.26580860940823015,-0.6090370578395615,-0.05752781073932068,-0.666595153842056,-2.594778881173385,-0.055773328410283686,2.5078621286901814,0.8763268195721837,-0.6090851748156966,-0.05753196718556838,-0.666603097082616,-2.5945565370258534,-0.05562143941554,2.507976027223799,0.8763108487046415,-0.00017555816955704882,-0.0007510503559159959,0.000459784119096448,0.0003550425770809654,-3.6406797007904136e-05,-0.0003995451695164982,0.00032951898443932937,0.0,0.0,0.0,0.0,0.0,0.0,0.0,-4.811697613504862e-05,-4.156446247703671e-06,-7.943240559971088e-06,0.00022234414753175002,0.00015188899474368606,0.00011389853361754021,-1.5970867542236533e-05,0.00017555816955704882,0.0007510503559159959,-0.000459784119096448,-0.0003550425770809654,3.6406797007904136e-05,0.0003995451695164982,-0.00032951898443932937,0.018151462078094482,18.130334854125977,-0.9180634021759033,-18.245882034301758,-0.5816550850868225,-2.3266634941101074,0.27591270208358765,0
19,0.08975458145141602,-0.018151462078094482,-18.130334854125977,0.9180634021759033,18.245882034301758,0.5816550850868225,2.3266634941101074,-0.27591270208358765,0.0,0.0,0.0,0.0,0.0,0.0,0.0,-0.06243306248708792,0.4927877790609789,0.10732892485523134,0.6259137876456965,0.16138979553542077,0.13807341100188458,-0.26580860940823015,-0.6090370578395615,-0.05752781073932068,-0.666595153842056,-2.594778881173385,-0.055773328410283686,2.5078621286901814,0.8763268195721837,-0.6090851748156966,-0.05753196718556838,-0.666603097082616,-2.5945565370258534,-0.05562143941554,2.507976027223799,0.8763108487046415,-0.00017555816955704882,-0.0007510503559159959,0.000459784119096448,0.0003550425770809654,-3.6406797007904136e-05,-0.0003995451695164982,0.00032951898443932937,0.0,0.0,0.0,0.0,0.0,0.0,0.0,-4.811697613504862e-05,-4.156446247703671e-06,-7.943240559971088e-06,0.00022234414753175002,0.00015188899474368606,0.00011389853361754021,-1.5970867542236533e-05,0.00017555816955704882,0.0007510503559159959,-0.000459784119096448,-0.0003550425770809654,3.6406797007904136e-05,0.0003995451695164982,-0.00032951898443932937,0.018151462078094482,18.130334854125977,-0.9180634021759033,-18.245882034301758,-0.5816550850868225,-2.3266634941101074,0.27591270208358765,0
20,0.09475088119506836,-0.12130087614059448,-18.154138565063477,0.9180634021759033,18.245882034301758,0.5816550850868225,2.3074374198913574,-0.24112264811992645,0.0,0.0,0.0,0.0,0.0,0.0,0.0,-0.05411573318990683,0.5024479943266741,0.11314890293418621,0.6210243734622399,0.16099971834300744,0.13671924816971776,-0.26588205346251775,-0.609029900228311,-0.05752614030747495,-0.666595153842056,-2.5947788811733847,-0.05577214114146964,2.507864618621791,0.8763229540106322,-0.6090851748156966,-0.05753196718556838,-0.666603097082616,-2.5945565370258534,-0.05562143941554,2.507976027223799,0.8763108487046415,0.0008388665226379377,0.0011186894386183573,0.0004322999759413401,-4.4627824925842274e-05,7.44223665705524e-05,0.0002532281742035864,-0.0006734928459885218,0.0,0.0,0.0,0.0,0.0,0.0,0.0,-5.5274587385523155e-05,-5.826878093431742e-06,-7.943240559971088e-06,0.00022234414753130594,0.00015070172592963893,0.00011140860200775649,-1.2105305990717241e-05,-0.0008388665226379377,-0.0011186894386183573,-0.0004322999759413401,4.4627824925842274e-05,-7.44223665705524e-05,-0.0002532281742035864,0.0006734928459885218,0.12130087614059448,18.154138565063477,-0.9180634021759033,-18.245882034301758,-0.5816550850868225,-2.3074374198913574,0.24112264811992645,0
21,0.09975647926330566,-0.12130087614059448,-18.154138565063477,0.9180634021759033,18.245882034301758,0.5816550850868225,2.3074374198913574,-0.24112264811992645,0.0,0.0,0.0,0.0,0.0,0.0,0.0,-0.05411573318990683,0.5024479943266741,0.11314890293418621,0.6210243734622399,0.16099971834300744,0.13671924816971776,-0.26588205346251775,-0.609029900228311,-0.05752614030747495,-0.666595153842056,-2.5947788811733847,-0.05577214114146964,2.507864618621791,0.8763229540106322,-0.6090851748156966,-0.05753196718556838,-0.666603097082616,-2.5945565370258534,-0.05562143941554,2.507976027223799,0.8763108487046415,0.0008388665226379377,0.0011186894386183573,0.0004322999759413401,-4.4627824925842274e-05,7.44223665705524e-05,0.0002532281742035864,-0.0006734928459885218,0.0,0.0,0.0,0.0,0.0,0.0,0.0,-5.5274587385523155e-05,-5.826878093431742e-06,-7.943240559971088e-06,0.00022234414753130594,0.00015070172592963893,0.00011140860200775649,-1.2105305990717241e-05,-0.0008388665226379377,-0.0011186894386183573,-0.0004322999759413401,4.4627824925842274e-05,-7.44223665705524e-05,-0.0002532281742035864,0.0006734928459885218,0.12130087614059448,18.154138565063477,-0.9180634021759033,-18.245882034301758,-0.5816550850868225,-2.3074374198913574,0.24112264811992645,0
22,0.10486936569213867,-0.06972616910934448,-18.177942276000977,0.8942596912384033,18.222078323364258,0.5880637764930725,2.3202548027038574,-0.24112264811992645,0.0,0.0,0.0,0.0,0.0,0.0,0.0,-0.05910522359951339,0.5046998412787334,0.11441031291398128,0.6190950721314579,0.16115690782175865,0.13549085458480564,-0.2666594751122488,-0.6090312530212216,-0.05752376254202124,-0.6665934834062007,-2.594777846520407,-0.055772813727681246,2.507860013617687,0.8763229540106322,-0.6090851748156966,-0.05753196718556838,-0.666603097082616,-2.5945565370258534,-0.05562143941554,2.507976027223799,0.8763108487046415,-0.000498793081704751,0.001141795423841578,-2.2390616780888103e-05,-2.709815272872232e-05,-2.4636523796755945e-05,-3.343860023685491e-05,-0.0015462627671569747,0.0,0.0,0.0,0.0,0.0,0.0,0.0,-5.392179447494261e-05,-8.204643547143897e-06,-9.61367641527655e-06,0.00022130949455378968,0.00015137431214124614,0.00011601360611201983,-1.2105305990717241e-05,0.000498793081704751,-0.001141795423841578,2.2390616780888103e-05,2.709815272872232e-05,2.4636523796755945e-05,3.343860023685491e-05,0.0015462627671569747,0.06972616910934448,18.177942276000977,-0.8942596912384033,-18.222078323364258,-0.5880637764930725,-2.3202548027038574,0.24112264811992645,0
23,0.1097569465637207,-0.06972616910934448,-18.177942276000977,0.8942596912384033,18.222078323364258,0.5880637764930725,2.3202548027038574,-0.24112264811992645,0.0,0.0,0.0,0.0,0.0,0.0,0.0,-0.05910522359951339,0.5046998412787334,0.11441031291398128,0.6190950721314579,0.16115690782175865,0.13549085458480564,-0.2666594751122488,-0.6090312530212216,-0.05752376254202124,-0.6665934834062007,-2.594777846520407,-0.055772813727681246,2.507860013617687,0.8763229540106322,-0.6090851748156966,-0.05753196718556838,-0.666603097082616,-2.5945565370258534,-0.05562143941554,2.507976027223799,0.8763108487046415,-0.000498793081704751,0.001141795423841578,-2.2390616780888103e-05,-2.709815272872232e-05,-2.4636523796755945e-05,-3.343860023685491e-05,-0.0015462627671569747,0.0,0.0,0.0,0.0,0.0,0.0,0.0,-5.392179447494261e-05,-8.204643547143897e-06,-9.61367641527655e-06,0.00022130949455378968,0.00015137431214124614,0.00011601360611201983,-1.2105305990717241e-05,0.000498793081704751,-0.001141795423841578,2.2390616780888103e-05,2.709815272872232e-05,2.4636523796755945e-05,3.343860023685491e-05,0.0015462627671569747,0.06972616910934448,18.177942276000977,-0.8942596912384033,-18.222078323364258,-0.5880637764930725,-2.3202548027038574,0.24112264811992645,0
24,0.11485457420349121,-0.04592245817184448,-18.205713272094727,0.9180634021759033,18.245882034301758,0.5999656319618225,2.3266634941101074,-0.26858848333358765,0.0,0.0,0.0,0.0,0.0,0.0,0.0,-0.06210827013424345,0.4970257110882941,0.115584943553684,0.626491999366542,0.16149569254305926,0.13800896222087192,-0.26781156568515546,-0.6090351629479889,-0.057522047500006626,-0.666597259872838,-2.5947788811769734,-0.055774136155843736,2.507862495457315,0.8763260057701003,-0.6090851748156966,-0.05753196718556838,-0.666603097082616,-2.5945565370258534,-0.05562143941554,2.507976027223799,0.8763108487046415,-0.0009537773540630825,0.0004363798547116232,-0.00033334271367072417,0.00018955290763566566,-0.0006878397870377799,6.89611853188214e-05,0.00010212149373345568,0.0,0.0,0.0,0.0,0.0,0.0,0.0,-5.001186770769994e-05,-9.919685561757263e-06,-5.8372097779813e-06,0.00022234415111999084,0.00015269674030373576,0.00011353176648398744,-1.5157065458848429e-05,0.0009537773540630825,-0.0004363798547116232,0.00033334271367072417,-0.00018955290763566566,0.0006878397870377799,-6.89611853188214e-05,-0.00010212149373345568,0.04592245817184448,18.205713272094727,-0.9180634021759033,-18.245882034301758,-0.5999656319618225,-2.3266634941101074,0.26858848333358765,0
25,0.11975955963134766,-0.04592245817184448,-18.205713272094727,0.9180634021759033,18.245882034301758,0.5999656319618225,2.3266634941101074,-0.26858848333358765,0.0,0.0,0.0,0.0,0.0,0.0,0.0,-0.06210827013424345,0.4970257110882941,0.115584943553684,0.626491999366542,0.16149569254305926,0.13800896222087192,-0.26781156568515546,-0.6090351629479889,-0.057522047500006626,-0.666597259872838,-2.5947788811769734,-0.055774136155843736,2.507862495457315,0.8763260057701003,-0.6090851748156966,-0.05753196718556838,-0.666603097082616,-2.5945565370258534,-0.05562143941554,2.507976027223799,0.8763108487046415,-0.0009537773540630825,0.0004363798547116232,-0.00033334271367072417,0.00018955290763566566,-0.0006878397870377799,6.89611853188214e-05,0.00010212149373345568,0.0,0.0,0.0,0.0,0.0,0.0,0.0,-5.001186770769994e-05,-9.919685561757263e-06,-5.8372097779813e-06,0.00022234415111999084,0.00015269674030373576,0.00011353176648398744,-1.5157065458848429e-05,0.0009537773540630825,-0.0004363798547116232,0.00033334271367072417,-0.00018955290763566566,0.0006878397870377799,-6.89611853188214e-05,-0.00010212149373345568,0.04592245817184448,18.205713272094727,-0.9180634021759033,-18.245882034301758,-0.5999656319618225,-2.3266634941101074,0.26858848333358765,0
26,0.12475824356079102,-0.04592245817184448,-18.229516983032227,0.8942596912384033,18.245882034301758,0.5816550850868225,2.3202548027038574,-0.24844686686992645,0.0,0.0,0.0,0.0,0.0,0.0,0.0,-0.06615881020910395,0.5009293901332504,0.11060316276887469,0.6172945779887268,0.16103567997553886,0.13766216909680015,-0.2683212394207649,-0.6090351899418526,-0.05752014030524971,-0.6665934834418665,-2.5947788811733847,-0.05577210213742332,2.5078600155558277,0.8763237678127155,-0.6090851748156966,-0.05753196718556838,-0.666603097082616,-2.5945565370258534,-0.05562143941554,2.507976027223799,0.8763108487046415,-0.0005275520550734861,0.000881357443285968,0.00045122776512688596,-1.2102066552257212e-05,-2.1099988626141352e-05,-2.7456489991084134e-05,-0.0009092450509527151,0.0,0.0,0.0,0.0,0.0,0.0,0.0,-4.998487384400008e-05,-1.1826880318671629e-05,-9.613640749472907e-06,0.00022234414753130594,0.0001506627218833198,0.00011601166797126083,-1.2919108073994323e-05,0.0005275520550734861,-0.000881357443285968,-0.00045122776512688596,1.2102066552257212e-05,2.1099988626141352e-05,2.7456489991084134e-05,0.0009092450509527151,0.04592245817184448,18.229516983032227,-0.8942596912384033,-18.245882034301758,-0.5816550850868225,-2.3202548027038574,0.24844686686992645,0
27,0.12970900535583496,-0.04592245817184448,-18.229516983032227,0.8942596912384033,18.245882034301758,0.5816550850868225,2.3202548027038574,-0.24844686686992645,0.0,0.0,0.0,0.0,0.0,0.0,0.0,-0.06615881020910395,0.5009293901332504,0.11060316276887469,0.6172945779887268,0.16103567997553886,0.13766216909680015,-0.2683212394207649,-0.6090351899418526,-0.05752014030524971,-0.6665934834418665,-2.5947788811733847,-0.05577210213742332,2.5078600155558277,0.8763237678127155,-0.6090851748156966,-0.05753196718556838,-0.666603097082616,-2.5945565370258534,-0.05562143941554,2.507976027223799,0.8763108487046415,-0.0005275520550734861,0.000881357443285968,0.00045122776512688596,-1.2102066552257212e-05,-2.1099988626141352e-05,-2.7456489991084134e-05,-0.0009092450509527151,0.0,0.0,0.0,0.0,0.0,0.0,0.0,-4.998487384400008e-05,-1.1826880318671629e-05,-9.613640749472907e-06,0.00022234414753130594,0.0001506627218833198,0.00011601166797126083,-1.2919108073994323e-05,0.0005275520550734861,-0.000881357443285968,-0.00045122776512688596,1.2102066552257212e-05,2.1099988626141352e-05,2.7456489991084134e-05,0.0009092450509527151,0.04592245817184448,18.229516983032227,-0.8942596912384033,-18.245882034301758,-0.5816550850868225,-2.3202548027038574,0.24844686686992645,0
28,0.13484978675842285,-0.04592245817184448,-18.130334854125977,0.9418671131134033,18.297456741333008,0.5999656319618225,2.3138461112976074,-0.24844686686992645,0.0,0.0,0.0,0.0,0.0,0.0,0.0,-0.058290586216184506,0.5032500555260399,0.11341325503721962,0.6134163016456525,0.15980088388044641,0.13678543507327365,-0.2680575740897677,-0.6090351899423097,-0.057527100450637046,-0.6665968242779113,-2.594782500451071,-0.05577425444530944,2.5078607232659937,0.8763237678127155,-0.6090851748156966,-0.05753196718556838,-0.666603097082616,-2.5945565370258534,-0.05562143941554,2.507976027223799,0.8763108487046415,0.0006183150611139125,-0.00045437503793789406,-0.0005186676121688871,-0.0014485565218730755,-0.000500462991200411,2.1016390008420975e-05,-0.0009184326856606807,0.0,0.0,0.0,0.0,0.0,0.0,0.0,-4.998487338692126e-05,-4.866734931337213e-06,-6.272804704665624e-06,0.0002259634252177456,0.0001528150297694375,0.00011530395780523506,-1.2919108073994323e-05,-0.0006183150611139125,0.00045437503793789406,0.0005186676121688871,0.0014485565218730755,0.000500462991200411,-2.1016390008420975e-05,0.0009184326856606807,0.04592245817184448,18.130334854125977,-0.9418671131134033,-18.297456741333008,-0.5999656319618225,-2.3138461112976074,0.24844686686992645,0
29,0.13975071907043457,-0.04592245817184448,-18.130334854125977,0.9418671131134033,18.297456741333008,0.5999656319618225,2.3138461112976074,-0.24844686686992645,0.0,0.0,0.0,0.0,0.0,0.0,0.0,-0.058290586216184506,0.5032500555260399,0.11341325503721962,0.6134163016456525,0.15980088388044641,0.13678543507327365,-0.2680575740897677,-0.6090351899423097,-0.057527100450637046,-0.6665968242779113,-2.594782500451071,-0.05577425444530944,2.5078607232659937,0.8763237678127155,-0.6090851748156966,-0.05753196718556838,-0.666603097082616,-2.5945565370258534,-0.05562143941554,2.507976027223799,0.8763108487046415,0.0006183150611139125,-0.00045437503793789406,-0.0005186676121688871,-0.0014485565218730755,-0.000500462991200411,2.1016390008420975e-05,-0.0009184326856606807,0.0,0.0,0.0,0.0,0.0,0.0,0.0,-4.998487338692126e-05,-4.866734931337213e-06,-6.272804704665624e-06,0.0002259634252177456,0.0001528150297694375,0.00011530395780523506,-1.2919108073994323e-05,-0.0006183150611139125,0.00045437503793789406,0.0005186676121688871,0.0014485565218730755,0.000500462991200411,-2.1016390008420975e-05,0.0009184326856606807,0.04592245817184448,18.130334854125977,-0.9418671131134033,-18.297456741333008,-0.5999656319618225,-2.3138461112976074,0.24844686686992645,0
30,0.1447606086730957,-0.018151462078094482,-18.106531143188477,0.9418671131134033,18.297456741333008,0.5880637764930725,2.3138461112976074,-0.24844686686992645,0.0,0.0,0.0,0.0,0.0,0.0,0.0,-0.06410040044608378,0.4952514742659102,0.10272300863096354,0.6244676986010097,0.16073214621381954,0.13761109942924607,-0.26884800503058137,-0.6090371297902987,-0.0575287708864923,-0.666597529177103,-2.594782500451071,-0.055772813728126064,2.5078628454373155,0.8763237678127155,-0.6090851748156966,-0.05753196718556838,-0.666603097082616,-2.5945565370258534,-0.05562143941554,2.507976027223799,0.8763108487046415,-0.001303899612600971,-0.0009463141772722622,-0.00016964806368617024,-0.0007136347598220041,-0.00016626527492873917,0.00035342538941480426,-0.0009888908920945038,0.0,0.0,0.0,0.0,0.0,0.0,0.0,-4.804502539790256e-05,-3.1962990760803223e-06,-5.56790551298203e-06,0.0002259634252177456,0.00015137431258606393,0.00011318178648345167,-1.2919108073994323e-05,0.001303899612600971,0.0009463141772722622,0.00016964806368617024,0.0007136347598220041,0.00016626527492873917,-0.00035342538941480426,0.0009888908920945038,0.018151462078094482,18.106531143188477,-0.9418671131134033,-18.297456741333008,-0.5880637764930725,-2.3138461112976074,0.24844686686992645,0
31,0.14975333213806152,-0.018151462078094482,-18.106531143188477,0.9418671131134033,18.297456741333008,0.5880637764930725,2.3138461112976074,-0.24844686686992645,0.0,0.0,0.0,0.0,0.0,0.0,0.0,-0.06410040044608378,0.4952514742659102,0.10272300863096354,0.6244676986010097,0.16073214621381954,0.13761109942924607,-0.26884800503058137,-0.6090371297902987,-0.0575287708864923,-0.666597529177103,-2.594782500451071,-0.055772813728126064,2.5078628454373155,0.8763237678127155,-0.6090851748156966,-0.05753196718556838,-0.666603097082616,-2.5945565370258534,-0.05562143941554,2.507976027223799,0.8763108487046415,-0.001303899612600971,-0.0009463141772722622,-0.00016964806368617024,-0.0007136347598220041,-0.00016626527492873917,0.00035342538941480426,-0.0009888908920945038,0.0,0.0,0.0,0.0,0.0,0.0,0.0,-4.804502539790256e-05,-3.1962990760803223e-06,-5.56790551298203e-06,0.0002259634252177456,0.00015137431258606393,0.00011318178648345167,-1.2919108073994323e-05,0.001303899612600971,0.0009463141772722622,0.00016964806368617024,0.0007136347598220041,0.00016626527492873917,-0.00035342538941480426,0.0009888908920945038,0.018151462078094482,18.106531143188477,-0.9418671131134033,-18.297456741333008,-0.5880637764930725,-2.3138461112976074,0.24844686686992645,0
32,0.15475249290466309,-0.018151462078094482,-18.106531143188477,0.9418671131134033,18.297456741333008,0.5880637764930725,2.3138461112976074,-0.24844686686992645,0.0,0.0,0.0,0.0,0.0,0.0,0.0,-0.06410040044608378,0.4952514742659102,0.10272300863096354,0.6244676986010097,0.16073214621381954,0.13761109942924607,-0.26884800503058137,-0.6090371297902987,-0.0575287708864923,-0.666597529177103,-2.594782500451071,-0.055772813728126064,2.5078628454373155,0.8763237678127155,-0.6090851748156966,-0.05753196718556838,-0.666603097082616,-2.5945565370258534,-0.05562143941554,2.507976027223799,0.8763108487046415,-0.001303899612600971,-0.0009463141772722622,-0.00016964806368617024,-0.0007136347598220041,-0.00016626527492873917,0.00035342538941480426,-0.0009888908920945038,0.0,0.0,0.0,0.0,0.0,0.0,0.0,-4.804502539790256e-05,-3.1962990760803223e-06,-5.56790551298203e-06,0.0002259634252177456,0.00015137431258606393,0.00011318178648345167,-1.2919108073994323e-05,0.001303899612600971,0.0009463141772722622,0.00016964806368617024,0.0007136347598220041,0.00016626527492873917,-0.00035342538941480426,0.0009888908920945038,0.018151462078094482,18.106531143188477,-0.9418671131134033,-18.297456741333008,-0.5880637764930725,-2.3138461112976074,0.24844686686992645,0
33,0.15977883338928223,-0.018151462078094482,-18.106531143188477,0.9418671131134033,18.297456741333008,0.5880637764930725,2.3138461112976074,-0.24844686686992645,0.0,0.0,0.0,0.0,0.0,0.0,0.0,-0.06410040044608378,0.4952514742659102,0.10272300863096354,0.6244676986010097,0.16073214621381954,0.13761109942924607,-0.26884800503058137,-0.6090371297902987,-0.0575287708864923,-0.666597529177103,-2.594782500451071,-0.055772813728126064,2.5078628454373155,0.8763237678127155,-0.6090851748156966,-0.05753196718556838,-0.666603097082616,-2.5945565370258534,-0.05562143941554,2.507976027223799,0.8763108487046415,-0.001303899612600971,-0.0009463141772722622,-0.00016964806368617024,-0.0007136347598220041,-0.00016626527492873917,0.00035342538941480426,-0.0009888908920945038,0.0,0.0,0.0,0.0,0.0,0.0,0.0,-4.804502539790256e-05,-3.1962990760803223e-06,-5.56790551298203e-06,0.0002259634252177456,0.00015137431258606393,0.00011318178648345167,-1.2919108073994323e-05,0.001303899612600971,0.0009463141772722622,0.00016964806368617024,0.0007136347598220041,0.00016626527492873917,-0.00035342538941480426,0.0009888908920945038,0.018151462078094482,18.106531143188477,-0.9418671131134033,-18.297456741333008,-0.5880637764930725,-2.3138461112976074,0.24844686686992645,0
34,0.16476035118103027,-0.04592245817184448,-18.205713272094727,0.9418671131134033,18.245882034301758,0.5944724678993225,2.3202548027038574,-0.28964561223983765,0.0,0.0,0.0,0.0,0.0,0.0,0.0,-0.05884828461522461,0.4971622434665706,0.10819411256378607,0.6235240183746629,0.1607549487357304,0.13666910315820385,-0.2674914335446322,-0.6090351629607814,-0.05752181084535459,-0.6665968245990509,-2.594779100951378,-0.05577352582231042,2.5078630883608235,0.87632834545109,-0.6090851748156966,-0.05753196718556838,-0.666603097082616,-2.5945565370258534,-0.05562143941554,2.507976027223799,0.8763108487046415,-0.00014668205203818952,0.0008720782366079297,-0.00039364634689353814,-0.0002640553100107185,-0.00035268973788879124,-0.00020410819510351791,0.0009763480369884403,0.0,0.0,0.0,0.0,0.0,0.0,0.0,-5.001185491515514e-05,-1.0156340213791915e-05,-6.272483565106235e-06,0.00022256392552444382,0.00015208640677041863,0.00011293886297547573,-1.749674644846433e-05,0.00014668205203818952,-0.0008720782366079297,0.00039364634689353814,0.0002640553100107185,0.00035268973788879124,0.00020410819510351791,-0.0009763480369884403,0.04592245817184448,18.205713272094727,-0.9418671131134033,-18.245882034301758,-0.5944724678993225,-2.3202548027038574,0.28964561223983765,0
35,0.16975855827331543,-0.04592245817184448,-18.205713272094727,0.9418671131134033,18.245882034301758,0.5944724678993225,2.3202548027038574,-0.28964561223983765,0.0,0.0,0.0,0.0,0.0,0.0,0.0,-0.05884828461522461,0.4971622434665706,0.10819411256378607,0.6235240183746629,0.1607549487357304,0.13666910315820385,-0.2674914335446322,-0.6090351629607814,-0.05752181084535459,-0.6665968245990509,-2.594779100951378,-0.05577352582231042,2.5078630883608235,0.87632834545109,-0.6090851748156966,-0.05753196718556838,-0.666603097082616,-2.5945565370258534,-0.05562143941554,2.507976027223799,0.8763108487046415,-0.00014668205203818952,0.0008720782366079297,-0.00039364634689353814,-0.0002640553100107185,-0.00035268973788879124,-0.00020410819510351791,0.0009763480369884403,0.0,0.0,0.0,0.0,0.0,0.0,0.0,-5.001185491515514e-05,-1.0156340213791915e-05,-6.272483565106235e-06,0.00022256392552444382,0.00015208640677041863,0.00011293886297547573,-1.749674644846433e-05,0.00014668205203818952,-0.0008720782366079297,0.00039364634689353814,0.0002640553100107185,0.00035268973788879124,0.00020410819510351791,-0.0009763480369884403,0.04592245817184448,18.205713272094727,-0.9418671131134033,-18.245882034301758,-0.5944724678993225,-2.3202548027038574,0.28964561223983765,0
36,0.17471933364868164,-0.09352988004684448,-18.205713272094727,0.9180634021759033,18.198274612426758,0.5944724678993225,2.3202548027038574,-0.27591270208358765,0.0,0.0,0.0,0.0,0.0,0.0,0.0,-0.05179845487767276,0.500790195567051,0.11241664564236774,0.6196474350723679,0.16030859817932233,0.1364071987735297,-0.26634836308915166,-0.6090316062367088,-0.05752181073709599,-0.6665951538420578,-2.5947755429193053,-0.055773526291069256,2.507860027183557,0.8763268195721837,-0.6090851748156966,-0.05753196718556838,-0.666603097082616,-2.5945565370258534,-0.05562143941554,2.507976027223799,0.8763108487046415,0.0011285620283774404,0.000749120659920811,0.00015098184715672613,0.0008383463205946154,-0.00033289305774223055,0.0002709674685108558,0.0007790782015692162,0.0,0.0,0.0,0.0,0.0,0.0,0.0,-5.356857898775047e-05,-1.0156448472395385e-05,-7.94324055819473e-06,0.0002190058934519179,0.00015208687552925593,0.00011600004024181487,-1.5970867542236533e-05,-0.0011285620283774404,-0.000749120659920811,-0.00015098184715672613,-0.0008383463205946154,0.00033289305774223055,-0.0002709674685108558,-0.0007790782015692162,0.09352988004684448,18.205713272094727,-0.9180634021759033,-18.198274612426758,-0.5944724678993225,-2.3202548027038574,0.27591270208358765,0
37,0.17975449562072754,-0.09352988004684448,-18.205713272094727,0.9180634021759033,18.198274612426758,0.5944724678993225,2.3202548027038574,-0.27591270208358765,0.0,0.0,0.0,0.0,0.0,0.0,0.0,-0.05179845487767276,0.500790195567051,0.11241664564236774,0.6196474350723679,0.16030859817932233,0.1364071987735297,-0.26634836308915166,-0.6090316062367088,-0.05752181073709599,-0.6665951538420578,-2.5947755429193053,-0.055773526291069256,2.507860027183557,0.8763268195721837,-0.6090851748156966,-0.05753196718556838,-0.666603097082616,-2.5945565370258534,-0.05562143941554,2.507976027223799,0.8763108487046415,0.0011285620283774404,0.000749120659920811,0.00015098184715672613,0.0008383463205946154,-0.00033289305774223055,0.0002709674685108558,0.0007790782015692162,0.0,0.0,0.0,0.0,0.0,0.0,0.0,-5.356857898775047e-05,-1.0156448472395385e-05,-7.94324055819473e-06,0.0002190058934519179,0.00015208687552925593,0.00011600004024181487,-1.5970867542236533e-05,-0.0011285620283774404,-0.000749120659920811,-0.00015098184715672613,-0.0008383463205946154,0.00033289305774223055,-0.0002709674685108558,-0.0007790782015692162,0.09352988004684448,18.205713272094727,-0.9180634021759033,-18.198274612426758,-0.5944724678993225,-2.3202548027038574,0.27591270208358765,0
38,0.1847553253173828,0.005652248859405518,-18.154138565063477,0.9418671131134033,18.269685745239258,0.5816550850868225,2.3266634941101074,-0.26858848333358765,0.0,0.0,0.0,0.0,0.0,0.0,0.0,-0.05269682970063933,0.49572093861909855,0.11076147344047162,0.6233513665399563,0.16005980451617477,0.13831997590971398,-0.2662780080800677,-0.6090388092186252,-0.057525430014781775,-0.6665969022790513,-2.5947805751567685,-0.05577222010236557,2.507862373359171,0.8763260057701003,-0.6090851748156966,-0.05753196718556838,-0.666603097082616,-2.5945565370258534,-0.05562143941554,2.507976027223799,0.8763108487046415,-0.0011426721460968687,-0.0003581594341542478,-0.0006890713358600596,-0.0003492384129009188,3.0186744357170874e-05,-0.0002654633266822551,0.0004283739788417788,0.0,0.0,0.0,0.0,0.0,0.0,0.0,-4.636559707138499e-05,-6.537170786607982e-06,-6.194803564674167e-06,0.00022403813091509406,0.00015078068682557177,0.00011365386462802718,-1.5157065458848429e-05,0.0011426721460968687,0.0003581594341542478,0.0006890713358600596,0.0003492384129009188,-3.0186744357170874e-05,0.0002654633266822551,-0.0004283739788417788,-0.005652248859405518,18.154138565063477,-0.9418671131134033,-18.269685745239258,-0.5816550850868225,-2.3266634941101074,0.26858848333358765,0
39,0.18975138664245605,0.005652248859405518,-18.154138565063477,0.9418671131134033,18.269685745239258,0.5816550850868225,2.3266634941101074,-0.26858848333358765,0.0,0.0,0.0,0.0,0.0,0.0,0.0,-0.05269682970063933,0.49572093861909855,0.11076147344047162,0.6233513665399563,0.16005980451617477,0.13831997590971398,-0.2662780080800677,-0.6090388092186252,-0.057525430014781775,-0.6665969022790513,-2.5947805751567685,-0.05577222010236557,2.507862373359171,0.8763260057701003,-0.6090851748156966,-0.05753196718556838,-0.666603097082616,-2.5945565370258534,-0.05562143941554,2.507976027223799,0.8763108487046415,-0.0011426721460968687,-0.0003581594341542478,-0.0006890713358600596,-0.0003492384129009188,3.0186744357170874e-05,-0.0002654633266822551,0.0004283739788417788,0.0,0.0,0.0,0.0,0.0,0.0,0.0,-4.636559707138499e-05,-6.537170786607982e-06,-6.194803564674167e-06,0.00022403813091509406,0.00015078068682557177,0.00011365386462802718,-1.5157065458848429e-05,0.0011426721460968687,0.0003581594341542478,0.0006890713358600596,0.0003492384129009188,-3.0186744357170874e-05,0.0002654633266822551,-0.0004283739788417788,-0.005652248859405518,18.154138565063477,-0.9418671131134033,-18.269685745239258,-0.5816550850868225,-2.3266634941101074,0.26858848333358765,0
40,0.1947495937347412,-0.04592245817184448,-18.177942276000977,0.9180634021759033,18.245882034301758,0.5816550850868225,2.3138461112976074,-0.26217979192733765,0.0,0.0,0.0,0.0,0.0,0.0,0.0,-0.04652667024027806,0.49836536943820553,0.11307240844008577,0.621691876878283,0.15942074361936198,0.13830373943243626,-0.26596483519718184,-0.6090351809484675,-0.05752375957892651,-0.6665951538778686,-2.5947807885220615,-0.05577210165085829,2.507860740642593,0.8763252936932775,-0.6090851748156966,-0.05753196718556838,-0.666603097082616,-2.5945565370258534,-0.05562143941554,2.507976027223799,0.8763108487046415,0.00022796653590295468,0.0007703018694761165,0.00035740721961256236,-0.00011566216308725775,-0.00013929610483093475,0.0002695392819291541,-4.578020949616469e-05,0.0,0.0,0.0,0.0,0.0,0.0,0.0,-4.999386722903676e-05,-8.207606641871812e-06,-7.94320474739596e-06,0.00022425149620808327,0.00015066223531828848,0.00011528658120596447,-1.4444988636008738e-05,-0.00022796653590295468,-0.0007703018694761165,-0.00035740721961256236,0.00011566216308725775,0.00013929610483093475,-0.0002695392819291541,4.578020949616469e-05,0.04592245817184448,18.177942276000977,-0.9180634021759033,-18.245882034301758,-0.5816550850868225,-2.3138461112976074,0.26217979192733765,0
41,0.19975042343139648,-0.04592245817184448,-18.177942276000977,0.9180634021759033,18.245882034301758,0.5816550850868225,2.3138461112976074,-0.26217979192733765,0.0,0.0,0.0,0.0,0.0,0.0,0.0,-0.04652667024027806,0.49836536943820553,0.11307240844008577,0.621691876878283,0.15942074361936198,0.13830373943243626,-0.26596483519718184,-0.6090351809484675,-0.05752375957892651,-0.6665951538778686,-2.5947807885220615,-0.05577210165085829,2.507860740642593,0.8763252936932775,-0.6090851748156966,-0.05753196718556838,-0.666603097082616,-2.5945565370258534,-0.05562143941554,2.507976027223799,0.8763108487046415,0.00022796653590295468,0.0007703018694761165,0.00035740721961256236,-0.00011566216308725775,-0.00013929610483093475,0.0002695392819291541,-4.578020949616469e-05,0.0,0.0,0.0,0.0,0.0,0.0,0.0,-4.999386722903676e-05,-8.207606641871812e-06,-7.94320474739596e-06,0.00022425149620808327,0.00015066223531828848,0.00011528658120596447,-1.4444988636008738e-05,-0.00022796653590295468,-0.0007703018694761165,-0.00035740721961256236,0.00011566216308725775,0.00013929610483093475,-0.0002695392819291541,4.578020949616469e-05,0.04592245817184448,18.177942276000977,-0.9180634021759033,-18.245882034301758,-0.5816550850868225,-2.3138461112976074,0.26217979192733765,0
42,0.20475196838378906,-0.06972616910934448,-18.154138565063477,0.8942596912384033,18.245882034301758,0.5816550850868225,2.3074374198913574,-0.23471395671367645,0.0,0.0,0.0,0.0,0.0,0.0,0.0,-0.05578612762379707,0.498869869078632,0.09921994480144515,0.620625409508047,0.15988480979503492,0.13761081826147975,-0.2647227833000434,-0.6090327910051897,-0.05752543012304099,-0.6665962914472436,-2.594779095728168,-0.055772101650635404,2.507864630180483,0.8763222419338093,-0.6090851748156966,-0.05753196718556838,-0.666603097082616,-2.5945565370258534,-0.05562143941554,2.507976027223799,0.8763108487046415,0.0003054627475114004,0.0001968574443585968,4.9762113326135553e-05,-0.0003734220987249665,0.00015823274704390984,0.0004225551920916155,-0.0007624201819800968,0.0,0.0,0.0,0.0,0.0,0.0,0.0,-5.238381050687302e-05,-6.537062527393889e-06,-6.805635372364449e-06,0.0002225587023145792,0.00015066223509540427,0.000111397043315975,-1.1393229167766528e-05,-0.0003054627475114004,-0.0001968574443585968,-4.9762113326135553e-05,0.0003734220987249665,-0.00015823274704390984,-0.0004225551920916155,0.0007624201819800968,0.06972616910934448,18.154138565063477,-0.8942596912384033,-18.245882034301758,-0.5816550850868225,-2.3074374198913574,0.23471395671367645,0
43,0.20975208282470703,-0.06972616910934448,-18.154138565063477,0.8942596912384033,18.245882034301758,0.5816550850868225,2.3074374198913574,-0.23471395671367645,0.0,0.0,0.0,0.0,0.0,0.0,0.0,-0.05578612762379707,0.498869869078632,0.09921994480144515,0.620625409508047,0.15988480979503492,0.13761081826147975,-0.2647227833000434,-0.6090327910051897,-0.05752543012304099,-0.6665962914472436,-2.594779095728168,-0.055772101650635404,2.507864630180483,0.8763222419338093,-0.6090851748156966,-0.05753196718556838,-0.666603097082616,-2.5945565370258534,-0.05562143941554,2.507976027223799,0.8763108487046415,0.0003054627475114004,0.0001968574443585968,4.9762113326135553e-05,-0.0003734220987249665,0.00015823274704390984,0.0004225551920916155,-0.0007624201819800968,0.0,0.0,0.0,0.0,0.0,0.0,0.0,-5.238381050687302e-05,-6.537062527393889e-06,-6.805635372364449e-06,0.0002225587023145792,0.00015066223509540427,0.000111397043315975,-1.1393229167766528e-05,-0.0003054627475114004,-0.0001968574443585968,-4.9762113326135553e-05,0.0003734220987249665,-0.00015823274704390984,-0.0004225551920916155,0.0007624201819800968,0.06972616910934448,18.154138565063477,-0.8942596912384033,-18.245882034301758,-0.5816550850868225,-2.3074374198913574,0.23471395671367645,0
44,0.2147541046142578,-0.018151462078094482,-18.205713272094727,0.9180634021759033,18.222078323364258,0.5816550850868225,2.3138461112976074,-0.24112264811992645,0.0,0.0,0.0,0.0,0.0,0.0,0.0,-0.05102067134385234,0.49941111146500494,0.10504022044931659,0.6231629179305328,0.15944864648387955,0.13737703643719704,-0.2627046529557995,-0.6090341398237347,-0.05752207413175602,-0.6665951538473398,-2.5947772107379334,-0.05577246090012105,2.5078603815261835,0.8763229540106322,-0.6090851748156966,-0.05753196718556838,-0.666603097082616,-2.5945565370258534,-0.05562143941554,2.507976027223799,0.8763108487046415,-0.0012647640186376134,0.0012968899769450455,-0.0002963961331585411,0.0009618923515320242,0.0002215811216698957,0.00030068469512928644,-0.0010342031621709017,0.0,0.0,0.0,0.0,0.0,0.0,0.0,-5.103499196190686e-05,-9.893053812361219e-06,-7.943235276197669e-06,0.00022067371208001063,0.00015102148458105008,0.00011564569761546295,-1.2105305990717241e-05,0.0012647640186376134,-0.0012968899769450455,0.0002963961331585411,-0.0009618923515320242,-0.0002215811216698957,-0.00030068469512928644,0.0010342031621709017,0.018151462078094482,18.205713272094727,-0.9180634021759033,-18.222078323364258,-0.5816550850868225,-2.3138461112976074,0.24112264811992645,0
45,0.21976494789123535,-0.018151462078094482,-18.205713272094727,0.9180634021759033,18.222078323364258,0.5816550850868225,2.3138461112976074,-0.24112264811992645,0.0,0.0,0.0,0.0,0.0,0.0,0.0,-0.05102067134385234,0.49941111146500494,0.10504022044931659,0.6231629179305328,0.15944864648387955,0.13737703643719704,-0.2627046529557995,-0.6090341398237347,-0.05752207413175602,-0.6665951538473398,-2.5947772107379334,-0.05577246090012105,2.5078603815261835,0.8763229540106322,-0.6090851748156966,-0.05753196718556838,-0.666603097082616,-2.5945565370258534,-0.05562143941554,2.507976027223799,0.8763108487046415,-0.0012647640186376134,0.0012968899769450455,-0.0002963961331585411,0.0009618923515320242,0.0002215811216698957,0.00030068469512928644,-0.0010342031621709017,0.0,0.0,0.0,0.0,0.0,0.0,0.0,-5.103499196190686e-05,-9.893053812361219e-06,-7.943235276197669e-06,0.00022067371208001063,0.00015102148458105008,0.00011564569761546295,-1.2105305990717241e-05,0.0012647640186376134,-0.0012968899769450455,0.0002963961331585411,-0.0009618923515320242,-0.0002215811216698957,-0.00030068469512928644,0.0010342031621709017,0.018151462078094482,18.205713272094727,-0.9180634021759033,-18.222078323364258,-0.5816550850868225,-2.3138461112976074,0.24112264811992645,0
46,0.2247762680053711,-0.14510458707809448,-18.229516983032227,0.8942596912384033,18.222078323364258,0.5880637764930725,2.3266634941101074,-0.24112264811992645,0.0,0.0,0.0,0.0,0.0,0.0,0.0,-0.055437901376165465,0.496372954870629,0.10075083881628873,0.6214634756372844,0.1596882293805034,0.13742709832601865,-0.262553062885862,-0.6090282294428783,-0.057520143225725684,-0.6665934834418665,-2.5947772107375298,-0.05577281389174893,2.507862489641171,0.8763229540106322,-0.6090851748156966,-0.05753196718556838,-0.666603097082616,-2.5945565370258534,-0.05562143941554,2.507976027223799,0.8763108487046415,0.0018617183619913586,0.0012966145128003542,0.000556431090100174,0.00035879199489401576,-1.2150378130564179e-05,-0.00018064588515793743,-0.001364526096496709,0.0,0.0,0.0,0.0,0.0,0.0,0.0,-5.6945372818306694e-05,-1.182395984269946e-05,-9.613640749472907e-06,0.00022067371167633354,0.0001513744762089292,0.00011353758262799829,-1.2105305990717241e-05,-0.0018617183619913586,-0.0012966145128003542,-0.000556431090100174,-0.00035879199489401576,1.2150378130564179e-05,0.00018064588515793743,0.001364526096496709,0.14510458707809448,18.229516983032227,-0.8942596912384033,-18.222078323364258,-0.5880637764930725,-2.3266634941101074,0.24112264811992645,0
47,0.22975659370422363,-0.14510458707809448,-18.229516983032227,0.8942596912384033,18.222078323364258,0.5880637764930725,2.3266634941101074,-0.24112264811992645,0.0,0.0,0.0,0.0,0.0,0.0,0.0,-0.055437901376165465,0.496372954870629,0.10075083881628873,0.6214634756372844,0.1596882293805034,0.13742709832601865,-0.262553062885862,-0.6090282294428783,-0.057520143225725684,-0.6665934834418665,-2.5947772107375298,-0.05577281389174893,2.507862489641171,0.8763229540106322,-0.6090851748156966,-0.05753196718556838,-0.666603097082616,-2.5945565370258534,-0.05562143941554,2.507976027223799,0.8763108487046415,0.0018617183619913586,0.0012966145128003542,0.000556431090100174,0.00035879199489401576,-1.2150378130564179e-05,-0.00018064588515793743,-0.001364526096496709,0.0,0.0,0.0,0.0,0.0,0.0,0.0,-5.6945372818306694e-05,-1.182395984269946e-05,-9.613640749472907e-06,0.00022067371167633354,0.0001513744762089292,0.00011353758262799829,-1.2105305990717241e-05,-0.0018617183619913586,-0.0012966145128003542,-0.000556431090100174,-0.00035879199489401576,1.2150378130564179e-05,0.00018064588515793743,0.001364526096496709,0.14510458707809448,18.229516983032227,-0.8942596912384033,-18.222078323364258,-0.5880637764930725,-2.3266634941101074,0.24112264811992645,0
48,0.23476648330688477,-0.018151462078094482,-18.205713272094727,0.9696381092071533,18.222078323364258,0.5761619210243225,2.3202548027038574,-0.26217979192733765,0.0,0.0,0.0,0.0,0.0,0.0,0.0,-0.05261277173583045,0.4946672005718921,0.10607299686384608,0.6203079917896016,0.16011576920262266,0.1380533997880368,-0.2625307802566023,-0.6090371384510336,-0.057521810737111885,-0.6665987817865359,-2.5947791181830655,-0.05577149129907383,2.5078621464604556,0.8763252936932775,-0.6090851748156966,-0.05753196718556838,-0.666603097082616,-2.5945565370258534,-0.05562143941554,2.507976027223799,0.8763108487046415,-0.00040270443572357494,0.00031398896641123523,-0.0009788580443932965,0.0004760647305234801,0.0003006992085966802,-6.023333173179925e-05,0.0001699364339949643,0.0,0.0,0.0,0.0,0.0,0.0,0.0,-4.8036364662995545e-05,-1.015644845649838e-05,-4.315296080137365e-06,0.00022258115721207616,0.0001500518835338277,0.00011388076334339914,-1.4444988636008738e-05,0.00040270443572357494,-0.00031398896641123523,0.0009788580443932965,-0.0004760647305234801,-0.0003006992085966802,6.023333173179925e-05,-0.0001699364339949643,0.018151462078094482,18.205713272094727,-0.9696381092071533,-18.222078323364258,-0.5761619210243225,-2.3202548027038574,0.26217979192733765,0
49,0.23975658416748047,-0.018151462078094482,-18.205713272094727,0.9696381092071533,18.222078323364258,0.5761619210243225,2.3202548027038574,-0.26217979192733765,0.0,0.0,0.0,0.0,0.0,0.0,0.0,-0.05261277173583045,0.4946672005718921,0.10607299686384608,0.6203079917896016,0.16011576920262266,0.1380533997880368,-0.2625307802566023,-0.6090371384510336,-0.057521810737111885,-0.6665987817865359,-2.5947791181830655,-0.05577149129907383,2.5078621464604556,0.8763252936932775,-0.6090851748156966,-0.05753196718556838,-0.666603097082616,-2.5945565370258534,-0.05562143941554,2.507976027223799,0.8763108487046415,-0.00040270443572357494,0.00031398896641123523,-0.0009788580443932965,0.0004760647305234801,0.0003006992085966802,-6.023333173179925e-05,0.0001699364339949643,0.0,0.0,0.0,0.0,0.0,0.0,0.0,-4.8036364662995545e-05,-1.015644845649838e-05,-4.315296080137365e-06,0.00022258115721207616,0.0001500518835338277,0.00011388076334339914,-1.4444988636008738e-05,0.00040270443572357494,-0.00031398896641123523,0.0009788580443932965,-0.0004760647305234801,-0.0003006992085966802,6.023333173179925e-05,-0.0001699364339949643,0.018151462078094482,18.205713272094727,-0.9696381092071533,-18.222078323364258,-0.5761619210243225,-2.3202548027038574,0.26217979192733765,0
50,0.2447521686553955,-0.04592245817184448,-18.177942276000977,0.9418671131134033,18.245882034301758,0.5944724678993225,2.3138461112976074,-0.25485557317733765,0.0,0.0,0.0,0.0,0.0,0.0,0.0,-0.053656174926352426,0.49314294501220335,0.1029070318402028,0.6185630002546195,0.1605803527699587,0.13713255069440597,-0.26098000202474386,-0.6090351898312727,-0.05752375957892651,-0.6665968242779602,-2.5947788840912525,-0.055773525804281236,2.5078638740245913,0.8763244798911941,-0.6090851748156966,-0.05753196718556838,-0.666603097082616,-2.5945565370258534,-0.05562143941554,2.507976027223799,0.8763108487046415,0.0011275823769456778,0.00022813450443567903,-0.0004620951735669767,1.6065012255397065e-05,-0.0003340682688448262,0.0001464525980859043,-0.0004686822257220018,0.0,0.0,0.0,0.0,0.0,0.0,0.0,-4.9984984423878664e-05,-8.207606641871812e-06,-6.272804655815811e-06,0.00022234706539903115,0.0001520863887412363,0.0001121531992076541,-1.3631186552620633e-05,-0.0011275823769456778,-0.00022813450443567903,0.0004620951735669767,-1.6065012255397065e-05,0.0003340682688448262,-0.0001464525980859043,0.0004686822257220018,0.04592245817184448,18.177942276000977,-0.9418671131134033,-18.245882034301758,-0.5944724678993225,-2.3138461112976074,0.25485557317733765,0
51,0.249755859375,-0.04592245817184448,-18.177942276000977,0.9418671131134033,18.245882034301758,0.5944724678993225,2.3138461112976074,-0.25485557317733765,0.0,0.0,0.0,0.0,0.0,0.0,0.0,-0.053656174926352426,0.49314294501220335,0.1029070318402028,0.6185630002546195,0.1605803527699587,0.13713255069440597,-0.26098000202474386,-0.6090351898312727,-0.05752375957892651,-0.6665968242779602,-2.5947788840912525,-0.055773525804281236,2.5078638740245913,0.8763244798911941,-0.6090851748156966,-0.05753196718556838,-0.666603097082616,-2.5945565370258534,-0.05562143941554,2.507976027223799,0.8763108487046415,0.0011275823769456778,0.00022813450443567903,-0.0004620951735669767,1.6065012255397065e-05,-0.0003340682688448262,0.0001464525980859043,-0.0004686822257220018,0.0,0.0,0.0,0.0,0.0,0.0,0.0,-4.9984984423878664e-05,-8.207606641871812e-06,-6.272804655815811e-06,0.00022234706539903115,0.0001520863887412363,0.0001121531992076541,-1.3631186552620633e-05,-0.0011275823769456778,-0.00022813450443567903,0.0004620951735669767,-1.6065012255397065e-05,0.0003340682688448262,-0.0001464525980859043,0.0004686822257220018,0.04592245817184448,18.177942276000977,-0.9418671131134033,-18.245882034301758,-0.5944724678993225,-2.3138461112976074,0.25485557317733765,0
52,0.25475215911865234,-0.04592245817184448,-18.177942276000977,0.9418671131134033,18.245882034301758,0.5944724678993225,2.3138461112976074,-0.25485557317733765,0.0,0.0,0.0,0.0,0.0,0.0,0.0,-0.053656174926352426,0.49314294501220335,0.1029070318402028,0.6185630002546195,0.1605803527699587,0.13713255069440597,-0.26098000202474386,-0.6090351898312727,-0.05752375957892651,-0.6665968242779602,-2.5947788840912525,-0.055773525804281236,2.5078638740245913,0.8763244798911941,-0.6090851748156966,-0.05753196718556838,-0.666603097082616,-2.5945565370258534,-0.05562143941554,2.507976027223799,0.8763108487046415,0.0011275823769456778,0.00022813450443567903,-0.0004620951735669767,1.6065012255397065e-05,-0.0003340682688448262,0.0001464525980859043,-0.0004686822257220018,0.0,0.0,0.0,0.0,0.0,0.0,0.0,-4.9984984423878664e-05,-8.207606641871812e-06,-6.272804655815811e-06,0.00022234706539903115,0.0001520863887412363,0.0001121531992076541,-1.3631186552620633e-05,-0.0011275823769456778,-0.00022813450443567903,0.0004620951735669767,-1.6065012255397065e-05,0.0003340682688448262,-0.0001464525980859043,0.0004686822257220018,0.04592245817184448,18.177942276000977,-0.9418671131134033,-18.245882034301758,-0.5944724678993225,-2.3138461112976074,0.25485557317733765,0
53,0.2597386837005615,-0.04592245817184448,-18.177942276000977,0.9418671131134033,18.245882034301758,0.5944724678993225,2.3138461112976074,-0.25485557317733765,0.0,0.0,0.0,0.0,0.0,0.0,0.0,-0.053656174926352426,0.49314294501220335,0.1029070318402028,0.6185630002546195,0.1605803527699587,0.13713255069440597,-0.26098000202474386,-0.6090351898312727,-0.05752375957892651,-0.6665968242779602,-2.5947788840912525,-0.055773525804281236,2.5078638740245913,0.8763244798911941,-0.6090851748156966,-0.05753196718556838,-0.666603097082616,-2.5945565370258534,-0.05562143941554,2.507976027223799,0.8763108487046415,0.0011275823769456778,0.00022813450443567903,-0.0004620951735669767,1.6065012255397065e-05,-0.0003340682688448262,0.0001464525980859043,-0.0004686822257220018,0.0,0.0,0.0,0.0,0.0,0.0,0.0,-4.9984984423878664e-05,-8.207606641871812e-06,-6.272804655815811e-06,0.00022234706539903115,0.0001520863887412363,0.0001121531992076541,-1.3631186552620633e-05,-0.0011275823769456778,-0.00022813450443567903,0.0004620951735669767,-1.6065012255397065e-05,0.0003340682688448262,-0.0001464525980859043,0.0004686822257220018,0.04592245817184448,18.177942276000977,-0.9418671131134033,-18.245882034301758,-0.5944724678993225,-2.3138461112976074,0.25485557317733765,0
54,0.2647569179534912,-0.06972616910934448,-18.130334854125977,0.9418671131134033,18.269685745239258,0.5816550850868225,2.3266634941101074,-0.28964561223983765,0.0,0.0,0.0,0.0,0.0,0.0,0.0,-0.0496567926871756,0.5004552289749218,0.10235079649302141,0.615168429621581,0.16108535983948624,0.1358522730435651,-0.2610190414801141,-0.6090312530582327,-0.05752712968062402,-0.6665968242779112,-2.5947811900085243,-0.055772101650635404,2.507862443093443,0.87632834545109,-0.6090851748156966,-0.05753196718556838,-0.666603097082616,-2.5945565370258534,-0.05562143941554,2.507976027223799,0.8763108487046415,0.0008813316031794122,0.00037855083538050355,-0.00022339373307236603,-0.0006445577967601149,7.475271829028036e-05,-0.0002580956949166586,0.0013184624536827397,0.0,0.0,0.0,0.0,0.0,0.0,0.0,-5.3921757463881725e-05,-4.83750494436469e-06,-6.272804704776647e-06,0.00022465298267082545,0.00015066223509540427,0.00011358413035589265,-1.749674644846433e-05,-0.0008813316031794122,-0.00037855083538050355,0.00022339373307236603,0.0006445577967601149,-7.475271829028036e-05,0.0002580956949166586,-0.0013184624536827397,0.06972616910934448,18.130334854125977,-0.9418671131134033,-18.269685745239258,-0.5816550850868225,-2.3266634941101074,0.28964561223983765,0
55,0.2697606086730957,-0.06972616910934448,-18.130334854125977,0.9418671131134033,18.269685745239258,0.5816550850868225,2.3266634941101074,-0.28964561223983765,0.0,0.0,0.0,0.0,0.0,0.0,0.0,-0.0496567926871756,0.5004552289749218,0.10235079649302141,0.615168429621581,0.16108535983948624,0.1358522730435651,-0.2610190414801141,-0.6090312530582327,-0.05752712968062402,-0.6665968242779112,-2.5947811900085243,-0.055772101650635404,2.507862443093443,0.87632834545109,-0.6090851748156966,-0.05753196718556838,-0.666603097082616,-2.5945565370258534,-0.05562143941554,2.507976027223799,0.8763108487046415,0.0008813316031794122,0.00037855083538050355,-0.00022339373307236603,-0.0006445577967601149,7.475271829028036e-05,-0.0002580956949166586,0.0013184624536827397,0.0,0.0,0.0,0.0,0.0,0.0,0.0,-5.3921757463881725e-05,-4.83750494436469e-06,-6.272804704776647e-06,0.00022465298267082545,0.00015066223509540427,0.00011358413035589265,-1.749674644846433e-05,-0.0008813316031794122,-0.00037855083538050355,0.00022339373307236603,0.0006445577967601149,-7.475271829028036e-05,0.0002580956949166586,-0.0013184624536827397,0.06972616910934448,18.130334854125977,-0.9418671131134033,-18.269685745239258,-0.5816550850868225,-2.3266634941101074,0.28964561223983765,0
56,0.2747676372528076,-0.06972616910934448,-18.130334854125977,0.9418671131134033,18.269685745239258,0.5816550850868225,2.3266634941101074,-0.28964561223983765,0.0,0.0,0.0,0.0,0.0,0.0,0.0,-0.0496567926871756,0.5004552289749218,0.10235079649302141,0.615168429621581,0.16108535983948624,0.1358522730435651,-0.2610190414801141,-0.6090312530582327,-0.05752712968062402,-0.6665968242779112,-2.5947811900085243,-0.055772101650635404,2.507862443093443,0.87632834545109,-0.6090851748156966,-0.05753196718556838,-0.666603097082616,-2.5945565370258534,-0.05562143941554,2.507976027223799,0.8763108487046415,0.0008813316031794122,0.00037855083538050355,-0.00022339373307236603,-0.0006445577967601149,7.475271829028036e-05,-0.0002580956949166586,0.0013184624536827397,0.0,0.0,0.0,0.0,0.0,0.0,0.0,-5.3921757463881725e-05,-4.83750494436469e-06,-6.272804704776647e-06,0.00022465298267082545,0.00015066223509540427,0.00011358413035589265,-1.749674644846433e-05,-0.0008813316031794122,-0.00037855083538050355,0.00022339373307236603,0.0006445577967601149,-7.475271829028036e-05,0.0002580956949166586,-0.0013184624536827397,0.06972616910934448,18.130334854125977,-0.9418671131134033,-18.269685745239258,-0.5816550850868225,-2.3266634941101074,0.28964561223983765,0
57,0.2797513008117676,-0.06972616910934448,-18.130334854125977,0.9418671131134033,18.269685745239258,0.5816550850868225,2.3266634941101074,-0.28964561223983765,0.0,0.0,0.0,0.0,0.0,0.0,0.0,-0.0496567926871756,0.5004552289749218,0.10235079649302141,0.615168429621581,0.16108535983948624,0.1358522730435651,-0.2610190414801141,-0.6090312530582327,-0.05752712968062402,-0.6665968242779112,-2.5947811900085243,-0.055772101650635404,2.507862443093443,0.87632834545109,-0.6090851748156966,-0.05753196718556838,-0.666603097082616,-2.5945565370258534,-0.05562143941554,2.507976027223799,0.8763108487046415,0.0008813316031794122,0.00037855083538050355,-0.00022339373307236603,-0.0006445577967601149,7.475271829028036e-05,-0.0002580956949166586,0.0013184624536827397,0.0,0.0,0.0,0.0,0.0,0.0,0.0,-5.3921757463881725e-05,-4.83750494436469e-06,-6.272804704776647e-06,0.00022465298267082545,0.00015066223509540427,0.00011358413035589265,-1.749674644846433e-05,-0.0008813316031794122,-0.00037855083538050355,0.00022339373307236603,0.0006445577967601149,-7.475271829028036e-05,0.0002580956949166586,-0.0013184624536827397,0.06972616910934448,18.130334854125977,-0.9418671131134033,-18.269685745239258,-0.5816550850868225,-2.3266634941101074,0.28964561223983765,0
58,0.2847633361816406,-0.06972616910934448,-18.130334854125977,0.9418671131134033,18.269685745239258,0.5816550850868225,2.3266634941101074,-0.28964561223983765,0.0,0.0,0.0,0.0,0.0,0.0,0.0,-0.0496567926871756,0.5004552289749218,0.10235079649302141,0.615168429621581,0.16108535983948624,0.1358522730435651,-0.2610190414801141,-0.6090312530582327,-0.05752712968062402,-0.6665968242779112,-2.5947811900085243,-0.055772101650635404,2.507862443093443,0.87632834545109,-0.6090851748156966,-0.05753196718556838,-0.666603097082616,-2.5945565370258534,-0.05562143941554,2.507976027223799,0.8763108487046415,0.0008813316031794122,0.00037855083538050355,-0.00022339373307236603,-0.0006445577967601149,7.475271829028036e-05,-0.0002580956949166586,0.0013184624536827397,0.0,0.0,0.0,0.0,0.0,0.0,0.0,-5.3921757463881725e-05,-4.83750494436469e-06,-6.272804704776647e-06,0.00022465298267082545,0.00015066223509540427,0.00011358413035589265,-1.749674644846433e-05,-0.0008813316031794122,-0.00037855083538050355,0.00022339373307236603,0.0006445577967601149,-7.475271829028036e-05,0.0002580956949166586,-0.0013184624536827397,0.06972616910934448,18.130334854125977,-0.9418671131134033,-18.269685745239258,-0.5816550850868225,-2.3266634941101074,0.28964561223983765,0
59,0.2897658348083496,-0.06972616910934448,-18.177942276000977,0.9180634021759033,18.245882034301758,0.5880637764930725,2.3330721855163574,-0.24844686686992645,0.0,0.0,0.0,0.0,0.0,0.0,0.0,-0.053931547302710915,0.5010527552666533,0.09854549811242946,0.6262132716418813,0.16178264605588652,0.13685636284914732,-0.2624225159959196,-0.6090335185071385,-0.05752375993979605,-0.6665972599798355,-2.594779516956395,-0.055772813728126064,2.5078617436614747,0.8763237678127155,-0.6090851748156966,-0.05753196718556838,-0.666603097082616,-2.5945565370258534,-0.05562143941554,2.507976027223799,0.8763108487046415,-0.0003142352595220216,0.00048663065519306977,-0.00041328427348381603,0.0002456872462635971,-0.00018681070271778303,-0.00047729859606615165,-0.0007400848009494908,0.0,0.0,0.0,0.0,0.0,0.0,0.0,-5.165630855807901e-05,-8.207245772336169e-06,-5.837102780459347e-06,0.00022297993054154475,0.00015137431258606393,0.00011428356232423553,-1.2919108073994323e-05,0.0003142352595220216,-0.00048663065519306977,0.00041328427348381603,-0.0002456872462635971,0.00018681070271778303,0.00047729859606615165,0.0007400848009494908,0.06972616910934448,18.177942276000977,-0.9180634021759033,-18.245882034301758,-0.5880637764930725,-2.3330721855163574,0.24844686686992645,0
60,0.29476046562194824,-0.06972616910934448,-18.177942276000977,0.9180634021759033,18.245882034301758,0.5880637764930725,2.3330721855163574,-0.24844686686992645,0.0,0.0,0.0,0.0,0.0,0.0,0.0,-0.053931547302710915,0.5010527552666533,0.09854549811242946,0.6262132716418813,0.16178264605588652,0.13685636284914732,-0.2624225159959196,-0.6090335185071385,-0.05752375993979605,-0.6665972599798355,-2.594779516956395,-0.055772813728126064,2.5078617436614747,0.8763237678127155,-0.6090851748156966,-0.05753196718556838,-0.666603097082616,-2.5945565370258534,-0.05562143941554,2.507976027223799,0.8763108487046415,-0.0003142352595220216,0.00048663065519306977,-0.00041328427348381603,0.0002456872462635971,-0.00018681070271778303,-0.00047729859606615165,-0.0007400848009494908,0.0,0.0,0.0,0.0,0.0,0.0,0.0,-5.165630855807901e-05,-8.207245772336169e-06,-5.837102780459347e-06,0.00022297993054154475,0.00015137431258606393,0.00011428356232423553,-1.2919108073994323e-05,0.0003142352595220216,-0.00048663065519306977,0.00041328427348381603,-0.0002456872462635971,0.00018681070271778303,0.00047729859606615165,0.0007400848009494908,0.06972616910934448,18.177942276000977,-0.9180634021759033,-18.245882034301758,-0.5880637764930725,-2.3330721855163574,0.24844686686992645,0
61,0.2997474670410156,-0.06972616910934448,-18.177942276000977,0.8704559803009033,18.269685745239258,0.5761619210243225,2.3138461112976074,-0.26217979192733765,0.0,0.0,0.0,0.0,0.0,0.0,0.0,-0.05421571950229426,0.4997008486682333,0.10314557065686987,0.6250371385949436,0.16093840388394848,0.13742803965560804,-0.26321617422399884,-0.6090335195064488,-0.05752446990369853,-0.6665918909833748,-2.594780551612829,-0.05577468527688476,2.5078607407143787,0.8763252936932775,-0.6090851748156966,-0.05753196718556838,-0.666603097082616,-2.5945565370258534,-0.05562143941554,2.507976027223799,0.8763108487046415,0.00020470601237776033,-0.0008211084307751799,0.0008153980617167428,-0.0006532658689845575,0.00039376468219103007,0.00019746445495593735,-0.00016878270520755487,0.0,0.0,0.0,0.0,0.0,0.0,0.0,-5.1655309247777836e-05,-7.497281869855987e-06,-1.1206099241212186e-05,0.00022401458697540733,0.00015324586134476265,0.00011528650942027596,-1.4444988636008738e-05,-0.00020470601237776033,0.0008211084307751799,-0.0008153980617167428,0.0006532658689845575,-0.00039376468219103007,-0.00019746445495593735,0.00016878270520755487,0.06972616910934448,18.177942276000977,-0.8704559803009033,-18.269685745239258,-0.5761619210243225,-2.3138461112976074,0.26217979192733765,0
62,0.30480098724365234,-0.06972616910934448,-18.177942276000977,0.8704559803009033,18.269685745239258,0.5761619210243225,2.3138461112976074,-0.26217979192733765,0.0,0.0,0.0,0.0,0.0,0.0,0.0,-0.05421571950229426,0.4997008486682333,0.10314557065686987,0.6250371385949436,0.16093840388394848,0.13742803965560804,-0.26321617422399884,-0.6090335195064488,-0.05752446990369853,-0.6665918909833748,-2.594780551612829,-0.05577468527688476,2.5078607407143787,0.8763252936932775,-0.6090851748156966,-0.05753196718556838,-0.666603097082616,-2.5945565370258534,-0.05562143941554,2.507976027223799,0.8763108487046415,0.00020470601237776033,-0.0008211084307751799,0.0008153980617167428,-0.0006532658689845575,0.00039376468219103007,0.00019746445495593735,-0.00016878270520755487,0.0,0.0,0.0,0.0,0.0,0.0,0.0,-5.1655309247777836e-05,-7.497281869855987e-06,-1.1206099241212186e-05,0.00022401458697540733,0.00015324586134476265,0.00011528650942027596,-1.4444988636008738e-05,-0.00020470601237776033,0.0008211084307751799,-0.0008153980617167428,0.0006532658689845575,-0.00039376468219103007,-0.00019746445495593735,0.00016878270520755487,0.06972616910934448,18.177942276000977,-0.8704559803009033,-18.269685745239258,-0.5761619210243225,-2.3138461112976074,0.26217979192733765,0
63,0.30976104736328125,-0.018151462078094482,-18.205713272094727,0.9180634021759033,18.297456741333008,0.5816550850868225,2.3138461112976074,-0.26217979192733765,0.0,0.0,0.0,0.0,0.0,0.0,0.0,-0.05117104993666832,0.49985741153055957,0.10517611206575879,0.6234078789798119,0.16064766385840737,0.1377286128806758,-0.2642335476518301,-0.6090371387841408,-0.05752181366410388,-0.6665951538424965,-2.5947827132508268,-0.055775339295127596,2.5078638755200218,0.8763252936932775,-0.6090851748156966,-0.05753196718556838,-0.666603097082616,-2.5945565370258534,-0.05562143941554,2.507976027223799,0.8763108487046415,-0.0006020132577800331,0.0006532534649483695,-0.00027601209684822016,-0.0010744004983122258,-2.865380074021541e-05,0.0005644653052346696,-0.0001346216353859089,0.0,0.0,0.0,0.0,0.0,0.0,0.0,-4.803603155578706e-05,-1.015352146450238e-05,-7.943240119545614e-06,0.0002261762249733401,0.0001538998795875962,0.00011215170377720796,-1.4444988636008738e-05,0.0006020132577800331,-0.0006532534649483695,0.00027601209684822016,0.0010744004983122258,2.865380074021541e-05,-0.0005644653052346696,0.0001346216353859089,0.018151462078094482,18.205713272094727,-0.9180634021759033,-18.297456741333008,-0.5816550850868225,-2.3138461112976074,0.26217979192733765,0
64,0.3148012161254883,-0.018151462078094482,-18.205713272094727,0.9180634021759033,18.297456741333008,0.5816550850868225,2.3138461112976074,-0.26217979192733765,0.0,0.0,0.0,0.0,0.0,0.0,0.0,-0.05117104993666832,0.49985741153055957,0.10517611206575879,0.6234078789798119,0.16064766385840737,0.1377286128806758,-0.2642335476518301,-0.6090371387841408,-0.05752181366410388,-0.6665951538424965,-2.5947827132508268,-0.055775339295127596,2.5078638755200218,0.8763252936932775,-0.6090851748156966,-0.05753196718556838,-0.666603097082616,-2.5945565370258534,-0.05562143941554,2.507976027223799,0.8763108487046415,-0.0006020132577800331,0.0006532534649483695,-0.00027601209684822016,-0.0010744004983122258,-2.865380074021541e-05,0.0005644653052346696,-0.0001346216353859089,0.0,0.0,0.0,0.0,0.0,0.0,0.0,-4.803603155578706e-05,-1.015352146450238e-05,-7.943240119545614e-06,0.0002261762249733401,0.0001538998795875962,0.00011215170377720796,-1.4444988636008738e-05,0.0006020132577800331,-0.0006532534649483695,0.00027601209684822016,0.0010744004983122258,2.865380074021541e-05,-0.0005644653052346696,0.0001346216353859089,0.018151462078094482,18.205713272094727,-0.9180634021759033,-18.297456741333008,-0.5816550850868225,-2.3138461112976074,0.26217979192733765,0
65,0.3197975158691406,-0.09352988004684448,-18.154138565063477,0.9180634021759033,18.245882034301758,0.5816550850868225,2.3266634941101074,-0.29605430364608765,0.0,0.0,0.0,0.0,0.0,0.0,0.0,-0.05140452440543032,0.49580628635072316,0.10290183076351966,0.6245979553301486,0.1605101611798791,0.13830982160957564,-0.26421135759999537,-0.6090318220890727,-0.057526140303481875,-0.6665958558523167,-2.594778881206887,-0.05577247114094398,2.5078623717618194,0.8763290575279129,-0.6090851748156966,-0.05753196718556838,-0.666603097082616,-2.5945565370258534,-0.05562143941554,2.507976027223799,0.8763108487046415,0.0012966103582529103,-0.0004050676119067172,0.000505416552078126,0.0002227796830052653,-9.04361649994386e-05,-4.140906235025512e-05,0.0012683795802084224,0.0,0.0,0.0,0.0,0.0,0.0,0.0,-5.335272662387869e-05,-5.826882086508445e-06,-7.241230299270818e-06,0.00022234418103339593,0.0001510317254039828,0.00011365546197961152,-1.8208823271415042e-05,-0.0012966103582529103,0.0004050676119067172,-0.000505416552078126,-0.0002227796830052653,9.04361649994386e-05,4.140906235025512e-05,-0.0012683795802084224,0.09352988004684448,18.154138565063477,-0.9180634021759033,-18.245882034301758,-0.5816550850868225,-2.3266634941101074,0.29605430364608765,0
66,0.3248023986816406,-0.09352988004684448,-18.154138565063477,0.9180634021759033,18.245882034301758,0.5816550850868225,2.3266634941101074,-0.29605430364608765,0.0,0.0,0.0,0.0,0.0,0.0,0.0,-0.05140452440543032,0.49580628635072316,0.10290183076351966,0.6245979553301486,0.1605101611798791,0.13830982160957564,-0.26421135759999537,-0.6090318220890727,-0.057526140303481875,-0.6665958558523167,-2.594778881206887,-0.05577247114094398,2.5078623717618194,0.8763290575279129,-0.6090851748156966,-0.05753196718556838,-0.666603097082616,-2.5945565370258534,-0.05562143941554,2.507976027223799,0.8763108487046415,0.0012966103582529103,-0.0004050676119067172,0.000505416552078126,0.0002227796830052653,-9.04361649994386e-05,-4.140906235025512e-05,0.0012683795802084224,0.0,0.0,0.0,0.0,0.0,0.0,0.0,-5.335272662387869e-05,-5.826882086508445e-06,-7.241230299270818e-06,0.00022234418103339593,0.0001510317254039828,0.00011365546197961152,-1.8208823271415042e-05,-0.0012966103582529103,0.0004050676119067172,-0.000505416552078126,-0.0002227796830052653,9.04361649994386e-05,4.140906235025512e-05,-0.0012683795802084224,0.09352988004684448,18.154138565063477,-0.9180634021759033,-18.245882034301758,-0.5816550850868225,-2.3266634941101074,0.29605430364608765,0
67,0.3297722339630127,-0.06972616910934448,-18.078760147094727,0.9180634021759033,18.245882034301758,0.5816550850868225,2.3202548027038574,-0.27591270208358765,0.0,0.0,0.0,0.0,0.0,0.0,0.0,-0.06259923134579748,0.4930078788181689,0.0957420034851107,0.6244642145536126,0.16060819397367623,0.13768380846556214,-0.26533042199744516,-0.6090334925247757,-0.05753072265533174,-0.6665951538460189,-2.5947789518159268,-0.05577636023571612,2.5078627215273355,0.8763268195721837,-0.6090851748156966,-0.05753196718556838,-0.666603097082616,-2.5945565370258534,-0.05562143941554,2.507976027223799,0.8763108487046415,-0.00019742236708471462,-0.0020558366292390494,-0.00017688480699438027,-1.958413898668135e-05,0.00011536252166114103,-0.00016082032520458288,0.0007430051175710595,0.0,0.0,0.0,0.0,0.0,0.0,0.0,-5.1682290920895824e-05,-1.244530236643726e-06,-7.943236597141023e-06,0.0002224147900733442,0.00015492082017611736,0.00011330569646350597,-1.5970867542236533e-05,0.00019742236708471462,0.0020558366292390494,0.00017688480699438027,1.958413898668135e-05,-0.00011536252166114103,0.00016082032520458288,-0.0007430051175710595,0.06972616910934448,18.078760147094727,-0.9180634021759033,-18.245882034301758,-0.5816550850868225,-2.3202548027038574,0.27591270208358765,0
68,0.3347647190093994,-0.06972616910934448,-18.078760147094727,0.9180634021759033,18.245882034301758,0.5816550850868225,2.3202548027038574,-0.27591270208358765,0.0,0.0,0.0,0.0,0.0,0.0,0.0,-0.06259923134579748,0.4930078788181689,0.0957420034851107,0.6244642145536126,0.16060819397367623,0.13768380846556214,-0.26533042199744516,-0.6090334925247757,-0.05753072265533174,-0.6665951538460189,-2.5947789518159268,-0.05577636023571612,2.5078627215273355,0.8763268195721837,-0.6090851748156966,-0.05753196718556838,-0.666603097082616,-2.5945565370258534,-0.05562143941554,2.507976027223799,0.8763108487046415,-0.00019742236708471462,-0.0020558366292390494,-0.00017688480699438027,-1.958413898668135e-05,0.00011536252166114103,-0.00016082032520458288,0.0007430051175710595,0.0,0.0,0.0,0.0,0.0,0.0,0.0,-5.1682290920895824e-05,-1.244530236643726e-06,-7.943236597141023e-06,0.0002224147900733442,0.00015492082017611736,0.00011330569646350597,-1.5970867542236533e-05,0.00019742236708471462,0.0020558366292390494,0.00017688480699438027,1.958413898668135e-05,-0.00011536252166114103,0.00016082032520458288,-0.0007430051175710595,0.06972616910934448,18.078760147094727,-0.9180634021759033,-18.245882034301758,-0.5816550850868225,-2.3202548027038574,0.27591270208358765,0
69,0.33976101875305176,-0.09352988004684448,-18.130334854125977,0.8942596912384033,18.245882034301758,0.5761619210243225,2.3266634941101074,-0.28964561223983765,0.0,0.0,0.0,0.0,0.0,0.0,0.0,-0.06033215686596193,0.4940058617684338,0.10153439995235593,0.6244472190721437,0.1603536897823094,0.13661971707111273,-0.2655900072829728,-0.6090318130950781,-0.05752733721354809,-0.6665934834062007,-2.594778881173783,-0.05577149148537538,2.50785880587756,0.87632834545109,-0.6090851748156966,-0.05753196718556838,-0.666603097082616,-2.5945565370258534,-0.05562143941554,2.507976027223799,0.8763108487046415,0.0005364246019833215,-0.0005722751334066097,0.00012662273230899367,2.768537889399326e-05,0.0004233631574803079,-0.0003214329997207958,0.0008806891214278999,0.0,0.0,0.0,0.0,0.0,0.0,0.0,-5.336172061842781e-05,-4.6299720202966355e-06,-9.61367641527655e-06,0.00022234414792965396,0.00015005206983537828,0.00011722134623903813,-1.749674644846433e-05,-0.0005364246019833215,0.0005722751334066097,-0.00012662273230899367,-2.768537889399326e-05,-0.0004233631574803079,0.0003214329997207958,-0.0008806891214278999,0.09352988004684448,18.130334854125977,-0.8942596912384033,-18.245882034301758,-0.5761619210243225,-2.3266634941101074,0.28964561223983765,0
70,0.3449065685272217,-0.09352988004684448,-18.130334854125977,0.8942596912384033,18.245882034301758,0.5761619210243225,2.3266634941101074,-0.28964561223983765,0.0,0.0,0.0,0.0,0.0,0.0,0.0,-0.06033215686596193,0.4940058617684338,0.10153439995235593,0.6244472190721437,0.1603536897823094,0.13661971707111273,-0.2655900072829728,-0.6090318130950781,-0.05752733721354809,-0.6665934834062007,-2.594778881173783,-0.05577149148537538,2.50785880587756,0.87632834545109,-0.6090851748156966,-0.05753196718556838,-0.666603097082616,-2.5945565370258534,-0.05562143941554,2.507976027223799,0.8763108487046415,0.0005364246019833215,-0.0005722751334066097,0.00012662273230899367,2.768537889399326e-05,0.0004233631574803079,-0.0003214329997207958,0.0008806891214278999,0.0,0.0,0.0,0.0,0.0,0.0,0.0,-5.336172061842781e-05,-4.6299720202966355e-06,-9.61367641527655e-06,0.00022234414792965396,0.00015005206983537828,0.00011722134623903813,-1.749674644846433e-05,-0.0005364246019833215,0.0005722751334066097,-0.00012662273230899367,-2.768537889399326e-05,-0.0004233631574803079,0.0003214329997207958,-0.0008806891214278999,0.09352988004684448,18.130334854125977,-0.8942596912384033,-18.245882034301758,-0.5761619210243225,-2.3266634941101074,0.28964561223983765,0
71,0.34975266456604004,-0.06972616910934448,-18.154138565063477,0.9180634021759033,18.269685745239258,0.5816550850868225,2.3202548027038574,-0.27591270208358765,0.0,0.0,0.0,0.0,0.0,0.0,0.0,-0.05571703120043705,0.5004343336825894,0.10767818790386403,0.6251153812262026,0.15998686431093023,0.13687947582939297,-0.26673910176112137,-0.6090332763394081,-0.0575254387851144,-0.666595387881142,-2.594780575156754,-0.05577210165063645,2.507862854264795,0.8763268194106782,-0.6090851748156966,-0.05753196718556838,-0.666603097082616,-2.5945565370258534,-0.05562143941554,2.507976027223799,0.8763108487046415,0.00046335621300923726,0.00032808024281243137,0.00014126801665227405,-0.0004218080568157273,0.00020203353612165373,9.065553632066859e-07,0.0006361723871108814,0.0,0.0,0.0,0.0,0.0,0.0,0.0,-5.1898476288503304e-05,-6.528400453981176e-06,-7.709201473971028e-06,0.00022403813090043911,0.00015066223509645205,0.00011317295900381552,-1.5970706036760873e-05,-0.00046335621300923726,-0.00032808024281243137,-0.00014126801665227405,0.0004218080568157273,-0.00020203353612165373,-9.065553632066859e-07,-0.0006361723871108814,0.06972616910934448,18.154138565063477,-0.9180634021759033,-18.269685745239258,-0.5816550850868225,-2.3202548027038574,0.27591270208358765,0
72,0.3547956943511963,-0.06972616910934448,-18.154138565063477,0.9180634021759033,18.269685745239258,0.5816550850868225,2.3202548027038574,-0.27591270208358765,0.0,0.0,0.0,0.0,0.0,0.0,0.0,-0.05571703120043705,0.5004343336825894,0.10767818790386403,0.6251153812262026,0.15998686431093023,0.13687947582939297,-0.26673910176112137,-0.6090332763394081,-0.0575254387851144,-0.666595387881142,-2.594780575156754,-0.05577210165063645,2.507862854264795,0.8763268194106782,-0.6090851748156966,-0.05753196718556838,-0.666603097082616,-2.5945565370258534,-0.05562143941554,2.507976027223799,0.8763108487046415,0.00046335621300923726,0.00032808024281243137,0.00014126801665227405,-0.0004218080568157273,0.00020203353612165373,9.065553632066859e-07,0.0006361723871108814,0.0,0.0,0.0,0.0,0.0,0.0,0.0,-5.1898476288503304e-05,-6.528400453981176e-06,-7.709201473971028e-06,0.00022403813090043911,0.00015066223509645205,0.00011317295900381552,-1.5970706036760873e-05,-0.00046335621300923726,-0.00032808024281243137,-0.00014126801665227405,0.0004218080568157273,-0.00020203353612165373,-9.065553632066859e-07,-0.0006361723871108814,0.06972616910934448,18.154138565063477,-0.9180634021759033,-18.269685745239258,-0.5816550850868225,-2.3202548027038574,0.27591270208358765,0
73,0.35979199409484863,-0.06972616910934448,-18.154138565063477,0.9180634021759033,18.269685745239258,0.5816550850868225,2.3202548027038574,-0.23471395671367645,0.0,0.0,0.0,0.0,0.0,0.0,0.0,-0.05731256466847176,0.5026911538975627,0.1048713266493703,0.6261215166160163,0.15995521374075006,0.13676896976641545,-0.2665333432545594,-0.609033438446722,-0.05752550991022804,-0.6665952328101367,-2.5947805516096385,-0.05577245651902976,2.5078630896471097,0.8763222419338066,-0.6090851748156966,-0.05753196718556838,-0.666603097082616,-2.5945565370258534,-0.05562143941554,2.507976027223799,0.8763108487046415,0.0007429263731840974,0.00012175908961683801,0.00020406534893922766,-0.00045063136950682065,0.00014123036352046305,-0.00010141323045030669,-0.0011488262453348886,0.0,0.0,0.0,0.0,0.0,0.0,0.0,-5.1736368974597546e-05,-6.457275340342183e-06,-7.864272479340961e-06,0.00022401458378507044,0.00015101710348976172,0.00011293757668928706,-1.1393229165101992e-05,-0.0007429263731840974,-0.00012175908961683801,-0.00020406534893922766,0.00045063136950682065,-0.00014123036352046305,0.00010141323045030669,0.0011488262453348886,0.06972616910934448,18.154138565063477,-0.9180634021759033,-18.269685745239258,-0.5816550850868225,-2.3202548027038574,0.23471395671367645,0
74,0.3647894859313965,-0.06972616910934448,-18.154138565063477,0.9180634021759033,18.269685745239258,0.5816550850868225,2.3202548027038574,-0.23471395671367645,0.0,0.0,0.0,0.0,0.0,0.0,0.0,-0.05731256466847176,0.5026911538975627,0.1048713266493703,0.6261215166160163,0.15995521374075006,0.13676896976641545,-0.2665333432545594,-0.609033438446722,-0.05752550991022804,-0.6665952328101367,-2.5947805516096385,-0.05577245651902976,2.5078630896471097,0.8763222419338066,-0.6090851748156966,-0.05753196718556838,-0.666603097082616,-2.5945565370258534,-0.05562143941554,2.507976027223799,0.8763108487046415,0.0007429263731840974,0.00012175908961683801,0.00020406534893922766,-0.00045063136950682065,0.00014123036352046305,-0.00010141323045030669,-0.0011488262453348886,0.0,0.0,0.0,0.0,0.0,0.0,0.0,-5.1736368974597546e-05,-6.457275340342183e-06,-7.864272479340961e-06,0.00022401458378507044,0.00015101710348976172,0.00011293757668928706,-1.1393229165101992e-05,-0.0007429263731840974,-0.00012175908961683801,-0.00020406534893922766,0.00045063136950682065,-0.00014123036352046305,0.00010141323045030669,0.0011488262453348886,0.06972616910934448,18.154138565063477,-0.9180634021759033,-18.269685745239258,-0.5816550850868225,-2.3202548027038574,0.23471395671367645,0
75,0.37218761444091797,-0.06972616910934448,-18.154138565063477,0.9180634021759033,18.269685745239258,0.5816550850868225,2.3202548027038574,-0.23471395671367645,0.0,0.0,0.0,0.0,0.0,0.0,0.0,-0.05731256466847176,0.5026911538975627,0.1048713266493703,0.6261215166160163,0.15995521374075006,0.13676896976641545,-0.2665333432545594,-0.609033438446722,-0.05752550991022804,-0.6665952328101367,-2.5947805516096385,-0.05577245651902976,2.5078630896471097,0.8763222419338066,-0.6090851748156966,-0.05753196718556838,-0.666603097082616,-2.5945565370258534,-0.05562143941554,2.507976027223799,0.8763108487046415,0.0007429263731840974,0.00012175908961683801,0.00020406534893922766,-0.00045063136950682065,0.00014123036352046305,-0.00010141323045030669,-0.0011488262453348886,0.0,0.0,0.0,0.0,0.0,0.0,0.0,-5.1736368974597546e-05,-6.457275340342183e-06,-7.864272479340961e-06,0.00022401458378507044,0.00015101710348976172,0.00011293757668928706,-1.1393229165101992e-05,-0.0007429263731840974,-0.00012175908961683801,-0.00020406534893922766,0.00045063136950682065,-0.00014123036352046305,0.00010141323045030669,0.0011488262453348886,0.06972616910934448,18.154138565063477,-0.9180634021759033,-18.269685745239258,-0.5816550850868225,-2.3202548027038574,0.23471395671367645,0
76,0.3747520446777344,-0.06972616910934448,-18.154138565063477,0.9180634021759033,18.269685745239258,0.5816550850868225,2.3202548027038574,-0.23471395671367645,0.0,0.0,0.0,0.0,0.0,0.0,0.0,-0.05731256466847176,0.5026911538975627,0.1048713266493703,0.6261215166160163,0.15995521374075006,0.13676896976641545,-0.2665333432545594,-0.609033438446722,-0.05752550991022804,-0.6665952328101367,-2.5947805516096385,-0.05577245651902976,2.5078630896471097,0.8763222419338066,-0.6090851748156966,-0.05753196718556838,-0.666603097082616,-2.5945565370258534,-0.05562143941554,2.507976027223799,0.8763108487046415,0.0007429263731840974,0.00012175908961683801,0.00020406534893922766,-0.00045063136950682065,0.00014123036352046305,-0.00010141323045030669,-0.0011488262453348886,0.0,0.0,0.0,0.0,0.0,0.0,0.0,-5.1736368974597546e-05,-6.457275340342183e-06,-7.864272479340961e-06,0.00022401458378507044,0.00015101710348976172,0.00011293757668928706,-1.1393229165101992e-05,-0.0007429263731840974,-0.00012175908961683801,-0.00020406534893922766,0.00045063136950682065,-0.00014123036352046305,0.00010141323045030669,0.0011488262453348886,0.06972616910934448,18.154138565063477,-0.9180634021759033,-18.269685745239258,-0.5816550850868225,-2.3202548027038574,0.23471395671367645,0
77,0.37975287437438965,-0.018151462078094482,-18.154138565063477,0.9180634021759033,18.222078323364258,0.5944724678993225,2.3202548027038574,-0.27591270208358765,0.0,0.0,0.0,0.0,0.0,0.0,0.0,-0.049889694636239,0.5055235175555284,0.10956854010045165,0.6273061473045458,0.15983088818783786,0.13687853858941051,-0.26615939182390624,-0.6090371387717528,-0.05752637707041958,-0.6665951538421055,-2.5947791180861626,-0.055773525804503815,2.507863206098544,0.8763268195721837,-0.6090851748156966,-0.05753196718556838,-0.666603097082616,-2.5945565370258534,-0.05562143941554,2.507976027223799,0.8763108487046415,-0.00018249196012335426,-0.00017192142267399518,0.0008678668224610297,0.0007277182971660765,-0.00048177018896291765,0.00013414538087819713,-7.147728093555576e-05,0.0,0.0,0.0,0.0,0.0,0.0,0.0,-4.803604394376659e-05,-5.590115148799979e-06,-7.94324051045514e-06,0.00022258106030914604,0.0001520863889638152,0.00011282112525501375,-1.5970867542236533e-05,0.00018249196012335426,0.00017192142267399518,-0.0008678668224610297,-0.0007277182971660765,0.00048177018896291765,-0.00013414538087819713,7.147728093555576e-05,0.018151462078094482,18.154138565063477,-0.9180634021759033,-18.222078323364258,-0.5944724678993225,-2.3202548027038574,0.27591270208358765,0
78,0.38479185104370117,-0.018151462078094482,-18.154138565063477,0.9180634021759033,18.222078323364258,0.5944724678993225,2.3202548027038574,-0.27591270208358765,0.0,0.0,0.0,0.0,0.0,0.0,0.0,-0.049889694636239,0.5055235175555284,0.10956854010045165,0.6273061473045458,0.15983088818783786,0.13687853858941051,-0.26615939182390624,-0.6090371387717528,-0.05752637707041958,-0.6665951538421055,-2.5947791180861626,-0.055773525804503815,2.507863206098544,0.8763268195721837,-0.6090851748156966,-0.05753196718556838,-0.666603097082616,-2.5945565370258534,-0.05562143941554,2.507976027223799,0.8763108487046415,-0.00018249196012335426,-0.00017192142267399518,0.0008678668224610297,0.0007277182971660765,-0.00048177018896291765,0.00013414538087819713,-7.147728093555576e-05,0.0,0.0,0.0,0.0,0.0,0.0,0.0,-4.803604394376659e-05,-5.590115148799979e-06,-7.94324051045514e-06,0.00022258106030914604,0.0001520863889638152,0.00011282112525501375,-1.5970867542236533e-05,0.00018249196012335426,0.00017192142267399518,-0.0008678668224610297,-0.0007277182971660765,0.00048177018896291765,-0.00013414538087819713,7.147728093555576e-05,0.018151462078094482,18.154138565063477,-0.9180634021759033,-18.222078323364258,-0.5944724678993225,-2.3202548027038574,0.27591270208358765,0
79,0.3897674083709717,-0.04592245817184448,-18.177942276000977,0.8942596912384033,18.245882034301758,0.5880637764930725,2.3138461112976074,-0.28232139348983765,0.0,0.0,0.0,0.0,0.0,0.0,0.0,-0.05630757670910731,0.5052484982378749,0.10178230568540655,0.6273134518026648,0.160348819080388,0.13706849609946484,-0.26807634596600216,-0.6090351899423097,-0.05752376932760166,-0.6665935623703179,-2.5947795170639325,-0.05577281810854961,2.5078607276326426,0.8763275316490067,-0.6090851748156966,-0.05753196718556838,-0.666603097082616,-2.5945565370258534,-0.05562143941554,2.507976027223799,0.8763108487046415,-0.0004004186018428109,0.0009355468588237331,0.0005939179292355779,6.427446741505686e-05,-0.00016126917605779745,0.0001516060533879643,0.00088266017232785,0.0,0.0,0.0,0.0,0.0,0.0,0.0,-4.998487338692126e-05,-8.197857966719957e-06,-9.534712298142622e-06,0.00022298003807907918,0.00015137869300960866,0.00011529959115641475,-1.6682944365187247e-05,0.0004004186018428109,-0.0009355468588237331,-0.0005939179292355779,-6.427446741505686e-05,0.00016126917605779745,-0.0001516060533879643,-0.00088266017232785,0.04592245817184448,18.177942276000977,-0.8942596912384033,-18.245882034301758,-0.5880637764930725,-2.3138461112976074,0.28232139348983765,0
