rezayati/contactInterpretation/dataset/franka_main/labeled_data/link7/a4_7.csv
index,time,tau_J0,tau_J1,tau_J2,tau_J3,tau_J4,tau_J5,tau_J6,tau_J_d0,tau_J_d1,tau_J_d2,tau_J_d3,tau_J_d4,tau_J_d5,tau_J_d6,tau_ext0,tau_ext1,tau_ext2,tau_ext3,tau_ext4,tau_ext5,tau_ext6,q0,q1,q2,q3,q4,q5,q6,q_d0,q_d1,q_d2,q_d3,q_d4,q_d5,q_d6,dq0,dq1,dq2,dq3,dq4,dq5,dq6,dq_d0,dq_d1,dq_d2,dq_d3,dq_d4,dq_d5,dq_d6,e0,e1,e2,e3,e4,e5,e6,de0,de1,de2,de3,de4,de5,de6,etau_J0,etau_J1,etau_J2,etau_J3,etau_J4,etau_J5,etau_J6,label
1,0.0,-0.22445029020309448,-11.901697158813477,1.1680023670196533,21.816438674926758,0.3143211007118225,2.5399813652038574,-0.28964561223983765,0.0,0.0,0.0,0.0,0.0,0.0,0.0,-0.17316173369693802,0.45694374751843037,-0.0007044665426404761,0.5433870172436429,-0.21349911127503213,0.13964295748097502,-0.3137730073077852,0.17308691276777366,-0.4876137941558457,-0.11130835985091693,-1.9465900392030413,0.1336227543950081,2.595395632478926,0.9452572890275506,0.1728802376190821,-0.48752024683155326,-0.11147110072896137,-1.9463801863486305,0.1336059019074957,2.595550359778934,0.9452445589611904,0.00016125584272361226,-0.00010339655805309844,-0.00019258720778651635,0.0008908789098949852,0.00017642948166714793,-5.410914251897184e-05,-0.0006209662460555476,0.0,0.0,0.0,0.0,0.0,0.0,0.0,-0.00020667514869154857,9.354732429245338e-05,-0.00016274087804443726,0.00020985285441077473,-1.6852487512403203e-05,0.00015472730000798407,-1.2730066360155945e-05,-0.00016125584272361226,0.00010339655805309844,0.00019258720778651635,-0.0008908789098949852,-0.00017642948166714793,5.410914251897184e-05,0.0006209662460555476,0.22445029020309448,11.901697158813477,-1.1680023670196533,-21.816438674926758,-0.3143211007118225,-2.5399813652038574,0.28964561223983765,0
2,0.004997968673706055,-0.17287558317184448,-11.826318740844727,1.2156097888946533,21.868013381958008,0.3143211007118225,2.5271639823913574,-0.33725303411483765,0.0,0.0,0.0,0.0,0.0,0.0,0.0,-0.1646184721013706,0.4859565735668815,0.016119828876583895,0.5279787969067723,-0.21518078653190292,0.13730686300744244,-0.31408781852110346,0.17308352801981183,-0.48761838366491994,-0.11131170083088666,-1.9465936584807277,0.1336227543950081,2.5953970566325717,0.945262218771329,0.1728802376190821,-0.48752024683155326,-0.11147110072896137,-1.9463801863486305,0.1336059019074957,2.595550359778934,0.9452445589611904,-7.40161863390555e-05,6.612611126230027e-05,-0.0007906591775859029,-0.0009333218220505659,0.00017568706202697096,0.0005402788921025941,0.0017641303906381137,0.0,0.0,0.0,0.0,0.0,0.0,0.0,-0.00020329040072972204,9.813683336667989e-05,-0.00015939989807470245,0.00021347213209721438,-1.6852487512403203e-05,0.0001533031463623047,-1.7659810138570542e-05,7.40161863390555e-05,-6.612611126230027e-05,0.0007906591775859029,0.0009333218220505659,-0.00017568706202697096,-0.0005402788921025941,-0.0017641303906381137,0.17287558317184448,11.826318740844727,-1.2156097888946533,-21.868013381958008,-0.3143211007118225,-2.5271639823913574,0.33725303411483765,0
3,0.009997844696044922,-0.17287558317184448,-11.826318740844727,1.2156097888946533,21.868013381958008,0.3143211007118225,2.5271639823913574,-0.33725303411483765,0.0,0.0,0.0,0.0,0.0,0.0,0.0,-0.1646184721013706,0.4859565735668815,0.016119828876583895,0.5279787969067723,-0.21518078653190292,0.13730686300744244,-0.31408781852110346,0.17308352801981183,-0.48761838366491994,-0.11131170083088666,-1.9465936584807277,0.1336227543950081,2.5953970566325717,0.945262218771329,0.1728802376190821,-0.48752024683155326,-0.11147110072896137,-1.9463801863486305,0.1336059019074957,2.595550359778934,0.9452445589611904,-7.40161863390555e-05,6.612611126230027e-05,-0.0007906591775859029,-0.0009333218220505659,0.00017568706202697096,0.0005402788921025941,0.0017641303906381137,0.0,0.0,0.0,0.0,0.0,0.0,0.0,-0.00020329040072972204,9.813683336667989e-05,-0.00015939989807470245,0.00021347213209721438,-1.6852487512403203e-05,0.0001533031463623047,-1.7659810138570542e-05,7.40161863390555e-05,-6.612611126230027e-05,0.0007906591775859029,0.0009333218220505659,-0.00017568706202697096,-0.0005402788921025941,-0.0017641303906381137,0.17287558317184448,11.826318740844727,-1.2156097888946533,-21.868013381958008,-0.3143211007118225,-2.5271639823913574,0.33725303411483765,0
4,0.014995813369750977,-0.14510458707809448,-11.774744033813477,1.1918060779571533,21.792634963989258,0.3198142647743225,2.5335726737976074,-0.29605430364608765,0.0,0.0,0.0,0.0,0.0,0.0,0.0,-0.170904257049906,0.4888719154355779,0.004427631390404427,0.5301049767543572,-0.21484199417442698,0.13757352740407386,-0.31325114467343124,0.17308133567935613,-0.4876241204131157,-0.1113100302867728,-1.9465883422762327,0.13362214452947643,2.595396344555749,0.9452575183546883,0.1728802376190821,-0.48752024683155326,-0.11147110072896137,-1.9463801863486305,0.1336059019074957,2.595550359778934,0.9452445589611904,-0.0001380572453595112,0.00029557335351325495,-0.00022427850335328783,0.0004637543086397573,1.698438519580484e-05,-3.440901520179883e-05,0.00017630531476521956,0.0,0.0,0.0,0.0,0.0,0.0,0.0,-0.00020109806027401866,0.00010387358156244142,-0.0001610704421885628,0.0002081559276021494,-1.6242621980744332e-05,0.00015401522318514438,-1.295939349788e-05,0.0001380572453595112,-0.00029557335351325495,0.00022427850335328783,-0.0004637543086397573,-1.698438519580484e-05,3.440901520179883e-05,-0.00017630531476521956,0.14510458707809448,11.774744033813477,-1.1918060779571533,-21.792634963989258,-0.3198142647743225,-2.5335726737976074,0.29605430364608765,0
5,0.019994735717773438,-0.14510458707809448,-11.774744033813477,1.1918060779571533,21.792634963989258,0.3198142647743225,2.5335726737976074,-0.29605430364608765,0.0,0.0,0.0,0.0,0.0,0.0,0.0,-0.170904257049906,0.4888719154355779,0.004427631390404427,0.5301049767543572,-0.21484199417442698,0.13757352740407386,-0.31325114467343124,0.17308133567935613,-0.4876241204131157,-0.1113100302867728,-1.9465883422762327,0.13362214452947643,2.595396344555749,0.9452575183546883,0.1728802376190821,-0.48752024683155326,-0.11147110072896137,-1.9463801863486305,0.1336059019074957,2.595550359778934,0.9452445589611904,-0.0001380572453595112,0.00029557335351325495,-0.00022427850335328783,0.0004637543086397573,1.698438519580484e-05,-3.440901520179883e-05,0.00017630531476521956,0.0,0.0,0.0,0.0,0.0,0.0,0.0,-0.00020109806027401866,0.00010387358156244142,-0.0001610704421885628,0.0002081559276021494,-1.6242621980744332e-05,0.00015401522318514438,-1.295939349788e-05,0.0001380572453595112,-0.00029557335351325495,0.00022427850335328783,-0.0004637543086397573,-1.698438519580484e-05,3.440901520179883e-05,-0.00017630531476521956,0.14510458707809448,11.774744033813477,-1.1918060779571533,-21.792634963989258,-0.3198142647743225,-2.5335726737976074,0.29605430364608765,0
6,0.024996280670166016,-0.17287558317184448,-11.802515029907227,1.1680023670196533,21.840242385864258,0.3262229561805725,2.5335726737976074,-0.27591270208358765,0.0,0.0,0.0,0.0,0.0,0.0,0.0,-0.17739809186596556,0.470424582404316,-0.008695934253948939,0.5489965146286163,-0.2137846216267671,0.14020478402971526,-0.31272109593555947,0.17308352216013678,-0.487620754101226,-0.11130907013960051,-1.946591709638747,0.1336214319666254,2.595396344555749,0.945255240171263,0.1728802376190821,-0.48752024683155326,-0.11147110072896137,-1.9463801863486305,0.1336059019074957,2.595550359778934,0.9452445589611904,-0.0005491229631348429,0.0006366989032480704,0.00027150844815843306,-0.0002593196339609894,-0.000379720475621966,0.00011477046402282926,-0.0011718985813556116,0.0,0.0,0.0,0.0,0.0,0.0,0.0,-0.0002032845410546713,0.00010050726967275603,-0.00016203058936085923,0.00021152329011653315,-1.5530059129714724e-05,0.00015401522318514438,-1.0681210072527314e-05,0.0005491229631348429,-0.0006366989032480704,-0.00027150844815843306,0.0002593196339609894,0.000379720475621966,-0.00011477046402282926,0.0011718985813556116,0.17287558317184448,11.802515029907227,-1.1680023670196533,-21.840242385864258,-0.3262229561805725,-2.5335726737976074,0.27591270208358765,0
7,0.029997825622558594,-0.17287558317184448,-11.802515029907227,1.1680023670196533,21.840242385864258,0.3262229561805725,2.5335726737976074,-0.27591270208358765,0.0,0.0,0.0,0.0,0.0,0.0,0.0,-0.17739809186596556,0.470424582404316,-0.008695934253948939,0.5489965146286163,-0.2137846216267671,0.14020478402971526,-0.31272109593555947,0.17308352216013678,-0.487620754101226,-0.11130907013960051,-1.946591709638747,0.1336214319666254,2.595396344555749,0.945255240171263,0.1728802376190821,-0.48752024683155326,-0.11147110072896137,-1.9463801863486305,0.1336059019074957,2.595550359778934,0.9452445589611904,-0.0005491229631348429,0.0006366989032480704,0.00027150844815843306,-0.0002593196339609894,-0.000379720475621966,0.00011477046402282926,-0.0011718985813556116,0.0,0.0,0.0,0.0,0.0,0.0,0.0,-0.0002032845410546713,0.00010050726967275603,-0.00016203058936085923,0.00021152329011653315,-1.5530059129714724e-05,0.00015401522318514438,-1.0681210072527314e-05,0.0005491229631348429,-0.0006366989032480704,-0.00027150844815843306,0.0002593196339609894,0.000379720475621966,-0.00011477046402282926,0.0011718985813556116,0.17287558317184448,11.802515029907227,-1.1680023670196533,-21.840242385864258,-0.3262229561805725,-2.5335726737976074,0.27591270208358765,0
8,0.03499484062194824,-0.14510458707809448,-11.826318740844727,1.2156097888946533,21.792634963989258,0.3079124093055725,2.5399813652038574,-0.32352012395858765,0.0,0.0,0.0,0.0,0.0,0.0,0.0,-0.16816179387586844,0.4771936068912602,0.010903972323453633,0.5512844840742189,-0.21508051590512808,0.1399261236484529,-0.31353099646419713,0.17308158178354907,-0.4876205009593694,-0.11131170072663706,-1.9465883687671859,0.13362346647183102,2.595395632478926,0.9452608965076342,0.1728802376190821,-0.48752024683155326,-0.11147110072896137,-1.9463801863486305,0.1336059019074957,2.595550359778934,0.9452445589611904,-0.000698174235079297,-0.00017433921625098793,0.00034249820814897587,0.0011808045717473991,0.0004270363903491825,-6.723435990801403e-06,0.0008618946072501368,0.0,0.0,0.0,0.0,0.0,0.0,0.0,-0.00020134416446696002,0.00010025412781611287,-0.0001594000023243114,0.00020818241855535824,-1.756456433532616e-05,0.00015472730000798407,-1.6337546443812023e-05,0.000698174235079297,0.00017433921625098793,-0.00034249820814897587,-0.0011808045717473991,-0.0004270363903491825,6.723435990801403e-06,-0.0008618946072501368,0.14510458707809448,11.826318740844727,-1.2156097888946533,-21.792634963989258,-0.3079124093055725,-2.5399813652038574,0.32352012395858765,0
9,0.039998531341552734,-0.14510458707809448,-11.826318740844727,1.2156097888946533,21.792634963989258,0.3079124093055725,2.5399813652038574,-0.32352012395858765,0.0,0.0,0.0,0.0,0.0,0.0,0.0,-0.16816179387586844,0.4771936068912602,0.010903972323453633,0.5512844840742189,-0.21508051590512808,0.1399261236484529,-0.31353099646419713,0.17308158178354907,-0.4876205009593694,-0.11131170072663706,-1.9465883687671859,0.13362346647183102,2.595395632478926,0.9452608965076342,0.1728802376190821,-0.48752024683155326,-0.11147110072896137,-1.9463801863486305,0.1336059019074957,2.595550359778934,0.9452445589611904,-0.000698174235079297,-0.00017433921625098793,0.00034249820814897587,0.0011808045717473991,0.0004270363903491825,-6.723435990801403e-06,0.0008618946072501368,0.0,0.0,0.0,0.0,0.0,0.0,0.0,-0.00020134416446696002,0.00010025412781611287,-0.0001594000023243114,0.00020818241855535824,-1.756456433532616e-05,0.00015472730000798407,-1.6337546443812023e-05,0.000698174235079297,0.00017433921625098793,-0.00034249820814897587,-0.0011808045717473991,-0.0004270363903491825,6.723435990801403e-06,-0.0008618946072501368,0.14510458707809448,11.826318740844727,-1.2156097888946533,-21.792634963989258,-0.3079124093055725,-2.5399813652038574,0.32352012395858765,0
10,0.04499316215515137,-0.17287558317184448,-11.873926162719727,1.2671844959259033,21.840242385864258,0.3143211007118225,2.5335726737976074,-0.28964561223983765,0.0,0.0,0.0,0.0,0.0,0.0,0.0,-0.16804869973259115,0.49046440312976053,0.012483580843613565,0.5443301264967483,-0.21529043698359007,0.13913919138370195,-0.31386564962709396,0.1730832936361733,-0.48761527026365303,-0.11131532000031388,-1.9465916301660369,0.1336227543950081,2.595396344555749,0.9452568916993176,0.1728802376190821,-0.48752024683155326,-0.11147110072896137,-1.9463801863486305,0.1336059019074957,2.595550359778934,0.9452445589611904,0.0006097565275813189,0.00055002500499466,-0.00035892823650248925,9.609953125614375e-05,0.00026351243905037037,0.00020901069972353005,-0.0004784704215862371,0.0,0.0,0.0,0.0,0.0,0.0,0.0,-0.00020305601709119658,9.502343209977226e-05,-0.00015578072864748382,0.00021144381740634266,-1.6852487512403203e-05,0.00015401522318514438,-1.2332738127174281e-05,-0.0006097565275813189,-0.00055002500499466,0.00035892823650248925,-9.609953125614375e-05,-0.00026351243905037037,-0.00020901069972353005,0.0004784704215862371,0.17287558317184448,11.873926162719727,-1.2671844959259033,-21.840242385864258,-0.3143211007118225,-2.5335726737976074,0.28964561223983765,0
11,0.04999399185180664,-0.17287558317184448,-11.873926162719727,1.2671844959259033,21.840242385864258,0.3143211007118225,2.5335726737976074,-0.28964561223983765,0.0,0.0,0.0,0.0,0.0,0.0,0.0,-0.16804869973259115,0.49046440312976053,0.012483580843613565,0.5443301264967483,-0.21529043698359007,0.13913919138370195,-0.31386564962709396,0.1730832936361733,-0.48761527026365303,-0.11131532000031388,-1.9465916301660369,0.1336227543950081,2.595396344555749,0.9452568916993176,0.1728802376190821,-0.48752024683155326,-0.11147110072896137,-1.9463801863486305,0.1336059019074957,2.595550359778934,0.9452445589611904,0.0006097565275813189,0.00055002500499466,-0.00035892823650248925,9.609953125614375e-05,0.00026351243905037037,0.00020901069972353005,-0.0004784704215862371,0.0,0.0,0.0,0.0,0.0,0.0,0.0,-0.00020305601709119658,9.502343209977226e-05,-0.00015578072864748382,0.00021144381740634266,-1.6852487512403203e-05,0.00015401522318514438,-1.2332738127174281e-05,-0.0006097565275813189,-0.00055002500499466,0.00035892823650248925,-9.609953125614375e-05,-0.00026351243905037037,-0.00020901069972353005,0.0004784704215862371,0.17287558317184448,11.873926162719727,-1.2671844959259033,-21.840242385864258,-0.3143211007118225,-2.5335726737976074,0.28964561223983765,0
12,0.055022239685058594,-0.14510458707809448,-11.873926162719727,1.1918060779571533,21.816438674926758,0.3143211007118225,2.5537142753601074,-0.26217979192733765,0.0,0.0,0.0,0.0,0.0,0.0,0.0,-0.1674259970902998,0.48855000257419195,0.013979316448092194,0.5409482973680286,-0.2146513828440679,0.13911727188527018,-0.3139680690093977,0.1730794110807722,-0.48761716318118803,-0.1113100302867722,-1.9465900392025928,0.1336227543950081,2.5953941066000197,0.9452573485735638,0.1728802376190821,-0.48752024683155326,-0.11147110072896137,-1.9463801863486305,0.1336059019074957,2.595550359778934,0.9452445589611904,0.0003257813212317259,0.000118383202485819,0.0011313181327667324,0.0004572519177104738,0.00014857376978593437,-0.00020275227624625523,-0.0019406268980394947,0.0,0.0,0.0,0.0,0.0,0.0,0.0,-0.00019917346169009975,9.691634963476803e-05,-0.00016107044218917344,0.00020985285396224462,-1.6852487512403203e-05,0.0001562531789143229,-1.2789612373387271e-05,-0.0003257813212317259,-0.000118383202485819,-0.0011313181327667324,-0.0004572519177104738,-0.00014857376978593437,0.00020275227624625523,0.0019406268980394947,0.14510458707809448,11.873926162719727,-1.1918060779571533,-21.816438674926758,-0.3143211007118225,-2.5537142753601074,0.26217979192733765,0
13,0.060012102127075195,-0.14510458707809448,-11.873926162719727,1.1918060779571533,21.816438674926758,0.3143211007118225,2.5537142753601074,-0.26217979192733765,0.0,0.0,0.0,0.0,0.0,0.0,0.0,-0.1674259970902998,0.48855000257419195,0.013979316448092194,0.5409482973680286,-0.2146513828440679,0.13911727188527018,-0.3139680690093977,0.1730794110807722,-0.48761716318118803,-0.1113100302867722,-1.9465900392025928,0.1336227543950081,2.5953941066000197,0.9452573485735638,0.1728802376190821,-0.48752024683155326,-0.11147110072896137,-1.9463801863486305,0.1336059019074957,2.595550359778934,0.9452445589611904,0.0003257813212317259,0.000118383202485819,0.0011313181327667324,0.0004572519177104738,0.00014857376978593437,-0.00020275227624625523,-0.0019406268980394947,0.0,0.0,0.0,0.0,0.0,0.0,0.0,-0.00019917346169009975,9.691634963476803e-05,-0.00016107044218917344,0.00020985285396224462,-1.6852487512403203e-05,0.0001562531789143229,-1.2789612373387271e-05,-0.0003257813212317259,-0.000118383202485819,-0.0011313181327667324,-0.0004572519177104738,-0.00014857376978593437,0.00020275227624625523,0.0019406268980394947,0.14510458707809448,11.873926162719727,-1.1918060779571533,-21.816438674926758,-0.3143211007118225,-2.5537142753601074,0.26217979192733765,0
14,0.06494569778442383,-0.14510458707809448,-11.873926162719727,1.1918060779571533,21.816438674926758,0.3143211007118225,2.5537142753601074,-0.26217979192733765,0.0,0.0,0.0,0.0,0.0,0.0,0.0,-0.1674259970902998,0.48855000257419195,0.013979316448092194,0.5409482973680286,-0.2146513828440679,0.13911727188527018,-0.3139680690093977,0.1730794110807722,-0.48761716318118803,-0.1113100302867722,-1.9465900392025928,0.1336227543950081,2.5953941066000197,0.9452573485735638,0.1728802376190821,-0.48752024683155326,-0.11147110072896137,-1.9463801863486305,0.1336059019074957,2.595550359778934,0.9452445589611904,0.0003257813212317259,0.000118383202485819,0.0011313181327667324,0.0004572519177104738,0.00014857376978593437,-0.00020275227624625523,-0.0019406268980394947,0.0,0.0,0.0,0.0,0.0,0.0,0.0,-0.00019917346169009975,9.691634963476803e-05,-0.00016107044218917344,0.00020985285396224462,-1.6852487512403203e-05,0.0001562531789143229,-1.2789612373387271e-05,-0.0003257813212317259,-0.000118383202485819,-0.0011313181327667324,-0.0004572519177104738,-0.00014857376978593437,0.00020275227624625523,0.0019406268980394947,0.14510458707809448,11.873926162719727,-1.1918060779571533,-21.816438674926758,-0.3143211007118225,-2.5537142753601074,0.26217979192733765,0
15,0.06999993324279785,-0.17287558317184448,-11.873926162719727,1.2671844959259033,21.816438674926758,0.3079124093055725,2.5463900566101074,-0.34457725286483765,0.0,0.0,0.0,0.0,0.0,0.0,0.0,-0.16340499355595883,0.4960898327425696,0.015069488982036328,0.534032729164213,-0.21453198652268746,0.1390758503948279,-0.3138995461459298,0.1730827124359855,-0.48761511278967073,-0.11131532129942438,-1.9465900392030413,0.1336231110515418,2.595394920402103,0.9452672140472319,0.1728802376190821,-0.48752024683155326,-0.11147110072896137,-1.9463801863486305,0.1336059019074957,2.595550359778934,0.9452445589611904,0.00039062756661929846,0.0011031866006354603,-0.0009701702425900169,0.00047276165812653963,0.0003326688752317445,-0.00034980124815732277,0.0012419684689293031,0.0,0.0,0.0,0.0,0.0,0.0,0.0,-0.0002024748169033863,9.486595811747378e-05,-0.0001557794295369841,0.00020985285441077473,-1.7209144046098634e-05,0.00015543937683082376,-2.2655086041489803e-05,-0.00039062756661929846,-0.0011031866006354603,0.0009701702425900169,-0.00047276165812653963,-0.0003326688752317445,0.00034980124815732277,-0.0012419684689293031,0.17287558317184448,11.873926162719727,-1.2671844959259033,-21.816438674926758,-0.3079124093055725,-2.5463900566101074,0.34457725286483765,0
16,0.07499980926513672,-0.17287558317184448,-11.873926162719727,1.2671844959259033,21.816438674926758,0.3079124093055725,2.5463900566101074,-0.34457725286483765,0.0,0.0,0.0,0.0,0.0,0.0,0.0,-0.16340499355595883,0.4960898327425696,0.015069488982036328,0.534032729164213,-0.21453198652268746,0.1390758503948279,-0.3138995461459298,0.1730827124359855,-0.48761511278967073,-0.11131532129942438,-1.9465900392030413,0.1336231110515418,2.595394920402103,0.9452672140472319,0.1728802376190821,-0.48752024683155326,-0.11147110072896137,-1.9463801863486305,0.1336059019074957,2.595550359778934,0.9452445589611904,0.00039062756661929846,0.0011031866006354603,-0.0009701702425900169,0.00047276165812653963,0.0003326688752317445,-0.00034980124815732277,0.0012419684689293031,0.0,0.0,0.0,0.0,0.0,0.0,0.0,-0.0002024748169033863,9.486595811747378e-05,-0.0001557794295369841,0.00020985285441077473,-1.7209144046098634e-05,0.00015543937683082376,-2.2655086041489803e-05,-0.00039062756661929846,-0.0011031866006354603,0.0009701702425900169,-0.00047276165812653963,-0.0003326688752317445,0.00034980124815732277,-0.0012419684689293031,0.17287558317184448,11.873926162719727,-1.2671844959259033,-21.816438674926758,-0.3079124093055725,-2.5463900566101074,0.34457725286483765,0
17,0.08000397682189941,-0.17287558317184448,-11.873926162719727,1.2671844959259033,21.816438674926758,0.3079124093055725,2.5463900566101074,-0.34457725286483765,0.0,0.0,0.0,0.0,0.0,0.0,0.0,-0.16340499355595883,0.4960898327425696,0.015069488982036328,0.534032729164213,-0.21453198652268746,0.1390758503948279,-0.3138995461459298,0.1730827124359855,-0.48761511278967073,-0.11131532129942438,-1.9465900392030413,0.1336231110515418,2.595394920402103,0.9452672140472319,0.1728802376190821,-0.48752024683155326,-0.11147110072896137,-1.9463801863486305,0.1336059019074957,2.595550359778934,0.9452445589611904,0.00039062756661929846,0.0011031866006354603,-0.0009701702425900169,0.00047276165812653963,0.0003326688752317445,-0.00034980124815732277,0.0012419684689293031,0.0,0.0,0.0,0.0,0.0,0.0,0.0,-0.0002024748169033863,9.486595811747378e-05,-0.0001557794295369841,0.00020985285441077473,-1.7209144046098634e-05,0.00015543937683082376,-2.2655086041489803e-05,-0.00039062756661929846,-0.0011031866006354603,0.0009701702425900169,-0.00047276165812653963,-0.0003326688752317445,0.00034980124815732277,-0.0012419684689293031,0.17287558317184448,11.873926162719727,-1.2671844959259033,-21.816438674926758,-0.3079124093055725,-2.5463900566101074,0.34457725286483765,0
18,0.08500003814697266,-0.17287558317184448,-11.873926162719727,1.2671844959259033,21.816438674926758,0.3079124093055725,2.5463900566101074,-0.34457725286483765,0.0,0.0,0.0,0.0,0.0,0.0,0.0,-0.16340499355595883,0.4960898327425696,0.015069488982036328,0.534032729164213,-0.21453198652268746,0.1390758503948279,-0.3138995461459298,0.1730827124359855,-0.48761511278967073,-0.11131532129942438,-1.9465900392030413,0.1336231110515418,2.595394920402103,0.9452672140472319,0.1728802376190821,-0.48752024683155326,-0.11147110072896137,-1.9463801863486305,0.1336059019074957,2.595550359778934,0.9452445589611904,0.00039062756661929846,0.0011031866006354603,-0.0009701702425900169,0.00047276165812653963,0.0003326688752317445,-0.00034980124815732277,0.0012419684689293031,0.0,0.0,0.0,0.0,0.0,0.0,0.0,-0.0002024748169033863,9.486595811747378e-05,-0.0001557794295369841,0.00020985285441077473,-1.7209144046098634e-05,0.00015543937683082376,-2.2655086041489803e-05,-0.00039062756661929846,-0.0011031866006354603,0.0009701702425900169,-0.00047276165812653963,-0.0003326688752317445,0.00034980124815732277,-0.0012419684689293031,0.17287558317184448,11.873926162719727,-1.2671844959259033,-21.816438674926758,-0.3079124093055725,-2.5463900566101074,0.34457725286483765,0
19,0.08999824523925781,-0.19667929410934448,-11.850122451782227,1.1680023670196533,21.840242385864258,0.3198142647743225,2.5463900566101074,-0.30337852239608765,0.0,0.0,0.0,0.0,0.0,0.0,0.0,-0.1685282660484203,0.4771079463836827,0.006113742640700592,0.5424302222690057,-0.21447790324900323,0.14082448731850472,-0.31450154556643783,0.1730844891122964,-0.48761670447695155,-0.11130835985092426,-1.9465914712203174,0.13362214398726754,2.595394920402103,0.9452586554311085,0.1728802376190821,-0.48752024683155326,-0.11147110072896137,-1.9463801863486305,0.1336059019074957,2.595550359778934,0.9452445589611904,3.50367170088764e-05,1.9156700953587147e-05,0.0006583525168695769,-0.00024277960366144932,-3.3021738171803775e-06,-0.0003291362782567653,-0.00024252245222986578,0.0,0.0,0.0,0.0,0.0,0.0,0.0,-0.00020425149321429137,9.645764539828461e-05,-0.0001627408780371098,0.0002112848716868676,-1.6242079771855433e-05,0.00015543937683082376,-1.4096469918123411e-05,-3.50367170088764e-05,-1.9156700953587147e-05,-0.0006583525168695769,0.00024277960366144932,3.3021738171803775e-06,0.0003291362782567653,0.00024252245222986578,0.19667929410934448,11.850122451782227,-1.1680023670196533,-21.840242385864258,-0.3198142647743225,-2.5463900566101074,0.30337852239608765,0
20,0.09500360488891602,-0.19667929410934448,-11.850122451782227,1.1680023670196533,21.840242385864258,0.3198142647743225,2.5463900566101074,-0.30337852239608765,0.0,0.0,0.0,0.0,0.0,0.0,0.0,-0.1685282660484203,0.4771079463836827,0.006113742640700592,0.5424302222690057,-0.21447790324900323,0.14082448731850472,-0.31450154556643783,0.1730844891122964,-0.48761670447695155,-0.11130835985092426,-1.9465914712203174,0.13362214398726754,2.595394920402103,0.9452586554311085,0.1728802376190821,-0.48752024683155326,-0.11147110072896137,-1.9463801863486305,0.1336059019074957,2.595550359778934,0.9452445589611904,3.50367170088764e-05,1.9156700953587147e-05,0.0006583525168695769,-0.00024277960366144932,-3.3021738171803775e-06,-0.0003291362782567653,-0.00024252245222986578,0.0,0.0,0.0,0.0,0.0,0.0,0.0,-0.00020425149321429137,9.645764539828461e-05,-0.0001627408780371098,0.0002112848716868676,-1.6242079771855433e-05,0.00015543937683082376,-1.4096469918123411e-05,-3.50367170088764e-05,-1.9156700953587147e-05,-0.0006583525168695769,0.00024277960366144932,3.3021738171803775e-06,0.0003291362782567653,0.00024252245222986578,0.19667929410934448,11.850122451782227,-1.1680023670196533,-21.840242385864258,-0.3198142647743225,-2.5463900566101074,0.30337852239608765,0
21,0.10000467300415039,-0.19667929410934448,-11.873926162719727,1.1918060779571533,21.816438674926758,0.3198142647743225,2.5399813652038574,-0.30978721380233765,0.0,0.0,0.0,0.0,0.0,0.0,0.0,-0.1628949401337464,0.4659596595794579,0.019301658374217087,0.5453175949373902,-0.21529178140475425,0.14069285112091076,-0.31432412477796956,0.17308445395514954,-0.48761503404065176,-0.11131003071980904,-1.9465900390926794,0.13362214404344525,2.595395632478926,0.9452602248338078,0.1728802376190821,-0.48752024683155326,-0.11147110072896137,-1.9463801863486305,0.1336059019074957,2.595550359778934,0.9452445589611904,0.0005606965562186235,-0.00042838954779731515,0.00010464242073084385,0.00046392206505236174,3.179608127567032e-05,-0.00010340916127804559,0.00022771476249756493,0.0,0.0,0.0,0.0,0.0,0.0,0.0,-0.00020421633606743095,9.478720909850136e-05,-0.00016107000915233094,0.00020985274404883292,-1.6242135949556813e-05,0.00015472730000798407,-1.5665872617365295e-05,-0.0005606965562186235,0.00042838954779731515,-0.00010464242073084385,-0.00046392206505236174,-3.179608127567032e-05,0.00010340916127804559,-0.00022771476249756493,0.19667929410934448,11.873926162719727,-1.1918060779571533,-21.816438674926758,-0.3198142647743225,-2.5399813652038574,0.30978721380233765,0
22,0.10500025749206543,-0.19667929410934448,-11.873926162719727,1.1918060779571533,21.816438674926758,0.3198142647743225,2.5399813652038574,-0.30978721380233765,0.0,0.0,0.0,0.0,0.0,0.0,0.0,-0.1628949401337464,0.4659596595794579,0.019301658374217087,0.5453175949373902,-0.21529178140475425,0.14069285112091076,-0.31432412477796956,0.17308445395514954,-0.48761503404065176,-0.11131003071980904,-1.9465900390926794,0.13362214404344525,2.595395632478926,0.9452602248338078,0.1728802376190821,-0.48752024683155326,-0.11147110072896137,-1.9463801863486305,0.1336059019074957,2.595550359778934,0.9452445589611904,0.0005606965562186235,-0.00042838954779731515,0.00010464242073084385,0.00046392206505236174,3.179608127567032e-05,-0.00010340916127804559,0.00022771476249756493,0.0,0.0,0.0,0.0,0.0,0.0,0.0,-0.00020421633606743095,9.478720909850136e-05,-0.00016107000915233094,0.00020985274404883292,-1.6242135949556813e-05,0.00015472730000798407,-1.5665872617365295e-05,-0.0005606965562186235,0.00042838954779731515,-0.00010464242073084385,-0.00046392206505236174,-3.179608127567032e-05,0.00010340916127804559,-0.00022771476249756493,0.19667929410934448,11.873926162719727,-1.1918060779571533,-21.816438674926758,-0.3198142647743225,-2.5399813652038574,0.30978721380233765,0
23,0.10999751091003418,-0.17287558317184448,-11.901697158813477,1.1918060779571533,21.816438674926758,0.3198142647743225,2.5399813652038574,-0.33084434270858765,0.0,0.0,0.0,0.0,0.0,0.0,0.0,-0.16885958977435805,0.46731296999555333,0.011898939976334866,0.5413652933242957,-0.21501089867245762,0.14056892528135842,-0.31414184899825925,0.17308328484251922,-0.48761379383181963,-0.11131003061155227,-1.9465900392030409,0.13362214404344555,2.595395632478926,0.9452614694512205,0.1728802376190821,-0.48752024683155326,-0.11147110072896137,-1.9463801863486305,0.1336059019074957,2.595550359778934,0.9452445589611904,-4.242470386846298e-05,0.00030153016632443247,7.136643827338122e-05,0.0007550826190435485,2.008936486761036e-05,0.00011923682903649265,0.0013967654594360028,0.0,0.0,0.0,0.0,0.0,0.0,0.0,-0.0002030472234371139,9.354700026636964e-05,-0.0001610701174090956,0.00020985285441033064,-1.6242135949862124e-05,0.00015472730000798407,-1.6910490030053182e-05,4.242470386846298e-05,-0.00030153016632443247,-7.136643827338122e-05,-0.0007550826190435485,-2.008936486761036e-05,-0.00011923682903649265,-0.0013967654594360028,0.17287558317184448,11.901697158813477,-1.1918060779571533,-21.816438674926758,-0.3198142647743225,-2.5399813652038574,0.33084434270858765,0
24,0.11499786376953125,-0.17287558317184448,-11.901697158813477,1.1918060779571533,21.816438674926758,0.3198142647743225,2.5399813652038574,-0.33084434270858765,0.0,0.0,0.0,0.0,0.0,0.0,0.0,-0.16885958977435805,0.46731296999555333,0.011898939976334866,0.5413652933242957,-0.21501089867245762,0.14056892528135842,-0.31414184899825925,0.17308328484251922,-0.48761379383181963,-0.11131003061155227,-1.9465900392030409,0.13362214404344555,2.595395632478926,0.9452614694512205,0.1728802376190821,-0.48752024683155326,-0.11147110072896137,-1.9463801863486305,0.1336059019074957,2.595550359778934,0.9452445589611904,-4.242470386846298e-05,0.00030153016632443247,7.136643827338122e-05,0.0007550826190435485,2.008936486761036e-05,0.00011923682903649265,0.0013967654594360028,0.0,0.0,0.0,0.0,0.0,0.0,0.0,-0.0002030472234371139,9.354700026636964e-05,-0.0001610701174090956,0.00020985285441033064,-1.6242135949862124e-05,0.00015472730000798407,-1.6910490030053182e-05,4.242470386846298e-05,-0.00030153016632443247,-7.136643827338122e-05,-0.0007550826190435485,-2.008936486761036e-05,-0.00011923682903649265,-0.0013967654594360028,0.17287558317184448,11.901697158813477,-1.1918060779571533,-21.816438674926758,-0.3198142647743225,-2.5399813652038574,0.33084434270858765,0
25,0.11999821662902832,-0.17287558317184448,-11.826318740844727,1.1680023670196533,21.840242385864258,0.3143211007118225,2.5463900566101074,-0.29605430364608765,0.0,0.0,0.0,0.0,0.0,0.0,0.0,-0.17332034846623406,0.48485456458502535,0.004322576576670788,0.5274649141303287,-0.21464457527719027,0.13889176336775289,-0.3135891431713331,0.17308353084106368,-0.48762050092336645,-0.11130835985091876,-1.9465917096388965,0.13362276751784138,2.595394920402103,0.945257482541961,0.1728802376190821,-0.48752024683155326,-0.11147110072896137,-1.9463801863486305,0.1336059019074957,2.595550359778934,0.9452445589611904,-0.0003268792700511231,-0.00030884946536660163,0.0002830736308564115,-0.0002687664885371077,0.0001819178513494379,-0.00020980821067547912,-3.9099796461484316e-05,0.0,0.0,0.0,0.0,0.0,0.0,0.0,-0.0002032932219815653,0.00010025409181319,-0.0001627408780426054,0.00021152329026596917,-1.6865610345695448e-05,0.00015543937683082376,-1.2923580770540788e-05,0.0003268792700511231,0.00030884946536660163,-0.0002830736308564115,0.0002687664885371077,-0.0001819178513494379,0.00020980821067547912,3.9099796461484316e-05,0.17287558317184448,11.826318740844727,-1.1680023670196533,-21.840242385864258,-0.3143211007118225,-2.5463900566101074,0.29605430364608765,0
26,0.12499690055847168,-0.17287558317184448,-11.826318740844727,1.1680023670196533,21.840242385864258,0.3143211007118225,2.5463900566101074,-0.29605430364608765,0.0,0.0,0.0,0.0,0.0,0.0,0.0,-0.17332034846623406,0.48485456458502535,0.004322576576670788,0.5274649141303287,-0.21464457527719027,0.13889176336775289,-0.3135891431713331,0.17308353084106368,-0.48762050092336645,-0.11130835985091876,-1.9465917096388965,0.13362276751784138,2.595394920402103,0.945257482541961,0.1728802376190821,-0.48752024683155326,-0.11147110072896137,-1.9463801863486305,0.1336059019074957,2.595550359778934,0.9452445589611904,-0.0003268792700511231,-0.00030884946536660163,0.0002830736308564115,-0.0002687664885371077,0.0001819178513494379,-0.00020980821067547912,-3.9099796461484316e-05,0.0,0.0,0.0,0.0,0.0,0.0,0.0,-0.0002032932219815653,0.00010025409181319,-0.0001627408780426054,0.00021152329026596917,-1.6865610345695448e-05,0.00015543937683082376,-1.2923580770540788e-05,0.0003268792700511231,0.00030884946536660163,-0.0002830736308564115,0.0002687664885371077,-0.0001819178513494379,0.00020980821067547912,3.9099796461484316e-05,0.17287558317184448,11.826318740844727,-1.1680023670196533,-21.840242385864258,-0.3143211007118225,-2.5463900566101074,0.29605430364608765,0
27,0.12999653816223145,-0.17287558317184448,-11.774744033813477,1.1918060779571533,21.816438674926758,0.3198142647743225,2.5399813652038574,-0.28232139348983765,0.0,0.0,0.0,0.0,0.0,0.0,0.0,-0.16707033154609155,0.4859363050838655,0.011672196193031482,0.527730464636274,-0.21472374099025496,0.1389935328474041,-0.3140032181748252,0.17308353062542922,-0.4876219942020501,-0.1113100302867722,-1.9465900392030413,0.13362214404351963,2.5953956368395765,0.9452559582074398,0.1728802376190821,-0.48752024683155326,-0.11147110072896137,-1.9463801863486305,0.1336059019074957,2.595550359778934,0.9452445589611904,-8.30919220968074e-05,-0.0007851997886826283,7.5418943163657e-05,-5.571528394518201e-05,6.540898643858753e-06,-0.0002633761249446367,-0.0012173978926463438,0.0,0.0,0.0,0.0,0.0,0.0,0.0,-0.00020329300634711056,0.0001017473704968408,-0.00016107044218917344,0.00020985285441077473,-1.6242136023941756e-05,0.00015472293935747672,-1.139924624937727e-05,8.30919220968074e-05,0.0007851997886826283,-7.5418943163657e-05,5.571528394518201e-05,-6.540898643858753e-06,0.0002633761249446367,0.0012173978926463438,0.17287558317184448,11.774744033813477,-1.1918060779571533,-21.816438674926758,-0.3198142647743225,-2.5399813652038574,0.28232139348983765,0
28,0.13499879837036133,-0.17287558317184448,-11.774744033813477,1.1918060779571533,21.816438674926758,0.3198142647743225,2.5399813652038574,-0.28232139348983765,0.0,0.0,0.0,0.0,0.0,0.0,0.0,-0.16707033154609155,0.4859363050838655,0.011672196193031482,0.527730464636274,-0.21472374099025496,0.1389935328474041,-0.3140032181748252,0.17308353062542922,-0.4876219942020501,-0.1113100302867722,-1.9465900392030413,0.13362214404351963,2.5953956368395765,0.9452559582074398,0.1728802376190821,-0.48752024683155326,-0.11147110072896137,-1.9463801863486305,0.1336059019074957,2.595550359778934,0.9452445589611904,-8.30919220968074e-05,-0.0007851997886826283,7.5418943163657e-05,-5.571528394518201e-05,6.540898643858753e-06,-0.0002633761249446367,-0.0012173978926463438,0.0,0.0,0.0,0.0,0.0,0.0,0.0,-0.00020329300634711056,0.0001017473704968408,-0.00016107044218917344,0.00020985285441077473,-1.6242136023941756e-05,0.00015472293935747672,-1.139924624937727e-05,8.30919220968074e-05,0.0007851997886826283,-7.5418943163657e-05,5.571528394518201e-05,-6.540898643858753e-06,0.0002633761249446367,0.0012173978926463438,0.17287558317184448,11.774744033813477,-1.1918060779571533,-21.816438674926758,-0.3198142647743225,-2.5399813652038574,0.28232139348983765,0
29,0.14023160934448242,-0.19667929410934448,-11.826318740844727,1.2156097888946533,21.840242385864258,0.3143211007118225,2.5335726737976074,-0.29605430364608765,0.0,0.0,0.0,0.0,0.0,0.0,0.0,-0.17156682245862603,0.4744862493999762,0.003607885371547165,0.538806949213488,-0.21384753409073898,0.14043339249829678,-0.3144563547931498,0.17308511935207593,-0.48762058829691485,-0.11131193748552198,-1.9465917096388965,0.1336227543950081,2.5953963445557733,0.9452575987526268,0.1728802376190821,-0.48752024683155326,-0.11147110072896137,-1.9463801863486305,0.1336059019074957,2.595550359778934,0.9452445589611904,0.0004961741539228502,0.0009626125329822192,-0.000490083291326848,3.349595597137147e-05,0.00014558741214632548,0.00015645658142360142,0.0001891573732871798,0.0,0.0,0.0,0.0,0.0,0.0,0.0,-0.0002048817329938224,0.00010034146536158639,-0.0001591632434393836,0.00021152329026596917,-1.6852487512403203e-05,0.00015401522316071947,-1.3039791436408876e-05,-0.0004961741539228502,-0.0009626125329822192,0.000490083291326848,-3.349595597137147e-05,-0.00014558741214632548,-0.00015645658142360142,-0.0001891573732871798,0.19667929410934448,11.826318740844727,-1.2156097888946533,-21.840242385864258,-0.3143211007118225,-2.5335726737976074,0.29605430364608765,0
30,0.14499592781066895,-0.19667929410934448,-11.826318740844727,1.2156097888946533,21.840242385864258,0.3143211007118225,2.5335726737976074,-0.29605430364608765,0.0,0.0,0.0,0.0,0.0,0.0,0.0,-0.17156682245862603,0.4744862493999762,0.003607885371547165,0.538806949213488,-0.21384753409073898,0.14043339249829678,-0.3144563547931498,0.17308511935207593,-0.48762058829691485,-0.11131193748552198,-1.9465917096388965,0.1336227543950081,2.5953963445557733,0.9452575987526268,0.1728802376190821,-0.48752024683155326,-0.11147110072896137,-1.9463801863486305,0.1336059019074957,2.595550359778934,0.9452445589611904,0.0004961741539228502,0.0009626125329822192,-0.000490083291326848,3.349595597137147e-05,0.00014558741214632548,0.00015645658142360142,0.0001891573732871798,0.0,0.0,0.0,0.0,0.0,0.0,0.0,-0.0002048817329938224,0.00010034146536158639,-0.0001591632434393836,0.00021152329026596917,-1.6852487512403203e-05,0.00015401522316071947,-1.3039791436408876e-05,-0.0004961741539228502,-0.0009626125329822192,0.000490083291326848,-3.349595597137147e-05,-0.00014558741214632548,-0.00015645658142360142,-0.0001891573732871798,0.19667929410934448,11.826318740844727,-1.2156097888946533,-21.840242385864258,-0.3143211007118225,-2.5335726737976074,0.29605430364608765,0
31,0.14999771118164062,-0.14510458707809448,-11.826318740844727,1.1918060779571533,21.840242385864258,0.3198142647743225,2.5335726737976074,-0.29605430364608765,0.0,0.0,0.0,0.0,0.0,0.0,0.0,-0.169622385709456,0.479100975276726,0.008288626610668242,0.5407199594885854,-0.2145273124706615,0.1399148048585155,-0.31257864609776115,0.1730815821086703,-0.48761841294327113,-0.11131003028810872,-1.9465917096388965,0.13362214404344558,2.595396344555749,0.9452576136521641,0.1728802376190821,-0.48752024683155326,-0.11147110072896137,-1.9463801863486305,0.1336059019074957,2.595550359778934,0.9452445589611904,-0.0006447546227388105,0.00015397240492373926,0.00029982680949902136,-0.0005225533681490489,-1.0092268963225404e-05,0.00020142912386796765,-0.0002862980090056889,0.0,0.0,0.0,0.0,0.0,0.0,0.0,-0.0002013444895881955,9.816611171786782e-05,-0.00016107044085264532,0.00021152329026596917,-1.624213594988988e-05,0.00015401522318514438,-1.3054690973679506e-05,0.0006447546227388105,-0.00015397240492373926,-0.00029982680949902136,0.0005225533681490489,1.0092268963225404e-05,-0.00020142912386796765,0.0002862980090056889,0.14510458707809448,11.826318740844727,-1.1918060779571533,-21.840242385864258,-0.3198142647743225,-2.5335726737976074,0.29605430364608765,0
32,0.15499615669250488,-0.14510458707809448,-11.826318740844727,1.1918060779571533,21.840242385864258,0.3198142647743225,2.5335726737976074,-0.29605430364608765,0.0,0.0,0.0,0.0,0.0,0.0,0.0,-0.169622385709456,0.479100975276726,0.008288626610668242,0.5407199594885854,-0.2145273124706615,0.1399148048585155,-0.31257864609776115,0.1730815821086703,-0.48761841294327113,-0.11131003028810872,-1.9465917096388965,0.13362214404344558,2.595396344555749,0.9452576136521641,0.1728802376190821,-0.48752024683155326,-0.11147110072896137,-1.9463801863486305,0.1336059019074957,2.595550359778934,0.9452445589611904,-0.0006447546227388105,0.00015397240492373926,0.00029982680949902136,-0.0005225533681490489,-1.0092268963225404e-05,0.00020142912386796765,-0.0002862980090056889,0.0,0.0,0.0,0.0,0.0,0.0,0.0,-0.0002013444895881955,9.816611171786782e-05,-0.00016107044085264532,0.00021152329026596917,-1.624213594988988e-05,0.00015401522318514438,-1.3054690973679506e-05,0.0006447546227388105,-0.00015397240492373926,-0.00029982680949902136,0.0005225533681490489,1.0092268963225404e-05,-0.00020142912386796765,0.0002862980090056889,0.14510458707809448,11.826318740844727,-1.1918060779571533,-21.840242385864258,-0.3198142647743225,-2.5335726737976074,0.29605430364608765,0
33,0.15999794006347656,-0.14510458707809448,-11.826318740844727,1.1918060779571533,21.868013381958008,0.3262229561805725,2.5335726737976074,-0.32352012395858765,0.0,0.0,0.0,0.0,0.0,0.0,0.0,-0.16868981109351322,0.48077735292661755,0.011161458357755817,0.5425951330580905,-0.21465013242291994,0.13988665562901273,-0.31300786698379496,0.173081344794344,-0.4876183753450338,-0.11131003028677222,-1.9465936584807277,0.13362143196662268,2.595396344555749,0.9452606506782446,0.1728802376190821,-0.48752024683155326,-0.11147110072896137,-1.9463801863486305,0.1336059019074957,2.595550359778934,0.9452445589611904,-0.000483809699970228,-0.000415554132018639,0.0006602024495874639,-0.0009162469622430726,-0.0003416314107745194,0.0002860132979412432,0.0006591374977239426,0.0,0.0,0.0,0.0,0.0,0.0,0.0,-0.00020110717526189426,9.81285134805665e-05,-0.00016107044218914568,0.00021347213209721438,-1.5530059126994677e-05,0.00015401522318514438,-1.6091717054189658e-05,0.000483809699970228,0.000415554132018639,-0.0006602024495874639,0.0009162469622430726,0.0003416314107745194,-0.0002860132979412432,-0.0006591374977239426,0.14510458707809448,11.826318740844727,-1.1918060779571533,-21.868013381958008,-0.3262229561805725,-2.5335726737976074,0.32352012395858765,0
34,0.16500163078308105,-0.14510458707809448,-11.826318740844727,1.1918060779571533,21.868013381958008,0.3262229561805725,2.5335726737976074,-0.32352012395858765,0.0,0.0,0.0,0.0,0.0,0.0,0.0,-0.16868981109351322,0.48077735292661755,0.011161458357755817,0.5425951330580905,-0.21465013242291994,0.13988665562901273,-0.31300786698379496,0.173081344794344,-0.4876183753450338,-0.11131003028677222,-1.9465936584807277,0.13362143196662268,2.595396344555749,0.9452606506782446,0.1728802376190821,-0.48752024683155326,-0.11147110072896137,-1.9463801863486305,0.1336059019074957,2.595550359778934,0.9452445589611904,-0.000483809699970228,-0.000415554132018639,0.0006602024495874639,-0.0009162469622430726,-0.0003416314107745194,0.0002860132979412432,0.0006591374977239426,0.0,0.0,0.0,0.0,0.0,0.0,0.0,-0.00020110717526189426,9.81285134805665e-05,-0.00016107044218914568,0.00021347213209721438,-1.5530059126994677e-05,0.00015401522318514438,-1.6091717054189658e-05,0.000483809699970228,0.000415554132018639,-0.0006602024495874639,0.0009162469622430726,0.0003416314107745194,-0.0002860132979412432,-0.0006591374977239426,0.14510458707809448,11.826318740844727,-1.1918060779571533,-21.868013381958008,-0.3262229561805725,-2.5335726737976074,0.32352012395858765,0
35,0.17000079154968262,-0.14510458707809448,-11.826318740844727,1.2156097888946533,21.840242385864258,0.3143211007118225,2.5463900566101074,-0.32352012395858765,0.0,0.0,0.0,0.0,0.0,0.0,0.0,-0.16316677180579361,0.48471083034268797,0.016079344073416383,0.538949891484333,-0.21491715676446568,0.13924326640218848,-0.31357141393987886,0.1730807910593889,-0.48761837491236315,-0.11131170072262746,-1.9465917096388965,0.1336227543950081,2.595394920402103,0.9452621121469249,0.1728802376190821,-0.48752024683155326,-0.11147110072896137,-1.9463801863486305,0.1336059019074957,2.595550359778934,0.9452445589611904,0.0003049180041783753,-0.0009377637796608128,0.0004949953565656563,-0.00013562004520461653,0.00015349913670118304,-0.00022330447793635872,0.0010094318829372449,0.0,0.0,0.0,0.0,0.0,0.0,0.0,-0.00020055344030678324,9.812808080988944e-05,-0.0001594000063339096,0.00021152329026596917,-1.6852487512403203e-05,0.00015543937683082376,-1.755318573448683e-05,-0.0003049180041783753,0.0009377637796608128,-0.0004949953565656563,0.00013562004520461653,-0.00015349913670118304,0.00022330447793635872,-0.0010094318829372449,0.14510458707809448,11.826318740844727,-1.2156097888946533,-21.840242385864258,-0.3143211007118225,-2.5463900566101074,0.32352012395858765,0
36,0.17553973197937012,-0.14510458707809448,-11.826318740844727,1.2156097888946533,21.840242385864258,0.3143211007118225,2.5463900566101074,-0.32352012395858765,0.0,0.0,0.0,0.0,0.0,0.0,0.0,-0.16316677180579361,0.48471083034268797,0.016079344073416383,0.538949891484333,-0.21491715676446568,0.13924326640218848,-0.31357141393987886,0.1730807910593889,-0.48761837491236315,-0.11131170072262746,-1.9465917096388965,0.1336227543950081,2.595394920402103,0.9452621121469249,0.1728802376190821,-0.48752024683155326,-0.11147110072896137,-1.9463801863486305,0.1336059019074957,2.595550359778934,0.9452445589611904,0.0003049180041783753,-0.0009377637796608128,0.0004949953565656563,-0.00013562004520461653,0.00015349913670118304,-0.00022330447793635872,0.0010094318829372449,0.0,0.0,0.0,0.0,0.0,0.0,0.0,-0.00020055344030678324,9.812808080988944e-05,-0.0001594000063339096,0.00021152329026596917,-1.6852487512403203e-05,0.00015543937683082376,-1.755318573448683e-05,-0.0003049180041783753,0.0009377637796608128,-0.0004949953565656563,0.00013562004520461653,-0.00015349913670118304,0.00022330447793635872,-0.0010094318829372449,0.14510458707809448,11.826318740844727,-1.2156097888946533,-21.840242385864258,-0.3143211007118225,-2.5463900566101074,0.32352012395858765,0
37,0.18119430541992188,-0.19667929410934448,-11.873926162719727,1.1918060779571533,21.840242385864258,0.3198142647743225,2.5399813652038574,-0.33084434270858765,0.0,0.0,0.0,0.0,0.0,0.0,0.0,-0.16405259111496764,0.48603538635318233,0.007372115526358703,0.5389641251679624,-0.2141283175996474,0.13951374063737573,-0.31389100378586765,0.1730851221327424,-0.487617169660266,-0.11131005659376048,-1.9465917096388965,0.13362214404344558,2.5953966921170553,0.9452629274476021,0.1728802376190821,-0.48752024683155326,-0.11147110072896137,-1.9463801863486305,0.1336059019074957,2.595550359778934,0.9452445589611904,0.0012998471438814853,0.00048727081687906487,0.0001055167355162461,0.0003308134396386298,0.00020784883944334522,3.6320975920415476e-05,0.0007286790502079798,0.0,0.0,0.0,0.0,0.0,0.0,0.0,-0.00020488451366029725,9.692282871276436e-05,-0.00016104413520089123,0.00021152329026596917,-1.624213594988988e-05,0.00015366766187874248,-1.836848641167954e-05,-0.0012998471438814853,-0.00048727081687906487,-0.0001055167355162461,-0.0003308134396386298,-0.00020784883944334522,-3.6320975920415476e-05,-0.0007286790502079798,0.19667929410934448,11.873926162719727,-1.1918060779571533,-21.840242385864258,-0.3198142647743225,-2.5399813652038574,0.33084434270858765,0
38,0.18500638008117676,-0.19667929410934448,-11.873926162719727,1.1918060779571533,21.840242385864258,0.3198142647743225,2.5399813652038574,-0.33084434270858765,0.0,0.0,0.0,0.0,0.0,0.0,0.0,-0.16405259111496764,0.48603538635318233,0.007372115526358703,0.5389641251679624,-0.2141283175996474,0.13951374063737573,-0.31389100378586765,0.1730851221327424,-0.487617169660266,-0.11131005659376048,-1.9465917096388965,0.13362214404344558,2.5953966921170553,0.9452629274476021,0.1728802376190821,-0.48752024683155326,-0.11147110072896137,-1.9463801863486305,0.1336059019074957,2.595550359778934,0.9452445589611904,0.0012998471438814853,0.00048727081687906487,0.0001055167355162461,0.0003308134396386298,0.00020784883944334522,3.6320975920415476e-05,0.0007286790502079798,0.0,0.0,0.0,0.0,0.0,0.0,0.0,-0.00020488451366029725,9.692282871276436e-05,-0.00016104413520089123,0.00021152329026596917,-1.624213594988988e-05,0.00015366766187874248,-1.836848641167954e-05,-0.0012998471438814853,-0.00048727081687906487,-0.0001055167355162461,-0.0003308134396386298,-0.00020784883944334522,-3.6320975920415476e-05,-0.0007286790502079798,0.19667929410934448,11.873926162719727,-1.1918060779571533,-21.840242385864258,-0.3198142647743225,-2.5399813652038574,0.33084434270858765,0
39,0.1900022029876709,-0.17287558317184448,-11.850122451782227,1.1441986560821533,21.840242385864258,0.3198142647743225,2.5335726737976074,-0.32352012395858765,0.0,0.0,0.0,0.0,0.0,0.0,0.0,-0.16295880209419672,0.48605799362592994,0.008713777652387058,0.5358482698990392,-0.21325268606425274,0.13883672622861648,-0.31531133591645705,0.17308350422080027,-0.4876169406915252,-0.11130668941511117,-1.9465916831479433,0.13362214404344558,2.5953963445577424,0.9452637884403483,0.1728802376190821,-0.48752024683155326,-0.11147110072896137,-1.9463801863486305,0.1336059019074957,2.595550359778934,0.9452445589611904,-0.00039341493210655456,-1.1069954804743872e-05,0.0012084498130032289,-0.0003982139694399718,0.00012647549565318153,0.0001994734112872188,0.00046350073185269275,0.0,0.0,0.0,0.0,0.0,0.0,0.0,-0.00020326660171815503,9.669385997196356e-05,-0.00016441131385019903,0.00021149679931276033,-1.624213594988988e-05,0.00015401522119162792,-1.922947915788953e-05,0.00039341493210655456,1.1069954804743872e-05,-0.0012084498130032289,0.0003982139694399718,-0.00012647549565318153,-0.0001994734112872188,-0.00046350073185269275,0.17287558317184448,11.850122451782227,-1.1441986560821533,-21.840242385864258,-0.3198142647743225,-2.5335726737976074,0.32352012395858765,0
40,0.19540667533874512,-0.17287558317184448,-11.850122451782227,1.1441986560821533,21.840242385864258,0.3198142647743225,2.5335726737976074,-0.32352012395858765,0.0,0.0,0.0,0.0,0.0,0.0,0.0,-0.16295880209419672,0.48605799362592994,0.008713777652387058,0.5358482698990392,-0.21325268606425274,0.13883672622861648,-0.31531133591645705,0.17308350422080027,-0.4876169406915252,-0.11130668941511117,-1.9465916831479433,0.13362214404344558,2.5953963445577424,0.9452637884403483,0.1728802376190821,-0.48752024683155326,-0.11147110072896137,-1.9463801863486305,0.1336059019074957,2.595550359778934,0.9452445589611904,-0.00039341493210655456,-1.1069954804743872e-05,0.0012084498130032289,-0.0003982139694399718,0.00012647549565318153,0.0001994734112872188,0.00046350073185269275,0.0,0.0,0.0,0.0,0.0,0.0,0.0,-0.00020326660171815503,9.669385997196356e-05,-0.00016441131385019903,0.00021149679931276033,-1.624213594988988e-05,0.00015401522119162792,-1.922947915788953e-05,0.00039341493210655456,1.1069954804743872e-05,-0.0012084498130032289,0.0003982139694399718,-0.00012647549565318153,-0.0001994734112872188,-0.00046350073185269275,0.17287558317184448,11.850122451782227,-1.1441986560821533,-21.840242385864258,-0.3198142647743225,-2.5335726737976074,0.32352012395858765,0
41,0.1999952793121338,-0.17287558317184448,-11.850122451782227,1.1918060779571533,21.840242385864258,0.3198142647743225,2.5399813652038574,-0.27591270208358765,0.0,0.0,0.0,0.0,0.0,0.0,0.0,-0.15976899797425576,0.4786193783547843,0.017054649770953546,0.5374291076181142,-0.2129049605100447,0.138281252186399,-0.31617537238678145,0.17308281607663328,-0.48761670447784045,-0.11131005659376048,-1.946591709638747,0.13362214404344558,2.595395632478926,0.9452552406308791,0.1728802376190821,-0.48752024683155326,-0.11147110072896137,-1.9463801863486305,0.1336059019074957,2.595550359778934,0.9452445589611904,0.00014664687927165148,-0.00018131259689646554,-7.57805847875726e-05,-0.0003145566606937349,1.241872447090672e-05,-6.541884546001122e-05,-0.0014545158327480677,0.0,0.0,0.0,0.0,0.0,0.0,0.0,-0.00020257845755117243,9.645764628718467e-05,-0.00016104413520089123,0.00021152329011653315,-1.624213594988988e-05,0.00015472730000798407,-1.0681669688650253e-05,-0.00014664687927165148,0.00018131259689646554,7.57805847875726e-05,0.0003145566606937349,-1.241872447090672e-05,6.541884546001122e-05,0.0014545158327480677,0.17287558317184448,11.850122451782227,-1.1918060779571533,-21.840242385864258,-0.3198142647743225,-2.5399813652038574,0.27591270208358765,0
42,0.20499897003173828,-0.17287558317184448,-11.850122451782227,1.1918060779571533,21.840242385864258,0.3198142647743225,2.5399813652038574,-0.27591270208358765,0.0,0.0,0.0,0.0,0.0,0.0,0.0,-0.15976899797425576,0.4786193783547843,0.017054649770953546,0.5374291076181142,-0.2129049605100447,0.138281252186399,-0.31617537238678145,0.17308281607663328,-0.48761670447784045,-0.11131005659376048,-1.946591709638747,0.13362214404344558,2.595395632478926,0.9452552406308791,0.1728802376190821,-0.48752024683155326,-0.11147110072896137,-1.9463801863486305,0.1336059019074957,2.595550359778934,0.9452445589611904,0.00014664687927165148,-0.00018131259689646554,-7.57805847875726e-05,-0.0003145566606937349,1.241872447090672e-05,-6.541884546001122e-05,-0.0014545158327480677,0.0,0.0,0.0,0.0,0.0,0.0,0.0,-0.00020257845755117243,9.645764628718467e-05,-0.00016104413520089123,0.00021152329011653315,-1.624213594988988e-05,0.00015472730000798407,-1.0681669688650253e-05,-0.00014664687927165148,0.00018131259689646554,7.57805847875726e-05,0.0003145566606937349,-1.241872447090672e-05,6.541884546001122e-05,0.0014545158327480677,0.17287558317184448,11.850122451782227,-1.1918060779571533,-21.840242385864258,-0.3198142647743225,-2.5399813652038574,0.27591270208358765,0
43,0.2100081443786621,-0.19667929410934448,-11.901697158813477,1.1918060779571533,21.816438674926758,0.3198142647743225,2.5399813652038574,-0.31711143255233765,0.0,0.0,0.0,0.0,0.0,0.0,0.0,-0.16938923753299612,0.46497011089363616,0.0051272632674460375,0.5415460737482907,-0.21242100735034602,0.1390297149772947,-0.31616792411558603,0.17308496406799492,-0.48761308617088234,-0.1113100302869207,-1.946590012712088,0.13362178862315635,2.595395632478926,0.9452603011387857,0.1728802376190821,-0.48752024683155326,-0.11147110072896137,-1.9463801863486305,0.1336059019074957,2.595550359778934,0.9452445589611904,-6.422264581092966e-05,0.0007122429665706386,-0.0002730160681272598,0.00038517654591364804,-7.853563019984957e-05,-2.348940374308965e-05,0.0004514063690692539,0.0,0.0,0.0,0.0,0.0,0.0,0.0,-0.000204726448912812,9.283933932907606e-05,-0.00016107044204066723,0.0002098263634575659,-1.5886715660662354e-05,0.00015472730000798407,-1.574217759525709e-05,6.422264581092966e-05,-0.0007122429665706386,0.0002730160681272598,-0.00038517654591364804,7.853563019984957e-05,2.348940374308965e-05,-0.0004514063690692539,0.19667929410934448,11.901697158813477,-1.1918060779571533,-21.816438674926758,-0.3198142647743225,-2.5399813652038574,0.31711143255233765,0
44,0.2149980068206787,-0.19667929410934448,-11.901697158813477,1.1918060779571533,21.816438674926758,0.3198142647743225,2.5399813652038574,-0.31711143255233765,0.0,0.0,0.0,0.0,0.0,0.0,0.0,-0.16938923753299612,0.46497011089363616,0.0051272632674460375,0.5415460737482907,-0.21242100735034602,0.1390297149772947,-0.31616792411558603,0.17308496406799492,-0.48761308617088234,-0.1113100302869207,-1.946590012712088,0.13362178862315635,2.595395632478926,0.9452603011387857,0.1728802376190821,-0.48752024683155326,-0.11147110072896137,-1.9463801863486305,0.1336059019074957,2.595550359778934,0.9452445589611904,-6.422264581092966e-05,0.0007122429665706386,-0.0002730160681272598,0.00038517654591364804,-7.853563019984957e-05,-2.348940374308965e-05,0.0004514063690692539,0.0,0.0,0.0,0.0,0.0,0.0,0.0,-0.000204726448912812,9.283933932907606e-05,-0.00016107044204066723,0.0002098263634575659,-1.5886715660662354e-05,0.00015472730000798407,-1.574217759525709e-05,6.422264581092966e-05,-0.0007122429665706386,0.0002730160681272598,-0.00038517654591364804,7.853563019984957e-05,2.348940374308965e-05,-0.0004514063690692539,0.19667929410934448,11.901697158813477,-1.1918060779571533,-21.816438674926758,-0.3198142647743225,-2.5399813652038574,0.31711143255233765,0
45,0.21999692916870117,-0.19667929410934448,-11.901697158813477,1.1918060779571533,21.816438674926758,0.3198142647743225,2.5399813652038574,-0.31711143255233765,0.0,0.0,0.0,0.0,0.0,0.0,0.0,-0.16938923753299612,0.46497011089363616,0.0051272632674460375,0.5415460737482907,-0.21242100735034602,0.1390297149772947,-0.31616792411558603,0.17308496406799492,-0.48761308617088234,-0.1113100302869207,-1.946590012712088,0.13362178862315635,2.595395632478926,0.9452603011387857,0.1728802376190821,-0.48752024683155326,-0.11147110072896137,-1.9463801863486305,0.1336059019074957,2.595550359778934,0.9452445589611904,-6.422264581092966e-05,0.0007122429665706386,-0.0002730160681272598,0.00038517654591364804,-7.853563019984957e-05,-2.348940374308965e-05,0.0004514063690692539,0.0,0.0,0.0,0.0,0.0,0.0,0.0,-0.000204726448912812,9.283933932907606e-05,-0.00016107044204066723,0.0002098263634575659,-1.5886715660662354e-05,0.00015472730000798407,-1.574217759525709e-05,6.422264581092966e-05,-0.0007122429665706386,0.0002730160681272598,-0.00038517654591364804,7.853563019984957e-05,2.348940374308965e-05,-0.0004514063690692539,0.19667929410934448,11.901697158813477,-1.1918060779571533,-21.816438674926758,-0.3198142647743225,-2.5399813652038574,0.31711143255233765,0
46,0.22499632835388184,-0.19667929410934448,-11.901697158813477,1.1918060779571533,21.816438674926758,0.3198142647743225,2.5399813652038574,-0.31711143255233765,0.0,0.0,0.0,0.0,0.0,0.0,0.0,-0.16938923753299612,0.46497011089363616,0.0051272632674460375,0.5415460737482907,-0.21242100735034602,0.1390297149772947,-0.31616792411558603,0.17308496406799492,-0.48761308617088234,-0.1113100302869207,-1.946590012712088,0.13362178862315635,2.595395632478926,0.9452603011387857,0.1728802376190821,-0.48752024683155326,-0.11147110072896137,-1.9463801863486305,0.1336059019074957,2.595550359778934,0.9452445589611904,-6.422264581092966e-05,0.0007122429665706386,-0.0002730160681272598,0.00038517654591364804,-7.853563019984957e-05,-2.348940374308965e-05,0.0004514063690692539,0.0,0.0,0.0,0.0,0.0,0.0,0.0,-0.000204726448912812,9.283933932907606e-05,-0.00016107044204066723,0.0002098263634575659,-1.5886715660662354e-05,0.00015472730000798407,-1.574217759525709e-05,6.422264581092966e-05,-0.0007122429665706386,0.0002730160681272598,-0.00038517654591364804,7.853563019984957e-05,2.348940374308965e-05,-0.0004514063690692539,0.19667929410934448,11.901697158813477,-1.1918060779571533,-21.816438674926758,-0.3198142647743225,-2.5399813652038574,0.31711143255233765,0
47,0.2299954891204834,-0.19667929410934448,-11.901697158813477,1.1918060779571533,21.816438674926758,0.3198142647743225,2.5399813652038574,-0.31711143255233765,0.0,0.0,0.0,0.0,0.0,0.0,0.0,-0.16938923753299612,0.46497011089363616,0.0051272632674460375,0.5415460737482907,-0.21242100735034602,0.1390297149772947,-0.31616792411558603,0.17308496406799492,-0.48761308617088234,-0.1113100302869207,-1.946590012712088,0.13362178862315635,2.595395632478926,0.9452603011387857,0.1728802376190821,-0.48752024683155326,-0.11147110072896137,-1.9463801863486305,0.1336059019074957,2.595550359778934,0.9452445589611904,-6.422264581092966e-05,0.0007122429665706386,-0.0002730160681272598,0.00038517654591364804,-7.853563019984957e-05,-2.348940374308965e-05,0.0004514063690692539,0.0,0.0,0.0,0.0,0.0,0.0,0.0,-0.000204726448912812,9.283933932907606e-05,-0.00016107044204066723,0.0002098263634575659,-1.5886715660662354e-05,0.00015472730000798407,-1.574217759525709e-05,6.422264581092966e-05,-0.0007122429665706386,0.0002730160681272598,-0.00038517654591364804,7.853563019984957e-05,2.348940374308965e-05,-0.0004514063690692539,0.19667929410934448,11.901697158813477,-1.1918060779571533,-21.816438674926758,-0.3198142647743225,-2.5399813652038574,0.31711143255233765,0
48,0.23500609397888184,-0.17287558317184448,-11.850122451782227,1.1680023670196533,21.816438674926758,0.3198142647743225,2.5463900566101074,-0.25485557317733765,0.0,0.0,0.0,0.0,0.0,0.0,0.0,-0.16343082624089614,0.47794424230547417,0.01768540426996991,0.5349876532728325,-0.2134337522238261,0.13782206701947414,-0.31672205821286886,0.17308353094962486,-0.4876167044765125,-0.11130835985091693,-1.9465900392028919,0.1336221454995318,2.595394920402103,0.9452561633496893,0.1728802376190821,-0.48752024683155326,-0.11147110072896137,-1.9463801863486305,0.1336059019074957,2.595550359778934,0.9452445589611904,0.0002228300277833723,0.00016409080720123902,0.0010250631350585974,0.0006930759063392861,0.0001719015860999074,-0.000191026164317636,-0.0014653962796414037,0.0,0.0,0.0,0.0,0.0,0.0,0.0,-0.00020329333054275311,9.645764495924691e-05,-0.00016274087804443726,0.0002098528542613387,-1.6243592036113697e-05,0.00015543937683082376,-1.160438849889811e-05,-0.0002228300277833723,-0.00016409080720123902,-0.0010250631350585974,-0.0006930759063392861,-0.0001719015860999074,0.000191026164317636,0.0014653962796414037,0.17287558317184448,11.850122451782227,-1.1680023670196533,-21.816438674926758,-0.3198142647743225,-2.5463900566101074,0.25485557317733765,0
49,0.24000024795532227,-0.17287558317184448,-11.850122451782227,1.1680023670196533,21.816438674926758,0.3198142647743225,2.5463900566101074,-0.25485557317733765,0.0,0.0,0.0,0.0,0.0,0.0,0.0,-0.16343082624089614,0.47794424230547417,0.01768540426996991,0.5349876532728325,-0.2134337522238261,0.13782206701947414,-0.31672205821286886,0.17308353094962486,-0.4876167044765125,-0.11130835985091693,-1.9465900392028919,0.1336221454995318,2.595394920402103,0.9452561633496893,0.1728802376190821,-0.48752024683155326,-0.11147110072896137,-1.9463801863486305,0.1336059019074957,2.595550359778934,0.9452445589611904,0.0002228300277833723,0.00016409080720123902,0.0010250631350585974,0.0006930759063392861,0.0001719015860999074,-0.000191026164317636,-0.0014653962796414037,0.0,0.0,0.0,0.0,0.0,0.0,0.0,-0.00020329333054275311,9.645764495924691e-05,-0.00016274087804443726,0.0002098528542613387,-1.6243592036113697e-05,0.00015543937683082376,-1.160438849889811e-05,-0.0002228300277833723,-0.00016409080720123902,-0.0010250631350585974,-0.0006930759063392861,-0.0001719015860999074,0.000191026164317636,0.0014653962796414037,0.17287558317184448,11.850122451782227,-1.1680023670196533,-21.816438674926758,-0.3198142647743225,-2.5463900566101074,0.25485557317733765,0
50,0.24538707733154297,-0.17287558317184448,-11.774744033813477,1.2156097888946533,21.816438674926758,0.3143211007118225,2.5271639823913574,-0.27591270208358765,0.0,0.0,0.0,0.0,0.0,0.0,0.0,-0.16925994054973237,0.4768032179494557,0.008990142355395454,0.5358996233064209,-0.21299721874869904,0.138070857558508,-0.3156865291375031,0.17308281021715974,-0.4876219941900487,-0.1113117011556643,-1.9465900392030413,0.1336227543950163,2.5953970566325717,0.945255602729112,0.1728802376190821,-0.48752024683155326,-0.11147110072896137,-1.9463801863486305,0.1336059019074957,2.595550359778934,0.9452445589611904,3.989244744832492e-05,-0.0015241282808838245,-4.20774461642025e-05,0.00035402458257384635,0.00013033505480499778,0.0005501526952713142,-0.001432952358092918,0.0,0.0,0.0,0.0,0.0,0.0,0.0,-0.00020257259807762718,0.00010174735849544092,-0.0001593995732970671,0.00020985285441077473,-1.6852487520618853e-05,0.0001533031463623047,-1.1043767921603553e-05,-3.989244744832492e-05,0.0015241282808838245,4.20774461642025e-05,-0.00035402458257384635,-0.00013033505480499778,-0.0005501526952713142,0.001432952358092918,0.17287558317184448,11.774744033813477,-1.2156097888946533,-21.816438674926758,-0.3143211007118225,-2.5271639823913574,0.27591270208358765,0
51,0.25,-0.17287558317184448,-11.774744033813477,1.2156097888946533,21.816438674926758,0.3143211007118225,2.5271639823913574,-0.27591270208358765,0.0,0.0,0.0,0.0,0.0,0.0,0.0,-0.16925994054973237,0.4768032179494557,0.008990142355395454,0.5358996233064209,-0.21299721874869904,0.138070857558508,-0.3156865291375031,0.17308281021715974,-0.4876219941900487,-0.1113117011556643,-1.9465900392030413,0.1336227543950163,2.5953970566325717,0.945255602729112,0.1728802376190821,-0.48752024683155326,-0.11147110072896137,-1.9463801863486305,0.1336059019074957,2.595550359778934,0.9452445589611904,3.989244744832492e-05,-0.0015241282808838245,-4.20774461642025e-05,0.00035402458257384635,0.00013033505480499778,0.0005501526952713142,-0.001432952358092918,0.0,0.0,0.0,0.0,0.0,0.0,0.0,-0.00020257259807762718,0.00010174735849544092,-0.0001593995732970671,0.00020985285441077473,-1.6852487520618853e-05,0.0001533031463623047,-1.1043767921603553e-05,-3.989244744832492e-05,0.0015241282808838245,4.20774461642025e-05,-0.00035402458257384635,-0.00013033505480499778,-0.0005501526952713142,0.001432952358092918,0.17287558317184448,11.774744033813477,-1.2156097888946533,-21.816438674926758,-0.3143211007118225,-2.5271639823913574,0.27591270208358765,0
52,0.2550058364868164,-0.19667929410934448,-11.873926162719727,1.2433807849884033,21.868013381958008,0.3143211007118225,2.5271639823913574,-0.33084434270858765,0.0,0.0,0.0,0.0,0.0,0.0,0.0,-0.17345865601920032,0.4752721279501283,0.004234160458112796,0.5402441421793295,-0.21316869549886466,0.13898798314128127,-0.3144907062724286,0.1730844893298715,-0.4876152702876537,-0.11131364956446105,-1.9465936584807277,0.1336227543950081,2.5953970566325717,0.9452613838605295,0.1728802376190821,-0.48752024683155326,-0.11147110072896137,-1.9463801863486305,0.1336059019074957,2.595550359778934,0.9452445589611904,0.00026382529507115927,0.0013029247264224701,-0.0011578938414230856,-0.000786513324243651,0.00012318984981429625,0.00039246059735681513,0.0011924313838036623,0.0,0.0,0.0,0.0,0.0,0.0,0.0,-0.0002042517107893882,9.502345610046259e-05,-0.00015745116450031904,0.00021347213209721438,-1.6852487512403203e-05,0.0001533031463623047,-1.682489933907405e-05,-0.00026382529507115927,-0.0013029247264224701,0.0011578938414230856,0.000786513324243651,-0.00012318984981429625,-0.00039246059735681513,-0.0011924313838036623,0.19667929410934448,11.873926162719727,-1.2433807849884033,-21.868013381958008,-0.3143211007118225,-2.5271639823913574,0.33084434270858765,0
53,0.2600061893463135,-0.19667929410934448,-11.873926162719727,1.2433807849884033,21.868013381958008,0.3143211007118225,2.5271639823913574,-0.33084434270858765,0.0,0.0,0.0,0.0,0.0,0.0,0.0,-0.17345865601920032,0.4752721279501283,0.004234160458112796,0.5402441421793295,-0.21316869549886466,0.13898798314128127,-0.3144907062724286,0.1730844893298715,-0.4876152702876537,-0.11131364956446105,-1.9465936584807277,0.1336227543950081,2.5953970566325717,0.9452613838605295,0.1728802376190821,-0.48752024683155326,-0.11147110072896137,-1.9463801863486305,0.1336059019074957,2.595550359778934,0.9452445589611904,0.00026382529507115927,0.0013029247264224701,-0.0011578938414230856,-0.000786513324243651,0.00012318984981429625,0.00039246059735681513,0.0011924313838036623,0.0,0.0,0.0,0.0,0.0,0.0,0.0,-0.0002042517107893882,9.502345610046259e-05,-0.00015745116450031904,0.00021347213209721438,-1.6852487512403203e-05,0.0001533031463623047,-1.682489933907405e-05,-0.00026382529507115927,-0.0013029247264224701,0.0011578938414230856,0.000786513324243651,-0.00012318984981429625,-0.00039246059735681513,-0.0011924313838036623,0.19667929410934448,11.873926162719727,-1.2433807849884033,-21.868013381958008,-0.3143211007118225,-2.5271639823913574,0.33084434270858765,0
54,0.2650012969970703,-0.14510458707809448,-11.850122451782227,1.2433807849884033,21.840242385864258,0.3198142647743225,2.5399813652038574,-0.27591270208358765,0.0,0.0,0.0,0.0,0.0,0.0,0.0,-0.16916612578787912,0.4900760027404784,0.011278104424557586,0.535968867114048,-0.21430374801958466,0.13796482458782547,-0.31408184356749635,0.1730815788497669,-0.48761678422290455,-0.11131365086356913,-1.9465916831479433,0.13362214404344558,2.595395632478926,0.9452585179270674,0.1728802376190821,-0.48752024683155326,-0.11147110072896137,-1.9463801863486305,0.1336059019074957,2.595550359778934,0.9452445589611904,-0.0005507962344078544,0.0009189619898596855,-0.0006938903697500226,-0.0003030845273108899,9.406380265620323e-05,4.6803184055246086e-05,-0.0013174813963866714,0.0,0.0,0.0,0.0,0.0,0.0,0.0,-0.00020134123068479837,9.653739135129236e-05,-0.00015744986539223405,0.00021149679931276033,-1.624213594988988e-05,0.00015472730000798407,-1.3958965876970097e-05,0.0005507962344078544,-0.0009189619898596855,0.0006938903697500226,0.0003030845273108899,-9.406380265620323e-05,-4.6803184055246086e-05,0.0013174813963866714,0.14510458707809448,11.850122451782227,-1.2433807849884033,-21.840242385864258,-0.3198142647743225,-2.5399813652038574,0.27591270208358765,0
55,0.26999950408935547,-0.14510458707809448,-11.850122451782227,1.2433807849884033,21.840242385864258,0.3198142647743225,2.5399813652038574,-0.27591270208358765,0.0,0.0,0.0,0.0,0.0,0.0,0.0,-0.16916612578787912,0.4900760027404784,0.011278104424557586,0.535968867114048,-0.21430374801958466,0.13796482458782547,-0.31408184356749635,0.1730815788497669,-0.48761678422290455,-0.11131365086356913,-1.9465916831479433,0.13362214404344558,2.595395632478926,0.9452585179270674,0.1728802376190821,-0.48752024683155326,-0.11147110072896137,-1.9463801863486305,0.1336059019074957,2.595550359778934,0.9452445589611904,-0.0005507962344078544,0.0009189619898596855,-0.0006938903697500226,-0.0003030845273108899,9.406380265620323e-05,4.6803184055246086e-05,-0.0013174813963866714,0.0,0.0,0.0,0.0,0.0,0.0,0.0,-0.00020134123068479837,9.653739135129236e-05,-0.00015744986539223405,0.00021149679931276033,-1.624213594988988e-05,0.00015472730000798407,-1.3958965876970097e-05,0.0005507962344078544,-0.0009189619898596855,0.0006938903697500226,0.0003030845273108899,-9.406380265620323e-05,-4.6803184055246086e-05,0.0013174813963866714,0.14510458707809448,11.850122451782227,-1.2433807849884033,-21.840242385864258,-0.3198142647743225,-2.5399813652038574,0.27591270208358765,0
56,0.27500462532043457,-0.17287558317184448,-11.850122451782227,1.2433807849884033,21.840242385864258,0.3198142647743225,2.5399813652038574,-0.30337852239608765,0.0,0.0,0.0,0.0,0.0,0.0,0.0,-0.16730465972454295,0.4764018609059777,0.014738711788265836,0.5474427639449455,-0.21405496438496224,0.1397419383022365,-0.31384713954089344,0.17308114800084107,-0.4876167057730395,-0.11131364956446593,-1.946591709638747,0.13362214404344558,2.595395633932476,0.9452615502794179,0.1728802376190821,-0.48752024683155326,-0.11147110072896137,-1.9463801863486305,0.1336059019074957,2.595550359778934,0.9452445589611904,0.0003338747720679089,0.00027621049195707223,-0.0004450946468106984,0.00022780086143002666,-3.0479761710811332e-05,-3.5048134140788105e-05,-0.0002352057651687694,0.0,0.0,0.0,0.0,0.0,0.0,0.0,-0.00020091038175895637,9.645894148624379e-05,-0.00015745116449543406,0.00021152329011653315,-1.624213594988988e-05,0.00015472584645781495,-1.6991318227521646e-05,-0.0003338747720679089,-0.00027621049195707223,0.0004450946468106984,-0.00022780086143002666,3.0479761710811332e-05,3.5048134140788105e-05,0.0002352057651687694,0.17287558317184448,11.850122451782227,-1.2433807849884033,-21.840242385864258,-0.3198142647743225,-2.5399813652038574,0.30337852239608765,0
57,0.2800014019012451,-0.17287558317184448,-11.850122451782227,1.2433807849884033,21.840242385864258,0.3198142647743225,2.5399813652038574,-0.30337852239608765,0.0,0.0,0.0,0.0,0.0,0.0,0.0,-0.16730465972454295,0.4764018609059777,0.014738711788265836,0.5474427639449455,-0.21405496438496224,0.1397419383022365,-0.31384713954089344,0.17308114800084107,-0.4876167057730395,-0.11131364956446593,-1.946591709638747,0.13362214404344558,2.595395633932476,0.9452615502794179,0.1728802376190821,-0.48752024683155326,-0.11147110072896137,-1.9463801863486305,0.1336059019074957,2.595550359778934,0.9452445589611904,0.0003338747720679089,0.00027621049195707223,-0.0004450946468106984,0.00022780086143002666,-3.0479761710811332e-05,-3.5048134140788105e-05,-0.0002352057651687694,0.0,0.0,0.0,0.0,0.0,0.0,0.0,-0.00020091038175895637,9.645894148624379e-05,-0.00015745116449543406,0.00021152329011653315,-1.624213594988988e-05,0.00015472584645781495,-1.6991318227521646e-05,-0.0003338747720679089,-0.00027621049195707223,0.0004450946468106984,-0.00022780086143002666,3.0479761710811332e-05,3.5048134140788105e-05,0.0002352057651687694,0.17287558317184448,11.850122451782227,-1.2433807849884033,-21.840242385864258,-0.3198142647743225,-2.5399813652038574,0.30337852239608765,0
58,0.28494858741760254,-0.14510458707809448,-11.901697158813477,1.2433807849884033,21.840242385864258,0.3198142647743225,2.5399813652038574,-0.32352012395858765,0.0,0.0,0.0,0.0,0.0,0.0,0.0,-0.1641246476846057,0.4835126863111417,0.01902603038684549,0.5419547614973649,-0.2141818635071096,0.13929631733196737,-0.31407811306069805,0.17307944615406556,-0.48761379415584755,-0.1113136495644586,-1.9465917096388965,0.13362214404344558,2.595395633932484,0.9452619978850867,0.1728802376190821,-0.48752024683155326,-0.11147110072896137,-1.9463801863486305,0.1336059019074957,2.595550359778934,0.9452445589611904,-0.0004502834600535699,0.0013677639865229852,-0.0003263152288720883,0.00010269643991901472,-2.8756687007026606e-05,8.659133332138752e-05,0.0007122282404950467,0.0,0.0,0.0,0.0,0.0,0.0,0.0,-0.0001992085349834527,9.354732429428525e-05,-0.00015745116450276153,0.00021152329026596917,-1.624213594988988e-05,0.00015472584644982135,-1.743892389627355e-05,0.0004502834600535699,-0.0013677639865229852,0.0003263152288720883,-0.00010269643991901472,2.8756687007026606e-05,-8.659133332138752e-05,-0.0007122282404950467,0.14510458707809448,11.901697158813477,-1.2433807849884033,-21.840242385864258,-0.3198142647743225,-2.5399813652038574,0.32352012395858765,0
59,0.28999900817871094,-0.14510458707809448,-11.901697158813477,1.2433807849884033,21.840242385864258,0.3198142647743225,2.5399813652038574,-0.32352012395858765,0.0,0.0,0.0,0.0,0.0,0.0,0.0,-0.1641246476846057,0.4835126863111417,0.01902603038684549,0.5419547614973649,-0.2141818635071096,0.13929631733196737,-0.31407811306069805,0.17307944615406556,-0.48761379415584755,-0.1113136495644586,-1.9465917096388965,0.13362214404344558,2.595395633932484,0.9452619978850867,0.1728802376190821,-0.48752024683155326,-0.11147110072896137,-1.9463801863486305,0.1336059019074957,2.595550359778934,0.9452445589611904,-0.0004502834600535699,0.0013677639865229852,-0.0003263152288720883,0.00010269643991901472,-2.8756687007026606e-05,8.659133332138752e-05,0.0007122282404950467,0.0,0.0,0.0,0.0,0.0,0.0,0.0,-0.0001992085349834527,9.354732429428525e-05,-0.00015745116450276153,0.00021152329026596917,-1.624213594988988e-05,0.00015472584644982135,-1.743892389627355e-05,0.0004502834600535699,-0.0013677639865229852,0.0003263152288720883,-0.00010269643991901472,2.8756687007026606e-05,-8.659133332138752e-05,-0.0007122282404950467,0.14510458707809448,11.901697158813477,-1.2433807849884033,-21.840242385864258,-0.3198142647743225,-2.5399813652038574,0.32352012395858765,0
60,0.2950000762939453,-0.17287558317184448,-11.873926162719727,1.1918060779571533,21.816438674926758,0.3198142647743225,2.5335726737976074,-0.30337852239608765,0.0,0.0,0.0,0.0,0.0,0.0,0.0,-0.16735492728716989,0.4811308994426444,0.010982183526310415,0.5388947733644747,-0.21405695676236935,0.13901170752048012,-0.31439520253622016,0.17308056889875803,-0.48761503699684133,-0.1113100302867722,-1.9465878934358294,0.13362214404344558,2.595396344555757,0.9452586555804139,0.1728802376190821,-0.48752024683155326,-0.11147110072896137,-1.9463801863486305,0.1336059019074957,2.595550359778934,0.9452445589611904,0.00014172721508420017,-0.00017436619355972266,-1.44123357743492e-05,0.00029078468544142843,-7.474389287034435e-05,1.7397418027509824e-05,-6.870171949607007e-05,0.0,0.0,0.0,0.0,0.0,0.0,0.0,-0.00020033127967591935,9.479016528807227e-05,-0.00016107044218917344,0.00020770708719886066,-1.624213594988988e-05,0.00015401522317715077,-1.4096619223469276e-05,-0.00014172721508420017,0.00017436619355972266,1.44123357743492e-05,-0.00029078468544142843,7.474389287034435e-05,-1.7397418027509824e-05,6.870171949607007e-05,0.17287558317184448,11.873926162719727,-1.1918060779571533,-21.816438674926758,-0.3198142647743225,-2.5335726737976074,0.30337852239608765,0
61,0.30078673362731934,-0.22445029020309448,-11.850122451782227,1.1680023670196533,21.816438674926758,0.3143211007118225,2.5399813652038574,-0.33725303411483765,0.0,0.0,0.0,0.0,0.0,0.0,0.0,-0.16879211737144964,0.48095542676677033,0.005629459791931351,0.5367134573917339,-0.21419632341628628,0.13800744416285635,-0.31416961417541683,0.17308712384362013,-0.4876167308301972,-0.11130835985091693,-1.9465900391909285,0.1336227543950081,2.595395750270331,0.9452621779364347,0.1728802376190821,-0.48752024683155326,-0.11147110072896137,-1.9463801863486305,0.1336059019074957,2.595550359778934,0.9452445589611904,0.0007554549049212491,-0.0003491310393769153,6.983916931027798e-05,0.00040819590043264596,1.0713753029531225e-05,-0.00015835571795078427,0.0015301580730112396,0.0,0.0,0.0,0.0,0.0,0.0,0.0,-0.00020688622453801653,9.648399864392587e-05,-0.00016274087804443726,0.00020985284229801948,-1.6852487512403203e-05,0.00015460950860290978,-1.7618975244326762e-05,-0.0007554549049212491,0.0003491310393769153,-6.983916931027798e-05,-0.00040819590043264596,-1.0713753029531225e-05,0.00015835571795078427,-0.0015301580730112396,0.22445029020309448,11.850122451782227,-1.1680023670196533,-21.816438674926758,-0.3143211007118225,-2.5399813652038574,0.33725303411483765,0
62,0.30499696731567383,-0.22445029020309448,-11.850122451782227,1.1680023670196533,21.816438674926758,0.3143211007118225,2.5399813652038574,-0.33725303411483765,0.0,0.0,0.0,0.0,0.0,0.0,0.0,-0.16879211737144964,0.48095542676677033,0.005629459791931351,0.5367134573917339,-0.21419632341628628,0.13800744416285635,-0.31416961417541683,0.17308712384362013,-0.4876167308301972,-0.11130835985091693,-1.9465900391909285,0.1336227543950081,2.595395750270331,0.9452621779364347,0.1728802376190821,-0.48752024683155326,-0.11147110072896137,-1.9463801863486305,0.1336059019074957,2.595550359778934,0.9452445589611904,0.0007554549049212491,-0.0003491310393769153,6.983916931027798e-05,0.00040819590043264596,1.0713753029531225e-05,-0.00015835571795078427,0.0015301580730112396,0.0,0.0,0.0,0.0,0.0,0.0,0.0,-0.00020688622453801653,9.648399864392587e-05,-0.00016274087804443726,0.00020985284229801948,-1.6852487512403203e-05,0.00015460950860290978,-1.7618975244326762e-05,-0.0007554549049212491,0.0003491310393769153,-6.983916931027798e-05,-0.00040819590043264596,-1.0713753029531225e-05,0.00015835571795078427,-0.0015301580730112396,0.22445029020309448,11.850122451782227,-1.1680023670196533,-21.816438674926758,-0.3143211007118225,-2.5399813652038574,0.33725303411483765,0
63,0.3099985122680664,-0.22445029020309448,-11.850122451782227,1.1680023670196533,21.816438674926758,0.3143211007118225,2.5399813652038574,-0.33725303411483765,0.0,0.0,0.0,0.0,0.0,0.0,0.0,-0.16879211737144964,0.48095542676677033,0.005629459791931351,0.5367134573917339,-0.21419632341628628,0.13800744416285635,-0.31416961417541683,0.17308712384362013,-0.4876167308301972,-0.11130835985091693,-1.9465900391909285,0.1336227543950081,2.595395750270331,0.9452621779364347,0.1728802376190821,-0.48752024683155326,-0.11147110072896137,-1.9463801863486305,0.1336059019074957,2.595550359778934,0.9452445589611904,0.0007554549049212491,-0.0003491310393769153,6.983916931027798e-05,0.00040819590043264596,1.0713753029531225e-05,-0.00015835571795078427,0.0015301580730112396,0.0,0.0,0.0,0.0,0.0,0.0,0.0,-0.00020688622453801653,9.648399864392587e-05,-0.00016274087804443726,0.00020985284229801948,-1.6852487512403203e-05,0.00015460950860290978,-1.7618975244326762e-05,-0.0007554549049212491,0.0003491310393769153,-6.983916931027798e-05,-0.00040819590043264596,-1.0713753029531225e-05,0.00015835571795078427,-0.0015301580730112396,0.22445029020309448,11.850122451782227,-1.1680023670196533,-21.816438674926758,-0.3143211007118225,-2.5399813652038574,0.33725303411483765,0
64,0.3150007724761963,-0.17287558317184448,-11.802515029907227,1.1680023670196533,21.816438674926758,0.3143211007118225,2.5463900566101074,-0.27591270208358765,0.0,0.0,0.0,0.0,0.0,0.0,0.0,-0.17103727643158548,0.4762439744225564,0.005075198262020999,0.5354151462407527,-0.214579886999237,0.1376352746434084,-0.31403150219349313,0.1730828189702769,-0.4876200454563732,-0.11130843877188178,-1.9465900392030413,0.1336227543950081,2.595394920402768,0.9452595980418758,0.1728802376190821,-0.48752024683155326,-0.11147110072896137,-1.9463801863486305,0.1336059019074957,2.595550359778934,0.9452445589611904,-0.0009474854864920625,-0.0011490609798728661,7.93753332813995e-05,4.526669591761441e-05,3.403170780926469e-05,-0.00010383452143528558,-0.0009256132447973063,0.0,0.0,0.0,0.0,0.0,0.0,0.0,-0.0002025813511948027,9.979862481995783e-05,-0.00016266195707959064,0.00020985285441077473,-1.6852487512403203e-05,0.00015543937616602221,-1.5039080685341766e-05,0.0009474854864920625,0.0011490609798728661,-7.93753332813995e-05,-4.526669591761441e-05,-3.403170780926469e-05,0.00010383452143528558,0.0009256132447973063,0.17287558317184448,11.802515029907227,-1.1680023670196533,-21.816438674926758,-0.3143211007118225,-2.5463900566101074,0.27591270208358765,0
65,0.32000303268432617,-0.17287558317184448,-11.802515029907227,1.1680023670196533,21.816438674926758,0.3143211007118225,2.5463900566101074,-0.27591270208358765,0.0,0.0,0.0,0.0,0.0,0.0,0.0,-0.17103727643158548,0.4762439744225564,0.005075198262020999,0.5354151462407527,-0.214579886999237,0.1376352746434084,-0.31403150219349313,0.1730828189702769,-0.4876200454563732,-0.11130843877188178,-1.9465900392030413,0.1336227543950081,2.595394920402768,0.9452595980418758,0.1728802376190821,-0.48752024683155326,-0.11147110072896137,-1.9463801863486305,0.1336059019074957,2.595550359778934,0.9452445589611904,-0.0009474854864920625,-0.0011490609798728661,7.93753332813995e-05,4.526669591761441e-05,3.403170780926469e-05,-0.00010383452143528558,-0.0009256132447973063,0.0,0.0,0.0,0.0,0.0,0.0,0.0,-0.0002025813511948027,9.979862481995783e-05,-0.00016266195707959064,0.00020985285441077473,-1.6852487512403203e-05,0.00015543937616602221,-1.5039080685341766e-05,0.0009474854864920625,0.0011490609798728661,-7.93753332813995e-05,-4.526669591761441e-05,-3.403170780926469e-05,0.00010383452143528558,0.0009256132447973063,0.17287558317184448,11.802515029907227,-1.1680023670196533,-21.816438674926758,-0.3143211007118225,-2.5463900566101074,0.27591270208358765,0
66,0.3249967098236084,-0.14510458707809448,-11.850122451782227,1.1918060779571533,21.840242385864258,0.3198142647743225,2.5335726737976074,-0.28964561223983765,0.0,0.0,0.0,0.0,0.0,0.0,0.0,-0.17113964414040642,0.46683895054007885,0.011598768669494221,0.5387830256398882,-0.21516029513589527,0.13879388256772754,-0.31424927858619695,0.17308087005223452,-0.4876167044765076,-0.1113100302872177,-1.9465914712203174,0.13362214404344558,2.595396344555749,0.9452579862384541,0.1728802376190821,-0.48752024683155326,-0.11147110072896137,-1.9463801863486305,0.1336059019074957,2.595550359778934,0.9452445589611904,-0.000915473535621646,-0.0004092639997112309,2.8301390405959523e-05,-0.0002751810493146648,0.00025331549087374963,0.00021152180036269617,-0.0007175849850385033,0.0,0.0,0.0,0.0,0.0,0.0,0.0,-0.00020063243315240897,9.645764495436193e-05,-0.0001610704417436687,0.0002112848716868676,-1.624213594988988e-05,0.00015401522318514438,-1.3427277263722281e-05,0.000915473535621646,0.0004092639997112309,-2.8301390405959523e-05,0.0002751810493146648,-0.00025331549087374963,-0.00021152180036269617,0.0007175849850385033,0.14510458707809448,11.850122451782227,-1.1918060779571533,-21.840242385864258,-0.3198142647743225,-2.5335726737976074,0.28964561223983765,0
67,0.32999539375305176,-0.14510458707809448,-11.850122451782227,1.1918060779571533,21.840242385864258,0.3198142647743225,2.5335726737976074,-0.28964561223983765,0.0,0.0,0.0,0.0,0.0,0.0,0.0,-0.17113964414040642,0.46683895054007885,0.011598768669494221,0.5387830256398882,-0.21516029513589527,0.13879388256772754,-0.31424927858619695,0.17308087005223452,-0.4876167044765076,-0.1113100302872177,-1.9465914712203174,0.13362214404344558,2.595396344555749,0.9452579862384541,0.1728802376190821,-0.48752024683155326,-0.11147110072896137,-1.9463801863486305,0.1336059019074957,2.595550359778934,0.9452445589611904,-0.000915473535621646,-0.0004092639997112309,2.8301390405959523e-05,-0.0002751810493146648,0.00025331549087374963,0.00021152180036269617,-0.0007175849850385033,0.0,0.0,0.0,0.0,0.0,0.0,0.0,-0.00020063243315240897,9.645764495436193e-05,-0.0001610704417436687,0.0002112848716868676,-1.624213594988988e-05,0.00015401522318514438,-1.3427277263722281e-05,0.000915473535621646,0.0004092639997112309,-2.8301390405959523e-05,0.0002751810493146648,-0.00025331549087374963,-0.00021152180036269617,0.0007175849850385033,0.14510458707809448,11.850122451782227,-1.1918060779571533,-21.840242385864258,-0.3198142647743225,-2.5335726737976074,0.28964561223983765,0
68,0.3350026607513428,-0.19667929410934448,-11.802515029907227,1.2433807849884033,21.840242385864258,0.3143211007118225,2.5335726737976074,-0.30337852239608765,0.0,0.0,0.0,0.0,0.0,0.0,0.0,-0.17362224111874114,0.472496928412481,0.007209380409647141,0.5341812715714384,-0.21455388198784117,0.13799336454335026,-0.31517517766795605,0.17308511251182968,-0.48762075398121657,-0.1113136495644586,-1.9465917096375507,0.1336227543950081,2.595396344555749,0.9452586559101015,0.1728802376190821,-0.48752024683155326,-0.11147110072896137,-1.9463801863486305,0.1336059019074957,2.595550359778934,0.9452445589611904,0.0006911902963044342,-0.0014414438292218246,-0.0008473095959851505,-0.0005599933253536929,0.0003191384281151216,0.00020138410862228294,6.925994534291632e-06,0.0,0.0,0.0,0.0,0.0,0.0,0.0,-0.0002048748927475641,0.0001005071496633092,-0.00015745116450276153,0.00021152328892015682,-1.6852487512403203e-05,0.00015401522318514438,-1.409694891107982e-05,-0.0006911902963044342,0.0014414438292218246,0.0008473095959851505,0.0005599933253536929,-0.0003191384281151216,-0.00020138410862228294,-6.925994534291632e-06,0.19667929410934448,11.802515029907227,-1.2433807849884033,-21.840242385864258,-0.3143211007118225,-2.5335726737976074,0.30337852239608765,0
69,0.3399994373321533,-0.19667929410934448,-11.802515029907227,1.2433807849884033,21.840242385864258,0.3143211007118225,2.5335726737976074,-0.30337852239608765,0.0,0.0,0.0,0.0,0.0,0.0,0.0,-0.17362224111874114,0.472496928412481,0.007209380409647141,0.5341812715714384,-0.21455388198784117,0.13799336454335026,-0.31517517766795605,0.17308511251182968,-0.48762075398121657,-0.1113136495644586,-1.9465917096375507,0.1336227543950081,2.595396344555749,0.9452586559101015,0.1728802376190821,-0.48752024683155326,-0.11147110072896137,-1.9463801863486305,0.1336059019074957,2.595550359778934,0.9452445589611904,0.0006911902963044342,-0.0014414438292218246,-0.0008473095959851505,-0.0005599933253536929,0.0003191384281151216,0.00020138410862228294,6.925994534291632e-06,0.0,0.0,0.0,0.0,0.0,0.0,0.0,-0.0002048748927475641,0.0001005071496633092,-0.00015745116450276153,0.00021152328892015682,-1.6852487512403203e-05,0.00015401522318514438,-1.409694891107982e-05,-0.0006911902963044342,0.0014414438292218246,0.0008473095959851505,0.0005599933253536929,-0.0003191384281151216,-0.00020138410862228294,-6.925994534291632e-06,0.19667929410934448,11.802515029907227,-1.2433807849884033,-21.840242385864258,-0.3143211007118225,-2.5335726737976074,0.30337852239608765,0
70,0.3449978828430176,-0.19667929410934448,-11.802515029907227,1.2433807849884033,21.840242385864258,0.3143211007118225,2.5335726737976074,-0.30337852239608765,0.0,0.0,0.0,0.0,0.0,0.0,0.0,-0.17362224111874114,0.472496928412481,0.007209380409647141,0.5341812715714384,-0.21455388198784117,0.13799336454335026,-0.31517517766795605,0.17308511251182968,-0.48762075398121657,-0.1113136495644586,-1.9465917096375507,0.1336227543950081,2.595396344555749,0.9452586559101015,0.1728802376190821,-0.48752024683155326,-0.11147110072896137,-1.9463801863486305,0.1336059019074957,2.595550359778934,0.9452445589611904,0.0006911902963044342,-0.0014414438292218246,-0.0008473095959851505,-0.0005599933253536929,0.0003191384281151216,0.00020138410862228294,6.925994534291632e-06,0.0,0.0,0.0,0.0,0.0,0.0,0.0,-0.0002048748927475641,0.0001005071496633092,-0.00015745116450276153,0.00021152328892015682,-1.6852487512403203e-05,0.00015401522318514438,-1.409694891107982e-05,-0.0006911902963044342,0.0014414438292218246,0.0008473095959851505,0.0005599933253536929,-0.0003191384281151216,-0.00020138410862228294,-6.925994534291632e-06,0.19667929410934448,11.802515029907227,-1.2433807849884033,-21.840242385864258,-0.3143211007118225,-2.5335726737976074,0.30337852239608765,0
71,0.3500046730041504,-0.19667929410934448,-11.802515029907227,1.2433807849884033,21.840242385864258,0.3143211007118225,2.5335726737976074,-0.30337852239608765,0.0,0.0,0.0,0.0,0.0,0.0,0.0,-0.17362224111874114,0.472496928412481,0.007209380409647141,0.5341812715714384,-0.21455388198784117,0.13799336454335026,-0.31517517766795605,0.17308511251182968,-0.48762075398121657,-0.1113136495644586,-1.9465917096375507,0.1336227543950081,2.595396344555749,0.9452586559101015,0.1728802376190821,-0.48752024683155326,-0.11147110072896137,-1.9463801863486305,0.1336059019074957,2.595550359778934,0.9452445589611904,0.0006911902963044342,-0.0014414438292218246,-0.0008473095959851505,-0.0005599933253536929,0.0003191384281151216,0.00020138410862228294,6.925994534291632e-06,0.0,0.0,0.0,0.0,0.0,0.0,0.0,-0.0002048748927475641,0.0001005071496633092,-0.00015745116450276153,0.00021152328892015682,-1.6852487512403203e-05,0.00015401522318514438,-1.409694891107982e-05,-0.0006911902963044342,0.0014414438292218246,0.0008473095959851505,0.0005599933253536929,-0.0003191384281151216,-0.00020138410862228294,-6.925994534291632e-06,0.19667929410934448,11.802515029907227,-1.2433807849884033,-21.840242385864258,-0.3143211007118225,-2.5335726737976074,0.30337852239608765,0
72,0.35495615005493164,-0.12130087614059448,-11.826318740844727,1.2156097888946533,21.840242385864258,0.3198142647743225,2.5399813652038574,-0.28232139348983765,0.0,0.0,0.0,0.0,0.0,0.0,0.0,-0.1742860688656209,0.4758581347397047,0.00672804332613885,0.5332005024768846,-0.21405290547574457,0.1377958683165548,-0.31488794582653395,0.17307991167277642,-0.48761837491636256,-0.11131170949162356,-1.9465917096388965,0.13362214404344558,2.5953956326942667,0.9452571724138252,0.1728802376190821,-0.48752024683155326,-0.11147110072896137,-1.9463801863486305,0.1336059019074957,2.595550359778934,0.9452445589611904,-0.0008965649192424692,-2.1462685829279387e-05,-4.794816464841257e-05,-0.0003341547545299615,-0.00012261727508175546,-9.6332899021657e-05,-0.0010817454794159655,0.0,0.0,0.0,0.0,0.0,0.0,0.0,-0.0001996740536943098,9.812808480930135e-05,-0.0001593912373378109,0.00021152329026596917,-1.624213594988988e-05,0.00015472708466734986,-1.2613452634813171e-05,0.0008965649192424692,2.1462685829279387e-05,4.794816464841257e-05,0.0003341547545299615,0.00012261727508175546,9.6332899021657e-05,0.0010817454794159655,0.12130087614059448,11.826318740844727,-1.2156097888946533,-21.840242385864258,-0.3198142647743225,-2.5399813652038574,0.28232139348983765,0
73,0.36001133918762207,-0.12130087614059448,-11.826318740844727,1.2156097888946533,21.840242385864258,0.3198142647743225,2.5399813652038574,-0.28232139348983765,0.0,0.0,0.0,0.0,0.0,0.0,0.0,-0.1742860688656209,0.4758581347397047,0.00672804332613885,0.5332005024768846,-0.21405290547574457,0.1377958683165548,-0.31488794582653395,0.17307991167277642,-0.48761837491636256,-0.11131170949162356,-1.9465917096388965,0.13362214404344558,2.5953956326942667,0.9452571724138252,0.1728802376190821,-0.48752024683155326,-0.11147110072896137,-1.9463801863486305,0.1336059019074957,2.595550359778934,0.9452445589611904,-0.0008965649192424692,-2.1462685829279387e-05,-4.794816464841257e-05,-0.0003341547545299615,-0.00012261727508175546,-9.6332899021657e-05,-0.0010817454794159655,0.0,0.0,0.0,0.0,0.0,0.0,0.0,-0.0001996740536943098,9.812808480930135e-05,-0.0001593912373378109,0.00021152329026596917,-1.624213594988988e-05,0.00015472708466734986,-1.2613452634813171e-05,0.0008965649192424692,2.1462685829279387e-05,4.794816464841257e-05,0.0003341547545299615,0.00012261727508175546,9.6332899021657e-05,0.0010817454794159655,0.12130087614059448,11.826318740844727,-1.2156097888946533,-21.840242385864258,-0.3198142647743225,-2.5399813652038574,0.28232139348983765,0
74,0.3650095462799072,-0.17287558317184448,-11.774744033813477,1.2156097888946533,21.816438674926758,0.3143211007118225,2.5335726737976074,-0.30978721380233765,0.0,0.0,0.0,0.0,0.0,0.0,0.0,-0.17144405194879903,0.48858163334419263,0.003989103843541201,0.529118937139624,-0.21445486914553272,0.13666558690164662,-0.3143038794558212,0.17308135985160195,-0.4876219941900487,-0.11131170072267696,-1.9465900392030413,0.1336227543950081,2.5953963445557497,0.9452593705252537,0.1728802376190821,-0.48752024683155326,-0.11147110072896137,-1.9463801863486305,0.1336059019074957,2.595550359778934,0.9452445589611904,0.0004951682595917773,-0.000671842610070751,-0.0004380528023731107,0.00010340863436691742,0.00018565211071059197,0.00010329383857045925,-0.00010277521213208606,0.0,0.0,0.0,0.0,0.0,0.0,0.0,-0.00020112223251983474,0.00010174735849544092,-0.00015940000628440754,0.00020985285441077473,-1.6852487512403203e-05,0.0001540152231842562,-1.481156406324402e-05,-0.0004951682595917773,0.000671842610070751,0.0004380528023731107,-0.00010340863436691742,-0.00018565211071059197,-0.00010329383857045925,0.00010277521213208606,0.17287558317184448,11.774744033813477,-1.2156097888946533,-21.816438674926758,-0.3143211007118225,-2.5335726737976074,0.30978721380233765,0
75,0.37001848220825195,-0.17287558317184448,-11.774744033813477,1.2156097888946533,21.816438674926758,0.3143211007118225,2.5335726737976074,-0.30978721380233765,0.0,0.0,0.0,0.0,0.0,0.0,0.0,-0.17144405194879903,0.48858163334419263,0.003989103843541201,0.529118937139624,-0.21445486914553272,0.13666558690164662,-0.3143038794558212,0.17308135985160195,-0.4876219941900487,-0.11131170072267696,-1.9465900392030413,0.1336227543950081,2.5953963445557497,0.9452593705252537,0.1728802376190821,-0.48752024683155326,-0.11147110072896137,-1.9463801863486305,0.1336059019074957,2.595550359778934,0.9452445589611904,0.0004951682595917773,-0.000671842610070751,-0.0004380528023731107,0.00010340863436691742,0.00018565211071059197,0.00010329383857045925,-0.00010277521213208606,0.0,0.0,0.0,0.0,0.0,0.0,0.0,-0.00020112223251983474,0.00010174735849544092,-0.00015940000628440754,0.00020985285441077473,-1.6852487512403203e-05,0.0001540152231842562,-1.481156406324402e-05,-0.0004951682595917773,0.000671842610070751,0.0004380528023731107,-0.00010340863436691742,-0.00018565211071059197,-0.00010329383857045925,0.00010277521213208606,0.17287558317184448,11.774744033813477,-1.2156097888946533,-21.816438674926758,-0.3143211007118225,-2.5335726737976074,0.30978721380233765,0
76,0.3750169277191162,-0.14510458707809448,-11.826318740844727,1.1918060779571533,21.816438674926758,0.3198142647743225,2.5399813652038574,-0.30337852239608765,0.0,0.0,0.0,0.0,0.0,0.0,0.0,-0.16579686171324887,0.47594837317582317,0.008148102827675516,0.5395862971877095,-0.2146913842323894,0.13855625703964733,-0.3145423790202243,0.17308157916706526,-0.4876190835453613,-0.11131026704966672,-1.9465900392030413,0.13362214404344558,2.595395645560878,0.9452582933656253,0.1728802376190821,-0.48752024683155326,-0.11147110072896137,-1.9463801863486305,0.1336059019074957,2.595550359778934,0.9452445589611904,0.0001369367876151157,0.0001831331234083895,7.253547237973054e-05,0.00033524118983601655,8.178796078919086e-05,2.5766574652022826e-05,-0.0002899567230318056,0.0,0.0,0.0,0.0,0.0,0.0,0.0,-0.00020134154798315262,9.883671380805925e-05,-0.00016083367929464742,0.00020985285441077473,-1.624213594988988e-05,0.00015471421805601793,-1.3734404434861958e-05,-0.0001369367876151157,-0.0001831331234083895,-7.253547237973054e-05,-0.00033524118983601655,-8.178796078919086e-05,-2.5766574652022826e-05,0.0002899567230318056,0.14510458707809448,11.826318740844727,-1.1918060779571533,-21.816438674926758,-0.3198142647743225,-2.5399813652038574,0.30337852239608765,0
77,0.38004422187805176,-0.14510458707809448,-11.826318740844727,1.1918060779571533,21.816438674926758,0.3198142647743225,2.5399813652038574,-0.30337852239608765,0.0,0.0,0.0,0.0,0.0,0.0,0.0,-0.16579686171324887,0.47594837317582317,0.008148102827675516,0.5395862971877095,-0.2146913842323894,0.13855625703964733,-0.3145423790202243,0.17308157916706526,-0.4876190835453613,-0.11131026704966672,-1.9465900392030413,0.13362214404344558,2.595395645560878,0.9452582933656253,0.1728802376190821,-0.48752024683155326,-0.11147110072896137,-1.9463801863486305,0.1336059019074957,2.595550359778934,0.9452445589611904,0.0001369367876151157,0.0001831331234083895,7.253547237973054e-05,0.00033524118983601655,8.178796078919086e-05,2.5766574652022826e-05,-0.0002899567230318056,0.0,0.0,0.0,0.0,0.0,0.0,0.0,-0.00020134154798315262,9.883671380805925e-05,-0.00016083367929464742,0.00020985285441077473,-1.624213594988988e-05,0.00015471421805601793,-1.3734404434861958e-05,-0.0001369367876151157,-0.0001831331234083895,-7.253547237973054e-05,-0.00033524118983601655,-8.178796078919086e-05,-2.5766574652022826e-05,0.0002899567230318056,0.14510458707809448,11.826318740844727,-1.1918060779571533,-21.816438674926758,-0.3198142647743225,-2.5399813652038574,0.30337852239608765,0
78,0.38501644134521484,-0.12130087614059448,-11.826318740844727,1.2156097888946533,21.840242385864258,0.3317161202430725,2.5335726737976074,-0.31711143255233765,0.0,0.0,0.0,0.0,0.0,0.0,0.0,-0.16248801394095977,0.49557789115685114,0.011314571014716671,0.5333920240001797,-0.21434540473767547,0.13833604609957068,-0.31430566357331,0.17307919972889335,-0.48761847989902907,-0.11131170072396399,-1.9465917096388965,0.13362082161506017,2.595397404193952,0.9452601799611523,0.1728802376190821,-0.48752024683155326,-0.11147110072896137,-1.9463801863486305,0.1336059019074957,2.595550359778934,0.9452445589611904,-0.0011083113443246346,0.000816259844797702,-2.918545115482737e-05,9.092562987036747e-05,-0.00035619511687063796,0.00025179179747017926,0.0005272354204460822,0.0,0.0,0.0,0.0,0.0,0.0,0.0,-0.0001989621098112404,9.823306747580585e-05,-0.0001594000049973815,0.00021152329026596917,-1.4919707564481355e-05,0.00015295558498218398,-1.562099996188504e-05,0.0011083113443246346,-0.000816259844797702,2.918545115482737e-05,-9.092562987036747e-05,0.00035619511687063796,-0.00025179179747017926,-0.0005272354204460822,0.12130087614059448,11.826318740844727,-1.2156097888946533,-21.840242385864258,-0.3317161202430725,-2.5335726737976074,0.31711143255233765,0
79,0.3900463581085205,-0.12130087614059448,-11.826318740844727,1.2156097888946533,21.840242385864258,0.3317161202430725,2.5335726737976074,-0.31711143255233765,0.0,0.0,0.0,0.0,0.0,0.0,0.0,-0.16248801394095977,0.49557789115685114,0.011314571014716671,0.5333920240001797,-0.21434540473767547,0.13833604609957068,-0.31430566357331,0.17307919972889335,-0.48761847989902907,-0.11131170072396399,-1.9465917096388965,0.13362082161506017,2.595397404193952,0.9452601799611523,0.1728802376190821,-0.48752024683155326,-0.11147110072896137,-1.9463801863486305,0.1336059019074957,2.595550359778934,0.9452445589611904,-0.0011083113443246346,0.000816259844797702,-2.918545115482737e-05,9.092562987036747e-05,-0.00035619511687063796,0.00025179179747017926,0.0005272354204460822,0.0,0.0,0.0,0.0,0.0,0.0,0.0,-0.0001989621098112404,9.823306747580585e-05,-0.0001594000049973815,0.00021152329026596917,-1.4919707564481355e-05,0.00015295558498218398,-1.562099996188504e-05,0.0011083113443246346,-0.000816259844797702,2.918545115482737e-05,-9.092562987036747e-05,0.00035619511687063796,-0.00025179179747017926,-0.0005272354204460822,0.12130087614059448,11.826318740844727,-1.2156097888946533,-21.840242385864258,-0.3317161202430725,-2.5335726737976074,0.31711143255233765,0
