rezayati/contactInterpretation/dataset/franka_main/labeled_data/link7/a4_8.csv
index,time,tau_J0,tau_J1,tau_J2,tau_J3,tau_J4,tau_J5,tau_J6,tau_J_d0,tau_J_d1,tau_J_d2,tau_J_d3,tau_J_d4,tau_J_d5,tau_J_d6,tau_ext0,tau_ext1,tau_ext2,tau_ext3,tau_ext4,tau_ext5,tau_ext6,q0,q1,q2,q3,q4,q5,q6,q_d0,q_d1,q_d2,q_d3,q_d4,q_d5,q_d6,dq0,dq1,dq2,dq3,dq4,dq5,dq6,dq_d0,dq_d1,dq_d2,dq_d3,dq_d4,dq_d5,dq_d6,e0,e1,e2,e3,e4,e5,e6,de0,de1,de2,de3,de4,de5,de6,etau_J0,etau_J1,etau_J2,etau_J3,etau_J4,etau_J5,etau_J6,label
1,0.0,-0.24825400114059448,-22.748254776000977,0.02542426437139511,14.155611038208008,-0.02533954381942749,2.1453890800476074,-0.41965049505233765,0.0,0.0,0.0,0.0,0.0,0.0,0.0,-0.2785441389252488,-0.012410414983498704,-0.04106024476924154,0.30622836645374646,-0.24763580272336821,-0.04626998904898928,-0.414687421796347,1.6754121948166896,0.05230082934728839,0.02979579495934142,-2.752574806648388,0.03446465276611625,2.7663248549978388,0.7691989710940578,1.6754973547542302,0.052104326824870026,0.029969505109285054,-2.752394845125968,0.0342448039870148,2.7663679543071322,0.7691630533470046,-0.001245579393376326,-0.0013723966860413577,0.00047573122147768804,0.00045812520818792944,0.00032276162343665324,-0.0004461194160844425,0.00016736555869416842,0.0,0.0,0.0,0.0,0.0,0.0,0.0,8.515993754065754e-05,-0.0001965025224183667,0.00017371014994363443,0.00017996152242005792,-0.00021984877910145167,4.309930929347061e-05,-3.5917747053137994e-05,0.001245579393376326,0.0013723966860413577,-0.00047573122147768804,-0.00045812520818792944,-0.00032276162343665324,0.0004461194160844425,-0.00016736555869416842,0.24825400114059448,22.748254776000977,-0.02542426437139511,-14.155611038208008,0.02533954381942749,-2.1453890800476074,0.41965049505233765,0
2,0.004966020584106445,-0.3236324191093445,-22.819665908813477,0.001620553433895111,14.155611038208008,-0.01343768835067749,2.1325716972351074,-0.39218467473983765,0.0,0.0,0.0,0.0,0.0,0.0,0.0,-0.27975990101187725,-0.01465397887688191,-0.04027871089779212,0.30688537522896925,-0.2480737795892384,-0.04673833858751218,-0.4136236650557558,1.6754174845302312,0.052305840654854184,0.029797456621084947,-2.752574806648388,0.03446293598609511,2.7663276959064578,0.7691959062661815,1.6754973547542302,0.052104326824870026,0.029969505109285054,-2.752394845125968,0.0342448039870148,2.7663679543071322,0.7691630533470046,0.0011069450546535831,-8.428319847852103e-05,0.000866126082743395,0.0005995205196789087,-0.00014872177729332645,3.755969806428827e-05,-0.0008448338299113436,0.0,0.0,0.0,0.0,0.0,0.0,0.0,7.987022399902344e-05,-0.00020151382998415818,0.00017204848820010638,0.00017996152242005792,-0.00021813199908030795,4.02584006744533e-05,-3.2852919176873385e-05,-0.0011069450546535831,8.428319847852103e-05,-0.000866126082743395,-0.0005995205196789087,0.00014872177729332645,-3.755969806428827e-05,0.0008448338299113436,0.3236324191093445,22.819665908813477,-0.001620553433895111,-14.155611038208008,0.01343768835067749,-2.1325716972351074,0.39218467473983765,0
3,0.00996708869934082,-0.3236324191093445,-22.819665908813477,0.001620553433895111,14.155611038208008,-0.01343768835067749,2.1325716972351074,-0.39218467473983765,0.0,0.0,0.0,0.0,0.0,0.0,0.0,-0.27975990101187725,-0.01465397887688191,-0.04027871089779212,0.30688537522896925,-0.2480737795892384,-0.04673833858751218,-0.4136236650557558,1.6754174845302312,0.052305840654854184,0.029797456621084947,-2.752574806648388,0.03446293598609511,2.7663276959064578,0.7691959062661815,1.6754973547542302,0.052104326824870026,0.029969505109285054,-2.752394845125968,0.0342448039870148,2.7663679543071322,0.7691630533470046,0.0011069450546535831,-8.428319847852103e-05,0.000866126082743395,0.0005995205196789087,-0.00014872177729332645,3.755969806428827e-05,-0.0008448338299113436,0.0,0.0,0.0,0.0,0.0,0.0,0.0,7.987022399902344e-05,-0.00020151382998415818,0.00017204848820010638,0.00017996152242005792,-0.00021813199908030795,4.02584006744533e-05,-3.2852919176873385e-05,-0.0011069450546535831,8.428319847852103e-05,-0.000866126082743395,-0.0005995205196789087,0.00014872177729332645,-3.755969806428827e-05,0.0008448338299113436,0.3236324191093445,22.819665908813477,-0.001620553433895111,-14.155611038208008,0.01343768835067749,-2.1325716972351074,0.39218467473983765,0
4,0.01496577262878418,-0.24825400114059448,-22.847436904907227,0.07303168624639511,14.131807327270508,-0.01893085241317749,2.1325716972351074,-0.43979209661483765,0.0,0.0,0.0,0.0,0.0,0.0,0.0,-0.27650526660271624,-0.010465473370403447,-0.03801711373374064,0.30396923066673603,-0.2485960538766711,-0.04748282622524154,-0.4126457495121969,1.6754121948166896,0.052307079208001754,0.029792455062476554,-2.752573136212533,0.03446390125791339,2.7663294052357097,0.7692012090616016,1.6754973547542302,0.052104326824870026,0.029969505109285054,-2.752394845125968,0.0342448039870148,2.7663679543071322,0.7691630533470046,-0.0005695752010317438,0.001114926766490149,-0.00032389093474577575,0.0008779204088547619,-0.00010887007495099919,0.000122431956720444,0.0009421889715882025,0.0,0.0,0.0,0.0,0.0,0.0,0.0,8.515993754065754e-05,-0.00020275238313172822,0.00017705004680849956,0.00017829108656508552,-0.0002190972708985897,3.854907142253339e-05,-3.8155714596976864e-05,0.0005695752010317438,-0.001114926766490149,0.00032389093474577575,-0.0008779204088547619,0.00010887007495099919,-0.000122431956720444,-0.0009421889715882025,0.24825400114059448,22.847436904907227,-0.07303168624639511,-14.131807327270508,0.01893085241317749,-2.1325716972351074,0.43979209661483765,0
5,0.019963741302490234,-0.24825400114059448,-22.847436904907227,0.07303168624639511,14.131807327270508,-0.01893085241317749,2.1325716972351074,-0.43979209661483765,0.0,0.0,0.0,0.0,0.0,0.0,0.0,-0.27650526660271624,-0.010465473370403447,-0.03801711373374064,0.30396923066673603,-0.2485960538766711,-0.04748282622524154,-0.4126457495121969,1.6754121948166896,0.052307079208001754,0.029792455062476554,-2.752573136212533,0.03446390125791339,2.7663294052357097,0.7692012090616016,1.6754973547542302,0.052104326824870026,0.029969505109285054,-2.752394845125968,0.0342448039870148,2.7663679543071322,0.7691630533470046,-0.0005695752010317438,0.001114926766490149,-0.00032389093474577575,0.0008779204088547619,-0.00010887007495099919,0.000122431956720444,0.0009421889715882025,0.0,0.0,0.0,0.0,0.0,0.0,0.0,8.515993754065754e-05,-0.00020275238313172822,0.00017705004680849956,0.00017829108656508552,-0.0002190972708985897,3.854907142253339e-05,-3.8155714596976864e-05,0.0005695752010317438,-0.001114926766490149,0.00032389093474577575,-0.0008779204088547619,0.00010887007495099919,-0.000122431956720444,-0.0009421889715882025,0.24825400114059448,22.847436904907227,-0.07303168624639511,-14.131807327270508,0.01893085241317749,-2.1325716972351074,0.43979209661483765,0
6,0.024964570999145508,-0.24825400114059448,-22.795862197875977,0.10080268234014511,14.155611038208008,-0.00702899694442749,2.1453890800476074,-0.43338340520858765,0.0,0.0,0.0,0.0,0.0,0.0,0.0,-0.27944870654307347,-0.01415073022687604,-0.03906258449574457,0.30604537799094106,-0.24906645964770732,-0.04730098009136485,-0.41331442986607136,1.6754121948166896,0.05230417021498932,0.029790505245799754,-2.7525750813693843,0.03446102792521543,2.766325860200398,0.7692004969848526,1.6754973547542302,0.052104326824870026,0.029969505109285054,-2.752394845125968,0.0342448039870148,2.7663679543071322,0.7691630533470046,-0.0006988947396533684,-0.0007157982327644264,-0.0009356730229249695,0.0004485565185534107,-0.00047364568247997935,-0.0004426321745589531,0.0005020068813319007,0.0,0.0,0.0,0.0,0.0,0.0,0.0,8.515993754065754e-05,-0.00019984339011929614,0.00017899986348529975,0.0001802362434162319,-0.0002162239382006298,4.2094106734058556e-05,-3.7443637847967004e-05,0.0006988947396533684,0.0007157982327644264,0.0009356730229249695,-0.0004485565185534107,0.00047364568247997935,0.0004426321745589531,-0.0005020068813319007,0.24825400114059448,22.795862197875977,-0.10080268234014511,-14.155611038208008,0.00702899694442749,-2.1453890800476074,0.43338340520858765,0
7,0.029965877532958984,-0.24825400114059448,-22.795862197875977,0.10080268234014511,14.155611038208008,-0.00702899694442749,2.1453890800476074,-0.43338340520858765,0.0,0.0,0.0,0.0,0.0,0.0,0.0,-0.27944870654307347,-0.01415073022687604,-0.03906258449574457,0.30604537799094106,-0.24906645964770732,-0.04730098009136485,-0.41331442986607136,1.6754121948166896,0.05230417021498932,0.029790505245799754,-2.7525750813693843,0.03446102792521543,2.766325860200398,0.7692004969848526,1.6754973547542302,0.052104326824870026,0.029969505109285054,-2.752394845125968,0.0342448039870148,2.7663679543071322,0.7691630533470046,-0.0006988947396533684,-0.0007157982327644264,-0.0009356730229249695,0.0004485565185534107,-0.00047364568247997935,-0.0004426321745589531,0.0005020068813319007,0.0,0.0,0.0,0.0,0.0,0.0,0.0,8.515993754065754e-05,-0.00019984339011929614,0.00017899986348529975,0.0001802362434162319,-0.0002162239382006298,4.2094106734058556e-05,-3.7443637847967004e-05,0.0006988947396533684,0.0007157982327644264,0.0009356730229249695,-0.0004485565185534107,0.00047364568247997935,0.0004426321745589531,-0.0005020068813319007,0.24825400114059448,22.795862197875977,-0.10080268234014511,-14.155611038208008,0.00702899694442749,-2.1453890800476074,0.43338340520858765,0
8,0.03496432304382324,-0.3236324191093445,-22.795862197875977,0.04922797530889511,14.207185745239258,-0.01893085241317749,2.1453890800476074,-0.45352500677108765,0.0,0.0,0.0,0.0,0.0,0.0,0.0,-0.2828080242201352,-0.016603783172449395,-0.039076283060611144,0.3093666144683323,-0.24884251699265247,-0.04702894737986516,-0.4154447282924018,1.6754174845302312,0.0523041702189989,0.029794125498381344,-2.7525784259276254,0.034463585812589265,2.766325877684864,0.7692027349405818,1.6754973547542302,0.052104326824870026,0.029969505109285054,-2.752394845125968,0.0342448039870148,2.7663679543071322,0.7691630533470046,0.0008352946468985859,-0.0005329510305192801,0.00023273819225101192,-0.0006144984342518016,7.966015400280655e-05,-0.00030561356199910284,0.001304517622115796,0.0,0.0,0.0,0.0,0.0,0.0,0.0,7.987022399902344e-05,-0.00019984339412887353,0.00017537961090370938,0.0001835808016572571,-0.00021878182557446418,4.207662226818343e-05,-3.968159357714551e-05,-0.0008352946468985859,0.0005329510305192801,-0.00023273819225101192,0.0006144984342518016,-7.966015400280655e-05,0.00030561356199910284,-0.001304517622115796,0.3236324191093445,22.795862197875977,-0.04922797530889511,-14.207185745239258,0.01893085241317749,-2.1453890800476074,0.45352500677108765,0
9,0.03996419906616211,-0.3236324191093445,-22.795862197875977,0.04922797530889511,14.207185745239258,-0.01893085241317749,2.1453890800476074,-0.45352500677108765,0.0,0.0,0.0,0.0,0.0,0.0,0.0,-0.2828080242201352,-0.016603783172449395,-0.039076283060611144,0.3093666144683323,-0.24884251699265247,-0.04702894737986516,-0.4154447282924018,1.6754174845302312,0.0523041702189989,0.029794125498381344,-2.7525784259276254,0.034463585812589265,2.766325877684864,0.7692027349405818,1.6754973547542302,0.052104326824870026,0.029969505109285054,-2.752394845125968,0.0342448039870148,2.7663679543071322,0.7691630533470046,0.0008352946468985859,-0.0005329510305192801,0.00023273819225101192,-0.0006144984342518016,7.966015400280655e-05,-0.00030561356199910284,0.001304517622115796,0.0,0.0,0.0,0.0,0.0,0.0,0.0,7.987022399902344e-05,-0.00019984339412887353,0.00017537961090370938,0.0001835808016572571,-0.00021878182557446418,4.207662226818343e-05,-3.968159357714551e-05,-0.0008352946468985859,0.0005329510305192801,-0.00023273819225101192,0.0006144984342518016,-7.966015400280655e-05,0.00030561356199910284,-0.001304517622115796,0.3236324191093445,22.795862197875977,-0.04922797530889511,-14.207185745239258,0.01893085241317749,-2.1453890800476074,0.45352500677108765,0
10,0.044985294342041016,-0.3236324191093445,-22.795862197875977,0.04922797530889511,14.207185745239258,-0.01893085241317749,2.1453890800476074,-0.45352500677108765,0.0,0.0,0.0,0.0,0.0,0.0,0.0,-0.2828080242201352,-0.016603783172449395,-0.039076283060611144,0.3093666144683323,-0.24884251699265247,-0.04702894737986516,-0.4154447282924018,1.6754174845302312,0.0523041702189989,0.029794125498381344,-2.7525784259276254,0.034463585812589265,2.766325877684864,0.7692027349405818,1.6754973547542302,0.052104326824870026,0.029969505109285054,-2.752394845125968,0.0342448039870148,2.7663679543071322,0.7691630533470046,0.0008352946468985859,-0.0005329510305192801,0.00023273819225101192,-0.0006144984342518016,7.966015400280655e-05,-0.00030561356199910284,0.001304517622115796,0.0,0.0,0.0,0.0,0.0,0.0,0.0,7.987022399902344e-05,-0.00019984339412887353,0.00017537961090370938,0.0001835808016572571,-0.00021878182557446418,4.207662226818343e-05,-3.968159357714551e-05,-0.0008352946468985859,0.0005329510305192801,-0.00023273819225101192,0.0006144984342518016,-7.966015400280655e-05,0.00030561356199910284,-0.001304517622115796,0.3236324191093445,22.795862197875977,-0.04922797530889511,-14.207185745239258,0.01893085241317749,-2.1453890800476074,0.45352500677108765,0
11,0.049973487854003906,-0.3236324191093445,-22.795862197875977,0.04922797530889511,14.207185745239258,-0.01893085241317749,2.1453890800476074,-0.45352500677108765,0.0,0.0,0.0,0.0,0.0,0.0,0.0,-0.2828080242201352,-0.016603783172449395,-0.039076283060611144,0.3093666144683323,-0.24884251699265247,-0.04702894737986516,-0.4154447282924018,1.6754174845302312,0.0523041702189989,0.029794125498381344,-2.7525784259276254,0.034463585812589265,2.766325877684864,0.7692027349405818,1.6754973547542302,0.052104326824870026,0.029969505109285054,-2.752394845125968,0.0342448039870148,2.7663679543071322,0.7691630533470046,0.0008352946468985859,-0.0005329510305192801,0.00023273819225101192,-0.0006144984342518016,7.966015400280655e-05,-0.00030561356199910284,0.001304517622115796,0.0,0.0,0.0,0.0,0.0,0.0,0.0,7.987022399902344e-05,-0.00019984339412887353,0.00017537961090370938,0.0001835808016572571,-0.00021878182557446418,4.207662226818343e-05,-3.968159357714551e-05,-0.0008352946468985859,0.0005329510305192801,-0.00023273819225101192,0.0006144984342518016,-7.966015400280655e-05,0.00030561356199910284,-0.001304517622115796,0.3236324191093445,22.795862197875977,-0.04922797530889511,-14.207185745239258,0.01893085241317749,-2.1453890800476074,0.45352500677108765,0
12,0.05496978759765625,-0.2998287081718445,-22.795862197875977,0.04922797530889511,14.179414749145508,-0.00702899694442749,2.1389803886413574,-0.44711631536483765,0.0,0.0,0.0,0.0,0.0,0.0,0.0,-0.2847392766422554,-0.01338070708574395,-0.03794005022155101,0.3056972519393277,-0.24933529497846244,-0.047692318825641206,-0.41683064098314204,1.675415814094376,0.0523020393529482,0.029794116724280617,-2.7525764770842436,0.03446261804322222,2.766326977805866,0.7692020228637588,1.6754973547542302,0.052104326824870026,0.029969505109285054,-2.752394845125968,0.0342448039870148,2.7663679543071322,0.7691630533470046,0.0003789647495599827,-0.0002274378425268774,-0.0005540835422348845,-0.0003540622560012423,-0.0003818567538139709,-0.00019496311601514328,0.0014807373973853603,0.0,0.0,0.0,0.0,0.0,0.0,0.0,8.154065985421788e-05,-0.00019771252807817413,0.0001753883850044366,0.0001816319582754744,-0.0002178140562074174,4.097650126633212e-05,-3.89695167541948e-05,-0.0003789647495599827,0.0002274378425268774,0.0005540835422348845,0.0003540622560012423,0.0003818567538139709,0.00019496311601514328,-0.0014807373973853603,0.2998287081718445,22.795862197875977,-0.04922797530889511,-14.179414749145508,0.00702899694442749,-2.1389803886413574,0.44711631536483765,0
13,0.05996894836425781,-0.2998287081718445,-22.795862197875977,0.04922797530889511,14.179414749145508,-0.00702899694442749,2.1389803886413574,-0.44711631536483765,0.0,0.0,0.0,0.0,0.0,0.0,0.0,-0.2847392766422554,-0.01338070708574395,-0.03794005022155101,0.3056972519393277,-0.24933529497846244,-0.047692318825641206,-0.41683064098314204,1.675415814094376,0.0523020393529482,0.029794116724280617,-2.7525764770842436,0.03446261804322222,2.766326977805866,0.7692020228637588,1.6754973547542302,0.052104326824870026,0.029969505109285054,-2.752394845125968,0.0342448039870148,2.7663679543071322,0.7691630533470046,0.0003789647495599827,-0.0002274378425268774,-0.0005540835422348845,-0.0003540622560012423,-0.0003818567538139709,-0.00019496311601514328,0.0014807373973853603,0.0,0.0,0.0,0.0,0.0,0.0,0.0,8.154065985421788e-05,-0.00019771252807817413,0.0001753883850044366,0.0001816319582754744,-0.0002178140562074174,4.097650126633212e-05,-3.89695167541948e-05,-0.0003789647495599827,0.0002274378425268774,0.0005540835422348845,0.0003540622560012423,0.0003818567538139709,0.00019496311601514328,-0.0014807373973853603,0.2998287081718445,22.795862197875977,-0.04922797530889511,-14.179414749145508,0.00702899694442749,-2.1389803886413574,0.44711631536483765,0
14,0.06550359725952148,-0.3236324191093445,-22.795862197875977,0.02542426437139511,14.155611038208008,-0.01893085241317749,2.1389803886413574,-0.46725791692733765,0.0,0.0,0.0,0.0,0.0,0.0,0.0,-0.2831449011663735,-0.017355460697734054,-0.0378039738426934,0.3092787556996666,-0.24969035969796716,-0.04725017259520816,-0.41707377372295107,1.6754174845302312,0.05230416143797403,0.02979579593419258,-2.752574806648388,0.0344639270598981,2.7663270477399737,0.7692042564588373,1.6754973547542302,0.052104326824870026,0.029969505109285054,-2.752394845125968,0.0342448039870148,2.7663679543071322,0.7691630533470046,0.0006817167894607485,-0.0003736959363802693,0.00034344401864903933,0.0006565910429236452,0.00011295008971457692,-3.8302592815659755e-05,0.0023463543608674424,0.0,0.0,0.0,0.0,0.0,0.0,0.0,7.987022399902344e-05,-0.00019983461310400102,0.00017370917509247283,0.00017996152242005792,-0.00021912307288329824,4.0906567158494056e-05,-4.120311183264391e-05,-0.0006817167894607485,0.0003736959363802693,-0.00034344401864903933,-0.0006565910429236452,-0.00011295008971457692,3.8302592815659755e-05,-0.0023463543608674424,0.3236324191093445,22.795862197875977,-0.02542426437139511,-14.155611038208008,0.01893085241317749,-2.1389803886413574,0.46725791692733765,0
15,0.06996345520019531,-0.3236324191093445,-22.795862197875977,0.02542426437139511,14.155611038208008,-0.01893085241317749,2.1389803886413574,-0.46725791692733765,0.0,0.0,0.0,0.0,0.0,0.0,0.0,-0.2831449011663735,-0.017355460697734054,-0.0378039738426934,0.3092787556996666,-0.24969035969796716,-0.04725017259520816,-0.41707377372295107,1.6754174845302312,0.05230416143797403,0.02979579593419258,-2.752574806648388,0.0344639270598981,2.7663270477399737,0.7692042564588373,1.6754973547542302,0.052104326824870026,0.029969505109285054,-2.752394845125968,0.0342448039870148,2.7663679543071322,0.7691630533470046,0.0006817167894607485,-0.0003736959363802693,0.00034344401864903933,0.0006565910429236452,0.00011295008971457692,-3.8302592815659755e-05,0.0023463543608674424,0.0,0.0,0.0,0.0,0.0,0.0,0.0,7.987022399902344e-05,-0.00019983461310400102,0.00017370917509247283,0.00017996152242005792,-0.00021912307288329824,4.0906567158494056e-05,-4.120311183264391e-05,-0.0006817167894607485,0.0003736959363802693,-0.00034344401864903933,-0.0006565910429236452,-0.00011295008971457692,3.8302592815659755e-05,-0.0023463543608674424,0.3236324191093445,22.795862197875977,-0.02542426437139511,-14.155611038208008,0.01893085241317749,-2.1389803886413574,0.46725791692733765,0
16,0.07496333122253418,-0.3236324191093445,-22.819665908813477,0.07303168624639511,14.155611038208008,-0.01343768835067749,2.1325716972351074,-0.43338340520858765,0.0,0.0,0.0,0.0,0.0,0.0,0.0,-0.2825518086218061,-0.00992654085763985,-0.03737804877906579,0.30564136930888136,-0.2499461873488999,-0.04854212732934974,-0.4169769296928928,1.6754174845302312,0.05230584065480462,0.029792446180103058,-2.7525748069875497,0.034463316978697624,2.7663263424980316,0.769200496984828,1.6754973547542302,0.052104326824870026,0.029969505109285054,-2.752394845125968,0.0342448039870148,2.7663679543071322,0.7691630533470046,0.0008652683980349122,0.0007716840759105123,-0.0007292891733471364,0.0005527100363698821,-0.00019349432001338087,1.21750040195371e-05,0.0009445790269805014,0.0,0.0,0.0,0.0,0.0,0.0,0.0,7.987022399902344e-05,-0.00020151382993459366,0.000177058929181996,0.00017996186158164562,-0.00021851299168282323,4.1611809100672303e-05,-3.744363782332005e-05,-0.0008652683980349122,-0.0007716840759105123,0.0007292891733471364,-0.0005527100363698821,0.00019349432001338087,-1.21750040195371e-05,-0.0009445790269805014,0.3236324191093445,22.819665908813477,-0.07303168624639511,-14.155611038208008,0.01343768835067749,-2.1325716972351074,0.43338340520858765,0
17,0.07998466491699219,-0.3236324191093445,-22.819665908813477,0.07303168624639511,14.155611038208008,-0.01343768835067749,2.1325716972351074,-0.43338340520858765,0.0,0.0,0.0,0.0,0.0,0.0,0.0,-0.2825518086218061,-0.00992654085763985,-0.03737804877906579,0.30564136930888136,-0.2499461873488999,-0.04854212732934974,-0.4169769296928928,1.6754174845302312,0.05230584065480462,0.029792446180103058,-2.7525748069875497,0.034463316978697624,2.7663263424980316,0.769200496984828,1.6754973547542302,0.052104326824870026,0.029969505109285054,-2.752394845125968,0.0342448039870148,2.7663679543071322,0.7691630533470046,0.0008652683980349122,0.0007716840759105123,-0.0007292891733471364,0.0005527100363698821,-0.00019349432001338087,1.21750040195371e-05,0.0009445790269805014,0.0,0.0,0.0,0.0,0.0,0.0,0.0,7.987022399902344e-05,-0.00020151382993459366,0.000177058929181996,0.00017996186158164562,-0.00021851299168282323,4.1611809100672303e-05,-3.744363782332005e-05,-0.0008652683980349122,-0.0007716840759105123,0.0007292891733471364,-0.0005527100363698821,0.00019349432001338087,-1.21750040195371e-05,-0.0009445790269805014,0.3236324191093445,22.819665908813477,-0.07303168624639511,-14.155611038208008,0.01343768835067749,-2.1325716972351074,0.43338340520858765,0
18,0.08496308326721191,-0.3236324191093445,-22.795862197875977,0.04922797530889511,14.179414749145508,-0.01893085241317749,2.1389803886413574,-0.41965049505233765,0.0,0.0,0.0,0.0,0.0,0.0,0.0,-0.28627120672612644,-0.01568986943924426,-0.039484886715592894,0.30667150286205486,-0.24955168407692893,-0.04808766527940869,-0.4155633647492062,1.6754174845302312,0.05230417021899892,0.029794125498336706,-2.7525764862416118,0.034463940689885696,2.766326585341884,0.7691986130480691,1.6754973547542302,0.052104326824870026,0.029969505109285054,-2.752394845125968,0.0342448039870148,2.7663679543071322,0.7691630533470046,0.0005086469119852047,-0.0007129991162012324,0.00018825250691269967,-0.0006128275452199601,0.0002056357673409307,0.000170045202906477,0.0006600194175533234,0.0,0.0,0.0,0.0,0.0,0.0,0.0,7.987022399902344e-05,-0.00019984339412889435,0.00017537961094834728,0.00018164111564367147,-0.00021913670287089515,4.136896524808975e-05,-3.555970106450257e-05,-0.0005086469119852047,0.0007129991162012324,-0.00018825250691269967,0.0006128275452199601,-0.0002056357673409307,-0.000170045202906477,-0.0006600194175533234,0.3236324191093445,22.795862197875977,-0.04922797530889511,-14.179414749145508,0.01893085241317749,-2.1389803886413574,0.41965049505233765,0
19,0.08998346328735352,-0.3236324191093445,-22.795862197875977,0.04922797530889511,14.179414749145508,-0.01893085241317749,2.1389803886413574,-0.41965049505233765,0.0,0.0,0.0,0.0,0.0,0.0,0.0,-0.28627120672612644,-0.01568986943924426,-0.039484886715592894,0.30667150286205486,-0.24955168407692893,-0.04808766527940869,-0.4155633647492062,1.6754174845302312,0.05230417021899892,0.029794125498336706,-2.7525764862416118,0.034463940689885696,2.766326585341884,0.7691986130480691,1.6754973547542302,0.052104326824870026,0.029969505109285054,-2.752394845125968,0.0342448039870148,2.7663679543071322,0.7691630533470046,0.0005086469119852047,-0.0007129991162012324,0.00018825250691269967,-0.0006128275452199601,0.0002056357673409307,0.000170045202906477,0.0006600194175533234,0.0,0.0,0.0,0.0,0.0,0.0,0.0,7.987022399902344e-05,-0.00019984339412889435,0.00017537961094834728,0.00018164111564367147,-0.00021913670287089515,4.136896524808975e-05,-3.555970106450257e-05,-0.0005086469119852047,0.0007129991162012324,-0.00018825250691269967,0.0006128275452199601,-0.0002056357673409307,-0.000170045202906477,-0.0006600194175533234,0.3236324191093445,22.795862197875977,-0.04922797530889511,-14.179414749145508,0.01893085241317749,-2.1389803886413574,0.41965049505233765,0
20,0.09496259689331055,-0.2998287081718445,-22.871240615844727,0.04922797530889511,14.179414749145508,-0.01893085241317749,2.1261630058288574,-0.39950889348983765,0.0,0.0,0.0,0.0,0.0,0.0,0.0,-0.2893745845940901,-0.014660495456502843,-0.039981430199964835,0.3034513156422783,-0.24897947924051975,-0.04742145181987511,-0.4147018640149608,1.675415814094376,0.052309459607762954,0.02979412517341995,-2.752576477084295,0.03446393576799436,2.7663269518008584,0.7691967331481959,1.6754973547542302,0.052104326824870026,0.029969505109285054,-2.752394845125968,0.0342448039870148,2.7663679543071322,0.7691630533470046,0.0005416218551519042,0.0013336368110290558,-0.0006326471321211712,-0.0004975497804219835,9.327873079957169e-05,0.00035556234302720324,-0.0008060538660587838,0.0,0.0,0.0,0.0,0.0,0.0,0.0,8.154065985421788e-05,-0.0002051327828929278,0.00017537993586510398,0.00018163195832698875,-0.0002191317809795562,4.1002506273812855e-05,-3.367980119128866e-05,-0.0005416218551519042,-0.0013336368110290558,0.0006326471321211712,0.0004975497804219835,-9.327873079957169e-05,-0.00035556234302720324,0.0008060538660587838,0.2998287081718445,22.871240615844727,-0.04922797530889511,-14.179414749145508,0.01893085241317749,-2.1261630058288574,0.39950889348983765,0
21,0.09996604919433594,-0.2998287081718445,-22.871240615844727,0.04922797530889511,14.179414749145508,-0.01893085241317749,2.1261630058288574,-0.39950889348983765,0.0,0.0,0.0,0.0,0.0,0.0,0.0,-0.2893745845940901,-0.014660495456502843,-0.039981430199964835,0.3034513156422783,-0.24897947924051975,-0.04742145181987511,-0.4147018640149608,1.675415814094376,0.052309459607762954,0.02979412517341995,-2.752576477084295,0.03446393576799436,2.7663269518008584,0.7691967331481959,1.6754973547542302,0.052104326824870026,0.029969505109285054,-2.752394845125968,0.0342448039870148,2.7663679543071322,0.7691630533470046,0.0005416218551519042,0.0013336368110290558,-0.0006326471321211712,-0.0004975497804219835,9.327873079957169e-05,0.00035556234302720324,-0.0008060538660587838,0.0,0.0,0.0,0.0,0.0,0.0,0.0,8.154065985421788e-05,-0.0002051327828929278,0.00017537993586510398,0.00018163195832698875,-0.0002191317809795562,4.1002506273812855e-05,-3.367980119128866e-05,-0.0005416218551519042,-0.0013336368110290558,0.0006326471321211712,0.0004975497804219835,-9.327873079957169e-05,-0.00035556234302720324,0.0008060538660587838,0.2998287081718445,22.871240615844727,-0.04922797530889511,-14.179414749145508,0.01893085241317749,-2.1261630058288574,0.39950889348983765,0
22,0.1049814224243164,-0.22445029020309448,-22.795862197875977,0.04922797530889511,14.155611038208008,-0.01893085241317749,2.1389803886413574,-0.41324180364608765,0.0,0.0,0.0,0.0,0.0,0.0,0.0,-0.2849827123539885,-0.01707899182688187,-0.039371881081239755,0.3024164452788876,-0.2490953986816342,-0.047606300897535786,-0.416297715518025,1.6754105243808342,0.05230417021899709,0.02979412549838501,-2.7525748341204874,0.034463927546659466,2.7663286915356102,0.7691982590291234,1.6754973547542302,0.052104326824870026,0.029969505109285054,-2.752394845125968,0.0342448039870148,2.7663679543071322,0.7691630533470046,-0.001112293914250989,-0.00048797158685402037,0.00031565649959698237,0.0004415719947369669,-2.22886611469428e-05,-0.00017112791871458377,-0.0005014924972855693,0.0,0.0,0.0,0.0,0.0,0.0,0.0,8.683037339607402e-05,-0.00019984339412706248,0.00017537961090004217,0.00017998899451932004,-0.00021912355964466557,3.926277152199731e-05,-3.5205682118788495e-05,0.001112293914250989,0.00048797158685402037,-0.00031565649959698237,-0.0004415719947369669,2.22886611469428e-05,0.00017112791871458377,0.0005014924972855693,0.22445029020309448,22.795862197875977,-0.04922797530889511,-14.155611038208008,0.01893085241317749,-2.1389803886413574,0.41324180364608765,0
23,0.11001420021057129,-0.22445029020309448,-22.795862197875977,0.04922797530889511,14.155611038208008,-0.01893085241317749,2.1389803886413574,-0.41324180364608765,0.0,0.0,0.0,0.0,0.0,0.0,0.0,-0.2849827123539885,-0.01707899182688187,-0.039371881081239755,0.3024164452788876,-0.2490953986816342,-0.047606300897535786,-0.416297715518025,1.6754105243808342,0.05230417021899709,0.02979412549838501,-2.7525748341204874,0.034463927546659466,2.7663286915356102,0.7691982590291234,1.6754973547542302,0.052104326824870026,0.029969505109285054,-2.752394845125968,0.0342448039870148,2.7663679543071322,0.7691630533470046,-0.001112293914250989,-0.00048797158685402037,0.00031565649959698237,0.0004415719947369669,-2.22886611469428e-05,-0.00017112791871458377,-0.0005014924972855693,0.0,0.0,0.0,0.0,0.0,0.0,0.0,8.683037339607402e-05,-0.00019984339412706248,0.00017537961090004217,0.00017998899451932004,-0.00021912355964466557,3.926277152199731e-05,-3.5205682118788495e-05,0.001112293914250989,0.00048797158685402037,-0.00031565649959698237,-0.0004415719947369669,2.22886611469428e-05,0.00017112791871458377,0.0005014924972855693,0.22445029020309448,22.795862197875977,-0.04922797530889511,-14.155611038208008,0.01893085241317749,-2.1389803886413574,0.41324180364608765,0
24,0.11497807502746582,-0.2720577120780945,-22.819665908813477,0.04922797530889511,14.179414749145508,-0.01893085241317749,2.1261630058288574,-0.37204307317733765,0.0,0.0,0.0,0.0,0.0,0.0,0.0,-0.28116206370746194,-0.013639453290777866,-0.03809905691151263,0.29754989420281397,-0.2496572808154975,-0.049204003870264565,-0.4179919793286837,1.6754138652525448,0.052305840654854184,0.029794125498386847,-2.7525764770843986,0.0344605886682634,2.766330234090709,0.769193642146548,1.6754973547542302,0.052104326824870026,0.029969505109285054,-2.752394845125968,0.0342448039870148,2.7663679543071322,0.7691630533470046,0.00021921409280143358,0.000401333216297344,0.0004896728105084947,-0.0006943493852832884,0.00026616250412111965,0.00033760939840525356,-0.0020652715926504145,0.0,0.0,0.0,0.0,0.0,0.0,0.0,8.34895016854631e-05,-0.00020151382998415818,0.00017537961089820683,0.00018163195843046154,-0.00021578468124860278,3.7720216423231534e-05,-3.05887995433185e-05,-0.00021921409280143358,-0.000401333216297344,-0.0004896728105084947,0.0006943493852832884,-0.00026616250412111965,-0.00033760939840525356,0.0020652715926504145,0.2720577120780945,22.819665908813477,-0.04922797530889511,-14.179414749145508,0.01893085241317749,-2.1261630058288574,0.37204307317733765,0
25,0.11997199058532715,-0.2720577120780945,-22.819665908813477,0.04922797530889511,14.179414749145508,-0.01893085241317749,2.1261630058288574,-0.37204307317733765,0.0,0.0,0.0,0.0,0.0,0.0,0.0,-0.28116206370746194,-0.013639453290777866,-0.03809905691151263,0.29754989420281397,-0.2496572808154975,-0.049204003870264565,-0.4179919793286837,1.6754138652525448,0.052305840654854184,0.029794125498386847,-2.7525764770843986,0.0344605886682634,2.766330234090709,0.769193642146548,1.6754973547542302,0.052104326824870026,0.029969505109285054,-2.752394845125968,0.0342448039870148,2.7663679543071322,0.7691630533470046,0.00021921409280143358,0.000401333216297344,0.0004896728105084947,-0.0006943493852832884,0.00026616250412111965,0.00033760939840525356,-0.0020652715926504145,0.0,0.0,0.0,0.0,0.0,0.0,0.0,8.34895016854631e-05,-0.00020151382998415818,0.00017537961089820683,0.00018163195843046154,-0.00021578468124860278,3.7720216423231534e-05,-3.05887995433185e-05,-0.00021921409280143358,-0.000401333216297344,-0.0004896728105084947,0.0006943493852832884,-0.00026616250412111965,-0.00033760939840525356,0.0020652715926504145,0.2720577120780945,22.819665908813477,-0.04922797530889511,-14.179414749145508,0.01893085241317749,-2.1261630058288574,0.37204307317733765,0
26,0.12499380111694336,-0.24825400114059448,-22.847436904907227,0.07303168624639511,14.179414749145508,-0.01893085241317749,2.1389803886413574,-0.39950889348983765,0.0,0.0,0.0,0.0,0.0,0.0,0.0,-0.2781230890195794,-0.014050870575488136,-0.03586513488836103,0.3017224695056175,-0.249091342839761,-0.04909273509263191,-0.4180098640782661,1.6754121948166896,0.052307789496685325,0.02979245202950721,-2.7525764801366988,0.0344638997808535,2.7663301613087783,0.7691967331499957,1.6754973547542302,0.052104326824870026,0.029969505109285054,-2.752394845125968,0.0342448039870148,2.7663679543071322,0.7691630533470046,-0.0005132774546376324,0.001488722034748776,3.693929701225134e-05,-0.0002082567725771143,0.00010520835958038176,-0.00032601733740777084,-0.0008897395156981099,0.0,0.0,0.0,0.0,0.0,0.0,0.0,8.515993754065754e-05,-0.0002034626718152993,0.00017705307977784399,0.0001816350107306519,-0.00021909579383869865,3.7792998353936014e-05,-3.3679802991071206e-05,0.0005132774546376324,-0.001488722034748776,-3.693929701225134e-05,0.0002082567725771143,-0.00010520835958038176,0.00032601733740777084,0.0008897395156981099,0.24825400114059448,22.847436904907227,-0.07303168624639511,-14.179414749145508,0.01893085241317749,-2.1389803886413574,0.39950889348983765,0
27,0.12996721267700195,-0.24825400114059448,-22.847436904907227,0.07303168624639511,14.179414749145508,-0.01893085241317749,2.1389803886413574,-0.39950889348983765,0.0,0.0,0.0,0.0,0.0,0.0,0.0,-0.2781230890195794,-0.014050870575488136,-0.03586513488836103,0.3017224695056175,-0.249091342839761,-0.04909273509263191,-0.4180098640782661,1.6754121948166896,0.052307789496685325,0.02979245202950721,-2.7525764801366988,0.0344638997808535,2.7663301613087783,0.7691967331499957,1.6754973547542302,0.052104326824870026,0.029969505109285054,-2.752394845125968,0.0342448039870148,2.7663679543071322,0.7691630533470046,-0.0005132774546376324,0.001488722034748776,3.693929701225134e-05,-0.0002082567725771143,0.00010520835958038176,-0.00032601733740777084,-0.0008897395156981099,0.0,0.0,0.0,0.0,0.0,0.0,0.0,8.515993754065754e-05,-0.0002034626718152993,0.00017705307977784399,0.0001816350107306519,-0.00021909579383869865,3.7792998353936014e-05,-3.3679802991071206e-05,0.0005132774546376324,-0.001488722034748776,-3.693929701225134e-05,0.0002082567725771143,-0.00010520835958038176,0.00032601733740777084,0.0008897395156981099,0.24825400114059448,22.847436904907227,-0.07303168624639511,-14.179414749145508,0.01893085241317749,-2.1389803886413574,0.39950889348983765,0
28,0.1349654197692871,-0.24825400114059448,-22.847436904907227,0.07303168624639511,14.179414749145508,-0.01893085241317749,2.1389803886413574,-0.39950889348983765,0.0,0.0,0.0,0.0,0.0,0.0,0.0,-0.2781230890195794,-0.014050870575488136,-0.03586513488836103,0.3017224695056175,-0.249091342839761,-0.04909273509263191,-0.4180098640782661,1.6754121948166896,0.052307789496685325,0.02979245202950721,-2.7525764801366988,0.0344638997808535,2.7663301613087783,0.7691967331499957,1.6754973547542302,0.052104326824870026,0.029969505109285054,-2.752394845125968,0.0342448039870148,2.7663679543071322,0.7691630533470046,-0.0005132774546376324,0.001488722034748776,3.693929701225134e-05,-0.0002082567725771143,0.00010520835958038176,-0.00032601733740777084,-0.0008897395156981099,0.0,0.0,0.0,0.0,0.0,0.0,0.0,8.515993754065754e-05,-0.0002034626718152993,0.00017705307977784399,0.0001816350107306519,-0.00021909579383869865,3.7792998353936014e-05,-3.3679802991071206e-05,0.0005132774546376324,-0.001488722034748776,-3.693929701225134e-05,0.0002082567725771143,-0.00010520835958038176,0.00032601733740777084,0.0008897395156981099,0.24825400114059448,22.847436904907227,-0.07303168624639511,-14.179414749145508,0.01893085241317749,-2.1389803886413574,0.39950889348983765,0
29,0.13996315002441406,-0.2720577120780945,-22.795862197875977,0.07303168624639511,14.131807327270508,-0.01343768835067749,2.1389803886413574,-0.42605918645858765,0.0,0.0,0.0,0.0,0.0,0.0,0.0,-0.2697774173614998,-0.0110476420070347,-0.027748696451131948,0.3001525060281077,-0.24927699193850597,-0.05021977740522086,-0.4173207887699889,1.6754138652525448,0.05230417021899892,0.029792349773239694,-2.7525731372300353,0.03446333017590504,2.7663290505886784,0.7691996831827692,1.6754973547542302,0.052104326824870026,0.029969505109285054,-2.752394845125968,0.0342448039870148,2.7663679543071322,0.7691630533470046,0.0004967894151441846,0.0001940581187867845,0.0001525117442909959,0.0007208032022056355,-0.00013339061978655795,-0.00010453479485334842,0.0004370057842761253,0.0,0.0,0.0,0.0,0.0,0.0,0.0,8.34895016854631e-05,-0.00019984339412889435,0.00017715533604535996,0.0001782921040671681,-0.0002185261888902404,3.8903718453831004e-05,-3.66298357645789e-05,-0.0004967894151441846,-0.0001940581187867845,-0.0001525117442909959,-0.0007208032022056355,0.00013339061978655795,0.00010453479485334842,-0.0004370057842761253,0.2720577120780945,22.795862197875977,-0.07303168624639511,-14.131807327270508,0.01343768835067749,-2.1389803886413574,0.42605918645858765,0
30,0.14498496055603027,-0.2720577120780945,-22.795862197875977,0.07303168624639511,14.131807327270508,-0.01343768835067749,2.1389803886413574,-0.42605918645858765,0.0,0.0,0.0,0.0,0.0,0.0,0.0,-0.2697774173614998,-0.0110476420070347,-0.027748696451131948,0.3001525060281077,-0.24927699193850597,-0.05021977740522086,-0.4173207887699889,1.6754138652525448,0.05230417021899892,0.029792349773239694,-2.7525731372300353,0.03446333017590504,2.7663290505886784,0.7691996831827692,1.6754973547542302,0.052104326824870026,0.029969505109285054,-2.752394845125968,0.0342448039870148,2.7663679543071322,0.7691630533470046,0.0004967894151441846,0.0001940581187867845,0.0001525117442909959,0.0007208032022056355,-0.00013339061978655795,-0.00010453479485334842,0.0004370057842761253,0.0,0.0,0.0,0.0,0.0,0.0,0.0,8.34895016854631e-05,-0.00019984339412889435,0.00017715533604535996,0.0001782921040671681,-0.0002185261888902404,3.8903718453831004e-05,-3.66298357645789e-05,-0.0004967894151441846,-0.0001940581187867845,-0.0001525117442909959,-0.0007208032022056355,0.00013339061978655795,0.00010453479485334842,-0.0004370057842761253,0.2720577120780945,22.795862197875977,-0.07303168624639511,-14.131807327270508,0.01343768835067749,-2.1389803886413574,0.42605918645858765,0
31,0.15001535415649414,-0.2720577120780945,-22.819665908813477,0.02542426437139511,14.155611038208008,-0.02533954381942749,2.1325716972351074,-0.43338340520858765,0.0,0.0,0.0,0.0,0.0,0.0,0.0,-0.27419667414405097,-0.0201753015326504,-0.030587504240488107,0.30571124412843065,-0.2482904914118079,-0.049057523965649934,-0.4155237870101318,1.6754138652525448,0.052305840654854184,0.02979579593364775,-2.752574837172949,0.03446145841035843,2.766326239253435,0.7692004969848526,1.6754973547542302,0.052104326824870026,0.029969505109285054,-2.752394845125968,0.0342448039870148,2.7663679543071322,0.7691630533470046,-0.00011744096187355688,-0.0004656420399843049,0.00044991717900695345,3.2539155608492733e-05,0.00018809384767958746,0.00010297391339675247,0.0010445963397665474,0.0,0.0,0.0,0.0,0.0,0.0,0.0,8.34895016854631e-05,-0.00020151382998415818,0.00017370917563730437,0.0001799920469807148,-0.00021665442334362767,4.1715053697100046e-05,-3.7443637847967004e-05,0.00011744096187355688,0.0004656420399843049,-0.00044991717900695345,-3.2539155608492733e-05,-0.00018809384767958746,-0.00010297391339675247,-0.0010445963397665474,0.2720577120780945,22.819665908813477,-0.02542426437139511,-14.155611038208008,0.02533954381942749,-2.1325716972351074,0.43338340520858765,0
32,0.15497756004333496,-0.2720577120780945,-22.819665908813477,0.02542426437139511,14.155611038208008,-0.02533954381942749,2.1325716972351074,-0.43338340520858765,0.0,0.0,0.0,0.0,0.0,0.0,0.0,-0.27419667414405097,-0.0201753015326504,-0.030587504240488107,0.30571124412843065,-0.2482904914118079,-0.049057523965649934,-0.4155237870101318,1.6754138652525448,0.052305840654854184,0.02979579593364775,-2.752574837172949,0.03446145841035843,2.766326239253435,0.7692004969848526,1.6754973547542302,0.052104326824870026,0.029969505109285054,-2.752394845125968,0.0342448039870148,2.7663679543071322,0.7691630533470046,-0.00011744096187355688,-0.0004656420399843049,0.00044991717900695345,3.2539155608492733e-05,0.00018809384767958746,0.00010297391339675247,0.0010445963397665474,0.0,0.0,0.0,0.0,0.0,0.0,0.0,8.34895016854631e-05,-0.00020151382998415818,0.00017370917563730437,0.0001799920469807148,-0.00021665442334362767,4.1715053697100046e-05,-3.7443637847967004e-05,0.00011744096187355688,0.0004656420399843049,-0.00044991717900695345,-3.2539155608492733e-05,-0.00018809384767958746,-0.00010297391339675247,-0.0010445963397665474,0.2720577120780945,22.819665908813477,-0.02542426437139511,-14.155611038208008,0.02533954381942749,-2.1325716972351074,0.43338340520858765,0
33,0.15998458862304688,-0.2720577120780945,-22.795862197875977,0.02542426437139511,14.179414749145508,-0.01343768835067749,2.1389803886413574,-0.42605918645858765,0.0,0.0,0.0,0.0,0.0,0.0,0.0,-0.27531351359331974,-0.013108599100229178,-0.03156992221698524,0.3010717032198099,-0.24901283250143724,-0.04925666840303772,-0.41347124416744674,1.6754138652525448,0.05230417021899892,0.029795795825919808,-2.7525764771221004,0.03446226566109576,2.7663256362268256,0.7691986235446399,1.6754973547542302,0.052104326824870026,0.029969505109285054,-2.752394845125968,0.0342448039870148,2.7663679543071322,0.7691630533470046,-0.0006187348191035165,-0.00041335750634133447,0.00017164441770877427,-0.00039496228014711905,-3.7420008416410016e-05,0.00018835549912379204,0.0014701421105420111,0.0,0.0,0.0,0.0,0.0,0.0,0.0,8.34895016854631e-05,-0.00019984339412889435,0.00017370928336524552,0.00018163199613230319,-0.00021746167408095984,4.2318080306635864e-05,-3.5570197635226286e-05,0.0006187348191035165,0.00041335750634133447,-0.00017164441770877427,0.00039496228014711905,3.7420008416410016e-05,-0.00018835549912379204,-0.0014701421105420111,0.2720577120780945,22.795862197875977,-0.02542426437139511,-14.179414749145508,0.01343768835067749,-2.1389803886413574,0.42605918645858765,0
34,0.1649794578552246,-0.2720577120780945,-22.795862197875977,0.02542426437139511,14.179414749145508,-0.01343768835067749,2.1389803886413574,-0.42605918645858765,0.0,0.0,0.0,0.0,0.0,0.0,0.0,-0.27531351359331974,-0.013108599100229178,-0.03156992221698524,0.3010717032198099,-0.24901283250143724,-0.04925666840303772,-0.41347124416744674,1.6754138652525448,0.05230417021899892,0.029795795825919808,-2.7525764771221004,0.03446226566109576,2.7663256362268256,0.7691986235446399,1.6754973547542302,0.052104326824870026,0.029969505109285054,-2.752394845125968,0.0342448039870148,2.7663679543071322,0.7691630533470046,-0.0006187348191035165,-0.00041335750634133447,0.00017164441770877427,-0.00039496228014711905,-3.7420008416410016e-05,0.00018835549912379204,0.0014701421105420111,0.0,0.0,0.0,0.0,0.0,0.0,0.0,8.34895016854631e-05,-0.00019984339412889435,0.00017370928336524552,0.00018163199613230319,-0.00021746167408095984,4.2318080306635864e-05,-3.5570197635226286e-05,0.0006187348191035165,0.00041335750634133447,-0.00017164441770877427,0.00039496228014711905,3.7420008416410016e-05,-0.00018835549912379204,-0.0014701421105420111,0.2720577120780945,22.795862197875977,-0.02542426437139511,-14.179414749145508,0.01343768835067749,-2.1389803886413574,0.42605918645858765,0
35,0.1699817180633545,-0.3236324191093445,-22.795862197875977,0.001620553433895111,14.155611038208008,-0.01343768835067749,2.1453890800476074,-0.41965049505233765,0.0,0.0,0.0,0.0,0.0,0.0,0.0,-0.2805086095542205,-0.014214762883083485,-0.036557015624239325,0.3013583938354399,-0.24899559112237682,-0.04887701811510785,-0.41047261002396046,1.6754174845302312,0.05230417021899892,0.029797466261774465,-2.752575053897285,0.034460136462751714,2.76632939667089,0.7691989710999647,1.6754973547542302,0.052104326824870026,0.029969505109285054,-2.752394845125968,0.0342448039870148,2.7663679543071322,0.7691630533470046,0.0007552928980429234,-0.0005162907028724,0.00015104843868350896,0.00043617925190497407,-4.912719272722264e-05,-0.000283264944988794,0.0005187949061016677,0.0,0.0,0.0,0.0,0.0,0.0,0.0,7.987022399902344e-05,-0.00019984339412889435,0.00017203884751058884,0.00018020877131696977,-0.00021533247573691378,3.855763624205366e-05,-3.5917752960079596e-05,-0.0007552928980429234,0.0005162907028724,-0.00015104843868350896,-0.00043617925190497407,4.912719272722264e-05,0.000283264944988794,-0.0005187949061016677,0.3236324191093445,22.795862197875977,-0.001620553433895111,-14.155611038208008,0.01343768835067749,-2.1453890800476074,0.41965049505233765,0
36,0.17496442794799805,-0.3236324191093445,-22.795862197875977,0.001620553433895111,14.155611038208008,-0.01343768835067749,2.1453890800476074,-0.41965049505233765,0.0,0.0,0.0,0.0,0.0,0.0,0.0,-0.2805086095542205,-0.014214762883083485,-0.036557015624239325,0.3013583938354399,-0.24899559112237682,-0.04887701811510785,-0.41047261002396046,1.6754174845302312,0.05230417021899892,0.029797466261774465,-2.752575053897285,0.034460136462751714,2.76632939667089,0.7691989710999647,1.6754973547542302,0.052104326824870026,0.029969505109285054,-2.752394845125968,0.0342448039870148,2.7663679543071322,0.7691630533470046,0.0007552928980429234,-0.0005162907028724,0.00015104843868350896,0.00043617925190497407,-4.912719272722264e-05,-0.000283264944988794,0.0005187949061016677,0.0,0.0,0.0,0.0,0.0,0.0,0.0,7.987022399902344e-05,-0.00019984339412889435,0.00017203884751058884,0.00018020877131696977,-0.00021533247573691378,3.855763624205366e-05,-3.5917752960079596e-05,-0.0007552928980429234,0.0005162907028724,-0.00015104843868350896,-0.00043617925190497407,4.912719272722264e-05,0.000283264944988794,-0.0005187949061016677,0.3236324191093445,22.795862197875977,-0.001620553433895111,-14.155611038208008,0.01343768835067749,-2.1453890800476074,0.41965049505233765,0
37,0.17996525764465332,-0.3236324191093445,-22.795862197875977,0.001620553433895111,14.155611038208008,-0.01343768835067749,2.1453890800476074,-0.41965049505233765,0.0,0.0,0.0,0.0,0.0,0.0,0.0,-0.2805086095542205,-0.014214762883083485,-0.036557015624239325,0.3013583938354399,-0.24899559112237682,-0.04887701811510785,-0.41047261002396046,1.6754174845302312,0.05230417021899892,0.029797466261774465,-2.752575053897285,0.034460136462751714,2.76632939667089,0.7691989710999647,1.6754973547542302,0.052104326824870026,0.029969505109285054,-2.752394845125968,0.0342448039870148,2.7663679543071322,0.7691630533470046,0.0007552928980429234,-0.0005162907028724,0.00015104843868350896,0.00043617925190497407,-4.912719272722264e-05,-0.000283264944988794,0.0005187949061016677,0.0,0.0,0.0,0.0,0.0,0.0,0.0,7.987022399902344e-05,-0.00019984339412889435,0.00017203884751058884,0.00018020877131696977,-0.00021533247573691378,3.855763624205366e-05,-3.5917752960079596e-05,-0.0007552928980429234,0.0005162907028724,-0.00015104843868350896,-0.00043617925190497407,4.912719272722264e-05,0.000283264944988794,-0.0005187949061016677,0.3236324191093445,22.795862197875977,-0.001620553433895111,-14.155611038208008,0.01343768835067749,-2.1453890800476074,0.41965049505233765,0
38,0.18499207496643066,-0.3236324191093445,-22.795862197875977,0.001620553433895111,14.155611038208008,-0.01343768835067749,2.1453890800476074,-0.41965049505233765,0.0,0.0,0.0,0.0,0.0,0.0,0.0,-0.2805086095542205,-0.014214762883083485,-0.036557015624239325,0.3013583938354399,-0.24899559112237682,-0.04887701811510785,-0.41047261002396046,1.6754174845302312,0.05230417021899892,0.029797466261774465,-2.752575053897285,0.034460136462751714,2.76632939667089,0.7691989710999647,1.6754973547542302,0.052104326824870026,0.029969505109285054,-2.752394845125968,0.0342448039870148,2.7663679543071322,0.7691630533470046,0.0007552928980429234,-0.0005162907028724,0.00015104843868350896,0.00043617925190497407,-4.912719272722264e-05,-0.000283264944988794,0.0005187949061016677,0.0,0.0,0.0,0.0,0.0,0.0,0.0,7.987022399902344e-05,-0.00019984339412889435,0.00017203884751058884,0.00018020877131696977,-0.00021533247573691378,3.855763624205366e-05,-3.5917752960079596e-05,-0.0007552928980429234,0.0005162907028724,-0.00015104843868350896,-0.00043617925190497407,4.912719272722264e-05,0.000283264944988794,-0.0005187949061016677,0.3236324191093445,22.795862197875977,-0.001620553433895111,-14.155611038208008,0.01343768835067749,-2.1453890800476074,0.41965049505233765,0
39,0.18996381759643555,-0.2720577120780945,-22.795862197875977,0.07303168624639511,14.155611038208008,-0.02533954381942749,2.1325716972351074,-0.39218467473983765,0.0,0.0,0.0,0.0,0.0,0.0,0.0,-0.2781127640330478,-0.010595473920165367,-0.036236161467593654,0.2996077642911188,-0.24936234574363553,-0.04903021635030102,-0.4098928537781526,1.6754138652525448,0.05230417021899892,0.029792428740212283,-2.7525750538986804,0.03446465274875451,2.7663298096633295,0.7691959193481338,1.6754973547542302,0.052104326824870026,0.029969505109285054,-2.752394845125968,0.0342448039870148,2.7663679543071322,0.7691630533470046,-0.00010640418374328226,-1.4889304806525756e-05,-0.0008618627861490681,0.00013250652495072024,0.00043283377861543464,0.00013578248011336414,-0.0007221210511977203,0.0,0.0,0.0,0.0,0.0,0.0,0.0,8.34895016854631e-05,-0.00019984339412889435,0.00017707636907277058,0.00018020877271229807,-0.0002198487617397077,3.8144643802695555e-05,-3.2866001129172595e-05,0.00010640418374328226,1.4889304806525756e-05,0.0008618627861490681,-0.00013250652495072024,-0.00043283377861543464,-0.00013578248011336414,0.0007221210511977203,0.2720577120780945,22.795862197875977,-0.07303168624639511,-14.155611038208008,0.02533954381942749,-2.1325716972351074,0.39218467473983765,0
40,0.19496631622314453,-0.2720577120780945,-22.795862197875977,0.07303168624639511,14.155611038208008,-0.02533954381942749,2.1325716972351074,-0.39218467473983765,0.0,0.0,0.0,0.0,0.0,0.0,0.0,-0.2781127640330478,-0.010595473920165367,-0.036236161467593654,0.2996077642911188,-0.24936234574363553,-0.04903021635030102,-0.4098928537781526,1.6754138652525448,0.05230417021899892,0.029792428740212283,-2.7525750538986804,0.03446465274875451,2.7663298096633295,0.7691959193481338,1.6754973547542302,0.052104326824870026,0.029969505109285054,-2.752394845125968,0.0342448039870148,2.7663679543071322,0.7691630533470046,-0.00010640418374328226,-1.4889304806525756e-05,-0.0008618627861490681,0.00013250652495072024,0.00043283377861543464,0.00013578248011336414,-0.0007221210511977203,0.0,0.0,0.0,0.0,0.0,0.0,0.0,8.34895016854631e-05,-0.00019984339412889435,0.00017707636907277058,0.00018020877271229807,-0.0002198487617397077,3.8144643802695555e-05,-3.2866001129172595e-05,0.00010640418374328226,1.4889304806525756e-05,0.0008618627861490681,-0.00013250652495072024,-0.00043283377861543464,-0.00013578248011336414,0.0007221210511977203,0.2720577120780945,22.795862197875977,-0.07303168624639511,-14.155611038208008,0.02533954381942749,-2.1325716972351074,0.39218467473983765,0
41,0.19997406005859375,-0.2720577120780945,-22.795862197875977,0.04922797530889511,14.179414749145508,-0.01343768835067749,2.1325716972351074,-0.39218467473983765,0.0,0.0,0.0,0.0,0.0,0.0,0.0,-0.28401000865353854,-0.015409340534073415,-0.044734703454053774,0.3038168156939642,-0.24846939392528028,-0.04766927352705929,-0.40959687358276586,1.6754138652525448,0.05230417021899892,0.029794125498238257,-2.752576477085639,0.034463330284310964,2.766327288932319,0.7691959193481338,1.6754973547542302,0.052104326824870026,0.029969505109285054,-2.752394845125968,0.0342448039870148,2.7663679543071322,0.7691630533470046,4.9897471811154585e-05,-0.00023477262916863324,-0.0003824827033379303,-0.0002191645504095891,4.3122762961400206e-05,0.0002333654677344903,-0.001020150928531394,0.0,0.0,0.0,0.0,0.0,0.0,0.0,8.34895016854631e-05,-0.00019984339412889435,0.0001753796110467963,0.0001816319596708027,-0.00021852629729616352,4.06653748132868e-05,-3.2866001129172595e-05,-4.9897471811154585e-05,0.00023477262916863324,0.0003824827033379303,0.0002191645504095891,-4.3122762961400206e-05,-0.0002333654677344903,0.001020150928531394,0.2720577120780945,22.795862197875977,-0.04922797530889511,-14.179414749145508,0.01343768835067749,-2.1325716972351074,0.39218467473983765,0
42,0.2049703598022461,-0.2720577120780945,-22.795862197875977,0.04922797530889511,14.179414749145508,-0.01343768835067749,2.1325716972351074,-0.39218467473983765,0.0,0.0,0.0,0.0,0.0,0.0,0.0,-0.28401000865353854,-0.015409340534073415,-0.044734703454053774,0.3038168156939642,-0.24846939392528028,-0.04766927352705929,-0.40959687358276586,1.6754138652525448,0.05230417021899892,0.029794125498238257,-2.752576477085639,0.034463330284310964,2.766327288932319,0.7691959193481338,1.6754973547542302,0.052104326824870026,0.029969505109285054,-2.752394845125968,0.0342448039870148,2.7663679543071322,0.7691630533470046,4.9897471811154585e-05,-0.00023477262916863324,-0.0003824827033379303,-0.0002191645504095891,4.3122762961400206e-05,0.0002333654677344903,-0.001020150928531394,0.0,0.0,0.0,0.0,0.0,0.0,0.0,8.34895016854631e-05,-0.00019984339412889435,0.0001753796110467963,0.0001816319596708027,-0.00021852629729616352,4.06653748132868e-05,-3.2866001129172595e-05,-4.9897471811154585e-05,0.00023477262916863324,0.0003824827033379303,0.0002191645504095891,-4.3122762961400206e-05,-0.0002333654677344903,0.001020150928531394,0.2720577120780945,22.795862197875977,-0.04922797530889511,-14.179414749145508,0.01343768835067749,-2.1325716972351074,0.39218467473983765,0
43,0.20998454093933105,-0.2720577120780945,-22.819665908813477,0.10080268234014511,14.179414749145508,-0.01343768835067749,2.1453890800476074,-0.41324180364608765,0.0,0.0,0.0,0.0,0.0,0.0,0.0,-0.27599267946827083,-0.010017390254591103,-0.04021522323997051,0.3001982824298863,-0.24866826644055462,-0.048033669747824706,-0.4092954403228506,1.6754138652525448,0.052305840654854184,0.029790427253744364,-2.75257648624161,0.03446226573321463,2.7663294058940338,0.7691982590291234,1.6754973547542302,0.052104326824870026,0.029969505109285054,-2.752394845125968,0.0342448039870148,2.7663679543071322,0.7691630533470046,0.0007155297468652776,0.00034052615273152134,-0.0008435198125691487,-0.00037059553589326703,-0.00019122073590980277,-0.00015384266631929074,0.0004389193288265978,0.0,0.0,0.0,0.0,0.0,0.0,0.0,8.34895016854631e-05,-0.00020151382998415818,0.00017907785554069008,0.0001816411156418951,-0.00021746174619982628,3.854841309847146e-05,-3.5205682118788495e-05,-0.0007155297468652776,-0.00034052615273152134,0.0008435198125691487,0.00037059553589326703,0.00019122073590980277,0.00015384266631929074,-0.0004389193288265978,0.2720577120780945,22.819665908813477,-0.10080268234014511,-14.179414749145508,0.01343768835067749,-2.1453890800476074,0.41324180364608765,0
44,0.2149820327758789,-0.2720577120780945,-22.819665908813477,0.10080268234014511,14.179414749145508,-0.01343768835067749,2.1453890800476074,-0.41324180364608765,0.0,0.0,0.0,0.0,0.0,0.0,0.0,-0.27599267946827083,-0.010017390254591103,-0.04021522323997051,0.3001982824298863,-0.24866826644055462,-0.048033669747824706,-0.4092954403228506,1.6754138652525448,0.052305840654854184,0.029790427253744364,-2.75257648624161,0.03446226573321463,2.7663294058940338,0.7691982590291234,1.6754973547542302,0.052104326824870026,0.029969505109285054,-2.752394845125968,0.0342448039870148,2.7663679543071322,0.7691630533470046,0.0007155297468652776,0.00034052615273152134,-0.0008435198125691487,-0.00037059553589326703,-0.00019122073590980277,-0.00015384266631929074,0.0004389193288265978,0.0,0.0,0.0,0.0,0.0,0.0,0.0,8.34895016854631e-05,-0.00020151382998415818,0.00017907785554069008,0.0001816411156418951,-0.00021746174619982628,3.854841309847146e-05,-3.5205682118788495e-05,-0.0007155297468652776,-0.00034052615273152134,0.0008435198125691487,0.00037059553589326703,0.00019122073590980277,0.00015384266631929074,-0.0004389193288265978,0.2720577120780945,22.819665908813477,-0.10080268234014511,-14.179414749145508,0.01343768835067749,-2.1453890800476074,0.41324180364608765,0
45,0.2200157642364502,-0.19667929410934448,-22.795862197875977,0.07303168624639511,14.155611038208008,-0.01893085241317749,2.1453890800476074,-0.41965049505233765,0.0,0.0,0.0,0.0,0.0,0.0,0.0,-0.2705872964955904,-0.013594658341122319,-0.037459891308828465,0.30105824093753,-0.2488353724190801,-0.04755127938253755,-0.4091078609060149,1.6754085755390031,0.05230417021899892,0.029792455062382997,-2.752574806648405,0.034462876064745615,2.766328338978796,0.7691989667452956,1.6754973547542302,0.052104326824870026,0.029969505109285054,-2.752394845125968,0.0342448039870148,2.7663679543071322,0.7691630533470046,-0.0009322799734079669,-0.00045047371928483336,0.00011006290993026028,0.00012052135397112877,0.00017507692069491433,-0.0001495151258780648,0.0006488405635976423,0.0,0.0,0.0,0.0,0.0,0.0,0.0,8.87792152270972e-05,-0.00019984339412889435,0.00017705004690205667,0.0001799615224369333,-0.00021807207773081455,3.9615328336406463e-05,-3.591339829100981e-05,0.0009322799734079669,0.00045047371928483336,-0.00011006290993026028,-0.00012052135397112877,-0.00017507692069491433,0.0001495151258780648,-0.0006488405635976423,0.19667929410934448,22.795862197875977,-0.07303168624639511,-14.155611038208008,0.01893085241317749,-2.1453890800476074,0.41965049505233765,0
46,0.22499823570251465,-0.19667929410934448,-22.795862197875977,0.07303168624639511,14.155611038208008,-0.01893085241317749,2.1453890800476074,-0.41965049505233765,0.0,0.0,0.0,0.0,0.0,0.0,0.0,-0.2705872964955904,-0.013594658341122319,-0.037459891308828465,0.30105824093753,-0.2488353724190801,-0.04755127938253755,-0.4091078609060149,1.6754085755390031,0.05230417021899892,0.029792455062382997,-2.752574806648405,0.034462876064745615,2.766328338978796,0.7691989667452956,1.6754973547542302,0.052104326824870026,0.029969505109285054,-2.752394845125968,0.0342448039870148,2.7663679543071322,0.7691630533470046,-0.0009322799734079669,-0.00045047371928483336,0.00011006290993026028,0.00012052135397112877,0.00017507692069491433,-0.0001495151258780648,0.0006488405635976423,0.0,0.0,0.0,0.0,0.0,0.0,0.0,8.87792152270972e-05,-0.00019984339412889435,0.00017705004690205667,0.0001799615224369333,-0.00021807207773081455,3.9615328336406463e-05,-3.591339829100981e-05,0.0009322799734079669,0.00045047371928483336,-0.00011006290993026028,-0.00012052135397112877,-0.00017507692069491433,0.0001495151258780648,-0.0006488405635976423,0.19667929410934448,22.795862197875977,-0.07303168624639511,-14.155611038208008,0.01893085241317749,-2.1453890800476074,0.41965049505233765,0
47,0.23001313209533691,-0.24825400114059448,-22.795862197875977,0.04922797530889511,14.131807327270508,-0.01343768835067749,2.1389803886413574,-0.39218467473983765,0.0,0.0,0.0,0.0,0.0,0.0,0.0,-0.27174166693644086,-0.01683427638940709,-0.04039148429132737,0.3033609863608184,-0.2475757891088679,-0.04702242072525608,-0.40964115965678577,1.6754121948166896,0.05230417021899892,0.029794125498386847,-2.752573136212533,0.03446331718911491,2.766326572763758,0.7691959193481092,1.6754973547542302,0.052104326824870026,0.029969505109285054,-2.752394845125968,0.0342448039870148,2.7663679543071322,0.7691630533470046,-0.0005308741090423814,-0.0004580013157158837,-9.099677671206868e-05,0.0009800725423240696,3.125471198819493e-05,-4.049448118233224e-05,-0.0019901682679062003,0.0,0.0,0.0,0.0,0.0,0.0,0.0,8.515993754065754e-05,-0.00019984339412889435,0.00017537961089820683,0.00017829108656508552,-0.000218513202100111,4.138154337418598e-05,-3.2866001104525644e-05,0.0005308741090423814,0.0004580013157158837,9.099677671206868e-05,-0.0009800725423240696,-3.125471198819493e-05,4.049448118233224e-05,0.0019901682679062003,0.24825400114059448,22.795862197875977,-0.04922797530889511,-14.131807327270508,0.01343768835067749,-2.1389803886413574,0.39218467473983765,0
48,0.23499679565429688,-0.24825400114059448,-22.795862197875977,0.04922797530889511,14.131807327270508,-0.01343768835067749,2.1389803886413574,-0.39218467473983765,0.0,0.0,0.0,0.0,0.0,0.0,0.0,-0.27174166693644086,-0.01683427638940709,-0.04039148429132737,0.3033609863608184,-0.2475757891088679,-0.04702242072525608,-0.40964115965678577,1.6754121948166896,0.05230417021899892,0.029794125498386847,-2.752573136212533,0.03446331718911491,2.766326572763758,0.7691959193481092,1.6754973547542302,0.052104326824870026,0.029969505109285054,-2.752394845125968,0.0342448039870148,2.7663679543071322,0.7691630533470046,-0.0005308741090423814,-0.0004580013157158837,-9.099677671206868e-05,0.0009800725423240696,3.125471198819493e-05,-4.049448118233224e-05,-0.0019901682679062003,0.0,0.0,0.0,0.0,0.0,0.0,0.0,8.515993754065754e-05,-0.00019984339412889435,0.00017537961089820683,0.00017829108656508552,-0.000218513202100111,4.138154337418598e-05,-3.2866001104525644e-05,0.0005308741090423814,0.0004580013157158837,9.099677671206868e-05,-0.0009800725423240696,-3.125471198819493e-05,4.049448118233224e-05,0.0019901682679062003,0.24825400114059448,22.795862197875977,-0.04922797530889511,-14.131807327270508,0.01343768835067749,-2.1389803886413574,0.39218467473983765,0
49,0.23997807502746582,-0.2720577120780945,-22.772058486938477,0.02542426437139511,14.179414749145508,-0.01343768835067749,2.1389803886413574,-0.41324180364608765,0.0,0.0,0.0,0.0,0.0,0.0,0.0,-0.2645797337788472,-0.013885348794888189,-0.036129351906247435,0.30215454599345537,-0.2478845442952823,-0.04763146515600673,-0.41157595880024317,1.6754138652525448,0.052302499783143656,0.02979579582591981,-2.7525764770842436,0.034462260865262107,2.7663267089528096,0.7691982590291234,1.6754973547542302,0.052104326824870026,0.029969505109285054,-2.752394845125968,0.0342448039870148,2.7663679543071322,0.7691630533470046,-1.9862315267288344e-05,-0.0007828740975316622,0.0002621769236902953,-0.0003486277460881688,4.253195142661506e-05,-0.0001398349857734264,-0.00047302329803197186,0.0,0.0,0.0,0.0,0.0,0.0,0.0,8.34895016854631e-05,-0.00019817295827363052,0.00017370928336524205,0.0001816319582754744,-0.00021745687824730603,4.124535432259435e-05,-3.5205682118788495e-05,1.9862315267288344e-05,0.0007828740975316622,-0.0002621769236902953,0.0003486277460881688,-4.253195142661506e-05,0.0001398349857734264,0.00047302329803197186,0.2720577120780945,22.772058486938477,-0.02542426437139511,-14.179414749145508,0.01343768835067749,-2.1389803886413574,0.41324180364608765,0
50,0.2449781894683838,-0.2720577120780945,-22.772058486938477,0.02542426437139511,14.179414749145508,-0.01343768835067749,2.1389803886413574,-0.41324180364608765,0.0,0.0,0.0,0.0,0.0,0.0,0.0,-0.2645797337788472,-0.013885348794888189,-0.036129351906247435,0.30215454599345537,-0.2478845442952823,-0.04763146515600673,-0.41157595880024317,1.6754138652525448,0.052302499783143656,0.02979579582591981,-2.7525764770842436,0.034462260865262107,2.7663267089528096,0.7691982590291234,1.6754973547542302,0.052104326824870026,0.029969505109285054,-2.752394845125968,0.0342448039870148,2.7663679543071322,0.7691630533470046,-1.9862315267288344e-05,-0.0007828740975316622,0.0002621769236902953,-0.0003486277460881688,4.253195142661506e-05,-0.0001398349857734264,-0.00047302329803197186,0.0,0.0,0.0,0.0,0.0,0.0,0.0,8.34895016854631e-05,-0.00019817295827363052,0.00017370928336524205,0.0001816319582754744,-0.00021745687824730603,4.124535432259435e-05,-3.5205682118788495e-05,1.9862315267288344e-05,0.0007828740975316622,-0.0002621769236902953,0.0003486277460881688,-4.253195142661506e-05,0.0001398349857734264,0.00047302329803197186,0.2720577120780945,22.772058486938477,-0.02542426437139511,-14.179414749145508,0.01343768835067749,-2.1389803886413574,0.41324180364608765,0
51,0.24996304512023926,-0.24825400114059448,-22.795862197875977,0.02542426437139511,14.179414749145508,-0.02533954381942749,2.1389803886413574,-0.42605918645858765,0.0,0.0,0.0,0.0,0.0,0.0,0.0,-0.26712953607785694,-0.017329702041870162,-0.03766540365901924,0.30500503990522343,-0.24761934647699652,-0.04714986810724225,-0.41406797337265966,1.6754121948166896,0.05230417021899892,0.0297957959342415,-2.7525764770842436,0.03446453441719449,2.7663256319805165,0.7691986235446399,1.6754973547542302,0.052104326824870026,0.029969505109285054,-2.752394845125968,0.0342448039870148,2.7663679543071322,0.7691630533470046,-0.0008562289537324528,-0.000167355943312067,0.00031128659502148133,-0.00010819522373595384,0.00028551676542269537,-9.724516739234352e-05,-9.551073072321195e-05,0.0,0.0,0.0,0.0,0.0,0.0,0.0,8.515993754065754e-05,-0.00019984339412889435,0.00017370917504355363,0.0001816319582754744,-0.0002197304301796918,4.2322326615718e-05,-3.5570197635226286e-05,0.0008562289537324528,0.000167355943312067,-0.00031128659502148133,0.00010819522373595384,-0.00028551676542269537,9.724516739234352e-05,9.551073072321195e-05,0.24825400114059448,22.795862197875977,-0.02542426437139511,-14.179414749145508,0.02533954381942749,-2.1389803886413574,0.42605918645858765,0
52,0.2549726963043213,-0.24825400114059448,-22.795862197875977,0.02542426437139511,14.179414749145508,-0.02533954381942749,2.1389803886413574,-0.42605918645858765,0.0,0.0,0.0,0.0,0.0,0.0,0.0,-0.26712953607785694,-0.017329702041870162,-0.03766540365901924,0.30500503990522343,-0.24761934647699652,-0.04714986810724225,-0.41406797337265966,1.6754121948166896,0.05230417021899892,0.0297957959342415,-2.7525764770842436,0.03446453441719449,2.7663256319805165,0.7691986235446399,1.6754973547542302,0.052104326824870026,0.029969505109285054,-2.752394845125968,0.0342448039870148,2.7663679543071322,0.7691630533470046,-0.0008562289537324528,-0.000167355943312067,0.00031128659502148133,-0.00010819522373595384,0.00028551676542269537,-9.724516739234352e-05,-9.551073072321195e-05,0.0,0.0,0.0,0.0,0.0,0.0,0.0,8.515993754065754e-05,-0.00019984339412889435,0.00017370917504355363,0.0001816319582754744,-0.0002197304301796918,4.2322326615718e-05,-3.5570197635226286e-05,0.0008562289537324528,0.000167355943312067,-0.00031128659502148133,0.00010819522373595384,-0.00028551676542269537,9.724516739234352e-05,9.551073072321195e-05,0.24825400114059448,22.795862197875977,-0.02542426437139511,-14.179414749145508,0.02533954381942749,-2.1389803886413574,0.42605918645858765,0
53,0.25998520851135254,-0.3236324191093445,-22.795862197875977,0.02542426437139511,14.131807327270508,-0.01343768835067749,2.1325716972351074,-0.43338340520858765,0.0,0.0,0.0,0.0,0.0,0.0,0.0,-0.2721881354128043,-0.013020781811938493,-0.03912976177227977,0.30241347254434797,-0.24826458762773346,-0.04812266264639719,-0.41575371297333474,1.6754174845302312,0.05230417021899892,0.029795716967286032,-2.752573136212533,0.03446333033773053,2.766327301833202,0.7692004969788709,1.6754973547542302,0.052104326824870026,0.029969505109285054,-2.752394845125968,0.0342448039870148,2.7663679543071322,0.7691630533470046,0.0009835974505098886,-0.00027647933579394484,4.1263992980275195e-05,0.0008735103567488365,4.555583947772747e-06,0.00017255468726504484,0.000298496035764285,0.0,0.0,0.0,0.0,0.0,0.0,0.0,7.987022399902344e-05,-0.00019984339412889435,0.0001737881419990213,0.00017829108656508552,-0.0002185263507157309,4.065247393025828e-05,-3.744363186630739e-05,-0.0009835974505098886,0.00027647933579394484,-4.1263992980275195e-05,-0.0008735103567488365,-4.555583947772747e-06,-0.00017255468726504484,-0.000298496035764285,0.3236324191093445,22.795862197875977,-0.02542426437139511,-14.131807327270508,0.01343768835067749,-2.1325716972351074,0.43338340520858765,0
54,0.2649857997894287,-0.3236324191093445,-22.795862197875977,0.02542426437139511,14.131807327270508,-0.01343768835067749,2.1325716972351074,-0.43338340520858765,0.0,0.0,0.0,0.0,0.0,0.0,0.0,-0.2721881354128043,-0.013020781811938493,-0.03912976177227977,0.30241347254434797,-0.24826458762773346,-0.04812266264639719,-0.41575371297333474,1.6754174845302312,0.05230417021899892,0.029795716967286032,-2.752573136212533,0.03446333033773053,2.766327301833202,0.7692004969788709,1.6754973547542302,0.052104326824870026,0.029969505109285054,-2.752394845125968,0.0342448039870148,2.7663679543071322,0.7691630533470046,0.0009835974505098886,-0.00027647933579394484,4.1263992980275195e-05,0.0008735103567488365,4.555583947772747e-06,0.00017255468726504484,0.000298496035764285,0.0,0.0,0.0,0.0,0.0,0.0,0.0,7.987022399902344e-05,-0.00019984339412889435,0.0001737881419990213,0.00017829108656508552,-0.0002185263507157309,4.065247393025828e-05,-3.744363186630739e-05,-0.0009835974505098886,0.00027647933579394484,-4.1263992980275195e-05,-0.0008735103567488365,-4.555583947772747e-06,-0.00017255468726504484,-0.000298496035764285,0.3236324191093445,22.795862197875977,-0.02542426437139511,-14.131807327270508,0.01343768835067749,-2.1325716972351074,0.43338340520858765,0
55,0.2700181007385254,-0.2998287081718445,-22.795862197875977,0.04922797530889511,14.179414749145508,-0.01343768835067749,2.1261630058288574,-0.43979209661483765,0.0,0.0,0.0,0.0,0.0,0.0,0.0,-0.2766944613951691,-0.013873997391070026,-0.039739475857005706,0.3031369518496427,-0.2485783843229484,-0.048079102870554426,-0.4163024564554305,1.675415814094376,0.05230417021899892,0.029794125497941075,-2.752576724446194,0.03446008248939017,2.766330117148802,0.7692012090616754,1.6754973547542302,0.052104326824870026,0.029969505109285054,-2.752394845125968,0.0342448039870148,2.7663679543071322,0.7691630533470046,-0.00011171709626500873,-0.00024497284745806226,-0.0003413952439213884,-0.00025195156117315866,-5.2311318910001076e-05,0.0005361238749458905,0.0010026299566150531,0.0,0.0,0.0,0.0,0.0,0.0,0.0,8.154065985421788e-05,-0.00019984339412889435,0.00017537961134397873,0.00018187932022595277,-0.00021527850237536977,3.78371583300563e-05,-3.8155714670806695e-05,0.00011171709626500873,0.00024497284745806226,0.0003413952439213884,0.00025195156117315866,5.2311318910001076e-05,-0.0005361238749458905,-0.0010026299566150531,0.2998287081718445,22.795862197875977,-0.04922797530889511,-14.179414749145508,0.01343768835067749,-2.1261630058288574,0.43979209661483765,0
56,0.2749664783477783,-0.2998287081718445,-22.795862197875977,0.04922797530889511,14.179414749145508,-0.01343768835067749,2.1261630058288574,-0.43979209661483765,0.0,0.0,0.0,0.0,0.0,0.0,0.0,-0.2766944613951691,-0.013873997391070026,-0.039739475857005706,0.3031369518496427,-0.2485783843229484,-0.048079102870554426,-0.4163024564554305,1.675415814094376,0.05230417021899892,0.029794125497941075,-2.752576724446194,0.03446008248939017,2.766330117148802,0.7692012090616754,1.6754973547542302,0.052104326824870026,0.029969505109285054,-2.752394845125968,0.0342448039870148,2.7663679543071322,0.7691630533470046,-0.00011171709626500873,-0.00024497284745806226,-0.0003413952439213884,-0.00025195156117315866,-5.2311318910001076e-05,0.0005361238749458905,0.0010026299566150531,0.0,0.0,0.0,0.0,0.0,0.0,0.0,8.154065985421788e-05,-0.00019984339412889435,0.00017537961134397873,0.00018187932022595277,-0.00021527850237536977,3.78371583300563e-05,-3.8155714670806695e-05,0.00011171709626500873,0.00024497284745806226,0.0003413952439213884,0.00025195156117315866,5.2311318910001076e-05,-0.0005361238749458905,-0.0010026299566150531,0.2998287081718445,22.795862197875977,-0.04922797530889511,-14.179414749145508,0.01343768835067749,-2.1261630058288574,0.43979209661483765,0
57,0.27996349334716797,-0.3236324191093445,-22.772058486938477,0.02542426437139511,14.179414749145508,-0.01893085241317749,2.1261630058288574,-0.42605918645858765,0.0,0.0,0.0,0.0,0.0,0.0,0.0,-0.28632967509969554,-0.012890233643380846,-0.045518689887932555,0.30428971248520137,-0.24778130944026883,-0.04751261434458605,-0.41694553992791156,1.6754174845302312,0.052302499783143656,0.029795795934242107,-2.7525765595019385,0.03446062856661291,2.76632730330274,0.7691996831827692,1.6754973547542302,0.052104326824870026,0.029969505109285054,-2.752394845125968,0.0342448039870148,2.7663679543071322,0.7691630533470046,0.0003764511581502148,-0.0008193934826901232,-4.2099278734303973e-05,-0.00029086632293775063,0.00020844460883897168,0.0004711803206579706,0.0005981979861547791,0.0,0.0,0.0,0.0,0.0,0.0,0.0,7.987022399902344e-05,-0.00019817295827363052,0.00017370917504294647,0.00018171437597036544,-0.00021582457959810897,4.065100439243352e-05,-3.66298357645789e-05,-0.0003764511581502148,0.0008193934826901232,4.2099278734303973e-05,0.00029086632293775063,-0.00020844460883897168,-0.0004711803206579706,-0.0005981979861547791,0.3236324191093445,22.772058486938477,-0.02542426437139511,-14.179414749145508,0.01893085241317749,-2.1261630058288574,0.42605918645858765,0
58,0.28496694564819336,-0.3236324191093445,-22.772058486938477,0.02542426437139511,14.179414749145508,-0.01893085241317749,2.1261630058288574,-0.42605918645858765,0.0,0.0,0.0,0.0,0.0,0.0,0.0,-0.28632967509969554,-0.012890233643380846,-0.045518689887932555,0.30428971248520137,-0.24778130944026883,-0.04751261434458605,-0.41694553992791156,1.6754174845302312,0.052302499783143656,0.029795795934242107,-2.7525765595019385,0.03446062856661291,2.76632730330274,0.7691996831827692,1.6754973547542302,0.052104326824870026,0.029969505109285054,-2.752394845125968,0.0342448039870148,2.7663679543071322,0.7691630533470046,0.0003764511581502148,-0.0008193934826901232,-4.2099278734303973e-05,-0.00029086632293775063,0.00020844460883897168,0.0004711803206579706,0.0005981979861547791,0.0,0.0,0.0,0.0,0.0,0.0,0.0,7.987022399902344e-05,-0.00019817295827363052,0.00017370917504294647,0.00018171437597036544,-0.00021582457959810897,4.065100439243352e-05,-3.66298357645789e-05,-0.0003764511581502148,0.0008193934826901232,4.2099278734303973e-05,0.00029086632293775063,-0.00020844460883897168,-0.0004711803206579706,-0.0005981979861547791,0.3236324191093445,22.772058486938477,-0.02542426437139511,-14.179414749145508,0.01893085241317749,-2.1261630058288574,0.42605918645858765,0
59,0.2899644374847412,-0.24825400114059448,-22.795862197875977,0.07303168624639511,14.131807327270508,-0.01893085241317749,2.1261630058288574,-0.40591758489608765,0.0,0.0,0.0,0.0,0.0,0.0,0.0,-0.28051652604052385,-0.011205583829317738,-0.0397449741961561,0.304997040784541,-0.24820810029552187,-0.047859238719448007,-0.4165792615798062,1.6754121948166896,0.05230417021899892,0.029792455062531586,-2.7525731365530905,0.034463926030232385,2.766326951477999,0.76919744522704,1.6754973547542302,0.052104326824870026,0.029969505109285054,-2.752394845125968,0.0342448039870148,2.7663679543071322,0.7691630533470046,-0.00022866632313353442,-0.0002506205247965063,-0.0009609711313058063,0.0009268231535425734,0.0002197066342372624,0.0004211584210195066,-0.0006234862211052054,0.0,0.0,0.0,0.0,0.0,0.0,0.0,8.515993754065754e-05,-0.00019984339412889435,0.0001770500467534672,0.0001782914271224456,-0.00021912204321758444,4.1002829133329755e-05,-3.439188003540039e-05,0.00022866632313353442,0.0002506205247965063,0.0009609711313058063,-0.0009268231535425734,-0.0002197066342372624,-0.0004211584210195066,0.0006234862211052054,0.24825400114059448,22.795862197875977,-0.07303168624639511,-14.131807327270508,0.01893085241317749,-2.1261630058288574,0.40591758489608765,0
60,0.29497218132019043,-0.24825400114059448,-22.795862197875977,0.07303168624639511,14.131807327270508,-0.01893085241317749,2.1261630058288574,-0.40591758489608765,0.0,0.0,0.0,0.0,0.0,0.0,0.0,-0.28051652604052385,-0.011205583829317738,-0.0397449741961561,0.304997040784541,-0.24820810029552187,-0.047859238719448007,-0.4165792615798062,1.6754121948166896,0.05230417021899892,0.029792455062531586,-2.7525731365530905,0.034463926030232385,2.766326951477999,0.76919744522704,1.6754973547542302,0.052104326824870026,0.029969505109285054,-2.752394845125968,0.0342448039870148,2.7663679543071322,0.7691630533470046,-0.00022866632313353442,-0.0002506205247965063,-0.0009609711313058063,0.0009268231535425734,0.0002197066342372624,0.0004211584210195066,-0.0006234862211052054,0.0,0.0,0.0,0.0,0.0,0.0,0.0,8.515993754065754e-05,-0.00019984339412889435,0.0001770500467534672,0.0001782914271224456,-0.00021912204321758444,4.1002829133329755e-05,-3.439188003540039e-05,0.00022866632313353442,0.0002506205247965063,0.0009609711313058063,-0.0009268231535425734,-0.0002197066342372624,-0.0004211584210195066,0.0006234862211052054,0.24825400114059448,22.795862197875977,-0.07303168624639511,-14.131807327270508,0.01893085241317749,-2.1261630058288574,0.40591758489608765,0
61,0.3000168800354004,-0.24825400114059448,-22.795862197875977,0.07303168624639511,14.131807327270508,-0.01893085241317749,2.1261630058288574,-0.40591758489608765,0.0,0.0,0.0,0.0,0.0,0.0,0.0,-0.28051652604052385,-0.011205583829317738,-0.0397449741961561,0.304997040784541,-0.24820810029552187,-0.047859238719448007,-0.4165792615798062,1.6754121948166896,0.05230417021899892,0.029792455062531586,-2.7525731365530905,0.034463926030232385,2.766326951477999,0.76919744522704,1.6754973547542302,0.052104326824870026,0.029969505109285054,-2.752394845125968,0.0342448039870148,2.7663679543071322,0.7691630533470046,-0.00022866632313353442,-0.0002506205247965063,-0.0009609711313058063,0.0009268231535425734,0.0002197066342372624,0.0004211584210195066,-0.0006234862211052054,0.0,0.0,0.0,0.0,0.0,0.0,0.0,8.515993754065754e-05,-0.00019984339412889435,0.0001770500467534672,0.0001782914271224456,-0.00021912204321758444,4.1002829133329755e-05,-3.439188003540039e-05,0.00022866632313353442,0.0002506205247965063,0.0009609711313058063,-0.0009268231535425734,-0.0002197066342372624,-0.0004211584210195066,0.0006234862211052054,0.24825400114059448,22.795862197875977,-0.07303168624639511,-14.131807327270508,0.01893085241317749,-2.1261630058288574,0.40591758489608765,0
62,0.30498504638671875,-0.24825400114059448,-22.795862197875977,0.07303168624639511,14.131807327270508,-0.01893085241317749,2.1261630058288574,-0.40591758489608765,0.0,0.0,0.0,0.0,0.0,0.0,0.0,-0.28051652604052385,-0.011205583829317738,-0.0397449741961561,0.304997040784541,-0.24820810029552187,-0.047859238719448007,-0.4165792615798062,1.6754121948166896,0.05230417021899892,0.029792455062531586,-2.7525731365530905,0.034463926030232385,2.766326951477999,0.76919744522704,1.6754973547542302,0.052104326824870026,0.029969505109285054,-2.752394845125968,0.0342448039870148,2.7663679543071322,0.7691630533470046,-0.00022866632313353442,-0.0002506205247965063,-0.0009609711313058063,0.0009268231535425734,0.0002197066342372624,0.0004211584210195066,-0.0006234862211052054,0.0,0.0,0.0,0.0,0.0,0.0,0.0,8.515993754065754e-05,-0.00019984339412889435,0.0001770500467534672,0.0001782914271224456,-0.00021912204321758444,4.1002829133329755e-05,-3.439188003540039e-05,0.00022866632313353442,0.0002506205247965063,0.0009609711313058063,-0.0009268231535425734,-0.0002197066342372624,-0.0004211584210195066,0.0006234862211052054,0.24825400114059448,22.795862197875977,-0.07303168624639511,-14.131807327270508,0.01893085241317749,-2.1261630058288574,0.40591758489608765,0
63,0.30999159812927246,-0.22445029020309448,-22.819665908813477,0.10080268234014511,14.131807327270508,-0.01893085241317749,2.1389803886413574,-0.40591758489608765,0.0,0.0,0.0,0.0,0.0,0.0,0.0,-0.27933692669008614,-0.009664865150964328,-0.04211718185887989,0.3064174478801878,-0.2479118472224615,-0.048650539634452136,-0.4167794940762098,1.6754105243808342,0.052305761733889344,0.029788374100850484,-2.752573136250218,0.03446074490920344,2.7663259851865005,0.76919744522704,1.6754973547542302,0.052104326824870026,0.029969505109285054,-2.752394845125968,0.0342448039870148,2.7663679543071322,0.7691630533470046,-0.0010518492697888773,0.0003520766500238068,-0.000968510416839446,0.000974572956315698,-7.662005593414026e-05,-8.40188740244369e-05,-0.0007480727799212385,0.0,0.0,0.0,0.0,0.0,0.0,0.0,8.683037339607402e-05,-0.0002014349090193185,0.00018113100843457006,0.00017829112425005178,-0.0002159409221886427,4.1969120631701884e-05,-3.439188003540039e-05,0.0010518492697888773,-0.0003520766500238068,0.000968510416839446,-0.000974572956315698,7.662005593414026e-05,8.40188740244369e-05,0.0007480727799212385,0.22445029020309448,22.819665908813477,-0.10080268234014511,-14.131807327270508,0.01893085241317749,-2.1389803886413574,0.40591758489608765,0
64,0.3149697780609131,-0.22445029020309448,-22.819665908813477,0.10080268234014511,14.131807327270508,-0.01893085241317749,2.1389803886413574,-0.40591758489608765,0.0,0.0,0.0,0.0,0.0,0.0,0.0,-0.27933692669008614,-0.009664865150964328,-0.04211718185887989,0.3064174478801878,-0.2479118472224615,-0.048650539634452136,-0.4167794940762098,1.6754105243808342,0.052305761733889344,0.029788374100850484,-2.752573136250218,0.03446074490920344,2.7663259851865005,0.76919744522704,1.6754973547542302,0.052104326824870026,0.029969505109285054,-2.752394845125968,0.0342448039870148,2.7663679543071322,0.7691630533470046,-0.0010518492697888773,0.0003520766500238068,-0.000968510416839446,0.000974572956315698,-7.662005593414026e-05,-8.40188740244369e-05,-0.0007480727799212385,0.0,0.0,0.0,0.0,0.0,0.0,0.0,8.683037339607402e-05,-0.0002014349090193185,0.00018113100843457006,0.00017829112425005178,-0.0002159409221886427,4.1969120631701884e-05,-3.439188003540039e-05,0.0010518492697888773,-0.0003520766500238068,0.000968510416839446,-0.000974572956315698,7.662005593414026e-05,8.40188740244369e-05,0.0007480727799212385,0.22445029020309448,22.819665908813477,-0.10080268234014511,-14.131807327270508,0.01893085241317749,-2.1389803886413574,0.40591758489608765,0
65,0.31999826431274414,-0.24825400114059448,-22.819665908813477,0.07303168624639511,14.179414749145508,-0.01343768835067749,2.1389803886413574,-0.43338340520858765,0.0,0.0,0.0,0.0,0.0,0.0,0.0,-0.2774292476366727,-0.009166575186586447,-0.03833752275429369,0.30608441473231085,-0.2480623835109152,-0.04849310511241602,-0.41715041225657873,1.6754121948166896,0.05230584065440868,0.029792455050495707,-2.7525764770842436,0.03446333026627079,2.7663259842201073,0.7692004969848526,1.6754973547542302,0.052104326824870026,0.029969505109285054,-2.752394845125968,0.0342448039870148,2.7663679543071322,0.7691630533470046,-0.0006791061078850213,0.00042100275093402245,6.906514846066294e-05,-0.0003514825060632349,-6.438606861357259e-05,8.432255387597141e-05,0.0005262201062193357,0.0,0.0,0.0,0.0,0.0,0.0,0.0,8.515993754065754e-05,-0.00020151382953865343,0.00017705005878934643,0.0001816319582754744,-0.00021852627925599,4.197008702488958e-05,-3.7443637847967004e-05,0.0006791061078850213,-0.00042100275093402245,-6.906514846066294e-05,0.0003514825060632349,6.438606861357259e-05,-8.432255387597141e-05,-0.0005262201062193357,0.24825400114059448,22.819665908813477,-0.07303168624639511,-14.179414749145508,0.01343768835067749,-2.1389803886413574,0.43338340520858765,0
66,0.3249807357788086,-0.24825400114059448,-22.819665908813477,0.07303168624639511,14.179414749145508,-0.01343768835067749,2.1389803886413574,-0.43338340520858765,0.0,0.0,0.0,0.0,0.0,0.0,0.0,-0.2774292476366727,-0.009166575186586447,-0.03833752275429369,0.30608441473231085,-0.2480623835109152,-0.04849310511241602,-0.41715041225657873,1.6754121948166896,0.05230584065440868,0.029792455050495707,-2.7525764770842436,0.03446333026627079,2.7663259842201073,0.7692004969848526,1.6754973547542302,0.052104326824870026,0.029969505109285054,-2.752394845125968,0.0342448039870148,2.7663679543071322,0.7691630533470046,-0.0006791061078850213,0.00042100275093402245,6.906514846066294e-05,-0.0003514825060632349,-6.438606861357259e-05,8.432255387597141e-05,0.0005262201062193357,0.0,0.0,0.0,0.0,0.0,0.0,0.0,8.515993754065754e-05,-0.00020151382953865343,0.00017705005878934643,0.0001816319582754744,-0.00021852627925599,4.197008702488958e-05,-3.7443637847967004e-05,0.0006791061078850213,-0.00042100275093402245,-6.906514846066294e-05,0.0003514825060632349,6.438606861357259e-05,-8.432255387597141e-05,-0.0005262201062193357,0.24825400114059448,22.819665908813477,-0.07303168624639511,-14.179414749145508,0.01343768835067749,-2.1389803886413574,0.43338340520858765,0
67,0.3299894332885742,-0.3236324191093445,-22.847436904907227,0.02542426437139511,14.155611038208008,-0.01343768835067749,2.1389803886413574,-0.39950889348983765,0.0,0.0,0.0,0.0,0.0,0.0,0.0,-0.2764505899549954,-0.01245143545990277,-0.03554170022072609,0.30547499292846053,-0.24737424771035232,-0.04777796319491165,-0.4174709976923643,1.6754174845302312,0.0523077894953488,0.029795793009540033,-2.752574806648388,0.03446332984960745,2.766328710485547,0.7691967331502172,1.6754973547542302,0.052104326824870026,0.029969505109285054,-2.752394845125968,0.0342448039870148,2.7663679543071322,0.7691630533470046,0.001249810441348415,0.0006143827079286014,0.000397348824183609,9.76218282948206e-05,5.1220789211217145e-05,8.235030592137334e-05,-0.00021116320608629942,0.0,0.0,0.0,0.0,0.0,0.0,0.0,7.987022399902344e-05,-0.0002034626704787712,0.00017371209974502075,0.00017996152242005792,-0.00021852586259264728,3.92438215852664e-05,-3.36798032125607e-05,-0.001249810441348415,-0.0006143827079286014,-0.000397348824183609,-9.76218282948206e-05,-5.1220789211217145e-05,-8.235030592137334e-05,0.00021116320608629942,0.3236324191093445,22.847436904907227,-0.02542426437139511,-14.155611038208008,0.01343768835067749,-2.1389803886413574,0.39950889348983765,0
68,0.3349626064300537,-0.3236324191093445,-22.847436904907227,0.02542426437139511,14.155611038208008,-0.01343768835067749,2.1389803886413574,-0.39950889348983765,0.0,0.0,0.0,0.0,0.0,0.0,0.0,-0.2764505899549954,-0.01245143545990277,-0.03554170022072609,0.30547499292846053,-0.24737424771035232,-0.04777796319491165,-0.4174709976923643,1.6754174845302312,0.0523077894953488,0.029795793009540033,-2.752574806648388,0.03446332984960745,2.766328710485547,0.7691967331502172,1.6754973547542302,0.052104326824870026,0.029969505109285054,-2.752394845125968,0.0342448039870148,2.7663679543071322,0.7691630533470046,0.001249810441348415,0.0006143827079286014,0.000397348824183609,9.76218282948206e-05,5.1220789211217145e-05,8.235030592137334e-05,-0.00021116320608629942,0.0,0.0,0.0,0.0,0.0,0.0,0.0,7.987022399902344e-05,-0.0002034626704787712,0.00017371209974502075,0.00017996152242005792,-0.00021852586259264728,3.92438215852664e-05,-3.36798032125607e-05,-0.001249810441348415,-0.0006143827079286014,-0.000397348824183609,-9.76218282948206e-05,-5.1220789211217145e-05,-8.235030592137334e-05,0.00021116320608629942,0.3236324191093445,22.847436904907227,-0.02542426437139511,-14.155611038208008,0.01343768835067749,-2.1389803886413574,0.39950889348983765,0
69,0.3399696350097656,-0.2720577120780945,-22.819665908813477,0.001620553433895111,14.155611038208008,-0.01343768835067749,2.1325716972351074,-0.38577598333358765,0.0,0.0,0.0,0.0,0.0,0.0,0.0,-0.276194431134253,-0.013038215080253499,-0.035429380974261813,0.30605579886319223,-0.2472172330911101,-0.04763825278469995,-0.4167702675821879,1.6754138652525448,0.05230584065485418,0.029797466370080863,-2.7525755483950785,0.03446293587791726,2.766326710686312,0.7691941476331815,1.6754973547542302,0.052104326824870026,0.029969505109285054,-2.752394845125968,0.0342448039870148,2.7663679543071322,0.7691630533470046,-0.0003885321213947576,-4.46415799656986e-06,0.0005307876057021725,0.0005896713631884397,-6.992246496875718e-05,0.00024478270265840827,-0.0010942057948046728,0.0,0.0,0.0,0.0,0.0,0.0,0.0,8.34895016854631e-05,-0.00020151382998415124,0.00017203873920419027,0.0001807032691103494,-0.00021813189090245932,4.12436208203637e-05,-3.109428617686927e-05,0.0003885321213947576,4.46415799656986e-06,-0.0005307876057021725,-0.0005896713631884397,6.992246496875718e-05,-0.00024478270265840827,0.0010942057948046728,0.2720577120780945,22.819665908813477,-0.001620553433895111,-14.155611038208008,0.01343768835067749,-2.1325716972351074,0.38577598333358765,0
70,0.3450148105621338,-0.2720577120780945,-22.819665908813477,0.001620553433895111,14.155611038208008,-0.01343768835067749,2.1325716972351074,-0.38577598333358765,0.0,0.0,0.0,0.0,0.0,0.0,0.0,-0.276194431134253,-0.013038215080253499,-0.035429380974261813,0.30605579886319223,-0.2472172330911101,-0.04763825278469995,-0.4167702675821879,1.6754138652525448,0.05230584065485418,0.029797466370080863,-2.7525755483950785,0.03446293587791726,2.766326710686312,0.7691941476331815,1.6754973547542302,0.052104326824870026,0.029969505109285054,-2.752394845125968,0.0342448039870148,2.7663679543071322,0.7691630533470046,-0.0003885321213947576,-4.46415799656986e-06,0.0005307876057021725,0.0005896713631884397,-6.992246496875718e-05,0.00024478270265840827,-0.0010942057948046728,0.0,0.0,0.0,0.0,0.0,0.0,0.0,8.34895016854631e-05,-0.00020151382998415124,0.00017203873920419027,0.0001807032691103494,-0.00021813189090245932,4.12436208203637e-05,-3.109428617686927e-05,0.0003885321213947576,4.46415799656986e-06,-0.0005307876057021725,-0.0005896713631884397,6.992246496875718e-05,-0.00024478270265840827,0.0010942057948046728,0.2720577120780945,22.819665908813477,-0.001620553433895111,-14.155611038208008,0.01343768835067749,-2.1325716972351074,0.38577598333358765,0
71,0.35001277923583984,-0.3236324191093445,-22.795862197875977,0.02542426437139511,14.179414749145508,-0.01343768835067749,2.1389803886413574,-0.39950889348983765,0.0,0.0,0.0,0.0,0.0,0.0,0.0,-0.27869656804494436,-0.011834704957029098,-0.03747996287230436,0.30626046881971564,-0.2474049000138171,-0.048160525222844495,-0.4169011899300301,1.6754174845302312,0.05230417021899892,0.02979579593424211,-2.7525764770884305,0.0344632889591986,2.7663259187027514,0.7691967331442355,1.6754973547542302,0.052104326824870026,0.029969505109285054,-2.752394845125968,0.0342448039870148,2.7663679543071322,0.7691630533470046,0.000644625487386255,4.998216200358651e-05,0.00014360201930884727,0.0003309004478959382,-0.0001157475197589301,-0.0001693978931601612,-0.0007681700934437549,0.0,0.0,0.0,0.0,0.0,0.0,0.0,7.987022399902344e-05,-0.00019984339412889435,0.000173709175042943,0.00018163196246234747,-0.0002184849721837967,4.20356043808745e-05,-3.367979723090109e-05,-0.000644625487386255,-4.998216200358651e-05,-0.00014360201930884727,-0.0003309004478959382,0.0001157475197589301,0.0001693978931601612,0.0007681700934437549,0.3236324191093445,22.795862197875977,-0.02542426437139511,-14.179414749145508,0.01343768835067749,-2.1389803886413574,0.39950889348983765,0
72,0.35497570037841797,-0.3236324191093445,-22.795862197875977,0.02542426437139511,14.179414749145508,-0.01343768835067749,2.1389803886413574,-0.39950889348983765,0.0,0.0,0.0,0.0,0.0,0.0,0.0,-0.27869656804494436,-0.011834704957029098,-0.03747996287230436,0.30626046881971564,-0.2474049000138171,-0.048160525222844495,-0.4169011899300301,1.6754174845302312,0.05230417021899892,0.02979579593424211,-2.7525764770884305,0.0344632889591986,2.7663259187027514,0.7691967331442355,1.6754973547542302,0.052104326824870026,0.029969505109285054,-2.752394845125968,0.0342448039870148,2.7663679543071322,0.7691630533470046,0.000644625487386255,4.998216200358651e-05,0.00014360201930884727,0.0003309004478959382,-0.0001157475197589301,-0.0001693978931601612,-0.0007681700934437549,0.0,0.0,0.0,0.0,0.0,0.0,0.0,7.987022399902344e-05,-0.00019984339412889435,0.000173709175042943,0.00018163196246234747,-0.0002184849721837967,4.20356043808745e-05,-3.367979723090109e-05,-0.000644625487386255,-4.998216200358651e-05,-0.00014360201930884727,-0.0003309004478959382,0.0001157475197589301,0.0001693978931601612,0.0007681700934437549,0.3236324191093445,22.795862197875977,-0.02542426437139511,-14.179414749145508,0.01343768835067749,-2.1389803886413574,0.39950889348983765,0
73,0.35997939109802246,-0.2998287081718445,-22.748254776000977,0.04922797530889511,14.207185745239258,-0.01343768835067749,2.1325716972351074,-0.36471885442733765,0.0,0.0,0.0,0.0,0.0,0.0,0.0,-0.28357592383180774,-0.009193181444051903,-0.04254081702333521,0.3065624987939913,-0.24760481137612864,-0.04902878100741656,-0.4172293282332039,1.675415814094376,0.052300829239029185,0.02979412517341995,-2.75257842897853,0.03446329090849916,2.7663294429307497,0.7691928674288158,1.6754973547542302,0.052104326824870026,0.029969505109285054,-2.752394845125968,0.0342448039870148,2.7663679543071322,0.7691630533470046,0.0003695865596757557,-0.0009975744727393349,-0.0005927825815657765,-0.0006764118222098596,-3.0410445750906643e-05,0.00010247888420779021,-0.001971818381316152,0.0,0.0,0.0,0.0,0.0,0.0,0.0,8.154065985421788e-05,-0.00019650241415915953,0.00017537993586510398,0.0001835838525616751,-0.00021848692148435794,3.8511376382555085e-05,-2.9814081811130322e-05,-0.0003695865596757557,0.0009975744727393349,0.0005927825815657765,0.0006764118222098596,3.0410445750906643e-05,-0.00010247888420779021,0.001971818381316152,0.2998287081718445,22.748254776000977,-0.04922797530889511,-14.207185745239258,0.01343768835067749,-2.1325716972351074,0.36471885442733765,0
74,0.36498069763183594,-0.2998287081718445,-22.748254776000977,0.04922797530889511,14.207185745239258,-0.01343768835067749,2.1325716972351074,-0.36471885442733765,0.0,0.0,0.0,0.0,0.0,0.0,0.0,-0.28357592383180774,-0.009193181444051903,-0.04254081702333521,0.3065624987939913,-0.24760481137612864,-0.04902878100741656,-0.4172293282332039,1.675415814094376,0.052300829239029185,0.02979412517341995,-2.75257842897853,0.03446329090849916,2.7663294429307497,0.7691928674288158,1.6754973547542302,0.052104326824870026,0.029969505109285054,-2.752394845125968,0.0342448039870148,2.7663679543071322,0.7691630533470046,0.0003695865596757557,-0.0009975744727393349,-0.0005927825815657765,-0.0006764118222098596,-3.0410445750906643e-05,0.00010247888420779021,-0.001971818381316152,0.0,0.0,0.0,0.0,0.0,0.0,0.0,8.154065985421788e-05,-0.00019650241415915953,0.00017537993586510398,0.0001835838525616751,-0.00021848692148435794,3.8511376382555085e-05,-2.9814081811130322e-05,-0.0003695865596757557,0.0009975744727393349,0.0005927825815657765,0.0006764118222098596,3.0410445750906643e-05,-0.00010247888420779021,0.001971818381316152,0.2998287081718445,22.748254776000977,-0.04922797530889511,-14.207185745239258,0.01343768835067749,-2.1325716972351074,0.36471885442733765,0
75,0.3699920177459717,-0.24825400114059448,-22.819665908813477,0.04922797530889511,14.179414749145508,-0.01343768835067749,2.1389803886413574,-0.40591758489608765,0.0,0.0,0.0,0.0,0.0,0.0,0.0,-0.28025566344356906,-0.011719609886258494,-0.04040198901296143,0.3093054730499636,-0.24832847700062363,-0.04910428384864215,-0.41583663157794853,1.6754121948166896,0.05230584065485357,0.029794046531428933,-2.7525764781017457,0.03446285128477429,2.7663290593019045,0.7691974452270391,1.6754973547542302,0.052104326824870026,0.029969505109285054,-2.752394845125968,0.0342448039870148,2.7663679543071322,0.7691630533470046,-0.0003297917422829173,-0.00013698988047507903,-0.00016783631474481274,-0.00018832254880598128,-1.6448729546071106e-05,1.1901265981097002e-05,-0.000529189880537586,0.0,0.0,0.0,0.0,0.0,0.0,0.0,8.515993754065754e-05,-0.00020151382998354755,0.00017545857785612046,0.000181632975777557,-0.00021804729775948967,3.8895005227690405e-05,-3.439188003451221e-05,0.0003297917422829173,0.00013698988047507903,0.00016783631474481274,0.00018832254880598128,1.6448729546071106e-05,-1.1901265981097002e-05,0.000529189880537586,0.24825400114059448,22.819665908813477,-0.04922797530889511,-14.179414749145508,0.01343768835067749,-2.1389803886413574,0.40591758489608765,0
76,0.37499332427978516,-0.24825400114059448,-22.819665908813477,0.04922797530889511,14.179414749145508,-0.01343768835067749,2.1389803886413574,-0.40591758489608765,0.0,0.0,0.0,0.0,0.0,0.0,0.0,-0.28025566344356906,-0.011719609886258494,-0.04040198901296143,0.3093054730499636,-0.24832847700062363,-0.04910428384864215,-0.41583663157794853,1.6754121948166896,0.05230584065485357,0.029794046531428933,-2.7525764781017457,0.03446285128477429,2.7663290593019045,0.7691974452270391,1.6754973547542302,0.052104326824870026,0.029969505109285054,-2.752394845125968,0.0342448039870148,2.7663679543071322,0.7691630533470046,-0.0003297917422829173,-0.00013698988047507903,-0.00016783631474481274,-0.00018832254880598128,-1.6448729546071106e-05,1.1901265981097002e-05,-0.000529189880537586,0.0,0.0,0.0,0.0,0.0,0.0,0.0,8.515993754065754e-05,-0.00020151382998354755,0.00017545857785612046,0.000181632975777557,-0.00021804729775948967,3.8895005227690405e-05,-3.439188003451221e-05,0.0003297917422829173,0.00013698988047507903,0.00016783631474481274,0.00018832254880598128,1.6448729546071106e-05,-1.1901265981097002e-05,0.000529189880537586,0.24825400114059448,22.819665908813477,-0.04922797530889511,-14.179414749145508,0.01343768835067749,-2.1389803886413574,0.40591758489608765,0
77,0.38001060485839844,-0.24825400114059448,-22.819665908813477,0.04922797530889511,14.179414749145508,-0.01343768835067749,2.1389803886413574,-0.40591758489608765,0.0,0.0,0.0,0.0,0.0,0.0,0.0,-0.28025566344356906,-0.011719609886258494,-0.04040198901296143,0.3093054730499636,-0.24832847700062363,-0.04910428384864215,-0.41583663157794853,1.6754121948166896,0.05230584065485357,0.029794046531428933,-2.7525764781017457,0.03446285128477429,2.7663290593019045,0.7691974452270391,1.6754973547542302,0.052104326824870026,0.029969505109285054,-2.752394845125968,0.0342448039870148,2.7663679543071322,0.7691630533470046,-0.0003297917422829173,-0.00013698988047507903,-0.00016783631474481274,-0.00018832254880598128,-1.6448729546071106e-05,1.1901265981097002e-05,-0.000529189880537586,0.0,0.0,0.0,0.0,0.0,0.0,0.0,8.515993754065754e-05,-0.00020151382998354755,0.00017545857785612046,0.000181632975777557,-0.00021804729775948967,3.8895005227690405e-05,-3.439188003451221e-05,0.0003297917422829173,0.00013698988047507903,0.00016783631474481274,0.00018832254880598128,1.6448729546071106e-05,-1.1901265981097002e-05,0.000529189880537586,0.24825400114059448,22.819665908813477,-0.04922797530889511,-14.179414749145508,0.01343768835067749,-2.1389803886413574,0.40591758489608765,0
78,0.3850126266479492,-0.24825400114059448,-22.819665908813477,0.04922797530889511,14.179414749145508,-0.01343768835067749,2.1389803886413574,-0.40591758489608765,0.0,0.0,0.0,0.0,0.0,0.0,0.0,-0.28025566344356906,-0.011719609886258494,-0.04040198901296143,0.3093054730499636,-0.24832847700062363,-0.04910428384864215,-0.41583663157794853,1.6754121948166896,0.05230584065485357,0.029794046531428933,-2.7525764781017457,0.03446285128477429,2.7663290593019045,0.7691974452270391,1.6754973547542302,0.052104326824870026,0.029969505109285054,-2.752394845125968,0.0342448039870148,2.7663679543071322,0.7691630533470046,-0.0003297917422829173,-0.00013698988047507903,-0.00016783631474481274,-0.00018832254880598128,-1.6448729546071106e-05,1.1901265981097002e-05,-0.000529189880537586,0.0,0.0,0.0,0.0,0.0,0.0,0.0,8.515993754065754e-05,-0.00020151382998354755,0.00017545857785612046,0.000181632975777557,-0.00021804729775948967,3.8895005227690405e-05,-3.439188003451221e-05,0.0003297917422829173,0.00013698988047507903,0.00016783631474481274,0.00018832254880598128,1.6448729546071106e-05,-1.1901265981097002e-05,0.000529189880537586,0.24825400114059448,22.819665908813477,-0.04922797530889511,-14.179414749145508,0.01343768835067749,-2.1389803886413574,0.40591758489608765,0
79,0.38995957374572754,-0.22445029020309448,-22.819665908813477,0.001620553433895111,14.155611038208008,-0.00702899694442749,2.1389803886413574,-0.45352500677108765,0.0,0.0,0.0,0.0,0.0,0.0,0.0,-0.2803550829744066,-0.013706011580423116,-0.04566141899849976,0.31245376029543204,-0.2479604438516786,-0.04868650075657878,-0.414849085410478,1.6754105243808342,0.052305840330076556,0.029797466369651603,-2.7525755483950842,0.03446226339047707,2.7663290452527733,0.7692026956947251,1.6754973547542302,0.052104326824870026,0.029969505109285054,-2.752394845125968,0.0342448039870148,2.7663679543071322,0.7691630533470046,-0.0005122410988177861,-2.7307853299072766e-05,0.0009652597949823859,0.0009269978521117418,-0.00037507433900491743,1.507879525767042e-05,0.0018826980000832799,0.0,0.0,0.0,0.0,0.0,0.0,0.0,8.683037339607402e-05,-0.00020151350520652977,0.00017203873963345107,0.00018070326911612256,-0.00021745940346226678,3.8909054358882145e-05,-3.964234772046993e-05,0.0005122410988177861,2.7307853299072766e-05,-0.0009652597949823859,-0.0009269978521117418,0.00037507433900491743,-1.507879525767042e-05,-0.0018826980000832799,0.22445029020309448,22.819665908813477,-0.001620553433895111,-14.155611038208008,0.00702899694442749,-2.1389803886413574,0.45352500677108765,0
