rezayati/contactInterpretation/dataset/franka_main/labeled_data/link7/a5_1.csv
index,time,tau_J0,tau_J1,tau_J2,tau_J3,tau_J4,tau_J5,tau_J6,tau_J_d0,tau_J_d1,tau_J_d2,tau_J_d3,tau_J_d4,tau_J_d5,tau_J_d6,tau_ext0,tau_ext1,tau_ext2,tau_ext3,tau_ext4,tau_ext5,tau_ext6,q0,q1,q2,q3,q4,q5,q6,q_d0,q_d1,q_d2,q_d3,q_d4,q_d5,q_d6,dq0,dq1,dq2,dq3,dq4,dq5,dq6,dq_d0,dq_d1,dq_d2,dq_d3,dq_d4,dq_d5,dq_d6,e0,e1,e2,e3,e4,e5,e6,de0,de1,de2,de3,de4,de5,de6,etau_J0,etau_J1,etau_J2,etau_J3,etau_J4,etau_J5,etau_J6,label
1,0.0,-0.6568843722343445,-47.04787826538086,-1.1925323009490967,21.022981643676758,0.6777854561805725,2.3522982597351074,-0.33084434270858765,0.0,0.0,0.0,0.0,0.0,0.0,0.0,-0.6010442684160078,-0.26996060742376776,-0.4088845217481974,0.6708968618645993,0.09103477333610385,0.1432736994947428,-0.3350492167472296,0.06254623125937946,0.6882719843680398,-0.07850088023511986,-1.62121852491613,0.028159524356325464,2.2877718821357704,0.8466359817120764,0.06226373270833701,0.6884179775783729,-0.07863937525950354,-1.6210372792796082,0.028167345702647853,2.2878312372101677,0.8466366937888992,0.0017024440050049027,0.0001771684636175594,-0.0006294951667146665,-0.00025157067138721184,-0.0004058237792418887,-0.0006151322570455565,-0.00031514719071588736,0.0,0.0,0.0,0.0,0.0,0.0,0.0,-0.00028249855104244687,0.0001459932103330397,-0.000138495024383678,0.00018124563652177628,7.821346322389039e-06,5.93550743972493e-05,7.120768227286689e-07,-0.0017024440050049027,-0.0001771684636175594,0.0006294951667146665,0.00025157067138721184,0.0004058237792418887,0.0006151322570455565,0.00031514719071588736,0.6568843722343445,47.04787826538086,1.1925323009490967,-21.022981643676758,-0.6777854561805725,-2.3522982597351074,0.33084434270858765,0
2,0.0049474239349365234,-0.6053096652030945,-47.07168197631836,-1.2917144298553467,21.074556350708008,0.6658836007118225,2.4044833183288574,-0.33084434270858765,0.0,0.0,0.0,0.0,0.0,0.0,0.0,-0.6342981306542037,-0.28356254065738357,-0.4240783524111177,0.6675814157441622,0.0916287572586801,0.14310850712302928,-0.33602830603626394,0.06254261198169306,0.6882736548038951,-0.07849392008572294,-1.6212221441938164,0.02816084678471088,2.28776608218088,0.8466359817120764,0.06226373270833701,0.6884179775783729,-0.07863937525950354,-1.6210372792796082,0.028167345702647853,2.2878312372101677,0.8466366937888992,-0.0006646912503922302,7.20917573900969e-05,0.00022524836239678106,-0.0007401050328015252,0.0002949770629692319,-0.0003118216272210375,-0.0007115443575225936,0.0,0.0,0.0,0.0,0.0,0.0,0.0,-0.00027887927335604884,0.00014432277447773423,-0.00014545517378060369,0.00018486491420821594,6.498917936973575e-06,6.515502928783334e-05,7.120768227286689e-07,0.0006646912503922302,-7.20917573900969e-05,-0.00022524836239678106,0.0007401050328015252,-0.0002949770629692319,0.0003118216272210375,0.0007115443575225936,0.6053096652030945,47.07168197631836,1.2917144298553467,-21.074556350708008,-0.6658836007118225,-2.4044833183288574,0.33084434270858765,0
3,0.009968757629394531,-0.6053096652030945,-47.07168197631836,-1.2917144298553467,21.074556350708008,0.6658836007118225,2.4044833183288574,-0.33084434270858765,0.0,0.0,0.0,0.0,0.0,0.0,0.0,-0.6342981306542037,-0.28356254065738357,-0.4240783524111177,0.6675814157441622,0.0916287572586801,0.14310850712302928,-0.33602830603626394,0.06254261198169306,0.6882736548038951,-0.07849392008572294,-1.6212221441938164,0.02816084678471088,2.28776608218088,0.8466359817120764,0.06226373270833701,0.6884179775783729,-0.07863937525950354,-1.6210372792796082,0.028167345702647853,2.2878312372101677,0.8466366937888992,-0.0006646912503922302,7.20917573900969e-05,0.00022524836239678106,-0.0007401050328015252,0.0002949770629692319,-0.0003118216272210375,-0.0007115443575225936,0.0,0.0,0.0,0.0,0.0,0.0,0.0,-0.00027887927335604884,0.00014432277447773423,-0.00014545517378060369,0.00018486491420821594,6.498917936973575e-06,6.515502928783334e-05,7.120768227286689e-07,0.0006646912503922302,-7.20917573900969e-05,-0.00022524836239678106,0.0007401050328015252,-0.0002949770629692319,0.0003118216272210375,0.0007115443575225936,0.6053096652030945,47.07168197631836,1.2917144298553467,-21.074556350708008,-0.6658836007118225,-2.4044833183288574,0.33084434270858765,0
4,0.01494455337524414,-0.5537349581718445,-47.07168197631836,-1.3155181407928467,21.022981643676758,0.6713767647743225,2.3330721855163574,-0.36471885442733765,0.0,0.0,0.0,0.0,0.0,0.0,0.0,-0.5827603666456151,-0.2502426665441856,-0.38730154040983794,0.6416850448767792,0.0913453131797092,0.14659581303820265,-0.3366442260516711,0.06253899270400665,0.6882736548038951,-0.07849224964986767,-1.62121852491613,0.02816023643314838,2.2877740167511833,0.8466397063008552,0.06226373270833701,0.6884179775783729,-0.07863937525950354,-1.6210372792796082,0.028167345702647853,2.2878312372101677,0.8466366937888992,-0.0003812876100996889,0.0007689876449652246,0.00020652048308046085,-1.1074088076754307e-05,-0.0001015175727470068,0.0007982132494711504,0.0005884475120669085,0.0,0.0,0.0,0.0,0.0,0.0,0.0,-0.00027525999566963694,0.00014432277447773423,-0.00014712560963586752,0.00018124563652177628,7.10926949947302e-06,5.7220458984375e-05,-3.012511956002051e-06,0.0003812876100996889,-0.0007689876449652246,-0.00020652048308046085,1.1074088076754307e-05,0.0001015175727470068,-0.0007982132494711504,-0.0005884475120669085,0.5537349581718445,47.07168197631836,1.3155181407928467,-21.022981643676758,-0.6713767647743225,-2.3330721855163574,0.36471885442733765,0
5,0.01994180679321289,-0.5537349581718445,-47.07168197631836,-1.3155181407928467,21.022981643676758,0.6713767647743225,2.3330721855163574,-0.36471885442733765,0.0,0.0,0.0,0.0,0.0,0.0,0.0,-0.5827603666456151,-0.2502426665441856,-0.38730154040983794,0.6416850448767792,0.0913453131797092,0.14659581303820265,-0.3366442260516711,0.06253899270400665,0.6882736548038951,-0.07849224964986767,-1.62121852491613,0.02816023643314838,2.2877740167511833,0.8466397063008552,0.06226373270833701,0.6884179775783729,-0.07863937525950354,-1.6210372792796082,0.028167345702647853,2.2878312372101677,0.8466366937888992,-0.0003812876100996889,0.0007689876449652246,0.00020652048308046085,-1.1074088076754307e-05,-0.0001015175727470068,0.0007982132494711504,0.0005884475120669085,0.0,0.0,0.0,0.0,0.0,0.0,0.0,-0.00027525999566963694,0.00014432277447773423,-0.00014712560963586752,0.00018124563652177628,7.10926949947302e-06,5.7220458984375e-05,-3.012511956002051e-06,0.0003812876100996889,-0.0007689876449652246,-0.00020652048308046085,1.1074088076754307e-05,0.0001015175727470068,-0.0007982132494711504,-0.0005884475120669085,0.5537349581718445,47.07168197631836,1.3155181407928467,-21.022981643676758,-0.6713767647743225,-2.3330721855163574,0.36471885442733765,0
6,0.024938583374023438,-0.6291133761405945,-47.07168197631836,-1.2163360118865967,21.022981643676758,0.6594749093055725,2.3522982597351074,-0.35831016302108765,0.0,0.0,0.0,0.0,0.0,0.0,0.0,-0.5962679820267561,-0.27276617829544497,-0.4058112127606317,0.647748331580451,0.09193694628684491,0.1444517254406223,-0.33710828420602484,0.06254428241754832,0.6882736548038951,-0.07849920979926461,-1.62121852491613,0.0281615588615338,2.287771880520715,0.8466390334696674,0.06226373270833701,0.6884179775783729,-0.07863937525950354,-1.6210372792796082,0.028167345702647853,2.2878312372101677,0.8466366937888992,-4.5161489531042916e-05,0.0004093333363728756,-0.0007836782411287987,0.00013073678395321918,0.00043949397733046553,-0.00033765539792093423,0.0008840008873178921,0.0,0.0,0.0,0.0,0.0,0.0,0.0,-0.00028054970921131267,0.00014432277447773423,-0.00014016546023892795,0.00018124563652177628,5.7868411140540865e-06,5.9356689452894074e-05,-2.3396807682374288e-06,4.5161489531042916e-05,-0.0004093333363728756,0.0007836782411287987,-0.00013073678395321918,-0.00043949397733046553,0.00033765539792093423,-0.0008840008873178921,0.6291133761405945,47.07168197631836,1.2163360118865967,-21.022981643676758,-0.6594749093055725,-2.3522982597351074,0.35831016302108765,0
7,0.029940366744995117,-0.6291133761405945,-47.07168197631836,-1.2163360118865967,21.022981643676758,0.6594749093055725,2.3522982597351074,-0.35831016302108765,0.0,0.0,0.0,0.0,0.0,0.0,0.0,-0.5962679820267561,-0.27276617829544497,-0.4058112127606317,0.647748331580451,0.09193694628684491,0.1444517254406223,-0.33710828420602484,0.06254428241754832,0.6882736548038951,-0.07849920979926461,-1.62121852491613,0.0281615588615338,2.287771880520715,0.8466390334696674,0.06226373270833701,0.6884179775783729,-0.07863937525950354,-1.6210372792796082,0.028167345702647853,2.2878312372101677,0.8466366937888992,-4.5161489531042916e-05,0.0004093333363728756,-0.0007836782411287987,0.00013073678395321918,0.00043949397733046553,-0.00033765539792093423,0.0008840008873178921,0.0,0.0,0.0,0.0,0.0,0.0,0.0,-0.00028054970921131267,0.00014432277447773423,-0.00014016546023892795,0.00018124563652177628,5.7868411140540865e-06,5.9356689452894074e-05,-2.3396807682374288e-06,4.5161489531042916e-05,-0.0004093333363728756,0.0007836782411287987,-0.00013073678395321918,-0.00043949397733046553,0.00033765539792093423,-0.0008840008873178921,0.6291133761405945,47.07168197631836,1.2163360118865967,-21.022981643676758,-0.6594749093055725,-2.3522982597351074,0.35831016302108765,0
8,0.03493928909301758,-0.6053096652030945,-47.04787826538086,-1.3155181407928467,21.022981643676758,0.6658836007118225,2.3980746269226074,-0.30978721380233765,0.0,0.0,0.0,0.0,0.0,0.0,0.0,-0.6193469181629585,-0.27903179264219385,-0.4153167631044372,0.6467700100842365,0.09207680905651375,0.14365061718851985,-0.3370563727013514,0.06254261198169306,0.6882719843680398,-0.07849224964986767,-1.62121852491613,0.02816084678471088,2.287766794257694,0.8466336420310868,0.06226373270833701,0.6884179775783729,-0.07863937525950354,-1.6210372792796082,0.028167345702647853,2.2878312372101677,0.8466366937888992,-0.0008241258434801515,-0.0005990393441816856,0.00031885313901445,0.0008161255726370613,0.00021476549140949963,-0.0001464351171199177,-0.0009626460370422238,0.0,0.0,0.0,0.0,0.0,0.0,0.0,-0.00027887927335604884,0.0001459932103330397,-0.00014712560963586752,0.00018124563652177628,6.498917936973575e-06,6.444295247387544e-05,3.0517578123445688e-06,0.0008241258434801515,0.0005990393441816856,-0.00031885313901445,-0.0008161255726370613,-0.00021476549140949963,0.0001464351171199177,0.0009626460370422238,0.6053096652030945,47.04787826538086,1.3155181407928467,-21.022981643676758,-0.6658836007118225,-2.3980746269226074,0.30978721380233765,0
9,0.03994035720825195,-0.6053096652030945,-47.04787826538086,-1.3155181407928467,21.022981643676758,0.6658836007118225,2.3980746269226074,-0.30978721380233765,0.0,0.0,0.0,0.0,0.0,0.0,0.0,-0.6193469181629585,-0.27903179264219385,-0.4153167631044372,0.6467700100842365,0.09207680905651375,0.14365061718851985,-0.3370563727013514,0.06254261198169306,0.6882719843680398,-0.07849224964986767,-1.62121852491613,0.02816084678471088,2.287766794257694,0.8466336420310868,0.06226373270833701,0.6884179775783729,-0.07863937525950354,-1.6210372792796082,0.028167345702647853,2.2878312372101677,0.8466366937888992,-0.0008241258434801515,-0.0005990393441816856,0.00031885313901445,0.0008161255726370613,0.00021476549140949963,-0.0001464351171199177,-0.0009626460370422238,0.0,0.0,0.0,0.0,0.0,0.0,0.0,-0.00027887927335604884,0.0001459932103330397,-0.00014712560963586752,0.00018124563652177628,6.498917936973575e-06,6.444295247387544e-05,3.0517578123445688e-06,0.0008241258434801515,0.0005990393441816856,-0.00031885313901445,-0.0008161255726370613,-0.00021476549140949963,0.0001464351171199177,0.0009626460370422238,0.6053096652030945,47.04787826538086,1.3155181407928467,-21.022981643676758,-0.6658836007118225,-2.3980746269226074,0.30978721380233765,0
10,0.04568839073181152,-0.5815059542655945,-47.04787826538086,-1.2401397228240967,21.046785354614258,0.6832786202430725,2.3266634941101074,-0.35098594427108765,0.0,0.0,0.0,0.0,0.0,0.0,0.0,-0.5885476255640391,-0.2449943707132764,-0.3943889652011145,0.6265063603078075,0.09169102650217759,0.14584460573695862,-0.3363446227812262,0.0625409415458378,0.6882719843680398,-0.07849753936340935,-1.6212201953519851,0.028158914004762964,2.287774728828006,0.8466382196678056,0.06226373270833701,0.6884179775783729,-0.07863937525950354,-1.6210372792796082,0.028167345702647853,2.2878312372101677,0.8466366937888992,-0.000122727651938389,0.000424391825211719,-0.0017093669329509551,-0.0005157967787509651,-0.0004855108762890637,0.0009572993611498789,0.0005828610873372587,0.0,0.0,0.0,0.0,0.0,0.0,0.0,-0.000277208837500785,0.0001459932103330397,-0.00014183589609419178,0.00018291607237697072,8.431697884888484e-06,5.650838216153531e-05,-1.5258789064498401e-06,0.000122727651938389,-0.000424391825211719,0.0017093669329509551,0.0005157967787509651,0.0004855108762890637,-0.0009572993611498789,-0.0005828610873372587,0.5815059542655945,47.04787826538086,1.2401397228240967,-21.046785354614258,-0.6832786202430725,-2.3266634941101074,0.35098594427108765,0
11,0.05083799362182617,-0.5815059542655945,-47.04787826538086,-1.2401397228240967,21.046785354614258,0.6832786202430725,2.3266634941101074,-0.35098594427108765,0.0,0.0,0.0,0.0,0.0,0.0,0.0,-0.5885476255640391,-0.2449943707132764,-0.3943889652011145,0.6265063603078075,0.09169102650217759,0.14584460573695862,-0.3363446227812262,0.0625409415458378,0.6882719843680398,-0.07849753936340935,-1.6212201953519851,0.028158914004762964,2.287774728828006,0.8466382196678056,0.06226373270833701,0.6884179775783729,-0.07863937525950354,-1.6210372792796082,0.028167345702647853,2.2878312372101677,0.8466366937888992,-0.000122727651938389,0.000424391825211719,-0.0017093669329509551,-0.0005157967787509651,-0.0004855108762890637,0.0009572993611498789,0.0005828610873372587,0.0,0.0,0.0,0.0,0.0,0.0,0.0,-0.000277208837500785,0.0001459932103330397,-0.00014183589609419178,0.00018291607237697072,8.431697884888484e-06,5.650838216153531e-05,-1.5258789064498401e-06,0.000122727651938389,-0.000424391825211719,0.0017093669329509551,0.0005157967787509651,0.0004855108762890637,-0.0009572993611498789,-0.0005828610873372587,0.5815059542655945,47.04787826538086,1.2401397228240967,-21.046785354614258,-0.6832786202430725,-2.3266634941101074,0.35098594427108765,0
12,0.055480241775512695,-0.6053096652030945,-47.04787826538086,-1.2401397228240967,21.022981643676758,0.6658836007118225,2.3596224784851074,-0.38577598333358765,0.0,0.0,0.0,0.0,0.0,0.0,0.0,-0.597556961667531,-0.2548395665736903,-0.4050201952393631,0.630236094865349,0.09222628624458964,0.14265022696199772,-0.33469794002844927,0.06254261198169306,0.6882719843680398,-0.07849753925515014,-1.62121852491613,0.02816084678471088,2.2877710667186313,0.8466420852277013,0.06226373270833701,0.6884179775783729,-0.07863937525950354,-1.6210372792796082,0.028167345702647853,2.2878312372101677,0.8466366937888992,0.0002892079574927508,0.0005449571347114968,0.0004198738369224368,-0.0004922600963869458,9.495516171683215e-05,-0.00041173100219515457,0.0015354058944092692,0.0,0.0,0.0,0.0,0.0,0.0,0.0,-0.00027887927335604884,0.0001459932103330397,-0.00014183600435339894,0.00018124563652177628,6.498917936973575e-06,6.01704915363932e-05,-5.391438802182513e-06,-0.0002892079574927508,-0.0005449571347114968,-0.0004198738369224368,0.0004922600963869458,-9.495516171683215e-05,0.00041173100219515457,-0.0015354058944092692,0.6053096652030945,47.04787826538086,1.2401397228240967,-21.022981643676758,-0.6658836007118225,-2.3596224784851074,0.38577598333358765,0
13,0.05994868278503418,-0.6053096652030945,-47.04787826538086,-1.2401397228240967,21.022981643676758,0.6658836007118225,2.3596224784851074,-0.38577598333358765,0.0,0.0,0.0,0.0,0.0,0.0,0.0,-0.597556961667531,-0.2548395665736903,-0.4050201952393631,0.630236094865349,0.09222628624458964,0.14265022696199772,-0.33469794002844927,0.06254261198169306,0.6882719843680398,-0.07849753925515014,-1.62121852491613,0.02816084678471088,2.2877710667186313,0.8466420852277013,0.06226373270833701,0.6884179775783729,-0.07863937525950354,-1.6210372792796082,0.028167345702647853,2.2878312372101677,0.8466366937888992,0.0002892079574927508,0.0005449571347114968,0.0004198738369224368,-0.0004922600963869458,9.495516171683215e-05,-0.00041173100219515457,0.0015354058944092692,0.0,0.0,0.0,0.0,0.0,0.0,0.0,-0.00027887927335604884,0.0001459932103330397,-0.00014183600435339894,0.00018124563652177628,6.498917936973575e-06,6.01704915363932e-05,-5.391438802182513e-06,-0.0002892079574927508,-0.0005449571347114968,-0.0004198738369224368,0.0004922600963869458,-9.495516171683215e-05,0.00041173100219515457,-0.0015354058944092692,0.6053096652030945,47.04787826538086,1.2401397228240967,-21.022981643676758,-0.6658836007118225,-2.3596224784851074,0.38577598333358765,0
14,0.06500411033630371,-0.6053096652030945,-47.04787826538086,-1.3155181407928467,21.098360061645508,0.6713767647743225,2.3916659355163574,-0.34457725286483765,0.0,0.0,0.0,0.0,0.0,0.0,0.0,-0.6265817441528688,-0.22326255339632844,-0.41888944431489816,0.5996809389548544,0.09183843317551327,0.1373177743340393,-0.33478436109218845,0.06254261198169306,0.6882719843680398,-0.07849224964986706,-1.6212238146296716,0.02816023643314838,2.287768565972646,0.8466375075909827,0.06226373270833701,0.6884179775783729,-0.07863937525950354,-1.6210372792796082,0.028167345702647853,2.2878312372101677,0.8466366937888992,-8.727548686759467e-05,-0.0001236687337702752,0.0012058532963457127,0.0005356054493108348,-0.0001399027684467312,-0.00018264759106194199,0.0004525537478944639,0.0,0.0,0.0,0.0,0.0,0.0,0.0,-0.00027887927335604884,0.0001459932103330397,-0.00014712560963647814,0.00018653535006341038,7.10926949947302e-06,6.267123752179415e-05,-8.138020834991266e-07,8.727548686759467e-05,0.0001236687337702752,-0.0012058532963457127,-0.0005356054493108348,0.0001399027684467312,0.00018264759106194199,-0.0004525537478944639,0.6053096652030945,47.04787826538086,1.3155181407928467,-21.098360061645508,-0.6713767647743225,-2.3916659355163574,0.34457725286483765,0
15,0.0699453353881836,-0.6053096652030945,-47.04787826538086,-1.3155181407928467,21.098360061645508,0.6713767647743225,2.3916659355163574,-0.34457725286483765,0.0,0.0,0.0,0.0,0.0,0.0,0.0,-0.6265817441528688,-0.22326255339632844,-0.41888944431489816,0.5996809389548544,0.09183843317551327,0.1373177743340393,-0.33478436109218845,0.06254261198169306,0.6882719843680398,-0.07849224964986706,-1.6212238146296716,0.02816023643314838,2.287768565972646,0.8466375075909827,0.06226373270833701,0.6884179775783729,-0.07863937525950354,-1.6210372792796082,0.028167345702647853,2.2878312372101677,0.8466366937888992,-8.727548686759467e-05,-0.0001236687337702752,0.0012058532963457127,0.0005356054493108348,-0.0001399027684467312,-0.00018264759106194199,0.0004525537478944639,0.0,0.0,0.0,0.0,0.0,0.0,0.0,-0.00027887927335604884,0.0001459932103330397,-0.00014712560963647814,0.00018653535006341038,7.10926949947302e-06,6.267123752179415e-05,-8.138020834991266e-07,8.727548686759467e-05,0.0001236687337702752,-0.0012058532963457127,-0.0005356054493108348,0.0001399027684467312,0.00018264759106194199,-0.0004525537478944639,0.6053096652030945,47.04787826538086,1.3155181407928467,-21.098360061645508,-0.6713767647743225,-2.3916659355163574,0.34457725286483765,0
16,0.07493972778320312,-0.5815059542655945,-47.04787826538086,-1.2917144298553467,20.999177932739258,0.6658836007118225,2.3660311698913574,-0.29605430364608765,0.0,0.0,0.0,0.0,0.0,0.0,0.0,-0.6144182305859259,-0.24086097575081045,-0.415839104580248,0.6158099873913011,0.09289807021225395,0.14368944885344428,-0.3338860855501434,0.0625409415458378,0.6882719843680398,-0.07849392008572294,-1.6212168544802747,0.028160846947099697,2.28777035464779,0.8466321161521806,0.06226373270833701,0.6884179775783729,-0.07863937525950354,-1.6210372792796082,0.028167345702647853,2.2878312372101677,0.8466366937888992,-0.00023982454496830076,-8.81826022183981e-05,-0.0005667846737199363,0.0003395476490129634,-0.0005653511124004978,-0.00022147263837898442,-0.001777276279785995,0.0,0.0,0.0,0.0,0.0,0.0,0.0,-0.000277208837500785,0.0001459932103330397,-0.00014545517378060369,0.00017957520066658184,6.4987555481559045e-06,6.0882562377795324e-05,4.577636718572364e-06,0.00023982454496830076,8.81826022183981e-05,0.0005667846737199363,-0.0003395476490129634,0.0005653511124004978,0.00022147263837898442,0.001777276279785995,0.5815059542655945,47.04787826538086,1.2917144298553467,-20.999177932739258,-0.6658836007118225,-2.3660311698913574,0.29605430364608765,0
17,0.07994270324707031,-0.5815059542655945,-47.04787826538086,-1.2917144298553467,20.999177932739258,0.6658836007118225,2.3660311698913574,-0.29605430364608765,0.0,0.0,0.0,0.0,0.0,0.0,0.0,-0.6144182305859259,-0.24086097575081045,-0.415839104580248,0.6158099873913011,0.09289807021225395,0.14368944885344428,-0.3338860855501434,0.0625409415458378,0.6882719843680398,-0.07849392008572294,-1.6212168544802747,0.028160846947099697,2.28777035464779,0.8466321161521806,0.06226373270833701,0.6884179775783729,-0.07863937525950354,-1.6210372792796082,0.028167345702647853,2.2878312372101677,0.8466366937888992,-0.00023982454496830076,-8.81826022183981e-05,-0.0005667846737199363,0.0003395476490129634,-0.0005653511124004978,-0.00022147263837898442,-0.001777276279785995,0.0,0.0,0.0,0.0,0.0,0.0,0.0,-0.000277208837500785,0.0001459932103330397,-0.00014545517378060369,0.00017957520066658184,6.4987555481559045e-06,6.0882562377795324e-05,4.577636718572364e-06,0.00023982454496830076,8.81826022183981e-05,0.0005667846737199363,-0.0003395476490129634,0.0005653511124004978,0.00022147263837898442,0.001777276279785995,0.5815059542655945,47.04787826538086,1.2917144298553467,-20.999177932739258,-0.6658836007118225,-2.3660311698913574,0.29605430364608765,0
18,0.08495211601257324,-0.5815059542655945,-47.02010726928711,-1.1687285900115967,21.046785354614258,0.6713767647743225,2.3788485527038574,-0.35831016302108765,0.0,0.0,0.0,0.0,0.0,0.0,0.0,-0.5648704518157992,-0.2767576661450759,-0.3886330982571729,0.6377423499910974,0.0917142337500116,0.14640449649136303,-0.33390453356546984,0.0625409415458378,0.6882700355262087,-0.07850255067097513,-1.6212201953519851,0.028160118097693275,2.2877689304881628,0.8466390334698889,0.06226373270833701,0.6884179775783729,-0.07863937525950354,-1.6210372792796082,0.028167345702647853,2.2878312372101677,0.8466366937888992,-2.314696686575008e-05,-0.0006691014122671156,-0.0006101262411187466,-0.000545443444193492,0.0010899660025983815,-0.0008015913040918122,0.00046029102743671413,0.0,0.0,0.0,0.0,0.0,0.0,0.0,-0.000277208837500785,0.0001479420521641739,-0.00013682458852841417,0.00018291607237697072,7.227604954578026e-06,6.230672200491227e-05,-2.339680989726922e-06,2.314696686575008e-05,0.0006691014122671156,0.0006101262411187466,0.000545443444193492,-0.0010899660025983815,0.0008015913040918122,-0.00046029102743671413,0.5815059542655945,47.02010726928711,1.1687285900115967,-21.046785354614258,-0.6713767647743225,-2.3788485527038574,0.35831016302108765,0
19,0.08993840217590332,-0.5815059542655945,-47.02010726928711,-1.1687285900115967,21.046785354614258,0.6713767647743225,2.3788485527038574,-0.35831016302108765,0.0,0.0,0.0,0.0,0.0,0.0,0.0,-0.5648704518157992,-0.2767576661450759,-0.3886330982571729,0.6377423499910974,0.0917142337500116,0.14640449649136303,-0.33390453356546984,0.0625409415458378,0.6882700355262087,-0.07850255067097513,-1.6212201953519851,0.028160118097693275,2.2877689304881628,0.8466390334698889,0.06226373270833701,0.6884179775783729,-0.07863937525950354,-1.6210372792796082,0.028167345702647853,2.2878312372101677,0.8466366937888992,-2.314696686575008e-05,-0.0006691014122671156,-0.0006101262411187466,-0.000545443444193492,0.0010899660025983815,-0.0008015913040918122,0.00046029102743671413,0.0,0.0,0.0,0.0,0.0,0.0,0.0,-0.000277208837500785,0.0001479420521641739,-0.00013682458852841417,0.00018291607237697072,7.227604954578026e-06,6.230672200491227e-05,-2.339680989726922e-06,2.314696686575008e-05,0.0006691014122671156,0.0006101262411187466,0.000545443444193492,-0.0010899660025983815,0.0008015913040918122,-0.00046029102743671413,0.5815059542655945,47.02010726928711,1.1687285900115967,-21.046785354614258,-0.6713767647743225,-2.3788485527038574,0.35831016302108765,0
20,0.09524965286254883,-0.6291133761405945,-47.04787826538086,-1.2917144298553467,21.098360061645508,0.6713767647743225,2.3660311698913574,-0.37845176458358765,0.0,0.0,0.0,0.0,0.0,0.0,0.0,-0.6275365945813269,-0.28588230967555645,-0.4237766773299229,0.6416592430220973,0.09300718469989364,0.14695154810130123,-0.3349712108737494,0.06254428241754832,0.6882719843680398,-0.07849391911139003,-1.6212238146296716,0.028160236432480376,2.2877703546418084,0.8466412714256181,0.06226373270833701,0.6884179775783729,-0.07863937525950354,-1.6210372792796082,0.028167345702647853,2.2878312372101677,0.8466366937888992,0.0006509855302754517,-0.00022985426270271867,0.0008627475214568563,-0.0015483757731174369,-9.189394197841368e-05,0.00041497938465506507,0.0016380955017935481,0.0,0.0,0.0,0.0,0.0,0.0,0.0,-0.00028054970921131267,0.0001459932103330397,-0.0001454561481135097,0.00018653535006341038,7.1092701674768666e-06,6.088256835923289e-05,-4.577636718905431e-06,-0.0006509855302754517,0.00022985426270271867,-0.0008627475214568563,0.0015483757731174369,9.189394197841368e-05,-0.00041497938465506507,-0.0016380955017935481,0.6291133761405945,47.04787826538086,1.2917144298553467,-21.098360061645508,-0.6713767647743225,-2.3660311698913574,0.37845176458358765,0
21,0.09993672370910645,-0.6291133761405945,-47.04787826538086,-1.2917144298553467,21.098360061645508,0.6713767647743225,2.3660311698913574,-0.37845176458358765,0.0,0.0,0.0,0.0,0.0,0.0,0.0,-0.6275365945813269,-0.28588230967555645,-0.4237766773299229,0.6416592430220973,0.09300718469989364,0.14695154810130123,-0.3349712108737494,0.06254428241754832,0.6882719843680398,-0.07849391911139003,-1.6212238146296716,0.028160236432480376,2.2877703546418084,0.8466412714256181,0.06226373270833701,0.6884179775783729,-0.07863937525950354,-1.6210372792796082,0.028167345702647853,2.2878312372101677,0.8466366937888992,0.0006509855302754517,-0.00022985426270271867,0.0008627475214568563,-0.0015483757731174369,-9.189394197841368e-05,0.00041497938465506507,0.0016380955017935481,0.0,0.0,0.0,0.0,0.0,0.0,0.0,-0.00028054970921131267,0.0001459932103330397,-0.0001454561481135097,0.00018653535006341038,7.1092701674768666e-06,6.088256835923289e-05,-4.577636718905431e-06,-0.0006509855302754517,0.00022985426270271867,-0.0008627475214568563,0.0015483757731174369,9.189394197841368e-05,-0.00041497938465506507,-0.0016380955017935481,0.6291133761405945,47.04787826538086,1.2917144298553467,-21.098360061645508,-0.6713767647743225,-2.3660311698913574,0.37845176458358765,0
22,0.10585141181945801,-0.6291133761405945,-47.04787826538086,-1.3393218517303467,21.022981643676758,0.6777854561805725,2.3660311698913574,-0.36471885442733765,0.0,0.0,0.0,0.0,0.0,0.0,0.0,-0.6144396149843794,-0.26583077076405204,-0.4154413261592336,0.6329522776744263,0.0922773141246977,0.1468791373388909,-0.3357963958520302,0.06254428241754832,0.6882719843680398,-0.07849057921400691,-1.62121852491613,0.02815951120794146,2.2877703546418084,0.8466396278091419,0.06226373270833701,0.6884179775783729,-0.07863937525950354,-1.6210372792796082,0.028167345702647853,2.2878312372101677,0.8466366937888992,0.0005689396821894063,0.0005327351309488095,3.4793104568501174e-05,0.0005726550500806952,-0.00046387041860684056,-0.00031592694890470775,0.0013344272989788393,0.0,0.0,0.0,0.0,0.0,0.0,0.0,-0.00028054970921131267,0.0001459932103330397,-0.00014879604549662695,0.00018124563652177628,7.834494706392137e-06,6.088256835923289e-05,-2.9340202427619033e-06,-0.0005689396821894063,-0.0005327351309488095,-3.4793104568501174e-05,-0.0005726550500806952,0.00046387041860684056,0.00031592694890470775,-0.0013344272989788393,0.6291133761405945,47.04787826538086,1.3393218517303467,-21.022981643676758,-0.6777854561805725,-2.3660311698913574,0.36471885442733765,0
23,0.10994863510131836,-0.6291133761405945,-47.04787826538086,-1.3393218517303467,21.022981643676758,0.6777854561805725,2.3660311698913574,-0.36471885442733765,0.0,0.0,0.0,0.0,0.0,0.0,0.0,-0.6144396149843794,-0.26583077076405204,-0.4154413261592336,0.6329522776744263,0.0922773141246977,0.1468791373388909,-0.3357963958520302,0.06254428241754832,0.6882719843680398,-0.07849057921400691,-1.62121852491613,0.02815951120794146,2.2877703546418084,0.8466396278091419,0.06226373270833701,0.6884179775783729,-0.07863937525950354,-1.6210372792796082,0.028167345702647853,2.2878312372101677,0.8466366937888992,0.0005689396821894063,0.0005327351309488095,3.4793104568501174e-05,0.0005726550500806952,-0.00046387041860684056,-0.00031592694890470775,0.0013344272989788393,0.0,0.0,0.0,0.0,0.0,0.0,0.0,-0.00028054970921131267,0.0001459932103330397,-0.00014879604549662695,0.00018124563652177628,7.834494706392137e-06,6.088256835923289e-05,-2.9340202427619033e-06,-0.0005689396821894063,-0.0005327351309488095,-3.4793104568501174e-05,-0.0005726550500806952,0.00046387041860684056,0.00031592694890470775,-0.0013344272989788393,0.6291133761405945,47.04787826538086,1.3393218517303467,-21.022981643676758,-0.6777854561805725,-2.3660311698913574,0.36471885442733765,0
24,0.11494588851928711,-0.6291133761405945,-47.04787826538086,-1.3393218517303467,21.022981643676758,0.6777854561805725,2.3660311698913574,-0.36471885442733765,0.0,0.0,0.0,0.0,0.0,0.0,0.0,-0.6144396149843794,-0.26583077076405204,-0.4154413261592336,0.6329522776744263,0.0922773141246977,0.1468791373388909,-0.3357963958520302,0.06254428241754832,0.6882719843680398,-0.07849057921400691,-1.62121852491613,0.02815951120794146,2.2877703546418084,0.8466396278091419,0.06226373270833701,0.6884179775783729,-0.07863937525950354,-1.6210372792796082,0.028167345702647853,2.2878312372101677,0.8466366937888992,0.0005689396821894063,0.0005327351309488095,3.4793104568501174e-05,0.0005726550500806952,-0.00046387041860684056,-0.00031592694890470775,0.0013344272989788393,0.0,0.0,0.0,0.0,0.0,0.0,0.0,-0.00028054970921131267,0.0001459932103330397,-0.00014879604549662695,0.00018124563652177628,7.834494706392137e-06,6.088256835923289e-05,-2.9340202427619033e-06,-0.0005689396821894063,-0.0005327351309488095,-3.4793104568501174e-05,-0.0005726550500806952,0.00046387041860684056,0.00031592694890470775,-0.0013344272989788393,0.6291133761405945,47.04787826538086,1.3393218517303467,-21.022981643676758,-0.6777854561805725,-2.3660311698913574,0.36471885442733765,0
25,0.12034487724304199,-0.6291133761405945,-47.04787826538086,-1.3393218517303467,21.022981643676758,0.6777854561805725,2.3660311698913574,-0.36471885442733765,0.0,0.0,0.0,0.0,0.0,0.0,0.0,-0.6144396149843794,-0.26583077076405204,-0.4154413261592336,0.6329522776744263,0.0922773141246977,0.1468791373388909,-0.3357963958520302,0.06254428241754832,0.6882719843680398,-0.07849057921400691,-1.62121852491613,0.02815951120794146,2.2877703546418084,0.8466396278091419,0.06226373270833701,0.6884179775783729,-0.07863937525950354,-1.6210372792796082,0.028167345702647853,2.2878312372101677,0.8466366937888992,0.0005689396821894063,0.0005327351309488095,3.4793104568501174e-05,0.0005726550500806952,-0.00046387041860684056,-0.00031592694890470775,0.0013344272989788393,0.0,0.0,0.0,0.0,0.0,0.0,0.0,-0.00028054970921131267,0.0001459932103330397,-0.00014879604549662695,0.00018124563652177628,7.834494706392137e-06,6.088256835923289e-05,-2.9340202427619033e-06,-0.0005689396821894063,-0.0005327351309488095,-3.4793104568501174e-05,-0.0005726550500806952,0.00046387041860684056,0.00031592694890470775,-0.0013344272989788393,0.6291133761405945,47.04787826538086,1.3393218517303467,-21.022981643676758,-0.6777854561805725,-2.3660311698913574,0.36471885442733765,0
26,0.1249074935913086,-0.6291133761405945,-47.04787826538086,-1.2163360118865967,20.999177932739258,0.6658836007118225,2.3596224784851074,-0.31711143255233765,0.0,0.0,0.0,0.0,0.0,0.0,0.0,-0.556278612690509,-0.2734888893977511,-0.3824086409640892,0.6390753311450479,0.0913063381270494,0.1472583067757806,-0.3357703238387216,0.06254428241754832,0.6882719843680398,-0.07849920979926461,-1.6212168544802747,0.0281608453237051,2.2877710667186313,0.8466344558325055,0.06226373270833701,0.6884179775783729,-0.07863937525950354,-1.6210372792796082,0.028167345702647853,2.2878312372101677,0.8466366937888992,0.0010364566223159308,0.00024033040559456715,-0.0006971756619454256,0.0009535753453720137,-3.8351180577445066e-05,0.00011307145135112266,-0.0010908419726597335,0.0,0.0,0.0,0.0,0.0,0.0,0.0,-0.00028054970921131267,0.0001459932103330397,-0.00014016546023892795,0.00017957520066658184,6.500378942751739e-06,6.01704915363932e-05,2.2379563936469893e-06,-0.0010364566223159308,-0.00024033040559456715,0.0006971756619454256,-0.0009535753453720137,3.8351180577445066e-05,-0.00011307145135112266,0.0010908419726597335,0.6291133761405945,47.04787826538086,1.2163360118865967,-20.999177932739258,-0.6658836007118225,-2.3596224784851074,0.31711143255233765,0
27,0.1299421787261963,-0.6291133761405945,-47.04787826538086,-1.2163360118865967,20.999177932739258,0.6658836007118225,2.3596224784851074,-0.31711143255233765,0.0,0.0,0.0,0.0,0.0,0.0,0.0,-0.556278612690509,-0.2734888893977511,-0.3824086409640892,0.6390753311450479,0.0913063381270494,0.1472583067757806,-0.3357703238387216,0.06254428241754832,0.6882719843680398,-0.07849920979926461,-1.6212168544802747,0.0281608453237051,2.2877710667186313,0.8466344558325055,0.06226373270833701,0.6884179775783729,-0.07863937525950354,-1.6210372792796082,0.028167345702647853,2.2878312372101677,0.8466366937888992,0.0010364566223159308,0.00024033040559456715,-0.0006971756619454256,0.0009535753453720137,-3.8351180577445066e-05,0.00011307145135112266,-0.0010908419726597335,0.0,0.0,0.0,0.0,0.0,0.0,0.0,-0.00028054970921131267,0.0001459932103330397,-0.00014016546023892795,0.00017957520066658184,6.500378942751739e-06,6.01704915363932e-05,2.2379563936469893e-06,-0.0010364566223159308,-0.00024033040559456715,0.0006971756619454256,-0.0009535753453720137,3.8351180577445066e-05,-0.00011307145135112266,0.0010908419726597335,0.6291133761405945,47.04787826538086,1.2163360118865967,-20.999177932739258,-0.6658836007118225,-2.3596224784851074,0.31711143255233765,0
28,0.13494014739990234,-0.6291133761405945,-47.04787826538086,-1.3155181407928467,21.022981643676758,0.6777854561805725,2.3596224784851074,-0.30978721380233765,0.0,0.0,0.0,0.0,0.0,0.0,0.0,-0.6147890223159234,-0.2665480643508026,-0.4173202856897247,0.6378205566279699,0.09109572060966989,0.1455485597983191,-0.3365513983518917,0.06254428241754832,0.6882719843680398,-0.07849224964986767,-1.62121852491613,0.028159524356322716,2.2877711059644876,0.8466336420310868,0.06226373270833701,0.6884179775783729,-0.07863937525950354,-1.6210372792796082,0.028167345702647853,2.2878312372101677,0.8466366937888992,0.0001902982200585286,0.0005476603729676813,0.0011241363617142386,0.0006445420051798045,-0.0005199060792485745,-0.00010982095233732273,-0.0011379485447079532,0.0,0.0,0.0,0.0,0.0,0.0,0.0,-0.00028054970921131267,0.0001459932103330397,-0.00014712560963586752,0.00018124563652177628,7.821346325136841e-06,6.013124568005068e-05,3.0517578123445688e-06,-0.0001902982200585286,-0.0005476603729676813,-0.0011241363617142386,-0.0006445420051798045,0.0005199060792485745,0.00010982095233732273,0.0011379485447079532,0.6291133761405945,47.04787826538086,1.3155181407928467,-21.022981643676758,-0.6777854561805725,-2.3596224784851074,0.30978721380233765,0
29,0.13994050025939941,-0.6291133761405945,-47.04787826538086,-1.3155181407928467,21.022981643676758,0.6777854561805725,2.3596224784851074,-0.30978721380233765,0.0,0.0,0.0,0.0,0.0,0.0,0.0,-0.6147890223159234,-0.2665480643508026,-0.4173202856897247,0.6378205566279699,0.09109572060966989,0.1455485597983191,-0.3365513983518917,0.06254428241754832,0.6882719843680398,-0.07849224964986767,-1.62121852491613,0.028159524356322716,2.2877711059644876,0.8466336420310868,0.06226373270833701,0.6884179775783729,-0.07863937525950354,-1.6210372792796082,0.028167345702647853,2.2878312372101677,0.8466366937888992,0.0001902982200585286,0.0005476603729676813,0.0011241363617142386,0.0006445420051798045,-0.0005199060792485745,-0.00010982095233732273,-0.0011379485447079532,0.0,0.0,0.0,0.0,0.0,0.0,0.0,-0.00028054970921131267,0.0001459932103330397,-0.00014712560963586752,0.00018124563652177628,7.821346325136841e-06,6.013124568005068e-05,3.0517578123445688e-06,-0.0001902982200585286,-0.0005476603729676813,-0.0011241363617142386,-0.0006445420051798045,0.0005199060792485745,0.00010982095233732273,0.0011379485447079532,0.6291133761405945,47.04787826538086,1.3155181407928467,-21.022981643676758,-0.6777854561805725,-2.3596224784851074,0.30978721380233765,0
30,0.14493823051452637,-0.6053096652030945,-47.07168197631836,-1.3393218517303467,21.046785354614258,0.6658836007118225,2.3724398612976074,-0.30978721380233765,0.0,0.0,0.0,0.0,0.0,0.0,0.0,-0.6006078372039355,-0.26884526976187123,-0.4080613161816982,0.6404138955376274,0.09048101763128183,0.14548733414380882,-0.3363276972742986,0.06254261198169306,0.6882736548038951,-0.07849057921401241,-1.6212201953519851,0.02816084678471088,2.2877696425652068,0.8466336420310868,0.06226373270833701,0.6884179775783729,-0.07863937525950354,-1.6210372792796082,0.028167345702647853,2.2878312372101677,0.8466366937888992,8.514332468274709e-05,0.00063174423562528,0.00037801827423567766,-8.124381210038817e-05,-8.56034007807916e-05,-3.65223630508335e-05,-0.0011085978248204494,0.0,0.0,0.0,0.0,0.0,0.0,0.0,-0.00027887927335604884,0.00014432277447773423,-0.00014879604549113135,0.00018291607237697072,6.498917936973575e-06,6.159464496091616e-05,3.0517578123445688e-06,-8.514332468274709e-05,-0.00063174423562528,-0.00037801827423567766,8.124381210038817e-05,8.56034007807916e-05,3.65223630508335e-05,0.0011085978248204494,0.6053096652030945,47.07168197631836,1.3393218517303467,-21.046785354614258,-0.6658836007118225,-2.3724398612976074,0.30978721380233765,0
31,0.15070152282714844,-0.6053096652030945,-47.07168197631836,-1.3393218517303467,21.046785354614258,0.6658836007118225,2.3724398612976074,-0.30978721380233765,0.0,0.0,0.0,0.0,0.0,0.0,0.0,-0.6006078372039355,-0.26884526976187123,-0.4080613161816982,0.6404138955376274,0.09048101763128183,0.14548733414380882,-0.3363276972742986,0.06254261198169306,0.6882736548038951,-0.07849057921401241,-1.6212201953519851,0.02816084678471088,2.2877696425652068,0.8466336420310868,0.06226373270833701,0.6884179775783729,-0.07863937525950354,-1.6210372792796082,0.028167345702647853,2.2878312372101677,0.8466366937888992,8.514332468274709e-05,0.00063174423562528,0.00037801827423567766,-8.124381210038817e-05,-8.56034007807916e-05,-3.65223630508335e-05,-0.0011085978248204494,0.0,0.0,0.0,0.0,0.0,0.0,0.0,-0.00027887927335604884,0.00014432277447773423,-0.00014879604549113135,0.00018291607237697072,6.498917936973575e-06,6.159464496091616e-05,3.0517578123445688e-06,-8.514332468274709e-05,-0.00063174423562528,-0.00037801827423567766,8.124381210038817e-05,8.56034007807916e-05,3.65223630508335e-05,0.0011085978248204494,0.6053096652030945,47.07168197631836,1.3393218517303467,-21.046785354614258,-0.6658836007118225,-2.3724398612976074,0.30978721380233765,0
32,0.15494966506958008,-0.5815059542655945,-47.07168197631836,-1.2401397228240967,21.022981643676758,0.6777854561805725,2.3596224784851074,-0.33084434270858765,0.0,0.0,0.0,0.0,0.0,0.0,0.0,-0.5890275492790317,-0.26718975575685255,-0.40484403696861776,0.6364823411656965,0.0899904763491738,0.14686315663792118,-0.33428830083794087,0.0625409415458378,0.6882736548038951,-0.07849753936340935,-1.62121852491613,0.028159524356325464,2.287771066736576,0.8466359817120764,0.06226373270833701,0.6884179775783729,-0.07863937525950354,-1.6210372792796082,0.028167345702647853,2.2878312372101677,0.8466366937888992,-0.0007479612791528514,0.0003363645533871927,-0.00010372964232360507,3.907269142228389e-05,-0.00015978684512228097,-5.4281683697198564e-05,-0.0003643315282599495,0.0,0.0,0.0,0.0,0.0,0.0,0.0,-0.000277208837500785,0.00014432277447773423,-0.00014183589609419178,0.00018124563652177628,7.821346322389039e-06,6.017047359163641e-05,7.120768227286689e-07,0.0007479612791528514,-0.0003363645533871927,0.00010372964232360507,-3.907269142228389e-05,0.00015978684512228097,5.4281683697198564e-05,0.0003643315282599495,0.5815059542655945,47.07168197631836,1.2401397228240967,-21.022981643676758,-0.6777854561805725,-2.3596224784851074,0.33084434270858765,0
33,0.1599433422088623,-0.5815059542655945,-47.07168197631836,-1.2401397228240967,21.022981643676758,0.6777854561805725,2.3596224784851074,-0.33084434270858765,0.0,0.0,0.0,0.0,0.0,0.0,0.0,-0.5890275492790317,-0.26718975575685255,-0.40484403696861776,0.6364823411656965,0.0899904763491738,0.14686315663792118,-0.33428830083794087,0.0625409415458378,0.6882736548038951,-0.07849753936340935,-1.62121852491613,0.028159524356325464,2.287771066736576,0.8466359817120764,0.06226373270833701,0.6884179775783729,-0.07863937525950354,-1.6210372792796082,0.028167345702647853,2.2878312372101677,0.8466366937888992,-0.0007479612791528514,0.0003363645533871927,-0.00010372964232360507,3.907269142228389e-05,-0.00015978684512228097,-5.4281683697198564e-05,-0.0003643315282599495,0.0,0.0,0.0,0.0,0.0,0.0,0.0,-0.000277208837500785,0.00014432277447773423,-0.00014183589609419178,0.00018124563652177628,7.821346322389039e-06,6.017047359163641e-05,7.120768227286689e-07,0.0007479612791528514,-0.0003363645533871927,0.00010372964232360507,-3.907269142228389e-05,0.00015978684512228097,5.4281683697198564e-05,0.0003643315282599495,0.5815059542655945,47.07168197631836,1.2401397228240967,-21.022981643676758,-0.6777854561805725,-2.3596224784851074,0.33084434270858765,0
34,0.16648244857788086,-0.6291133761405945,-47.09548568725586,-1.2917144298553467,21.074556350708008,0.6539817452430725,2.3724398612976074,-0.34457725286483765,0.0,0.0,0.0,0.0,0.0,0.0,0.0,-0.6170635035293782,-0.27370664966174,-0.4175847541343381,0.635453033414723,0.09046707897513585,0.1456108784444909,-0.3346855862502898,0.06254428241754832,0.6882753252397503,-0.07849392008572294,-1.6212221441938164,0.0281621692130963,2.2877696425649856,0.8466375075909827,0.06226373270833701,0.6884179775783729,-0.07863937525950354,-1.6210372792796082,0.028167345702647853,2.2878312372101677,0.8466366937888992,0.0006033282633689458,0.0008559527312735519,0.000503655308571161,-0.0009333532954034414,0.0004951873527932792,-0.0005807303387169472,0.005152253036825918,0.0,0.0,0.0,0.0,0.0,0.0,0.0,-0.00028054970921131267,0.0001426523386225398,-0.00014545517378060369,0.00018486491420821594,5.176489551554642e-06,6.159464518207258e-05,-8.138020834991266e-07,-0.0006033282633689458,-0.0008559527312735519,-0.000503655308571161,0.0009333532954034414,-0.0004951873527932792,0.0005807303387169472,-0.005152253036825918,0.6291133761405945,47.09548568725586,1.2917144298553467,-21.074556350708008,-0.6539817452430725,-2.3724398612976074,0.34457725286483765,0
35,0.17084169387817383,-0.6291133761405945,-47.09548568725586,-1.2917144298553467,21.074556350708008,0.6539817452430725,2.3724398612976074,-0.34457725286483765,0.0,0.0,0.0,0.0,0.0,0.0,0.0,-0.6170635035293782,-0.27370664966174,-0.4175847541343381,0.635453033414723,0.09046707897513585,0.1456108784444909,-0.3346855862502898,0.06254428241754832,0.6882753252397503,-0.07849392008572294,-1.6212221441938164,0.0281621692130963,2.2877696425649856,0.8466375075909827,0.06226373270833701,0.6884179775783729,-0.07863937525950354,-1.6210372792796082,0.028167345702647853,2.2878312372101677,0.8466366937888992,0.0006033282633689458,0.0008559527312735519,0.000503655308571161,-0.0009333532954034414,0.0004951873527932792,-0.0005807303387169472,0.005152253036825918,0.0,0.0,0.0,0.0,0.0,0.0,0.0,-0.00028054970921131267,0.0001426523386225398,-0.00014545517378060369,0.00018486491420821594,5.176489551554642e-06,6.159464518207258e-05,-8.138020834991266e-07,-0.0006033282633689458,-0.0008559527312735519,-0.000503655308571161,0.0009333532954034414,-0.0004951873527932792,0.0005807303387169472,-0.005152253036825918,0.6291133761405945,47.09548568725586,1.2917144298553467,-21.074556350708008,-0.6539817452430725,-2.3724398612976074,0.34457725286483765,0
36,0.17493748664855957,-0.6053096652030945,-47.09548568725586,-1.3393218517303467,21.074556350708008,0.6777854561805725,2.3724398612976074,-0.33084434270858765,0.0,0.0,0.0,0.0,0.0,0.0,0.0,-0.6026975464938515,-0.2741020317763566,-0.4117831931104089,0.6357737637203801,0.09014205407548756,0.1457808349641746,-0.3358431928251109,0.06254261198169306,0.6882753252397503,-0.07849057921401241,-1.6212221441938164,0.028159524356325464,2.2877696425649856,0.8466359817120764,0.06226373270833701,0.6884179775783729,-0.07863937525950354,-1.6210372792796082,0.028167345702647853,2.2878312372101677,0.8466366937888992,0.0006923651611670228,0.000872634074883487,0.0005857342428764299,-0.0006021763136250697,-0.00022858025076533532,0.0003533945171192298,2.394030442386618e-05,0.0,0.0,0.0,0.0,0.0,0.0,0.0,-0.00027887927335604884,0.0001426523386225398,-0.00014879604549113135,0.00018486491420821594,7.821346322389039e-06,6.159464518207258e-05,7.120768227286689e-07,-0.0006923651611670228,-0.000872634074883487,-0.0005857342428764299,0.0006021763136250697,0.00022858025076533532,-0.0003533945171192298,-2.394030442386618e-05,0.6053096652030945,47.09548568725586,1.3393218517303467,-21.074556350708008,-0.6777854561805725,-2.3724398612976074,0.33084434270858765,0
37,0.17993879318237305,-0.6053096652030945,-47.09548568725586,-1.3393218517303467,21.074556350708008,0.6777854561805725,2.3724398612976074,-0.33084434270858765,0.0,0.0,0.0,0.0,0.0,0.0,0.0,-0.6026975464938515,-0.2741020317763566,-0.4117831931104089,0.6357737637203801,0.09014205407548756,0.1457808349641746,-0.3358431928251109,0.06254261198169306,0.6882753252397503,-0.07849057921401241,-1.6212221441938164,0.028159524356325464,2.2877696425649856,0.8466359817120764,0.06226373270833701,0.6884179775783729,-0.07863937525950354,-1.6210372792796082,0.028167345702647853,2.2878312372101677,0.8466366937888992,0.0006923651611670228,0.000872634074883487,0.0005857342428764299,-0.0006021763136250697,-0.00022858025076533532,0.0003533945171192298,2.394030442386618e-05,0.0,0.0,0.0,0.0,0.0,0.0,0.0,-0.00027887927335604884,0.0001426523386225398,-0.00014879604549113135,0.00018486491420821594,7.821346322389039e-06,6.159464518207258e-05,7.120768227286689e-07,-0.0006923651611670228,-0.000872634074883487,-0.0005857342428764299,0.0006021763136250697,0.00022858025076533532,-0.0003533945171192298,-2.394030442386618e-05,0.6053096652030945,47.09548568725586,1.3393218517303467,-21.074556350708008,-0.6777854561805725,-2.3724398612976074,0.33084434270858765,0
38,0.18494105339050293,-0.6053096652030945,-47.04787826538086,-1.2401397228240967,21.022981643676758,0.6713767647743225,2.3394808769226074,-0.35098594427108765,0.0,0.0,0.0,0.0,0.0,0.0,0.0,-0.5813412502739168,-0.2593450019902294,-0.4023545223607199,0.6282890607502758,0.09108092331133882,0.14655295013669156,-0.33674063591529363,0.06254261198169306,0.6882719843680398,-0.07849753936340935,-1.62121852491613,0.02816023643314838,2.2877733046743605,0.8466381017687301,0.06226373270833701,0.6884179775783729,-0.07863937525950354,-1.6210372792796082,0.028167345702647853,2.2878312372101677,0.8466366937888992,0.0002572774909196974,5.192793823866064e-05,0.00021405445590275685,0.00015751663150434083,3.861244875384611e-06,0.00045292870946026805,0.0007881289943570441,0.0,0.0,0.0,0.0,0.0,0.0,0.0,-0.00027887927335604884,0.0001459932103330397,-0.00014183589609419178,0.00018124563652177628,7.10926949947302e-06,5.793253580721469e-05,-1.4079798309474256e-06,-0.0002572774909196974,-5.192793823866064e-05,-0.00021405445590275685,-0.00015751663150434083,-3.861244875384611e-06,-0.00045292870946026805,-0.0007881289943570441,0.6053096652030945,47.04787826538086,1.2401397228240967,-21.022981643676758,-0.6713767647743225,-2.3394808769226074,0.35098594427108765,0
39,0.1899425983428955,-0.6053096652030945,-47.04787826538086,-1.2401397228240967,21.022981643676758,0.6713767647743225,2.3394808769226074,-0.35098594427108765,0.0,0.0,0.0,0.0,0.0,0.0,0.0,-0.5813412502739168,-0.2593450019902294,-0.4023545223607199,0.6282890607502758,0.09108092331133882,0.14655295013669156,-0.33674063591529363,0.06254261198169306,0.6882719843680398,-0.07849753936340935,-1.62121852491613,0.02816023643314838,2.2877733046743605,0.8466381017687301,0.06226373270833701,0.6884179775783729,-0.07863937525950354,-1.6210372792796082,0.028167345702647853,2.2878312372101677,0.8466366937888992,0.0002572774909196974,5.192793823866064e-05,0.00021405445590275685,0.00015751663150434083,3.861244875384611e-06,0.00045292870946026805,0.0007881289943570441,0.0,0.0,0.0,0.0,0.0,0.0,0.0,-0.00027887927335604884,0.0001459932103330397,-0.00014183589609419178,0.00018124563652177628,7.10926949947302e-06,5.793253580721469e-05,-1.4079798309474256e-06,-0.0002572774909196974,-5.192793823866064e-05,-0.00021405445590275685,-0.00015751663150434083,-3.861244875384611e-06,-0.00045292870946026805,-0.0007881289943570441,0.6053096652030945,47.04787826538086,1.2401397228240967,-21.022981643676758,-0.6713767647743225,-2.3394808769226074,0.35098594427108765,0
40,0.1949477195739746,-0.6053096652030945,-47.04787826538086,-1.2401397228240967,21.022981643676758,0.6777854561805725,2.3596224784851074,-0.32352012395858765,0.0,0.0,0.0,0.0,0.0,0.0,0.0,-0.6027681577895619,-0.26842419311591087,-0.40997062290725667,0.6312450025967121,0.09210967880665434,0.14445062171996004,-0.3369900880263649,0.06254261198169306,0.6882719843680398,-0.07849540849735863,-1.62121852491613,0.028159524356325464,2.2877711059644876,0.8466351679093275,0.06226373270833701,0.6884179775783729,-0.07863937525950354,-1.6210372792796082,0.028167345702647853,2.2878312372101677,0.8466366937888992,0.00043535255789138463,-8.819889706825989e-06,5.694039992598718e-05,-0.0002948454581850853,-0.00030461776890816823,-0.00018984979296210892,-0.00042226301344625434,0.0,0.0,0.0,0.0,0.0,0.0,0.0,-0.00027887927335604884,0.0001459932103330397,-0.000143966762144912,0.00018124563652177628,7.821346322389039e-06,6.013124568005068e-05,1.5258795716954765e-06,-0.00043535255789138463,8.819889706825989e-06,-5.694039992598718e-05,0.0002948454581850853,0.00030461776890816823,0.00018984979296210892,0.00042226301344625434,0.6053096652030945,47.04787826538086,1.2401397228240967,-21.022981643676758,-0.6777854561805725,-2.3596224784851074,0.32352012395858765,0
41,0.19994616508483887,-0.6053096652030945,-47.04787826538086,-1.2401397228240967,21.022981643676758,0.6777854561805725,2.3596224784851074,-0.32352012395858765,0.0,0.0,0.0,0.0,0.0,0.0,0.0,-0.6027681577895619,-0.26842419311591087,-0.40997062290725667,0.6312450025967121,0.09210967880665434,0.14445062171996004,-0.3369900880263649,0.06254261198169306,0.6882719843680398,-0.07849540849735863,-1.62121852491613,0.028159524356325464,2.2877711059644876,0.8466351679093275,0.06226373270833701,0.6884179775783729,-0.07863937525950354,-1.6210372792796082,0.028167345702647853,2.2878312372101677,0.8466366937888992,0.00043535255789138463,-8.819889706825989e-06,5.694039992598718e-05,-0.0002948454581850853,-0.00030461776890816823,-0.00018984979296210892,-0.00042226301344625434,0.0,0.0,0.0,0.0,0.0,0.0,0.0,-0.00027887927335604884,0.0001459932103330397,-0.000143966762144912,0.00018124563652177628,7.821346322389039e-06,6.013124568005068e-05,1.5258795716954765e-06,-0.00043535255789138463,8.819889706825989e-06,-5.694039992598718e-05,0.0002948454581850853,0.00030461776890816823,0.00018984979296210892,0.00042226301344625434,0.6053096652030945,47.04787826538086,1.2401397228240967,-21.022981643676758,-0.6777854561805725,-2.3596224784851074,0.32352012395858765,0
42,0.20489859580993652,-0.5537349581718445,-47.02010726928711,-1.2917144298553467,21.046785354614258,0.6658836007118225,2.3724398612976074,-0.30978721380233765,0.0,0.0,0.0,0.0,0.0,0.0,0.0,-0.6135835756909772,-0.280694574047421,-0.41952094413811813,0.6386366224642623,0.09244001100139138,0.14567890653094137,-0.33703714921524397,0.06253899270400665,0.6882700355262087,-0.07849392007369414,-1.6212201953519851,0.02816084678471088,2.2877696425652068,0.8466336419772517,0.06226373270833701,0.6884179775783729,-0.07863937525950354,-1.6210372792796082,0.028167345702647853,2.2878312372101677,0.8466366937888992,-0.0008988767327769032,-0.00048670067555907977,-0.0004079885693609688,0.0003688506606252901,-6.240102876304075e-05,0.00013798796901110059,-0.0010952331646872468,0.0,0.0,0.0,0.0,0.0,0.0,0.0,-0.00027525999566963694,0.0001479420521641739,-0.0001454551858093983,0.00018291607237697072,6.498917936973575e-06,6.159464496091616e-05,3.051811647503122e-06,0.0008988767327769032,0.00048670067555907977,0.0004079885693609688,-0.0003688506606252901,6.240102876304075e-05,-0.00013798796901110059,0.0010952331646872468,0.5537349581718445,47.02010726928711,1.2917144298553467,-21.046785354614258,-0.6658836007118225,-2.3724398612976074,0.30978721380233765,0
43,0.2099473476409912,-0.5537349581718445,-47.02010726928711,-1.2917144298553467,21.046785354614258,0.6658836007118225,2.3724398612976074,-0.30978721380233765,0.0,0.0,0.0,0.0,0.0,0.0,0.0,-0.6135835756909772,-0.280694574047421,-0.41952094413811813,0.6386366224642623,0.09244001100139138,0.14567890653094137,-0.33703714921524397,0.06253899270400665,0.6882700355262087,-0.07849392007369414,-1.6212201953519851,0.02816084678471088,2.2877696425652068,0.8466336419772517,0.06226373270833701,0.6884179775783729,-0.07863937525950354,-1.6210372792796082,0.028167345702647853,2.2878312372101677,0.8466366937888992,-0.0008988767327769032,-0.00048670067555907977,-0.0004079885693609688,0.0003688506606252901,-6.240102876304075e-05,0.00013798796901110059,-0.0010952331646872468,0.0,0.0,0.0,0.0,0.0,0.0,0.0,-0.00027525999566963694,0.0001479420521641739,-0.0001454551858093983,0.00018291607237697072,6.498917936973575e-06,6.159464496091616e-05,3.051811647503122e-06,0.0008988767327769032,0.00048670067555907977,0.0004079885693609688,-0.0003688506606252901,6.240102876304075e-05,-0.00013798796901110059,0.0010952331646872468,0.5537349581718445,47.02010726928711,1.2917144298553467,-21.046785354614258,-0.6658836007118225,-2.3724398612976074,0.30978721380233765,0
44,0.21493816375732422,-0.5537349581718445,-47.02010726928711,-1.2917144298553467,21.046785354614258,0.6658836007118225,2.3724398612976074,-0.30978721380233765,0.0,0.0,0.0,0.0,0.0,0.0,0.0,-0.6135835756909772,-0.280694574047421,-0.41952094413811813,0.6386366224642623,0.09244001100139138,0.14567890653094137,-0.33703714921524397,0.06253899270400665,0.6882700355262087,-0.07849392007369414,-1.6212201953519851,0.02816084678471088,2.2877696425652068,0.8466336419772517,0.06226373270833701,0.6884179775783729,-0.07863937525950354,-1.6210372792796082,0.028167345702647853,2.2878312372101677,0.8466366937888992,-0.0008988767327769032,-0.00048670067555907977,-0.0004079885693609688,0.0003688506606252901,-6.240102876304075e-05,0.00013798796901110059,-0.0010952331646872468,0.0,0.0,0.0,0.0,0.0,0.0,0.0,-0.00027525999566963694,0.0001479420521641739,-0.0001454551858093983,0.00018291607237697072,6.498917936973575e-06,6.159464496091616e-05,3.051811647503122e-06,0.0008988767327769032,0.00048670067555907977,0.0004079885693609688,-0.0003688506606252901,6.240102876304075e-05,-0.00013798796901110059,0.0010952331646872468,0.5537349581718445,47.02010726928711,1.2917144298553467,-21.046785354614258,-0.6658836007118225,-2.3724398612976074,0.30978721380233765,0
45,0.21994996070861816,-0.5537349581718445,-47.02010726928711,-1.2917144298553467,21.046785354614258,0.6658836007118225,2.3724398612976074,-0.30978721380233765,0.0,0.0,0.0,0.0,0.0,0.0,0.0,-0.6135835756909772,-0.280694574047421,-0.41952094413811813,0.6386366224642623,0.09244001100139138,0.14567890653094137,-0.33703714921524397,0.06253899270400665,0.6882700355262087,-0.07849392007369414,-1.6212201953519851,0.02816084678471088,2.2877696425652068,0.8466336419772517,0.06226373270833701,0.6884179775783729,-0.07863937525950354,-1.6210372792796082,0.028167345702647853,2.2878312372101677,0.8466366937888992,-0.0008988767327769032,-0.00048670067555907977,-0.0004079885693609688,0.0003688506606252901,-6.240102876304075e-05,0.00013798796901110059,-0.0010952331646872468,0.0,0.0,0.0,0.0,0.0,0.0,0.0,-0.00027525999566963694,0.0001479420521641739,-0.0001454551858093983,0.00018291607237697072,6.498917936973575e-06,6.159464496091616e-05,3.051811647503122e-06,0.0008988767327769032,0.00048670067555907977,0.0004079885693609688,-0.0003688506606252901,6.240102876304075e-05,-0.00013798796901110059,0.0010952331646872468,0.5537349581718445,47.02010726928711,1.2917144298553467,-21.046785354614258,-0.6658836007118225,-2.3724398612976074,0.30978721380233765,0
46,0.22494006156921387,-0.6568843722343445,-46.99630355834961,-1.2679107189178467,21.074556350708008,0.6713767647743225,2.3522982597351074,-0.36471885442733765,0.0,0.0,0.0,0.0,0.0,0.0,0.0,-0.5925175021438507,-0.27646188951888706,-0.4095281317258062,0.638055259119235,0.09175448673388974,0.1465574386084117,-0.3364948349411973,0.06254623125937946,0.6882683650903535,-0.07849559052157813,-1.6212221177028632,0.02816023643314838,2.287771880520715,0.8466397455467115,0.06226373270833701,0.6884179775783729,-0.07863937525950354,-1.6210372792796082,0.028167345702647853,2.2878312372101677,0.8466366937888992,0.0013146370750352077,-0.0016452543429509219,-0.00014929230030960732,-0.00037551523829228313,-0.0001308274459037459,-6.849613146518535e-05,0.0013468347801607492,0.0,0.0,0.0,0.0,0.0,0.0,0.0,-0.00028249855104244687,0.00014961248801936833,-0.00014378473792540925,0.0001848384232550071,7.10926949947302e-06,5.9356689452894074e-05,-3.0517578123445688e-06,-0.0013146370750352077,0.0016452543429509219,0.00014929230030960732,0.00037551523829228313,0.0001308274459037459,6.849613146518535e-05,-0.0013468347801607492,0.6568843722343445,46.99630355834961,1.2679107189178467,-21.074556350708008,-0.6713767647743225,-2.3522982597351074,0.36471885442733765,0
47,0.2299516201019287,-0.6568843722343445,-46.99630355834961,-1.2679107189178467,21.074556350708008,0.6713767647743225,2.3522982597351074,-0.36471885442733765,0.0,0.0,0.0,0.0,0.0,0.0,0.0,-0.5925175021438507,-0.27646188951888706,-0.4095281317258062,0.638055259119235,0.09175448673388974,0.1465574386084117,-0.3364948349411973,0.06254623125937946,0.6882683650903535,-0.07849559052157813,-1.6212221177028632,0.02816023643314838,2.287771880520715,0.8466397455467115,0.06226373270833701,0.6884179775783729,-0.07863937525950354,-1.6210372792796082,0.028167345702647853,2.2878312372101677,0.8466366937888992,0.0013146370750352077,-0.0016452543429509219,-0.00014929230030960732,-0.00037551523829228313,-0.0001308274459037459,-6.849613146518535e-05,0.0013468347801607492,0.0,0.0,0.0,0.0,0.0,0.0,0.0,-0.00028249855104244687,0.00014961248801936833,-0.00014378473792540925,0.0001848384232550071,7.10926949947302e-06,5.9356689452894074e-05,-3.0517578123445688e-06,-0.0013146370750352077,0.0016452543429509219,0.00014929230030960732,0.00037551523829228313,0.0001308274459037459,6.849613146518535e-05,-0.0013468347801607492,0.6568843722343445,46.99630355834961,1.2679107189178467,-21.074556350708008,-0.6713767647743225,-2.3522982597351074,0.36471885442733765,0
48,0.23494172096252441,-0.6053096652030945,-47.02010726928711,-1.2917144298553467,21.046785354614258,0.6594749093055725,2.3660311698913574,-0.31711143255233765,0.0,0.0,0.0,0.0,0.0,0.0,0.0,-0.5972938250139247,-0.26770255790141856,-0.4078512497970341,0.6353990085492446,0.09139344818063379,0.14340043977286696,-0.3362505432958051,0.06254261198169306,0.6882700355262087,-0.07849392008572294,-1.6212201953518357,0.0281615588615338,2.2877703546418084,0.8466344558331701,0.06226373270833701,0.6884179775783729,-0.07863937525950354,-1.6210372792796082,0.028167345702647853,2.2878312372101677,0.8466366937888992,-1.4907213468088027e-05,-0.0006685593247107089,0.00011415511182404925,-0.00018908093764181654,0.0003483938687758705,-0.0002748517854516133,-0.0009726596046471751,0.0,0.0,0.0,0.0,0.0,0.0,0.0,-0.00027887927335604884,0.0001479420521641739,-0.00014545517378060369,0.0001829160722275347,5.7868411140540865e-06,6.088256835923289e-05,2.2379557290674867e-06,1.4907213468088027e-05,0.0006685593247107089,-0.00011415511182404925,0.00018908093764181654,-0.0003483938687758705,0.0002748517854516133,0.0009726596046471751,0.6053096652030945,47.02010726928711,1.2917144298553467,-21.046785354614258,-0.6594749093055725,-2.3660311698913574,0.31711143255233765,0
49,0.2408435344696045,-0.6053096652030945,-47.02010726928711,-1.2917144298553467,21.046785354614258,0.6594749093055725,2.3660311698913574,-0.31711143255233765,0.0,0.0,0.0,0.0,0.0,0.0,0.0,-0.5972938250139247,-0.26770255790141856,-0.4078512497970341,0.6353990085492446,0.09139344818063379,0.14340043977286696,-0.3362505432958051,0.06254261198169306,0.6882700355262087,-0.07849392008572294,-1.6212201953518357,0.0281615588615338,2.2877703546418084,0.8466344558331701,0.06226373270833701,0.6884179775783729,-0.07863937525950354,-1.6210372792796082,0.028167345702647853,2.2878312372101677,0.8466366937888992,-1.4907213468088027e-05,-0.0006685593247107089,0.00011415511182404925,-0.00018908093764181654,0.0003483938687758705,-0.0002748517854516133,-0.0009726596046471751,0.0,0.0,0.0,0.0,0.0,0.0,0.0,-0.00027887927335604884,0.0001479420521641739,-0.00014545517378060369,0.0001829160722275347,5.7868411140540865e-06,6.088256835923289e-05,2.2379557290674867e-06,1.4907213468088027e-05,0.0006685593247107089,-0.00011415511182404925,0.00018908093764181654,-0.0003483938687758705,0.0002748517854516133,0.0009726596046471751,0.6053096652030945,47.02010726928711,1.2917144298553467,-21.046785354614258,-0.6594749093055725,-2.3660311698913574,0.31711143255233765,0
50,0.24493956565856934,-0.6053096652030945,-47.02010726928711,-1.3393218517303467,21.022981643676758,0.6713767647743225,2.3788485527038574,-0.31711143255233765,0.0,0.0,0.0,0.0,0.0,0.0,0.0,-0.6049356770455363,-0.2606591581110277,-0.41544550518978024,0.6320216248926975,0.09109771795340488,0.14321289655424735,-0.3362590595332643,0.06254261198169306,0.6882700355262087,-0.07849057921401241,-1.62121852491613,0.02816023643314838,2.2877689304881628,0.8466344558331701,0.06226373270833701,0.6884179775783729,-0.07863937525950354,-1.6210372792796082,0.028167345702647853,2.2878312372101677,0.8466366937888992,-6.209691518736308e-05,-0.0004323687883123609,0.0004548675023311883,0.0003081158299539608,7.516202519584061e-05,-0.00017211728773361428,-0.0009280901654896063,0.0,0.0,0.0,0.0,0.0,0.0,0.0,-0.00027887927335604884,0.0001479420521641739,-0.00014879604549113135,0.00018124563652177628,7.10926949947302e-06,6.230672200491227e-05,2.2379557290674867e-06,6.209691518736308e-05,0.0004323687883123609,-0.0004548675023311883,-0.0003081158299539608,-7.516202519584061e-05,0.00017211728773361428,0.0009280901654896063,0.6053096652030945,47.02010726928711,1.3393218517303467,-21.022981643676758,-0.6713767647743225,-2.3788485527038574,0.31711143255233765,0
51,0.2499396800994873,-0.6053096652030945,-47.02010726928711,-1.3393218517303467,21.022981643676758,0.6713767647743225,2.3788485527038574,-0.31711143255233765,0.0,0.0,0.0,0.0,0.0,0.0,0.0,-0.6049356770455363,-0.2606591581110277,-0.41544550518978024,0.6320216248926975,0.09109771795340488,0.14321289655424735,-0.3362590595332643,0.06254261198169306,0.6882700355262087,-0.07849057921401241,-1.62121852491613,0.02816023643314838,2.2877689304881628,0.8466344558331701,0.06226373270833701,0.6884179775783729,-0.07863937525950354,-1.6210372792796082,0.028167345702647853,2.2878312372101677,0.8466366937888992,-6.209691518736308e-05,-0.0004323687883123609,0.0004548675023311883,0.0003081158299539608,7.516202519584061e-05,-0.00017211728773361428,-0.0009280901654896063,0.0,0.0,0.0,0.0,0.0,0.0,0.0,-0.00027887927335604884,0.0001479420521641739,-0.00014879604549113135,0.00018124563652177628,7.10926949947302e-06,6.230672200491227e-05,2.2379557290674867e-06,6.209691518736308e-05,0.0004323687883123609,-0.0004548675023311883,-0.0003081158299539608,-7.516202519584061e-05,0.00017211728773361428,0.0009280901654896063,0.6053096652030945,47.02010726928711,1.3393218517303467,-21.022981643676758,-0.6713767647743225,-2.3788485527038574,0.31711143255233765,0
52,0.2551417350769043,-0.6053096652030945,-47.04787826538086,-1.2679107189178467,21.022981643676758,0.6658836007118225,2.3522982597351074,-0.35831016302108765,0.0,0.0,0.0,0.0,0.0,0.0,0.0,-0.5782536393785567,-0.26035982456039647,-0.39952513056133154,0.6311893851496165,0.09137286230550073,0.14582919896726246,-0.3365225848283523,0.06254261198169306,0.6882719843680398,-0.0784955905215782,-1.62121852491613,0.02816084678471088,2.2877718936026668,0.8466390334698889,0.06226373270833701,0.6884179775783729,-0.07863937525950354,-1.6210372792796082,0.028167345702647853,2.2878312372101677,0.8466366937888992,-0.00022153223540337166,0.0001908239671901557,0.0006426046892359649,0.0004475152077283995,0.00026281119376814075,0.00023568319998970187,0.00037108905330731896,0.0,0.0,0.0,0.0,0.0,0.0,0.0,-0.00027887927335604884,0.0001459932103330397,-0.00014378473792533986,0.00018124563652177628,6.498917936973575e-06,5.934360750092793e-05,-2.339680989726922e-06,0.00022153223540337166,-0.0001908239671901557,-0.0006426046892359649,-0.0004475152077283995,-0.00026281119376814075,-0.00023568319998970187,-0.00037108905330731896,0.6053096652030945,47.04787826538086,1.2679107189178467,-21.022981643676758,-0.6658836007118225,-2.3522982597351074,0.35831016302108765,0
53,0.2599606513977051,-0.6053096652030945,-47.04787826538086,-1.2679107189178467,21.022981643676758,0.6658836007118225,2.3522982597351074,-0.35831016302108765,0.0,0.0,0.0,0.0,0.0,0.0,0.0,-0.5782536393785567,-0.26035982456039647,-0.39952513056133154,0.6311893851496165,0.09137286230550073,0.14582919896726246,-0.3365225848283523,0.06254261198169306,0.6882719843680398,-0.0784955905215782,-1.62121852491613,0.02816084678471088,2.2877718936026668,0.8466390334698889,0.06226373270833701,0.6884179775783729,-0.07863937525950354,-1.6210372792796082,0.028167345702647853,2.2878312372101677,0.8466366937888992,-0.00022153223540337166,0.0001908239671901557,0.0006426046892359649,0.0004475152077283995,0.00026281119376814075,0.00023568319998970187,0.00037108905330731896,0.0,0.0,0.0,0.0,0.0,0.0,0.0,-0.00027887927335604884,0.0001459932103330397,-0.00014378473792533986,0.00018124563652177628,6.498917936973575e-06,5.934360750092793e-05,-2.339680989726922e-06,0.00022153223540337166,-0.0001908239671901557,-0.0006426046892359649,-0.0004475152077283995,-0.00026281119376814075,-0.00023568319998970187,-0.00037108905330731896,0.6053096652030945,47.04787826538086,1.2679107189178467,-21.022981643676758,-0.6658836007118225,-2.3522982597351074,0.35831016302108765,0
54,0.26497745513916016,-0.5021602511405945,-47.07168197631836,-1.2679107189178467,20.999177932739258,0.6594749093055725,2.3522982597351074,-0.35098594427108765,0.0,0.0,0.0,0.0,0.0,0.0,0.0,-0.6001251799032522,-0.2728862786730414,-0.4056003612318986,0.6360420731877364,0.09184941644180182,0.14589867337748616,-0.3375643024450059,0.06253537342632025,0.6882736548038951,-0.0784955905215782,-1.6212168544802747,0.02816120385516573,2.2877718805207885,0.8466382196678056,0.06226373270833701,0.6884179775783729,-0.07863937525950354,-1.6210372792796082,0.028167345702647853,2.2878312372101677,0.8466366937888992,-0.0023881140658662055,9.636126775846074e-05,0.0006062533927649838,0.0008542894060653642,0.00045133651812562253,0.00034032969198565644,0.0005222817839915491,0.0,0.0,0.0,0.0,0.0,0.0,0.0,-0.0002716407179832389,0.00014432277447773423,-0.00014378473792533986,0.00017957520066658184,6.141847482123847e-06,5.9356689379175265e-05,-1.5258789064498401e-06,0.0023881140658662055,-9.636126775846074e-05,-0.0006062533927649838,-0.0008542894060653642,-0.00045133651812562253,-0.00034032969198565644,-0.0005222817839915491,0.5021602511405945,47.07168197631836,1.2679107189178467,-20.999177932739258,-0.6594749093055725,-2.3522982597351074,0.35098594427108765,0
55,0.2699604034423828,-0.5021602511405945,-47.07168197631836,-1.2679107189178467,20.999177932739258,0.6594749093055725,2.3522982597351074,-0.35098594427108765,0.0,0.0,0.0,0.0,0.0,0.0,0.0,-0.6001251799032522,-0.2728862786730414,-0.4056003612318986,0.6360420731877364,0.09184941644180182,0.14589867337748616,-0.3375643024450059,0.06253537342632025,0.6882736548038951,-0.0784955905215782,-1.6212168544802747,0.02816120385516573,2.2877718805207885,0.8466382196678056,0.06226373270833701,0.6884179775783729,-0.07863937525950354,-1.6210372792796082,0.028167345702647853,2.2878312372101677,0.8466366937888992,-0.0023881140658662055,9.636126775846074e-05,0.0006062533927649838,0.0008542894060653642,0.00045133651812562253,0.00034032969198565644,0.0005222817839915491,0.0,0.0,0.0,0.0,0.0,0.0,0.0,-0.0002716407179832389,0.00014432277447773423,-0.00014378473792533986,0.00017957520066658184,6.141847482123847e-06,5.9356689379175265e-05,-1.5258789064498401e-06,0.0023881140658662055,-9.636126775846074e-05,-0.0006062533927649838,-0.0008542894060653642,-0.00045133651812562253,-0.00034032969198565644,-0.0005222817839915491,0.5021602511405945,47.07168197631836,1.2679107189178467,-20.999177932739258,-0.6594749093055725,-2.3522982597351074,0.35098594427108765,0
56,0.2749624252319336,-0.5815059542655945,-47.02010726928711,-1.3155181407928467,21.022981643676758,0.6658836007118225,2.3596224784851074,-0.37845176458358765,0.0,0.0,0.0,0.0,0.0,0.0,0.0,-0.6249621701089214,-0.26830821198948496,-0.42219836748495493,0.632445841010663,0.09188953118553728,0.1451217764794417,-0.3373318478801666,0.0625409415458378,0.6882700355262087,-0.07849224964986767,-1.62121852491613,0.02816084678270686,2.2877710667186313,0.8466412714256181,0.06226373270833701,0.6884179775783729,-0.07863937525950354,-1.6210372792796082,0.028167345702647853,2.2878312372101677,0.8466366937888992,-0.0001876743576692484,-0.0011052348868237313,0.0001945113962211444,0.000645075594731397,0.00027343891740396885,0.0003470143360858682,0.0016304357090549664,0.0,0.0,0.0,0.0,0.0,0.0,0.0,-0.000277208837500785,0.0001479420521641739,-0.00014712560963586752,0.00018124563652177628,6.498919940992054e-06,6.01704915363932e-05,-4.577636718905431e-06,0.0001876743576692484,0.0011052348868237313,-0.0001945113962211444,-0.000645075594731397,-0.00027343891740396885,-0.0003470143360858682,-0.0016304357090549664,0.5815059542655945,47.02010726928711,1.3155181407928467,-21.022981643676758,-0.6658836007118225,-2.3596224784851074,0.37845176458358765,0
57,0.2799415588378906,-0.5815059542655945,-47.02010726928711,-1.3155181407928467,21.022981643676758,0.6658836007118225,2.3596224784851074,-0.37845176458358765,0.0,0.0,0.0,0.0,0.0,0.0,0.0,-0.6249621701089214,-0.26830821198948496,-0.42219836748495493,0.632445841010663,0.09188953118553728,0.1451217764794417,-0.3373318478801666,0.0625409415458378,0.6882700355262087,-0.07849224964986767,-1.62121852491613,0.02816084678270686,2.2877710667186313,0.8466412714256181,0.06226373270833701,0.6884179775783729,-0.07863937525950354,-1.6210372792796082,0.028167345702647853,2.2878312372101677,0.8466366937888992,-0.0001876743576692484,-0.0011052348868237313,0.0001945113962211444,0.000645075594731397,0.00027343891740396885,0.0003470143360858682,0.0016304357090549664,0.0,0.0,0.0,0.0,0.0,0.0,0.0,-0.000277208837500785,0.0001479420521641739,-0.00014712560963586752,0.00018124563652177628,6.498919940992054e-06,6.01704915363932e-05,-4.577636718905431e-06,0.0001876743576692484,0.0011052348868237313,-0.0001945113962211444,-0.000645075594731397,-0.00027343891740396885,-0.0003470143360858682,-0.0016304357090549664,0.5815059542655945,47.02010726928711,1.3155181407928467,-21.022981643676758,-0.6658836007118225,-2.3596224784851074,0.37845176458358765,0
58,0.2850203514099121,-0.5815059542655945,-47.04787826538086,-1.2401397228240967,21.074556350708008,0.6594749093055725,2.3660311698913574,-0.28964561223983765,0.0,0.0,0.0,0.0,0.0,0.0,0.0,-0.5965654476634858,-0.26338440171941513,-0.40948650947944804,0.6296400174668267,0.09165431750740564,0.1451317101871913,-0.33675330093252137,0.0625409415458378,0.6882719843680398,-0.07849753936340935,-1.6212221441938164,0.02816155886153379,2.2877703546418084,0.8466314040753576,0.06226373270833701,0.6884179775783729,-0.07863937525950354,-1.6210372792796082,0.028167345702647853,2.2878312372101677,0.8466366937888992,-0.0004600928217118895,3.3339677826468084e-05,-0.0012212259693435148,-0.0007243828409563322,0.00044646520214602605,7.610448640989609e-05,-0.0022328731088631006,0.0,0.0,0.0,0.0,0.0,0.0,0.0,-0.000277208837500785,0.0001459932103330397,-0.00014183589609419178,0.00018486491420821594,5.786841114064495e-06,6.088256835923289e-05,5.289713541523078e-06,0.0004600928217118895,-3.3339677826468084e-05,0.0012212259693435148,0.0007243828409563322,-0.00044646520214602605,-7.610448640989609e-05,0.0022328731088631006,0.5815059542655945,47.04787826538086,1.2401397228240967,-21.074556350708008,-0.6594749093055725,-2.3660311698913574,0.28964561223983765,0
59,0.28995275497436523,-0.5815059542655945,-47.04787826538086,-1.2401397228240967,21.074556350708008,0.6594749093055725,2.3660311698913574,-0.28964561223983765,0.0,0.0,0.0,0.0,0.0,0.0,0.0,-0.5965654476634858,-0.26338440171941513,-0.40948650947944804,0.6296400174668267,0.09165431750740564,0.1451317101871913,-0.33675330093252137,0.0625409415458378,0.6882719843680398,-0.07849753936340935,-1.6212221441938164,0.02816155886153379,2.2877703546418084,0.8466314040753576,0.06226373270833701,0.6884179775783729,-0.07863937525950354,-1.6210372792796082,0.028167345702647853,2.2878312372101677,0.8466366937888992,-0.0004600928217118895,3.3339677826468084e-05,-0.0012212259693435148,-0.0007243828409563322,0.00044646520214602605,7.610448640989609e-05,-0.0022328731088631006,0.0,0.0,0.0,0.0,0.0,0.0,0.0,-0.000277208837500785,0.0001459932103330397,-0.00014183589609419178,0.00018486491420821594,5.786841114064495e-06,6.088256835923289e-05,5.289713541523078e-06,0.0004600928217118895,-3.3339677826468084e-05,0.0012212259693435148,0.0007243828409563322,-0.00044646520214602605,-7.610448640989609e-05,0.0022328731088631006,0.5815059542655945,47.04787826538086,1.2401397228240967,-21.074556350708008,-0.6594749093055725,-2.3660311698913574,0.28964561223983765,0
60,0.2949385643005371,-0.6291133761405945,-47.04787826538086,-1.2163360118865967,21.074556350708008,0.6777854561805725,2.3596224784851074,-0.33725303411483765,0.0,0.0,0.0,0.0,0.0,0.0,0.0,-0.5934479481522857,-0.2699676485867727,-0.40600273294625855,0.6321053854091996,0.0920693328737666,0.1457474456464402,-0.3370847631659318,0.06254428241754832,0.6882719843680398,-0.07849920979926461,-1.6212221441938164,0.028159537509819605,2.2877710667186313,0.8466366937888993,0.06226373270833701,0.6884179775783729,-0.07863937525950354,-1.6210372792796082,0.028167345702647853,2.2878312372101677,0.8466366937888992,0.0006793212708796402,-0.00044284312163710995,-0.0006235103497750291,-0.0012338012634200667,-0.0001623069194643946,2.1151739128501365e-05,-0.0006930962121111135,0.0,0.0,0.0,0.0,0.0,0.0,0.0,-0.00028054970921131267,0.0001459932103330397,-0.00014016546023892795,0.00018486491420821594,7.808192828247934e-06,6.01704915363932e-05,-1.1102230246251565e-16,-0.0006793212708796402,0.00044284312163710995,0.0006235103497750291,0.0012338012634200667,0.0001623069194643946,-2.1151739128501365e-05,0.0006930962121111135,0.6291133761405945,47.04787826538086,1.2163360118865967,-21.074556350708008,-0.6777854561805725,-2.3596224784851074,0.33725303411483765,0
61,0.2999448776245117,-0.6291133761405945,-47.04787826538086,-1.2163360118865967,21.074556350708008,0.6777854561805725,2.3596224784851074,-0.33725303411483765,0.0,0.0,0.0,0.0,0.0,0.0,0.0,-0.5934479481522857,-0.2699676485867727,-0.40600273294625855,0.6321053854091996,0.0920693328737666,0.1457474456464402,-0.3370847631659318,0.06254428241754832,0.6882719843680398,-0.07849920979926461,-1.6212221441938164,0.028159537509819605,2.2877710667186313,0.8466366937888993,0.06226373270833701,0.6884179775783729,-0.07863937525950354,-1.6210372792796082,0.028167345702647853,2.2878312372101677,0.8466366937888992,0.0006793212708796402,-0.00044284312163710995,-0.0006235103497750291,-0.0012338012634200667,-0.0001623069194643946,2.1151739128501365e-05,-0.0006930962121111135,0.0,0.0,0.0,0.0,0.0,0.0,0.0,-0.00028054970921131267,0.0001459932103330397,-0.00014016546023892795,0.00018486491420821594,7.808192828247934e-06,6.01704915363932e-05,-1.1102230246251565e-16,-0.0006793212708796402,0.00044284312163710995,0.0006235103497750291,0.0012338012634200667,0.0001623069194643946,-2.1151739128501365e-05,0.0006930962121111135,0.6291133761405945,47.04787826538086,1.2163360118865967,-21.074556350708008,-0.6777854561805725,-2.3596224784851074,0.33725303411483765,0
62,0.30493974685668945,-0.6053096652030945,-47.09548568725586,-1.2917144298553467,21.046785354614258,0.6777854561805725,2.3596224784851074,-0.33084434270858765,0.0,0.0,0.0,0.0,0.0,0.0,0.0,-0.6740513029822678,-0.2555056153964433,-0.4596596065128054,0.6206910545014499,0.09284732157275367,0.14356412745866276,-0.33817432003996273,0.06254261198169306,0.6882753252397503,-0.07849391997746373,-1.6212201953519851,0.028159524356399717,2.287771184456201,0.8466359817120764,0.06226373270833701,0.6884179775783729,-0.07863937525950354,-1.6210372792796082,0.028167345702647853,2.2878312372101677,0.8466366937888992,0.0038272574635708177,0.0010360938316154933,-0.00010841066237065956,-0.0007527603416384445,-0.00031812704739314054,-2.790481071590165e-05,0.0018242048264953635,0.0,0.0,0.0,0.0,0.0,0.0,0.0,-0.00027887927335604884,0.0001426523386225398,-0.00014545528203981084,0.00018291607237697072,7.821346248135935e-06,6.005275396647747e-05,7.120768227286689e-07,-0.0038272574635708177,-0.0010360938316154933,0.00010841066237065956,0.0007527603416384445,0.00031812704739314054,2.790481071590165e-05,-0.0018242048264953635,0.6053096652030945,47.09548568725586,1.2917144298553467,-21.046785354614258,-0.6777854561805725,-2.3596224784851074,0.33084434270858765,0
63,0.30995821952819824,-0.6053096652030945,-47.09548568725586,-1.2917144298553467,21.046785354614258,0.6777854561805725,2.3596224784851074,-0.33084434270858765,0.0,0.0,0.0,0.0,0.0,0.0,0.0,-0.6740513029822678,-0.2555056153964433,-0.4596596065128054,0.6206910545014499,0.09284732157275367,0.14356412745866276,-0.33817432003996273,0.06254261198169306,0.6882753252397503,-0.07849391997746373,-1.6212201953519851,0.028159524356399717,2.287771184456201,0.8466359817120764,0.06226373270833701,0.6884179775783729,-0.07863937525950354,-1.6210372792796082,0.028167345702647853,2.2878312372101677,0.8466366937888992,0.0038272574635708177,0.0010360938316154933,-0.00010841066237065956,-0.0007527603416384445,-0.00031812704739314054,-2.790481071590165e-05,0.0018242048264953635,0.0,0.0,0.0,0.0,0.0,0.0,0.0,-0.00027887927335604884,0.0001426523386225398,-0.00014545528203981084,0.00018291607237697072,7.821346248135935e-06,6.005275396647747e-05,7.120768227286689e-07,-0.0038272574635708177,-0.0010360938316154933,0.00010841066237065956,0.0007527603416384445,0.00031812704739314054,2.790481071590165e-05,-0.0018242048264953635,0.6053096652030945,47.09548568725586,1.2917144298553467,-21.046785354614258,-0.6777854561805725,-2.3596224784851074,0.33084434270858765,0
64,0.31495213508605957,-0.6053096652030945,-47.09548568725586,-1.2917144298553467,21.046785354614258,0.6777854561805725,2.3596224784851074,-0.33084434270858765,0.0,0.0,0.0,0.0,0.0,0.0,0.0,-0.6740513029822678,-0.2555056153964433,-0.4596596065128054,0.6206910545014499,0.09284732157275367,0.14356412745866276,-0.33817432003996273,0.06254261198169306,0.6882753252397503,-0.07849391997746373,-1.6212201953519851,0.028159524356399717,2.287771184456201,0.8466359817120764,0.06226373270833701,0.6884179775783729,-0.07863937525950354,-1.6210372792796082,0.028167345702647853,2.2878312372101677,0.8466366937888992,0.0038272574635708177,0.0010360938316154933,-0.00010841066237065956,-0.0007527603416384445,-0.00031812704739314054,-2.790481071590165e-05,0.0018242048264953635,0.0,0.0,0.0,0.0,0.0,0.0,0.0,-0.00027887927335604884,0.0001426523386225398,-0.00014545528203981084,0.00018291607237697072,7.821346248135935e-06,6.005275396647747e-05,7.120768227286689e-07,-0.0038272574635708177,-0.0010360938316154933,0.00010841066237065956,0.0007527603416384445,0.00031812704739314054,2.790481071590165e-05,-0.0018242048264953635,0.6053096652030945,47.09548568725586,1.2917144298553467,-21.046785354614258,-0.6777854561805725,-2.3596224784851074,0.33084434270858765,0
65,0.3199498653411865,-0.6053096652030945,-47.04787826538086,-1.2163360118865967,20.999177932739258,0.6777854561805725,2.3596224784851074,-0.35831016302108765,0.0,0.0,0.0,0.0,0.0,0.0,0.0,-0.642212485427718,-0.273122743747087,-0.4381927612694748,0.629261745891502,0.09330243016564956,0.14477832522131304,-0.3390982346936095,0.06254261198169306,0.6882719843680398,-0.078499209799264,-1.6212168544802747,0.028159524356325467,2.2877710667192956,0.8466390334698889,0.06226373270833701,0.6884179775783729,-0.07863937525950354,-1.6210372792796082,0.028167345702647853,2.2878312372101677,0.8466366937888992,0.0001805547063068598,-8.827783618130346e-05,-0.0011768819660377336,0.0009574036361635027,-0.00029339161234554205,0.0003436707887934507,0.0009454362888867507,0.0,0.0,0.0,0.0,0.0,0.0,0.0,-0.00027887927335604884,0.0001459932103330397,-0.00014016546023953858,0.00017957520066658184,7.82134632238557e-06,6.017049087203574e-05,-2.339680989726922e-06,-0.0001805547063068598,8.827783618130346e-05,0.0011768819660377336,-0.0009574036361635027,0.00029339161234554205,-0.0003436707887934507,-0.0009454362888867507,0.6053096652030945,47.04787826538086,1.2163360118865967,-20.999177932739258,-0.6777854561805725,-2.3596224784851074,0.35831016302108765,0
66,0.3199498653411865,-0.6053096652030945,-47.04787826538086,-1.2163360118865967,20.999177932739258,0.6777854561805725,2.3596224784851074,-0.35831016302108765,0.0,0.0,0.0,0.0,0.0,0.0,0.0,-0.642212485427718,-0.273122743747087,-0.4381927612694748,0.629261745891502,0.09330243016564956,0.14477832522131304,-0.3390982346936095,0.06254261198169306,0.6882719843680398,-0.078499209799264,-1.6212168544802747,0.028159524356325467,2.2877710667192956,0.8466390334698889,0.06226373270833701,0.6884179775783729,-0.07863937525950354,-1.6210372792796082,0.028167345702647853,2.2878312372101677,0.8466366937888992,0.0001805547063068598,-8.827783618130346e-05,-0.0011768819660377336,0.0009574036361635027,-0.00029339161234554205,0.0003436707887934507,0.0009454362888867507,0.0,0.0,0.0,0.0,0.0,0.0,0.0,-0.00027887927335604884,0.0001459932103330397,-0.00014016546023953858,0.00017957520066658184,7.82134632238557e-06,6.017049087203574e-05,-2.339680989726922e-06,-0.0001805547063068598,8.827783618130346e-05,0.0011768819660377336,-0.0009574036361635027,0.00029339161234554205,-0.0003436707887934507,-0.0009454362888867507,0.6053096652030945,47.04787826538086,1.2163360118865967,-20.999177932739258,-0.6777854561805725,-2.3596224784851074,0.35831016302108765,0
67,0.3299386501312256,-0.5815059542655945,-47.04787826538086,-1.2679107189178467,21.022981643676758,0.6658836007118225,2.3522982597351074,-0.33084434270858765,0.0,0.0,0.0,0.0,0.0,0.0,0.0,-0.5712015173277724,-0.2662025144530992,-0.382399167575409,0.6241071513526815,0.09283369340082384,0.14449457498334542,-0.3395399981721829,0.0625409415458378,0.6882719843680398,-0.0784955905215782,-1.62121852491613,0.028160846784710883,2.287771880520715,0.8466359817120764,0.06226373270833701,0.6884179775783729,-0.07863937525950354,-1.6210372792796082,0.028167345702647853,2.2878312372101677,0.8466366937888992,-0.0003456273446821133,-0.00011050001555866043,0.0006096856151498129,-0.00023870518163421182,0.0002802662339689961,7.620738423571793e-05,-0.0005740798208634654,0.0,0.0,0.0,0.0,0.0,0.0,0.0,-0.000277208837500785,0.0001459932103330397,-0.00014378473792533986,0.00018124563652177628,6.4989179369701056e-06,5.9356689452894074e-05,7.120768227286689e-07,0.0003456273446821133,0.00011050001555866043,-0.0006096856151498129,0.00023870518163421182,-0.0002802662339689961,-7.620738423571793e-05,0.0005740798208634654,0.5815059542655945,47.04787826538086,1.2679107189178467,-21.022981643676758,-0.6658836007118225,-2.3522982597351074,0.33084434270858765,0
68,0.33493971824645996,-0.5815059542655945,-47.04787826538086,-1.2679107189178467,21.022981643676758,0.6658836007118225,2.3522982597351074,-0.33084434270858765,0.0,0.0,0.0,0.0,0.0,0.0,0.0,-0.5712015173277724,-0.2662025144530992,-0.382399167575409,0.6241071513526815,0.09283369340082384,0.14449457498334542,-0.3395399981721829,0.0625409415458378,0.6882719843680398,-0.0784955905215782,-1.62121852491613,0.028160846784710883,2.287771880520715,0.8466359817120764,0.06226373270833701,0.6884179775783729,-0.07863937525950354,-1.6210372792796082,0.028167345702647853,2.2878312372101677,0.8466366937888992,-0.0003456273446821133,-0.00011050001555866043,0.0006096856151498129,-0.00023870518163421182,0.0002802662339689961,7.620738423571793e-05,-0.0005740798208634654,0.0,0.0,0.0,0.0,0.0,0.0,0.0,-0.000277208837500785,0.0001459932103330397,-0.00014378473792533986,0.00018124563652177628,6.4989179369701056e-06,5.9356689452894074e-05,7.120768227286689e-07,0.0003456273446821133,0.00011050001555866043,-0.0006096856151498129,0.00023870518163421182,-0.0002802662339689961,-7.620738423571793e-05,0.0005740798208634654,0.5815059542655945,47.04787826538086,1.2679107189178467,-21.022981643676758,-0.6658836007118225,-2.3522982597351074,0.33084434270858765,0
69,0.3399527072906494,-0.6053096652030945,-47.04787826538086,-1.3155181407928467,21.022981643676758,0.6713767647743225,2.3660311698913574,-0.32352012395858765,0.0,0.0,0.0,0.0,0.0,0.0,0.0,-0.5882193978289411,-0.2577608922645146,-0.3946412766432693,0.6205307301889724,0.09280845565131521,0.1421785480865397,-0.3384868360610043,0.06254261198169306,0.6882719843680398,-0.07849224964986767,-1.62121852491613,0.028160234972216827,2.2877703546418084,0.8466341082718637,0.06226373270833701,0.6884179775783729,-0.07863937525950354,-1.6210372792796082,0.028167345702647853,2.2878312372101677,0.8466366937888992,-7.311476257841566e-05,0.0007079197732528118,0.00028157271461246714,0.000255127861891264,-4.995293330752e-05,-0.000336267828351465,-0.00034180163812384996,0.0,0.0,0.0,0.0,0.0,0.0,0.0,-0.00027887927335604884,0.0001459932103330397,-0.00014712560963586752,0.00018124563652177628,7.110730431025836e-06,6.088256835923289e-05,2.585517035469387e-06,7.311476257841566e-05,-0.0007079197732528118,-0.00028157271461246714,-0.000255127861891264,4.995293330752e-05,0.000336267828351465,0.00034180163812384996,0.6053096652030945,47.04787826538086,1.3155181407928467,-21.022981643676758,-0.6713767647743225,-2.3660311698913574,0.32352012395858765,0
70,0.34496021270751953,-0.6053096652030945,-47.04787826538086,-1.3155181407928467,21.022981643676758,0.6713767647743225,2.3660311698913574,-0.32352012395858765,0.0,0.0,0.0,0.0,0.0,0.0,0.0,-0.5882193978289411,-0.2577608922645146,-0.3946412766432693,0.6205307301889724,0.09280845565131521,0.1421785480865397,-0.3384868360610043,0.06254261198169306,0.6882719843680398,-0.07849224964986767,-1.62121852491613,0.028160234972216827,2.2877703546418084,0.8466341082718637,0.06226373270833701,0.6884179775783729,-0.07863937525950354,-1.6210372792796082,0.028167345702647853,2.2878312372101677,0.8466366937888992,-7.311476257841566e-05,0.0007079197732528118,0.00028157271461246714,0.000255127861891264,-4.995293330752e-05,-0.000336267828351465,-0.00034180163812384996,0.0,0.0,0.0,0.0,0.0,0.0,0.0,-0.00027887927335604884,0.0001459932103330397,-0.00014712560963586752,0.00018124563652177628,7.110730431025836e-06,6.088256835923289e-05,2.585517035469387e-06,7.311476257841566e-05,-0.0007079197732528118,-0.00028157271461246714,-0.000255127861891264,4.995293330752e-05,0.000336267828351465,0.00034180163812384996,0.6053096652030945,47.04787826538086,1.3155181407928467,-21.022981643676758,-0.6713767647743225,-2.3660311698913574,0.32352012395858765,0
71,0.3499431610107422,-0.6053096652030945,-47.04787826538086,-1.3155181407928467,21.022981643676758,0.6713767647743225,2.3660311698913574,-0.32352012395858765,0.0,0.0,0.0,0.0,0.0,0.0,0.0,-0.5882193978289411,-0.2577608922645146,-0.3946412766432693,0.6205307301889724,0.09280845565131521,0.1421785480865397,-0.3384868360610043,0.06254261198169306,0.6882719843680398,-0.07849224964986767,-1.62121852491613,0.028160234972216827,2.2877703546418084,0.8466341082718637,0.06226373270833701,0.6884179775783729,-0.07863937525950354,-1.6210372792796082,0.028167345702647853,2.2878312372101677,0.8466366937888992,-7.311476257841566e-05,0.0007079197732528118,0.00028157271461246714,0.000255127861891264,-4.995293330752e-05,-0.000336267828351465,-0.00034180163812384996,0.0,0.0,0.0,0.0,0.0,0.0,0.0,-0.00027887927335604884,0.0001459932103330397,-0.00014712560963586752,0.00018124563652177628,7.110730431025836e-06,6.088256835923289e-05,2.585517035469387e-06,7.311476257841566e-05,-0.0007079197732528118,-0.00028157271461246714,-0.000255127861891264,4.995293330752e-05,0.000336267828351465,0.00034180163812384996,0.6053096652030945,47.04787826538086,1.3155181407928467,-21.022981643676758,-0.6713767647743225,-2.3660311698913574,0.32352012395858765,0
72,0.35494470596313477,-0.6053096652030945,-47.04787826538086,-1.3155181407928467,21.022981643676758,0.6713767647743225,2.3660311698913574,-0.32352012395858765,0.0,0.0,0.0,0.0,0.0,0.0,0.0,-0.5882193978289411,-0.2577608922645146,-0.3946412766432693,0.6205307301889724,0.09280845565131521,0.1421785480865397,-0.3384868360610043,0.06254261198169306,0.6882719843680398,-0.07849224964986767,-1.62121852491613,0.028160234972216827,2.2877703546418084,0.8466341082718637,0.06226373270833701,0.6884179775783729,-0.07863937525950354,-1.6210372792796082,0.028167345702647853,2.2878312372101677,0.8466366937888992,-7.311476257841566e-05,0.0007079197732528118,0.00028157271461246714,0.000255127861891264,-4.995293330752e-05,-0.000336267828351465,-0.00034180163812384996,0.0,0.0,0.0,0.0,0.0,0.0,0.0,-0.00027887927335604884,0.0001459932103330397,-0.00014712560963586752,0.00018124563652177628,7.110730431025836e-06,6.088256835923289e-05,2.585517035469387e-06,7.311476257841566e-05,-0.0007079197732528118,-0.00028157271461246714,-0.000255127861891264,4.995293330752e-05,0.000336267828351465,0.00034180163812384996,0.6053096652030945,47.04787826538086,1.3155181407928467,-21.022981643676758,-0.6713767647743225,-2.3660311698913574,0.32352012395858765,0
73,0.35997653007507324,-0.6053096652030945,-47.04787826538086,-1.2401397228240967,21.046785354614258,0.6658836007118225,2.3724398612976074,-0.33725303411483765,0.0,0.0,0.0,0.0,0.0,0.0,0.0,-0.5731785162901734,-0.26623738135874586,-0.39012611254853585,0.6264057995724426,0.09253580545632399,0.14350787221212263,-0.3370306497241084,0.06254261198169306,0.6882719843680398,-0.07849753936340935,-1.6212201953519851,0.02816084678470813,2.2877696425649856,0.8466366937869054,0.06226373270833701,0.6884179775783729,-0.07863937525950354,-1.6210372792796082,0.028167345702647853,2.2878312372101677,0.8466366937888992,-0.0002179537135955349,0.00024963773441141697,-0.000955001532790576,-0.00036754427029664566,0.00017781111556885255,4.8507963763889734e-05,0.000521652109759477,0.0,0.0,0.0,0.0,0.0,0.0,0.0,-0.00027887927335604884,0.0001459932103330397,-0.00014183589609419178,0.00018291607237697072,6.498917939721377e-06,6.159464518207258e-05,1.993738507621856e-12,0.0002179537135955349,-0.00024963773441141697,0.000955001532790576,0.00036754427029664566,-0.00017781111556885255,-4.8507963763889734e-05,-0.000521652109759477,0.6053096652030945,47.04787826538086,1.2401397228240967,-21.046785354614258,-0.6658836007118225,-2.3724398612976074,0.33725303411483765,0
74,0.36495018005371094,-0.6053096652030945,-47.04787826538086,-1.2401397228240967,21.046785354614258,0.6658836007118225,2.3724398612976074,-0.33725303411483765,0.0,0.0,0.0,0.0,0.0,0.0,0.0,-0.5731785162901734,-0.26623738135874586,-0.39012611254853585,0.6264057995724426,0.09253580545632399,0.14350787221212263,-0.3370306497241084,0.06254261198169306,0.6882719843680398,-0.07849753936340935,-1.6212201953519851,0.02816084678470813,2.2877696425649856,0.8466366937869054,0.06226373270833701,0.6884179775783729,-0.07863937525950354,-1.6210372792796082,0.028167345702647853,2.2878312372101677,0.8466366937888992,-0.0002179537135955349,0.00024963773441141697,-0.000955001532790576,-0.00036754427029664566,0.00017781111556885255,4.8507963763889734e-05,0.000521652109759477,0.0,0.0,0.0,0.0,0.0,0.0,0.0,-0.00027887927335604884,0.0001459932103330397,-0.00014183589609419178,0.00018291607237697072,6.498917939721377e-06,6.159464518207258e-05,1.993738507621856e-12,0.0002179537135955349,-0.00024963773441141697,0.000955001532790576,0.00036754427029664566,-0.00017781111556885255,-4.8507963763889734e-05,-0.000521652109759477,0.6053096652030945,47.04787826538086,1.2401397228240967,-21.046785354614258,-0.6658836007118225,-2.3724398612976074,0.33725303411483765,0
75,0.36993956565856934,-0.5815059542655945,-46.99630355834961,-1.2401397228240967,20.999177932739258,0.6777854561805725,2.3458895683288574,-0.30978721380233765,0.0,0.0,0.0,0.0,0.0,0.0,0.0,-0.5878727521200421,-0.2540678095834292,-0.39712996453584515,0.6208037859608071,0.09232992596558938,0.1439440457938705,-0.3361898028003294,0.0625409415458378,0.6882683650903535,-0.07849753936340935,-1.6212168544802747,0.028159524356325464,2.287772596958188,0.8466336420310868,0.06226373270833701,0.6884179775783729,-0.07863937525950354,-1.6210372792796082,0.028167345702647853,2.2878312372101677,0.8466366937888992,-0.0009967262055178765,-0.0009082940528720494,-0.0003219822354343108,0.0008516055503611531,-0.0004181361965812785,0.00016542168085595878,-0.0009202553483750742,0.0,0.0,0.0,0.0,0.0,0.0,0.0,-0.000277208837500785,0.00014961248801936833,-0.00014183589609419178,0.00017957520066658184,7.821346322389039e-06,5.864025197954703e-05,3.0517578123445688e-06,0.0009967262055178765,0.0009082940528720494,0.0003219822354343108,-0.0008516055503611531,0.0004181361965812785,-0.00016542168085595878,0.0009202553483750742,0.5815059542655945,46.99630355834961,1.2401397228240967,-20.999177932739258,-0.6777854561805725,-2.3458895683288574,0.30978721380233765,0
76,0.3749520778656006,-0.5815059542655945,-46.99630355834961,-1.2401397228240967,20.999177932739258,0.6777854561805725,2.3458895683288574,-0.30978721380233765,0.0,0.0,0.0,0.0,0.0,0.0,0.0,-0.5878727521200421,-0.2540678095834292,-0.39712996453584515,0.6208037859608071,0.09232992596558938,0.1439440457938705,-0.3361898028003294,0.0625409415458378,0.6882683650903535,-0.07849753936340935,-1.6212168544802747,0.028159524356325464,2.287772596958188,0.8466336420310868,0.06226373270833701,0.6884179775783729,-0.07863937525950354,-1.6210372792796082,0.028167345702647853,2.2878312372101677,0.8466366937888992,-0.0009967262055178765,-0.0009082940528720494,-0.0003219822354343108,0.0008516055503611531,-0.0004181361965812785,0.00016542168085595878,-0.0009202553483750742,0.0,0.0,0.0,0.0,0.0,0.0,0.0,-0.000277208837500785,0.00014961248801936833,-0.00014183589609419178,0.00017957520066658184,7.821346322389039e-06,5.864025197954703e-05,3.0517578123445688e-06,0.0009967262055178765,0.0009082940528720494,0.0003219822354343108,-0.0008516055503611531,0.0004181361965812785,-0.00016542168085595878,0.0009202553483750742,0.5815059542655945,46.99630355834961,1.2401397228240967,-20.999177932739258,-0.6777854561805725,-2.3458895683288574,0.30978721380233765,0
77,0.37993741035461426,-0.6291133761405945,-47.07168197631836,-1.2401397228240967,21.046785354614258,0.6658836007118225,2.3852572441101074,-0.32352012395858765,0.0,0.0,0.0,0.0,0.0,0.0,0.0,-0.6029707329311653,-0.2685699151846444,-0.4062713634106186,0.6281188897524159,0.09226639390368317,0.1426646334329851,-0.33636327947900185,0.06254428241754832,0.6882736548038951,-0.07849753936340935,-1.6212201953519851,0.02816084678471088,2.287768218411364,0.846635167909993,0.06226373270833701,0.6884179775783729,-0.07863937525950354,-1.6210372792796082,0.028167345702647853,2.2878312372101677,0.8466366937888992,0.0007150603771512549,0.0005614237467255292,-0.001349088081796527,-8.768082251418052e-05,-0.00011606649307686862,-0.0009539180802566908,-0.0006350067464980677,0.0,0.0,0.0,0.0,0.0,0.0,0.0,-0.00028054970921131267,0.00014432277447773423,-0.00014183589609419178,0.00018291607237697072,6.498917936973575e-06,6.301879880377115e-05,1.5258789061167732e-06,-0.0007150603771512549,-0.0005614237467255292,0.001349088081796527,8.768082251418052e-05,0.00011606649307686862,0.0009539180802566908,0.0006350067464980677,0.6291133761405945,47.07168197631836,1.2401397228240967,-21.046785354614258,-0.6658836007118225,-2.3852572441101074,0.32352012395858765,0
78,0.38494300842285156,-0.6291133761405945,-47.07168197631836,-1.2401397228240967,21.046785354614258,0.6658836007118225,2.3852572441101074,-0.32352012395858765,0.0,0.0,0.0,0.0,0.0,0.0,0.0,-0.6029707329311653,-0.2685699151846444,-0.4062713634106186,0.6281188897524159,0.09226639390368317,0.1426646334329851,-0.33636327947900185,0.06254428241754832,0.6882736548038951,-0.07849753936340935,-1.6212201953519851,0.02816084678471088,2.287768218411364,0.846635167909993,0.06226373270833701,0.6884179775783729,-0.07863937525950354,-1.6210372792796082,0.028167345702647853,2.2878312372101677,0.8466366937888992,0.0007150603771512549,0.0005614237467255292,-0.001349088081796527,-8.768082251418052e-05,-0.00011606649307686862,-0.0009539180802566908,-0.0006350067464980677,0.0,0.0,0.0,0.0,0.0,0.0,0.0,-0.00028054970921131267,0.00014432277447773423,-0.00014183589609419178,0.00018291607237697072,6.498917936973575e-06,6.301879880377115e-05,1.5258789061167732e-06,-0.0007150603771512549,-0.0005614237467255292,0.001349088081796527,8.768082251418052e-05,0.00011606649307686862,0.0009539180802566908,0.0006350067464980677,0.6291133761405945,47.07168197631836,1.2401397228240967,-21.046785354614258,-0.6658836007118225,-2.3852572441101074,0.32352012395858765,0
79,0.38994312286376953,-0.6053096652030945,-47.07168197631836,-1.2401397228240967,21.046785354614258,0.6658836007118225,2.3724398612976074,-0.35831016302108765,0.0,0.0,0.0,0.0,0.0,0.0,0.0,-0.5835375309013923,-0.2607968488798891,-0.3957428699434834,0.6240980390254224,0.09142559793634239,0.14329752963693254,-0.3359677125846851,0.06254261198169306,0.6882736548038951,-0.07849753936340935,-1.6212201953519851,0.02816084678471088,2.2877696425649856,0.8466390334698889,0.06226373270833701,0.6884179775783729,-0.07863937525950354,-1.6210372792796082,0.028167345702647853,2.2878312372101677,0.8466366937888992,0.00027793622428462625,0.00019581933047281393,-0.0006441009139897566,-0.00023795901530147235,0.00011223978944623811,3.3341025245448466e-06,0.0009962029720445038,0.0,0.0,0.0,0.0,0.0,0.0,0.0,-0.00027887927335604884,0.00014432277447773423,-0.00014183589609419178,0.00018291607237697072,6.498917936973575e-06,6.159464518207258e-05,-2.339680989726922e-06,-0.00027793622428462625,-0.00019581933047281393,0.0006441009139897566,0.00023795901530147235,-0.00011223978944623811,-3.3341025245448466e-06,-0.0009962029720445038,0.6053096652030945,47.07168197631836,1.2401397228240967,-21.046785354614258,-0.6658836007118225,-2.3724398612976074,0.35831016302108765,0
