rezayati/contactInterpretation/dataset/franka_main/labeled_data/link7/a5_4.csv
index,time,tau_J0,tau_J1,tau_J2,tau_J3,tau_J4,tau_J5,tau_J6,tau_J_d0,tau_J_d1,tau_J_d2,tau_J_d3,tau_J_d4,tau_J_d5,tau_J_d6,tau_ext0,tau_ext1,tau_ext2,tau_ext3,tau_ext4,tau_ext5,tau_ext6,q0,q1,q2,q3,q4,q5,q6,q_d0,q_d1,q_d2,q_d3,q_d4,q_d5,q_d6,dq0,dq1,dq2,dq3,dq4,dq5,dq6,dq_d0,dq_d1,dq_d2,dq_d3,dq_d4,dq_d5,dq_d6,e0,e1,e2,e3,e4,e5,e6,de0,de1,de2,de3,de4,de5,de6,etau_J0,etau_J1,etau_J2,etau_J3,etau_J4,etau_J5,etau_J6,label
1,0.0,-0.24825400114059448,-19.693445205688477,-0.2721221148967743,20.106538772583008,0.4214377999305725,2.4887118339538574,-0.20724813640117645,0.0,0.0,0.0,0.0,0.0,0.0,0.0,-0.2257836006501079,0.01615255878742495,-0.05933048913108726,0.28529644122497816,-0.1623022155620108,0.1098574797778052,-0.2476703102182595,1.2133230237731962,-0.22018237125873627,-0.0076572001130042365,-2.6039180996432703,-0.10873895835876464,2.468181413703494,0.8264741919470938,1.2134413937687574,-0.2202432315892585,-0.0075118285948192216,-2.6038483821997875,-0.10888392708698907,2.4681821257803174,0.826474908251239,0.0009229050362491383,-0.00037699863615814013,0.00072172230635855,-0.0010529719680853922,0.0001591370954206597,-0.00022405678878587094,-0.0016131659509875849,0.0,0.0,0.0,0.0,0.0,0.0,0.0,0.00011836999556114058,-6.086033052221662e-05,0.0001453715181850149,6.971744348271969e-05,-0.0001449687282244344,7.120768232837804e-07,7.163041452207253e-07,-0.0009229050362491383,0.00037699863615814013,-0.00072172230635855,0.0010529719680853922,-0.0001591370954206597,0.00022405678878587094,0.0016131659509875849,0.24825400114059448,19.693445205688477,0.2721221148967743,-20.106538772583008,-0.4214377999305725,-2.4887118339538574,0.20724813640117645,0
2,0.004921674728393555,-0.24825400114059448,-19.693445205688477,-0.2721221148967743,20.106538772583008,0.4214377999305725,2.4887118339538574,-0.20724813640117645,0.0,0.0,0.0,0.0,0.0,0.0,0.0,-0.2257836006501079,0.01615255878742495,-0.05933048913108726,0.28529644122497816,-0.1623022155620108,0.1098574797778052,-0.2476703102182595,1.2133230237731962,-0.22018237125873627,-0.0076572001130042365,-2.6039180996432703,-0.10873895835876464,2.468181413703494,0.8264741919470938,1.2134413937687574,-0.2202432315892585,-0.0075118285948192216,-2.6038483821997875,-0.10888392708698907,2.4681821257803174,0.826474908251239,0.0009229050362491383,-0.00037699863615814013,0.00072172230635855,-0.0010529719680853922,0.0001591370954206597,-0.00022405678878587094,-0.0016131659509875849,0.0,0.0,0.0,0.0,0.0,0.0,0.0,0.00011836999556114058,-6.086033052221662e-05,0.0001453715181850149,6.971744348271969e-05,-0.0001449687282244344,7.120768232837804e-07,7.163041452207253e-07,-0.0009229050362491383,0.00037699863615814013,-0.00072172230635855,0.0010529719680853922,-0.0001591370954206597,0.00022405678878587094,0.0016131659509875849,0.24825400114059448,19.693445205688477,0.2721221148967743,-20.106538772583008,-0.4214377999305725,-2.4887118339538574,0.20724813640117645,0
3,0.00990438461303711,-0.19667929410934448,-19.669641494750977,-0.2721221148967743,20.106538772583008,0.4150291085243225,2.4823031425476074,-0.24112264811992645,0.0,0.0,0.0,0.0,0.0,0.0,0.0,-0.23386394334281158,0.013789882659278566,-0.06774644348388498,0.28641547188464034,-0.1615428586550431,0.10988164685094283,-0.24604877828433377,1.2133221262146936,-0.2201840417305932,-0.0076572001130042365,-2.603920333984862,-0.10873824628194172,2.468182125780317,0.8264768569770533,1.2134413937687574,-0.2202432315892585,-0.0075118285948192216,-2.6038483821997875,-0.10888392708698907,2.4681821257803174,0.826474908251239,-0.0007981357284138086,-0.0012876219629906489,-0.00027629984952356725,-0.0012378264006952485,0.00036259071616025256,1.8633661995780543e-05,0.0006848965922616423,0.0,0.0,0.0,0.0,0.0,0.0,0.0,0.00011926755406377332,-5.9189858665292805e-05,0.0001453715181850149,7.195178507446442e-05,-0.00014568080504735736,4.440892098500626e-16,-1.9487258142714126e-06,0.0007981357284138086,0.0012876219629906489,0.00027629984952356725,0.0012378264006952485,-0.00036259071616025256,-1.8633661995780543e-05,-0.0006848965922616423,0.19667929410934448,19.669641494750977,0.2721221148967743,-20.106538772583008,-0.4150291085243225,-2.4823031425476074,0.24112264811992645,0
4,0.014905929565429688,-0.19667929410934448,-19.669641494750977,-0.2721221148967743,20.106538772583008,0.4150291085243225,2.4823031425476074,-0.24112264811992645,0.0,0.0,0.0,0.0,0.0,0.0,0.0,-0.23386394334281158,0.013789882659278566,-0.06774644348388498,0.28641547188464034,-0.1615428586550431,0.10988164685094283,-0.24604877828433377,1.2133221262146936,-0.2201840417305932,-0.0076572001130042365,-2.603920333984862,-0.10873824628194172,2.468182125780317,0.8264768569770533,1.2134413937687574,-0.2202432315892585,-0.0075118285948192216,-2.6038483821997875,-0.10888392708698907,2.4681821257803174,0.826474908251239,-0.0007981357284138086,-0.0012876219629906489,-0.00027629984952356725,-0.0012378264006952485,0.00036259071616025256,1.8633661995780543e-05,0.0006848965922616423,0.0,0.0,0.0,0.0,0.0,0.0,0.0,0.00011926755406377332,-5.9189858665292805e-05,0.0001453715181850149,7.195178507446442e-05,-0.00014568080504735736,4.440892098500626e-16,-1.9487258142714126e-06,0.0007981357284138086,0.0012876219629906489,0.00027629984952356725,0.0012378264006952485,-0.00036259071616025256,-1.8633661995780543e-05,-0.0006848965922616423,0.19667929410934448,19.669641494750977,0.2721221148967743,-20.106538772583008,-0.4150291085243225,-2.4823031425476074,0.24112264811992645,0
5,0.019904136657714844,-0.24825400114059448,-19.768823623657227,-0.2483184039592743,20.054964065551758,0.4095359444618225,2.4823031425476074,-0.26217979192733765,0.0,0.0,0.0,0.0,0.0,0.0,0.0,-0.229380832919938,0.01146261990552754,-0.0662871312709292,0.29170080632652107,-0.1617742654710913,0.11082419177380867,-0.2439657304310266,1.213325029198183,-0.2201770815451942,-0.0076588705488595,-2.6039153048245014,-0.10873763593037922,2.468182125780317,0.8264788960377708,1.2134413937687574,-0.2202432315892585,-0.0075118285948192216,-2.6038483821997875,-0.10888392708698907,2.4681821257803174,0.826474908251239,0.0002454458319655661,0.0011168441977721592,-0.00029689047649607715,0.0004920920290637119,0.00044296109822297036,-0.00947689713020011,0.0008450009364480353,0.0,0.0,0.0,0.0,0.0,0.0,0.0,0.00011636457057440097,-6.615004406429481e-05,0.00014704195404027873,6.692262471386101e-05,-0.0001462911566098568,4.440892098500626e-16,-3.9877865317672345e-06,-0.0002454458319655661,-0.0011168441977721592,0.00029689047649607715,-0.0004920920290637119,-0.00044296109822297036,0.00947689713020011,-0.0008450009364480353,0.24825400114059448,19.768823623657227,0.2483184039592743,-20.054964065551758,-0.4095359444618225,-2.4823031425476074,0.26217979192733765,0
6,0.024904966354370117,-0.24825400114059448,-19.768823623657227,-0.2483184039592743,20.054964065551758,0.4095359444618225,2.4823031425476074,-0.26217979192733765,0.0,0.0,0.0,0.0,0.0,0.0,0.0,-0.229380832919938,0.01146261990552754,-0.0662871312709292,0.29170080632652107,-0.1617742654710913,0.11082419177380867,-0.2439657304310266,1.213325029198183,-0.2201770815451942,-0.0076588705488595,-2.6039153048245014,-0.10873763593037922,2.468182125780317,0.8264788960377708,1.2134413937687574,-0.2202432315892585,-0.0075118285948192216,-2.6038483821997875,-0.10888392708698907,2.4681821257803174,0.826474908251239,0.0002454458319655661,0.0011168441977721592,-0.00029689047649607715,0.0004920920290637119,0.00044296109822297036,-0.00947689713020011,0.0008450009364480353,0.0,0.0,0.0,0.0,0.0,0.0,0.0,0.00011636457057440097,-6.615004406429481e-05,0.00014704195404027873,6.692262471386101e-05,-0.0001462911566098568,4.440892098500626e-16,-3.9877865317672345e-06,-0.0002454458319655661,-0.0011168441977721592,0.00029689047649607715,-0.0004920920290637119,-0.00044296109822297036,0.00947689713020011,-0.0008450009364480353,0.24825400114059448,19.768823623657227,0.2483184039592743,-20.054964065551758,-0.4095359444618225,-2.4823031425476074,0.26217979192733765,0
7,0.024904966354370117,-0.24825400114059448,-19.768823623657227,-0.2483184039592743,20.054964065551758,0.4095359444618225,2.4823031425476074,-0.26217979192733765,0.0,0.0,0.0,0.0,0.0,0.0,0.0,-0.229380832919938,0.01146261990552754,-0.0662871312709292,0.29170080632652107,-0.1617742654710913,0.11082419177380867,-0.2439657304310266,1.213325029198183,-0.2201770815451942,-0.0076588705488595,-2.6039153048245014,-0.10873763593037922,2.468182125780317,0.8264788960377708,1.2134413937687574,-0.2202432315892585,-0.0075118285948192216,-2.6038483821997875,-0.10888392708698907,2.4681821257803174,0.826474908251239,0.0002454458319655661,0.0011168441977721592,-0.00029689047649607715,0.0004920920290637119,0.00044296109822297036,-0.00947689713020011,0.0008450009364480353,0.0,0.0,0.0,0.0,0.0,0.0,0.0,0.00011636457057440097,-6.615004406429481e-05,0.00014704195404027873,6.692262471386101e-05,-0.0001462911566098568,4.440892098500626e-16,-3.9877865317672345e-06,-0.0002454458319655661,-0.0011168441977721592,0.00029689047649607715,-0.0004920920290637119,-0.00044296109822297036,0.00947689713020011,-0.0008450009364480353,0.24825400114059448,19.768823623657227,0.2483184039592743,-20.054964065551758,-0.4095359444618225,-2.4823031425476074,0.26217979192733765,0
8,0.034922122955322266,-0.19667929410934448,-19.768823623657227,-0.3236968219280243,20.031160354614258,0.4150291085243225,2.4887118339538574,-0.25485557317733765,0.0,0.0,0.0,0.0,0.0,0.0,0.0,-0.23287473606653444,0.00649686184754039,-0.06924075217436265,0.29687923859815313,-0.1619565716543038,0.11267201360313982,-0.24305058942588628,1.213319898046541,-0.220177081545194,-0.007653580835317833,-2.603912809878536,-0.1087382467694867,2.468181413703494,0.8264790911593667,1.2134413937687574,-0.2202432315892585,-0.0075118285948192216,-2.6038483821997875,-0.10888392708698907,2.4681821257803174,0.826474908251239,-0.0009242629236508098,0.0006641477031569781,0.0008156561386862871,0.0006688424486144899,0.0001946634599283729,-0.00042937778798274345,0.0004802526988461009,0.0,0.0,0.0,0.0,0.0,0.0,0.0,0.0001214957222164248,-6.61500440644891e-05,0.00014175224049861167,6.442767874847988e-05,-0.00014568031750238075,7.120768232837804e-07,-4.1829081276478774e-06,0.0009242629236508098,-0.0006641477031569781,-0.0008156561386862871,-0.0006688424486144899,-0.0001946634599283729,0.00042937778798274345,-0.0004802526988461009,0.19667929410934448,19.768823623657227,0.3236968219280243,-20.031160354614258,-0.4150291085243225,-2.4887118339538574,0.25485557317733765,0
9,0.03991103172302246,-0.19667929410934448,-19.768823623657227,-0.3236968219280243,20.031160354614258,0.4150291085243225,2.4887118339538574,-0.25485557317733765,0.0,0.0,0.0,0.0,0.0,0.0,0.0,-0.23287473606653444,0.00649686184754039,-0.06924075217436265,0.29687923859815313,-0.1619565716543038,0.11267201360313982,-0.24305058942588628,1.213319898046541,-0.220177081545194,-0.007653580835317833,-2.603912809878536,-0.1087382467694867,2.468181413703494,0.8264790911593667,1.2134413937687574,-0.2202432315892585,-0.0075118285948192216,-2.6038483821997875,-0.10888392708698907,2.4681821257803174,0.826474908251239,-0.0009242629236508098,0.0006641477031569781,0.0008156561386862871,0.0006688424486144899,0.0001946634599283729,-0.00042937778798274345,0.0004802526988461009,0.0,0.0,0.0,0.0,0.0,0.0,0.0,0.0001214957222164248,-6.61500440644891e-05,0.00014175224049861167,6.442767874847988e-05,-0.00014568031750238075,7.120768232837804e-07,-4.1829081276478774e-06,0.0009242629236508098,-0.0006641477031569781,-0.0008156561386862871,-0.0006688424486144899,-0.0001946634599283729,0.00042937778798274345,-0.0004802526988461009,0.19667929410934448,19.768823623657227,0.3236968219280243,-20.031160354614258,-0.4150291085243225,-2.4887118339538574,0.25485557317733765,0
10,0.04490828514099121,-0.19667929410934448,-19.768823623657227,-0.3236968219280243,20.031160354614258,0.4150291085243225,2.4887118339538574,-0.25485557317733765,0.0,0.0,0.0,0.0,0.0,0.0,0.0,-0.23287473606653444,0.00649686184754039,-0.06924075217436265,0.29687923859815313,-0.1619565716543038,0.11267201360313982,-0.24305058942588628,1.213319898046541,-0.220177081545194,-0.007653580835317833,-2.603912809878536,-0.1087382467694867,2.468181413703494,0.8264790911593667,1.2134413937687574,-0.2202432315892585,-0.0075118285948192216,-2.6038483821997875,-0.10888392708698907,2.4681821257803174,0.826474908251239,-0.0009242629236508098,0.0006641477031569781,0.0008156561386862871,0.0006688424486144899,0.0001946634599283729,-0.00042937778798274345,0.0004802526988461009,0.0,0.0,0.0,0.0,0.0,0.0,0.0,0.0001214957222164248,-6.61500440644891e-05,0.00014175224049861167,6.442767874847988e-05,-0.00014568031750238075,7.120768232837804e-07,-4.1829081276478774e-06,0.0009242629236508098,-0.0006641477031569781,-0.0008156561386862871,-0.0006688424486144899,-0.0001946634599283729,0.00042937778798274345,-0.0004802526988461009,0.19667929410934448,19.768823623657227,0.3236968219280243,-20.031160354614258,-0.4150291085243225,-2.4887118339538574,0.25485557317733765,0
11,0.04990696907043457,-0.19667929410934448,-19.768823623657227,-0.3236968219280243,20.031160354614258,0.4150291085243225,2.4887118339538574,-0.25485557317733765,0.0,0.0,0.0,0.0,0.0,0.0,0.0,-0.23287473606653444,0.00649686184754039,-0.06924075217436265,0.29687923859815313,-0.1619565716543038,0.11267201360313982,-0.24305058942588628,1.213319898046541,-0.220177081545194,-0.007653580835317833,-2.603912809878536,-0.1087382467694867,2.468181413703494,0.8264790911593667,1.2134413937687574,-0.2202432315892585,-0.0075118285948192216,-2.6038483821997875,-0.10888392708698907,2.4681821257803174,0.826474908251239,-0.0009242629236508098,0.0006641477031569781,0.0008156561386862871,0.0006688424486144899,0.0001946634599283729,-0.00042937778798274345,0.0004802526988461009,0.0,0.0,0.0,0.0,0.0,0.0,0.0,0.0001214957222164248,-6.61500440644891e-05,0.00014175224049861167,6.442767874847988e-05,-0.00014568031750238075,7.120768232837804e-07,-4.1829081276478774e-06,0.0009242629236508098,-0.0006641477031569781,-0.0008156561386862871,-0.0006688424486144899,-0.0001946634599283729,0.00042937778798274345,-0.0004802526988461009,0.19667929410934448,19.768823623657227,0.3236968219280243,-20.031160354614258,-0.4150291085243225,-2.4887118339538574,0.25485557317733765,0
12,0.05490565299987793,-0.22445029020309448,-19.717248916625977,-0.2721221148967743,20.054964065551758,0.4269309639930725,2.4887118339538574,-0.22830526530742645,0.0,0.0,0.0,0.0,0.0,0.0,0.0,-0.22560113433966178,0.010810358213565232,-0.06721386472136144,0.2940795282658112,-0.1625619775364449,0.11373651306630672,-0.24254731517651548,1.2133220974072976,-0.22018070957143593,-0.0076572001130042365,-2.603916708941426,-0.10874063497119754,2.468181413703494,0.8264750941439957,1.2134413937687574,-0.2202432315892585,-0.0075118285948192216,-2.6038483821997875,-0.10888392708698907,2.4681821257803174,0.826474908251239,0.00035358703133051396,-0.00026318873842836015,0.0002210502308017936,0.0003356253287490085,-5.17282466721613e-05,-0.0022987307777170563,-0.0005865099421751774,0.0,0.0,0.0,0.0,0.0,0.0,0.0,0.0001192963614597975,-6.252201782255828e-05,0.0001453715181850149,6.832674163836927e-05,-0.00014329211579153234,7.120768232837804e-07,-1.8589275663227767e-07,-0.00035358703133051396,0.00026318873842836015,-0.0002210502308017936,-0.0003356253287490085,5.17282466721613e-05,0.0022987307777170563,0.0005865099421751774,0.22445029020309448,19.717248916625977,0.2721221148967743,-20.054964065551758,-0.4269309639930725,-2.4887118339538574,0.22830526530742645,0
13,0.05990457534790039,-0.22445029020309448,-19.717248916625977,-0.2721221148967743,20.054964065551758,0.4269309639930725,2.4887118339538574,-0.22830526530742645,0.0,0.0,0.0,0.0,0.0,0.0,0.0,-0.22560113433966178,0.010810358213565232,-0.06721386472136144,0.2940795282658112,-0.1625619775364449,0.11373651306630672,-0.24254731517651548,1.2133220974072976,-0.22018070957143593,-0.0076572001130042365,-2.603916708941426,-0.10874063497119754,2.468181413703494,0.8264750941439957,1.2134413937687574,-0.2202432315892585,-0.0075118285948192216,-2.6038483821997875,-0.10888392708698907,2.4681821257803174,0.826474908251239,0.00035358703133051396,-0.00026318873842836015,0.0002210502308017936,0.0003356253287490085,-5.17282466721613e-05,-0.0022987307777170563,-0.0005865099421751774,0.0,0.0,0.0,0.0,0.0,0.0,0.0,0.0001192963614597975,-6.252201782255828e-05,0.0001453715181850149,6.832674163836927e-05,-0.00014329211579153234,7.120768232837804e-07,-1.8589275663227767e-07,-0.00035358703133051396,0.00026318873842836015,-0.0002210502308017936,-0.0003356253287490085,5.17282466721613e-05,0.0022987307777170563,0.0005865099421751774,0.22445029020309448,19.717248916625977,0.2721221148967743,-20.054964065551758,-0.4269309639930725,-2.4887118339538574,0.22830526530742645,0
14,0.06490588188171387,-0.24825400114059448,-19.669641494750977,-0.2721221148967743,20.054964065551758,0.4214377999305725,2.4951205253601074,-0.26217979192733765,0.0,0.0,0.0,0.0,0.0,0.0,0.0,-0.22854280986393333,0.017352094207827403,-0.07194834083310635,0.2864508359675215,-0.16189870902747255,0.11170017920463278,-0.24219255986802293,1.213322802938289,-0.2201840426666691,-0.0076572001130042365,-2.603914562767914,-0.108738958360771,2.4681807016266712,0.8264761897286228,1.2134413937687574,-0.2202432315892585,-0.0075118285948192216,-2.6038483821997875,-0.10888392708698907,2.4681821257803174,0.826474908251239,0.0005263887739241555,-0.0009562377135106742,0.00045321780036984533,0.0005318740808862978,0.00010561328996023233,-0.0001675863365241907,0.001313731226530511,0.0,0.0,0.0,0.0,0.0,0.0,0.0,0.00011859083046839025,-5.9188922589381576e-05,0.0001453715181850149,6.618056812657258e-05,-0.000144968726218081,1.4241536461234716e-06,-1.2814773837632742e-06,-0.0005263887739241555,0.0009562377135106742,-0.00045321780036984533,-0.0005318740808862978,-0.00010561328996023233,0.0001675863365241907,-0.001313731226530511,0.24825400114059448,19.669641494750977,0.2721221148967743,-20.054964065551758,-0.4214377999305725,-2.4951205253601074,0.26217979192733765,0
15,0.06990814208984375,-0.24825400114059448,-19.669641494750977,-0.2721221148967743,20.054964065551758,0.4214377999305725,2.4951205253601074,-0.26217979192733765,0.0,0.0,0.0,0.0,0.0,0.0,0.0,-0.22854280986393333,0.017352094207827403,-0.07194834083310635,0.2864508359675215,-0.16189870902747255,0.11170017920463278,-0.24219255986802293,1.213322802938289,-0.2201840426666691,-0.0076572001130042365,-2.603914562767914,-0.108738958360771,2.4681807016266712,0.8264761897286228,1.2134413937687574,-0.2202432315892585,-0.0075118285948192216,-2.6038483821997875,-0.10888392708698907,2.4681821257803174,0.826474908251239,0.0005263887739241555,-0.0009562377135106742,0.00045321780036984533,0.0005318740808862978,0.00010561328996023233,-0.0001675863365241907,0.001313731226530511,0.0,0.0,0.0,0.0,0.0,0.0,0.0,0.00011859083046839025,-5.9188922589381576e-05,0.0001453715181850149,6.618056812657258e-05,-0.000144968726218081,1.4241536461234716e-06,-1.2814773837632742e-06,-0.0005263887739241555,0.0009562377135106742,-0.00045321780036984533,-0.0005318740808862978,-0.00010561328996023233,0.0001675863365241907,-0.001313731226530511,0.24825400114059448,19.669641494750977,0.2721221148967743,-20.054964065551758,-0.4214377999305725,-2.4951205253601074,0.26217979192733765,0
16,0.07492303848266602,-0.17287558317184448,-19.717248916625977,-0.2998931109905243,20.031160354614258,0.4269309639930725,2.4951205253601074,-0.21457235515117645,0.0,0.0,0.0,0.0,0.0,0.0,0.0,-0.2301094512047858,0.024469360335061387,-0.07205156401459889,0.28299616832044866,-0.1614363146481888,0.1114828458251184,-0.24151074314847487,1.213317816534109,-0.22018353535488183,-0.007655251271173096,-2.6039135546734933,-0.10873992461816134,2.4681807016266712,0.8264737284038198,1.2134413937687574,-0.2202432315892585,-0.0075118285948192216,-2.6038483821997875,-0.10888392708698907,2.4681821257803174,0.826474908251239,-0.0017559169707409034,0.0006546034257281635,0.0010050994389642694,0.0005413418930657739,-0.0003120102516914213,-0.00025217449031884784,-0.0013103139735466016,0.0,0.0,0.0,0.0,0.0,0.0,0.0,0.00012357723464839765,-5.9696234376654944e-05,0.00014342267635387464,6.517247370574353e-05,-0.00014400246882773082,1.4241536461234716e-06,1.1798474192081798e-06,0.0017559169707409034,-0.0006546034257281635,-0.0010050994389642694,-0.0005413418930657739,0.0003120102516914213,0.00025217449031884784,0.0013103139735466016,0.17287558317184448,19.717248916625977,0.2998931109905243,-20.031160354614258,-0.4269309639930725,-2.4951205253601074,0.21457235515117645,0
17,0.07994914054870605,-0.17287558317184448,-19.717248916625977,-0.2998931109905243,20.031160354614258,0.4269309639930725,2.4951205253601074,-0.21457235515117645,0.0,0.0,0.0,0.0,0.0,0.0,0.0,-0.2301094512047858,0.024469360335061387,-0.07205156401459889,0.28299616832044866,-0.1614363146481888,0.1114828458251184,-0.24151074314847487,1.213317816534109,-0.22018353535488183,-0.007655251271173096,-2.6039135546734933,-0.10873992461816134,2.4681807016266712,0.8264737284038198,1.2134413937687574,-0.2202432315892585,-0.0075118285948192216,-2.6038483821997875,-0.10888392708698907,2.4681821257803174,0.826474908251239,-0.0017559169707409034,0.0006546034257281635,0.0010050994389642694,0.0005413418930657739,-0.0003120102516914213,-0.00025217449031884784,-0.0013103139735466016,0.0,0.0,0.0,0.0,0.0,0.0,0.0,0.00012357723464839765,-5.9696234376654944e-05,0.00014342267635387464,6.517247370574353e-05,-0.00014400246882773082,1.4241536461234716e-06,1.1798474192081798e-06,0.0017559169707409034,-0.0006546034257281635,-0.0010050994389642694,-0.0005413418930657739,0.0003120102516914213,0.00025217449031884784,0.0013103139735466016,0.17287558317184448,19.717248916625977,0.2998931109905243,-20.031160354614258,-0.4269309639930725,-2.4951205253601074,0.21457235515117645,0
18,0.08487892150878906,-0.22445029020309448,-19.717248916625977,-0.2998931109905243,20.106538772583008,0.4150291085243225,2.4887118339538574,-0.22830526530742645,0.0,0.0,0.0,0.0,0.0,0.0,0.0,-0.2247755771471449,0.01801249409736245,-0.06705770706821787,0.29080241731601053,-0.1614500919918859,0.11352399026518428,-0.24125683127479597,1.2133211326406106,-0.22018070181094312,-0.007655251271173096,-2.60392032792184,-0.10873824628395083,2.468181413703494,0.8264720596105926,1.2134413937687574,-0.2202432315892585,-0.0075118285948192216,-2.6038483821997875,-0.10888392708698907,2.4681821257803174,0.826474908251239,0.00014336726205791515,-4.162664928571541e-05,0.001049597579687888,-0.0007920093432590104,0.0003500909311493687,-7.955073016360559e-05,-0.0008008842636558374,0.0,0.0,0.0,0.0,0.0,0.0,0.0,0.00012026112814678136,-6.252977831536222e-05,0.00014342267635387464,7.194572205238003e-05,-0.00014568080303824227,7.120768232837804e-07,2.8486406464800496e-06,-0.00014336726205791515,4.162664928571541e-05,-0.001049597579687888,0.0007920093432590104,-0.0003500909311493687,7.955073016360559e-05,0.0008008842636558374,0.22445029020309448,19.717248916625977,0.2998931109905243,-20.106538772583008,-0.4150291085243225,-2.4887118339538574,0.22830526530742645,0
19,0.0899052619934082,-0.22445029020309448,-19.717248916625977,-0.2998931109905243,20.106538772583008,0.4150291085243225,2.4887118339538574,-0.22830526530742645,0.0,0.0,0.0,0.0,0.0,0.0,0.0,-0.2247755771471449,0.01801249409736245,-0.06705770706821787,0.29080241731601053,-0.1614500919918859,0.11352399026518428,-0.24125683127479597,1.2133211326406106,-0.22018070181094312,-0.007655251271173096,-2.60392032792184,-0.10873824628395083,2.468181413703494,0.8264720596105926,1.2134413937687574,-0.2202432315892585,-0.0075118285948192216,-2.6038483821997875,-0.10888392708698907,2.4681821257803174,0.826474908251239,0.00014336726205791515,-4.162664928571541e-05,0.001049597579687888,-0.0007920093432590104,0.0003500909311493687,-7.955073016360559e-05,-0.0008008842636558374,0.0,0.0,0.0,0.0,0.0,0.0,0.0,0.00012026112814678136,-6.252977831536222e-05,0.00014342267635387464,7.194572205238003e-05,-0.00014568080303824227,7.120768232837804e-07,2.8486406464800496e-06,-0.00014336726205791515,4.162664928571541e-05,-0.001049597579687888,0.0007920093432590104,-0.0003500909311493687,7.955073016360559e-05,0.0008008842636558374,0.22445029020309448,19.717248916625977,0.2998931109905243,-20.106538772583008,-0.4150291085243225,-2.4887118339538574,0.22830526530742645,0
20,0.0949409008026123,-0.22445029020309448,-19.745019912719727,-0.2721221148967743,20.054964065551758,0.4269309639930725,2.4951205253601074,-0.21457235515117645,0.0,0.0,0.0,0.0,0.0,0.0,0.0,-0.22457267534936404,0.018888459803287447,-0.0697440444521385,0.29017415036524125,-0.16110195478731298,0.11384406442375913,-0.24208640275184035,1.213321105016061,-0.22017875198105483,-0.0076572001130042365,-2.603914563077777,-0.10873956871032715,2.4681807016266712,0.8264703922347617,1.2134413937687574,-0.2202432315892585,-0.0075118285948192216,-2.6038483821997875,-0.10888392708698907,2.4681821257803174,0.826474908251239,0.0004778034030848963,0.00013266554273331542,-0.0003574249305175561,6.0132700691963245e-05,-9.150762111049163e-05,-0.007473711091137637,-0.0011032770956923856,0.0,0.0,0.0,0.0,0.0,0.0,0.0,0.00012028875269631811,-6.447960820366028e-05,0.0001453715181850149,6.618087798937466e-05,-0.00014435837666192108,1.4241536461234716e-06,4.516016477329465e-06,-0.0004778034030848963,-0.00013266554273331542,0.0003574249305175561,-6.0132700691963245e-05,9.150762111049163e-05,0.007473711091137637,0.0011032770956923856,0.22445029020309448,19.745019912719727,0.2721221148967743,-20.054964065551758,-0.4269309639930725,-2.4951205253601074,0.21457235515117645,0
21,0.09990143775939941,-0.22445029020309448,-19.745019912719727,-0.2721221148967743,20.054964065551758,0.4269309639930725,2.4951205253601074,-0.21457235515117645,0.0,0.0,0.0,0.0,0.0,0.0,0.0,-0.22457267534936404,0.018888459803287447,-0.0697440444521385,0.29017415036524125,-0.16110195478731298,0.11384406442375913,-0.24208640275184035,1.213321105016061,-0.22017875198105483,-0.0076572001130042365,-2.603914563077777,-0.10873956871032715,2.4681807016266712,0.8264703922347617,1.2134413937687574,-0.2202432315892585,-0.0075118285948192216,-2.6038483821997875,-0.10888392708698907,2.4681821257803174,0.826474908251239,0.0004778034030848963,0.00013266554273331542,-0.0003574249305175561,6.0132700691963245e-05,-9.150762111049163e-05,-0.007473711091137637,-0.0011032770956923856,0.0,0.0,0.0,0.0,0.0,0.0,0.0,0.00012028875269631811,-6.447960820366028e-05,0.0001453715181850149,6.618087798937466e-05,-0.00014435837666192108,1.4241536461234716e-06,4.516016477329465e-06,-0.0004778034030848963,-0.00013266554273331542,0.0003574249305175561,-6.0132700691963245e-05,9.150762111049163e-05,0.007473711091137637,0.0011032770956923856,0.22445029020309448,19.745019912719727,0.2721221148967743,-20.054964065551758,-0.4269309639930725,-2.4951205253601074,0.21457235515117645,0
22,0.1049044132232666,-0.22445029020309448,-19.745019912719727,-0.2483184039592743,20.054964065551758,0.4214377999305725,2.4887118339538574,-0.21457235515117645,0.0,0.0,0.0,0.0,0.0,0.0,0.0,-0.2220554202482526,0.020524253265912284,-0.07116540740992847,0.2900692672206045,-0.16085570346063402,0.11452992221381017,-0.242557649462684,1.2133218559199621,-0.22017875198104925,-0.0076588705488595,-2.603915563931601,-0.10873895843099353,2.468181413703494,0.8264746523922717,1.2134413937687574,-0.2202432315892585,-0.0075118285948192216,-2.6038483821997875,-0.10888392708698907,2.4681821257803174,0.826474908251239,-8.149342049039699e-05,0.00031427263790845397,-0.00047564278185570206,0.00033666905996840285,0.0002324473368360626,-0.00027060453744045447,-0.0009358946185859007,0.0,0.0,0.0,0.0,0.0,0.0,0.0,0.0001195378487952592,-6.447960820923915e-05,0.00014704195404027873,6.718173181363696e-05,-0.00014496865599554487,7.120768232837804e-07,2.5585896734625635e-07,8.149342049039699e-05,-0.00031427263790845397,0.00047564278185570206,-0.00033666905996840285,-0.0002324473368360626,0.00027060453744045447,0.0009358946185859007,0.22445029020309448,19.745019912719727,0.2483184039592743,-20.054964065551758,-0.4214377999305725,-2.4887118339538574,0.21457235515117645,0
23,0.109893798828125,-0.22445029020309448,-19.745019912719727,-0.2483184039592743,20.054964065551758,0.4214377999305725,2.4887118339538574,-0.21457235515117645,0.0,0.0,0.0,0.0,0.0,0.0,0.0,-0.2220554202482526,0.020524253265912284,-0.07116540740992847,0.2900692672206045,-0.16085570346063402,0.11452992221381017,-0.242557649462684,1.2133218559199621,-0.22017875198104925,-0.0076588705488595,-2.603915563931601,-0.10873895843099353,2.468181413703494,0.8264746523922717,1.2134413937687574,-0.2202432315892585,-0.0075118285948192216,-2.6038483821997875,-0.10888392708698907,2.4681821257803174,0.826474908251239,-8.149342049039699e-05,0.00031427263790845397,-0.00047564278185570206,0.00033666905996840285,0.0002324473368360626,-0.00027060453744045447,-0.0009358946185859007,0.0,0.0,0.0,0.0,0.0,0.0,0.0,0.0001195378487952592,-6.447960820923915e-05,0.00014704195404027873,6.718173181363696e-05,-0.00014496865599554487,7.120768232837804e-07,2.5585896734625635e-07,8.149342049039699e-05,-0.00031427263790845397,0.00047564278185570206,-0.00033666905996840285,-0.0002324473368360626,0.00027060453744045447,0.0009358946185859007,0.22445029020309448,19.745019912719727,0.2483184039592743,-20.054964065551758,-0.4214377999305725,-2.4887118339538574,0.21457235515117645,0
24,0.11493229866027832,-0.22445029020309448,-19.745019912719727,-0.2483184039592743,20.054964065551758,0.4150291085243225,2.4887118339538574,-0.22830526530742645,0.0,0.0,0.0,0.0,0.0,0.0,0.0,-0.22209852527749993,0.02161812591677879,-0.06886825205306192,0.28282374951603695,-0.16057760165784962,0.11309677563117376,-0.24196931248205797,1.2133213614264073,-0.22017875198104925,-0.0076588705488595,-2.603916714750977,-0.10873965481982513,2.468181413703494,0.8264750926906551,1.2134413937687574,-0.2202432315892585,-0.0075118285948192216,-2.6038483821997875,-0.10888392708698907,2.4681821257803174,0.826474908251239,0.0003732031596472964,0.0002729160927432387,-0.0005885347499430502,-0.0001761828226342726,0.0002999213416844288,-0.00019309664509222833,-0.0007982382426515491,0.0,0.0,0.0,0.0,0.0,0.0,0.0,0.00012003234235002935,-6.447960820923915e-05,0.00014704195404027873,6.833255118943171e-05,-0.0001442722671639446,7.120768232837804e-07,-1.8443941607326764e-07,-0.0003732031596472964,-0.0002729160927432387,0.0005885347499430502,0.0001761828226342726,-0.0002999213416844288,0.00019309664509222833,0.0007982382426515491,0.22445029020309448,19.745019912719727,0.2483184039592743,-20.054964065551758,-0.4150291085243225,-2.4887118339538574,0.22830526530742645,0
25,0.11992144584655762,-0.22445029020309448,-19.745019912719727,-0.2483184039592743,20.054964065551758,0.4150291085243225,2.4887118339538574,-0.22830526530742645,0.0,0.0,0.0,0.0,0.0,0.0,0.0,-0.22209852527749993,0.02161812591677879,-0.06886825205306192,0.28282374951603695,-0.16057760165784962,0.11309677563117376,-0.24196931248205797,1.2133213614264073,-0.22017875198104925,-0.0076588705488595,-2.603916714750977,-0.10873965481982513,2.468181413703494,0.8264750926906551,1.2134413937687574,-0.2202432315892585,-0.0075118285948192216,-2.6038483821997875,-0.10888392708698907,2.4681821257803174,0.826474908251239,0.0003732031596472964,0.0002729160927432387,-0.0005885347499430502,-0.0001761828226342726,0.0002999213416844288,-0.00019309664509222833,-0.0007982382426515491,0.0,0.0,0.0,0.0,0.0,0.0,0.0,0.00012003234235002935,-6.447960820923915e-05,0.00014704195404027873,6.833255118943171e-05,-0.0001442722671639446,7.120768232837804e-07,-1.8443941607326764e-07,-0.0003732031596472964,-0.0002729160927432387,0.0005885347499430502,0.0001761828226342726,-0.0002999213416844288,0.00019309664509222833,0.0007982382426515491,0.22445029020309448,19.745019912719727,0.2483184039592743,-20.054964065551758,-0.4150291085243225,-2.4887118339538574,0.22830526530742645,0
26,0.12491393089294434,-0.17287558317184448,-19.745019912719727,-0.2721221148967743,20.054964065551758,0.4214377999305725,2.4887118339538574,-0.22098104655742645,0.0,0.0,0.0,0.0,0.0,0.0,0.0,-0.2244572993165622,0.02040395123737991,-0.0722255423481356,0.2829802722001634,-0.1607112714277976,0.11377487877938205,-0.24169929426188214,1.2133174860817229,-0.22017883071804914,-0.0076572001130042365,-2.6039144806867394,-0.10873895838261835,2.468181413703494,0.8264743069666205,1.2134413937687574,-0.2202432315892585,-0.0075118285948192216,-2.6038483821997875,-0.10888392708698907,2.4681821257803174,0.826474908251239,-0.001449302462467487,0.0006609852064444731,0.00010775894481711274,-0.00010082198726764158,-0.0001020368893934229,-1.707682064267339e-05,-0.001030017112618345,0.0,0.0,0.0,0.0,0.0,0.0,0.0,0.00012390768703451904,-6.44008712093469e-05,0.0001453715181850149,6.609848695182663e-05,-0.00014496870437072373,7.120768232837804e-07,6.012846185399212e-07,0.001449302462467487,-0.0006609852064444731,-0.00010775894481711274,0.00010082198726764158,0.0001020368893934229,1.707682064267339e-05,0.001030017112618345,0.17287558317184448,19.745019912719727,0.2721221148967743,-20.054964065551758,-0.4214377999305725,-2.4887118339538574,0.22098104655742645,0
27,0.12990283966064453,-0.17287558317184448,-19.745019912719727,-0.2721221148967743,20.054964065551758,0.4214377999305725,2.4887118339538574,-0.22098104655742645,0.0,0.0,0.0,0.0,0.0,0.0,0.0,-0.2244572993165622,0.02040395123737991,-0.0722255423481356,0.2829802722001634,-0.1607112714277976,0.11377487877938205,-0.24169929426188214,1.2133174860817229,-0.22017883071804914,-0.0076572001130042365,-2.6039144806867394,-0.10873895838261835,2.468181413703494,0.8264743069666205,1.2134413937687574,-0.2202432315892585,-0.0075118285948192216,-2.6038483821997875,-0.10888392708698907,2.4681821257803174,0.826474908251239,-0.001449302462467487,0.0006609852064444731,0.00010775894481711274,-0.00010082198726764158,-0.0001020368893934229,-1.707682064267339e-05,-0.001030017112618345,0.0,0.0,0.0,0.0,0.0,0.0,0.0,0.00012390768703451904,-6.44008712093469e-05,0.0001453715181850149,6.609848695182663e-05,-0.00014496870437072373,7.120768232837804e-07,6.012846185399212e-07,0.001449302462467487,-0.0006609852064444731,-0.00010775894481711274,0.00010082198726764158,0.0001020368893934229,1.707682064267339e-05,0.001030017112618345,0.17287558317184448,19.745019912719727,0.2721221148967743,-20.054964065551758,-0.4214377999305725,-2.4887118339538574,0.22098104655742645,0
28,0.13493013381958008,-0.24825400114059448,-19.717248916625977,-0.3236968219280243,20.082735061645508,0.4269309639930725,2.4694857597351074,-0.24112264811992645,0.0,0.0,0.0,0.0,0.0,0.0,0.0,-0.23419206481850832,0.026523149115655374,-0.08085178590458729,0.2759609637324635,-0.16101829100198714,0.11310080321396915,-0.24217595838896572,1.2133260731212043,-0.22018070179509028,-0.007653580835317833,-2.603916459676124,-0.10873956887284218,2.468183549933963,0.8264748616631636,1.2134413937687574,-0.2202432315892585,-0.0075118285948192216,-2.6038483821997875,-0.10888392708698907,2.4681821257803174,0.826474908251239,-0.0003349208645294968,0.0002453935931560888,0.0003409709192166548,-0.00047217778720706375,-9.320495282323054e-05,0.004681482979635545,0.0001358128234506551,0.0,0.0,0.0,0.0,0.0,0.0,0.0,0.00011532064755304106,-6.252979416820903e-05,0.00014175224049861167,6.807747633663652e-05,-0.00014435821414689187,-1.4241536456793824e-06,4.658807539748011e-08,0.0003349208645294968,-0.0002453935931560888,-0.0003409709192166548,0.00047217778720706375,9.320495282323054e-05,-0.004681482979635545,-0.0001358128234506551,0.24825400114059448,19.717248916625977,0.3236968219280243,-20.082735061645508,-0.4269309639930725,-2.4694857597351074,0.24112264811992645,0
29,0.13991975784301758,-0.24825400114059448,-19.717248916625977,-0.3236968219280243,20.082735061645508,0.4269309639930725,2.4694857597351074,-0.24112264811992645,0.0,0.0,0.0,0.0,0.0,0.0,0.0,-0.23419206481850832,0.026523149115655374,-0.08085178590458729,0.2759609637324635,-0.16101829100198714,0.11310080321396915,-0.24217595838896572,1.2133260731212043,-0.22018070179509028,-0.007653580835317833,-2.603916459676124,-0.10873956887284218,2.468183549933963,0.8264748616631636,1.2134413937687574,-0.2202432315892585,-0.0075118285948192216,-2.6038483821997875,-0.10888392708698907,2.4681821257803174,0.826474908251239,-0.0003349208645294968,0.0002453935931560888,0.0003409709192166548,-0.00047217778720706375,-9.320495282323054e-05,0.004681482979635545,0.0001358128234506551,0.0,0.0,0.0,0.0,0.0,0.0,0.0,0.00011532064755304106,-6.252979416820903e-05,0.00014175224049861167,6.807747633663652e-05,-0.00014435821414689187,-1.4241536456793824e-06,4.658807539748011e-08,0.0003349208645294968,-0.0002453935931560888,-0.0003409709192166548,0.00047217778720706375,9.320495282323054e-05,-0.004681482979635545,-0.0001358128234506551,0.24825400114059448,19.717248916625977,0.3236968219280243,-20.082735061645508,-0.4269309639930725,-2.4694857597351074,0.24112264811992645,0
30,0.14493179321289062,-0.22445029020309448,-19.717248916625977,-0.2721221148967743,20.082735061645508,0.4269309639930725,2.4887118339538574,-0.24112264811992645,0.0,0.0,0.0,0.0,0.0,0.0,0.0,-0.22491775552813112,0.018923694786810802,-0.07264853262610238,0.283574285127105,-0.1614288034061887,0.11492514462189202,-0.242714177765969,1.213321114229118,-0.22018077955989673,-0.0076572001130042365,-2.6039167130304484,-0.10874276749293284,2.468181413703494,0.8264733645263808,1.2134413937687574,-0.2202432315892585,-0.0075118285948192216,-2.6038483821997875,-0.10888392708698907,2.4681821257803174,0.826474908251239,-0.0005484755030024448,-0.000464308984898296,-3.1145603636249154e-05,-0.00023571653436944926,-0.00014515731037153024,8.431173363467672e-05,0.00024026522152770835,0.0,0.0,0.0,0.0,0.0,0.0,0.0,0.00012027953963933413,-6.245202936175365e-05,0.0001453715181850149,6.833083066082324e-05,-0.00014115959405623657,7.120768232837804e-07,1.5437248582772511e-06,0.0005484755030024448,0.000464308984898296,3.1145603636249154e-05,0.00023571653436944926,0.00014515731037153024,-8.431173363467672e-05,-0.00024026522152770835,0.22445029020309448,19.717248916625977,0.2721221148967743,-20.082735061645508,-0.4269309639930725,-2.4887118339538574,0.24112264811992645,0
31,0.1499326229095459,-0.22445029020309448,-19.717248916625977,-0.2721221148967743,20.082735061645508,0.4269309639930725,2.4887118339538574,-0.24112264811992645,0.0,0.0,0.0,0.0,0.0,0.0,0.0,-0.22491775552813112,0.018923694786810802,-0.07264853262610238,0.283574285127105,-0.1614288034061887,0.11492514462189202,-0.242714177765969,1.213321114229118,-0.22018077955989673,-0.0076572001130042365,-2.6039167130304484,-0.10874276749293284,2.468181413703494,0.8264733645263808,1.2134413937687574,-0.2202432315892585,-0.0075118285948192216,-2.6038483821997875,-0.10888392708698907,2.4681821257803174,0.826474908251239,-0.0005484755030024448,-0.000464308984898296,-3.1145603636249154e-05,-0.00023571653436944926,-0.00014515731037153024,8.431173363467672e-05,0.00024026522152770835,0.0,0.0,0.0,0.0,0.0,0.0,0.0,0.00012027953963933413,-6.245202936175365e-05,0.0001453715181850149,6.833083066082324e-05,-0.00014115959405623657,7.120768232837804e-07,1.5437248582772511e-06,0.0005484755030024448,0.000464308984898296,3.1145603636249154e-05,0.00023571653436944926,0.00014515731037153024,-8.431173363467672e-05,-0.00024026522152770835,0.22445029020309448,19.717248916625977,0.2721221148967743,-20.082735061645508,-0.4269309639930725,-2.4887118339538574,0.24112264811992645,0
32,0.15493249893188477,-0.22445029020309448,-19.717248916625977,-0.2721221148967743,20.082735061645508,0.4269309639930725,2.4887118339538574,-0.24112264811992645,0.0,0.0,0.0,0.0,0.0,0.0,0.0,-0.22491775552813112,0.018923694786810802,-0.07264853262610238,0.283574285127105,-0.1614288034061887,0.11492514462189202,-0.242714177765969,1.213321114229118,-0.22018077955989673,-0.0076572001130042365,-2.6039167130304484,-0.10874276749293284,2.468181413703494,0.8264733645263808,1.2134413937687574,-0.2202432315892585,-0.0075118285948192216,-2.6038483821997875,-0.10888392708698907,2.4681821257803174,0.826474908251239,-0.0005484755030024448,-0.000464308984898296,-3.1145603636249154e-05,-0.00023571653436944926,-0.00014515731037153024,8.431173363467672e-05,0.00024026522152770835,0.0,0.0,0.0,0.0,0.0,0.0,0.0,0.00012027953963933413,-6.245202936175365e-05,0.0001453715181850149,6.833083066082324e-05,-0.00014115959405623657,7.120768232837804e-07,1.5437248582772511e-06,0.0005484755030024448,0.000464308984898296,3.1145603636249154e-05,0.00023571653436944926,0.00014515731037153024,-8.431173363467672e-05,-0.00024026522152770835,0.22445029020309448,19.717248916625977,0.2721221148967743,-20.082735061645508,-0.4269309639930725,-2.4887118339538574,0.24112264811992645,0
33,0.1599259376525879,-0.22445029020309448,-19.717248916625977,-0.2721221148967743,20.082735061645508,0.4269309639930725,2.4887118339538574,-0.24112264811992645,0.0,0.0,0.0,0.0,0.0,0.0,0.0,-0.22491775552813112,0.018923694786810802,-0.07264853262610238,0.283574285127105,-0.1614288034061887,0.11492514462189202,-0.242714177765969,1.213321114229118,-0.22018077955989673,-0.0076572001130042365,-2.6039167130304484,-0.10874276749293284,2.468181413703494,0.8264733645263808,1.2134413937687574,-0.2202432315892585,-0.0075118285948192216,-2.6038483821997875,-0.10888392708698907,2.4681821257803174,0.826474908251239,-0.0005484755030024448,-0.000464308984898296,-3.1145603636249154e-05,-0.00023571653436944926,-0.00014515731037153024,8.431173363467672e-05,0.00024026522152770835,0.0,0.0,0.0,0.0,0.0,0.0,0.0,0.00012027953963933413,-6.245202936175365e-05,0.0001453715181850149,6.833083066082324e-05,-0.00014115959405623657,7.120768232837804e-07,1.5437248582772511e-06,0.0005484755030024448,0.000464308984898296,3.1145603636249154e-05,0.00023571653436944926,0.00014515731037153024,-8.431173363467672e-05,-0.00024026522152770835,0.22445029020309448,19.717248916625977,0.2721221148967743,-20.082735061645508,-0.4269309639930725,-2.4887118339538574,0.24112264811992645,0
34,0.164931058883667,-0.19667929410934448,-19.768823623657227,-0.2483184039592743,20.054964065551758,0.4269309639930725,2.4758944511413574,-0.22098104655742645,0.0,0.0,0.0,0.0,0.0,0.0,0.0,-0.2221048087208179,0.01908794861610113,-0.06648242646506435,0.28964159125546474,-0.16177180094082655,0.11596059225432791,-0.2433504464623416,1.2133194044530349,-0.2201771077910088,-0.0076588705488595,-2.603914480347956,-0.10873956871634621,2.46818283785714,0.826471479111384,1.2134413937687574,-0.2202432315892585,-0.0075118285948192216,-2.6038483821997875,-0.10888392708698907,2.4681821257803174,0.826474908251239,0.00013786824510826908,0.0011282775594674023,0.0002669147707642857,0.00013540784399472015,-0.00011554148741650552,0.00043217020793385796,-0.0014956484409244491,0.0,0.0,0.0,0.0,0.0,0.0,0.0,0.00012198931572249272,-6.612379824968984e-05,0.00014704195404027873,6.609814816860293e-05,-0.00014435837064286083,-7.120768228396912e-07,3.429139855071206e-06,-0.00013786824510826908,-0.0011282775594674023,-0.0002669147707642857,-0.00013540784399472015,0.00011554148741650552,-0.00043217020793385796,0.0014956484409244491,0.19667929410934448,19.768823623657227,0.2483184039592743,-20.054964065551758,-0.4269309639930725,-2.4758944511413574,0.22098104655742645,0
35,0.16992926597595215,-0.19667929410934448,-19.768823623657227,-0.2483184039592743,20.054964065551758,0.4269309639930725,2.4758944511413574,-0.22098104655742645,0.0,0.0,0.0,0.0,0.0,0.0,0.0,-0.2221048087208179,0.01908794861610113,-0.06648242646506435,0.28964159125546474,-0.16177180094082655,0.11596059225432791,-0.2433504464623416,1.2133194044530349,-0.2201771077910088,-0.0076588705488595,-2.603914480347956,-0.10873956871634621,2.46818283785714,0.826471479111384,1.2134413937687574,-0.2202432315892585,-0.0075118285948192216,-2.6038483821997875,-0.10888392708698907,2.4681821257803174,0.826474908251239,0.00013786824510826908,0.0011282775594674023,0.0002669147707642857,0.00013540784399472015,-0.00011554148741650552,0.00043217020793385796,-0.0014956484409244491,0.0,0.0,0.0,0.0,0.0,0.0,0.0,0.00012198931572249272,-6.612379824968984e-05,0.00014704195404027873,6.609814816860293e-05,-0.00014435837064286083,-7.120768228396912e-07,3.429139855071206e-06,-0.00013786824510826908,-0.0011282775594674023,-0.0002669147707642857,-0.00013540784399472015,0.00011554148741650552,-0.00043217020793385796,0.0014956484409244491,0.19667929410934448,19.768823623657227,0.2483184039592743,-20.054964065551758,-0.4269309639930725,-2.4758944511413574,0.22098104655742645,0
36,0.17493200302124023,-0.17287558317184448,-19.745019912719727,-0.2245146930217743,20.054964065551758,0.4269309639930725,2.4823031425476074,-0.26858848333358765,0.0,0.0,0.0,0.0,0.0,0.0,0.0,-0.22568644842133295,0.02219073459448656,-0.06716502097679318,0.28567048954610497,-0.16136590933152278,0.11438862051814967,-0.2441208183263108,1.2133197384517918,-0.2201794606141964,-0.007660540984714763,-2.6039147380726475,-0.10873968718375691,2.468182125780317,0.8264765088585684,1.2134413937687574,-0.2202432315892585,-0.0075118285948192216,-2.6038483821997875,-0.10888392708698907,2.4681821257803174,0.826474908251239,-0.00024432533046214673,0.0003009032486884207,-0.0001524281341172853,-0.00012386473194723926,-0.00020087054158134349,5.0968505364405716e-05,0.0010460240292281871,0.0,0.0,0.0,0.0,0.0,0.0,0.0,0.00012165531696561871,-6.37709750620774e-05,0.0001487123898955417,6.635587285996891e-05,-0.00014423990323216007,4.440892098500626e-16,-1.6006073293439727e-06,0.00024432533046214673,-0.0003009032486884207,0.0001524281341172853,0.00012386473194723926,0.00020087054158134349,-5.0968505364405716e-05,-0.0010460240292281871,0.17287558317184448,19.745019912719727,0.2245146930217743,-20.054964065551758,-0.4269309639930725,-2.4823031425476074,0.26858848333358765,0
37,0.17993807792663574,-0.17287558317184448,-19.745019912719727,-0.2245146930217743,20.054964065551758,0.4269309639930725,2.4823031425476074,-0.26858848333358765,0.0,0.0,0.0,0.0,0.0,0.0,0.0,-0.22568644842133295,0.02219073459448656,-0.06716502097679318,0.28567048954610497,-0.16136590933152278,0.11438862051814967,-0.2441208183263108,1.2133197384517918,-0.2201794606141964,-0.007660540984714763,-2.6039147380726475,-0.10873968718375691,2.468182125780317,0.8264765088585684,1.2134413937687574,-0.2202432315892585,-0.0075118285948192216,-2.6038483821997875,-0.10888392708698907,2.4681821257803174,0.826474908251239,-0.00024432533046214673,0.0003009032486884207,-0.0001524281341172853,-0.00012386473194723926,-0.00020087054158134349,5.0968505364405716e-05,0.0010460240292281871,0.0,0.0,0.0,0.0,0.0,0.0,0.0,0.00012165531696561871,-6.37709750620774e-05,0.0001487123898955417,6.635587285996891e-05,-0.00014423990323216007,4.440892098500626e-16,-1.6006073293439727e-06,0.00024432533046214673,-0.0003009032486884207,0.0001524281341172853,0.00012386473194723926,0.00020087054158134349,-5.0968505364405716e-05,-0.0010460240292281871,0.17287558317184448,19.745019912719727,0.2245146930217743,-20.054964065551758,-0.4269309639930725,-2.4823031425476074,0.26858848333358765,0
38,0.18493056297302246,-0.19667929410934448,-19.717248916625977,-0.2721221148967743,20.054964065551758,0.4269309639930725,2.4758944511413574,-0.24112264811992645,0.0,0.0,0.0,0.0,0.0,0.0,0.0,-0.22714920972199718,0.019530603576730577,-0.07042960918173413,0.28718427972014143,-0.16116348297723268,0.11426714580588808,-0.24365163756245053,1.213319403812534,-0.22018070082688063,-0.0076572001130042365,-2.6039175615954555,-0.1087395691985409,2.46818283785714,0.8264736958028842,1.2134413937687574,-0.2202432315892585,-0.0075118285948192216,-2.6038483821997875,-0.10888392708698907,2.4681821257803174,0.826474908251239,-0.0007049837985473709,4.809046658743239e-05,0.0003109912851634008,0.00028744875310849537,-0.00020588993455348433,0.00047968968002816826,0.0002751313265609589,0.0,0.0,0.0,0.0,0.0,0.0,0.0,0.0001219899562234783,-6.253076237786037e-05,0.0001453715181850149,6.917939566797315e-05,-0.00014435788844817388,-7.120768228396912e-07,1.2124483548259235e-06,0.0007049837985473709,-4.809046658743239e-05,-0.0003109912851634008,-0.00028744875310849537,0.00020588993455348433,-0.00047968968002816826,-0.0002751313265609589,0.19667929410934448,19.717248916625977,0.2721221148967743,-20.054964065551758,-0.4269309639930725,-2.4758944511413574,0.24112264811992645,0
39,0.18993425369262695,-0.19667929410934448,-19.717248916625977,-0.2721221148967743,20.054964065551758,0.4269309639930725,2.4758944511413574,-0.24112264811992645,0.0,0.0,0.0,0.0,0.0,0.0,0.0,-0.22714920972199718,0.019530603576730577,-0.07042960918173413,0.28718427972014143,-0.16116348297723268,0.11426714580588808,-0.24365163756245053,1.213319403812534,-0.22018070082688063,-0.0076572001130042365,-2.6039175615954555,-0.1087395691985409,2.46818283785714,0.8264736958028842,1.2134413937687574,-0.2202432315892585,-0.0075118285948192216,-2.6038483821997875,-0.10888392708698907,2.4681821257803174,0.826474908251239,-0.0007049837985473709,4.809046658743239e-05,0.0003109912851634008,0.00028744875310849537,-0.00020588993455348433,0.00047968968002816826,0.0002751313265609589,0.0,0.0,0.0,0.0,0.0,0.0,0.0,0.0001219899562234783,-6.253076237786037e-05,0.0001453715181850149,6.917939566797315e-05,-0.00014435788844817388,-7.120768228396912e-07,1.2124483548259235e-06,0.0007049837985473709,-4.809046658743239e-05,-0.0003109912851634008,-0.00028744875310849537,0.00020588993455348433,-0.00047968968002816826,-0.0002751313265609589,0.19667929410934448,19.717248916625977,0.2721221148967743,-20.054964065551758,-0.4269309639930725,-2.4758944511413574,0.24112264811992645,0
40,0.19492411613464355,-0.2998287081718445,-19.717248916625977,-0.3236968219280243,20.054964065551758,0.4214377999305725,2.4758944511413574,-0.26217979192733765,0.0,0.0,0.0,0.0,0.0,0.0,0.0,-0.23316281783810738,0.016833747774445507,-0.07895963094728264,0.2868137517647971,-0.1612871155596321,0.11418837817404766,-0.24333793542230003,1.2133265046192434,-0.2201807008228804,-0.007653580835317833,-2.6039145903285834,-0.1087389583587674,2.46818283785714,0.8264772013956799,1.2134413937687574,-0.2202432315892585,-0.0075118285948192216,-2.6038483821997875,-0.10888392708698907,2.4681821257803174,0.826474908251239,0.0006370803919956875,-6.668063915509158e-05,8.176725201186704e-05,0.0002059995828406063,0.00014934020033487424,0.00011857989680028588,0.0008367129298270359,0.0,0.0,0.0,0.0,0.0,0.0,0.0,0.00011488914951396367,-6.25307663780772e-05,0.00014175224049861167,6.62081287958749e-05,-0.00014496872822167273,-7.120768228396912e-07,-2.293144440890238e-06,-0.0006370803919956875,6.668063915509158e-05,-8.176725201186704e-05,-0.0002059995828406063,-0.00014934020033487424,-0.00011857989680028588,-0.0008367129298270359,0.2998287081718445,19.717248916625977,0.3236968219280243,-20.054964065551758,-0.4214377999305725,-2.4758944511413574,0.26217979192733765,0
41,0.1999187469482422,-0.2998287081718445,-19.717248916625977,-0.3236968219280243,20.054964065551758,0.4214377999305725,2.4758944511413574,-0.26217979192733765,0.0,0.0,0.0,0.0,0.0,0.0,0.0,-0.23316281783810738,0.016833747774445507,-0.07895963094728264,0.2868137517647971,-0.1612871155596321,0.11418837817404766,-0.24333793542230003,1.2133265046192434,-0.2201807008228804,-0.007653580835317833,-2.6039145903285834,-0.1087389583587674,2.46818283785714,0.8264772013956799,1.2134413937687574,-0.2202432315892585,-0.0075118285948192216,-2.6038483821997875,-0.10888392708698907,2.4681821257803174,0.826474908251239,0.0006370803919956875,-6.668063915509158e-05,8.176725201186704e-05,0.0002059995828406063,0.00014934020033487424,0.00011857989680028588,0.0008367129298270359,0.0,0.0,0.0,0.0,0.0,0.0,0.0,0.00011488914951396367,-6.25307663780772e-05,0.00014175224049861167,6.62081287958749e-05,-0.00014496872822167273,-7.120768228396912e-07,-2.293144440890238e-06,-0.0006370803919956875,6.668063915509158e-05,-8.176725201186704e-05,-0.0002059995828406063,-0.00014934020033487424,-0.00011857989680028588,-0.0008367129298270359,0.2998287081718445,19.717248916625977,0.3236968219280243,-20.054964065551758,-0.4214377999305725,-2.4758944511413574,0.26217979192733765,0
42,0.20493197441101074,-0.3236324191093445,-19.745019912719727,-0.2721221148967743,20.106538772583008,0.4214377999305725,2.4758944511413574,-0.23471395671367645,0.0,0.0,0.0,0.0,0.0,0.0,0.0,-0.22884306185447514,0.0188775355483129,-0.07404301457218049,0.28919179756508984,-0.16181692084432023,0.11367710695480894,-0.24339320195678205,1.2133311237275908,-0.22017875198104925,-0.0076572001130042365,-2.6039188413359775,-0.10873895835876464,2.46818283785714,0.8264741576815912,1.2134413937687574,-0.2202432315892585,-0.0075118285948192216,-2.6038483821997875,-0.10888392708698907,2.4681821257803174,0.826474908251239,0.0009299493877282424,0.0009412485205475857,-0.0007764016222514859,-0.000700398866795287,0.00015787805152266192,0.0003194514558134051,-0.0005208672275610673,0.0,0.0,0.0,0.0,0.0,0.0,0.0,0.00011027004116659356,-6.447960820923915e-05,0.0001453715181850149,7.04591361899709e-05,-0.0001449687282244344,-7.120768228396912e-07,7.505696478782298e-07,-0.0009299493877282424,-0.0009412485205475857,0.0007764016222514859,0.000700398866795287,-0.00015787805152266192,-0.0003194514558134051,0.0005208672275610673,0.3236324191093445,19.745019912719727,0.2721221148967743,-20.106538772583008,-0.4214377999305725,-2.4758944511413574,0.23471395671367645,0
43,0.20991897583007812,-0.3236324191093445,-19.745019912719727,-0.2721221148967743,20.106538772583008,0.4214377999305725,2.4758944511413574,-0.23471395671367645,0.0,0.0,0.0,0.0,0.0,0.0,0.0,-0.22884306185447514,0.0188775355483129,-0.07404301457218049,0.28919179756508984,-0.16181692084432023,0.11367710695480894,-0.24339320195678205,1.2133311237275908,-0.22017875198104925,-0.0076572001130042365,-2.6039188413359775,-0.10873895835876464,2.46818283785714,0.8264741576815912,1.2134413937687574,-0.2202432315892585,-0.0075118285948192216,-2.6038483821997875,-0.10888392708698907,2.4681821257803174,0.826474908251239,0.0009299493877282424,0.0009412485205475857,-0.0007764016222514859,-0.000700398866795287,0.00015787805152266192,0.0003194514558134051,-0.0005208672275610673,0.0,0.0,0.0,0.0,0.0,0.0,0.0,0.00011027004116659356,-6.447960820923915e-05,0.0001453715181850149,7.04591361899709e-05,-0.0001449687282244344,-7.120768228396912e-07,7.505696478782298e-07,-0.0009299493877282424,-0.0009412485205475857,0.0007764016222514859,0.000700398866795287,-0.00015787805152266192,-0.0003194514558134051,0.0005208672275610673,0.3236324191093445,19.745019912719727,0.2721221148967743,-20.106538772583008,-0.4214377999305725,-2.4758944511413574,0.23471395671367645,0
44,0.21491718292236328,-0.22445029020309448,-19.745019912719727,-0.3236968219280243,20.082735061645508,0.4333396553993225,2.4823031425476074,-0.20083944499492645,0.0,0.0,0.0,0.0,0.0,0.0,0.0,-0.23304384283031948,0.018066648846912486,-0.076289826023009,0.29150106824785804,-0.16180960079649362,0.11290709339242562,-0.24269031245363037,1.2133211967575748,-0.22017875230506984,-0.007653580835317833,-2.603918737829611,-0.1087413470480177,2.468182125780317,0.8264689669278225,1.2134413937687574,-0.2202432315892585,-0.0075118285948192216,-2.6038483821997875,-0.10888392708698907,2.4681821257803174,0.826474908251239,-0.0004235569412052776,0.0003864399769095665,0.0008444097432353955,-0.0002335871963969402,-0.000430456735726616,0.00017304693486281086,-0.0018134908619611971,0.0,0.0,0.0,0.0,0.0,0.0,0.0,0.00012019701118259896,-6.447928418865101e-05,0.00014175224049861167,7.035562982338206e-05,-0.00014258003897137106,4.440892098500626e-16,5.941323416580602e-06,0.0004235569412052776,-0.0003864399769095665,-0.0008444097432353955,0.0002335871963969402,0.000430456735726616,-0.00017304693486281086,0.0018134908619611971,0.22445029020309448,19.745019912719727,0.3236968219280243,-20.082735061645508,-0.4333396553993225,-2.4823031425476074,0.20083944499492645,0
45,0.21993231773376465,-0.22445029020309448,-19.745019912719727,-0.3236968219280243,20.082735061645508,0.4333396553993225,2.4823031425476074,-0.20083944499492645,0.0,0.0,0.0,0.0,0.0,0.0,0.0,-0.23304384283031948,0.018066648846912486,-0.076289826023009,0.29150106824785804,-0.16180960079649362,0.11290709339242562,-0.24269031245363037,1.2133211967575748,-0.22017875230506984,-0.007653580835317833,-2.603918737829611,-0.1087413470480177,2.468182125780317,0.8264689669278225,1.2134413937687574,-0.2202432315892585,-0.0075118285948192216,-2.6038483821997875,-0.10888392708698907,2.4681821257803174,0.826474908251239,-0.0004235569412052776,0.0003864399769095665,0.0008444097432353955,-0.0002335871963969402,-0.000430456735726616,0.00017304693486281086,-0.0018134908619611971,0.0,0.0,0.0,0.0,0.0,0.0,0.0,0.00012019701118259896,-6.447928418865101e-05,0.00014175224049861167,7.035562982338206e-05,-0.00014258003897137106,4.440892098500626e-16,5.941323416580602e-06,0.0004235569412052776,-0.0003864399769095665,-0.0008444097432353955,0.0002335871963969402,0.000430456735726616,-0.00017304693486281086,0.0018134908619611971,0.22445029020309448,19.745019912719727,0.3236968219280243,-20.082735061645508,-0.4333396553993225,-2.4823031425476074,0.20083944499492645,0
46,0.22493195533752441,-0.17287558317184448,-19.745019912719727,-0.2483184039592743,20.031160354614258,0.4214377999305725,2.4951205253601074,-0.27591270208358765,0.0,0.0,0.0,0.0,0.0,0.0,0.0,-0.2308606365442754,0.0248489008309689,-0.07394836257981117,0.28954909538515544,-0.1615639867932201,0.11270398062599779,-0.24327003727818952,1.2133175233979043,-0.22017875489723504,-0.0076588705488595,-2.6039129207841096,-0.10873931378106022,2.4681807016266712,0.8264772299185641,1.2134413937687574,-0.2202432315892585,-0.0075118285948192216,-2.6038483821997875,-0.10888392708698907,2.4681821257803174,0.826474908251239,-0.0006669082052987324,0.0009887932521376636,0.00012174697710160408,0.0009290621005075612,1.259054886324639e-05,-0.0003229778999195118,0.001066597508086196,0.0,0.0,0.0,0.0,0.0,0.0,0.0,0.00012387037085304087,-6.44766920234463e-05,0.00014704195404027873,6.453858432209358e-05,-0.00014461330592885346,1.4241536461234716e-06,-2.3216673250558983e-06,0.0006669082052987324,-0.0009887932521376636,-0.00012174697710160408,-0.0009290621005075612,-1.259054886324639e-05,0.0003229778999195118,-0.001066597508086196,0.17287558317184448,19.745019912719727,0.2483184039592743,-20.031160354614258,-0.4214377999305725,-2.4951205253601074,0.27591270208358765,0
47,0.2299365997314453,-0.17287558317184448,-19.745019912719727,-0.2483184039592743,20.031160354614258,0.4214377999305725,2.4951205253601074,-0.27591270208358765,0.0,0.0,0.0,0.0,0.0,0.0,0.0,-0.2308606365442754,0.0248489008309689,-0.07394836257981117,0.28954909538515544,-0.1615639867932201,0.11270398062599779,-0.24327003727818952,1.2133175233979043,-0.22017875489723504,-0.0076588705488595,-2.6039129207841096,-0.10873931378106022,2.4681807016266712,0.8264772299185641,1.2134413937687574,-0.2202432315892585,-0.0075118285948192216,-2.6038483821997875,-0.10888392708698907,2.4681821257803174,0.826474908251239,-0.0006669082052987324,0.0009887932521376636,0.00012174697710160408,0.0009290621005075612,1.259054886324639e-05,-0.0003229778999195118,0.001066597508086196,0.0,0.0,0.0,0.0,0.0,0.0,0.0,0.00012387037085304087,-6.44766920234463e-05,0.00014704195404027873,6.453858432209358e-05,-0.00014461330592885346,1.4241536461234716e-06,-2.3216673250558983e-06,0.0006669082052987324,-0.0009887932521376636,-0.00012174697710160408,-0.0009290621005075612,-1.259054886324639e-05,0.0003229778999195118,-0.001066597508086196,0.17287558317184448,19.745019912719727,0.2483184039592743,-20.031160354614258,-0.4214377999305725,-2.4951205253601074,0.27591270208358765,0
48,0.23493123054504395,-0.19667929410934448,-19.693445205688477,-0.2245146930217743,20.054964065551758,0.4214377999305725,2.4887118339538574,-0.24844686686992645,0.0,0.0,0.0,0.0,0.0,0.0,0.0,-0.23563221835241535,0.017025699490672997,-0.07918218354998087,0.2970935362266653,-0.16085847582442625,0.11369007290479388,-0.24410060410561096,1.2133199070783438,-0.220182371618775,-0.007660540984714763,-2.603914599506867,-0.10873895836077101,2.4681814093428436,0.8264778335508454,1.2134413937687574,-0.2202432315892585,-0.0075118285948192216,-2.6038483821997875,-0.10888392708698907,2.4681821257803174,0.826474908251239,-0.00019836842036284887,-0.0009341386286415595,-0.0005006369713343252,0.0007835439182261282,0.00018898965906380633,-9.959562855557613e-05,-0.0002944990337262892,0.0,0.0,0.0,0.0,0.0,0.0,0.0,0.00012148669041356364,-6.085997048349556e-05,0.0001487123898955417,6.621730707934148e-05,-0.0001449687262180671,7.164374737911317e-07,-2.9252996063267034e-06,0.00019836842036284887,0.0009341386286415595,0.0005006369713343252,-0.0007835439182261282,-0.00018898965906380633,9.959562855557613e-05,0.0002944990337262892,0.19667929410934448,19.693445205688477,0.2245146930217743,-20.054964065551758,-0.4214377999305725,-2.4887118339538574,0.24844686686992645,0
49,0.23991918563842773,-0.19667929410934448,-19.693445205688477,-0.2245146930217743,20.054964065551758,0.4214377999305725,2.4887118339538574,-0.24844686686992645,0.0,0.0,0.0,0.0,0.0,0.0,0.0,-0.23563221835241535,0.017025699490672997,-0.07918218354998087,0.2970935362266653,-0.16085847582442625,0.11369007290479388,-0.24410060410561096,1.2133199070783438,-0.220182371618775,-0.007660540984714763,-2.603914599506867,-0.10873895836077101,2.4681814093428436,0.8264778335508454,1.2134413937687574,-0.2202432315892585,-0.0075118285948192216,-2.6038483821997875,-0.10888392708698907,2.4681821257803174,0.826474908251239,-0.00019836842036284887,-0.0009341386286415595,-0.0005006369713343252,0.0007835439182261282,0.00018898965906380633,-9.959562855557613e-05,-0.0002944990337262892,0.0,0.0,0.0,0.0,0.0,0.0,0.0,0.00012148669041356364,-6.085997048349556e-05,0.0001487123898955417,6.621730707934148e-05,-0.0001449687262180671,7.164374737911317e-07,-2.9252996063267034e-06,0.00019836842036284887,0.0009341386286415595,0.0005006369713343252,-0.0007835439182261282,-0.00018898965906380633,9.959562855557613e-05,0.0002944990337262892,0.19667929410934448,19.693445205688477,0.2245146930217743,-20.054964065551758,-0.4214377999305725,-2.4887118339538574,0.24844686686992645,0
50,0.2449321746826172,-0.14510458707809448,-19.693445205688477,-0.2483184039592743,20.054964065551758,0.4214377999305725,2.4887118339538574,-0.21457235515117645,0.0,0.0,0.0,0.0,0.0,0.0,0.0,-0.2328338005085347,0.024739052352987744,-0.07641741980066649,0.29244420516816383,-0.16042660822308372,0.11326384343814284,-0.24546433554706176,1.2133178547695336,-0.22018237223079942,-0.0076588705488595,-2.6039154703234826,-0.10873895835876465,2.4681814137034697,0.8264747882213478,1.2134413937687574,-0.2202432315892585,-0.0075118285948192216,-2.6038483821997875,-0.10888392708698907,2.4681821257803174,0.826474908251239,-0.001945764981435477,-0.0003492772157368116,-0.000418451767330357,0.00040025269757911137,4.582271679083478e-05,-7.824112831246638e-05,-0.0014027434667856144,0.0,0.0,0.0,0.0,0.0,0.0,0.0,0.0001235389992237934,-6.085935845906443e-05,0.00014704195404027873,6.708812369504713e-05,-0.00014496872822442053,7.12076847708687e-07,1.200298912484854e-07,0.001945764981435477,0.0003492772157368116,0.000418451767330357,-0.00040025269757911137,-4.582271679083478e-05,7.824112831246638e-05,0.0014027434667856144,0.14510458707809448,19.693445205688477,0.2483184039592743,-20.054964065551758,-0.4214377999305725,-2.4887118339538574,0.21457235515117645,0
51,0.24992990493774414,-0.14510458707809448,-19.693445205688477,-0.2483184039592743,20.054964065551758,0.4214377999305725,2.4887118339538574,-0.21457235515117645,0.0,0.0,0.0,0.0,0.0,0.0,0.0,-0.2328338005085347,0.024739052352987744,-0.07641741980066649,0.29244420516816383,-0.16042660822308372,0.11326384343814284,-0.24546433554706176,1.2133178547695336,-0.22018237223079942,-0.0076588705488595,-2.6039154703234826,-0.10873895835876465,2.4681814137034697,0.8264747882213478,1.2134413937687574,-0.2202432315892585,-0.0075118285948192216,-2.6038483821997875,-0.10888392708698907,2.4681821257803174,0.826474908251239,-0.001945764981435477,-0.0003492772157368116,-0.000418451767330357,0.00040025269757911137,4.582271679083478e-05,-7.824112831246638e-05,-0.0014027434667856144,0.0,0.0,0.0,0.0,0.0,0.0,0.0,0.0001235389992237934,-6.085935845906443e-05,0.00014704195404027873,6.708812369504713e-05,-0.00014496872822442053,7.12076847708687e-07,1.200298912484854e-07,0.001945764981435477,0.0003492772157368116,0.000418451767330357,-0.00040025269757911137,-4.582271679083478e-05,7.824112831246638e-05,0.0014027434667856144,0.14510458707809448,19.693445205688477,0.2483184039592743,-20.054964065551758,-0.4214377999305725,-2.4887118339538574,0.21457235515117645,0
52,0.2549314498901367,-0.22445029020309448,-19.745019912719727,-0.2721221148967743,20.106538772583008,0.4150291085243225,2.4887118339538574,-0.24112264811992645,0.0,0.0,0.0,0.0,0.0,0.0,0.0,-0.2337961231617328,0.01849628688267666,-0.07735847944790268,0.29510803774072575,-0.1606510851187908,0.11456060536884749,-0.2457469856825896,1.2133211060464748,-0.22017875198105474,-0.0076572001130042365,-2.6039181029846294,-0.10873931254280937,2.468181413703494,0.826473848072981,1.2134413937687574,-0.2202432315892585,-0.0075118285948192216,-2.6038483821997875,-0.10888392708698907,2.4681821257803174,0.826474908251239,-0.0007919049347729595,0.0002984183210539089,-0.0003469866303342012,-0.0008462485474728546,0.00026995207867487955,-8.140696914616465e-05,1.3762686837922689e-05,0.0,0.0,0.0,0.0,0.0,0.0,0.0,0.00012028772228256379,-6.447960820374354e-05,0.0001453715181850149,6.972078484190902e-05,-0.00014461454417970254,7.120768232837804e-07,1.060178258072142e-06,0.0007919049347729595,-0.0002984183210539089,0.0003469866303342012,0.0008462485474728546,-0.00026995207867487955,8.140696914616465e-05,-1.3762686837922689e-05,0.22445029020309448,19.745019912719727,0.2721221148967743,-20.106538772583008,-0.4150291085243225,-2.4887118339538574,0.24112264811992645,0
53,0.2599611282348633,-0.22445029020309448,-19.745019912719727,-0.2721221148967743,20.106538772583008,0.4150291085243225,2.4887118339538574,-0.24112264811992645,0.0,0.0,0.0,0.0,0.0,0.0,0.0,-0.2337961231617328,0.01849628688267666,-0.07735847944790268,0.29510803774072575,-0.1606510851187908,0.11456060536884749,-0.2457469856825896,1.2133211060464748,-0.22017875198105474,-0.0076572001130042365,-2.6039181029846294,-0.10873931254280937,2.468181413703494,0.826473848072981,1.2134413937687574,-0.2202432315892585,-0.0075118285948192216,-2.6038483821997875,-0.10888392708698907,2.4681821257803174,0.826474908251239,-0.0007919049347729595,0.0002984183210539089,-0.0003469866303342012,-0.0008462485474728546,0.00026995207867487955,-8.140696914616465e-05,1.3762686837922689e-05,0.0,0.0,0.0,0.0,0.0,0.0,0.0,0.00012028772228256379,-6.447960820374354e-05,0.0001453715181850149,6.972078484190902e-05,-0.00014461454417970254,7.120768232837804e-07,1.060178258072142e-06,0.0007919049347729595,-0.0002984183210539089,0.0003469866303342012,0.0008462485474728546,-0.00026995207867487955,8.140696914616465e-05,-1.3762686837922689e-05,0.22445029020309448,19.745019912719727,0.2721221148967743,-20.106538772583008,-0.4150291085243225,-2.4887118339538574,0.24112264811992645,0
54,0.26493239402770996,-0.19667929410934448,-19.717248916625977,-0.2721221148967743,20.082735061645508,0.4214377999305725,2.4887118339538574,-0.22830526530742645,0.0,0.0,0.0,0.0,0.0,0.0,0.0,-0.2273088964786507,0.017518346743796424,-0.0710812468646546,0.2937999898478453,-0.16158071861731588,0.11499544657796999,-0.2457735798990221,1.2133191561740915,-0.22018070082288038,-0.0076572001130042365,-2.6039186554091827,-0.10873895837682186,2.468181413703494,0.8264761971582177,1.2134413937687574,-0.2202432315892585,-0.0075118285948192216,-2.6038483821997875,-0.10888392708698907,2.4681821257803174,0.826474908251239,-0.0008367393619604512,-0.0008201417551290587,0.00016129316585405094,-0.000121428417389348,0.00012063119284267717,4.664372644612527e-05,-0.0006553244093338386,0.0,0.0,0.0,0.0,0.0,0.0,0.0,0.00012223759466589712,-6.253076637810495e-05,0.0001453715181850149,7.027320939512194e-05,-0.00014496871016721202,7.120768232837804e-07,-1.288906978702542e-06,0.0008367393619604512,0.0008201417551290587,-0.00016129316585405094,0.000121428417389348,-0.00012063119284267717,-4.664372644612527e-05,0.0006553244093338386,0.19667929410934448,19.717248916625977,0.2721221148967743,-20.082735061645508,-0.4214377999305725,-2.4887118339538574,0.22830526530742645,0
55,0.2699320316314697,-0.19667929410934448,-19.717248916625977,-0.2721221148967743,20.082735061645508,0.4214377999305725,2.4887118339538574,-0.22830526530742645,0.0,0.0,0.0,0.0,0.0,0.0,0.0,-0.2273088964786507,0.017518346743796424,-0.0710812468646546,0.2937999898478453,-0.16158071861731588,0.11499544657796999,-0.2457735798990221,1.2133191561740915,-0.22018070082288038,-0.0076572001130042365,-2.6039186554091827,-0.10873895837682186,2.468181413703494,0.8264761971582177,1.2134413937687574,-0.2202432315892585,-0.0075118285948192216,-2.6038483821997875,-0.10888392708698907,2.4681821257803174,0.826474908251239,-0.0008367393619604512,-0.0008201417551290587,0.00016129316585405094,-0.000121428417389348,0.00012063119284267717,4.664372644612527e-05,-0.0006553244093338386,0.0,0.0,0.0,0.0,0.0,0.0,0.0,0.00012223759466589712,-6.253076637810495e-05,0.0001453715181850149,7.027320939512194e-05,-0.00014496871016721202,7.120768232837804e-07,-1.288906978702542e-06,0.0008367393619604512,0.0008201417551290587,-0.00016129316585405094,0.000121428417389348,-0.00012063119284267717,-4.664372644612527e-05,0.0006553244093338386,0.19667929410934448,19.717248916625977,0.2721221148967743,-20.082735061645508,-0.4214377999305725,-2.4887118339538574,0.22830526530742645,0
56,0.2749316692352295,-0.19667929410934448,-19.717248916625977,-0.2721221148967743,20.082735061645508,0.4214377999305725,2.4887118339538574,-0.22830526530742645,0.0,0.0,0.0,0.0,0.0,0.0,0.0,-0.2273088964786507,0.017518346743796424,-0.0710812468646546,0.2937999898478453,-0.16158071861731588,0.11499544657796999,-0.2457735798990221,1.2133191561740915,-0.22018070082288038,-0.0076572001130042365,-2.6039186554091827,-0.10873895837682186,2.468181413703494,0.8264761971582177,1.2134413937687574,-0.2202432315892585,-0.0075118285948192216,-2.6038483821997875,-0.10888392708698907,2.4681821257803174,0.826474908251239,-0.0008367393619604512,-0.0008201417551290587,0.00016129316585405094,-0.000121428417389348,0.00012063119284267717,4.664372644612527e-05,-0.0006553244093338386,0.0,0.0,0.0,0.0,0.0,0.0,0.0,0.00012223759466589712,-6.253076637810495e-05,0.0001453715181850149,7.027320939512194e-05,-0.00014496871016721202,7.120768232837804e-07,-1.288906978702542e-06,0.0008367393619604512,0.0008201417551290587,-0.00016129316585405094,0.000121428417389348,-0.00012063119284267717,-4.664372644612527e-05,0.0006553244093338386,0.19667929410934448,19.717248916625977,0.2721221148967743,-20.082735061645508,-0.4214377999305725,-2.4887118339538574,0.22830526530742645,0
57,0.27993202209472656,-0.19667929410934448,-19.717248916625977,-0.2721221148967743,20.082735061645508,0.4214377999305725,2.4887118339538574,-0.22830526530742645,0.0,0.0,0.0,0.0,0.0,0.0,0.0,-0.2273088964786507,0.017518346743796424,-0.0710812468646546,0.2937999898478453,-0.16158071861731588,0.11499544657796999,-0.2457735798990221,1.2133191561740915,-0.22018070082288038,-0.0076572001130042365,-2.6039186554091827,-0.10873895837682186,2.468181413703494,0.8264761971582177,1.2134413937687574,-0.2202432315892585,-0.0075118285948192216,-2.6038483821997875,-0.10888392708698907,2.4681821257803174,0.826474908251239,-0.0008367393619604512,-0.0008201417551290587,0.00016129316585405094,-0.000121428417389348,0.00012063119284267717,4.664372644612527e-05,-0.0006553244093338386,0.0,0.0,0.0,0.0,0.0,0.0,0.0,0.00012223759466589712,-6.253076637810495e-05,0.0001453715181850149,7.027320939512194e-05,-0.00014496871016721202,7.120768232837804e-07,-1.288906978702542e-06,0.0008367393619604512,0.0008201417551290587,-0.00016129316585405094,0.000121428417389348,-0.00012063119284267717,-4.664372644612527e-05,0.0006553244093338386,0.19667929410934448,19.717248916625977,0.2721221148967743,-20.082735061645508,-0.4214377999305725,-2.4887118339538574,0.22830526530742645,0
58,0.28492307662963867,-0.17287558317184448,-19.717248916625977,-0.2245146930217743,20.054964065551758,0.4214377999305725,2.4887118339538574,-0.24112264811992645,0.0,0.0,0.0,0.0,0.0,0.0,0.0,-0.22635780941539158,0.015061987957731561,-0.07057635999087469,0.2928200764769672,-0.16174077900932876,0.11527779502533005,-0.24510879356698462,1.213317578341931,-0.2201814097919007,-0.0076605413094450805,-2.60391671776382,-0.10873895835876467,2.468181413703494,0.8264738406448391,1.2134413937687574,-0.2202432315892585,-0.0075118285948192216,-2.6038483821997875,-0.10888392708698907,2.4681821257803174,0.826474908251239,-0.0009532957985455311,-0.00037277339312334547,-0.0005622795836150225,0.0002845198030372212,0.0002331136178324167,-0.00018094882139211207,0.00017655222269226986,0.0,0.0,0.0,0.0,0.0,0.0,0.0,0.00012381542682637914,-6.18217973577806e-05,0.00014871271462585899,6.833556403229579e-05,-0.00014496872822440665,7.120768232837804e-07,1.067606399951515e-06,0.0009532957985455311,0.00037277339312334547,0.0005622795836150225,-0.0002845198030372212,-0.0002331136178324167,0.00018094882139211207,-0.00017655222269226986,0.17287558317184448,19.717248916625977,0.2245146930217743,-20.054964065551758,-0.4214377999305725,-2.4887118339538574,0.24112264811992645,0
59,0.2899208068847656,-0.17287558317184448,-19.717248916625977,-0.2245146930217743,20.054964065551758,0.4214377999305725,2.4887118339538574,-0.24112264811992645,0.0,0.0,0.0,0.0,0.0,0.0,0.0,-0.22635780941539158,0.015061987957731561,-0.07057635999087469,0.2928200764769672,-0.16174077900932876,0.11527779502533005,-0.24510879356698462,1.213317578341931,-0.2201814097919007,-0.0076605413094450805,-2.60391671776382,-0.10873895835876467,2.468181413703494,0.8264738406448391,1.2134413937687574,-0.2202432315892585,-0.0075118285948192216,-2.6038483821997875,-0.10888392708698907,2.4681821257803174,0.826474908251239,-0.0009532957985455311,-0.00037277339312334547,-0.0005622795836150225,0.0002845198030372212,0.0002331136178324167,-0.00018094882139211207,0.00017655222269226986,0.0,0.0,0.0,0.0,0.0,0.0,0.0,0.00012381542682637914,-6.18217973577806e-05,0.00014871271462585899,6.833556403229579e-05,-0.00014496872822440665,7.120768232837804e-07,1.067606399951515e-06,0.0009532957985455311,0.00037277339312334547,0.0005622795836150225,-0.0002845198030372212,-0.0002331136178324167,0.00018094882139211207,-0.00017655222269226986,0.17287558317184448,19.717248916625977,0.2245146930217743,-20.054964065551758,-0.4214377999305725,-2.4887118339538574,0.24112264811992645,0
60,0.29494690895080566,-0.14510458707809448,-19.717248916625977,-0.2245146930217743,20.054964065551758,0.4269309639930725,2.4887118339538574,-0.24844686686992645,0.0,0.0,0.0,0.0,0.0,0.0,0.0,-0.22485258574636058,0.016471675835212446,-0.0675732027755241,0.28761836076741637,-0.16143612242437358,0.11453463877600023,-0.24492227827637283,1.2133163621914844,-0.2201828267338838,-0.007660540984720262,-2.6039147581210806,-0.10873956871032714,2.468181413703494,0.8264752379493023,1.2134413937687574,-0.2202432315892585,-0.0075118285948192216,-2.6038483821997875,-0.10888392708698907,2.4681821257803174,0.826474908251239,-0.0016773209214127264,-9.540500742613203e-05,-0.00027495995591312114,-0.0001474870041803888,-0.0001682025113522601,-0.00019984569981747687,0.000239009531540979,0.0,0.0,0.0,0.0,0.0,0.0,0.0,0.00012503157727294933,-6.040485537467388e-05,0.00014871238990104077,6.637592129310477e-05,-0.00014435837666193496,7.120768232837804e-07,-3.2969806329496976e-07,0.0016773209214127264,9.540500742613203e-05,0.00027495995591312114,0.0001474870041803888,0.0001682025113522601,0.00019984569981747687,-0.000239009531540979,0.14510458707809448,19.717248916625977,0.2245146930217743,-20.054964065551758,-0.4269309639930725,-2.4887118339538574,0.24844686686992645,0
61,0.2999305725097656,-0.14510458707809448,-19.717248916625977,-0.2245146930217743,20.054964065551758,0.4269309639930725,2.4887118339538574,-0.24844686686992645,0.0,0.0,0.0,0.0,0.0,0.0,0.0,-0.22485258574636058,0.016471675835212446,-0.0675732027755241,0.28761836076741637,-0.16143612242437358,0.11453463877600023,-0.24492227827637283,1.2133163621914844,-0.2201828267338838,-0.007660540984720262,-2.6039147581210806,-0.10873956871032714,2.468181413703494,0.8264752379493023,1.2134413937687574,-0.2202432315892585,-0.0075118285948192216,-2.6038483821997875,-0.10888392708698907,2.4681821257803174,0.826474908251239,-0.0016773209214127264,-9.540500742613203e-05,-0.00027495995591312114,-0.0001474870041803888,-0.0001682025113522601,-0.00019984569981747687,0.000239009531540979,0.0,0.0,0.0,0.0,0.0,0.0,0.0,0.00012503157727294933,-6.040485537467388e-05,0.00014871238990104077,6.637592129310477e-05,-0.00014435837666193496,7.120768232837804e-07,-3.2969806329496976e-07,0.0016773209214127264,9.540500742613203e-05,0.00027495995591312114,0.0001474870041803888,0.0001682025113522601,0.00019984569981747687,-0.000239009531540979,0.14510458707809448,19.717248916625977,0.2245146930217743,-20.054964065551758,-0.4269309639930725,-2.4887118339538574,0.24844686686992645,0
62,0.3049321174621582,-0.22445029020309448,-19.693445205688477,-0.2998931109905243,20.031160354614258,0.4269309639930725,2.4823031425476074,-0.21457235515117645,0.0,0.0,0.0,0.0,0.0,0.0,0.0,-0.22807959847952228,0.016559773467651077,-0.07172604980196308,0.2897675374025567,-0.16091941208343422,0.11489866192004247,-0.24524766964704137,1.2133211050551427,-0.22018237223479767,-0.007655251271173096,-2.6039128102135662,-0.10873956871032714,2.468182125780317,0.8264739508499456,1.2134413937687574,-0.2202432315892585,-0.0075118285948192216,-2.6038483821997875,-0.10888392708698907,2.4681821257803174,0.826474908251239,0.00027256833817783474,-0.0001480171680026253,0.00023466058096666468,0.0010043478372406508,-1.544361417096963e-05,-4.7023123433003185e-05,-0.0009480354190404025,0.0,0.0,0.0,0.0,0.0,0.0,0.0,0.00012028871361469129,-6.085935446081825e-05,0.00014342267635387464,6.442801377870566e-05,-0.00014435837666193496,4.440892098500626e-16,9.574012934665532e-07,-0.00027256833817783474,0.0001480171680026253,-0.00023466058096666468,-0.0010043478372406508,1.544361417096963e-05,4.7023123433003185e-05,0.0009480354190404025,0.22445029020309448,19.693445205688477,0.2998931109905243,-20.031160354614258,-0.4269309639930725,-2.4823031425476074,0.21457235515117645,0
63,0.3099367618560791,-0.22445029020309448,-19.693445205688477,-0.2998931109905243,20.031160354614258,0.4269309639930725,2.4823031425476074,-0.21457235515117645,0.0,0.0,0.0,0.0,0.0,0.0,0.0,-0.22807959847952228,0.016559773467651077,-0.07172604980196308,0.2897675374025567,-0.16091941208343422,0.11489866192004247,-0.24524766964704137,1.2133211050551427,-0.22018237223479767,-0.007655251271173096,-2.6039128102135662,-0.10873956871032714,2.468182125780317,0.8264739508499456,1.2134413937687574,-0.2202432315892585,-0.0075118285948192216,-2.6038483821997875,-0.10888392708698907,2.4681821257803174,0.826474908251239,0.00027256833817783474,-0.0001480171680026253,0.00023466058096666468,0.0010043478372406508,-1.544361417096963e-05,-4.7023123433003185e-05,-0.0009480354190404025,0.0,0.0,0.0,0.0,0.0,0.0,0.0,0.00012028871361469129,-6.085935446081825e-05,0.00014342267635387464,6.442801377870566e-05,-0.00014435837666193496,4.440892098500626e-16,9.574012934665532e-07,-0.00027256833817783474,0.0001480171680026253,-0.00023466058096666468,-0.0010043478372406508,1.544361417096963e-05,4.7023123433003185e-05,0.0009480354190404025,0.22445029020309448,19.693445205688477,0.2998931109905243,-20.031160354614258,-0.4269309639930725,-2.4823031425476074,0.21457235515117645,0
64,0.3149256706237793,-0.22445029020309448,-19.693445205688477,-0.3236968219280243,20.082735061645508,0.4214377999305725,2.4951205253601074,-0.24112264811992645,0.0,0.0,0.0,0.0,0.0,0.0,0.0,-0.2288708096707675,0.017129142654817752,-0.07779224373993433,0.2881976679076571,-0.16066625374630863,0.11459521003938336,-0.2432067313625896,1.2133221033195978,-0.22018240722502508,-0.007653580835317833,-2.6039196444047144,-0.10873895835876464,2.4681807016266712,0.8264745414655565,1.2134413937687574,-0.2202432315892585,-0.0075118285948192216,-2.6038483821997875,-0.10888392708698907,2.4681821257803174,0.826474908251239,-0.0006413566152110585,-0.0006559692803479203,0.00038738958018694496,-0.00045909373251835944,-2.0301708877956688e-05,-0.00023822415180065355,0.00043946413954779414,0.0,0.0,0.0,0.0,0.0,0.0,0.0,0.00011929044915959253,-6.082436423340831e-05,0.00014175224049861167,7.126220492681412e-05,-0.0001449687282244344,1.4241536461234716e-06,3.6678568249293164e-07,0.0006413566152110585,0.0006559692803479203,-0.00038738958018694496,0.00045909373251835944,2.0301708877956688e-05,0.00023822415180065355,-0.00043946413954779414,0.22445029020309448,19.693445205688477,0.3236968219280243,-20.082735061645508,-0.4214377999305725,-2.4951205253601074,0.24112264811992645,0
65,0.3199324607849121,-0.22445029020309448,-19.693445205688477,-0.3236968219280243,20.082735061645508,0.4214377999305725,2.4951205253601074,-0.24112264811992645,0.0,0.0,0.0,0.0,0.0,0.0,0.0,-0.2288708096707675,0.017129142654817752,-0.07779224373993433,0.2881976679076571,-0.16066625374630863,0.11459521003938336,-0.2432067313625896,1.2133221033195978,-0.22018240722502508,-0.007653580835317833,-2.6039196444047144,-0.10873895835876464,2.4681807016266712,0.8264745414655565,1.2134413937687574,-0.2202432315892585,-0.0075118285948192216,-2.6038483821997875,-0.10888392708698907,2.4681821257803174,0.826474908251239,-0.0006413566152110585,-0.0006559692803479203,0.00038738958018694496,-0.00045909373251835944,-2.0301708877956688e-05,-0.00023822415180065355,0.00043946413954779414,0.0,0.0,0.0,0.0,0.0,0.0,0.0,0.00011929044915959253,-6.082436423340831e-05,0.00014175224049861167,7.126220492681412e-05,-0.0001449687282244344,1.4241536461234716e-06,3.6678568249293164e-07,0.0006413566152110585,0.0006559692803479203,-0.00038738958018694496,0.00045909373251835944,2.0301708877956688e-05,0.00023822415180065355,-0.00043946413954779414,0.22445029020309448,19.693445205688477,0.3236968219280243,-20.082735061645508,-0.4214377999305725,-2.4951205253601074,0.24112264811992645,0
66,0.32493090629577637,-0.2720577120780945,-19.745019912719727,-0.2483184039592743,20.082735061645508,0.4214377999305725,2.4887118339538574,-0.26217979192733765,0.0,0.0,0.0,0.0,0.0,0.0,0.0,-0.229087834388867,0.017114442360399523,-0.08044891069043628,0.28583935370508906,-0.16091601981379797,0.11455096900720027,-0.24097747901606367,1.213324456068103,-0.22017946061425128,-0.0076588705488595,-2.603916790527693,-0.10873895835876464,2.468181413703494,0.826479903012009,1.2134413937687574,-0.2202432315892585,-0.0075118285948192216,-2.6038483821997875,-0.10888392708698907,2.4681821257803174,0.826474908251239,-3.341230729796595e-05,0.00016536570721055978,-0.0011937497596574732,-0.0009523172736001477,0.00016513667206066398,-0.00016434181367629608,0.0009669302221511647,0.0,0.0,0.0,0.0,0.0,0.0,0.0,0.00011693770065446252,-6.377097500720463e-05,0.00014704195404027873,6.840832790544482e-05,-0.0001449687282244344,7.120768232837804e-07,-4.994760769982953e-06,3.341230729796595e-05,-0.00016536570721055978,0.0011937497596574732,0.0009523172736001477,-0.00016513667206066398,0.00016434181367629608,-0.0009669302221511647,0.2720577120780945,19.745019912719727,0.2483184039592743,-20.082735061645508,-0.4214377999305725,-2.4887118339538574,0.26217979192733765,0
67,0.32991933822631836,-0.2720577120780945,-19.745019912719727,-0.2483184039592743,20.082735061645508,0.4214377999305725,2.4887118339538574,-0.26217979192733765,0.0,0.0,0.0,0.0,0.0,0.0,0.0,-0.229087834388867,0.017114442360399523,-0.08044891069043628,0.28583935370508906,-0.16091601981379797,0.11455096900720027,-0.24097747901606367,1.213324456068103,-0.22017946061425128,-0.0076588705488595,-2.603916790527693,-0.10873895835876464,2.468181413703494,0.826479903012009,1.2134413937687574,-0.2202432315892585,-0.0075118285948192216,-2.6038483821997875,-0.10888392708698907,2.4681821257803174,0.826474908251239,-3.341230729796595e-05,0.00016536570721055978,-0.0011937497596574732,-0.0009523172736001477,0.00016513667206066398,-0.00016434181367629608,0.0009669302221511647,0.0,0.0,0.0,0.0,0.0,0.0,0.0,0.00011693770065446252,-6.377097500720463e-05,0.00014704195404027873,6.840832790544482e-05,-0.0001449687282244344,7.120768232837804e-07,-4.994760769982953e-06,3.341230729796595e-05,-0.00016536570721055978,0.0011937497596574732,0.0009523172736001477,-0.00016513667206066398,0.00016434181367629608,-0.0009669302221511647,0.2720577120780945,19.745019912719727,0.2483184039592743,-20.082735061645508,-0.4214377999305725,-2.4887118339538574,0.26217979192733765,0
68,0.3349330425262451,-0.24825400114059448,-19.745019912719727,-0.2245146930217743,20.054964065551758,0.4333396553993225,2.4951205253601074,-0.26217979192733765,0.0,0.0,0.0,0.0,0.0,0.0,0.0,-0.22591369789539806,0.009421072329218606,-0.07266913746664223,0.2907540693099947,-0.16124824956425057,0.11570828284560686,-0.24020590239254436,1.2133228039790873,-0.22017898823205145,-0.007660540984714763,-2.6039147307261836,-0.10874028078715005,2.4681807016266712,0.8264761417255477,1.2134413937687574,-0.2202432315892585,-0.0075118285948192216,-2.6038483821997875,-0.10888392708698907,2.4681821257803174,0.826474908251239,0.0003445930901541022,-1.76563184094548e-05,-0.0004063576812612336,0.000669322871486218,-0.0005553187057720482,-0.00032966182943098746,0.0011067278768384086,0.0,0.0,0.0,0.0,0.0,0.0,0.0,0.00011858978967005385,-6.424335720703334e-05,0.0001487123898955417,6.634852639608724e-05,-0.00014364629983902588,1.4241536461234716e-06,-1.2334743086928057e-06,-0.0003445930901541022,1.76563184094548e-05,0.0004063576812612336,-0.000669322871486218,0.0005553187057720482,0.00032966182943098746,-0.0011067278768384086,0.24825400114059448,19.745019912719727,0.2245146930217743,-20.054964065551758,-0.4333396553993225,-2.4951205253601074,0.26217979192733765,0
69,0.33992934226989746,-0.24825400114059448,-19.745019912719727,-0.2245146930217743,20.054964065551758,0.4333396553993225,2.4951205253601074,-0.26217979192733765,0.0,0.0,0.0,0.0,0.0,0.0,0.0,-0.22591369789539806,0.009421072329218606,-0.07266913746664223,0.2907540693099947,-0.16124824956425057,0.11570828284560686,-0.24020590239254436,1.2133228039790873,-0.22017898823205145,-0.007660540984714763,-2.6039147307261836,-0.10874028078715005,2.4681807016266712,0.8264761417255477,1.2134413937687574,-0.2202432315892585,-0.0075118285948192216,-2.6038483821997875,-0.10888392708698907,2.4681821257803174,0.826474908251239,0.0003445930901541022,-1.76563184094548e-05,-0.0004063576812612336,0.000669322871486218,-0.0005553187057720482,-0.00032966182943098746,0.0011067278768384086,0.0,0.0,0.0,0.0,0.0,0.0,0.0,0.00011858978967005385,-6.424335720703334e-05,0.0001487123898955417,6.634852639608724e-05,-0.00014364629983902588,1.4241536461234716e-06,-1.2334743086928057e-06,-0.0003445930901541022,1.76563184094548e-05,0.0004063576812612336,-0.000669322871486218,0.0005553187057720482,0.00032966182943098746,-0.0011067278768384086,0.24825400114059448,19.745019912719727,0.2245146930217743,-20.054964065551758,-0.4333396553993225,-2.4951205253601074,0.26217979192733765,0
70,0.34493279457092285,-0.22445029020309448,-19.745019912719727,-0.2007109820842743,20.106538772583008,0.4269309639930725,2.4758944511413574,-0.21457235515117645,0.0,0.0,0.0,0.0,0.0,0.0,0.0,-0.22789549009733398,0.01335589057883062,-0.07113809838143277,0.2843225846210809,-0.16173275004259477,0.11473522309412125,-0.23961123965266673,1.2133236049771343,-0.22017875489856809,-0.007662211420570026,-2.6039183473276344,-0.10873956871032714,2.46818283785714,0.8264746654589408,1.2134413937687574,-0.2202432315892585,-0.0075118285948192216,-2.6038483821997875,-0.10888392708698907,2.4681821257803174,0.826474908251239,0.0009276142607762721,0.0002052587213456981,-0.0014081801098580593,-0.0009137659699511312,-8.831615804390977e-05,0.0004435807716978009,-0.0014347297304963945,0.0,0.0,0.0,0.0,0.0,0.0,0.0,0.00011778879162305245,-6.447669069040152e-05,0.00015038282575080466,6.996512784684938e-05,-0.00014435837666193496,-7.120768228396912e-07,2.427922982661812e-07,-0.0009276142607762721,-0.0002052587213456981,0.0014081801098580593,0.0009137659699511312,8.831615804390977e-05,-0.0004435807716978009,0.0014347297304963945,0.22445029020309448,19.745019912719727,0.2007109820842743,-20.106538772583008,-0.4269309639930725,-2.4758944511413574,0.21457235515117645,0
71,0.3499274253845215,-0.22445029020309448,-19.745019912719727,-0.2007109820842743,20.106538772583008,0.4269309639930725,2.4758944511413574,-0.21457235515117645,0.0,0.0,0.0,0.0,0.0,0.0,0.0,-0.22789549009733398,0.01335589057883062,-0.07113809838143277,0.2843225846210809,-0.16173275004259477,0.11473522309412125,-0.23961123965266673,1.2133236049771343,-0.22017875489856809,-0.007662211420570026,-2.6039183473276344,-0.10873956871032714,2.46818283785714,0.8264746654589408,1.2134413937687574,-0.2202432315892585,-0.0075118285948192216,-2.6038483821997875,-0.10888392708698907,2.4681821257803174,0.826474908251239,0.0009276142607762721,0.0002052587213456981,-0.0014081801098580593,-0.0009137659699511312,-8.831615804390977e-05,0.0004435807716978009,-0.0014347297304963945,0.0,0.0,0.0,0.0,0.0,0.0,0.0,0.00011778879162305245,-6.447669069040152e-05,0.00015038282575080466,6.996512784684938e-05,-0.00014435837666193496,-7.120768228396912e-07,2.427922982661812e-07,-0.0009276142607762721,-0.0002052587213456981,0.0014081801098580593,0.0009137659699511312,8.831615804390977e-05,-0.0004435807716978009,0.0014347297304963945,0.22445029020309448,19.745019912719727,0.2007109820842743,-20.106538772583008,-0.4269309639930725,-2.4758944511413574,0.21457235515117645,0
72,0.354933500289917,-0.17287558317184448,-19.717248916625977,-0.2483184039592743,20.031160354614258,0.4269309639930725,2.4823031425476074,-0.26217979192733765,0.0,0.0,0.0,0.0,0.0,0.0,0.0,-0.22138709980706872,0.0164806055060452,-0.06522832487699377,0.28256341120078793,-0.16146395071653866,0.11366611729378412,-0.2389987394382857,1.2133197140354501,-0.22018070082288588,-0.0076588705488595,-2.603912895456156,-0.10873968718375687,2.468182125780317,0.8264771992482508,1.2134413937687574,-0.2202432315892585,-0.0075118285948192216,-2.6038483821997875,-0.10888392708698907,2.4681821257803174,0.826474908251239,-0.00028371468277070685,2.693128301104883e-06,0.0003265524502576764,0.0007705065635301394,-0.0001938863426749433,-4.248206081537193e-05,0.001137155561027344,0.0,0.0,0.0,0.0,0.0,0.0,0.0,0.00012167973330723392,-6.253076637260935e-05,0.00014704195404027873,6.45132563685813e-05,-0.0001442399032322017,4.440892098500626e-16,-2.2909970117668266e-06,0.00028371468277070685,-2.693128301104883e-06,-0.0003265524502576764,-0.0007705065635301394,0.0001938863426749433,4.248206081537193e-05,-0.001137155561027344,0.17287558317184448,19.717248916625977,0.2483184039592743,-20.031160354614258,-0.4269309639930725,-2.4823031425476074,0.26217979192733765,0
73,0.35993027687072754,-0.17287558317184448,-19.717248916625977,-0.2483184039592743,20.031160354614258,0.4269309639930725,2.4823031425476074,-0.26217979192733765,0.0,0.0,0.0,0.0,0.0,0.0,0.0,-0.22138709980706872,0.0164806055060452,-0.06522832487699377,0.28256341120078793,-0.16146395071653866,0.11366611729378412,-0.2389987394382857,1.2133197140354501,-0.22018070082288588,-0.0076588705488595,-2.603912895456156,-0.10873968718375687,2.468182125780317,0.8264771992482508,1.2134413937687574,-0.2202432315892585,-0.0075118285948192216,-2.6038483821997875,-0.10888392708698907,2.4681821257803174,0.826474908251239,-0.00028371468277070685,2.693128301104883e-06,0.0003265524502576764,0.0007705065635301394,-0.0001938863426749433,-4.248206081537193e-05,0.001137155561027344,0.0,0.0,0.0,0.0,0.0,0.0,0.0,0.00012167973330723392,-6.253076637260935e-05,0.00014704195404027873,6.45132563685813e-05,-0.0001442399032322017,4.440892098500626e-16,-2.2909970117668266e-06,0.00028371468277070685,-2.693128301104883e-06,-0.0003265524502576764,-0.0007705065635301394,0.0001938863426749433,4.248206081537193e-05,-0.001137155561027344,0.17287558317184448,19.717248916625977,0.2483184039592743,-20.031160354614258,-0.4269309639930725,-2.4823031425476074,0.26217979192733765,0
74,0.3649320602416992,-0.24825400114059448,-19.717248916625977,-0.2721221148967743,20.031160354614258,0.4150291085243225,2.4758944511413574,-0.24844686686992645,0.0,0.0,0.0,0.0,0.0,0.0,0.0,-0.22543668755217544,0.016154463365348242,-0.06899339965748064,0.28377322127353977,-0.16067553385495792,0.11285731111043823,-0.23938539456027266,1.2133227755773932,-0.22018077955988027,-0.0076572001130042365,-2.603915047361943,-0.1087382462826105,2.46818283785714,0.826475250385158,1.2134413937687574,-0.2202432315892585,-0.0075118285948192216,-2.6038483821997875,-0.10888392708698907,2.4681821257803174,0.826474908251239,0.0004600997131265031,0.00017426923655699245,0.00046428212075710733,0.0003082178006738436,0.00038199590591690594,0.00033305507488938166,-5.145511332867509e-06,0.0,0.0,0.0,0.0,0.0,0.0,0.0,0.00011861819136416152,-6.24520293782127e-05,0.0001453715181850149,6.666516215547702e-05,-0.0001456808043785729,-7.120768228396912e-07,-3.421339189735306e-07,-0.0004600997131265031,-0.00017426923655699245,-0.00046428212075710733,-0.0003082178006738436,-0.00038199590591690594,-0.00033305507488938166,5.145511332867509e-06,0.24825400114059448,19.717248916625977,0.2721221148967743,-20.031160354614258,-0.4150291085243225,-2.4758944511413574,0.24844686686992645,0
75,0.3699343204498291,-0.24825400114059448,-19.717248916625977,-0.2721221148967743,20.031160354614258,0.4150291085243225,2.4758944511413574,-0.24844686686992645,0.0,0.0,0.0,0.0,0.0,0.0,0.0,-0.22543668755217544,0.016154463365348242,-0.06899339965748064,0.28377322127353977,-0.16067553385495792,0.11285731111043823,-0.23938539456027266,1.2133227755773932,-0.22018077955988027,-0.0076572001130042365,-2.603915047361943,-0.1087382462826105,2.46818283785714,0.826475250385158,1.2134413937687574,-0.2202432315892585,-0.0075118285948192216,-2.6038483821997875,-0.10888392708698907,2.4681821257803174,0.826474908251239,0.0004600997131265031,0.00017426923655699245,0.00046428212075710733,0.0003082178006738436,0.00038199590591690594,0.00033305507488938166,-5.145511332867509e-06,0.0,0.0,0.0,0.0,0.0,0.0,0.0,0.00011861819136416152,-6.24520293782127e-05,0.0001453715181850149,6.666516215547702e-05,-0.0001456808043785729,-7.120768228396912e-07,-3.421339189735306e-07,-0.0004600997131265031,-0.00017426923655699245,-0.00046428212075710733,-0.0003082178006738436,-0.00038199590591690594,-0.00033305507488938166,5.145511332867509e-06,0.24825400114059448,19.717248916625977,0.2721221148967743,-20.031160354614258,-0.4150291085243225,-2.4758944511413574,0.24844686686992645,0
76,0.37493300437927246,-0.24825400114059448,-19.717248916625977,-0.2483184039592743,20.054964065551758,0.4214377999305725,2.4758944511413574,-0.21457235515117645,0.0,0.0,0.0,0.0,0.0,0.0,0.0,-0.22077908858986736,0.01356169660143097,-0.06356572529836224,0.28488950563109655,-0.1606360660935844,0.11308073278836064,-0.24028566259984335,1.2133231095260595,-0.22018072706899147,-0.0076588705488595,-2.6039145077944674,-0.10873907683219439,2.46818283785714,0.8264739212986321,1.2134413937687574,-0.2202432315892585,-0.0075118285948192216,-2.6038483821997875,-0.10888392708698907,2.4681821257803174,0.826474908251239,0.00045483579541739596,-0.00038637879178330905,-0.0003436806936335952,-0.0001771623947018121,2.6583154769327097e-05,0.0004253636618066406,-0.0010194313065749936,0.0,0.0,0.0,0.0,0.0,0.0,0.0,0.00011828424269788584,-6.250452026701492e-05,0.00014704195404027873,6.612559467988888e-05,-0.00014485025479468727,-7.120768228396912e-07,9.86952606973901e-07,-0.00045483579541739596,0.00038637879178330905,0.0003436806936335952,0.0001771623947018121,-2.6583154769327097e-05,-0.0004253636618066406,0.0010194313065749936,0.24825400114059448,19.717248916625977,0.2483184039592743,-20.054964065551758,-0.4214377999305725,-2.4758944511413574,0.21457235515117645,0
77,0.3799319267272949,-0.24825400114059448,-19.717248916625977,-0.2483184039592743,20.054964065551758,0.4214377999305725,2.4758944511413574,-0.21457235515117645,0.0,0.0,0.0,0.0,0.0,0.0,0.0,-0.22077908858986736,0.01356169660143097,-0.06356572529836224,0.28488950563109655,-0.1606360660935844,0.11308073278836064,-0.24028566259984335,1.2133231095260595,-0.22018072706899147,-0.0076588705488595,-2.6039145077944674,-0.10873907683219439,2.46818283785714,0.8264739212986321,1.2134413937687574,-0.2202432315892585,-0.0075118285948192216,-2.6038483821997875,-0.10888392708698907,2.4681821257803174,0.826474908251239,0.00045483579541739596,-0.00038637879178330905,-0.0003436806936335952,-0.0001771623947018121,2.6583154769327097e-05,0.0004253636618066406,-0.0010194313065749936,0.0,0.0,0.0,0.0,0.0,0.0,0.0,0.00011828424269788584,-6.250452026701492e-05,0.00014704195404027873,6.612559467988888e-05,-0.00014485025479468727,-7.120768228396912e-07,9.86952606973901e-07,-0.00045483579541739596,0.00038637879178330905,0.0003436806936335952,0.0001771623947018121,-2.6583154769327097e-05,-0.0004253636618066406,0.0010194313065749936,0.24825400114059448,19.717248916625977,0.2483184039592743,-20.054964065551758,-0.4214377999305725,-2.4758944511413574,0.21457235515117645,0
78,0.384932279586792,-0.24825400114059448,-19.717248916625977,-0.2483184039592743,20.054964065551758,0.4214377999305725,2.4758944511413574,-0.21457235515117645,0.0,0.0,0.0,0.0,0.0,0.0,0.0,-0.22077908858986736,0.01356169660143097,-0.06356572529836224,0.28488950563109655,-0.1606360660935844,0.11308073278836064,-0.24028566259984335,1.2133231095260595,-0.22018072706899147,-0.0076588705488595,-2.6039145077944674,-0.10873907683219439,2.46818283785714,0.8264739212986321,1.2134413937687574,-0.2202432315892585,-0.0075118285948192216,-2.6038483821997875,-0.10888392708698907,2.4681821257803174,0.826474908251239,0.00045483579541739596,-0.00038637879178330905,-0.0003436806936335952,-0.0001771623947018121,2.6583154769327097e-05,0.0004253636618066406,-0.0010194313065749936,0.0,0.0,0.0,0.0,0.0,0.0,0.0,0.00011828424269788584,-6.250452026701492e-05,0.00014704195404027873,6.612559467988888e-05,-0.00014485025479468727,-7.120768228396912e-07,9.86952606973901e-07,-0.00045483579541739596,0.00038637879178330905,0.0003436806936335952,0.0001771623947018121,-2.6583154769327097e-05,-0.0004253636618066406,0.0010194313065749936,0.24825400114059448,19.717248916625977,0.2483184039592743,-20.054964065551758,-0.4214377999305725,-2.4758944511413574,0.21457235515117645,0
79,0.38993310928344727,-0.24825400114059448,-19.717248916625977,-0.2483184039592743,20.054964065551758,0.4214377999305725,2.4758944511413574,-0.21457235515117645,0.0,0.0,0.0,0.0,0.0,0.0,0.0,-0.22077908858986736,0.01356169660143097,-0.06356572529836224,0.28488950563109655,-0.1606360660935844,0.11308073278836064,-0.24028566259984335,1.2133231095260595,-0.22018072706899147,-0.0076588705488595,-2.6039145077944674,-0.10873907683219439,2.46818283785714,0.8264739212986321,1.2134413937687574,-0.2202432315892585,-0.0075118285948192216,-2.6038483821997875,-0.10888392708698907,2.4681821257803174,0.826474908251239,0.00045483579541739596,-0.00038637879178330905,-0.0003436806936335952,-0.0001771623947018121,2.6583154769327097e-05,0.0004253636618066406,-0.0010194313065749936,0.0,0.0,0.0,0.0,0.0,0.0,0.0,0.00011828424269788584,-6.250452026701492e-05,0.00014704195404027873,6.612559467988888e-05,-0.00014485025479468727,-7.120768228396912e-07,9.86952606973901e-07,-0.00045483579541739596,0.00038637879178330905,0.0003436806936335952,0.0001771623947018121,-2.6583154769327097e-05,-0.0004253636618066406,0.0010194313065749936,0.24825400114059448,19.717248916625977,0.2483184039592743,-20.054964065551758,-0.4214377999305725,-2.4758944511413574,0.21457235515117645,0
