rezayati/contactInterpretation/dataset/franka_main/labeled_data/link7/a5_5.csv
index,time,tau_J0,tau_J1,tau_J2,tau_J3,tau_J4,tau_J5,tau_J6,tau_J_d0,tau_J_d1,tau_J_d2,tau_J_d3,tau_J_d4,tau_J_d5,tau_J_d6,tau_ext0,tau_ext1,tau_ext2,tau_ext3,tau_ext4,tau_ext5,tau_ext6,q0,q1,q2,q3,q4,q5,q6,q_d0,q_d1,q_d2,q_d3,q_d4,q_d5,q_d6,dq0,dq1,dq2,dq3,dq4,dq5,dq6,dq_d0,dq_d1,dq_d2,dq_d3,dq_d4,dq_d5,dq_d6,e0,e1,e2,e3,e4,e5,e6,de0,de1,de2,de3,de4,de5,de6,etau_J0,etau_J1,etau_J2,etau_J3,etau_J4,etau_J5,etau_J6,label
1,0.0,-0.8354122042655945,-46.47658920288086,-5.762844562530518,19.559053421020508,0.5761619210243225,2.3980746269226074,-0.39950889348983765,0.0,0.0,0.0,0.0,0.0,0.0,0.0,-0.8212972974167273,-0.1681897894807381,-0.5823542663738404,0.4015064059047626,-0.01119171935755369,0.12789754111788215,-0.3789298666882516,0.8780773622571375,0.7558932389125488,-0.2825160099170845,-1.668924797894662,0.14136915040562417,2.4034048119121127,1.0273657285305904,0.878092876070424,0.7554597494309409,-0.2825552651693207,-1.6690993614607135,0.1414185955172306,2.4034451173676383,1.0273381002308042,0.0001616401979374251,-0.0012091527849551274,-0.000381772818440153,0.0010633340252830731,-0.00015330646244900387,-6.190369478211473e-05,0.0007124414934648167,0.0,0.0,0.0,0.0,0.0,0.0,0.0,1.551381328646073e-05,-0.00043348948160792933,-3.9255252236247706e-05,-0.00017456356605149992,4.9445111606427616e-05,4.030545552557996e-05,-2.762829978619763e-05,-0.0001616401979374251,0.0012091527849551274,0.000381772818440153,-0.0010633340252830731,0.00015330646244900387,6.190369478211473e-05,-0.0007124414934648167,0.8354122042655945,46.47658920288086,5.762844562530518,-19.559053421020508,-0.5761619210243225,-2.3980746269226074,0.39950889348983765,0
2,0.0049970149993896484,-0.8076412081718445,-46.52419662475586,-5.762844562530518,19.586824417114258,0.5697532296180725,2.3980746269226074,-0.39218467473983765,0.0,0.0,0.0,0.0,0.0,0.0,0.0,-0.8332070044888725,-0.15825238009947873,-0.5902593744020774,0.39369718708883833,-0.011109152277730433,0.1273470655595541,-0.37904395493148535,0.8780754134153064,0.7558965536768819,-0.2825159837794241,-1.668926746736493,0.1413729289048919,2.4034048119121127,1.0273617314534966,0.878092876070424,0.7554597494309409,-0.2825552651693207,-1.6690993614607135,0.1414185955172306,2.4034451173676383,1.0273381002308042,-0.0003473869954436766,0.00017659437490491126,-0.00048048889203224717,0.0003469266885211442,0.00024063989214029793,-7.671603390291219e-05,0.0004371712603031857,0.0,0.0,0.0,0.0,0.0,0.0,0.0,1.7462655117594927e-05,-0.00043680424594105816,-3.9281389896617114e-05,-0.00017261472422047675,4.566661233870728e-05,4.030545552557996e-05,-2.3631222692444e-05,0.0003473869954436766,-0.00017659437490491126,0.00048048889203224717,-0.0003469266885211442,-0.00024063989214029793,7.671603390291219e-05,-0.0004371712603031857,0.8076412081718445,46.52419662475586,5.762844562530518,-19.586824417114258,-0.5697532296180725,-2.3980746269226074,0.39218467473983765,0
3,0.009998559951782227,-0.8076412081718445,-46.52419662475586,-5.762844562530518,19.586824417114258,0.5697532296180725,2.3980746269226074,-0.39218467473983765,0.0,0.0,0.0,0.0,0.0,0.0,0.0,-0.8332070044888725,-0.15825238009947873,-0.5902593744020774,0.39369718708883833,-0.011109152277730433,0.1273470655595541,-0.37904395493148535,0.8780754134153064,0.7558965536768819,-0.2825159837794241,-1.668926746736493,0.1413729289048919,2.4034048119121127,1.0273617314534966,0.878092876070424,0.7554597494309409,-0.2825552651693207,-1.6690993614607135,0.1414185955172306,2.4034451173676383,1.0273381002308042,-0.0003473869954436766,0.00017659437490491126,-0.00048048889203224717,0.0003469266885211442,0.00024063989214029793,-7.671603390291219e-05,0.0004371712603031857,0.0,0.0,0.0,0.0,0.0,0.0,0.0,1.7462655117594927e-05,-0.00043680424594105816,-3.9281389896617114e-05,-0.00017261472422047675,4.566661233870728e-05,4.030545552557996e-05,-2.3631222692444e-05,0.0003473869954436766,-0.00017659437490491126,0.00048048889203224717,-0.0003469266885211442,-0.00024063989214029793,7.671603390291219e-05,-0.0004371712603031857,0.8076412081718445,46.52419662475586,5.762844562530518,-19.586824417114258,-0.5697532296180725,-2.3980746269226074,0.39218467473983765,0
4,0.015003204345703125,-0.7838374972343445,-46.47658920288086,-5.735073566436768,19.559053421020508,0.5880637764930725,2.3980746269226074,-0.35098594427108765,0.0,0.0,0.0,0.0,0.0,0.0,0.0,-0.8362791836533502,-0.14195703638882778,-0.5919637621475785,0.3807498490541782,-0.010876222902724308,0.1260399068907411,-0.37749289325479174,0.8780737429794511,0.7558911327746219,-0.2825179501182188,-1.668924797894662,0.14136925498088754,2.4034048119121127,1.0273570389683389,0.878092876070424,0.7554597494309409,-0.2825552651693207,-1.6690993614607135,0.1414185955172306,2.4034451173676383,1.0273381002308042,-0.001414660174818335,-0.0002526534864877905,-0.0008671099077081935,0.00030558547513189605,-0.0005454503094732106,-9.809116817786356e-05,-0.0008308350105085344,0.0,0.0,0.0,0.0,0.0,0.0,0.0,1.913309097290039e-05,-0.000431383343681091,-3.7315051101938224e-05,-0.00017456356605149992,4.9340536343062125e-05,4.030545552557996e-05,-1.893873753466835e-05,0.001414660174818335,0.0002526534864877905,0.0008671099077081935,-0.00030558547513189605,0.0005454503094732106,9.809116817786356e-05,0.0008308350105085344,0.7838374972343445,46.47658920288086,5.735073566436768,-19.559053421020508,-0.5880637764930725,-2.3980746269226074,0.35098594427108765,0
5,0.019999027252197266,-0.7838374972343445,-46.47658920288086,-5.735073566436768,19.559053421020508,0.5880637764930725,2.3980746269226074,-0.35098594427108765,0.0,0.0,0.0,0.0,0.0,0.0,0.0,-0.8362791836533502,-0.14195703638882778,-0.5919637621475785,0.3807498490541782,-0.010876222902724308,0.1260399068907411,-0.37749289325479174,0.8780737429794511,0.7558911327746219,-0.2825179501182188,-1.668924797894662,0.14136925498088754,2.4034048119121127,1.0273570389683389,0.878092876070424,0.7554597494309409,-0.2825552651693207,-1.6690993614607135,0.1414185955172306,2.4034451173676383,1.0273381002308042,-0.001414660174818335,-0.0002526534864877905,-0.0008671099077081935,0.00030558547513189605,-0.0005454503094732106,-9.809116817786356e-05,-0.0008308350105085344,0.0,0.0,0.0,0.0,0.0,0.0,0.0,1.913309097290039e-05,-0.000431383343681091,-3.7315051101938224e-05,-0.00017456356605149992,4.9340536343062125e-05,4.030545552557996e-05,-1.893873753466835e-05,0.001414660174818335,0.0002526534864877905,0.0008671099077081935,-0.00030558547513189605,0.0005454503094732106,9.809116817786356e-05,0.0008308350105085344,0.7838374972343445,46.47658920288086,5.735073566436768,-19.559053421020508,-0.5880637764930725,-2.3980746269226074,0.35098594427108765,0
6,0.02499985694885254,-0.7838374972343445,-46.47658920288086,-5.786648273468018,19.586824417114258,0.5761619210243225,2.3852572441101074,-0.39218467473983765,0.0,0.0,0.0,0.0,0.0,0.0,0.0,-0.8271431927662529,-0.1425310966006318,-0.5864162181295908,0.381408672857232,-0.010736570820683595,0.12604786345299007,-0.3770492836021979,0.8780737429794511,0.7558932389006596,-0.2825142608521867,-1.668926746736493,0.1413690273395878,2.4034062360657584,1.0273648754102256,0.878092876070424,0.7554597494309409,-0.2825552651693207,-1.6690993614607135,0.1414185955172306,2.4034451173676383,1.0273381002308042,-0.0010160323866837836,0.000749448009062994,0.0008012670638419535,-0.0002515362609575468,-3.872537235112347e-05,0.0003545566739318127,0.0006921587094101191,0.0,0.0,0.0,0.0,0.0,0.0,0.0,1.913309097290039e-05,-0.000433489469718773,-4.100431713399688e-05,-0.00017261472422047675,4.95681776427892e-05,3.8881301879900576e-05,-2.6775179421401063e-05,0.0010160323866837836,-0.000749448009062994,-0.0008012670638419535,0.0002515362609575468,3.872537235112347e-05,-0.0003545566739318127,-0.0006921587094101191,0.7838374972343445,46.47658920288086,5.786648273468018,-19.586824417114258,-0.5761619210243225,-2.3852572441101074,0.39218467473983765,0
7,0.029999971389770508,-0.7838374972343445,-46.47658920288086,-5.786648273468018,19.586824417114258,0.5761619210243225,2.3852572441101074,-0.39218467473983765,0.0,0.0,0.0,0.0,0.0,0.0,0.0,-0.8271431927662529,-0.1425310966006318,-0.5864162181295908,0.381408672857232,-0.010736570820683595,0.12604786345299007,-0.3770492836021979,0.8780737429794511,0.7558932389006596,-0.2825142608521867,-1.668926746736493,0.1413690273395878,2.4034062360657584,1.0273648754102256,0.878092876070424,0.7554597494309409,-0.2825552651693207,-1.6690993614607135,0.1414185955172306,2.4034451173676383,1.0273381002308042,-0.0010160323866837836,0.000749448009062994,0.0008012670638419535,-0.0002515362609575468,-3.872537235112347e-05,0.0003545566739318127,0.0006921587094101191,0.0,0.0,0.0,0.0,0.0,0.0,0.0,1.913309097290039e-05,-0.000433489469718773,-4.100431713399688e-05,-0.00017261472422047675,4.95681776427892e-05,3.8881301879900576e-05,-2.6775179421401063e-05,0.0010160323866837836,-0.000749448009062994,-0.0008012670638419535,0.0002515362609575468,3.872537235112347e-05,-0.0003545566739318127,-0.0006921587094101191,0.7838374972343445,46.47658920288086,5.786648273468018,-19.586824417114258,-0.5761619210243225,-2.3852572441101074,0.39218467473983765,0
8,0.03500080108642578,-0.7838374972343445,-46.47658920288086,-5.786648273468018,19.586824417114258,0.5761619210243225,2.3852572441101074,-0.39218467473983765,0.0,0.0,0.0,0.0,0.0,0.0,0.0,-0.8271431927662529,-0.1425310966006318,-0.5864162181295908,0.381408672857232,-0.010736570820683595,0.12604786345299007,-0.3770492836021979,0.8780737429794511,0.7558932389006596,-0.2825142608521867,-1.668926746736493,0.1413690273395878,2.4034062360657584,1.0273648754102256,0.878092876070424,0.7554597494309409,-0.2825552651693207,-1.6690993614607135,0.1414185955172306,2.4034451173676383,1.0273381002308042,-0.0010160323866837836,0.000749448009062994,0.0008012670638419535,-0.0002515362609575468,-3.872537235112347e-05,0.0003545566739318127,0.0006921587094101191,0.0,0.0,0.0,0.0,0.0,0.0,0.0,1.913309097290039e-05,-0.000433489469718773,-4.100431713399688e-05,-0.00017261472422047675,4.95681776427892e-05,3.8881301879900576e-05,-2.6775179421401063e-05,0.0010160323866837836,-0.000749448009062994,-0.0008012670638419535,0.0002515362609575468,3.872537235112347e-05,-0.0003545566739318127,-0.0006921587094101191,0.7838374972343445,46.47658920288086,5.786648273468018,-19.586824417114258,-0.5761619210243225,-2.3852572441101074,0.39218467473983765,0
9,0.0400083065032959,-0.8354122042655945,-46.44881820678711,-5.762844562530518,19.586824417114258,0.5816550850868225,2.3916659355163574,-0.41324180364608765,0.0,0.0,0.0,0.0,0.0,0.0,0.0,-0.8164227419522718,-0.15765735289853566,-0.5832006439279921,0.39355354130810777,-0.01018224482783114,0.12727201585539222,-0.37757836684899504,0.8780773622571375,0.7558912900707175,-0.28251530135564557,-1.668926746736493,0.1413685355168024,2.4034055239889356,1.0273658413969584,0.878092876070424,0.7554597494309409,-0.2825552651693207,-1.6690993614607135,0.1414185955172306,2.4034451173676383,1.0273381002308042,0.0010841324856379765,-0.00010605685161233649,0.00019900235402477016,0.00010287861707976232,-6.925798386528383e-05,-1.2908290682586e-05,0.0016129845351065375,0.0,0.0,0.0,0.0,0.0,0.0,0.0,1.551381328646073e-05,-0.0004315406397766841,-3.9963813675159e-05,-0.00017261472422047675,5.006000042820369e-05,3.959337870274027e-05,-2.774116615422706e-05,-0.0010841324856379765,0.00010605685161233649,-0.00019900235402477016,-0.00010287861707976232,6.925798386528383e-05,1.2908290682586e-05,-0.0016129845351065375,0.8354122042655945,46.44881820678711,5.762844562530518,-19.586824417114258,-0.5816550850868225,-2.3916659355163574,0.41324180364608765,0
10,0.045004844665527344,-0.8354122042655945,-46.44881820678711,-5.762844562530518,19.586824417114258,0.5816550850868225,2.3916659355163574,-0.41324180364608765,0.0,0.0,0.0,0.0,0.0,0.0,0.0,-0.8164227419522718,-0.15765735289853566,-0.5832006439279921,0.39355354130810777,-0.01018224482783114,0.12727201585539222,-0.37757836684899504,0.8780773622571375,0.7558912900707175,-0.28251530135564557,-1.668926746736493,0.1413685355168024,2.4034055239889356,1.0273658413969584,0.878092876070424,0.7554597494309409,-0.2825552651693207,-1.6690993614607135,0.1414185955172306,2.4034451173676383,1.0273381002308042,0.0010841324856379765,-0.00010605685161233649,0.00019900235402477016,0.00010287861707976232,-6.925798386528383e-05,-1.2908290682586e-05,0.0016129845351065375,0.0,0.0,0.0,0.0,0.0,0.0,0.0,1.551381328646073e-05,-0.0004315406397766841,-3.9963813675159e-05,-0.00017261472422047675,5.006000042820369e-05,3.959337870274027e-05,-2.774116615422706e-05,-0.0010841324856379765,0.00010605685161233649,-0.00019900235402477016,-0.00010287861707976232,6.925798386528383e-05,1.2908290682586e-05,-0.0016129845351065375,0.8354122042655945,46.44881820678711,5.762844562530518,-19.586824417114258,-0.5816550850868225,-2.3916659355163574,0.41324180364608765,0
11,0.0500035285949707,-0.8354122042655945,-46.44881820678711,-5.762844562530518,19.586824417114258,0.5816550850868225,2.3916659355163574,-0.41324180364608765,0.0,0.0,0.0,0.0,0.0,0.0,0.0,-0.8164227419522718,-0.15765735289853566,-0.5832006439279921,0.39355354130810777,-0.01018224482783114,0.12727201585539222,-0.37757836684899504,0.8780773622571375,0.7558912900707175,-0.28251530135564557,-1.668926746736493,0.1413685355168024,2.4034055239889356,1.0273658413969584,0.878092876070424,0.7554597494309409,-0.2825552651693207,-1.6690993614607135,0.1414185955172306,2.4034451173676383,1.0273381002308042,0.0010841324856379765,-0.00010605685161233649,0.00019900235402477016,0.00010287861707976232,-6.925798386528383e-05,-1.2908290682586e-05,0.0016129845351065375,0.0,0.0,0.0,0.0,0.0,0.0,0.0,1.551381328646073e-05,-0.0004315406397766841,-3.9963813675159e-05,-0.00017261472422047675,5.006000042820369e-05,3.959337870274027e-05,-2.774116615422706e-05,-0.0010841324856379765,0.00010605685161233649,-0.00019900235402477016,-0.00010287861707976232,6.925798386528383e-05,1.2908290682586e-05,-0.0016129845351065375,0.8354122042655945,46.44881820678711,5.762844562530518,-19.586824417114258,-0.5816550850868225,-2.3916659355163574,0.41324180364608765,0
12,0.05499672889709473,-0.8354122042655945,-46.44881820678711,-5.762844562530518,19.586824417114258,0.5816550850868225,2.3916659355163574,-0.41324180364608765,0.0,0.0,0.0,0.0,0.0,0.0,0.0,-0.8164227419522718,-0.15765735289853566,-0.5832006439279921,0.39355354130810777,-0.01018224482783114,0.12727201585539222,-0.37757836684899504,0.8780773622571375,0.7558912900707175,-0.28251530135564557,-1.668926746736493,0.1413685355168024,2.4034055239889356,1.0273658413969584,0.878092876070424,0.7554597494309409,-0.2825552651693207,-1.6690993614607135,0.1414185955172306,2.4034451173676383,1.0273381002308042,0.0010841324856379765,-0.00010605685161233649,0.00019900235402477016,0.00010287861707976232,-6.925798386528383e-05,-1.2908290682586e-05,0.0016129845351065375,0.0,0.0,0.0,0.0,0.0,0.0,0.0,1.551381328646073e-05,-0.0004315406397766841,-3.9963813675159e-05,-0.00017261472422047675,5.006000042820369e-05,3.959337870274027e-05,-2.774116615422706e-05,-0.0010841324856379765,0.00010605685161233649,-0.00019900235402477016,-0.00010287861707976232,6.925798386528383e-05,1.2908290682586e-05,-0.0016129845351065375,0.8354122042655945,46.44881820678711,5.762844562530518,-19.586824417114258,-0.5816550850868225,-2.3916659355163574,0.41324180364608765,0
13,0.059996843338012695,-0.8076412081718445,-46.47658920288086,-5.735073566436768,19.658235549926758,0.5761619210243225,2.3788485527038574,-0.37204307317733765,0.0,0.0,0.0,0.0,0.0,0.0,0.0,-0.8185150694938477,-0.16225556508892527,-0.5845294496411811,0.3972973226439682,-0.009274622058438308,0.1276150026489067,-0.37717520292953377,0.8780754134153064,0.7558932389125488,-0.282517958862922,-1.6689317580440588,0.14137223135496582,2.4034069481425817,1.0273626767648298,0.878092876070424,0.7554597494309409,-0.2825552651693207,-1.6690993614607135,0.1414185955172306,2.4034451173676383,1.0273381002308042,0.00016402115387440482,-0.00020828101258273967,-0.00034434460679696566,-0.0016604957496928487,-0.00010430552953207563,0.0006706774848748778,-0.0005367758391598723,0.0,0.0,0.0,0.0,0.0,0.0,0.0,1.7462655117594927e-05,-0.00043348948160792933,-3.730630639869892e-05,-0.00016760341665467138,4.636416226477813e-05,3.8169225056616796e-05,-2.4576534025655405e-05,-0.00016402115387440482,0.00020828101258273967,0.00034434460679696566,0.0016604957496928487,0.00010430552953207563,-0.0006706774848748778,0.0005367758391598723,0.8076412081718445,46.47658920288086,5.735073566436768,-19.658235549926758,-0.5761619210243225,-2.3788485527038574,0.37204307317733765,0
14,0.06500101089477539,-0.8076412081718445,-46.47658920288086,-5.735073566436768,19.658235549926758,0.5761619210243225,2.3788485527038574,-0.37204307317733765,0.0,0.0,0.0,0.0,0.0,0.0,0.0,-0.8185150694938477,-0.16225556508892527,-0.5845294496411811,0.3972973226439682,-0.009274622058438308,0.1276150026489067,-0.37717520292953377,0.8780754134153064,0.7558932389125488,-0.282517958862922,-1.6689317580440588,0.14137223135496582,2.4034069481425817,1.0273626767648298,0.878092876070424,0.7554597494309409,-0.2825552651693207,-1.6690993614607135,0.1414185955172306,2.4034451173676383,1.0273381002308042,0.00016402115387440482,-0.00020828101258273967,-0.00034434460679696566,-0.0016604957496928487,-0.00010430552953207563,0.0006706774848748778,-0.0005367758391598723,0.0,0.0,0.0,0.0,0.0,0.0,0.0,1.7462655117594927e-05,-0.00043348948160792933,-3.730630639869892e-05,-0.00016760341665467138,4.636416226477813e-05,3.8169225056616796e-05,-2.4576534025655405e-05,-0.00016402115387440482,0.00020828101258273967,0.00034434460679696566,0.0016604957496928487,0.00010430552953207563,-0.0006706774848748778,0.0005367758391598723,0.8076412081718445,46.47658920288086,5.735073566436768,-19.658235549926758,-0.5761619210243225,-2.3788485527038574,0.37204307317733765,0
15,0.06999802589416504,-0.7838374972343445,-46.50039291381836,-5.810451984405518,19.559053421020508,0.5642600655555725,2.3980746269226074,-0.36471885442733765,0.0,0.0,0.0,0.0,0.0,0.0,0.0,-0.8242040945578911,-0.15837790327346302,-0.5883248297511687,0.3946953079598713,-0.009557163878927511,0.12703803663782864,-0.3772149930527162,0.8780737429794511,0.7558949093484041,-0.2825126691533807,-1.668924797894662,0.14137460155747458,2.4034048119121127,1.0273608033325934,0.878092876070424,0.7554597494309409,-0.2825552651693207,-1.6690993614607135,0.1414185955172306,2.4034451173676383,1.0273381002308042,-0.000734861443107548,-9.945496849254528e-05,0.0012933224327418454,0.0006761516477424644,0.000370470595412969,-9.002750042635141e-05,-0.0008207694126766492,0.0,0.0,0.0,0.0,0.0,0.0,0.0,1.913309097290039e-05,-0.0004351599174632348,-4.259601594003293e-05,-0.00017456356605149992,4.399395975601683e-05,4.030545552557996e-05,-2.2703101789200986e-05,0.000734861443107548,9.945496849254528e-05,-0.0012933224327418454,-0.0006761516477424644,-0.000370470595412969,9.002750042635141e-05,0.0008207694126766492,0.7838374972343445,46.50039291381836,5.810451984405518,-19.559053421020508,-0.5642600655555725,-2.3980746269226074,0.36471885442733765,0
16,0.07500243186950684,-0.7838374972343445,-46.50039291381836,-5.810451984405518,19.559053421020508,0.5642600655555725,2.3980746269226074,-0.36471885442733765,0.0,0.0,0.0,0.0,0.0,0.0,0.0,-0.8242040945578911,-0.15837790327346302,-0.5883248297511687,0.3946953079598713,-0.009557163878927511,0.12703803663782864,-0.3772149930527162,0.8780737429794511,0.7558949093484041,-0.2825126691533807,-1.668924797894662,0.14137460155747458,2.4034048119121127,1.0273608033325934,0.878092876070424,0.7554597494309409,-0.2825552651693207,-1.6690993614607135,0.1414185955172306,2.4034451173676383,1.0273381002308042,-0.000734861443107548,-9.945496849254528e-05,0.0012933224327418454,0.0006761516477424644,0.000370470595412969,-9.002750042635141e-05,-0.0008207694126766492,0.0,0.0,0.0,0.0,0.0,0.0,0.0,1.913309097290039e-05,-0.0004351599174632348,-4.259601594003293e-05,-0.00017456356605149992,4.399395975601683e-05,4.030545552557996e-05,-2.2703101789200986e-05,0.000734861443107548,9.945496849254528e-05,-0.0012933224327418454,-0.0006761516477424644,-0.000370470595412969,9.002750042635141e-05,0.0008207694126766492,0.7838374972343445,46.50039291381836,5.810451984405518,-19.559053421020508,-0.5642600655555725,-2.3980746269226074,0.36471885442733765,0
17,0.08001971244812012,-0.8076412081718445,-46.50039291381836,-5.762844562530518,19.610628128051758,0.5761619210243225,2.3916659355163574,-0.40591758489608765,0.0,0.0,0.0,0.0,0.0,0.0,0.0,-0.8252135742623735,-0.16223909568436592,-0.591312686736824,0.39390363455770566,-0.009536485601438875,0.12727225278244755,-0.37715116575002156,0.8780754134153064,0.7558949092414067,-0.2825160090530296,-1.6689284171723482,0.14136939521019812,2.4034055239889356,1.0273653809673184,0.878092876070424,0.7554597494309409,-0.2825552651693207,-1.6690993614607135,0.1414185955172306,2.4034451173676383,1.0273381002308042,-0.0002854093432336568,-0.00027694868180945406,-0.00010626294392672416,-0.00023805920634819427,-1.4489818666193895e-06,9.362691856791158e-05,0.0006531250280585383,0.0,0.0,0.0,0.0,0.0,0.0,0.0,1.7462655117594927e-05,-0.00043515981046582386,-3.9256116291130905e-05,-0.0001709442883652823,4.9200307032482016e-05,3.959337870274027e-05,-2.7280736514256887e-05,0.0002854093432336568,0.00027694868180945406,0.00010626294392672416,0.00023805920634819427,1.4489818666193895e-06,-9.362691856791158e-05,-0.0006531250280585383,0.8076412081718445,46.50039291381836,5.762844562530518,-19.610628128051758,-0.5761619210243225,-2.3916659355163574,0.40591758489608765,0
18,0.08510804176330566,-0.8076412081718445,-46.50039291381836,-5.762844562530518,19.610628128051758,0.5761619210243225,2.3916659355163574,-0.40591758489608765,0.0,0.0,0.0,0.0,0.0,0.0,0.0,-0.8252135742623735,-0.16223909568436592,-0.591312686736824,0.39390363455770566,-0.009536485601438875,0.12727225278244755,-0.37715116575002156,0.8780754134153064,0.7558949092414067,-0.2825160090530296,-1.6689284171723482,0.14136939521019812,2.4034055239889356,1.0273653809673184,0.878092876070424,0.7554597494309409,-0.2825552651693207,-1.6690993614607135,0.1414185955172306,2.4034451173676383,1.0273381002308042,-0.0002854093432336568,-0.00027694868180945406,-0.00010626294392672416,-0.00023805920634819427,-1.4489818666193895e-06,9.362691856791158e-05,0.0006531250280585383,0.0,0.0,0.0,0.0,0.0,0.0,0.0,1.7462655117594927e-05,-0.00043515981046582386,-3.9256116291130905e-05,-0.0001709442883652823,4.9200307032482016e-05,3.959337870274027e-05,-2.7280736514256887e-05,0.0002854093432336568,0.00027694868180945406,0.00010626294392672416,0.00023805920634819427,1.4489818666193895e-06,-9.362691856791158e-05,-0.0006531250280585383,0.8076412081718445,46.50039291381836,5.762844562530518,-19.610628128051758,-0.5761619210243225,-2.3916659355163574,0.40591758489608765,0
19,0.08999395370483398,-0.8869869112968445,-46.52419662475586,-5.735073566436768,19.610628128051758,0.5761619210243225,2.3980746269226074,-0.38577598333358765,0.0,0.0,0.0,0.0,0.0,0.0,0.0,-0.8140264246794177,-0.1585080696603255,-0.5818414254468307,0.39147121649601807,-0.009479371987383658,0.1265941799595873,-0.3780503462136667,0.878080981534824,0.7558965797842588,-0.28251583296792,-1.6689284171723482,0.14137363344740772,2.4034048119121127,1.027364084908161,0.878092876070424,0.7554597494309409,-0.2825552651693207,-1.6690993614607135,0.1414185955172306,2.4034451173676383,1.0273381002308042,0.0017615616971216762,0.0007188602068488185,-0.0005963578803166747,-0.0002063479810868259,2.282200399910148e-05,-4.726035890461009e-06,8.285287716801657e-05,0.0,0.0,0.0,0.0,0.0,0.0,0.0,1.1894535600021072e-05,-0.00043683035331798514,-3.9432201400735334e-05,-0.0001709442883652823,4.49620698228792e-05,4.030545552557996e-05,-2.5984677356705177e-05,-0.0017615616971216762,-0.0007188602068488185,0.0005963578803166747,0.0002063479810868259,-2.282200399910148e-05,4.726035890461009e-06,-8.285287716801657e-05,0.8869869112968445,46.52419662475586,5.735073566436768,-19.610628128051758,-0.5761619210243225,-2.3980746269226074,0.38577598333358765,0
20,0.0950016975402832,-0.8869869112968445,-46.52419662475586,-5.735073566436768,19.610628128051758,0.5761619210243225,2.3980746269226074,-0.38577598333358765,0.0,0.0,0.0,0.0,0.0,0.0,0.0,-0.8140264246794177,-0.1585080696603255,-0.5818414254468307,0.39147121649601807,-0.009479371987383658,0.1265941799595873,-0.3780503462136667,0.878080981534824,0.7558965797842588,-0.28251583296792,-1.6689284171723482,0.14137363344740772,2.4034048119121127,1.027364084908161,0.878092876070424,0.7554597494309409,-0.2825552651693207,-1.6690993614607135,0.1414185955172306,2.4034451173676383,1.0273381002308042,0.0017615616971216762,0.0007188602068488185,-0.0005963578803166747,-0.0002063479810868259,2.282200399910148e-05,-4.726035890461009e-06,8.285287716801657e-05,0.0,0.0,0.0,0.0,0.0,0.0,0.0,1.1894535600021072e-05,-0.00043683035331798514,-3.9432201400735334e-05,-0.0001709442883652823,4.49620698228792e-05,4.030545552557996e-05,-2.5984677356705177e-05,-0.0017615616971216762,-0.0007188602068488185,0.0005963578803166747,0.0002063479810868259,-2.282200399910148e-05,4.726035890461009e-06,-8.285287716801657e-05,0.8869869112968445,46.52419662475586,5.735073566436768,-19.610628128051758,-0.5761619210243225,-2.3980746269226074,0.38577598333358765,0
21,0.09999918937683105,-0.8354122042655945,-46.44881820678711,-5.762844562530518,19.559053421020508,0.5761619210243225,2.3788485527038574,-0.36471885442733765,0.0,0.0,0.0,0.0,0.0,0.0,0.0,-0.8269280817574018,-0.15509000241974277,-0.5888544320796223,0.388643904017106,-0.009158117038007969,0.12658195508100614,-0.3793450804327126,0.8780773622571375,0.7558912120695775,-0.28251600997708826,-1.668924797894662,0.14136938356345874,2.4034069481425817,1.0273613919659434,0.878092876070424,0.7554597494309409,-0.2825552651693207,-1.6690993614607135,0.1414185955172306,2.4034451173676383,1.0273381002308042,-4.27315436547747e-05,-0.0008511885431298726,-0.0005140530144707997,0.0010387540909875446,1.0090275987965703e-05,0.000497117257668046,-0.0004981503759663436,0.0,0.0,0.0,0.0,0.0,0.0,0.0,1.551381328646073e-05,-0.00043146263863669265,-3.9255192232467984e-05,-0.00017456356605149992,4.9211953771860495e-05,3.8169225056616796e-05,-2.3291735139263636e-05,4.27315436547747e-05,0.0008511885431298726,0.0005140530144707997,-0.0010387540909875446,-1.0090275987965703e-05,-0.000497117257668046,0.0004981503759663436,0.8354122042655945,46.44881820678711,5.762844562530518,-19.559053421020508,-0.5761619210243225,-2.3788485527038574,0.36471885442733765,0
22,0.1049959659576416,-0.8354122042655945,-46.44881820678711,-5.762844562530518,19.559053421020508,0.5761619210243225,2.3788485527038574,-0.36471885442733765,0.0,0.0,0.0,0.0,0.0,0.0,0.0,-0.8269280817574018,-0.15509000241974277,-0.5888544320796223,0.388643904017106,-0.009158117038007969,0.12658195508100614,-0.3793450804327126,0.8780773622571375,0.7558912120695775,-0.28251600997708826,-1.668924797894662,0.14136938356345874,2.4034069481425817,1.0273613919659434,0.878092876070424,0.7554597494309409,-0.2825552651693207,-1.6690993614607135,0.1414185955172306,2.4034451173676383,1.0273381002308042,-4.27315436547747e-05,-0.0008511885431298726,-0.0005140530144707997,0.0010387540909875446,1.0090275987965703e-05,0.000497117257668046,-0.0004981503759663436,0.0,0.0,0.0,0.0,0.0,0.0,0.0,1.551381328646073e-05,-0.00043146263863669265,-3.9255192232467984e-05,-0.00017456356605149992,4.9211953771860495e-05,3.8169225056616796e-05,-2.3291735139263636e-05,4.27315436547747e-05,0.0008511885431298726,0.0005140530144707997,-0.0010387540909875446,-1.0090275987965703e-05,-0.000497117257668046,0.0004981503759663436,0.8354122042655945,46.44881820678711,5.762844562530518,-19.559053421020508,-0.5761619210243225,-2.3788485527038574,0.36471885442733765,0
23,0.10999917984008789,-0.8076412081718445,-46.47658920288086,-5.762844562530518,19.559053421020508,0.5761619210243225,2.3980746269226074,-0.38577598333358765,0.0,0.0,0.0,0.0,0.0,0.0,0.0,-0.8095735072265001,-0.15765472311106468,-0.5787820976875678,0.3927467803467861,-0.009491646745154524,0.12657361116546215,-0.37985184983221604,0.8780754134153064,0.7558930049089818,-0.28251600991708437,-1.668924797906775,0.1413700907130336,2.4034048119121127,1.027363125570094,0.878092876070424,0.7554597494309409,-0.2825552651693207,-1.6690993614607135,0.1414185955172306,2.4034451173676383,1.0273381002308042,-0.00019709490412347474,-4.591875530926945e-05,-0.0006661943842293802,0.0009952636009982693,-8.793114501837373e-05,7.134304007214163e-06,0.00014508184166402483,0.0,0.0,0.0,0.0,0.0,0.0,0.0,1.7462655117594927e-05,-0.00043325547804096143,-3.925525223635873e-05,-0.00017456355393852263,4.850480419699155e-05,4.030545552557996e-05,-2.5025339289719284e-05,0.00019709490412347474,4.591875530926945e-05,0.0006661943842293802,-0.0009952636009982693,8.793114501837373e-05,-7.134304007214163e-06,-0.00014508184166402483,0.8076412081718445,46.47658920288086,5.762844562530518,-19.559053421020508,-0.5761619210243225,-2.3980746269226074,0.38577598333358765,0
24,0.10999917984008789,-0.8076412081718445,-46.47658920288086,-5.762844562530518,19.559053421020508,0.5761619210243225,2.3980746269226074,-0.38577598333358765,0.0,0.0,0.0,0.0,0.0,0.0,0.0,-0.8095735072265001,-0.15765472311106468,-0.5787820976875678,0.3927467803467861,-0.009491646745154524,0.12657361116546215,-0.37985184983221604,0.8780754134153064,0.7558930049089818,-0.28251600991708437,-1.668924797906775,0.1413700907130336,2.4034048119121127,1.027363125570094,0.878092876070424,0.7554597494309409,-0.2825552651693207,-1.6690993614607135,0.1414185955172306,2.4034451173676383,1.0273381002308042,-0.00019709490412347474,-4.591875530926945e-05,-0.0006661943842293802,0.0009952636009982693,-8.793114501837373e-05,7.134304007214163e-06,0.00014508184166402483,0.0,0.0,0.0,0.0,0.0,0.0,0.0,1.7462655117594927e-05,-0.00043325547804096143,-3.925525223635873e-05,-0.00017456355393852263,4.850480419699155e-05,4.030545552557996e-05,-2.5025339289719284e-05,0.00019709490412347474,4.591875530926945e-05,0.0006661943842293802,-0.0009952636009982693,8.793114501837373e-05,-7.134304007214163e-06,-0.00014508184166402483,0.8076412081718445,46.47658920288086,5.762844562530518,-19.559053421020508,-0.5761619210243225,-2.3980746269226074,0.38577598333358765,0
25,0.11996340751647949,-0.8592159152030945,-46.50039291381836,-5.786648273468018,19.559053421020508,0.5816550850868225,2.3980746269226074,-0.33725303411483765,0.0,0.0,0.0,0.0,0.0,0.0,0.0,-0.8297747797971547,-0.16672563679830937,-0.5980166803743441,0.39695375362724067,-0.009720133351739012,0.12759862405141778,-0.38038712601124675,0.8780790326929928,0.7558949093470831,-0.28251433958923544,-1.668924797894662,0.1413698400296428,2.4034048119121127,1.0273584579941206,0.878092876070424,0.7554597494309409,-0.2825552651693207,-1.6690993614607135,0.1414185955172306,2.4034451173676383,1.0273381002308042,0.0005443162977900369,0.00043480821306068304,0.00024644629077630906,0.0010342172489691886,-0.0003870180751593764,-0.00031769848915247356,-0.0016637734448737677,0.0,0.0,0.0,0.0,0.0,0.0,0.0,1.3843377431155268e-05,-0.00043515991614229144,-4.0925580085282576e-05,-0.00017456356605149992,4.875548758778714e-05,4.030545552557996e-05,-2.035776331643646e-05,-0.0005443162977900369,-0.00043480821306068304,-0.00024644629077630906,-0.0010342172489691886,0.0003870180751593764,0.00031769848915247356,0.0016637734448737677,0.8592159152030945,46.50039291381836,5.786648273468018,-19.559053421020508,-0.5816550850868225,-2.3980746269226074,0.33725303411483765,0
26,0.12496256828308105,-0.8592159152030945,-46.50039291381836,-5.786648273468018,19.559053421020508,0.5816550850868225,2.3980746269226074,-0.33725303411483765,0.0,0.0,0.0,0.0,0.0,0.0,0.0,-0.8297747797971547,-0.16672563679830937,-0.5980166803743441,0.39695375362724067,-0.009720133351739012,0.12759862405141778,-0.38038712601124675,0.8780790326929928,0.7558949093470831,-0.28251433958923544,-1.668924797894662,0.1413698400296428,2.4034048119121127,1.0273584579941206,0.878092876070424,0.7554597494309409,-0.2825552651693207,-1.6690993614607135,0.1414185955172306,2.4034451173676383,1.0273381002308042,0.0005443162977900369,0.00043480821306068304,0.00024644629077630906,0.0010342172489691886,-0.0003870180751593764,-0.00031769848915247356,-0.0016637734448737677,0.0,0.0,0.0,0.0,0.0,0.0,0.0,1.3843377431155268e-05,-0.00043515991614229144,-4.0925580085282576e-05,-0.00017456356605149992,4.875548758778714e-05,4.030545552557996e-05,-2.035776331643646e-05,-0.0005443162977900369,-0.00043480821306068304,-0.00024644629077630906,-0.0010342172489691886,0.0003870180751593764,0.00031769848915247356,0.0016637734448737677,0.8592159152030945,46.50039291381836,5.786648273468018,-19.559053421020508,-0.5816550850868225,-2.3980746269226074,0.33725303411483765,0
27,0.12999773025512695,-0.7838374972343445,-46.52419662475586,-5.735073566436768,19.610628128051758,0.5761619210243225,2.3852572441101074,-0.39218467473983765,0.0,0.0,0.0,0.0,0.0,0.0,0.0,-0.8315846180999201,-0.15318201576144738,-0.5983279931082108,0.3881917396913677,-0.010307463731448438,0.12617239995229199,-0.3794604283687162,0.8780737429794511,0.7558942397500572,-0.28251795886692244,-1.6689284171723482,0.14136904191979663,2.4034062360657584,1.0273649147265416,0.878092876070424,0.7554597494309409,-0.2825552651693207,-1.6690993614607135,0.1414185955172306,2.4034451173676383,1.0273381002308042,-0.0012927432994466863,0.001173074008557119,-0.0009135911274927073,-0.0011703545071872071,-0.00013589938409178622,0.0002727855908772511,0.0007628891014257262,0.0,0.0,0.0,0.0,0.0,0.0,0.0,1.913309097290039e-05,-0.00043449031911635405,-3.7306302398287805e-05,-0.0001709442883652823,4.955359743397114e-05,3.8881301879900576e-05,-2.6814495737381705e-05,0.0012927432994466863,-0.001173074008557119,0.0009135911274927073,0.0011703545071872071,0.00013589938409178622,-0.0002727855908772511,-0.0007628891014257262,0.7838374972343445,46.52419662475586,5.735073566436768,-19.610628128051758,-0.5761619210243225,-2.3852572441101074,0.39218467473983765,0
28,0.1350083351135254,-0.7838374972343445,-46.52419662475586,-5.735073566436768,19.610628128051758,0.5761619210243225,2.3852572441101074,-0.39218467473983765,0.0,0.0,0.0,0.0,0.0,0.0,0.0,-0.8315846180999201,-0.15318201576144738,-0.5983279931082108,0.3881917396913677,-0.010307463731448438,0.12617239995229199,-0.3794604283687162,0.8780737429794511,0.7558942397500572,-0.28251795886692244,-1.6689284171723482,0.14136904191979663,2.4034062360657584,1.0273649147265416,0.878092876070424,0.7554597494309409,-0.2825552651693207,-1.6690993614607135,0.1414185955172306,2.4034451173676383,1.0273381002308042,-0.0012927432994466863,0.001173074008557119,-0.0009135911274927073,-0.0011703545071872071,-0.00013589938409178622,0.0002727855908772511,0.0007628891014257262,0.0,0.0,0.0,0.0,0.0,0.0,0.0,1.913309097290039e-05,-0.00043449031911635405,-3.7306302398287805e-05,-0.0001709442883652823,4.955359743397114e-05,3.8881301879900576e-05,-2.6814495737381705e-05,0.0012927432994466863,-0.001173074008557119,0.0009135911274927073,0.0011703545071872071,0.00013589938409178622,-0.0002727855908772511,-0.0007628891014257262,0.7838374972343445,46.52419662475586,5.735073566436768,-19.610628128051758,-0.5761619210243225,-2.3852572441101074,0.39218467473983765,0
29,0.14001846313476562,-0.8076412081718445,-46.50039291381836,-5.762844562530518,19.586824417114258,0.5761619210243225,2.3916659355163574,-0.39218467473983765,0.0,0.0,0.0,0.0,0.0,0.0,0.0,-0.8161324084961821,-0.1560631754803111,-0.5882798425576266,0.3906670835111523,-0.010634228488082932,0.1268994078344215,-0.3789955232736552,0.8780754134153064,0.7558948284451233,-0.2825160099170845,-1.668926746736493,0.1413705626484143,2.403405484743079,1.0273649147285353,0.878092876070424,0.7554597494309409,-0.2825552651693207,-1.6690993614607135,0.1414185955172306,2.4034451173676383,1.0273381002308042,-0.00032651551868755573,0.000437189375869884,0.0002325502874976032,0.000467727886458109,-4.8101396382225294e-05,7.35706880385825e-05,0.0007910167242637889,0.0,0.0,0.0,0.0,0.0,0.0,0.0,1.7462655117594927e-05,-0.0004350790141824934,-3.9255252236247706e-05,-0.00017261472422047675,4.803286881630009e-05,3.9632624559526874e-05,-2.6814497731120213e-05,0.00032651551868755573,-0.000437189375869884,-0.0002325502874976032,-0.000467727886458109,4.8101396382225294e-05,-7.35706880385825e-05,-0.0007910167242637889,0.8076412081718445,46.50039291381836,5.762844562530518,-19.586824417114258,-0.5761619210243225,-2.3916659355163574,0.39218467473983765,0
30,0.1450197696685791,-0.8076412081718445,-46.50039291381836,-5.762844562530518,19.586824417114258,0.5761619210243225,2.3916659355163574,-0.39218467473983765,0.0,0.0,0.0,0.0,0.0,0.0,0.0,-0.8161324084961821,-0.1560631754803111,-0.5882798425576266,0.3906670835111523,-0.010634228488082932,0.1268994078344215,-0.3789955232736552,0.8780754134153064,0.7558948284451233,-0.2825160099170845,-1.668926746736493,0.1413705626484143,2.403405484743079,1.0273649147285353,0.878092876070424,0.7554597494309409,-0.2825552651693207,-1.6690993614607135,0.1414185955172306,2.4034451173676383,1.0273381002308042,-0.00032651551868755573,0.000437189375869884,0.0002325502874976032,0.000467727886458109,-4.8101396382225294e-05,7.35706880385825e-05,0.0007910167242637889,0.0,0.0,0.0,0.0,0.0,0.0,0.0,1.7462655117594927e-05,-0.0004350790141824934,-3.9255252236247706e-05,-0.00017261472422047675,4.803286881630009e-05,3.9632624559526874e-05,-2.6814497731120213e-05,0.00032651551868755573,-0.000437189375869884,-0.0002325502874976032,-0.000467727886458109,4.8101396382225294e-05,-7.35706880385825e-05,-0.0007910167242637889,0.8076412081718445,46.50039291381836,5.762844562530518,-19.586824417114258,-0.5761619210243225,-2.3916659355163574,0.39218467473983765,0
31,0.14999699592590332,-0.8354122042655945,-46.50039291381836,-5.762844562530518,19.586824417114258,0.5697532296180725,2.3916659355163574,-0.39950889348983765,0.0,0.0,0.0,0.0,0.0,0.0,0.0,-0.8282856902737078,-0.15468324219207133,-0.5966750395055235,0.3871717121371696,-0.010659514835252772,0.12691455723979878,-0.3783887266105943,0.8780773622571375,0.7558946750235348,-0.28251601002509075,-1.668926746736493,0.14137400444516154,2.403405523988714,1.0273657241699679,0.878092876070424,0.7554597494309409,-0.2825552651693207,-1.6690993614607135,0.1414185955172306,2.4034451173676383,1.0273381002308042,0.0004697496336011913,0.0003267283226494021,9.599971207275134e-05,1.536513163996062e-05,0.00017802342122850206,8.497069914974626e-05,0.00046189119189171836,0.0,0.0,0.0,0.0,0.0,0.0,0.0,1.551381328646073e-05,-0.0004349255925939488,-3.925514422997711e-05,-0.00017261472422047675,4.459107206905566e-05,3.959337892434078e-05,-2.76239391636679e-05,-0.0004697496336011913,-0.0003267283226494021,-9.599971207275134e-05,-1.536513163996062e-05,-0.00017802342122850206,-8.497069914974626e-05,-0.00046189119189171836,0.8354122042655945,46.50039291381836,5.762844562530518,-19.586824417114258,-0.5697532296180725,-2.3916659355163574,0.39950889348983765,0
32,0.1550130844116211,-0.8354122042655945,-46.50039291381836,-5.762844562530518,19.586824417114258,0.5697532296180725,2.3916659355163574,-0.39950889348983765,0.0,0.0,0.0,0.0,0.0,0.0,0.0,-0.8282856902737078,-0.15468324219207133,-0.5966750395055235,0.3871717121371696,-0.010659514835252772,0.12691455723979878,-0.3783887266105943,0.8780773622571375,0.7558946750235348,-0.28251601002509075,-1.668926746736493,0.14137400444516154,2.403405523988714,1.0273657241699679,0.878092876070424,0.7554597494309409,-0.2825552651693207,-1.6690993614607135,0.1414185955172306,2.4034451173676383,1.0273381002308042,0.0004697496336011913,0.0003267283226494021,9.599971207275134e-05,1.536513163996062e-05,0.00017802342122850206,8.497069914974626e-05,0.00046189119189171836,0.0,0.0,0.0,0.0,0.0,0.0,0.0,1.551381328646073e-05,-0.0004349255925939488,-3.925514422997711e-05,-0.00017261472422047675,4.459107206905566e-05,3.959337892434078e-05,-2.76239391636679e-05,-0.0004697496336011913,-0.0003267283226494021,-9.599971207275134e-05,-1.536513163996062e-05,-0.00017802342122850206,-8.497069914974626e-05,-0.00046189119189171836,0.8354122042655945,46.50039291381836,5.762844562530518,-19.586824417114258,-0.5697532296180725,-2.3916659355163574,0.39950889348983765,0
33,0.15999531745910645,-0.8354122042655945,-46.50039291381836,-5.762844562530518,19.586824417114258,0.5697532296180725,2.3916659355163574,-0.39950889348983765,0.0,0.0,0.0,0.0,0.0,0.0,0.0,-0.8282856902737078,-0.15468324219207133,-0.5966750395055235,0.3871717121371696,-0.010659514835252772,0.12691455723979878,-0.3783887266105943,0.8780773622571375,0.7558946750235348,-0.28251601002509075,-1.668926746736493,0.14137400444516154,2.403405523988714,1.0273657241699679,0.878092876070424,0.7554597494309409,-0.2825552651693207,-1.6690993614607135,0.1414185955172306,2.4034451173676383,1.0273381002308042,0.0004697496336011913,0.0003267283226494021,9.599971207275134e-05,1.536513163996062e-05,0.00017802342122850206,8.497069914974626e-05,0.00046189119189171836,0.0,0.0,0.0,0.0,0.0,0.0,0.0,1.551381328646073e-05,-0.0004349255925939488,-3.925514422997711e-05,-0.00017261472422047675,4.459107206905566e-05,3.959337892434078e-05,-2.76239391636679e-05,-0.0004697496336011913,-0.0003267283226494021,-9.599971207275134e-05,-1.536513163996062e-05,-0.00017802342122850206,-8.497069914974626e-05,-0.00046189119189171836,0.8354122042655945,46.50039291381836,5.762844562530518,-19.586824417114258,-0.5697532296180725,-2.3916659355163574,0.39950889348983765,0
34,0.16500544548034668,-0.8354122042655945,-46.50039291381836,-5.762844562530518,19.586824417114258,0.5697532296180725,2.3916659355163574,-0.39950889348983765,0.0,0.0,0.0,0.0,0.0,0.0,0.0,-0.8282856902737078,-0.15468324219207133,-0.5966750395055235,0.3871717121371696,-0.010659514835252772,0.12691455723979878,-0.3783887266105943,0.8780773622571375,0.7558946750235348,-0.28251601002509075,-1.668926746736493,0.14137400444516154,2.403405523988714,1.0273657241699679,0.878092876070424,0.7554597494309409,-0.2825552651693207,-1.6690993614607135,0.1414185955172306,2.4034451173676383,1.0273381002308042,0.0004697496336011913,0.0003267283226494021,9.599971207275134e-05,1.536513163996062e-05,0.00017802342122850206,8.497069914974626e-05,0.00046189119189171836,0.0,0.0,0.0,0.0,0.0,0.0,0.0,1.551381328646073e-05,-0.0004349255925939488,-3.925514422997711e-05,-0.00017261472422047675,4.459107206905566e-05,3.959337892434078e-05,-2.76239391636679e-05,-0.0004697496336011913,-0.0003267283226494021,-9.599971207275134e-05,-1.536513163996062e-05,-0.00017802342122850206,-8.497069914974626e-05,-0.00046189119189171836,0.8354122042655945,46.50039291381836,5.762844562530518,-19.586824417114258,-0.5697532296180725,-2.3916659355163574,0.39950889348983765,0
35,0.17000555992126465,-0.8354122042655945,-46.50039291381836,-5.762844562530518,19.535249710083008,0.5697532296180725,2.3980746269226074,-0.35098594427108765,0.0,0.0,0.0,0.0,0.0,0.0,0.0,-0.827244310021769,-0.15427912994923126,-0.5936223314215935,0.38619808465649363,-0.011288553783539637,0.12669938665562175,-0.37900938429403325,0.8780773622571375,0.7558948313459413,-0.2825160100250913,-1.6689231274588066,0.1413698618575109,2.4034048119121127,1.027359276969146,0.878092876070424,0.7554597494309409,-0.2825552651693207,-1.6690993614607135,0.1414185955172306,2.4034451173676383,1.0273381002308042,-3.649348034618016e-05,0.0003619252023660348,0.00018545026415837956,0.0013442954170976196,0.0001241615211666778,-0.0002464378883769298,-0.0008233637318332699,0.0,0.0,0.0,0.0,0.0,0.0,0.0,1.551381328646073e-05,-0.0004350819150004126,-3.9255144229422e-05,-0.0001762340019069164,4.873365971969079e-05,4.030545552557996e-05,-2.1176738341788237e-05,3.649348034618016e-05,-0.0003619252023660348,-0.00018545026415837956,-0.0013442954170976196,-0.0001241615211666778,0.0002464378883769298,0.0008233637318332699,0.8354122042655945,46.50039291381836,5.762844562530518,-19.535249710083008,-0.5697532296180725,-2.3980746269226074,0.35098594427108765,0
36,0.17494916915893555,-0.8354122042655945,-46.50039291381836,-5.762844562530518,19.535249710083008,0.5697532296180725,2.3980746269226074,-0.35098594427108765,0.0,0.0,0.0,0.0,0.0,0.0,0.0,-0.827244310021769,-0.15427912994923126,-0.5936223314215935,0.38619808465649363,-0.011288553783539637,0.12669938665562175,-0.37900938429403325,0.8780773622571375,0.7558948313459413,-0.2825160100250913,-1.6689231274588066,0.1413698618575109,2.4034048119121127,1.027359276969146,0.878092876070424,0.7554597494309409,-0.2825552651693207,-1.6690993614607135,0.1414185955172306,2.4034451173676383,1.0273381002308042,-3.649348034618016e-05,0.0003619252023660348,0.00018545026415837956,0.0013442954170976196,0.0001241615211666778,-0.0002464378883769298,-0.0008233637318332699,0.0,0.0,0.0,0.0,0.0,0.0,0.0,1.551381328646073e-05,-0.0004350819150004126,-3.9255144229422e-05,-0.0001762340019069164,4.873365971969079e-05,4.030545552557996e-05,-2.1176738341788237e-05,3.649348034618016e-05,-0.0003619252023660348,-0.00018545026415837956,-0.0013442954170976196,-0.0001241615211666778,0.0002464378883769298,0.0008233637318332699,0.8354122042655945,46.50039291381836,5.762844562530518,-19.535249710083008,-0.5697532296180725,-2.3980746269226074,0.35098594427108765,0
37,0.18000388145446777,-0.7838374972343445,-46.47658920288086,-5.762844562530518,19.610628128051758,0.5761619210243225,2.3980746269226074,-0.39218467473983765,0.0,0.0,0.0,0.0,0.0,0.0,0.0,-0.8291621104615166,-0.16312232028975002,-0.5943406146547371,0.3916084137391347,-0.011263053377225945,0.1276997268832149,-0.3782468389168857,0.8780737429794511,0.7558903528345534,-0.2825160100250913,-1.6689284171723482,0.14136902727706435,2.4034048119121127,1.0273616964047905,0.878092876070424,0.7554597494309409,-0.2825552651693207,-1.6690993614607135,0.1414185955172306,2.4034451173676383,1.0273381002308042,-0.0008128847770632773,-4.815582296663972e-05,-0.0005495645225005556,-0.0001514247615253055,-7.931864040103002e-05,-0.0003039526265020879,0.00027474822460053273,0.0,0.0,0.0,0.0,0.0,0.0,0.0,1.913309097290039e-05,-0.00043060340361256166,-3.9255144229422e-05,-0.0001709442883652823,4.9568240166247834e-05,4.030545552557996e-05,-2.359617398628444e-05,0.0008128847770632773,4.815582296663972e-05,0.0005495645225005556,0.0001514247615253055,7.931864040103002e-05,0.0003039526265020879,-0.00027474822460053273,0.7838374972343445,46.47658920288086,5.762844562530518,-19.610628128051758,-0.5761619210243225,-2.3980746269226074,0.39218467473983765,0
38,0.18500471115112305,-0.7838374972343445,-46.47658920288086,-5.762844562530518,19.610628128051758,0.5761619210243225,2.3980746269226074,-0.39218467473983765,0.0,0.0,0.0,0.0,0.0,0.0,0.0,-0.8291621104615166,-0.16312232028975002,-0.5943406146547371,0.3916084137391347,-0.011263053377225945,0.1276997268832149,-0.3782468389168857,0.8780737429794511,0.7558903528345534,-0.2825160100250913,-1.6689284171723482,0.14136902727706435,2.4034048119121127,1.0273616964047905,0.878092876070424,0.7554597494309409,-0.2825552651693207,-1.6690993614607135,0.1414185955172306,2.4034451173676383,1.0273381002308042,-0.0008128847770632773,-4.815582296663972e-05,-0.0005495645225005556,-0.0001514247615253055,-7.931864040103002e-05,-0.0003039526265020879,0.00027474822460053273,0.0,0.0,0.0,0.0,0.0,0.0,0.0,1.913309097290039e-05,-0.00043060340361256166,-3.9255144229422e-05,-0.0001709442883652823,4.9568240166247834e-05,4.030545552557996e-05,-2.359617398628444e-05,0.0008128847770632773,4.815582296663972e-05,0.0005495645225005556,0.0001514247615253055,7.931864040103002e-05,0.0003039526265020879,-0.00027474822460053273,0.7838374972343445,46.47658920288086,5.762844562530518,-19.610628128051758,-0.5761619210243225,-2.3980746269226074,0.39218467473983765,0
39,0.18999886512756348,-0.7838374972343445,-46.50039291381836,-5.762844562530518,19.610628128051758,0.5880637764930725,2.3916659355163574,-0.35831016302108765,0.0,0.0,0.0,0.0,0.0,0.0,0.0,-0.8227898303502781,-0.15632170400093998,-0.5909012606560422,0.38912081195966386,-0.010870599554576041,0.1269624262329445,-0.37838591331654553,0.8780737429794511,0.7558949051592116,-0.28251600970107077,-1.6689284171723482,0.14136916218499093,2.4034055239889356,1.0273611508757325,0.878092876070424,0.7554597494309409,-0.2825552651693207,-1.6690993614607135,0.1414185955172306,2.4034451173676383,1.0273381002308042,-0.0008527990774101138,0.00010382959797415405,0.00020305563240515182,-0.0008586567686997825,-0.0003986502713628468,0.00011459668133631473,-0.0008405374089434869,0.0,0.0,0.0,0.0,0.0,0.0,0.0,1.913309097290039e-05,-0.0004351557282707974,-3.925546824995463e-05,-0.0001709442883652823,4.943333223966784e-05,3.959337870274027e-05,-2.30506449283574e-05,0.0008527990774101138,-0.00010382959797415405,-0.00020305563240515182,0.0008586567686997825,0.0003986502713628468,-0.00011459668133631473,0.0008405374089434869,0.7838374972343445,46.50039291381836,5.762844562530518,-19.610628128051758,-0.5880637764930725,-2.3916659355163574,0.35831016302108765,0
40,0.19507265090942383,-0.7838374972343445,-46.50039291381836,-5.762844562530518,19.610628128051758,0.5880637764930725,2.3916659355163574,-0.35831016302108765,0.0,0.0,0.0,0.0,0.0,0.0,0.0,-0.8227898303502781,-0.15632170400093998,-0.5909012606560422,0.38912081195966386,-0.010870599554576041,0.1269624262329445,-0.37838591331654553,0.8780737429794511,0.7558949051592116,-0.28251600970107077,-1.6689284171723482,0.14136916218499093,2.4034055239889356,1.0273611508757325,0.878092876070424,0.7554597494309409,-0.2825552651693207,-1.6690993614607135,0.1414185955172306,2.4034451173676383,1.0273381002308042,-0.0008527990774101138,0.00010382959797415405,0.00020305563240515182,-0.0008586567686997825,-0.0003986502713628468,0.00011459668133631473,-0.0008405374089434869,0.0,0.0,0.0,0.0,0.0,0.0,0.0,1.913309097290039e-05,-0.0004351557282707974,-3.925546824995463e-05,-0.0001709442883652823,4.943333223966784e-05,3.959337870274027e-05,-2.30506449283574e-05,0.0008527990774101138,-0.00010382959797415405,-0.00020305563240515182,0.0008586567686997825,0.0003986502713628468,-0.00011459668133631473,0.0008405374089434869,0.7838374972343445,46.50039291381836,5.762844562530518,-19.610628128051758,-0.5880637764930725,-2.3916659355163574,0.35831016302108765,0
41,0.2000131607055664,-0.8076412081718445,-46.52419662475586,-5.762844562530518,19.559053421020508,0.5697532296180725,2.3916659355163574,-0.39950889348983765,0.0,0.0,0.0,0.0,0.0,0.0,0.0,-0.811985301936348,-0.17225036489457243,-0.586922350097166,0.39788039804718783,-0.010337703126301645,0.12836175289812682,-0.3775153893620823,0.8780754134153064,0.7558965796772383,-0.2825160100250895,-1.668924797894662,0.14137021669819486,2.4034055239889356,1.0273657149641495,0.878092876070424,0.7554597494309409,-0.2825552651693207,-1.6690993614607135,0.1414185955172306,2.4034451173676383,1.0273381002308042,1.8128001647700185e-05,5.5420917003472906e-05,0.00019072383396703222,0.0008415760012074358,0.00019286098591041228,4.242221116291425e-05,0.0007856365127639074,0.0,0.0,0.0,0.0,0.0,0.0,0.0,1.7462655117594927e-05,-0.00043683024629748157,-3.925514423119836e-05,-0.00017456356605149992,4.83788190357437e-05,3.959337870274027e-05,-2.761473334533804e-05,-1.8128001647700185e-05,-5.5420917003472906e-05,-0.00019072383396703222,-0.0008415760012074358,-0.00019286098591041228,-4.242221116291425e-05,-0.0007856365127639074,0.8076412081718445,46.52419662475586,5.762844562530518,-19.559053421020508,-0.5697532296180725,-2.3916659355163574,0.39950889348983765,0
42,0.20499420166015625,-0.8076412081718445,-46.52419662475586,-5.762844562530518,19.559053421020508,0.5697532296180725,2.3916659355163574,-0.39950889348983765,0.0,0.0,0.0,0.0,0.0,0.0,0.0,-0.811985301936348,-0.17225036489457243,-0.586922350097166,0.39788039804718783,-0.010337703126301645,0.12836175289812682,-0.3775153893620823,0.8780754134153064,0.7558965796772383,-0.2825160100250895,-1.668924797894662,0.14137021669819486,2.4034055239889356,1.0273657149641495,0.878092876070424,0.7554597494309409,-0.2825552651693207,-1.6690993614607135,0.1414185955172306,2.4034451173676383,1.0273381002308042,1.8128001647700185e-05,5.5420917003472906e-05,0.00019072383396703222,0.0008415760012074358,0.00019286098591041228,4.242221116291425e-05,0.0007856365127639074,0.0,0.0,0.0,0.0,0.0,0.0,0.0,1.7462655117594927e-05,-0.00043683024629748157,-3.925514423119836e-05,-0.00017456356605149992,4.83788190357437e-05,3.959337870274027e-05,-2.761473334533804e-05,-1.8128001647700185e-05,-5.5420917003472906e-05,-0.00019072383396703222,-0.0008415760012074358,-0.00019286098591041228,-4.242221116291425e-05,-0.0007856365127639074,0.8076412081718445,46.52419662475586,5.762844562530518,-19.559053421020508,-0.5697532296180725,-2.3916659355163574,0.39950889348983765,0
43,0.20999407768249512,-0.8076412081718445,-46.50039291381836,-5.810451984405518,19.586824417114258,0.5761619210243225,2.3916659355163574,-0.39950889348983765,0.0,0.0,0.0,0.0,0.0,0.0,0.0,-0.8134363763693094,-0.19306212767450737,-0.5903441467882568,0.4168158978942122,-0.009689094771210315,0.1319402185070012,-0.37700240912166666,0.8780754134153064,0.7558946724560521,-0.28251266915338075,-1.668926746736493,0.1413691629361428,2.4034055239889356,1.0273625321735511,0.878092876070424,0.7554597494309409,-0.2825552651693207,-1.6690993614607135,0.1414185955172306,2.4034451173676383,1.0273381002308042,-0.0002778899337614893,0.00016277428425780764,0.0011579794426090154,-0.0027044455969723936,2.6408270284162887e-06,0.0001585367926744407,0.0012274808767137066,0.0,0.0,0.0,0.0,0.0,0.0,0.0,1.7462655117594927e-05,-0.0004349230251112779,-4.2596015939977416e-05,-0.00017261472422047675,4.9432581087804905e-05,3.959337870274027e-05,-2.4431942746927504e-05,0.0002778899337614893,-0.00016277428425780764,-0.0011579794426090154,0.0027044455969723936,-2.6408270284162887e-06,-0.0001585367926744407,-0.0012274808767137066,0.8076412081718445,46.50039291381836,5.810451984405518,-19.586824417114258,-0.5761619210243225,-2.3916659355163574,0.39950889348983765,0
44,0.21500849723815918,-0.8076412081718445,-46.50039291381836,-5.810451984405518,19.586824417114258,0.5761619210243225,2.3916659355163574,-0.39950889348983765,0.0,0.0,0.0,0.0,0.0,0.0,0.0,-0.8134363763693094,-0.19306212767450737,-0.5903441467882568,0.4168158978942122,-0.009689094771210315,0.1319402185070012,-0.37700240912166666,0.8780754134153064,0.7558946724560521,-0.28251266915338075,-1.668926746736493,0.1413691629361428,2.4034055239889356,1.0273625321735511,0.878092876070424,0.7554597494309409,-0.2825552651693207,-1.6690993614607135,0.1414185955172306,2.4034451173676383,1.0273381002308042,-0.0002778899337614893,0.00016277428425780764,0.0011579794426090154,-0.0027044455969723936,2.6408270284162887e-06,0.0001585367926744407,0.0012274808767137066,0.0,0.0,0.0,0.0,0.0,0.0,0.0,1.7462655117594927e-05,-0.0004349230251112779,-4.2596015939977416e-05,-0.00017261472422047675,4.9432581087804905e-05,3.959337870274027e-05,-2.4431942746927504e-05,0.0002778899337614893,-0.00016277428425780764,-0.0011579794426090154,0.0027044455969723936,-2.6408270284162887e-06,-0.0001585367926744407,-0.0012274808767137066,0.8076412081718445,46.50039291381836,5.810451984405518,-19.586824417114258,-0.5761619210243225,-2.3916659355163574,0.39950889348983765,0
45,0.21999621391296387,-0.7838374972343445,-46.52419662475586,-5.786648273468018,19.586824417114258,0.5761619210243225,2.3852572441101074,-0.37204307317733765,0.0,0.0,0.0,0.0,0.0,0.0,0.0,-0.813051343515145,-0.17854123535958352,-0.5871347216735986,0.40311901240545533,-0.010264133057815903,0.13037776935671835,-0.37557587709646223,0.8780737429794511,0.7558965797829221,-0.282514339589236,-1.668926746736493,0.14137044664973136,2.4034062360657584,1.0273626767547628,0.878092876070424,0.7554597494309409,-0.2825552651693207,-1.6690993614607135,0.1414185955172306,2.4034451173676383,1.0273381002308042,-0.00074357610423223,0.0009717317249732202,0.00018534669034780268,0.00033231379588922626,-0.00017897737636354493,0.00034580212572157213,-0.00046318282063331534,0.0,0.0,0.0,0.0,0.0,0.0,0.0,1.913309097290039e-05,-0.0004368303519812766,-4.0925580084727464e-05,-0.00017261472422047675,4.814886749923697e-05,3.8881301879900576e-05,-2.4576523958597107e-05,0.00074357610423223,-0.0009717317249732202,-0.00018534669034780268,-0.00033231379588922626,0.00017897737636354493,-0.00034580212572157213,0.00046318282063331534,0.7838374972343445,46.52419662475586,5.786648273468018,-19.586824417114258,-0.5761619210243225,-2.3852572441101074,0.37204307317733765,0
46,0.22499632835388184,-0.7838374972343445,-46.52419662475586,-5.786648273468018,19.586824417114258,0.5761619210243225,2.3852572441101074,-0.37204307317733765,0.0,0.0,0.0,0.0,0.0,0.0,0.0,-0.813051343515145,-0.17854123535958352,-0.5871347216735986,0.40311901240545533,-0.010264133057815903,0.13037776935671835,-0.37557587709646223,0.8780737429794511,0.7558965797829221,-0.282514339589236,-1.668926746736493,0.14137044664973136,2.4034062360657584,1.0273626767547628,0.878092876070424,0.7554597494309409,-0.2825552651693207,-1.6690993614607135,0.1414185955172306,2.4034451173676383,1.0273381002308042,-0.00074357610423223,0.0009717317249732202,0.00018534669034780268,0.00033231379588922626,-0.00017897737636354493,0.00034580212572157213,-0.00046318282063331534,0.0,0.0,0.0,0.0,0.0,0.0,0.0,1.913309097290039e-05,-0.0004368303519812766,-4.0925580084727464e-05,-0.00017261472422047675,4.814886749923697e-05,3.8881301879900576e-05,-2.4576523958597107e-05,0.00074357610423223,-0.0009717317249732202,-0.00018534669034780268,-0.00033231379588922626,0.00017897737636354493,-0.00034580212572157213,0.00046318282063331534,0.7838374972343445,46.52419662475586,5.786648273468018,-19.586824417114258,-0.5761619210243225,-2.3852572441101074,0.37204307317733765,0
47,0.23005437850952148,-0.8592159152030945,-46.50039291381836,-5.762844562530518,19.559053421020508,0.5642600655555725,2.3916659355163574,-0.34457725286483765,0.0,0.0,0.0,0.0,0.0,0.0,0.0,-0.844615079527954,-0.09428680257267062,-0.5979366888891043,0.3359184640613944,-0.01164513945789318,0.12030663414172114,-0.37663302644301533,0.8780790326929928,0.7558949093484041,-0.2825160099170845,-1.668925036313241,0.14137035117132427,2.4034055239889356,1.0273596248534882,0.878092876070424,0.7554597494309409,-0.2825552651693207,-1.6690993614607135,0.1414185955172306,2.4034451173676383,1.0273381002308042,7.51121590073741e-05,0.0005375977917409532,-0.0004133374214461306,0.002986273397686854,0.0004586573128304057,-5.107600917488568e-05,-0.0015466073808419042,0.0,0.0,0.0,0.0,0.0,0.0,0.0,1.3843377431155268e-05,-0.0004351599174632348,-3.9255252236247706e-05,-0.00017432514747239836,4.8244345906334196e-05,3.959337870274027e-05,-2.1524622684010453e-05,-7.51121590073741e-05,-0.0005375977917409532,0.0004133374214461306,-0.002986273397686854,-0.0004586573128304057,5.107600917488568e-05,0.0015466073808419042,0.8592159152030945,46.50039291381836,5.762844562530518,-19.559053421020508,-0.5642600655555725,-2.3916659355163574,0.34457725286483765,0
48,0.23495984077453613,-0.8592159152030945,-46.50039291381836,-5.762844562530518,19.559053421020508,0.5642600655555725,2.3916659355163574,-0.34457725286483765,0.0,0.0,0.0,0.0,0.0,0.0,0.0,-0.844615079527954,-0.09428680257267062,-0.5979366888891043,0.3359184640613944,-0.01164513945789318,0.12030663414172114,-0.37663302644301533,0.8780790326929928,0.7558949093484041,-0.2825160099170845,-1.668925036313241,0.14137035117132427,2.4034055239889356,1.0273596248534882,0.878092876070424,0.7554597494309409,-0.2825552651693207,-1.6690993614607135,0.1414185955172306,2.4034451173676383,1.0273381002308042,7.51121590073741e-05,0.0005375977917409532,-0.0004133374214461306,0.002986273397686854,0.0004586573128304057,-5.107600917488568e-05,-0.0015466073808419042,0.0,0.0,0.0,0.0,0.0,0.0,0.0,1.3843377431155268e-05,-0.0004351599174632348,-3.9255252236247706e-05,-0.00017432514747239836,4.8244345906334196e-05,3.959337870274027e-05,-2.1524622684010453e-05,-7.51121590073741e-05,-0.0005375977917409532,0.0004133374214461306,-0.002986273397686854,-0.0004586573128304057,5.107600917488568e-05,0.0015466073808419042,0.8592159152030945,46.50039291381836,5.762844562530518,-19.559053421020508,-0.5642600655555725,-2.3916659355163574,0.34457725286483765,0
49,0.23994684219360352,-0.8354122042655945,-46.47658920288086,-5.762844562530518,19.535249710083008,0.5697532296180725,2.3916659355163574,-0.39950889348983765,0.0,0.0,0.0,0.0,0.0,0.0,0.0,-0.8266266255941493,-0.13244596929013538,-0.5896158189477457,0.3681210636347062,-0.01131890233906961,0.12478842465836067,-0.37805060759835596,0.8780773622571375,0.7558932388055514,-0.28251601002509114,-1.668923127459255,0.14136985907926222,2.4034055239889356,1.0273625496162304,0.878092876070424,0.7554597494309409,-0.2825552651693207,-1.6690993614607135,0.1414185955172306,2.4034451173676383,1.0273381002308042,6.8833932647902e-05,-4.959093709876446e-05,-0.00031403759668589473,0.0007915035340436479,0.00043679091247795544,6.640026322548599e-05,0.0006593762087126847,0.0,0.0,0.0,0.0,0.0,0.0,0.0,1.551381328646073e-05,-0.0004334893746105184,-3.9255144229588534e-05,-0.0001762340014583863,4.8736437968377455e-05,3.959337870274027e-05,-2.444938542622843e-05,-6.8833932647902e-05,4.959093709876446e-05,0.00031403759668589473,-0.0007915035340436479,-0.00043679091247795544,-6.640026322548599e-05,-0.0006593762087126847,0.8354122042655945,46.47658920288086,5.762844562530518,-19.535249710083008,-0.5697532296180725,-2.3916659355163574,0.39950889348983765,0
50,0.2449951171875,-0.8354122042655945,-46.47658920288086,-5.762844562530518,19.535249710083008,0.5697532296180725,2.3916659355163574,-0.39950889348983765,0.0,0.0,0.0,0.0,0.0,0.0,0.0,-0.8266266255941493,-0.13244596929013538,-0.5896158189477457,0.3681210636347062,-0.01131890233906961,0.12478842465836067,-0.37805060759835596,0.8780773622571375,0.7558932388055514,-0.28251601002509114,-1.668923127459255,0.14136985907926222,2.4034055239889356,1.0273625496162304,0.878092876070424,0.7554597494309409,-0.2825552651693207,-1.6690993614607135,0.1414185955172306,2.4034451173676383,1.0273381002308042,6.8833932647902e-05,-4.959093709876446e-05,-0.00031403759668589473,0.0007915035340436479,0.00043679091247795544,6.640026322548599e-05,0.0006593762087126847,0.0,0.0,0.0,0.0,0.0,0.0,0.0,1.551381328646073e-05,-0.0004334893746105184,-3.9255144229588534e-05,-0.0001762340014583863,4.8736437968377455e-05,3.959337870274027e-05,-2.444938542622843e-05,-6.8833932647902e-05,4.959093709876446e-05,0.00031403759668589473,-0.0007915035340436479,-0.00043679091247795544,-6.640026322548599e-05,-0.0006593762087126847,0.8354122042655945,46.47658920288086,5.762844562530518,-19.535249710083008,-0.5697532296180725,-2.3916659355163574,0.39950889348983765,0
51,0.25005435943603516,-0.8076412081718445,-46.47658920288086,-5.762844562530518,19.610628128051758,0.5761619210243225,2.3980746269226074,-0.35831016302108765,0.0,0.0,0.0,0.0,0.0,0.0,0.0,-0.8113397249485739,-0.16403504007205164,-0.5829273863569245,0.39280469103835897,-0.010392770474569013,0.12872164240636907,-0.3793668573449043,0.8780754134153064,0.7558930049091279,-0.2825160100250913,-1.6689284171723482,0.14137056475514126,2.4034048119121127,1.0273579543574585,0.878092876070424,0.7554597494309409,-0.2825552651693207,-1.6690993614607135,0.1414185955172306,2.4034451173676383,1.0273381002308042,2.919320943729155e-05,-7.147667022711712e-07,0.00043589053968585815,-0.0005829809978458913,-2.2935938952685612e-05,-0.0002453381414530707,-0.0004856709772482044,0.0,0.0,0.0,0.0,0.0,0.0,0.0,1.7462655117594927e-05,-0.0004332554781870668,-3.9255144229422e-05,-0.0001709442883652823,4.803076208934054e-05,4.030545552557996e-05,-1.9854126654283988e-05,-2.919320943729155e-05,7.147667022711712e-07,-0.00043589053968585815,0.0005829809978458913,2.2935938952685612e-05,0.0002453381414530707,0.0004856709772482044,0.8076412081718445,46.47658920288086,5.762844562530518,-19.610628128051758,-0.5761619210243225,-2.3980746269226074,0.35831016302108765,0
52,0.25501298904418945,-0.8076412081718445,-46.47658920288086,-5.762844562530518,19.610628128051758,0.5761619210243225,2.3980746269226074,-0.35831016302108765,0.0,0.0,0.0,0.0,0.0,0.0,0.0,-0.8113397249485739,-0.16403504007205164,-0.5829273863569245,0.39280469103835897,-0.010392770474569013,0.12872164240636907,-0.3793668573449043,0.8780754134153064,0.7558930049091279,-0.2825160100250913,-1.6689284171723482,0.14137056475514126,2.4034048119121127,1.0273579543574585,0.878092876070424,0.7554597494309409,-0.2825552651693207,-1.6690993614607135,0.1414185955172306,2.4034451173676383,1.0273381002308042,2.919320943729155e-05,-7.147667022711712e-07,0.00043589053968585815,-0.0005829809978458913,-2.2935938952685612e-05,-0.0002453381414530707,-0.0004856709772482044,0.0,0.0,0.0,0.0,0.0,0.0,0.0,1.7462655117594927e-05,-0.0004332554781870668,-3.9255144229422e-05,-0.0001709442883652823,4.803076208934054e-05,4.030545552557996e-05,-1.9854126654283988e-05,-2.919320943729155e-05,7.147667022711712e-07,-0.00043589053968585815,0.0005829809978458913,2.2935938952685612e-05,0.0002453381414530707,0.0004856709772482044,0.8076412081718445,46.47658920288086,5.762844562530518,-19.610628128051758,-0.5761619210243225,-2.3980746269226074,0.35831016302108765,0
53,0.26000118255615234,-0.8076412081718445,-46.44881820678711,-5.762844562530518,19.610628128051758,0.5642600655555725,2.4044833183288574,-0.39950889348983765,0.0,0.0,0.0,0.0,0.0,0.0,0.0,-0.833471455476551,-0.1751746478218235,-0.5995416598035515,0.39884543653870136,-0.009396360597953247,0.1294894248919377,-0.3792982872699644,0.8780754134153064,0.7558912900693967,-0.2825160100250913,-1.6689284171723482,0.14137038956842918,2.40340409983529,1.0273656107750042,0.878092876070424,0.7554597494309409,-0.2825552651693207,-1.6690993614607135,0.1414185955172306,2.4034451173676383,1.0273381002308042,-0.0006184791731770198,-0.0013036916648762396,0.0004064882244203686,-0.0001768368347277129,0.00021446232380537008,-0.000495562472484293,0.0009066306984515442,0.0,0.0,0.0,0.0,0.0,0.0,0.0,1.7462655117594927e-05,-0.0004315406384558518,-3.9255144229422e-05,-0.0001709442883652823,4.820594880142193e-05,4.101753234841965e-05,-2.7510544200026743e-05,0.0006184791731770198,0.0013036916648762396,-0.0004064882244203686,0.0001768368347277129,-0.00021446232380537008,0.000495562472484293,-0.0009066306984515442,0.8076412081718445,46.44881820678711,5.762844562530518,-19.610628128051758,-0.5642600655555725,-2.4044833183288574,0.39950889348983765,0
54,0.265000581741333,-0.8076412081718445,-46.44881820678711,-5.762844562530518,19.610628128051758,0.5642600655555725,2.4044833183288574,-0.39950889348983765,0.0,0.0,0.0,0.0,0.0,0.0,0.0,-0.833471455476551,-0.1751746478218235,-0.5995416598035515,0.39884543653870136,-0.009396360597953247,0.1294894248919377,-0.3792982872699644,0.8780754134153064,0.7558912900693967,-0.2825160100250913,-1.6689284171723482,0.14137038956842918,2.40340409983529,1.0273656107750042,0.878092876070424,0.7554597494309409,-0.2825552651693207,-1.6690993614607135,0.1414185955172306,2.4034451173676383,1.0273381002308042,-0.0006184791731770198,-0.0013036916648762396,0.0004064882244203686,-0.0001768368347277129,0.00021446232380537008,-0.000495562472484293,0.0009066306984515442,0.0,0.0,0.0,0.0,0.0,0.0,0.0,1.7462655117594927e-05,-0.0004315406384558518,-3.9255144229422e-05,-0.0001709442883652823,4.820594880142193e-05,4.101753234841965e-05,-2.7510544200026743e-05,0.0006184791731770198,0.0013036916648762396,-0.0004064882244203686,0.0001768368347277129,-0.00021446232380537008,0.000495562472484293,-0.0009066306984515442,0.8076412081718445,46.44881820678711,5.762844562530518,-19.610628128051758,-0.5642600655555725,-2.4044833183288574,0.39950889348983765,0
55,0.2702310085296631,-0.8076412081718445,-46.44881820678711,-5.762844562530518,19.610628128051758,0.5642600655555725,2.4044833183288574,-0.39950889348983765,0.0,0.0,0.0,0.0,0.0,0.0,0.0,-0.833471455476551,-0.1751746478218235,-0.5995416598035515,0.39884543653870136,-0.009396360597953247,0.1294894248919377,-0.3792982872699644,0.8780754134153064,0.7558912900693967,-0.2825160100250913,-1.6689284171723482,0.14137038956842918,2.40340409983529,1.0273656107750042,0.878092876070424,0.7554597494309409,-0.2825552651693207,-1.6690993614607135,0.1414185955172306,2.4034451173676383,1.0273381002308042,-0.0006184791731770198,-0.0013036916648762396,0.0004064882244203686,-0.0001768368347277129,0.00021446232380537008,-0.000495562472484293,0.0009066306984515442,0.0,0.0,0.0,0.0,0.0,0.0,0.0,1.7462655117594927e-05,-0.0004315406384558518,-3.9255144229422e-05,-0.0001709442883652823,4.820594880142193e-05,4.101753234841965e-05,-2.7510544200026743e-05,0.0006184791731770198,0.0013036916648762396,-0.0004064882244203686,0.0001768368347277129,-0.00021446232380537008,0.000495562472484293,-0.0009066306984515442,0.8076412081718445,46.44881820678711,5.762844562530518,-19.610628128051758,-0.5642600655555725,-2.4044833183288574,0.39950889348983765,0
56,0.27499842643737793,-0.8076412081718445,-46.44881820678711,-5.762844562530518,19.610628128051758,0.5642600655555725,2.4044833183288574,-0.39950889348983765,0.0,0.0,0.0,0.0,0.0,0.0,0.0,-0.833471455476551,-0.1751746478218235,-0.5995416598035515,0.39884543653870136,-0.009396360597953247,0.1294894248919377,-0.3792982872699644,0.8780754134153064,0.7558912900693967,-0.2825160100250913,-1.6689284171723482,0.14137038956842918,2.40340409983529,1.0273656107750042,0.878092876070424,0.7554597494309409,-0.2825552651693207,-1.6690993614607135,0.1414185955172306,2.4034451173676383,1.0273381002308042,-0.0006184791731770198,-0.0013036916648762396,0.0004064882244203686,-0.0001768368347277129,0.00021446232380537008,-0.000495562472484293,0.0009066306984515442,0.0,0.0,0.0,0.0,0.0,0.0,0.0,1.7462655117594927e-05,-0.0004315406384558518,-3.9255144229422e-05,-0.0001709442883652823,4.820594880142193e-05,4.101753234841965e-05,-2.7510544200026743e-05,0.0006184791731770198,0.0013036916648762396,-0.0004064882244203686,0.0001768368347277129,-0.00021446232380537008,0.000495562472484293,-0.0009066306984515442,0.8076412081718445,46.44881820678711,5.762844562530518,-19.610628128051758,-0.5642600655555725,-2.4044833183288574,0.39950889348983765,0
57,0.28000760078430176,-0.8354122042655945,-46.52419662475586,-5.762844562530518,19.586824417114258,0.5761619210243225,2.3980746269226074,-0.39218467473983765,0.0,0.0,0.0,0.0,0.0,0.0,0.0,-0.8253616732859612,-0.16548750492304692,-0.588307416575467,0.3942465959571769,-0.010618377167319585,0.12827344638746846,-0.37915159857551856,0.8780773622571375,0.7558965759323513,-0.28251601099715307,-1.668926746736493,0.14137369171525596,2.4034048119121127,1.027360160165016,0.878092876070424,0.7554597494309409,-0.2825552651693207,-1.6690993614607135,0.1414185955172306,2.4034451173676383,1.0273381002308042,0.00031145279178908773,0.0006506823718696834,0.00010440863586267643,0.00018693562680726524,-1.4236783527667786e-05,-0.0001622360132765909,0.0005539006306004078,0.0,0.0,0.0,0.0,0.0,0.0,0.0,1.551381328646073e-05,-0.00043682650141041446,-3.9254172167657586e-05,-0.00017261472422047675,4.490380197463839e-05,4.030545552557996e-05,-2.2059934211782206e-05,-0.00031145279178908773,-0.0006506823718696834,-0.00010440863586267643,-0.00018693562680726524,1.4236783527667786e-05,0.0001622360132765909,-0.0005539006306004078,0.8354122042655945,46.52419662475586,5.762844562530518,-19.586824417114258,-0.5761619210243225,-2.3980746269226074,0.39218467473983765,0
58,0.285031795501709,-0.8354122042655945,-46.52419662475586,-5.762844562530518,19.586824417114258,0.5761619210243225,2.3980746269226074,-0.39218467473983765,0.0,0.0,0.0,0.0,0.0,0.0,0.0,-0.8253616732859612,-0.16548750492304692,-0.588307416575467,0.3942465959571769,-0.010618377167319585,0.12827344638746846,-0.37915159857551856,0.8780773622571375,0.7558965759323513,-0.28251601099715307,-1.668926746736493,0.14137369171525596,2.4034048119121127,1.027360160165016,0.878092876070424,0.7554597494309409,-0.2825552651693207,-1.6690993614607135,0.1414185955172306,2.4034451173676383,1.0273381002308042,0.00031145279178908773,0.0006506823718696834,0.00010440863586267643,0.00018693562680726524,-1.4236783527667786e-05,-0.0001622360132765909,0.0005539006306004078,0.0,0.0,0.0,0.0,0.0,0.0,0.0,1.551381328646073e-05,-0.00043682650141041446,-3.9254172167657586e-05,-0.00017261472422047675,4.490380197463839e-05,4.030545552557996e-05,-2.2059934211782206e-05,-0.00031145279178908773,-0.0006506823718696834,-0.00010440863586267643,-0.00018693562680726524,1.4236783527667786e-05,0.0001622360132765909,-0.0005539006306004078,0.8354122042655945,46.52419662475586,5.762844562530518,-19.586824417114258,-0.5761619210243225,-2.3980746269226074,0.39218467473983765,0
59,0.2900078296661377,-0.8076412081718445,-46.52419662475586,-5.762844562530518,19.586824417114258,0.5697532296180725,2.3916659355163574,-0.34457725286483765,0.0,0.0,0.0,0.0,0.0,0.0,0.0,-0.8324578913889212,-0.17188309923282796,-0.5949664648798405,0.3932816023290577,-0.010228083352226799,0.12845535382582698,-0.37904369521625186,0.8780754134153064,0.7558963457808174,-0.2825160100250968,-1.6689267457916854,0.14137434760061485,2.4034055239889356,1.0273595072505841,0.878092876070424,0.7554597494309409,-0.2825552651693207,-1.6690993614607135,0.1414185955172306,2.4034451173676383,1.0273381002308042,-0.0003943922031283647,0.0002901483002903605,-0.0002432914223380577,0.00015034840519232188,9.896796572104147e-05,0.00011419708481290231,-0.001591207846982833,0.0,0.0,0.0,0.0,0.0,0.0,0.0,1.7462655117594927e-05,-0.00043659634987658347,-3.92551442239264e-05,-0.00017261566902804226,4.424791661575278e-05,3.959337870274027e-05,-2.140701977992876e-05,0.0003943922031283647,-0.0002901483002903605,0.0002432914223380577,-0.00015034840519232188,-9.896796572104147e-05,-0.00011419708481290231,0.001591207846982833,0.8076412081718445,46.52419662475586,5.762844562530518,-19.586824417114258,-0.5697532296180725,-2.3916659355163574,0.34457725286483765,0
60,0.2950258255004883,-0.8076412081718445,-46.52419662475586,-5.762844562530518,19.586824417114258,0.5697532296180725,2.3916659355163574,-0.34457725286483765,0.0,0.0,0.0,0.0,0.0,0.0,0.0,-0.8324578913889212,-0.17188309923282796,-0.5949664648798405,0.3932816023290577,-0.010228083352226799,0.12845535382582698,-0.37904369521625186,0.8780754134153064,0.7558963457808174,-0.2825160100250968,-1.6689267457916854,0.14137434760061485,2.4034055239889356,1.0273595072505841,0.878092876070424,0.7554597494309409,-0.2825552651693207,-1.6690993614607135,0.1414185955172306,2.4034451173676383,1.0273381002308042,-0.0003943922031283647,0.0002901483002903605,-0.0002432914223380577,0.00015034840519232188,9.896796572104147e-05,0.00011419708481290231,-0.001591207846982833,0.0,0.0,0.0,0.0,0.0,0.0,0.0,1.7462655117594927e-05,-0.00043659634987658347,-3.92551442239264e-05,-0.00017261566902804226,4.424791661575278e-05,3.959337870274027e-05,-2.140701977992876e-05,0.0003943922031283647,-0.0002901483002903605,0.0002432914223380577,-0.00015034840519232188,-9.896796572104147e-05,-0.00011419708481290231,0.001591207846982833,0.8076412081718445,46.52419662475586,5.762844562530518,-19.586824417114258,-0.5697532296180725,-2.3916659355163574,0.34457725286483765,0
61,0.2999999523162842,-0.8354122042655945,-46.52419662475586,-5.786648273468018,19.610628128051758,0.5761619210243225,2.3916659355163574,-0.38577598333358765,0.0,0.0,0.0,0.0,0.0,0.0,0.0,-0.8372483319600461,-0.15373461575715164,-0.598273079409529,0.3801565204910396,-0.010352993233018687,0.12666472819661984,-0.37797162018746727,0.8780773622571375,0.7558965508936273,-0.28251433958923605,-1.6689284171723429,0.14137012978285624,2.4034055239889356,1.027364202166531,0.878092876070424,0.7554597494309409,-0.2825552651693207,-1.6690993614607135,0.1414185955172306,2.4034451173676383,1.0273381002308042,-6.929733041112877e-05,0.0011109511898952508,0.0002578419452671276,-0.0005956401591004284,4.5085174012995005e-05,0.00012768335131221618,0.0007669432151140954,0.0,0.0,0.0,0.0,0.0,0.0,0.0,1.551381328646073e-05,-0.0004368014626864314,-4.092558008467195e-05,-0.00017094428837061137,4.846573437436441e-05,3.959337870274027e-05,-2.610193572682995e-05,6.929733041112877e-05,-0.0011109511898952508,-0.0002578419452671276,0.0005956401591004284,-4.5085174012995005e-05,-0.00012768335131221618,-0.0007669432151140954,0.8354122042655945,46.52419662475586,5.786648273468018,-19.610628128051758,-0.5761619210243225,-2.3916659355163574,0.38577598333358765,0
62,0.3049600124359131,-0.8354122042655945,-46.52419662475586,-5.786648273468018,19.610628128051758,0.5761619210243225,2.3916659355163574,-0.38577598333358765,0.0,0.0,0.0,0.0,0.0,0.0,0.0,-0.8372483319600461,-0.15373461575715164,-0.598273079409529,0.3801565204910396,-0.010352993233018687,0.12666472819661984,-0.37797162018746727,0.8780773622571375,0.7558965508936273,-0.28251433958923605,-1.6689284171723429,0.14137012978285624,2.4034055239889356,1.027364202166531,0.878092876070424,0.7554597494309409,-0.2825552651693207,-1.6690993614607135,0.1414185955172306,2.4034451173676383,1.0273381002308042,-6.929733041112877e-05,0.0011109511898952508,0.0002578419452671276,-0.0005956401591004284,4.5085174012995005e-05,0.00012768335131221618,0.0007669432151140954,0.0,0.0,0.0,0.0,0.0,0.0,0.0,1.551381328646073e-05,-0.0004368014626864314,-4.092558008467195e-05,-0.00017094428837061137,4.846573437436441e-05,3.959337870274027e-05,-2.610193572682995e-05,6.929733041112877e-05,-0.0011109511898952508,-0.0002578419452671276,0.0005956401591004284,-4.5085174012995005e-05,-0.00012768335131221618,-0.0007669432151140954,0.8354122042655945,46.52419662475586,5.786648273468018,-19.610628128051758,-0.5761619210243225,-2.3916659355163574,0.38577598333358765,0
63,0.3099944591522217,-0.8592159152030945,-46.47658920288086,-5.786648273468018,19.586824417114258,0.5642600655555725,2.3916659355163574,-0.38577598333358765,0.0,0.0,0.0,0.0,0.0,0.0,0.0,-0.8260813173496417,-0.15443439290374336,-0.590231864833703,0.37949165142858926,-0.010203753129657664,0.1264415260537809,-0.376923399280791,0.8780790326929928,0.7558911328816037,-0.28251433958923605,-1.668926746736493,0.14137389773674655,2.4034055239889356,1.0273630252760106,0.878092876070424,0.7554597494309409,-0.2825552651693207,-1.6690993614607135,0.1414185955172306,2.4034451173676383,1.0273381002308042,0.00040741823275311094,-4.911856236926804e-05,0.000319160535277665,-0.0006916287753137858,0.00043442600572178683,-0.00012745957125092483,0.0007026016026847967,0.0,0.0,0.0,0.0,0.0,0.0,0.0,1.3843377431155268e-05,-0.0004313834506628478,-4.092558008467195e-05,-0.00017261472422047675,4.469778048404871e-05,3.959337870274027e-05,-2.4925045206458663e-05,-0.00040741823275311094,4.911856236926804e-05,-0.000319160535277665,0.0006916287753137858,-0.00043442600572178683,0.00012745957125092483,-0.0007026016026847967,0.8592159152030945,46.47658920288086,5.786648273468018,-19.586824417114258,-0.5642600655555725,-2.3916659355163574,0.38577598333358765,0
64,0.31500935554504395,-0.8592159152030945,-46.47658920288086,-5.786648273468018,19.586824417114258,0.5642600655555725,2.3916659355163574,-0.38577598333358765,0.0,0.0,0.0,0.0,0.0,0.0,0.0,-0.8260813173496417,-0.15443439290374336,-0.590231864833703,0.37949165142858926,-0.010203753129657664,0.1264415260537809,-0.376923399280791,0.8780790326929928,0.7558911328816037,-0.28251433958923605,-1.668926746736493,0.14137389773674655,2.4034055239889356,1.0273630252760106,0.878092876070424,0.7554597494309409,-0.2825552651693207,-1.6690993614607135,0.1414185955172306,2.4034451173676383,1.0273381002308042,0.00040741823275311094,-4.911856236926804e-05,0.000319160535277665,-0.0006916287753137858,0.00043442600572178683,-0.00012745957125092483,0.0007026016026847967,0.0,0.0,0.0,0.0,0.0,0.0,0.0,1.3843377431155268e-05,-0.0004313834506628478,-4.092558008467195e-05,-0.00017261472422047675,4.469778048404871e-05,3.959337870274027e-05,-2.4925045206458663e-05,-0.00040741823275311094,4.911856236926804e-05,-0.000319160535277665,0.0006916287753137858,-0.00043442600572178683,0.00012745957125092483,-0.0007026016026847967,0.8592159152030945,46.47658920288086,5.786648273468018,-19.586824417114258,-0.5642600655555725,-2.3916659355163574,0.38577598333358765,0
65,0.31999945640563965,-0.8354122042655945,-46.50039291381836,-5.786648273468018,19.559053421020508,0.5944724678993225,2.3852572441101074,-0.37845176458358765,0.0,0.0,0.0,0.0,0.0,0.0,0.0,-0.8260047302359506,-0.1679230783165398,-0.5942066984735589,0.3869423235653621,-0.010295132319736392,0.12747879278706573,-0.37585109666854594,0.8780773622571375,0.7558949064475844,-0.28251433955323374,-1.668924797894662,0.14137030563202335,2.4034062360657584,1.027363375276514,0.878092876070424,0.7554597494309409,-0.2825552651693207,-1.6690993614607135,0.1414185955172306,2.4034451173676383,1.0273381002308042,7.595438951347331e-05,0.00029095005644875875,3.4015605608759795e-05,0.0006296423423534478,-0.0008329788107941458,0.0002339398461853302,4.308264851487826e-05,0.0,0.0,0.0,0.0,0.0,0.0,0.0,1.551381328646073e-05,-0.00043515701664353923,-4.0925616086984196e-05,-0.00017456356605149992,4.828988520724775e-05,3.8881301879900576e-05,-2.527504570970507e-05,-7.595438951347331e-05,-0.00029095005644875875,-3.4015605608759795e-05,-0.0006296423423534478,0.0008329788107941458,-0.0002339398461853302,-4.308264851487826e-05,0.8354122042655945,46.50039291381836,5.786648273468018,-19.559053421020508,-0.5944724678993225,-2.3852572441101074,0.37845176458358765,0
66,0.32501649856567383,-0.8354122042655945,-46.50039291381836,-5.786648273468018,19.559053421020508,0.5944724678993225,2.3852572441101074,-0.37845176458358765,0.0,0.0,0.0,0.0,0.0,0.0,0.0,-0.8260047302359506,-0.1679230783165398,-0.5942066984735589,0.3869423235653621,-0.010295132319736392,0.12747879278706573,-0.37585109666854594,0.8780773622571375,0.7558949064475844,-0.28251433955323374,-1.668924797894662,0.14137030563202335,2.4034062360657584,1.027363375276514,0.878092876070424,0.7554597494309409,-0.2825552651693207,-1.6690993614607135,0.1414185955172306,2.4034451173676383,1.0273381002308042,7.595438951347331e-05,0.00029095005644875875,3.4015605608759795e-05,0.0006296423423534478,-0.0008329788107941458,0.0002339398461853302,4.308264851487826e-05,0.0,0.0,0.0,0.0,0.0,0.0,0.0,1.551381328646073e-05,-0.00043515701664353923,-4.0925616086984196e-05,-0.00017456356605149992,4.828988520724775e-05,3.8881301879900576e-05,-2.527504570970507e-05,-7.595438951347331e-05,-0.00029095005644875875,-3.4015605608759795e-05,-0.0006296423423534478,0.0008329788107941458,-0.0002339398461853302,-4.308264851487826e-05,0.8354122042655945,46.50039291381836,5.786648273468018,-19.559053421020508,-0.5944724678993225,-2.3852572441101074,0.37845176458358765,0
67,0.3300027847290039,-0.7838374972343445,-46.44881820678711,-5.786648273468018,19.586824417114258,0.5880637764930725,2.3916659355163574,-0.34457725286483765,0.0,0.0,0.0,0.0,0.0,0.0,0.0,-0.8211159896104143,-0.1628380789897179,-0.5947387410629839,0.3868940107469805,-0.010497880167213942,0.12754740123324007,-0.3752601591308446,0.8780737429794511,0.7558912640703213,-0.2825143386171741,-1.668926746736493,0.14137105118964488,2.4034055239889356,1.027359585607555,0.878092876070424,0.7554597494309409,-0.2825552651693207,-1.6690993614607135,0.1414185955172306,2.4034451173676383,1.0273381002308042,-0.001200276605709524,-0.0007054166615593162,0.000198444389283357,0.00010577524224173041,-0.000632360009259178,0.00028561470235841124,-0.0007999235894433594,0.0,0.0,0.0,0.0,0.0,0.0,0.0,1.913309097290039e-05,-0.0004315146393804037,-4.09265521466029e-05,-0.00017261472422047675,4.7544327585719026e-05,3.959337870274027e-05,-2.14853767508405e-05,0.001200276605709524,0.0007054166615593162,-0.000198444389283357,-0.00010577524224173041,0.000632360009259178,-0.00028561470235841124,0.0007999235894433594,0.7838374972343445,46.44881820678711,5.786648273468018,-19.586824417114258,-0.5880637764930725,-2.3916659355163574,0.34457725286483765,0
68,0.33495521545410156,-0.7838374972343445,-46.44881820678711,-5.786648273468018,19.586824417114258,0.5880637764930725,2.3916659355163574,-0.34457725286483765,0.0,0.0,0.0,0.0,0.0,0.0,0.0,-0.8211159896104143,-0.1628380789897179,-0.5947387410629839,0.3868940107469805,-0.010497880167213942,0.12754740123324007,-0.3752601591308446,0.8780737429794511,0.7558912640703213,-0.2825143386171741,-1.668926746736493,0.14137105118964488,2.4034055239889356,1.027359585607555,0.878092876070424,0.7554597494309409,-0.2825552651693207,-1.6690993614607135,0.1414185955172306,2.4034451173676383,1.0273381002308042,-0.001200276605709524,-0.0007054166615593162,0.000198444389283357,0.00010577524224173041,-0.000632360009259178,0.00028561470235841124,-0.0007999235894433594,0.0,0.0,0.0,0.0,0.0,0.0,0.0,1.913309097290039e-05,-0.0004315146393804037,-4.09265521466029e-05,-0.00017261472422047675,4.7544327585719026e-05,3.959337870274027e-05,-2.14853767508405e-05,0.001200276605709524,0.0007054166615593162,-0.000198444389283357,-0.00010577524224173041,0.000632360009259178,-0.00028561470235841124,0.0007999235894433594,0.7838374972343445,46.44881820678711,5.786648273468018,-19.586824417114258,-0.5880637764930725,-2.3916659355163574,0.34457725286483765,0
69,0.3399510383605957,-0.8076412081718445,-46.47658920288086,-5.762844562530518,19.586824417114258,0.5697532296180725,2.3852572441101074,-0.38577598333358765,0.0,0.0,0.0,0.0,0.0,0.0,0.0,-0.8056364656156653,-0.17147677444147516,-0.5850850563441123,0.39531961570861,-0.01046033752365106,0.129135056958702,-0.3742034982710787,0.8780754134153064,0.7558908728778198,-0.282516009917079,-1.668926746736493,0.14136977944309148,2.4034062360657584,1.0273638494387802,0.878092876070424,0.7554597494309409,-0.2825552651693207,-1.6690993614607135,0.1414185955172306,2.4034451173676383,1.0273381002308042,1.2564342888475617e-05,-0.0006061686125302951,0.0006447982001467169,0.00058057799359589,0.0003397295986245752,0.00018473894825438538,-1.9740082388190733e-06,0.0,0.0,0.0,0.0,0.0,0.0,0.0,1.7462655117594927e-05,-0.0004311234468789005,-3.925525224174331e-05,-0.00017261472422047675,4.881607413911859e-05,3.8881301879900576e-05,-2.574920797604463e-05,-1.2564342888475617e-05,0.0006061686125302951,-0.0006447982001467169,-0.00058057799359589,-0.0003397295986245752,-0.00018473894825438538,1.9740082388190733e-06,0.8076412081718445,46.47658920288086,5.762844562530518,-19.586824417114258,-0.5697532296180725,-2.3852572441101074,0.38577598333358765,0
70,0.34499597549438477,-0.8076412081718445,-46.47658920288086,-5.762844562530518,19.586824417114258,0.5697532296180725,2.3852572441101074,-0.38577598333358765,0.0,0.0,0.0,0.0,0.0,0.0,0.0,-0.8056364656156653,-0.17147677444147516,-0.5850850563441123,0.39531961570861,-0.01046033752365106,0.129135056958702,-0.3742034982710787,0.8780754134153064,0.7558908728778198,-0.282516009917079,-1.668926746736493,0.14136977944309148,2.4034062360657584,1.0273638494387802,0.878092876070424,0.7554597494309409,-0.2825552651693207,-1.6690993614607135,0.1414185955172306,2.4034451173676383,1.0273381002308042,1.2564342888475617e-05,-0.0006061686125302951,0.0006447982001467169,0.00058057799359589,0.0003397295986245752,0.00018473894825438538,-1.9740082388190733e-06,0.0,0.0,0.0,0.0,0.0,0.0,0.0,1.7462655117594927e-05,-0.0004311234468789005,-3.925525224174331e-05,-0.00017261472422047675,4.881607413911859e-05,3.8881301879900576e-05,-2.574920797604463e-05,-1.2564342888475617e-05,0.0006061686125302951,-0.0006447982001467169,-0.00058057799359589,-0.0003397295986245752,-0.00018473894825438538,1.9740082388190733e-06,0.8076412081718445,46.47658920288086,5.762844562530518,-19.586824417114258,-0.5697532296180725,-2.3852572441101074,0.38577598333358765,0
71,0.3500077724456787,-0.8076412081718445,-46.47658920288086,-5.786648273468018,19.559053421020508,0.5816550850868225,2.3916659355163574,-0.33725303411483765,0.0,0.0,0.0,0.0,0.0,0.0,0.0,-0.826979941266203,-0.1582212895227226,-0.5960822999357539,0.38852095267925146,-0.009808277301234384,0.12727458190894653,-0.37563808168126206,0.8780754134153064,0.755891121312686,-0.28251433958923544,-1.668924797894662,0.14137165842733668,2.4034055239889356,1.0273577499577315,0.878092876070424,0.7554597494309409,-0.2825552651693207,-1.6690993614607135,0.1414185955172306,2.4034451173676383,1.0273381002308042,9.838344716177627e-05,-0.0002471247717256465,0.0006764039849510527,0.0010733338405120815,-0.0002708305580045939,0.00010123731905260878,-0.0018029362020438196,0.0,0.0,0.0,0.0,0.0,0.0,0.0,1.7462655117594927e-05,-0.0004313718817451351,-4.0925580085282576e-05,-0.00017456356605149992,4.6937089893922535e-05,3.959337870274027e-05,-1.964972692736211e-05,-9.838344716177627e-05,0.0002471247717256465,-0.0006764039849510527,-0.0010733338405120815,0.0002708305580045939,-0.00010123731905260878,0.0018029362020438196,0.8076412081718445,46.47658920288086,5.786648273468018,-19.559053421020508,-0.5816550850868225,-2.3916659355163574,0.33725303411483765,0
72,0.3550231456756592,-0.8076412081718445,-46.47658920288086,-5.786648273468018,19.559053421020508,0.5816550850868225,2.3916659355163574,-0.33725303411483765,0.0,0.0,0.0,0.0,0.0,0.0,0.0,-0.826979941266203,-0.1582212895227226,-0.5960822999357539,0.38852095267925146,-0.009808277301234384,0.12727458190894653,-0.37563808168126206,0.8780754134153064,0.755891121312686,-0.28251433958923544,-1.668924797894662,0.14137165842733668,2.4034055239889356,1.0273577499577315,0.878092876070424,0.7554597494309409,-0.2825552651693207,-1.6690993614607135,0.1414185955172306,2.4034451173676383,1.0273381002308042,9.838344716177627e-05,-0.0002471247717256465,0.0006764039849510527,0.0010733338405120815,-0.0002708305580045939,0.00010123731905260878,-0.0018029362020438196,0.0,0.0,0.0,0.0,0.0,0.0,0.0,1.7462655117594927e-05,-0.0004313718817451351,-4.0925580085282576e-05,-0.00017456356605149992,4.6937089893922535e-05,3.959337870274027e-05,-1.964972692736211e-05,-9.838344716177627e-05,0.0002471247717256465,-0.0006764039849510527,-0.0010733338405120815,0.0002708305580045939,-0.00010123731905260878,0.0018029362020438196,0.8076412081718445,46.47658920288086,5.786648273468018,-19.559053421020508,-0.5816550850868225,-2.3916659355163574,0.33725303411483765,0
73,0.3599979877471924,-0.8354122042655945,-46.42501449584961,-5.762844562530518,19.634431838989258,0.5816550850868225,2.3916659355163574,-0.35098594427108765,0.0,0.0,0.0,0.0,0.0,0.0,0.0,-0.8306167371331785,-0.1714021801897572,-0.601063025833038,0.396321421117815,-0.009155044518255244,0.12810794496000463,-0.37663013020973396,0.8780773622571375,0.7558896196229086,-0.2825160100250913,-1.6689300876082036,0.14136845631206965,2.4034055239889356,1.0273603370858257,0.878092876070424,0.7554597494309409,-0.2825552651693207,-1.6690993614607135,0.1414185955172306,2.4034451173676383,1.0273381002308042,0.00038244926076643274,-0.0018606649147137875,-0.00028995929094015424,-0.0007606252054691848,-0.0003818902379023005,-6.344216284861025e-05,-0.001222394210545387,0.0,0.0,0.0,0.0,0.0,0.0,0.0,1.551381328646073e-05,-0.00042987019196771836,-3.9255144229422e-05,-0.00016927385250986582,5.0139205160948386e-05,3.959337870274027e-05,-2.2236855021562363e-05,-0.00038244926076643274,0.0018606649147137875,0.00028995929094015424,0.0007606252054691848,0.0003818902379023005,6.344216284861025e-05,0.001222394210545387,0.8354122042655945,46.42501449584961,5.762844562530518,-19.634431838989258,-0.5816550850868225,-2.3916659355163574,0.35098594427108765,0
74,0.3650026321411133,-0.8354122042655945,-46.42501449584961,-5.762844562530518,19.634431838989258,0.5816550850868225,2.3916659355163574,-0.35098594427108765,0.0,0.0,0.0,0.0,0.0,0.0,0.0,-0.8306167371331785,-0.1714021801897572,-0.601063025833038,0.396321421117815,-0.009155044518255244,0.12810794496000463,-0.37663013020973396,0.8780773622571375,0.7558896196229086,-0.2825160100250913,-1.6689300876082036,0.14136845631206965,2.4034055239889356,1.0273603370858257,0.878092876070424,0.7554597494309409,-0.2825552651693207,-1.6690993614607135,0.1414185955172306,2.4034451173676383,1.0273381002308042,0.00038244926076643274,-0.0018606649147137875,-0.00028995929094015424,-0.0007606252054691848,-0.0003818902379023005,-6.344216284861025e-05,-0.001222394210545387,0.0,0.0,0.0,0.0,0.0,0.0,0.0,1.551381328646073e-05,-0.00042987019196771836,-3.9255144229422e-05,-0.00016927385250986582,5.0139205160948386e-05,3.959337870274027e-05,-2.2236855021562363e-05,-0.00038244926076643274,0.0018606649147137875,0.00028995929094015424,0.0007606252054691848,0.0003818902379023005,6.344216284861025e-05,0.001222394210545387,0.8354122042655945,46.42501449584961,5.762844562530518,-19.634431838989258,-0.5816550850868225,-2.3916659355163574,0.35098594427108765,0
75,0.36999964714050293,-0.8354122042655945,-46.50039291381836,-5.762844562530518,19.586824417114258,0.5697532296180725,2.3788485527038574,-0.40591758489608765,0.0,0.0,0.0,0.0,0.0,0.0,0.0,-0.8240267186609369,-0.1578274289019444,-0.5947473526519823,0.3881108156219313,-0.009781867007579239,0.12695374448546523,-0.37719205881344137,0.8780773622571375,0.7558949082784295,-0.2825160100250913,-1.668926746736493,0.1413709744123067,2.4034069481425817,1.0273664391000563,0.878092876070424,0.7554597494309409,-0.2825552651693207,-1.6690993614607135,0.1414185955172306,2.4034451173676383,1.0273381002308042,0.0002600344212807432,0.0002512008490845467,-0.00031032221063935896,-0.00036616668920977174,-1.0640973206779768e-05,0.0006802470100968204,0.001394769652540398,0.0,0.0,0.0,0.0,0.0,0.0,0.0,1.551381328646073e-05,-0.0004351588474886814,-3.9255144229422e-05,-0.00017261472422047675,4.762110492390059e-05,3.8169225056616796e-05,-2.833886925213136e-05,-0.0002600344212807432,-0.0002512008490845467,0.00031032221063935896,0.00036616668920977174,1.0640973206779768e-05,-0.0006802470100968204,-0.001394769652540398,0.8354122042655945,46.50039291381836,5.762844562530518,-19.586824417114258,-0.5697532296180725,-2.3788485527038574,0.40591758489608765,0
76,0.37499451637268066,-0.8354122042655945,-46.50039291381836,-5.762844562530518,19.586824417114258,0.5697532296180725,2.3788485527038574,-0.40591758489608765,0.0,0.0,0.0,0.0,0.0,0.0,0.0,-0.8240267186609369,-0.1578274289019444,-0.5947473526519823,0.3881108156219313,-0.009781867007579239,0.12695374448546523,-0.37719205881344137,0.8780773622571375,0.7558949082784295,-0.2825160100250913,-1.668926746736493,0.1413709744123067,2.4034069481425817,1.0273664391000563,0.878092876070424,0.7554597494309409,-0.2825552651693207,-1.6690993614607135,0.1414185955172306,2.4034451173676383,1.0273381002308042,0.0002600344212807432,0.0002512008490845467,-0.00031032221063935896,-0.00036616668920977174,-1.0640973206779768e-05,0.0006802470100968204,0.001394769652540398,0.0,0.0,0.0,0.0,0.0,0.0,0.0,1.551381328646073e-05,-0.0004351588474886814,-3.9255144229422e-05,-0.00017261472422047675,4.762110492390059e-05,3.8169225056616796e-05,-2.833886925213136e-05,-0.0002600344212807432,-0.0002512008490845467,0.00031032221063935896,0.00036616668920977174,1.0640973206779768e-05,-0.0006802470100968204,-0.001394769652540398,0.8354122042655945,46.50039291381836,5.762844562530518,-19.586824417114258,-0.5697532296180725,-2.3788485527038574,0.40591758489608765,0
77,0.3800032138824463,-0.8354122042655945,-46.50039291381836,-5.735073566436768,19.586824417114258,0.5761619210243225,2.3916659355163574,-0.38577598333358765,0.0,0.0,0.0,0.0,0.0,0.0,0.0,-0.8181912780010184,-0.1531457336565617,-0.5905112461878738,0.38629258819386414,-0.010968926498358974,0.12648383724544934,-0.37756847028848856,0.8780773622571375,0.7558949093483981,-0.2825179491463052,-1.668926746736493,0.14136904499693057,2.4034055239889356,1.0273631429597396,0.878092876070424,0.7554597494309409,-0.2825552651693207,-1.6690993614607135,0.1414185955172306,2.4034451173676383,1.0273381002308042,0.0003472061151338881,0.0006238660619695203,-0.0008557129480150809,1.5282614329578038e-06,1.07714542805326e-06,4.907425734119099e-05,3.134122620718132e-05,0.0,0.0,0.0,0.0,0.0,0.0,0.0,1.551381328646073e-05,-0.0004351599174572396,-3.7316023015543376e-05,-0.00017261472422047675,4.9550520300034595e-05,3.959337870274027e-05,-2.5042728935442682e-05,-0.0003472061151338881,-0.0006238660619695203,0.0008557129480150809,-1.5282614329578038e-06,-1.07714542805326e-06,-4.907425734119099e-05,-3.134122620718132e-05,0.8354122042655945,46.50039291381836,5.735073566436768,-19.586824417114258,-0.5761619210243225,-2.3916659355163574,0.38577598333358765,0
78,0.38495492935180664,-0.8354122042655945,-46.50039291381836,-5.735073566436768,19.586824417114258,0.5761619210243225,2.3916659355163574,-0.38577598333358765,0.0,0.0,0.0,0.0,0.0,0.0,0.0,-0.8181912780010184,-0.1531457336565617,-0.5905112461878738,0.38629258819386414,-0.010968926498358974,0.12648383724544934,-0.37756847028848856,0.8780773622571375,0.7558949093483981,-0.2825179491463052,-1.668926746736493,0.14136904499693057,2.4034055239889356,1.0273631429597396,0.878092876070424,0.7554597494309409,-0.2825552651693207,-1.6690993614607135,0.1414185955172306,2.4034451173676383,1.0273381002308042,0.0003472061151338881,0.0006238660619695203,-0.0008557129480150809,1.5282614329578038e-06,1.07714542805326e-06,4.907425734119099e-05,3.134122620718132e-05,0.0,0.0,0.0,0.0,0.0,0.0,0.0,1.551381328646073e-05,-0.0004351599174572396,-3.7316023015543376e-05,-0.00017261472422047675,4.9550520300034595e-05,3.959337870274027e-05,-2.5042728935442682e-05,-0.0003472061151338881,-0.0006238660619695203,0.0008557129480150809,-1.5282614329578038e-06,-1.07714542805326e-06,-4.907425734119099e-05,-3.134122620718132e-05,0.8354122042655945,46.50039291381836,5.735073566436768,-19.586824417114258,-0.5761619210243225,-2.3916659355163574,0.38577598333358765,0
79,0.3899562358856201,-0.8592159152030945,-46.50039291381836,-5.762844562530518,19.610628128051758,0.5761619210243225,2.3916659355163574,-0.35831016302108765,0.0,0.0,0.0,0.0,0.0,0.0,0.0,-0.8355764378475378,-0.1637361713293962,-0.6030175446204147,0.3913890232901217,-0.010295309011761162,0.12687403848257614,-0.3781188756722815,0.8780790326929928,0.7558942073381434,-0.28251600970101587,-1.6689284171723482,0.14136903165121162,2.4034055239889356,1.0273611508879181,0.878092876070424,0.7554597494309409,-0.2825552651693207,-1.6690993614607135,0.1414185955172306,2.4034451173676383,1.0273381002308042,0.0004241273809854537,6.094272665189388e-05,-0.00025651622367913384,-0.0003436651240910747,-4.2811075414632174e-05,-1.910905614626454e-05,-0.001273184840938238,0.0,0.0,0.0,0.0,0.0,0.0,0.0,1.3843377431155268e-05,-0.0004344579072025345,-3.925546830485516e-05,-0.0001709442883652823,4.956386601898122e-05,3.959337870274027e-05,-2.3050657113943274e-05,-0.0004241273809854537,-6.094272665189388e-05,0.00025651622367913384,0.0003436651240910747,4.2811075414632174e-05,1.910905614626454e-05,0.001273184840938238,0.8592159152030945,46.50039291381836,5.762844562530518,-19.610628128051758,-0.5761619210243225,-2.3916659355163574,0.35831016302108765,0
80,0.39499330520629883,-0.8592159152030945,-46.50039291381836,-5.762844562530518,19.610628128051758,0.5761619210243225,2.3916659355163574,-0.35831016302108765,0.0,0.0,0.0,0.0,0.0,0.0,0.0,-0.8355764378475378,-0.1637361713293962,-0.6030175446204147,0.3913890232901217,-0.010295309011761162,0.12687403848257614,-0.3781188756722815,0.8780790326929928,0.7558942073381434,-0.28251600970101587,-1.6689284171723482,0.14136903165121162,2.4034055239889356,1.0273611508879181,0.878092876070424,0.7554597494309409,-0.2825552651693207,-1.6690993614607135,0.1414185955172306,2.4034451173676383,1.0273381002308042,0.0004241273809854537,6.094272665189388e-05,-0.00025651622367913384,-0.0003436651240910747,-4.2811075414632174e-05,-1.910905614626454e-05,-0.001273184840938238,0.0,0.0,0.0,0.0,0.0,0.0,0.0,1.3843377431155268e-05,-0.0004344579072025345,-3.925546830485516e-05,-0.0001709442883652823,4.956386601898122e-05,3.959337870274027e-05,-2.3050657113943274e-05,-0.0004241273809854537,-6.094272665189388e-05,0.00025651622367913384,0.0003436651240910747,4.2811075414632174e-05,1.910905614626454e-05,0.001273184840938238,0.8592159152030945,46.50039291381836,5.762844562530518,-19.610628128051758,-0.5761619210243225,-2.3916659355163574,0.35831016302108765,0
