rezayati/contactInterpretation/dataset/franka_main/labeled_data/link7/a5_7.csv
index,time,tau_J0,tau_J1,tau_J2,tau_J3,tau_J4,tau_J5,tau_J6,tau_J_d0,tau_J_d1,tau_J_d2,tau_J_d3,tau_J_d4,tau_J_d5,tau_J_d6,tau_ext0,tau_ext1,tau_ext2,tau_ext3,tau_ext4,tau_ext5,tau_ext6,q0,q1,q2,q3,q4,q5,q6,q_d0,q_d1,q_d2,q_d3,q_d4,q_d5,q_d6,dq0,dq1,dq2,dq3,dq4,dq5,dq6,dq_d0,dq_d1,dq_d2,dq_d3,dq_d4,dq_d5,dq_d6,e0,e1,e2,e3,e4,e5,e6,de0,de1,de2,de3,de4,de5,de6,etau_J0,etau_J1,etau_J2,etau_J3,etau_J4,etau_J5,etau_J6,label
1,0.0,-0.19667929410934448,-11.949304580688477,1.1918060779571533,21.768831253051758,0.3024192452430725,2.5399813652038574,-0.31711143255233765,0.0,0.0,0.0,0.0,0.0,0.0,0.0,-0.1622492238228051,0.4652177602910605,0.02815711183956222,0.5038343775335062,-0.22149140653909627,0.13142954356732145,-0.3096541808480931,0.17281896582951145,-0.48763753775221097,-0.11141016499530788,-1.9467215810914729,0.13362726567188898,2.5954244811269973,0.9452601798018077,0.1728802376190821,-0.48752024683155326,-0.11147110072896137,-1.9463801863486305,0.1336059019074957,2.595550359778934,0.9452445589611904,0.0010257510261335717,0.0013717870319331028,0.00038393803584650134,0.0008400706335689449,0.00039784381457713854,-0.000171226317212999,0.0006896850433026729,0.0,0.0,0.0,0.0,0.0,0.0,0.0,6.127178957066048e-05,0.00011729092065770885,-6.093573365348326e-05,0.00034139474284233806,-2.1363764393295126e-05,0.000125878651936695,-1.5620840617236453e-05,-0.0010257510261335717,-0.0013717870319331028,-0.00038393803584650134,-0.0008400706335689449,-0.00039784381457713854,0.000171226317212999,-0.0006896850433026729,0.19667929410934448,11.949304580688477,-1.1918060779571533,-21.768831253051758,-0.3024192452430725,-2.5399813652038574,0.31711143255233765,0
2,0.004999876022338867,-0.17287558317184448,-11.850122451782227,1.1918060779571533,21.792634963989258,0.3079124093055725,2.5335726737976074,-0.33725303411483765,0.0,0.0,0.0,0.0,0.0,0.0,0.0,-0.1597806123526696,0.5003265888701061,0.02753458723383916,0.4847983836151755,-0.2216986122332741,0.1296865822719351,-0.30996503401294756,0.1728154018202346,-0.4876454338778617,-0.11140937253393754,-1.946722480236869,0.13362346647783138,2.59542519320382,0.9452631464732764,0.1728802376190821,-0.48752024683155326,-0.11147110072896137,-1.9463801863486305,0.1336059019074957,2.595550359778934,0.9452445589611904,-0.00010214459170713318,0.0008390029827051565,0.0003057978905088523,-3.723489848956155e-05,0.00032108866225111335,0.00017538128461943122,0.0017991270939258447,0.0,0.0,0.0,0.0,0.0,0.0,0.0,6.483579884750124e-05,0.00012518704630842814,-6.172819502382743e-05,0.0003422938882384763,-1.756457033569303e-05,0.00012516657511385532,-1.8587512085943558e-05,0.00010214459170713318,-0.0008390029827051565,-0.0003057978905088523,3.723489848956155e-05,-0.00032108866225111335,-0.00017538128461943122,-0.0017991270939258447,0.17287558317184448,11.850122451782227,-1.1918060779571533,-21.792634963989258,-0.3079124093055725,-2.5335726737976074,0.33725303411483765,0
3,0.009996652603149414,-0.17287558317184448,-11.850122451782227,1.1918060779571533,21.792634963989258,0.3079124093055725,2.5335726737976074,-0.33725303411483765,0.0,0.0,0.0,0.0,0.0,0.0,0.0,-0.1597806123526696,0.5003265888701061,0.02753458723383916,0.4847983836151755,-0.2216986122332741,0.1296865822719351,-0.30996503401294756,0.1728154018202346,-0.4876454338778617,-0.11140937253393754,-1.946722480236869,0.13362346647783138,2.59542519320382,0.9452631464732764,0.1728802376190821,-0.48752024683155326,-0.11147110072896137,-1.9463801863486305,0.1336059019074957,2.595550359778934,0.9452445589611904,-0.00010214459170713318,0.0008390029827051565,0.0003057978905088523,-3.723489848956155e-05,0.00032108866225111335,0.00017538128461943122,0.0017991270939258447,0.0,0.0,0.0,0.0,0.0,0.0,0.0,6.483579884750124e-05,0.00012518704630842814,-6.172819502382743e-05,0.0003422938882384763,-1.756457033569303e-05,0.00012516657511385532,-1.8587512085943558e-05,0.00010214459170713318,-0.0008390029827051565,-0.0003057978905088523,3.723489848956155e-05,-0.00032108866225111335,-0.00017538128461943122,-0.0017991270939258447,0.17287558317184448,11.850122451782227,-1.1918060779571533,-21.792634963989258,-0.3079124093055725,-2.5335726737976074,0.33725303411483765,0
4,0.015010595321655273,-0.19667929410934448,-11.750940322875977,1.2433807849884033,21.816438674926758,0.3143211007118225,2.5335726737976074,-0.25485557317733765,0.0,0.0,0.0,0.0,0.0,0.0,0.0,-0.15408179864627014,0.4991984053377427,0.04218344663665183,0.4838178697901387,-0.2228030397374161,0.12908950143225847,-0.310306164694454,0.17281746884289717,-0.4876523940646855,-0.11141307213949056,-1.9467241771258914,0.13362275439500812,2.59542519320382,0.9452543501582025,0.1728802376190821,-0.48752024683155326,-0.11147110072896137,-1.9463801863486305,0.1336059019074957,2.595550359778934,0.9452445589611904,0.0011766259838433667,-0.001311268236717202,-0.00019218667283149,-0.0005489474681979429,0.0017447543883134414,0.0006336381465641732,-0.0022439104973519188,0.0,0.0,0.0,0.0,0.0,0.0,0.0,6.276877618494048e-05,0.00013214723313226262,-5.8028589470807135e-05,0.000343990777260883,-1.6852487512430958e-05,0.00012516657511385532,-9.791197012054553e-06,-0.0011766259838433667,0.001311268236717202,0.00019218667283149,0.0005489474681979429,-0.0017447543883134414,-0.0006336381465641732,0.0022439104973519188,0.19667929410934448,11.750940322875977,-1.2433807849884033,-21.816438674926758,-0.3143211007118225,-2.5335726737976074,0.25485557317733765,0
5,0.020024776458740234,-0.19667929410934448,-11.750940322875977,1.2433807849884033,21.816438674926758,0.3143211007118225,2.5335726737976074,-0.25485557317733765,0.0,0.0,0.0,0.0,0.0,0.0,0.0,-0.15408179864627014,0.4991984053377427,0.04218344663665183,0.4838178697901387,-0.2228030397374161,0.12908950143225847,-0.310306164694454,0.17281746884289717,-0.4876523940646855,-0.11141307213949056,-1.9467241771258914,0.13362275439500812,2.59542519320382,0.9452543501582025,0.1728802376190821,-0.48752024683155326,-0.11147110072896137,-1.9463801863486305,0.1336059019074957,2.595550359778934,0.9452445589611904,0.0011766259838433667,-0.001311268236717202,-0.00019218667283149,-0.0005489474681979429,0.0017447543883134414,0.0006336381465641732,-0.0022439104973519188,0.0,0.0,0.0,0.0,0.0,0.0,0.0,6.276877618494048e-05,0.00013214723313226262,-5.8028589470807135e-05,0.000343990777260883,-1.6852487512430958e-05,0.00012516657511385532,-9.791197012054553e-06,-0.0011766259838433667,0.001311268236717202,0.00019218667283149,0.0005489474681979429,-0.0017447543883134414,-0.0006336381465641732,0.0022439104973519188,0.19667929410934448,11.750940322875977,-1.2433807849884033,-21.816438674926758,-0.3143211007118225,-2.5335726737976074,0.25485557317733765,0
6,0.02501678466796875,-0.19667929410934448,-11.774744033813477,1.2433807849884033,21.816438674926758,0.3079124093055725,2.5335726737976074,-0.30337852239608765,0.0,0.0,0.0,0.0,0.0,0.0,0.0,-0.16594695928096262,0.46884082188402426,0.025800366735486503,0.5086077892397465,-0.22074630518553487,0.13401938257911217,-0.30964854127107766,0.17281889172481152,-0.4876485135965283,-0.11141517862228917,-1.946724920229275,0.13362346647183102,2.59542519320382,0.9452582919499696,0.1728802376190821,-0.48752024683155326,-0.11147110072896137,-1.9463801863486305,0.1336059019074957,2.595550359778934,0.9452445589611904,0.0009824064787365405,-0.0014360820039350378,-0.00039731215304232456,-0.0004887425391328073,0.00017874924668330835,-0.00018255076432369653,-0.00024507556203914096,0.0,0.0,0.0,0.0,0.0,0.0,0.0,6.134589427059245e-05,0.00012826676497501577,-5.592210667219877e-05,0.0003447338806443767,-1.756456433532616e-05,0.00012516657511385532,-1.3732988779158184e-05,-0.0009824064787365405,0.0014360820039350378,0.00039731215304232456,0.0004887425391328073,-0.00017874924668330835,0.00018255076432369653,0.00024507556203914096,0.19667929410934448,11.774744033813477,-1.2433807849884033,-21.816438674926758,-0.3079124093055725,-2.5335726737976074,0.30337852239608765,0
7,0.03000640869140625,-0.19667929410934448,-11.774744033813477,1.2433807849884033,21.816438674926758,0.3079124093055725,2.5335726737976074,-0.30337852239608765,0.0,0.0,0.0,0.0,0.0,0.0,0.0,-0.16594695928096262,0.46884082188402426,0.025800366735486503,0.5086077892397465,-0.22074630518553487,0.13401938257911217,-0.30964854127107766,0.17281889172481152,-0.4876485135965283,-0.11141517862228917,-1.946724920229275,0.13362346647183102,2.59542519320382,0.9452582919499696,0.1728802376190821,-0.48752024683155326,-0.11147110072896137,-1.9463801863486305,0.1336059019074957,2.595550359778934,0.9452445589611904,0.0009824064787365405,-0.0014360820039350378,-0.00039731215304232456,-0.0004887425391328073,0.00017874924668330835,-0.00018255076432369653,-0.00024507556203914096,0.0,0.0,0.0,0.0,0.0,0.0,0.0,6.134589427059245e-05,0.00012826676497501577,-5.592210667219877e-05,0.0003447338806443767,-1.756456433532616e-05,0.00012516657511385532,-1.3732988779158184e-05,-0.0009824064787365405,0.0014360820039350378,0.00039731215304232456,0.0004887425391328073,-0.00017874924668330835,0.00018255076432369653,0.00024507556203914096,0.19667929410934448,11.774744033813477,-1.2433807849884033,-21.816438674926758,-0.3079124093055725,-2.5335726737976074,0.30337852239608765,0
8,0.03574681282043457,-0.14510458707809448,-11.901697158813477,1.2671844959259033,21.768831253051758,0.3143211007118225,2.5399813652038574,-0.31711143255233765,0.0,0.0,0.0,0.0,0.0,0.0,0.0,-0.16053280552760552,0.4747068458682254,0.031129328118568615,0.5060453270777361,-0.22074956156173892,0.13276471855779898,-0.3088641320112882,0.17281321679929976,-0.48764181462512673,-0.1114154430969586,-1.9467208913157783,0.13362275876928584,2.5954244811269973,0.9452634386794785,0.1728802376190821,-0.48752024683155326,-0.11147110072896137,-1.9463801863486305,0.1336059019074957,2.595550359778934,0.9452445589611904,-0.00015888701964156601,0.000803378597130987,-0.0005469716203176387,0.00030527379371622496,-0.005363667789870513,-0.00020053443715738702,0.0009851576274179312,0.0,0.0,0.0,0.0,0.0,0.0,0.0,6.702081978235408e-05,0.0001215677935734738,-5.5657632002770185e-05,0.00034070496714777576,-1.685686179014878e-05,0.000125878651936695,-1.8879718288067338e-05,0.00015888701964156601,-0.000803378597130987,0.0005469716203176387,-0.00030527379371622496,0.005363667789870513,0.00020053443715738702,-0.0009851576274179312,0.14510458707809448,11.901697158813477,-1.2671844959259033,-21.768831253051758,-0.3143211007118225,-2.5399813652038574,0.31711143255233765,0
9,0.0406801700592041,-0.14510458707809448,-11.901697158813477,1.2671844959259033,21.768831253051758,0.3143211007118225,2.5399813652038574,-0.31711143255233765,0.0,0.0,0.0,0.0,0.0,0.0,0.0,-0.16053280552760552,0.4747068458682254,0.031129328118568615,0.5060453270777361,-0.22074956156173892,0.13276471855779898,-0.3088641320112882,0.17281321679929976,-0.48764181462512673,-0.1114154430969586,-1.9467208913157783,0.13362275876928584,2.5954244811269973,0.9452634386794785,0.1728802376190821,-0.48752024683155326,-0.11147110072896137,-1.9463801863486305,0.1336059019074957,2.595550359778934,0.9452445589611904,-0.00015888701964156601,0.000803378597130987,-0.0005469716203176387,0.00030527379371622496,-0.005363667789870513,-0.00020053443715738702,0.0009851576274179312,0.0,0.0,0.0,0.0,0.0,0.0,0.0,6.702081978235408e-05,0.0001215677935734738,-5.5657632002770185e-05,0.00034070496714777576,-1.685686179014878e-05,0.000125878651936695,-1.8879718288067338e-05,0.00015888701964156601,-0.000803378597130987,0.0005469716203176387,-0.00030527379371622496,0.005363667789870513,0.00020053443715738702,-0.0009851576274179312,0.14510458707809448,11.901697158813477,-1.2671844959259033,-21.768831253051758,-0.3143211007118225,-2.5399813652038574,0.31711143255233765,0
10,0.04499983787536621,-0.17287558317184448,-11.873926162719727,1.3147919178009033,21.816438674926758,0.3198142647743225,2.5399813652038574,-0.28964561223983765,0.0,0.0,0.0,0.0,0.0,0.0,0.0,-0.15965066886075296,0.48504861614631617,0.03274215174628628,0.49851468858112935,-0.22101604087972948,0.13156716650172987,-0.30875627161231756,0.17281722539232397,-0.48764376251645647,-0.11141998015284152,-1.9467248927575893,0.13362214404347025,2.5954244811269973,0.9452572911183026,0.1728802376190821,-0.48752024683155326,-0.11147110072896137,-1.9463801863486305,0.1336059019074957,2.595550359778934,0.9452445589611904,0.00018071187830340636,0.0005430537404195121,-0.0013143681686796542,-0.0006040708203037632,-0.00037630095619208345,-0.0004770470817852258,-0.00020628564423270972,0.0,0.0,0.0,0.0,0.0,0.0,0.0,6.301222675814122e-05,0.0001235156849032082,-5.1120576119847994e-05,0.0003447064089587837,-1.6242135974564587e-05,0.000125878651936695,-1.2732157112171905e-05,-0.00018071187830340636,-0.0005430537404195121,0.0013143681686796542,0.0006040708203037632,0.00037630095619208345,0.0004770470817852258,0.00020628564423270972,0.17287558317184448,11.873926162719727,-1.3147919178009033,-21.816438674926758,-0.3198142647743225,-2.5399813652038574,0.28964561223983765,0
11,0.04999995231628418,-0.17287558317184448,-11.873926162719727,1.3147919178009033,21.816438674926758,0.3198142647743225,2.5399813652038574,-0.28964561223983765,0.0,0.0,0.0,0.0,0.0,0.0,0.0,-0.15965066886075296,0.48504861614631617,0.03274215174628628,0.49851468858112935,-0.22101604087972948,0.13156716650172987,-0.30875627161231756,0.17281722539232397,-0.48764376251645647,-0.11141998015284152,-1.9467248927575893,0.13362214404347025,2.5954244811269973,0.9452572911183026,0.1728802376190821,-0.48752024683155326,-0.11147110072896137,-1.9463801863486305,0.1336059019074957,2.595550359778934,0.9452445589611904,0.00018071187830340636,0.0005430537404195121,-0.0013143681686796542,-0.0006040708203037632,-0.00037630095619208345,-0.0004770470817852258,-0.00020628564423270972,0.0,0.0,0.0,0.0,0.0,0.0,0.0,6.301222675814122e-05,0.0001235156849032082,-5.1120576119847994e-05,0.0003447064089587837,-1.6242135974564587e-05,0.000125878651936695,-1.2732157112171905e-05,-0.00018071187830340636,-0.0005430537404195121,0.0013143681686796542,0.0006040708203037632,0.00037630095619208345,0.0004770470817852258,0.00020628564423270972,0.17287558317184448,11.873926162719727,-1.3147919178009033,-21.816438674926758,-0.3198142647743225,-2.5399813652038574,0.28964561223983765,0
12,0.05500006675720215,-0.14510458707809448,-11.850122451782227,1.2156097888946533,21.816438674926758,0.3079124093055725,2.5271639823913574,-0.26858848333358765,0.0,0.0,0.0,0.0,0.0,0.0,0.0,-0.1583052778702249,0.46822685990478047,0.040660915952268006,0.5051805273799087,-0.22122846064315468,0.13244836421458162,-0.3088024619104792,0.17281553480651898,-0.48764543391528337,-0.111413939780454,-1.9467241781475657,0.13362346647183102,2.595425905280643,0.9452577444650865,0.1728802376190821,-0.48752024683155326,-0.11147110072896137,-1.9463801863486305,0.1336059019074957,2.595550359778934,0.9452445589611904,0.0003097255617132798,-0.000572083611341333,0.0002639601971794869,-0.0001791032459262676,0.00017925613604182126,0.0001810481515114623,-0.0011369637456560503,0.0,0.0,0.0,0.0,0.0,0.0,0.0,6.470281256312771e-05,0.000125187083730105,-5.716094850737041e-05,0.0003439917989351837,-1.756456433532616e-05,0.00012445449829101562,-1.3185503896062656e-05,-0.0003097255617132798,0.000572083611341333,-0.0002639601971794869,0.0001791032459262676,-0.00017925613604182126,-0.0001810481515114623,0.0011369637456560503,0.14510458707809448,11.850122451782227,-1.2156097888946533,-21.816438674926758,-0.3079124093055725,-2.5271639823913574,0.26858848333358765,0
13,0.0607907772064209,-0.14510458707809448,-11.850122451782227,1.2156097888946533,21.816438674926758,0.3079124093055725,2.5271639823913574,-0.26858848333358765,0.0,0.0,0.0,0.0,0.0,0.0,0.0,-0.1583052778702249,0.46822685990478047,0.040660915952268006,0.5051805273799087,-0.22122846064315468,0.13244836421458162,-0.3088024619104792,0.17281553480651898,-0.48764543391528337,-0.111413939780454,-1.9467241781475657,0.13362346647183102,2.595425905280643,0.9452577444650865,0.1728802376190821,-0.48752024683155326,-0.11147110072896137,-1.9463801863486305,0.1336059019074957,2.595550359778934,0.9452445589611904,0.0003097255617132798,-0.000572083611341333,0.0002639601971794869,-0.0001791032459262676,0.00017925613604182126,0.0001810481515114623,-0.0011369637456560503,0.0,0.0,0.0,0.0,0.0,0.0,0.0,6.470281256312771e-05,0.000125187083730105,-5.716094850737041e-05,0.0003439917989351837,-1.756456433532616e-05,0.00012445449829101562,-1.3185503896062656e-05,-0.0003097255617132798,0.000572083611341333,-0.0002639601971794869,0.0001791032459262676,-0.00017925613604182126,-0.0001810481515114623,0.0011369637456560503,0.14510458707809448,11.850122451782227,-1.2156097888946533,-21.816438674926758,-0.3079124093055725,-2.5271639823913574,0.26858848333358765,0
14,0.06500005722045898,-0.14510458707809448,-11.850122451782227,1.2156097888946533,21.816438674926758,0.3079124093055725,2.5271639823913574,-0.26858848333358765,0.0,0.0,0.0,0.0,0.0,0.0,0.0,-0.1583052778702249,0.46822685990478047,0.040660915952268006,0.5051805273799087,-0.22122846064315468,0.13244836421458162,-0.3088024619104792,0.17281553480651898,-0.48764543391528337,-0.111413939780454,-1.9467241781475657,0.13362346647183102,2.595425905280643,0.9452577444650865,0.1728802376190821,-0.48752024683155326,-0.11147110072896137,-1.9463801863486305,0.1336059019074957,2.595550359778934,0.9452445589611904,0.0003097255617132798,-0.000572083611341333,0.0002639601971794869,-0.0001791032459262676,0.00017925613604182126,0.0001810481515114623,-0.0011369637456560503,0.0,0.0,0.0,0.0,0.0,0.0,0.0,6.470281256312771e-05,0.000125187083730105,-5.716094850737041e-05,0.0003439917989351837,-1.756456433532616e-05,0.00012445449829101562,-1.3185503896062656e-05,-0.0003097255617132798,0.000572083611341333,-0.0002639601971794869,0.0001791032459262676,-0.00017925613604182126,-0.0001810481515114623,0.0011369637456560503,0.14510458707809448,11.850122451782227,-1.2156097888946533,-21.816438674926758,-0.3079124093055725,-2.5271639823913574,0.26858848333358765,0
15,0.06999874114990234,-0.14510458707809448,-11.850122451782227,1.2156097888946533,21.816438674926758,0.3079124093055725,2.5271639823913574,-0.26858848333358765,0.0,0.0,0.0,0.0,0.0,0.0,0.0,-0.1583052778702249,0.46822685990478047,0.040660915952268006,0.5051805273799087,-0.22122846064315468,0.13244836421458162,-0.3088024619104792,0.17281553480651898,-0.48764543391528337,-0.111413939780454,-1.9467241781475657,0.13362346647183102,2.595425905280643,0.9452577444650865,0.1728802376190821,-0.48752024683155326,-0.11147110072896137,-1.9463801863486305,0.1336059019074957,2.595550359778934,0.9452445589611904,0.0003097255617132798,-0.000572083611341333,0.0002639601971794869,-0.0001791032459262676,0.00017925613604182126,0.0001810481515114623,-0.0011369637456560503,0.0,0.0,0.0,0.0,0.0,0.0,0.0,6.470281256312771e-05,0.000125187083730105,-5.716094850737041e-05,0.0003439917989351837,-1.756456433532616e-05,0.00012445449829101562,-1.3185503896062656e-05,-0.0003097255617132798,0.000572083611341333,-0.0002639601971794869,0.0001791032459262676,-0.00017925613604182126,-0.0001810481515114623,0.0011369637456560503,0.14510458707809448,11.850122451782227,-1.2156097888946533,-21.816438674926758,-0.3079124093055725,-2.5271639823913574,0.26858848333358765,0
16,0.07500648498535156,-0.19667929410934448,-11.901697158813477,1.1918060779571533,21.792634963989258,0.3198142647743225,2.5207552909851074,-0.34457725286483765,0.0,0.0,0.0,0.0,0.0,0.0,0.0,-0.1535229269144254,0.4706367290837791,0.0454520594225653,0.5029672997413328,-0.22141461429038883,0.13140779535777503,-0.3087434658767909,0.1728168357544466,-0.4876396306056802,-0.11141008619454125,-1.9467224893929431,0.13362214404344558,2.595426617357466,0.9452628710190059,0.1728802376190821,-0.48752024683155326,-0.11147110072896137,-1.9463801863486305,0.1336059019074957,2.595550359778934,0.9452445589611904,0.001383594093619521,0.0008637483977865278,0.0008615404042675771,6.432361490316459e-05,-0.00041013378816663967,0.00034516202082813803,0.0009429737583475314,0.0,0.0,0.0,0.0,0.0,0.0,0.0,6.340186463552056e-05,0.00011938377412695766,-6.1014534420117394e-05,0.0003423030443125974,-1.624213594988988e-05,0.00012374242146817593,-1.831205781543943e-05,-0.001383594093619521,-0.0008637483977865278,-0.0008615404042675771,-6.432361490316459e-05,0.00041013378816663967,-0.00034516202082813803,-0.0009429737583475314,0.19667929410934448,11.901697158813477,-1.1918060779571533,-21.792634963989258,-0.3198142647743225,-2.5207552909851074,0.34457725286483765,0
17,0.07999920845031738,-0.19667929410934448,-11.901697158813477,1.1918060779571533,21.792634963989258,0.3198142647743225,2.5207552909851074,-0.34457725286483765,0.0,0.0,0.0,0.0,0.0,0.0,0.0,-0.1535229269144254,0.4706367290837791,0.0454520594225653,0.5029672997413328,-0.22141461429038883,0.13140779535777503,-0.3087434658767909,0.1728168357544466,-0.4876396306056802,-0.11141008619454125,-1.9467224893929431,0.13362214404344558,2.595426617357466,0.9452628710190059,0.1728802376190821,-0.48752024683155326,-0.11147110072896137,-1.9463801863486305,0.1336059019074957,2.595550359778934,0.9452445589611904,0.001383594093619521,0.0008637483977865278,0.0008615404042675771,6.432361490316459e-05,-0.00041013378816663967,0.00034516202082813803,0.0009429737583475314,0.0,0.0,0.0,0.0,0.0,0.0,0.0,6.340186463552056e-05,0.00011938377412695766,-6.1014534420117394e-05,0.0003423030443125974,-1.624213594988988e-05,0.00012374242146817593,-1.831205781543943e-05,-0.001383594093619521,-0.0008637483977865278,-0.0008615404042675771,-6.432361490316459e-05,0.00041013378816663967,-0.00034516202082813803,-0.0009429737583475314,0.19667929410934448,11.901697158813477,-1.1918060779571533,-21.792634963989258,-0.3198142647743225,-2.5207552909851074,0.34457725286483765,0
18,0.08501458168029785,-0.19667929410934448,-11.873926162719727,1.1918060779571533,21.768831253051758,0.3079124093055725,2.5207552909851074,-0.27591270208358765,0.0,0.0,0.0,0.0,0.0,0.0,0.0,-0.16293736794732183,0.4789006013876464,0.03207509326204259,0.4976912062657845,-0.2207508843492958,0.12998331883386788,-0.3108049127004943,0.17281911911435632,-0.4876416573293251,-0.1114120597476344,-1.9467208915375935,0.1336266553203265,2.595426617357466,0.9452563263001267,0.1728802376190821,-0.48752024683155326,-0.11147110072896137,-1.9463801863486305,0.1336059019074957,2.595550359778934,0.9452445589611904,0.0002143517854163212,0.0009505314628084681,0.0003472623420247303,0.0003408620277329479,0.00017206344584681153,0.0002589596498296107,-0.0006085865896886842,0.0,0.0,0.0,0.0,0.0,0.0,0.0,6.111850472578784e-05,0.00012141049777181223,-5.904098132696045e-05,0.0003407051889630086,-2.075341283080956e-05,0.00012374242146817593,-1.1767338936263805e-05,-0.0002143517854163212,-0.0009505314628084681,-0.0003472623420247303,-0.0003408620277329479,-0.00017206344584681153,-0.0002589596498296107,0.0006085865896886842,0.19667929410934448,11.873926162719727,-1.1918060779571533,-21.768831253051758,-0.3079124093055725,-2.5207552909851074,0.27591270208358765,0
19,0.0900120735168457,-0.19667929410934448,-11.873926162719727,1.1918060779571533,21.768831253051758,0.3079124093055725,2.5207552909851074,-0.27591270208358765,0.0,0.0,0.0,0.0,0.0,0.0,0.0,-0.16293736794732183,0.4789006013876464,0.03207509326204259,0.4976912062657845,-0.2207508843492958,0.12998331883386788,-0.3108049127004943,0.17281911911435632,-0.4876416573293251,-0.1114120597476344,-1.9467208915375935,0.1336266553203265,2.595426617357466,0.9452563263001267,0.1728802376190821,-0.48752024683155326,-0.11147110072896137,-1.9463801863486305,0.1336059019074957,2.595550359778934,0.9452445589611904,0.0002143517854163212,0.0009505314628084681,0.0003472623420247303,0.0003408620277329479,0.00017206344584681153,0.0002589596498296107,-0.0006085865896886842,0.0,0.0,0.0,0.0,0.0,0.0,0.0,6.111850472578784e-05,0.00012141049777181223,-5.904098132696045e-05,0.0003407051889630086,-2.075341283080956e-05,0.00012374242146817593,-1.1767338936263805e-05,-0.0002143517854163212,-0.0009505314628084681,-0.0003472623420247303,-0.0003408620277329479,-0.00017206344584681153,-0.0002589596498296107,0.0006085865896886842,0.19667929410934448,11.873926162719727,-1.1918060779571533,-21.768831253051758,-0.3079124093055725,-2.5207552909851074,0.27591270208358765,0
20,0.09503722190856934,-0.17287558317184448,-11.826318740844727,1.2156097888946533,21.816438674926758,0.3079124093055725,2.5335726737976074,-0.31711143255233765,0.0,0.0,0.0,0.0,0.0,0.0,0.0,-0.16369482202310656,0.471093065177534,0.03610867679493321,0.4995166012476908,-0.22182536936835617,0.13005944333180258,-0.3109282572523294,0.17281587391539063,-0.4876470956724615,-0.11141365170670244,-1.9467241772394068,0.13362346648983214,2.59542519320382,0.9452631968269616,0.1728802376190821,-0.48752024683155326,-0.11147110072896137,-1.9463801863486305,0.1336059019074957,2.595550359778934,0.9452445589611904,-7.54234333957001e-05,-0.0005632488489340986,-0.0004095512905308299,-0.0006523730039423414,8.349020428228856e-06,-6.130117587732449e-05,0.000641493590746932,0.0,0.0,0.0,0.0,0.0,0.0,0.0,6.436370369147792e-05,0.00012684884090824466,-5.744902225893189e-05,0.0003439908907763023,-1.7564582336454526e-05,0.00012516657511385532,-1.8637865771164996e-05,7.54234333957001e-05,0.0005632488489340986,0.0004095512905308299,0.0006523730039423414,-8.349020428228856e-06,6.130117587732449e-05,-0.000641493590746932,0.17287558317184448,11.826318740844727,-1.2156097888946533,-21.816438674926758,-0.3079124093055725,-2.5335726737976074,0.31711143255233765,0
21,0.1000056266784668,-0.17287558317184448,-11.826318740844727,1.2156097888946533,21.816438674926758,0.3079124093055725,2.5335726737976074,-0.31711143255233765,0.0,0.0,0.0,0.0,0.0,0.0,0.0,-0.16369482202310656,0.471093065177534,0.03610867679493321,0.4995166012476908,-0.22182536936835617,0.13005944333180258,-0.3109282572523294,0.17281587391539063,-0.4876470956724615,-0.11141365170670244,-1.9467241772394068,0.13362346648983214,2.59542519320382,0.9452631968269616,0.1728802376190821,-0.48752024683155326,-0.11147110072896137,-1.9463801863486305,0.1336059019074957,2.595550359778934,0.9452445589611904,-7.54234333957001e-05,-0.0005632488489340986,-0.0004095512905308299,-0.0006523730039423414,8.349020428228856e-06,-6.130117587732449e-05,0.000641493590746932,0.0,0.0,0.0,0.0,0.0,0.0,0.0,6.436370369147792e-05,0.00012684884090824466,-5.744902225893189e-05,0.0003439908907763023,-1.7564582336454526e-05,0.00012516657511385532,-1.8637865771164996e-05,7.54234333957001e-05,0.0005632488489340986,0.0004095512905308299,0.0006523730039423414,-8.349020428228856e-06,6.130117587732449e-05,-0.000641493590746932,0.17287558317184448,11.826318740844727,-1.2156097888946533,-21.816438674926758,-0.3079124093055725,-2.5335726737976074,0.31711143255233765,0
22,0.10500597953796387,-0.14510458707809448,-11.873926162719727,1.1918060779571533,21.792634963989258,0.3143211007118225,2.5335726737976074,-0.28964561223983765,0.0,0.0,0.0,0.0,0.0,0.0,0.0,-0.16436348365421313,0.4501781970365353,0.0348932572617209,0.5086091625333768,-0.22241077877081974,0.13225212473396444,-0.31113605637533825,0.17281314158291794,-0.48764376347938454,-0.11141218837027486,-1.946722479368825,0.13362275439500818,2.59542519320382,0.9452567675589058,0.1728802376190821,-0.48752024683155326,-0.11147110072896137,-1.9463801863486305,0.1336059019074957,2.595550359778934,0.9452445589611904,-0.0003596327893835993,-0.0006835376944620773,0.0007596333518751344,9.68253717758625e-05,-0.00015657913132240082,2.398025955199267e-05,-0.0006489595959300061,0.0,0.0,0.0,0.0,0.0,0.0,0.0,6.709603616417148e-05,0.0001235166478312788,-5.891235868650535e-05,0.0003422930201943952,-1.685248751248647e-05,0.00012516657511385532,-1.2208597715335223e-05,0.0003596327893835993,0.0006835376944620773,-0.0007596333518751344,-9.68253717758625e-05,0.00015657913132240082,-2.398025955199267e-05,0.0006489595959300061,0.14510458707809448,11.873926162719727,-1.1918060779571533,-21.792634963989258,-0.3143211007118225,-2.5335726737976074,0.28964561223983765,0
23,0.11017084121704102,-0.14510458707809448,-11.873926162719727,1.1918060779571533,21.792634963989258,0.3143211007118225,2.5335726737976074,-0.28964561223983765,0.0,0.0,0.0,0.0,0.0,0.0,0.0,-0.16436348365421313,0.4501781970365353,0.0348932572617209,0.5086091625333768,-0.22241077877081974,0.13225212473396444,-0.31113605637533825,0.17281314158291794,-0.48764376347938454,-0.11141218837027486,-1.946722479368825,0.13362275439500818,2.59542519320382,0.9452567675589058,0.1728802376190821,-0.48752024683155326,-0.11147110072896137,-1.9463801863486305,0.1336059019074957,2.595550359778934,0.9452445589611904,-0.0003596327893835993,-0.0006835376944620773,0.0007596333518751344,9.68253717758625e-05,-0.00015657913132240082,2.398025955199267e-05,-0.0006489595959300061,0.0,0.0,0.0,0.0,0.0,0.0,0.0,6.709603616417148e-05,0.0001235166478312788,-5.891235868650535e-05,0.0003422930201943952,-1.685248751248647e-05,0.00012516657511385532,-1.2208597715335223e-05,0.0003596327893835993,0.0006835376944620773,-0.0007596333518751344,-9.68253717758625e-05,0.00015657913132240082,-2.398025955199267e-05,0.0006489595959300061,0.14510458707809448,11.873926162719727,-1.1918060779571533,-21.792634963989258,-0.3143211007118225,-2.5335726737976074,0.28964561223983765,0
24,0.11500120162963867,-0.22445029020309448,-11.850122451782227,1.2671844959259033,21.768831253051758,0.3079124093055725,2.5335726737976074,-0.31711143255233765,0.0,0.0,0.0,0.0,0.0,0.0,0.0,-0.16429831328619995,0.4796053493972872,0.028377100068801217,0.49077027431457676,-0.2229450404908228,0.12972563294403866,-0.31084564830362676,0.17281878454676564,-0.487645433487299,-0.11141654799401725,-1.9467216339625508,0.13362346647183102,2.59542519320382,0.9452645243119397,0.1728802376190821,-0.48752024683155326,-0.11147110072896137,-1.9463801863486305,0.1336059019074957,2.595550359778934,0.9452445589611904,0.0012001182112978662,-0.00013032765955471958,-0.0008819529104042,0.0002678090242564062,5.910768064244704e-05,-0.0001824862139125137,0.001050501058010108,0.0,0.0,0.0,0.0,0.0,0.0,0.0,6.145307231647523e-05,0.00012518665574573484,-5.455273494411883e-05,0.0003414476139202982,-1.756456433532616e-05,0.00012516657511385532,-1.9965350749329147e-05,-0.0012001182112978662,0.00013032765955471958,0.0008819529104042,-0.0002678090242564062,-5.910768064244704e-05,0.0001824862139125137,-0.001050501058010108,0.22445029020309448,11.850122451782227,-1.2671844959259033,-21.768831253051758,-0.3079124093055725,-2.5335726737976074,0.31711143255233765,0
25,0.12000417709350586,-0.22445029020309448,-11.850122451782227,1.2671844959259033,21.768831253051758,0.3079124093055725,2.5335726737976074,-0.31711143255233765,0.0,0.0,0.0,0.0,0.0,0.0,0.0,-0.16429831328619995,0.4796053493972872,0.028377100068801217,0.49077027431457676,-0.2229450404908228,0.12972563294403866,-0.31084564830362676,0.17281878454676564,-0.487645433487299,-0.11141654799401725,-1.9467216339625508,0.13362346647183102,2.59542519320382,0.9452645243119397,0.1728802376190821,-0.48752024683155326,-0.11147110072896137,-1.9463801863486305,0.1336059019074957,2.595550359778934,0.9452445589611904,0.0012001182112978662,-0.00013032765955471958,-0.0008819529104042,0.0002678090242564062,5.910768064244704e-05,-0.0001824862139125137,0.001050501058010108,0.0,0.0,0.0,0.0,0.0,0.0,0.0,6.145307231647523e-05,0.00012518665574573484,-5.455273494411883e-05,0.0003414476139202982,-1.756456433532616e-05,0.00012516657511385532,-1.9965350749329147e-05,-0.0012001182112978662,0.00013032765955471958,0.0008819529104042,-0.0002678090242564062,-5.910768064244704e-05,0.0001824862139125137,-0.001050501058010108,0.22445029020309448,11.850122451782227,-1.2671844959259033,-21.768831253051758,-0.3079124093055725,-2.5335726737976074,0.31711143255233765,0
26,0.125,-0.14510458707809448,-11.826318740844727,1.2156097888946533,21.792634963989258,0.3198142647743225,2.5335726737976074,-0.27591270208358765,0.0,0.0,0.0,0.0,0.0,0.0,0.0,-0.16637969260553506,0.47606745174082277,0.03116736766942367,0.4927502231014917,-0.22283325139930452,0.12996458504335698,-0.3102771839176688,0.17281529113141664,-0.4876470253870246,-0.11141149442087991,-1.9467247322739216,0.13362214404344558,2.59542519320382,0.945256371133719,0.1728802376190821,-0.48752024683155326,-0.11147110072896137,-1.9463801863486305,0.1336059019074957,2.595550359778934,0.9452445589611904,-0.0004330221092075905,-7.377562951393423e-05,0.00037160748647815483,9.913722539773398e-05,-3.7285568069533898e-06,-0.0001642682228847953,-0.0010852949034874492,0.0,0.0,0.0,0.0,0.0,0.0,0.0,6.494648766547373e-05,0.00012677855547132966,-5.960630808145295e-05,0.0003445459252910954,-1.624213594988988e-05,0.00012516657511385532,-1.1812172528546938e-05,0.0004330221092075905,7.377562951393423e-05,-0.00037160748647815483,-9.913722539773398e-05,3.7285568069533898e-06,0.0001642682228847953,0.0010852949034874492,0.14510458707809448,11.826318740844727,-1.2156097888946533,-21.792634963989258,-0.3198142647743225,-2.5335726737976074,0.27591270208358765,0
27,0.13018393516540527,-0.14510458707809448,-11.826318740844727,1.2156097888946533,21.792634963989258,0.3198142647743225,2.5335726737976074,-0.27591270208358765,0.0,0.0,0.0,0.0,0.0,0.0,0.0,-0.16637969260553506,0.47606745174082277,0.03116736766942367,0.4927502231014917,-0.22283325139930452,0.12996458504335698,-0.3102771839176688,0.17281529113141664,-0.4876470253870246,-0.11141149442087991,-1.9467247322739216,0.13362214404344558,2.59542519320382,0.945256371133719,0.1728802376190821,-0.48752024683155326,-0.11147110072896137,-1.9463801863486305,0.1336059019074957,2.595550359778934,0.9452445589611904,-0.0004330221092075905,-7.377562951393423e-05,0.00037160748647815483,9.913722539773398e-05,-3.7285568069533898e-06,-0.0001642682228847953,-0.0010852949034874492,0.0,0.0,0.0,0.0,0.0,0.0,0.0,6.494648766547373e-05,0.00012677855547132966,-5.960630808145295e-05,0.0003445459252910954,-1.624213594988988e-05,0.00012516657511385532,-1.1812172528546938e-05,0.0004330221092075905,7.377562951393423e-05,-0.00037160748647815483,-9.913722539773398e-05,3.7285568069533898e-06,0.0001642682228847953,0.0010852949034874492,0.14510458707809448,11.826318740844727,-1.2156097888946533,-21.792634963989258,-0.3198142647743225,-2.5335726737976074,0.27591270208358765,0
28,0.13499927520751953,-0.14510458707809448,-11.850122451782227,1.2156097888946533,21.741060256958008,0.3198142647743225,2.5271639823913574,-0.26858848333358765,0.0,0.0,0.0,0.0,0.0,0.0,0.0,-0.1673686501209736,0.46722840515584213,0.03279059070341125,0.4981317840660516,-0.22221437440446112,0.13066481588038692,-0.309870143784334,0.17281384675665196,-0.487645433911277,-0.11141104686578414,-1.9467221597591249,0.13362178862315635,2.595425905280643,0.9452558884489736,0.1728802376190821,-0.48752024683155326,-0.11147110072896137,-1.9463801863486305,0.1336059019074957,2.595550359778934,0.9452445589611904,-0.00014229844436521881,0.00042012418767020015,0.0003399967583047695,0.001284366519299433,-0.0002830754422593506,5.0535541157432494e-05,-0.0015747774637357404,0.0,0.0,0.0,0.0,0.0,0.0,0.0,6.639086243015457e-05,0.0001251870797237542,-6.0053863177228495e-05,0.00034197341049435614,-1.5886715660662354e-05,0.00012445449829101562,-1.132948778315157e-05,0.00014229844436521881,-0.00042012418767020015,-0.0003399967583047695,-0.001284366519299433,0.0002830754422593506,-5.0535541157432494e-05,0.0015747774637357404,0.14510458707809448,11.850122451782227,-1.2156097888946533,-21.741060256958008,-0.3198142647743225,-2.5271639823913574,0.26858848333358765,0
29,0.1399993896484375,-0.14510458707809448,-11.850122451782227,1.2156097888946533,21.741060256958008,0.3198142647743225,2.5271639823913574,-0.26858848333358765,0.0,0.0,0.0,0.0,0.0,0.0,0.0,-0.1673686501209736,0.46722840515584213,0.03279059070341125,0.4981317840660516,-0.22221437440446112,0.13066481588038692,-0.309870143784334,0.17281384675665196,-0.487645433911277,-0.11141104686578414,-1.9467221597591249,0.13362178862315635,2.595425905280643,0.9452558884489736,0.1728802376190821,-0.48752024683155326,-0.11147110072896137,-1.9463801863486305,0.1336059019074957,2.595550359778934,0.9452445589611904,-0.00014229844436521881,0.00042012418767020015,0.0003399967583047695,0.001284366519299433,-0.0002830754422593506,5.0535541157432494e-05,-0.0015747774637357404,0.0,0.0,0.0,0.0,0.0,0.0,0.0,6.639086243015457e-05,0.0001251870797237542,-6.0053863177228495e-05,0.00034197341049435614,-1.5886715660662354e-05,0.00012445449829101562,-1.132948778315157e-05,0.00014229844436521881,-0.00042012418767020015,-0.0003399967583047695,-0.001284366519299433,0.0002830754422593506,-5.0535541157432494e-05,0.0015747774637357404,0.14510458707809448,11.850122451782227,-1.2156097888946533,-21.741060256958008,-0.3198142647743225,-2.5271639823913574,0.26858848333358765,0
30,0.14499711990356445,-0.14510458707809448,-11.850122451782227,1.2156097888946533,21.741060256958008,0.3198142647743225,2.5271639823913574,-0.26858848333358765,0.0,0.0,0.0,0.0,0.0,0.0,0.0,-0.1673686501209736,0.46722840515584213,0.03279059070341125,0.4981317840660516,-0.22221437440446112,0.13066481588038692,-0.309870143784334,0.17281384675665196,-0.487645433911277,-0.11141104686578414,-1.9467221597591249,0.13362178862315635,2.595425905280643,0.9452558884489736,0.1728802376190821,-0.48752024683155326,-0.11147110072896137,-1.9463801863486305,0.1336059019074957,2.595550359778934,0.9452445589611904,-0.00014229844436521881,0.00042012418767020015,0.0003399967583047695,0.001284366519299433,-0.0002830754422593506,5.0535541157432494e-05,-0.0015747774637357404,0.0,0.0,0.0,0.0,0.0,0.0,0.0,6.639086243015457e-05,0.0001251870797237542,-6.0053863177228495e-05,0.00034197341049435614,-1.5886715660662354e-05,0.00012445449829101562,-1.132948778315157e-05,0.00014229844436521881,-0.00042012418767020015,-0.0003399967583047695,-0.001284366519299433,0.0002830754422593506,-5.0535541157432494e-05,0.0015747774637357404,0.14510458707809448,11.850122451782227,-1.2156097888946533,-21.741060256958008,-0.3198142647743225,-2.5271639823913574,0.26858848333358765,0
31,0.14999842643737793,-0.12130087614059448,-11.901697158813477,1.2671844959259033,21.840242385864258,0.3143211007118225,2.5399813652038574,-0.29605430364608765,0.0,0.0,0.0,0.0,0.0,0.0,0.0,-0.1676468968352842,0.46524644807199955,0.030524923590984236,0.5024340759008976,-0.22199228265747903,0.13139024658707413,-0.3100012449451076,0.17281150235793422,-0.4876418146257138,-0.11141677111136866,-1.9467258201335351,0.1336227543943393,2.5954244811269973,0.9452578535263635,0.1728802376190821,-0.48752024683155326,-0.11147110072896137,-1.9463801863486305,0.1336059019074957,2.595550359778934,0.9452445589611904,-0.0007757149656030073,0.0016518992430811122,-0.0007249070785153774,-0.001402521935779795,-0.0001470067597237657,-0.00041616876708107923,-0.00026016724576837067,0.0,0.0,0.0,0.0,0.0,0.0,0.0,6.87352611478953e-05,0.00012156779416055974,-5.432961759270494e-05,0.0003456337849045976,-1.6852486843604852e-05,0.000125878651936695,-1.3294565173072037e-05,0.0007757149656030073,-0.0016518992430811122,0.0007249070785153774,0.001402521935779795,0.0001470067597237657,0.00041616876708107923,0.00026016724576837067,0.12130087614059448,11.901697158813477,-1.2671844959259033,-21.840242385864258,-0.3143211007118225,-2.5399813652038574,0.29605430364608765,0
32,0.15500807762145996,-0.12130087614059448,-11.901697158813477,1.2671844959259033,21.840242385864258,0.3143211007118225,2.5399813652038574,-0.29605430364608765,0.0,0.0,0.0,0.0,0.0,0.0,0.0,-0.1676468968352842,0.46524644807199955,0.030524923590984236,0.5024340759008976,-0.22199228265747903,0.13139024658707413,-0.3100012449451076,0.17281150235793422,-0.4876418146257138,-0.11141677111136866,-1.9467258201335351,0.1336227543943393,2.5954244811269973,0.9452578535263635,0.1728802376190821,-0.48752024683155326,-0.11147110072896137,-1.9463801863486305,0.1336059019074957,2.595550359778934,0.9452445589611904,-0.0007757149656030073,0.0016518992430811122,-0.0007249070785153774,-0.001402521935779795,-0.0001470067597237657,-0.00041616876708107923,-0.00026016724576837067,0.0,0.0,0.0,0.0,0.0,0.0,0.0,6.87352611478953e-05,0.00012156779416055974,-5.432961759270494e-05,0.0003456337849045976,-1.6852486843604852e-05,0.000125878651936695,-1.3294565173072037e-05,0.0007757149656030073,-0.0016518992430811122,0.0007249070785153774,0.001402521935779795,0.0001470067597237657,0.00041616876708107923,0.00026016724576837067,0.12130087614059448,11.901697158813477,-1.2671844959259033,-21.840242385864258,-0.3143211007118225,-2.5399813652038574,0.29605430364608765,0
33,0.1600019931793213,-0.19667929410934448,-11.873926162719727,1.2671844959259033,21.792634963989258,0.3262229561805725,2.5271639823913574,-0.33084434270858765,0.0,0.0,0.0,0.0,0.0,0.0,0.0,-0.16623514135614756,0.47488187744974897,0.03382340612691864,0.5017535074792925,-0.22224448659167126,0.13086216189198085,-0.3105450567093126,0.17281709848579754,-0.4876437634794335,-0.11141732359510059,-1.9467224924829227,0.13362143196662266,2.595425905280643,0.9452613438543233,0.1728802376190821,-0.48752024683155326,-0.11147110072896137,-1.9463801863486305,0.1336059019074957,2.595550359778934,0.9452445589611904,0.0007645280365231777,0.0006509916823814196,-0.00042102569919370364,0.0002864869089813861,-0.0005194953475780257,0.00023453333464266987,0.001637149873896454,0.0,0.0,0.0,0.0,0.0,0.0,0.0,6.313913328456766e-05,0.00012351664788023964,-5.377713386077454e-05,0.0003423061342922029,-1.5530059126966922e-05,0.00012445449829101562,-1.6784893132837375e-05,-0.0007645280365231777,-0.0006509916823814196,0.00042102569919370364,-0.0002864869089813861,0.0005194953475780257,-0.00023453333464266987,-0.001637149873896454,0.19667929410934448,11.873926162719727,-1.2671844959259033,-21.792634963989258,-0.3262229561805725,-2.5271639823913574,0.33084434270858765,0
34,0.16499781608581543,-0.19667929410934448,-11.873926162719727,1.2671844959259033,21.792634963989258,0.3262229561805725,2.5271639823913574,-0.33084434270858765,0.0,0.0,0.0,0.0,0.0,0.0,0.0,-0.16623514135614756,0.47488187744974897,0.03382340612691864,0.5017535074792925,-0.22224448659167126,0.13086216189198085,-0.3105450567093126,0.17281709848579754,-0.4876437634794335,-0.11141732359510059,-1.9467224924829227,0.13362143196662266,2.595425905280643,0.9452613438543233,0.1728802376190821,-0.48752024683155326,-0.11147110072896137,-1.9463801863486305,0.1336059019074957,2.595550359778934,0.9452445589611904,0.0007645280365231777,0.0006509916823814196,-0.00042102569919370364,0.0002864869089813861,-0.0005194953475780257,0.00023453333464266987,0.001637149873896454,0.0,0.0,0.0,0.0,0.0,0.0,0.0,6.313913328456766e-05,0.00012351664788023964,-5.377713386077454e-05,0.0003423061342922029,-1.5530059126966922e-05,0.00012445449829101562,-1.6784893132837375e-05,-0.0007645280365231777,-0.0006509916823814196,0.00042102569919370364,-0.0002864869089813861,0.0005194953475780257,-0.00023453333464266987,-0.001637149873896454,0.19667929410934448,11.873926162719727,-1.2671844959259033,-21.792634963989258,-0.3262229561805725,-2.5271639823913574,0.33084434270858765,0
35,0.1699976921081543,-0.12130087614059448,-11.901697158813477,1.2433807849884033,21.792634963989258,0.3079124093055725,2.5335726737976074,-0.28964561223983765,0.0,0.0,0.0,0.0,0.0,0.0,0.0,-0.16501019613383122,0.4771560193531512,0.03640990529859293,0.5005975304959335,-0.2216946250394532,0.1299339294259206,-0.31151546084362375,0.17281172971296513,-0.4876397086068203,-0.11141566745257998,-1.9467254475990992,0.133623466471831,2.59542519320382,0.9452568873931251,0.1728802376190821,-0.48752024683155326,-0.11147110072896137,-1.9463801863486305,0.1336059019074957,2.595550359778934,0.9452445589611904,-0.0007833532399970755,0.0009431384947569166,-0.00031747483664812436,-5.6585114978168975e-05,-0.007063337608147382,3.9208082849425393e-07,-0.0002757228017178745,0.0,0.0,0.0,0.0,0.0,0.0,0.0,6.850790611698243e-05,0.00011946177526706014,-5.543327638138362e-05,0.00034526125046863143,-1.7564564335298405e-05,0.00012516657511385532,-1.23284319346606e-05,0.0007833532399970755,-0.0009431384947569166,0.00031747483664812436,5.6585114978168975e-05,0.007063337608147382,-3.9208082849425393e-07,0.0002757228017178745,0.12130087614059448,11.901697158813477,-1.2433807849884033,-21.792634963989258,-0.3079124093055725,-2.5335726737976074,0.28964561223983765,0
36,0.175018310546875,-0.12130087614059448,-11.901697158813477,1.2433807849884033,21.792634963989258,0.3079124093055725,2.5335726737976074,-0.28964561223983765,0.0,0.0,0.0,0.0,0.0,0.0,0.0,-0.16501019613383122,0.4771560193531512,0.03640990529859293,0.5005975304959335,-0.2216946250394532,0.1299339294259206,-0.31151546084362375,0.17281172971296513,-0.4876397086068203,-0.11141566745257998,-1.9467254475990992,0.133623466471831,2.59542519320382,0.9452568873931251,0.1728802376190821,-0.48752024683155326,-0.11147110072896137,-1.9463801863486305,0.1336059019074957,2.595550359778934,0.9452445589611904,-0.0007833532399970755,0.0009431384947569166,-0.00031747483664812436,-5.6585114978168975e-05,-0.007063337608147382,3.9208082849425393e-07,-0.0002757228017178745,0.0,0.0,0.0,0.0,0.0,0.0,0.0,6.850790611698243e-05,0.00011946177526706014,-5.543327638138362e-05,0.00034526125046863143,-1.7564564335298405e-05,0.00012516657511385532,-1.23284319346606e-05,0.0007833532399970755,-0.0009431384947569166,0.00031747483664812436,5.6585114978168975e-05,0.007063337608147382,-3.9208082849425393e-07,0.0002757228017178745,0.12130087614059448,11.901697158813477,-1.2433807849884033,-21.792634963989258,-0.3079124093055725,-2.5335726737976074,0.28964561223983765,0
37,0.180006742477417,-0.12130087614059448,-11.901697158813477,1.1918060779571533,21.768831253051758,0.3079124093055725,2.5271639823913574,-0.27591270208358765,0.0,0.0,0.0,0.0,0.0,0.0,0.0,-0.16006203091561594,0.47609644337978346,0.03877440442483106,0.49841716638025013,-0.22204537560681578,0.1298321852162002,-0.3106547035631346,0.1728122896200736,-0.4876418146257138,-0.11141227064765293,-1.9467230340389037,0.133623466471831,2.595425905280643,0.9452585134026775,0.1728802376190821,-0.48752024683155326,-0.11147110072896137,-1.9463801863486305,0.1336059019074957,2.595550359778934,0.9452445589611904,-0.00040101901037690557,0.0010077867927653123,0.0007151431655370958,0.0006359798360500689,-3.829460497415272e-07,3.346446993454639e-05,-0.0006004631330768107,0.0,0.0,0.0,0.0,0.0,0.0,0.0,6.794799900849968e-05,0.00012156779416055974,-5.883008130844192e-05,0.00034284769027315143,-1.7564564335298405e-05,0.00012445449829101562,-1.3954441487107339e-05,0.00040101901037690557,-0.0010077867927653123,-0.0007151431655370958,-0.0006359798360500689,3.829460497415272e-07,-3.346446993454639e-05,0.0006004631330768107,0.12130087614059448,11.901697158813477,-1.1918060779571533,-21.768831253051758,-0.3079124093055725,-2.5271639823913574,0.27591270208358765,0
38,0.18501615524291992,-0.12130087614059448,-11.901697158813477,1.1918060779571533,21.768831253051758,0.3079124093055725,2.5271639823913574,-0.27591270208358765,0.0,0.0,0.0,0.0,0.0,0.0,0.0,-0.16006203091561594,0.47609644337978346,0.03877440442483106,0.49841716638025013,-0.22204537560681578,0.1298321852162002,-0.3106547035631346,0.1728122896200736,-0.4876418146257138,-0.11141227064765293,-1.9467230340389037,0.133623466471831,2.595425905280643,0.9452585134026775,0.1728802376190821,-0.48752024683155326,-0.11147110072896137,-1.9463801863486305,0.1336059019074957,2.595550359778934,0.9452445589611904,-0.00040101901037690557,0.0010077867927653123,0.0007151431655370958,0.0006359798360500689,-3.829460497415272e-07,3.346446993454639e-05,-0.0006004631330768107,0.0,0.0,0.0,0.0,0.0,0.0,0.0,6.794799900849968e-05,0.00012156779416055974,-5.883008130844192e-05,0.00034284769027315143,-1.7564564335298405e-05,0.00012445449829101562,-1.3954441487107339e-05,0.00040101901037690557,-0.0010077867927653123,-0.0007151431655370958,-0.0006359798360500689,3.829460497415272e-07,-3.346446993454639e-05,0.0006004631330768107,0.12130087614059448,11.901697158813477,-1.1918060779571533,-21.768831253051758,-0.3079124093055725,-2.5271639823913574,0.27591270208358765,0
39,0.19000458717346191,-0.14510458707809448,-11.826318740844727,1.2156097888946533,21.768831253051758,0.3262229561805725,2.5335726737976074,-0.29605430364608765,0.0,0.0,0.0,0.0,0.0,0.0,0.0,-0.15997661188104192,0.48293604784049554,0.03155999428377948,0.4927323894927946,-0.22195444058528088,0.12919855764345312,-0.3091801539329665,0.17281324602574763,-0.48764628646264646,-0.1114129326502133,-1.9467215790309125,0.13362143342471525,2.59542519320382,0.9452576048961698,0.1728802376190821,-0.48752024683155326,-0.11147110072896137,-1.9463801863486305,0.1336059019074957,2.595550359778934,0.9452445589611904,-0.0008823205870468078,-0.00011848454151045024,-0.00023548576517570666,0.0004994770645540679,-0.0006295251578251435,-0.00011386891327630376,-0.00028640548446893485,0.0,0.0,0.0,0.0,0.0,0.0,0.0,6.699159333448113e-05,0.00012603963109319993,-5.816807874806096e-05,0.0003413926822819491,-1.5531517219558033e-05,0.00012516657511385532,-1.3045934979416529e-05,0.0008823205870468078,0.00011848454151045024,0.00023548576517570666,-0.0004994770645540679,0.0006295251578251435,0.00011386891327630376,0.00028640548446893485,0.14510458707809448,11.826318740844727,-1.2156097888946533,-21.768831253051758,-0.3262229561805725,-2.5335726737976074,0.29605430364608765,0
40,0.19500470161437988,-0.14510458707809448,-11.826318740844727,1.2156097888946533,21.768831253051758,0.3262229561805725,2.5335726737976074,-0.29605430364608765,0.0,0.0,0.0,0.0,0.0,0.0,0.0,-0.15997661188104192,0.48293604784049554,0.03155999428377948,0.4927323894927946,-0.22195444058528088,0.12919855764345312,-0.3091801539329665,0.17281324602574763,-0.48764628646264646,-0.1114129326502133,-1.9467215790309125,0.13362143342471525,2.59542519320382,0.9452576048961698,0.1728802376190821,-0.48752024683155326,-0.11147110072896137,-1.9463801863486305,0.1336059019074957,2.595550359778934,0.9452445589611904,-0.0008823205870468078,-0.00011848454151045024,-0.00023548576517570666,0.0004994770645540679,-0.0006295251578251435,-0.00011386891327630376,-0.00028640548446893485,0.0,0.0,0.0,0.0,0.0,0.0,0.0,6.699159333448113e-05,0.00012603963109319993,-5.816807874806096e-05,0.0003413926822819491,-1.5531517219558033e-05,0.00012516657511385532,-1.3045934979416529e-05,0.0008823205870468078,0.00011848454151045024,0.00023548576517570666,-0.0004994770645540679,0.0006295251578251435,0.00011386891327630376,0.00028640548446893485,0.14510458707809448,11.826318740844727,-1.2156097888946533,-21.768831253051758,-0.3262229561805725,-2.5335726737976074,0.29605430364608765,0
41,0.20078468322753906,-0.19667929410934448,-11.850122451782227,1.2156097888946533,21.792634963989258,0.3024192452430725,2.5271639823913574,-0.30978721380233765,0.0,0.0,0.0,0.0,0.0,0.0,0.0,-0.15549624636470957,0.4780573368286699,0.03877688028527448,0.4968008906189609,-0.22257825626840919,0.129733885527062,-0.30864958308065904,0.1728167670491643,-0.4876454339106718,-0.11141393194921129,-1.9467224822747342,0.13362407682340172,2.595425905280643,0.9452593666564062,0.1728802376190821,-0.48752024683155326,-0.11147110072896137,-1.9463801863486305,0.1336059019074957,2.595550359778934,0.9452445589611904,0.000405625446500201,0.0005955464905917403,0.00021098191299174756,-0.00017027727474671554,0.00035494963287909545,0.00015230422421501005,0.0005600025320975501,0.0,0.0,0.0,0.0,0.0,0.0,0.0,6.34705699178173e-05,0.00012518707911851612,-5.716877975008028e-05,0.0003422959261036862,-1.8174915906027378e-05,0.00012445449829101562,-1.4807695215779404e-05,-0.000405625446500201,-0.0005955464905917403,-0.00021098191299174756,0.00017027727474671554,-0.00035494963287909545,-0.00015230422421501005,-0.0005600025320975501,0.19667929410934448,11.850122451782227,-1.2156097888946533,-21.792634963989258,-0.3024192452430725,-2.5271639823913574,0.30978721380233765,0
42,0.205000638961792,-0.19667929410934448,-11.850122451782227,1.2156097888946533,21.792634963989258,0.3024192452430725,2.5271639823913574,-0.30978721380233765,0.0,0.0,0.0,0.0,0.0,0.0,0.0,-0.15549624636470957,0.4780573368286699,0.03877688028527448,0.4968008906189609,-0.22257825626840919,0.129733885527062,-0.30864958308065904,0.1728167670491643,-0.4876454339106718,-0.11141393194921129,-1.9467224822747342,0.13362407682340172,2.595425905280643,0.9452593666564062,0.1728802376190821,-0.48752024683155326,-0.11147110072896137,-1.9463801863486305,0.1336059019074957,2.595550359778934,0.9452445589611904,0.000405625446500201,0.0005955464905917403,0.00021098191299174756,-0.00017027727474671554,0.00035494963287909545,0.00015230422421501005,0.0005600025320975501,0.0,0.0,0.0,0.0,0.0,0.0,0.0,6.34705699178173e-05,0.00012518707911851612,-5.716877975008028e-05,0.0003422959261036862,-1.8174915906027378e-05,0.00012445449829101562,-1.4807695215779404e-05,-0.000405625446500201,-0.0005955464905917403,-0.00021098191299174756,0.00017027727474671554,-0.00035494963287909545,-0.00015230422421501005,-0.0005600025320975501,0.19667929410934448,11.850122451782227,-1.2156097888946533,-21.792634963989258,-0.3024192452430725,-2.5271639823913574,0.30978721380233765,0
43,0.20999693870544434,-0.17287558317184448,-11.850122451782227,1.2433807849884033,21.792634963989258,0.3079124093055725,2.5335726737976074,-0.28964561223983765,0.0,0.0,0.0,0.0,0.0,0.0,0.0,-0.15844307512932354,0.4643970436555122,0.03823028063564291,0.5055973581657751,-0.22268419634650002,0.13097952616889444,-0.3092843378941689,0.1728151140738632,-0.4876447319050281,-0.11141280323991873,-1.9467225616342467,0.13362346647183102,2.59542519320382,0.9452572628471999,0.1728802376190821,-0.48752024683155326,-0.11147110072896137,-1.9463801863486305,0.1336059019074957,2.595550359778934,0.9452445589611904,0.000626924371824995,-0.00030758458299852187,-0.000848931767901291,0.0005863808682996639,0.0002945625019292751,-0.00032785013774521397,-0.0002531446238895409,0.0,0.0,0.0,0.0,0.0,0.0,0.0,6.512354521889807e-05,0.00012448507347484483,-5.829748904263854e-05,0.00034237528561620323,-1.756456433532616e-05,0.00012516657511385532,-1.2703886009490795e-05,-0.000626924371824995,0.00030758458299852187,0.000848931767901291,-0.0005863808682996639,-0.0002945625019292751,0.00032785013774521397,0.0002531446238895409,0.17287558317184448,11.850122451782227,-1.2433807849884033,-21.792634963989258,-0.3079124093055725,-2.5335726737976074,0.28964561223983765,0
44,0.21499872207641602,-0.17287558317184448,-11.850122451782227,1.2433807849884033,21.792634963989258,0.3079124093055725,2.5335726737976074,-0.28964561223983765,0.0,0.0,0.0,0.0,0.0,0.0,0.0,-0.15844307512932354,0.4643970436555122,0.03823028063564291,0.5055973581657751,-0.22268419634650002,0.13097952616889444,-0.3092843378941689,0.1728151140738632,-0.4876447319050281,-0.11141280323991873,-1.9467225616342467,0.13362346647183102,2.59542519320382,0.9452572628471999,0.1728802376190821,-0.48752024683155326,-0.11147110072896137,-1.9463801863486305,0.1336059019074957,2.595550359778934,0.9452445589611904,0.000626924371824995,-0.00030758458299852187,-0.000848931767901291,0.0005863808682996639,0.0002945625019292751,-0.00032785013774521397,-0.0002531446238895409,0.0,0.0,0.0,0.0,0.0,0.0,0.0,6.512354521889807e-05,0.00012448507347484483,-5.829748904263854e-05,0.00034237528561620323,-1.756456433532616e-05,0.00012516657511385532,-1.2703886009490795e-05,-0.000626924371824995,0.00030758458299852187,0.000848931767901291,-0.0005863808682996639,-0.0002945625019292751,0.00032785013774521397,0.0002531446238895409,0.17287558317184448,11.850122451782227,-1.2433807849884033,-21.792634963989258,-0.3079124093055725,-2.5335726737976074,0.28964561223983765,0
45,0.2200002670288086,-0.17287558317184448,-11.850122451782227,1.2433807849884033,21.792634963989258,0.3079124093055725,2.5335726737976074,-0.28964561223983765,0.0,0.0,0.0,0.0,0.0,0.0,0.0,-0.15844307512932354,0.4643970436555122,0.03823028063564291,0.5055973581657751,-0.22268419634650002,0.13097952616889444,-0.3092843378941689,0.1728151140738632,-0.4876447319050281,-0.11141280323991873,-1.9467225616342467,0.13362346647183102,2.59542519320382,0.9452572628471999,0.1728802376190821,-0.48752024683155326,-0.11147110072896137,-1.9463801863486305,0.1336059019074957,2.595550359778934,0.9452445589611904,0.000626924371824995,-0.00030758458299852187,-0.000848931767901291,0.0005863808682996639,0.0002945625019292751,-0.00032785013774521397,-0.0002531446238895409,0.0,0.0,0.0,0.0,0.0,0.0,0.0,6.512354521889807e-05,0.00012448507347484483,-5.829748904263854e-05,0.00034237528561620323,-1.756456433532616e-05,0.00012516657511385532,-1.2703886009490795e-05,-0.000626924371824995,0.00030758458299852187,0.000848931767901291,-0.0005863808682996639,-0.0002945625019292751,0.00032785013774521397,0.0002531446238895409,0.17287558317184448,11.850122451782227,-1.2433807849884033,-21.792634963989258,-0.3079124093055725,-2.5335726737976074,0.28964561223983765,0
46,0.22499799728393555,-0.17287558317184448,-11.850122451782227,1.2433807849884033,21.792634963989258,0.3079124093055725,2.5335726737976074,-0.28964561223983765,0.0,0.0,0.0,0.0,0.0,0.0,0.0,-0.15844307512932354,0.4643970436555122,0.03823028063564291,0.5055973581657751,-0.22268419634650002,0.13097952616889444,-0.3092843378941689,0.1728151140738632,-0.4876447319050281,-0.11141280323991873,-1.9467225616342467,0.13362346647183102,2.59542519320382,0.9452572628471999,0.1728802376190821,-0.48752024683155326,-0.11147110072896137,-1.9463801863486305,0.1336059019074957,2.595550359778934,0.9452445589611904,0.000626924371824995,-0.00030758458299852187,-0.000848931767901291,0.0005863808682996639,0.0002945625019292751,-0.00032785013774521397,-0.0002531446238895409,0.0,0.0,0.0,0.0,0.0,0.0,0.0,6.512354521889807e-05,0.00012448507347484483,-5.829748904263854e-05,0.00034237528561620323,-1.756456433532616e-05,0.00012516657511385532,-1.2703886009490795e-05,-0.000626924371824995,0.00030758458299852187,0.000848931767901291,-0.0005863808682996639,-0.0002945625019292751,0.00032785013774521397,0.0002531446238895409,0.17287558317184448,11.850122451782227,-1.2433807849884033,-21.792634963989258,-0.3079124093055725,-2.5335726737976074,0.28964561223983765,0
47,0.23000168800354004,-0.17287558317184448,-11.850122451782227,1.2671844959259033,21.792634963989258,0.3079124093055725,2.5335726737976074,-0.27591270208358765,0.0,0.0,0.0,0.0,0.0,0.0,0.0,-0.16086022154323293,0.4753126777534448,0.030668159864556902,0.5013824540607634,-0.22186752390122536,0.13000033754134901,-0.3090203178146292,0.17281603170054302,-0.4876454339034002,-0.11141678863822391,-1.9467247044593978,0.13362346647183102,2.59542519320382,0.9452552416141577,0.1728802376190821,-0.48752024683155326,-0.11147110072896137,-1.9463801863486305,0.1336059019074957,2.595550359778934,0.9452445589611904,0.0003892793404575256,8.867079651672595e-06,-0.0011461865945458802,2.968813611188055e-05,0.00032359285581662155,-7.070800132462472e-05,-0.0012904050364257577,0.0,0.0,0.0,0.0,0.0,0.0,0.0,6.420591853908975e-05,0.0001251870718469439,-5.431209073746002e-05,0.0003445181107673001,-1.756456433532616e-05,0.00012516657511385532,-1.0682652967330952e-05,-0.0003892793404575256,-8.867079651672595e-06,0.0011461865945458802,-2.968813611188055e-05,-0.00032359285581662155,7.070800132462472e-05,0.0012904050364257577,0.17287558317184448,11.850122451782227,-1.2671844959259033,-21.792634963989258,-0.3079124093055725,-2.5335726737976074,0.27591270208358765,0
48,0.235001802444458,-0.17287558317184448,-11.850122451782227,1.2671844959259033,21.792634963989258,0.3079124093055725,2.5335726737976074,-0.27591270208358765,0.0,0.0,0.0,0.0,0.0,0.0,0.0,-0.16086022154323293,0.4753126777534448,0.030668159864556902,0.5013824540607634,-0.22186752390122536,0.13000033754134901,-0.3090203178146292,0.17281603170054302,-0.4876454339034002,-0.11141678863822391,-1.9467247044593978,0.13362346647183102,2.59542519320382,0.9452552416141577,0.1728802376190821,-0.48752024683155326,-0.11147110072896137,-1.9463801863486305,0.1336059019074957,2.595550359778934,0.9452445589611904,0.0003892793404575256,8.867079651672595e-06,-0.0011461865945458802,2.968813611188055e-05,0.00032359285581662155,-7.070800132462472e-05,-0.0012904050364257577,0.0,0.0,0.0,0.0,0.0,0.0,0.0,6.420591853908975e-05,0.0001251870718469439,-5.431209073746002e-05,0.0003445181107673001,-1.756456433532616e-05,0.00012516657511385532,-1.0682652967330952e-05,-0.0003892793404575256,-8.867079651672595e-06,0.0011461865945458802,-2.968813611188055e-05,-0.00032359285581662155,7.070800132462472e-05,0.0012904050364257577,0.17287558317184448,11.850122451782227,-1.2671844959259033,-21.792634963989258,-0.3079124093055725,-2.5335726737976074,0.27591270208358765,0
49,0.2400069236755371,-0.19667929410934448,-11.802515029907227,1.2671844959259033,21.768831253051758,0.3079124093055725,2.5271639823913574,-0.26858848333358765,0.0,0.0,0.0,0.0,0.0,0.0,0.0,-0.16118999259119995,0.4923234897566162,0.030437502641225682,0.49463606623276685,-0.22157668198972252,0.12900349853328633,-0.3090116247037172,0.1728175444465112,-0.48764866971550475,-0.1114166041806602,-1.9467208087960326,0.13362346647183102,2.595425905280643,0.9452544308447514,0.1728802376190821,-0.48752024683155326,-0.11147110072896137,-1.9463801863486305,0.1336059019074957,2.595550359778934,0.9452445589611904,0.0008735034638099453,-0.00040035244095188376,-0.0012531732822936633,0.00013704867106974534,5.488049165779521e-05,-0.000247628568819994,-0.001613073362739012,0.0,0.0,0.0,0.0,0.0,0.0,0.0,6.269317257090457e-05,0.0001284228839514845,-5.4496548301169456e-05,0.0003406224474020725,-1.756456433532616e-05,0.00012445449829101562,-9.871883560941264e-06,-0.0008735034638099453,0.00040035244095188376,0.0012531732822936633,-0.00013704867106974534,-5.488049165779521e-05,0.000247628568819994,0.001613073362739012,0.19667929410934448,11.802515029907227,-1.2671844959259033,-21.768831253051758,-0.3079124093055725,-2.5271639823913574,0.26858848333358765,0
50,0.2458021640777588,-0.19667929410934448,-11.802515029907227,1.2671844959259033,21.768831253051758,0.3079124093055725,2.5271639823913574,-0.26858848333358765,0.0,0.0,0.0,0.0,0.0,0.0,0.0,-0.16118999259119995,0.4923234897566162,0.030437502641225682,0.49463606623276685,-0.22157668198972252,0.12900349853328633,-0.3090116247037172,0.1728175444465112,-0.48764866971550475,-0.1114166041806602,-1.9467208087960326,0.13362346647183102,2.595425905280643,0.9452544308447514,0.1728802376190821,-0.48752024683155326,-0.11147110072896137,-1.9463801863486305,0.1336059019074957,2.595550359778934,0.9452445589611904,0.0008735034638099453,-0.00040035244095188376,-0.0012531732822936633,0.00013704867106974534,5.488049165779521e-05,-0.000247628568819994,-0.001613073362739012,0.0,0.0,0.0,0.0,0.0,0.0,0.0,6.269317257090457e-05,0.0001284228839514845,-5.4496548301169456e-05,0.0003406224474020725,-1.756456433532616e-05,0.00012445449829101562,-9.871883560941264e-06,-0.0008735034638099453,0.00040035244095188376,0.0012531732822936633,-0.00013704867106974534,-5.488049165779521e-05,0.000247628568819994,0.001613073362739012,0.19667929410934448,11.802515029907227,-1.2671844959259033,-21.768831253051758,-0.3079124093055725,-2.5271639823913574,0.26858848333358765,0
51,0.25000548362731934,-0.12130087614059448,-11.826318740844727,1.2156097888946533,21.792634963989258,0.3079124093055725,2.5271639823913574,-0.31711143255233765,0.0,0.0,0.0,0.0,0.0,0.0,0.0,-0.16355041717927962,0.48365770266364577,0.028985827532039626,0.4997113948982874,-0.22185917145040202,0.12970295621765365,-0.309087823797245,0.17281146858793733,-0.4876471043509464,-0.11141172110765364,-1.9467224822829476,0.13362346647183102,2.595425905280643,0.9452598624492518,0.1728802376190821,-0.48752024683155326,-0.11147110072896137,-1.9463801863486305,0.1336059019074957,2.595550359778934,0.9452445589611904,-0.0009970501232248565,-1.8047381118866523e-05,0.0002907320617820957,-0.0004640380890013183,0.00012296738900942507,7.393771654827938e-05,0.0006686599278658799,0.0,0.0,0.0,0.0,0.0,0.0,0.0,6.87690311447775e-05,0.00012685751939311984,-5.937962130772578e-05,0.00034229593431711614,-1.756456433532616e-05,0.00012445449829101562,-1.5303488061335635e-05,0.0009970501232248565,1.8047381118866523e-05,-0.0002907320617820957,0.0004640380890013183,-0.00012296738900942507,-7.393771654827938e-05,-0.0006686599278658799,0.12130087614059448,11.826318740844727,-1.2156097888946533,-21.792634963989258,-0.3079124093055725,-2.5271639823913574,0.31711143255233765,0
52,0.2550008296966553,-0.12130087614059448,-11.826318740844727,1.2156097888946533,21.792634963989258,0.3079124093055725,2.5271639823913574,-0.31711143255233765,0.0,0.0,0.0,0.0,0.0,0.0,0.0,-0.16355041717927962,0.48365770266364577,0.028985827532039626,0.4997113948982874,-0.22185917145040202,0.12970295621765365,-0.309087823797245,0.17281146858793733,-0.4876471043509464,-0.11141172110765364,-1.9467224822829476,0.13362346647183102,2.595425905280643,0.9452598624492518,0.1728802376190821,-0.48752024683155326,-0.11147110072896137,-1.9463801863486305,0.1336059019074957,2.595550359778934,0.9452445589611904,-0.0009970501232248565,-1.8047381118866523e-05,0.0002907320617820957,-0.0004640380890013183,0.00012296738900942507,7.393771654827938e-05,0.0006686599278658799,0.0,0.0,0.0,0.0,0.0,0.0,0.0,6.87690311447775e-05,0.00012685751939311984,-5.937962130772578e-05,0.00034229593431711614,-1.756456433532616e-05,0.00012445449829101562,-1.5303488061335635e-05,0.0009970501232248565,1.8047381118866523e-05,-0.0002907320617820957,0.0004640380890013183,-0.00012296738900942507,-7.393771654827938e-05,-0.0006686599278658799,0.12130087614059448,11.826318740844727,-1.2156097888946533,-21.792634963989258,-0.3079124093055725,-2.5271639823913574,0.31711143255233765,0
53,0.26000452041625977,-0.17287558317184448,-11.802515029907227,1.2156097888946533,21.741060256958008,0.3024192452430725,2.5335726737976074,-0.28964561223983765,0.0,0.0,0.0,0.0,0.0,0.0,0.0,-0.160932403135079,0.477331386672182,0.03284053280334668,0.5027169877030586,-0.22225401504733353,0.12998322138362564,-0.30916707299694923,0.17281540180408503,-0.48764877382402233,-0.11141159682727657,-1.9467188599402616,0.1336240768233935,2.59542519320382,0.9452611120012323,0.1728802376190821,-0.48752024683155326,-0.11147110072896137,-1.9463801863486305,0.1336059019074957,2.595550359778934,0.9452445589611904,0.0006347740737212199,-0.0011591892108543506,0.00016939231360452,0.0011325075187861094,0.0002226483868372367,-0.00022090773086757727,-0.00011803493977795415,0.0,0.0,0.0,0.0,0.0,0.0,0.0,6.483581499708291e-05,0.00012852699246906907,-5.950390168479869e-05,0.000338673591631089,-1.8174915897811728e-05,0.00012516657511385532,-1.6553040041888956e-05,-0.0006347740737212199,0.0011591892108543506,-0.00016939231360452,-0.0011325075187861094,-0.0002226483868372367,0.00022090773086757727,0.00011803493977795415,0.17287558317184448,11.802515029907227,-1.2156097888946533,-21.741060256958008,-0.3024192452430725,-2.5335726737976074,0.28964561223983765,0
54,0.26495909690856934,-0.17287558317184448,-11.802515029907227,1.2156097888946533,21.741060256958008,0.3024192452430725,2.5335726737976074,-0.28964561223983765,0.0,0.0,0.0,0.0,0.0,0.0,0.0,-0.160932403135079,0.477331386672182,0.03284053280334668,0.5027169877030586,-0.22225401504733353,0.12998322138362564,-0.30916707299694923,0.17281540180408503,-0.48764877382402233,-0.11141159682727657,-1.9467188599402616,0.1336240768233935,2.59542519320382,0.9452611120012323,0.1728802376190821,-0.48752024683155326,-0.11147110072896137,-1.9463801863486305,0.1336059019074957,2.595550359778934,0.9452445589611904,0.0006347740737212199,-0.0011591892108543506,0.00016939231360452,0.0011325075187861094,0.0002226483868372367,-0.00022090773086757727,-0.00011803493977795415,0.0,0.0,0.0,0.0,0.0,0.0,0.0,6.483581499708291e-05,0.00012852699246906907,-5.950390168479869e-05,0.000338673591631089,-1.8174915897811728e-05,0.00012516657511385532,-1.6553040041888956e-05,-0.0006347740737212199,0.0011591892108543506,-0.00016939231360452,-0.0011325075187861094,-0.0002226483868372367,0.00022090773086757727,0.00011803493977795415,0.17287558317184448,11.802515029907227,-1.2156097888946533,-21.741060256958008,-0.3024192452430725,-2.5335726737976074,0.28964561223983765,0
55,0.2700028419494629,-0.14510458707809448,-11.850122451782227,1.2433807849884033,21.816438674926758,0.3143211007118225,2.5335726737976074,-0.25485557317733765,0.0,0.0,0.0,0.0,0.0,0.0,0.0,-0.15813005226992424,0.4639240005436622,0.03836934415618656,0.513364355555091,-0.22331992274960707,0.13210243058582571,-0.30993545625421814,0.17281387258148587,-0.4876453992481136,-0.1114155917764159,-1.9467241496537862,0.1336227543950081,2.59542519320382,0.9452543486151528,0.1728802376190821,-0.48752024683155326,-0.11147110072896137,-1.9463801863486305,0.1336059019074957,2.595550359778934,0.9452445589611904,4.001844883949318e-06,-0.00024077501972187825,8.358929616190487e-05,-0.00030985345903910535,-0.000222362990510812,-0.0003330289299268332,-0.002013398120640974,0.0,0.0,0.0,0.0,0.0,0.0,0.0,6.636503759624435e-05,0.00012515241656035903,-5.550895254546884e-05,0.0003439633051556257,-1.6852487512403203e-05,0.00012516657511385532,-9.789653962366529e-06,-4.001844883949318e-06,0.00024077501972187825,-8.358929616190487e-05,0.00030985345903910535,0.000222362990510812,0.0003330289299268332,0.002013398120640974,0.14510458707809448,11.850122451782227,-1.2433807849884033,-21.816438674926758,-0.3143211007118225,-2.5335726737976074,0.25485557317733765,0
56,0.2749965190887451,-0.14510458707809448,-11.850122451782227,1.2433807849884033,21.816438674926758,0.3143211007118225,2.5335726737976074,-0.25485557317733765,0.0,0.0,0.0,0.0,0.0,0.0,0.0,-0.15813005226992424,0.4639240005436622,0.03836934415618656,0.513364355555091,-0.22331992274960707,0.13210243058582571,-0.30993545625421814,0.17281387258148587,-0.4876453992481136,-0.1114155917764159,-1.9467241496537862,0.1336227543950081,2.59542519320382,0.9452543486151528,0.1728802376190821,-0.48752024683155326,-0.11147110072896137,-1.9463801863486305,0.1336059019074957,2.595550359778934,0.9452445589611904,4.001844883949318e-06,-0.00024077501972187825,8.358929616190487e-05,-0.00030985345903910535,-0.000222362990510812,-0.0003330289299268332,-0.002013398120640974,0.0,0.0,0.0,0.0,0.0,0.0,0.0,6.636503759624435e-05,0.00012515241656035903,-5.550895254546884e-05,0.0003439633051556257,-1.6852487512403203e-05,0.00012516657511385532,-9.789653962366529e-06,-4.001844883949318e-06,0.00024077501972187825,-8.358929616190487e-05,0.00030985345903910535,0.000222362990510812,0.0003330289299268332,0.002013398120640974,0.14510458707809448,11.850122451782227,-1.2433807849884033,-21.816438674926758,-0.3143211007118225,-2.5335726737976074,0.25485557317733765,0
57,0.2799971103668213,-0.17287558317184448,-11.873926162719727,1.2433807849884033,21.768831253051758,0.3079124093055725,2.5271639823913574,-0.28964561223983765,0.0,0.0,0.0,0.0,0.0,0.0,0.0,-0.16038925062156068,0.48012791173700464,0.032586911985447185,0.5001095610330393,-0.22339107666624014,0.12976220205789593,-0.3102253649876133,0.17281509529305836,-0.48764368547770637,-0.11141587693014368,-1.9467208465420807,0.13362358457733084,2.595425906734193,0.9452567794282868,0.1728802376190821,-0.48752024683155326,-0.11147110072896137,-1.9463801863486305,0.1336059019074957,2.595550359778934,0.9452445589611904,0.00021698928055206786,0.0004930882460942706,-2.8706484147754045e-05,0.0007973547034986422,0.00011278967773419545,0.00030231402786751513,-0.0008296262351326671,0.0,0.0,0.0,0.0,0.0,0.0,0.0,6.51423260237538e-05,0.00012343864615310673,-5.522379881768569e-05,0.00034066019345013743,-1.7682669835150655e-05,0.0001244530447408465,-1.2220467096368814e-05,-0.00021698928055206786,-0.0004930882460942706,2.8706484147754045e-05,-0.0007973547034986422,-0.00011278967773419545,-0.00030231402786751513,0.0008296262351326671,0.17287558317184448,11.873926162719727,-1.2433807849884033,-21.768831253051758,-0.3079124093055725,-2.5271639823913574,0.28964561223983765,0
58,0.28499770164489746,-0.17287558317184448,-11.873926162719727,1.2433807849884033,21.768831253051758,0.3079124093055725,2.5271639823913574,-0.28964561223983765,0.0,0.0,0.0,0.0,0.0,0.0,0.0,-0.16038925062156068,0.48012791173700464,0.032586911985447185,0.5001095610330393,-0.22339107666624014,0.12976220205789593,-0.3102253649876133,0.17281509529305836,-0.48764368547770637,-0.11141587693014368,-1.9467208465420807,0.13362358457733084,2.595425906734193,0.9452567794282868,0.1728802376190821,-0.48752024683155326,-0.11147110072896137,-1.9463801863486305,0.1336059019074957,2.595550359778934,0.9452445589611904,0.00021698928055206786,0.0004930882460942706,-2.8706484147754045e-05,0.0007973547034986422,0.00011278967773419545,0.00030231402786751513,-0.0008296262351326671,0.0,0.0,0.0,0.0,0.0,0.0,0.0,6.51423260237538e-05,0.00012343864615310673,-5.522379881768569e-05,0.00034066019345013743,-1.7682669835150655e-05,0.0001244530447408465,-1.2220467096368814e-05,-0.00021698928055206786,-0.0004930882460942706,2.8706484147754045e-05,-0.0007973547034986422,-0.00011278967773419545,-0.00030231402786751513,0.0008296262351326671,0.17287558317184448,11.873926162719727,-1.2433807849884033,-21.768831253051758,-0.3079124093055725,-2.5271639823913574,0.28964561223983765,0
59,0.29041481018066406,-0.19667929410934448,-11.850122451782227,1.1918060779571533,21.816438674926758,0.3024192452430725,2.5335726737976074,-0.26858848333358765,0.0,0.0,0.0,0.0,0.0,0.0,0.0,-0.15473112751492107,0.48247173712834196,0.040067670874073515,0.49703241879352134,-0.2234505069368904,0.12967926476256103,-0.312483472549272,0.1728167660765075,-0.4876446452012821,-0.1114098941066964,-1.9467249229551495,0.1336240768236157,2.595425193203823,0.9452544665591931,0.1728802376190821,-0.48752024683155326,-0.11147110072896137,-1.9463801863486305,0.1336059019074957,2.595550359778934,0.9452445589611904,0.0015511419780675979,-0.00043031491844654695,0.0009452891151505315,-0.0004925043241319031,0.00030621736301424726,0.00013627715703979927,-0.0015884422287101628,0.0,0.0,0.0,0.0,0.0,0.0,0.0,6.347154257460574e-05,0.00012439836972882867,-6.120662226496987e-05,0.00034473660651901383,-1.8174916120022866e-05,0.00012516657511119078,-9.907598002678597e-06,-0.0015511419780675979,0.00043031491844654695,-0.0009452891151505315,0.0004925043241319031,-0.00030621736301424726,-0.00013627715703979927,0.0015884422287101628,0.19667929410934448,11.850122451782227,-1.1918060779571533,-21.816438674926758,-0.3024192452430725,-2.5335726737976074,0.26858848333358765,0
60,0.29500269889831543,-0.19667929410934448,-11.850122451782227,1.1918060779571533,21.816438674926758,0.3024192452430725,2.5335726737976074,-0.26858848333358765,0.0,0.0,0.0,0.0,0.0,0.0,0.0,-0.15473112751492107,0.48247173712834196,0.040067670874073515,0.49703241879352134,-0.2234505069368904,0.12967926476256103,-0.312483472549272,0.1728167660765075,-0.4876446452012821,-0.1114098941066964,-1.9467249229551495,0.1336240768236157,2.595425193203823,0.9452544665591931,0.1728802376190821,-0.48752024683155326,-0.11147110072896137,-1.9463801863486305,0.1336059019074957,2.595550359778934,0.9452445589611904,0.0015511419780675979,-0.00043031491844654695,0.0009452891151505315,-0.0004925043241319031,0.00030621736301424726,0.00013627715703979927,-0.0015884422287101628,0.0,0.0,0.0,0.0,0.0,0.0,0.0,6.347154257460574e-05,0.00012439836972882867,-6.120662226496987e-05,0.00034473660651901383,-1.8174916120022866e-05,0.00012516657511119078,-9.907598002678597e-06,-0.0015511419780675979,0.00043031491844654695,-0.0009452891151505315,0.0004925043241319031,-0.00030621736301424726,-0.00013627715703979927,0.0015884422287101628,0.19667929410934448,11.850122451782227,-1.1918060779571533,-21.816438674926758,-0.3024192452430725,-2.5335726737976074,0.26858848333358765,0
61,0.3000650405883789,-0.19667929410934448,-11.850122451782227,1.1918060779571533,21.792634963989258,0.3143211007118225,2.5399813652038574,-0.31711143255233765,0.0,0.0,0.0,0.0,0.0,0.0,0.0,-0.15908123934274812,0.48540237428660826,0.029074617855999997,0.4951858003489657,-0.22308954466677774,0.13037563349716152,-0.3133796563651111,0.17281983775559753,-0.4876447319005758,-0.11141008607287375,-1.946722809904977,0.1336227543950081,2.5954244811269973,0.9452598178079814,0.1728802376190821,-0.48752024683155326,-0.11147110072896137,-1.9463801863486305,0.1336059019074957,2.595550359778934,0.9452445589611904,0.0008569351475731794,0.0002689850121649365,0.0002111201731616404,6.0681519469001625e-05,8.802957611654057e-07,-0.000303284257835127,0.0009823843004751912,0.0,0.0,0.0,0.0,0.0,0.0,0.0,6.0399863484578153e-05,0.00012448506902251744,-6.101465608761292e-05,0.00034262355634639974,-1.6852487512403203e-05,0.000125878651936695,-1.5258846790988656e-05,-0.0008569351475731794,-0.0002689850121649365,-0.0002111201731616404,-6.0681519469001625e-05,-8.802957611654057e-07,0.000303284257835127,-0.0009823843004751912,0.19667929410934448,11.850122451782227,-1.1918060779571533,-21.792634963989258,-0.3143211007118225,-2.5399813652038574,0.31711143255233765,0
62,0.3054158687591553,-0.19667929410934448,-11.850122451782227,1.1918060779571533,21.792634963989258,0.3143211007118225,2.5399813652038574,-0.31711143255233765,0.0,0.0,0.0,0.0,0.0,0.0,0.0,-0.15908123934274812,0.48540237428660826,0.029074617855999997,0.4951858003489657,-0.22308954466677774,0.13037563349716152,-0.3133796563651111,0.17281983775559753,-0.4876447319005758,-0.11141008607287375,-1.946722809904977,0.1336227543950081,2.5954244811269973,0.9452598178079814,0.1728802376190821,-0.48752024683155326,-0.11147110072896137,-1.9463801863486305,0.1336059019074957,2.595550359778934,0.9452445589611904,0.0008569351475731794,0.0002689850121649365,0.0002111201731616404,6.0681519469001625e-05,8.802957611654057e-07,-0.000303284257835127,0.0009823843004751912,0.0,0.0,0.0,0.0,0.0,0.0,0.0,6.0399863484578153e-05,0.00012448506902251744,-6.101465608761292e-05,0.00034262355634639974,-1.6852487512403203e-05,0.000125878651936695,-1.5258846790988656e-05,-0.0008569351475731794,-0.0002689850121649365,-0.0002111201731616404,-6.0681519469001625e-05,-8.802957611654057e-07,0.000303284257835127,-0.0009823843004751912,0.19667929410934448,11.850122451782227,-1.1918060779571533,-21.792634963989258,-0.3143211007118225,-2.5399813652038574,0.31711143255233765,0
63,0.3099985122680664,-0.14510458707809448,-11.802515029907227,1.1680023670196533,21.768831253051758,0.3198142647743225,2.5271639823913574,-0.26217979192733765,0.0,0.0,0.0,0.0,0.0,0.0,0.0,-0.15821361150677424,0.4833112104407771,0.032106273348818756,0.4968044864232553,-0.22323707318318908,0.13068743580823936,-0.3124650119179448,0.17281314062380254,-0.487648773713062,-0.11140822856618549,-1.946721553620773,0.13362214404344558,2.595425905280643,0.9452541969609852,0.1728802376190821,-0.48752024683155326,-0.11147110072896137,-1.9463801863486305,0.1336059019074957,2.595550359778934,0.9452445589611904,-0.0007433577143605555,-0.0008614202824621532,0.0006672034559045418,0.0005399083181060385,-0.0004022515628461102,1.9517596823382988e-05,-0.0019440121180742062,0.0,0.0,0.0,0.0,0.0,0.0,0.0,6.70969952795697e-05,0.00012852688150871705,-6.287216277588159e-05,0.00034136727214240103,-1.624213594988988e-05,0.00012445449829101562,-9.637999794809282e-06,0.0007433577143605555,0.0008614202824621532,-0.0006672034559045418,-0.0005399083181060385,0.0004022515628461102,-1.9517596823382988e-05,0.0019440121180742062,0.14510458707809448,11.802515029907227,-1.1680023670196533,-21.768831253051758,-0.3198142647743225,-2.5271639823913574,0.26217979192733765,0
64,0.3149583339691162,-0.14510458707809448,-11.802515029907227,1.1680023670196533,21.768831253051758,0.3198142647743225,2.5271639823913574,-0.26217979192733765,0.0,0.0,0.0,0.0,0.0,0.0,0.0,-0.15821361150677424,0.4833112104407771,0.032106273348818756,0.4968044864232553,-0.22323707318318908,0.13068743580823936,-0.3124650119179448,0.17281314062380254,-0.487648773713062,-0.11140822856618549,-1.946721553620773,0.13362214404344558,2.595425905280643,0.9452541969609852,0.1728802376190821,-0.48752024683155326,-0.11147110072896137,-1.9463801863486305,0.1336059019074957,2.595550359778934,0.9452445589611904,-0.0007433577143605555,-0.0008614202824621532,0.0006672034559045418,0.0005399083181060385,-0.0004022515628461102,1.9517596823382988e-05,-0.0019440121180742062,0.0,0.0,0.0,0.0,0.0,0.0,0.0,6.70969952795697e-05,0.00012852688150871705,-6.287216277588159e-05,0.00034136727214240103,-1.624213594988988e-05,0.00012445449829101562,-9.637999794809282e-06,0.0007433577143605555,0.0008614202824621532,-0.0006672034559045418,-0.0005399083181060385,0.0004022515628461102,-1.9517596823382988e-05,0.0019440121180742062,0.14510458707809448,11.802515029907227,-1.1680023670196533,-21.768831253051758,-0.3198142647743225,-2.5271639823913574,0.26217979192733765,0
65,0.319993257522583,-0.14510458707809448,-11.802515029907227,1.1680023670196533,21.768831253051758,0.3198142647743225,2.5271639823913574,-0.26217979192733765,0.0,0.0,0.0,0.0,0.0,0.0,0.0,-0.15821361150677424,0.4833112104407771,0.032106273348818756,0.4968044864232553,-0.22323707318318908,0.13068743580823936,-0.3124650119179448,0.17281314062380254,-0.487648773713062,-0.11140822856618549,-1.946721553620773,0.13362214404344558,2.595425905280643,0.9452541969609852,0.1728802376190821,-0.48752024683155326,-0.11147110072896137,-1.9463801863486305,0.1336059019074957,2.595550359778934,0.9452445589611904,-0.0007433577143605555,-0.0008614202824621532,0.0006672034559045418,0.0005399083181060385,-0.0004022515628461102,1.9517596823382988e-05,-0.0019440121180742062,0.0,0.0,0.0,0.0,0.0,0.0,0.0,6.70969952795697e-05,0.00012852688150871705,-6.287216277588159e-05,0.00034136727214240103,-1.624213594988988e-05,0.00012445449829101562,-9.637999794809282e-06,0.0007433577143605555,0.0008614202824621532,-0.0006672034559045418,-0.0005399083181060385,0.0004022515628461102,-1.9517596823382988e-05,0.0019440121180742062,0.14510458707809448,11.802515029907227,-1.1680023670196533,-21.768831253051758,-0.3198142647743225,-2.5271639823913574,0.26217979192733765,0
66,0.32500791549682617,-0.14510458707809448,-11.802515029907227,1.1680023670196533,21.768831253051758,0.3198142647743225,2.5271639823913574,-0.26217979192733765,0.0,0.0,0.0,0.0,0.0,0.0,0.0,-0.15821361150677424,0.4833112104407771,0.032106273348818756,0.4968044864232553,-0.22323707318318908,0.13068743580823936,-0.3124650119179448,0.17281314062380254,-0.487648773713062,-0.11140822856618549,-1.946721553620773,0.13362214404344558,2.595425905280643,0.9452541969609852,0.1728802376190821,-0.48752024683155326,-0.11147110072896137,-1.9463801863486305,0.1336059019074957,2.595550359778934,0.9452445589611904,-0.0007433577143605555,-0.0008614202824621532,0.0006672034559045418,0.0005399083181060385,-0.0004022515628461102,1.9517596823382988e-05,-0.0019440121180742062,0.0,0.0,0.0,0.0,0.0,0.0,0.0,6.70969952795697e-05,0.00012852688150871705,-6.287216277588159e-05,0.00034136727214240103,-1.624213594988988e-05,0.00012445449829101562,-9.637999794809282e-06,0.0007433577143605555,0.0008614202824621532,-0.0006672034559045418,-0.0005399083181060385,0.0004022515628461102,-1.9517596823382988e-05,0.0019440121180742062,0.14510458707809448,11.802515029907227,-1.1680023670196533,-21.768831253051758,-0.3198142647743225,-2.5271639823913574,0.26217979192733765,0
67,0.33001136779785156,-0.14510458707809448,-11.802515029907227,1.1680023670196533,21.768831253051758,0.3198142647743225,2.5271639823913574,-0.26217979192733765,0.0,0.0,0.0,0.0,0.0,0.0,0.0,-0.15821361150677424,0.4833112104407771,0.032106273348818756,0.4968044864232553,-0.22323707318318908,0.13068743580823936,-0.3124650119179448,0.17281314062380254,-0.487648773713062,-0.11140822856618549,-1.946721553620773,0.13362214404344558,2.595425905280643,0.9452541969609852,0.1728802376190821,-0.48752024683155326,-0.11147110072896137,-1.9463801863486305,0.1336059019074957,2.595550359778934,0.9452445589611904,-0.0007433577143605555,-0.0008614202824621532,0.0006672034559045418,0.0005399083181060385,-0.0004022515628461102,1.9517596823382988e-05,-0.0019440121180742062,0.0,0.0,0.0,0.0,0.0,0.0,0.0,6.70969952795697e-05,0.00012852688150871705,-6.287216277588159e-05,0.00034136727214240103,-1.624213594988988e-05,0.00012445449829101562,-9.637999794809282e-06,0.0007433577143605555,0.0008614202824621532,-0.0006672034559045418,-0.0005399083181060385,0.0004022515628461102,-1.9517596823382988e-05,0.0019440121180742062,0.14510458707809448,11.802515029907227,-1.1680023670196533,-21.768831253051758,-0.3198142647743225,-2.5271639823913574,0.26217979192733765,0
68,0.3350181579589844,-0.17287558317184448,-11.826318740844727,1.2433807849884033,21.768831253051758,0.3262229561805725,2.5207552909851074,-0.28964561223983765,0.0,0.0,0.0,0.0,0.0,0.0,0.0,-0.16161573378857655,0.4687925440086009,0.030102636477178927,0.506832450638624,-0.22208108386704908,0.1312238916015916,-0.30962736993940554,0.17281508653339261,-0.4876468443460229,-0.11141496625494568,-1.9467215780008829,0.13362143196662268,2.595426617357466,0.9452568867010044,0.1728802376190821,-0.48752024683155326,-0.11147110072896137,-1.9463801863486305,0.1336059019074957,2.595550359778934,0.9452445589611904,0.0007435220906483906,-0.0009227330686910354,-0.00021023144571718084,0.0005225986119683975,-0.00046778776165473754,0.00026209640415458466,7.884611323529795e-05,0.0,0.0,0.0,0.0,0.0,0.0,0.0,6.515108568949657e-05,0.00012659751446963963,-5.6134474015687164e-05,0.0003413916522523319,-1.5530059126994677e-05,0.00012374242146817593,-1.232773981396651e-05,-0.0007435220906483906,0.0009227330686910354,0.00021023144571718084,-0.0005225986119683975,0.00046778776165473754,-0.00026209640415458466,-7.884611323529795e-05,0.17287558317184448,11.826318740844727,-1.2433807849884033,-21.768831253051758,-0.3262229561805725,-2.5207552909851074,0.28964561223983765,0
69,0.3399984836578369,-0.17287558317184448,-11.826318740844727,1.2433807849884033,21.768831253051758,0.3262229561805725,2.5207552909851074,-0.28964561223983765,0.0,0.0,0.0,0.0,0.0,0.0,0.0,-0.16161573378857655,0.4687925440086009,0.030102636477178927,0.506832450638624,-0.22208108386704908,0.1312238916015916,-0.30962736993940554,0.17281508653339261,-0.4876468443460229,-0.11141496625494568,-1.9467215780008829,0.13362143196662268,2.595426617357466,0.9452568867010044,0.1728802376190821,-0.48752024683155326,-0.11147110072896137,-1.9463801863486305,0.1336059019074957,2.595550359778934,0.9452445589611904,0.0007435220906483906,-0.0009227330686910354,-0.00021023144571718084,0.0005225986119683975,-0.00046778776165473754,0.00026209640415458466,7.884611323529795e-05,0.0,0.0,0.0,0.0,0.0,0.0,0.0,6.515108568949657e-05,0.00012659751446963963,-5.6134474015687164e-05,0.0003413916522523319,-1.5530059126994677e-05,0.00012374242146817593,-1.232773981396651e-05,-0.0007435220906483906,0.0009227330686910354,0.00021023144571718084,-0.0005225986119683975,0.00046778776165473754,-0.00026209640415458466,-7.884611323529795e-05,0.17287558317184448,11.826318740844727,-1.2433807849884033,-21.768831253051758,-0.3262229561805725,-2.5207552909851074,0.28964561223983765,0
70,0.34499573707580566,-0.19667929410934448,-11.850122451782227,1.2671844959259033,21.816438674926758,0.3262229561805725,2.5335726737976074,-0.30337852239608765,0.0,0.0,0.0,0.0,0.0,0.0,0.0,-0.16610074851356083,0.47626406896404105,0.025013307678874434,0.502893179184006,-0.22147095583366194,0.12999492721663655,-0.30830368434545946,0.17281746570891848,-0.4876454078777752,-0.11141725914402481,-1.9467252302273812,0.13362143196662268,2.59542519320382,0.9452626364458596,0.1728802376190821,-0.48752024683155326,-0.11147110072896137,-1.9463801863486305,0.1336059019074957,2.595550359778934,0.9452445589611904,0.0008316715433971334,-3.235595179023355e-05,-0.0008697092591738772,-0.00089893205929623,-0.0006305119449844512,-0.0001239399887228027,0.0007140363561865856,0.0,0.0,0.0,0.0,0.0,0.0,0.0,6.277191016362815e-05,0.00012516104622195545,-5.384158493655644e-05,0.00034504387875067266,-1.5530059126994677e-05,0.00012516657511385532,-1.8077484669198896e-05,-0.0008316715433971334,3.235595179023355e-05,0.0008697092591738772,0.00089893205929623,0.0006305119449844512,0.0001239399887228027,-0.0007140363561865856,0.19667929410934448,11.850122451782227,-1.2671844959259033,-21.816438674926758,-0.3262229561805725,-2.5335726737976074,0.30337852239608765,0
71,0.3500058650970459,-0.19667929410934448,-11.850122451782227,1.2671844959259033,21.816438674926758,0.3262229561805725,2.5335726737976074,-0.30337852239608765,0.0,0.0,0.0,0.0,0.0,0.0,0.0,-0.16610074851356083,0.47626406896404105,0.025013307678874434,0.502893179184006,-0.22147095583366194,0.12999492721663655,-0.30830368434545946,0.17281746570891848,-0.4876454078777752,-0.11141725914402481,-1.9467252302273812,0.13362143196662268,2.59542519320382,0.9452626364458596,0.1728802376190821,-0.48752024683155326,-0.11147110072896137,-1.9463801863486305,0.1336059019074957,2.595550359778934,0.9452445589611904,0.0008316715433971334,-3.235595179023355e-05,-0.0008697092591738772,-0.00089893205929623,-0.0006305119449844512,-0.0001239399887228027,0.0007140363561865856,0.0,0.0,0.0,0.0,0.0,0.0,0.0,6.277191016362815e-05,0.00012516104622195545,-5.384158493655644e-05,0.00034504387875067266,-1.5530059126994677e-05,0.00012516657511385532,-1.8077484669198896e-05,-0.0008316715433971334,3.235595179023355e-05,0.0008697092591738772,0.00089893205929623,0.0006305119449844512,0.0001239399887228027,-0.0007140363561865856,0.19667929410934448,11.850122451782227,-1.2671844959259033,-21.816438674926758,-0.3262229561805725,-2.5335726737976074,0.30337852239608765,0
72,0.3550245761871338,-0.12130087614059448,-11.901697158813477,1.2156097888946533,21.792634963989258,0.2960105538368225,2.5271639823913574,-0.27591270208358765,0.0,0.0,0.0,0.0,0.0,0.0,0.0,-0.15976017259835704,0.47671484227058475,0.03714772999191039,0.5019222444154551,-0.22223230608492295,0.12986323240309838,-0.30716791586040537,0.1728122575445559,-0.4876418132464886,-0.11141109978398377,-1.9467224826156477,0.13362478890021642,2.5954269649187722,0.9452553762169086,0.1728802376190821,-0.48752024683155326,-0.11147110072896137,-1.9463801863486305,0.1336059019074957,2.595550359778934,0.9452445589611904,-0.00028729356772534654,0.0014723925544721744,0.0008500952207188322,-0.00017041388971449962,0.00038778057107618114,0.0002125957613663506,-0.0010945981424825184,0.0,0.0,0.0,0.0,0.0,0.0,0.0,6.79800745262138e-05,0.00012156641493532572,-6.000094497760067e-05,0.00034229626701720584,-1.8886992720734685e-05,0.00012339486016177403,-1.0817255718165164e-05,0.00028729356772534654,-0.0014723925544721744,-0.0008500952207188322,0.00017041388971449962,-0.00038778057107618114,-0.0002125957613663506,0.0010945981424825184,0.12130087614059448,11.901697158813477,-1.2156097888946533,-21.792634963989258,-0.2960105538368225,-2.5271639823913574,0.27591270208358765,0
73,0.36003565788269043,-0.12130087614059448,-11.901697158813477,1.2156097888946533,21.792634963989258,0.2960105538368225,2.5271639823913574,-0.27591270208358765,0.0,0.0,0.0,0.0,0.0,0.0,0.0,-0.15976017259835704,0.47671484227058475,0.03714772999191039,0.5019222444154551,-0.22223230608492295,0.12986323240309838,-0.30716791586040537,0.1728122575445559,-0.4876418132464886,-0.11141109978398377,-1.9467224826156477,0.13362478890021642,2.5954269649187722,0.9452553762169086,0.1728802376190821,-0.48752024683155326,-0.11147110072896137,-1.9463801863486305,0.1336059019074957,2.595550359778934,0.9452445589611904,-0.00028729356772534654,0.0014723925544721744,0.0008500952207188322,-0.00017041388971449962,0.00038778057107618114,0.0002125957613663506,-0.0010945981424825184,0.0,0.0,0.0,0.0,0.0,0.0,0.0,6.79800745262138e-05,0.00012156641493532572,-6.000094497760067e-05,0.00034229626701720584,-1.8886992720734685e-05,0.00012339486016177403,-1.0817255718165164e-05,0.00028729356772534654,-0.0014723925544721744,-0.0008500952207188322,0.00017041388971449962,-0.00038778057107618114,-0.0002125957613663506,0.0010945981424825184,0.12130087614059448,11.901697158813477,-1.2156097888946533,-21.792634963989258,-0.2960105538368225,-2.5271639823913574,0.27591270208358765,0
74,0.365039587020874,-0.12130087614059448,-11.850122451782227,1.2433807849884033,21.792634963989258,0.3143211007118225,2.5271639823913574,-0.30978721380233765,0.0,0.0,0.0,0.0,0.0,0.0,0.0,-0.16116407528621784,0.47620221772222515,0.03189906030045007,0.5013039176041723,-0.22253446323593692,0.13014250866598187,-0.3071285643470586,0.17281220217350007,-0.487645433915281,-0.11141588857535904,-1.9467247424441345,0.1336227543950081,2.595425905286625,0.9452622628351356,0.1728802376190821,-0.48752024683155326,-0.11147110072896137,-1.9463801863486305,0.1336059019074957,2.595550359778934,0.9452445589611904,-0.0009689703816765329,0.00015763115266608928,-0.00015756420079734713,0.00011376005015896094,-0.0001735129535696845,8.566951983637243e-05,-0.00018081801643416226,0.0,0.0,0.0,0.0,0.0,0.0,0.0,6.803544558203756e-05,0.00012518708372771803,-5.521215360232423e-05,0.00034455609550398947,-1.6852487512403203e-05,0.00012445449230913397,-1.770387394517403e-05,0.0009689703816765329,-0.00015763115266608928,0.00015756420079734713,-0.00011376005015896094,0.0001735129535696845,-8.566951983637243e-05,0.00018081801643416226,0.12130087614059448,11.850122451782227,-1.2433807849884033,-21.792634963989258,-0.3143211007118225,-2.5271639823913574,0.30978721380233765,0
75,0.37000513076782227,-0.12130087614059448,-11.850122451782227,1.2433807849884033,21.792634963989258,0.3143211007118225,2.5271639823913574,-0.30978721380233765,0.0,0.0,0.0,0.0,0.0,0.0,0.0,-0.16116407528621784,0.47620221772222515,0.03189906030045007,0.5013039176041723,-0.22253446323593692,0.13014250866598187,-0.3071285643470586,0.17281220217350007,-0.487645433915281,-0.11141588857535904,-1.9467247424441345,0.1336227543950081,2.595425905286625,0.9452622628351356,0.1728802376190821,-0.48752024683155326,-0.11147110072896137,-1.9463801863486305,0.1336059019074957,2.595550359778934,0.9452445589611904,-0.0009689703816765329,0.00015763115266608928,-0.00015756420079734713,0.00011376005015896094,-0.0001735129535696845,8.566951983637243e-05,-0.00018081801643416226,0.0,0.0,0.0,0.0,0.0,0.0,0.0,6.803544558203756e-05,0.00012518708372771803,-5.521215360232423e-05,0.00034455609550398947,-1.6852487512403203e-05,0.00012445449230913397,-1.770387394517403e-05,0.0009689703816765329,-0.00015763115266608928,0.00015756420079734713,-0.00011376005015896094,0.0001735129535696845,-8.566951983637243e-05,0.00018081801643416226,0.12130087614059448,11.850122451782227,-1.2433807849884033,-21.792634963989258,-0.3143211007118225,-2.5271639823913574,0.30978721380233765,0
76,0.3749983310699463,-0.14510458707809448,-11.873926162719727,1.2156097888946533,21.816438674926758,0.3143211007118225,2.5335726737976074,-0.30337852239608765,0.0,0.0,0.0,0.0,0.0,0.0,0.0,-0.1578064095309414,0.4752468358176728,0.03851408414070194,0.5027801163039368,-0.2228722802385208,0.13026926439968814,-0.30867868730411824,0.17281549980437153,-0.487642974694242,-0.11141301157117052,-1.9467266224946922,0.1336227543950081,2.59542519320382,0.9452582920576067,0.1728802376190821,-0.48752024683155326,-0.11147110072896137,-1.9463801863486305,0.1336059019074957,2.595550359778934,0.9452445589611904,-0.0007049564647844273,0.0006907627147061012,0.0004569470379689095,-0.00041727682358866526,-8.59865928511719e-05,-0.0001572207290925228,0.0003975332311876998,0.0,0.0,0.0,0.0,0.0,0.0,0.0,6.473781471058593e-05,0.00012272786268874292,-5.808915779084711e-05,0.0003464361460616683,-1.6852487512403203e-05,0.00012516657511385532,-1.3733096416279622e-05,0.0007049564647844273,-0.0006907627147061012,-0.0004569470379689095,0.00041727682358866526,8.59865928511719e-05,0.0001572207290925228,-0.0003975332311876998,0.14510458707809448,11.873926162719727,-1.2156097888946533,-21.816438674926758,-0.3143211007118225,-2.5335726737976074,0.30337852239608765,0
77,0.37999892234802246,-0.14510458707809448,-11.873926162719727,1.2156097888946533,21.816438674926758,0.3143211007118225,2.5335726737976074,-0.30337852239608765,0.0,0.0,0.0,0.0,0.0,0.0,0.0,-0.1578064095309414,0.4752468358176728,0.03851408414070194,0.5027801163039368,-0.2228722802385208,0.13026926439968814,-0.30867868730411824,0.17281549980437153,-0.487642974694242,-0.11141301157117052,-1.9467266224946922,0.1336227543950081,2.59542519320382,0.9452582920576067,0.1728802376190821,-0.48752024683155326,-0.11147110072896137,-1.9463801863486305,0.1336059019074957,2.595550359778934,0.9452445589611904,-0.0007049564647844273,0.0006907627147061012,0.0004569470379689095,-0.00041727682358866526,-8.59865928511719e-05,-0.0001572207290925228,0.0003975332311876998,0.0,0.0,0.0,0.0,0.0,0.0,0.0,6.473781471058593e-05,0.00012272786268874292,-5.808915779084711e-05,0.0003464361460616683,-1.6852487512403203e-05,0.00012516657511385532,-1.3733096416279622e-05,0.0007049564647844273,-0.0006907627147061012,-0.0004569470379689095,0.00041727682358866526,8.59865928511719e-05,0.0001572207290925228,-0.0003975332311876998,0.14510458707809448,11.873926162719727,-1.2156097888946533,-21.816438674926758,-0.3143211007118225,-2.5335726737976074,0.30337852239608765,0
78,0.3850228786468506,-0.14510458707809448,-11.873926162719727,1.2156097888946533,21.816438674926758,0.3143211007118225,2.5335726737976074,-0.30337852239608765,0.0,0.0,0.0,0.0,0.0,0.0,0.0,-0.1578064095309414,0.4752468358176728,0.03851408414070194,0.5027801163039368,-0.2228722802385208,0.13026926439968814,-0.30867868730411824,0.17281549980437153,-0.487642974694242,-0.11141301157117052,-1.9467266224946922,0.1336227543950081,2.59542519320382,0.9452582920576067,0.1728802376190821,-0.48752024683155326,-0.11147110072896137,-1.9463801863486305,0.1336059019074957,2.595550359778934,0.9452445589611904,-0.0007049564647844273,0.0006907627147061012,0.0004569470379689095,-0.00041727682358866526,-8.59865928511719e-05,-0.0001572207290925228,0.0003975332311876998,0.0,0.0,0.0,0.0,0.0,0.0,0.0,6.473781471058593e-05,0.00012272786268874292,-5.808915779084711e-05,0.0003464361460616683,-1.6852487512403203e-05,0.00012516657511385532,-1.3733096416279622e-05,0.0007049564647844273,-0.0006907627147061012,-0.0004569470379689095,0.00041727682358866526,8.59865928511719e-05,0.0001572207290925228,-0.0003975332311876998,0.14510458707809448,11.873926162719727,-1.2156097888946533,-21.816438674926758,-0.3143211007118225,-2.5335726737976074,0.30337852239608765,0
79,0.39002060890197754,-0.14510458707809448,-11.873926162719727,1.2156097888946533,21.816438674926758,0.3143211007118225,2.5335726737976074,-0.30337852239608765,0.0,0.0,0.0,0.0,0.0,0.0,0.0,-0.1578064095309414,0.4752468358176728,0.03851408414070194,0.5027801163039368,-0.2228722802385208,0.13026926439968814,-0.30867868730411824,0.17281549980437153,-0.487642974694242,-0.11141301157117052,-1.9467266224946922,0.1336227543950081,2.59542519320382,0.9452582920576067,0.1728802376190821,-0.48752024683155326,-0.11147110072896137,-1.9463801863486305,0.1336059019074957,2.595550359778934,0.9452445589611904,-0.0007049564647844273,0.0006907627147061012,0.0004569470379689095,-0.00041727682358866526,-8.59865928511719e-05,-0.0001572207290925228,0.0003975332311876998,0.0,0.0,0.0,0.0,0.0,0.0,0.0,6.473781471058593e-05,0.00012272786268874292,-5.808915779084711e-05,0.0003464361460616683,-1.6852487512403203e-05,0.00012516657511385532,-1.3733096416279622e-05,0.0007049564647844273,-0.0006907627147061012,-0.0004569470379689095,0.00041727682358866526,8.59865928511719e-05,0.0001572207290925228,-0.0003975332311876998,0.14510458707809448,11.873926162719727,-1.2156097888946533,-21.816438674926758,-0.3143211007118225,-2.5335726737976074,0.30337852239608765,0
