rezayati/contactInterpretation/dataset/franka_main/labeled_data/link7/a5_8.csv
index,time,tau_J0,tau_J1,tau_J2,tau_J3,tau_J4,tau_J5,tau_J6,tau_J_d0,tau_J_d1,tau_J_d2,tau_J_d3,tau_J_d4,tau_J_d5,tau_J_d6,tau_ext0,tau_ext1,tau_ext2,tau_ext3,tau_ext4,tau_ext5,tau_ext6,q0,q1,q2,q3,q4,q5,q6,q_d0,q_d1,q_d2,q_d3,q_d4,q_d5,q_d6,dq0,dq1,dq2,dq3,dq4,dq5,dq6,dq_d0,dq_d1,dq_d2,dq_d3,dq_d4,dq_d5,dq_d6,e0,e1,e2,e3,e4,e5,e6,de0,de1,de2,de3,de4,de5,de6,etau_J0,etau_J1,etau_J2,etau_J3,etau_J4,etau_J5,etau_J6,label
1,0.0,-0.2998287081718445,-22.847436904907227,0.02542426437139511,14.155611038208008,-0.01343768835067749,2.1517977714538574,-0.44711631536483765,0.0,0.0,0.0,0.0,0.0,0.0,0.0,-0.302240028528436,-0.0017977205087569169,-0.05557013481545049,0.3040612211506958,-0.24120216388183155,-0.026458855987408506,-0.412471406242506,1.6753199698255774,0.05231098579576141,0.029831977756292673,-2.752581586333784,0.03445871064615486,2.7663159645753885,0.7692020228458137,1.6754973547542302,0.052104326824870026,0.029969505109285054,-2.752394845125968,0.0342448039870148,2.7663679543071322,0.7691630533470046,-9.658620783281565e-06,0.0010633343013962517,0.00034011185282245744,0.0001424383569768814,0.00032493733153887716,0.00037355336153893545,0.0016832566730590537,0.0,0.0,0.0,0.0,0.0,0.0,0.0,0.00017738492865282396,-0.00020665897089138657,0.00013752735299238025,0.00018674120781581038,-0.0002139066591400618,5.19897317436957e-05,-3.896949880910494e-05,9.658620783281565e-06,-0.0010633343013962517,-0.00034011185282245744,-0.0001424383569768814,-0.00032493733153887716,-0.00037355336153893545,-0.0016832566730590537,0.2998287081718445,22.847436904907227,-0.02542426437139511,-14.155611038208008,0.01343768835067749,-2.1517977714538574,0.44711631536483765,0
2,0.004206418991088867,-0.3514034152030945,-22.748254776000977,-0.02615044265985489,14.179414749145508,-0.00702899694442749,2.1582064628601074,-0.45352500677108765,0.0,0.0,0.0,0.0,0.0,0.0,0.0,-0.3062124651656771,-0.004147149996326664,-0.05676384608560475,0.30531552068085005,-0.2403800326754056,-0.02620702840594642,-0.4117086465394405,1.6753235891032636,0.05230402564636448,0.029837044244265896,-2.752586251889915,0.034458188411329395,2.7663170185698687,0.769202695694725,1.6754973547542302,0.052104326824870026,0.029969505109285054,-2.752394845125968,0.0342448039870148,2.7663679543071322,0.7691630533470046,0.0007797541640580556,-0.0014807770212842814,0.000987431359970786,-0.0003896935577468863,-4.878539417891665e-05,2.3670615706014827e-05,0.0018895185215160757,0.0,0.0,0.0,0.0,0.0,0.0,0.0,0.00017376565096660634,-0.00019969882149445395,0.0001324608650191579,0.00019140676394702183,-0.00021338442431459437,5.093573726355771e-05,-3.9642347720358906e-05,-0.0007797541640580556,0.0014807770212842814,-0.000987431359970786,0.0003896935577468863,4.878539417891665e-05,-2.3670615706014827e-05,-0.0018895185215160757,0.3514034152030945,22.748254776000977,0.02615044265985489,-14.179414749145508,0.00702899694442749,-2.1582064628601074,0.45352500677108765,0
3,0.009203672409057617,-0.3514034152030945,-22.748254776000977,-0.02615044265985489,14.179414749145508,-0.00702899694442749,2.1582064628601074,-0.45352500677108765,0.0,0.0,0.0,0.0,0.0,0.0,0.0,-0.3062124651656771,-0.004147149996326664,-0.05676384608560475,0.30531552068085005,-0.2403800326754056,-0.02620702840594642,-0.4117086465394405,1.6753235891032636,0.05230402564636448,0.029837044244265896,-2.752586251889915,0.034458188411329395,2.7663170185698687,0.769202695694725,1.6754973547542302,0.052104326824870026,0.029969505109285054,-2.752394845125968,0.0342448039870148,2.7663679543071322,0.7691630533470046,0.0007797541640580556,-0.0014807770212842814,0.000987431359970786,-0.0003896935577468863,-4.878539417891665e-05,2.3670615706014827e-05,0.0018895185215160757,0.0,0.0,0.0,0.0,0.0,0.0,0.0,0.00017376565096660634,-0.00019969882149445395,0.0001324608650191579,0.00019140676394702183,-0.00021338442431459437,5.093573726355771e-05,-3.9642347720358906e-05,-0.0007797541640580556,0.0014807770212842814,-0.000987431359970786,0.0003896935577468863,4.878539417891665e-05,-2.3670615706014827e-05,-0.0018895185215160757,0.3514034152030945,22.748254776000977,0.02615044265985489,-14.179414749145508,0.00702899694442749,-2.1582064628601074,0.45352500677108765,0
4,0.014210224151611328,-0.3514034152030945,-22.795862197875977,0.001620553433895111,14.108003616333008,-0.01343768835067749,2.1517977714538574,-0.43979209661483765,0.0,0.0,0.0,0.0,0.0,0.0,0.0,-0.3033111523294502,-0.003193263587396531,-0.05117496826863603,0.3041605188513028,-0.24119477437563389,-0.026197189123730324,-0.4117857185097549,1.6753235891032636,0.05230736651807501,0.02983368071532095,-2.752579015698347,0.03446332447193693,2.7663146694798426,0.769201209061454,1.6754973547542302,0.052104326824870026,0.029969505109285054,-2.752394845125968,0.0342448039870148,2.7663679543071322,0.7691630533470046,0.0009253937586320524,2.4330346368805994e-05,0.0005687682991998516,0.001616179717825696,0.00010789768525405875,0.0002281576032362793,0.0006435703365415465,0.0,0.0,0.0,0.0,0.0,0.0,0.0,0.00017376565096660634,-0.0002030396932049816,0.00013582439396410406,0.00018417057237885004,-0.00021852048492213005,5.328482728961248e-05,-3.81557144493172e-05,-0.0009253937586320524,-2.4330346368805994e-05,-0.0005687682991998516,-0.001616179717825696,-0.00010789768525405875,-0.0002281576032362793,-0.0006435703365415465,0.3514034152030945,22.795862197875977,-0.001620553433895111,-14.108003616333008,0.01343768835067749,-2.1517977714538574,0.43979209661483765,0
5,0.019206762313842773,-0.3514034152030945,-22.795862197875977,0.001620553433895111,14.108003616333008,-0.01343768835067749,2.1517977714538574,-0.43979209661483765,0.0,0.0,0.0,0.0,0.0,0.0,0.0,-0.3033111523294502,-0.003193263587396531,-0.05117496826863603,0.3041605188513028,-0.24119477437563389,-0.026197189123730324,-0.4117857185097549,1.6753235891032636,0.05230736651807501,0.02983368071532095,-2.752579015698347,0.03446332447193693,2.7663146694798426,0.769201209061454,1.6754973547542302,0.052104326824870026,0.029969505109285054,-2.752394845125968,0.0342448039870148,2.7663679543071322,0.7691630533470046,0.0009253937586320524,2.4330346368805994e-05,0.0005687682991998516,0.001616179717825696,0.00010789768525405875,0.0002281576032362793,0.0006435703365415465,0.0,0.0,0.0,0.0,0.0,0.0,0.0,0.00017376565096660634,-0.0002030396932049816,0.00013582439396410406,0.00018417057237885004,-0.00021852048492213005,5.328482728961248e-05,-3.81557144493172e-05,-0.0009253937586320524,-2.4330346368805994e-05,-0.0005687682991998516,-0.001616179717825696,-0.00010789768525405875,-0.0002281576032362793,-0.0006435703365415465,0.3514034152030945,22.795862197875977,-0.001620553433895111,-14.108003616333008,0.01343768835067749,-2.1517977714538574,0.43979209661483765,0
6,0.02420639991760254,-0.3752071261405945,-22.819665908813477,0.02542426437139511,14.131807327270508,-0.01343768835067749,2.1517977714538574,-0.36471885442733765,0.0,0.0,0.0,0.0,0.0,0.0,0.0,-0.30754586969959435,-0.011880517964609398,-0.055726082531134306,0.30841296768182264,-0.2415081553732971,-0.025631642669032954,-0.413183098055461,1.6753273258334713,0.05230903695393027,0.029834065027306518,-2.752582910352604,0.034462094383856334,2.766315612816229,0.7691928675903213,1.6754973547542302,0.052104326824870026,0.029969505109285054,-2.752394845125968,0.0342448039870148,2.7663679543071322,0.7691630533470046,0.0016826890145970374,-8.639141828075983e-05,-0.0003454660950977299,0.00100595593104075,8.687236412509801e-06,0.00011122912722475225,-0.0017552144289294633,0.0,0.0,0.0,0.0,0.0,0.0,0.0,0.0001700289207589023,-0.00020471012906024544,0.00013544008197853563,0.00018806522663572522,-0.00021729039684153378,5.234149090327378e-05,-2.9814243316717004e-05,-0.0016826890145970374,8.639141828075983e-05,0.0003454660950977299,-0.00100595593104075,-8.687236412509801e-06,-0.00011122912722475225,0.0017552144289294633,0.3752071261405945,22.819665908813477,-0.02542426437139511,-14.131807327270508,0.01343768835067749,-2.1517977714538574,0.36471885442733765,0
7,0.02920699119567871,-0.3752071261405945,-22.819665908813477,0.02542426437139511,14.131807327270508,-0.01343768835067749,2.1517977714538574,-0.36471885442733765,0.0,0.0,0.0,0.0,0.0,0.0,0.0,-0.30754586969959435,-0.011880517964609398,-0.055726082531134306,0.30841296768182264,-0.2415081553732971,-0.025631642669032954,-0.413183098055461,1.6753273258334713,0.05230903695393027,0.029834065027306518,-2.752582910352604,0.034462094383856334,2.766315612816229,0.7691928675903213,1.6754973547542302,0.052104326824870026,0.029969505109285054,-2.752394845125968,0.0342448039870148,2.7663679543071322,0.7691630533470046,0.0016826890145970374,-8.639141828075983e-05,-0.0003454660950977299,0.00100595593104075,8.687236412509801e-06,0.00011122912722475225,-0.0017552144289294633,0.0,0.0,0.0,0.0,0.0,0.0,0.0,0.0001700289207589023,-0.00020471012906024544,0.00013544008197853563,0.00018806522663572522,-0.00021729039684153378,5.234149090327378e-05,-2.9814243316717004e-05,-0.0016826890145970374,8.639141828075983e-05,0.0003454660950977299,-0.00100595593104075,-8.687236412509801e-06,-0.00011122912722475225,0.0017552144289294633,0.3752071261405945,22.819665908813477,-0.02542426437139511,-14.131807327270508,0.01343768835067749,-2.1517977714538574,0.36471885442733765,0
8,0.034206390380859375,-0.3236324191093445,-22.819665908813477,0.02542426437139511,14.155611038208008,-0.0015358328819274902,2.1517977714538574,-0.43979209661483765,0.0,0.0,0.0,0.0,0.0,0.0,0.0,-0.3072730406364082,-0.005668290975091415,-0.05743113761157154,0.30448937120382086,-0.24199474899776127,-0.026830594302303112,-0.41157049396371254,1.6753216402730968,0.05230903695393027,0.02983127650214648,-2.752582355175722,0.034458295117475723,2.766314551784153,0.7692012090616754,1.6754973547542302,0.052104326824870026,0.029969505109285054,-2.752394845125968,0.0342448039870148,2.7663679543071322,0.7691630533470046,0.0001650601136624662,0.0004966577828626941,0.0004298458244632267,0.00030870500625431835,-0.00038586661360035787,0.0003380668385942892,0.0010481163159343557,0.0,0.0,0.0,0.0,0.0,0.0,0.0,0.00017571448113340438,-0.00020471012906024544,0.0001382286071385727,0.00018751004975392505,-0.000213491130460923,5.340252297925119e-05,-3.8155714670806695e-05,-0.0001650601136624662,-0.0004966577828626941,-0.0004298458244632267,-0.00030870500625431835,0.00038586661360035787,-0.0003380668385942892,-0.0010481163159343557,0.3236324191093445,22.819665908813477,-0.02542426437139511,-14.155611038208008,0.0015358328819274902,-2.1517977714538574,0.43979209661483765,0
9,0.03922390937805176,-0.3236324191093445,-22.819665908813477,0.02542426437139511,14.155611038208008,-0.0015358328819274902,2.1517977714538574,-0.43979209661483765,0.0,0.0,0.0,0.0,0.0,0.0,0.0,-0.3072730406364082,-0.005668290975091415,-0.05743113761157154,0.30448937120382086,-0.24199474899776127,-0.026830594302303112,-0.41157049396371254,1.6753216402730968,0.05230903695393027,0.02983127650214648,-2.752582355175722,0.034458295117475723,2.766314551784153,0.7692012090616754,1.6754973547542302,0.052104326824870026,0.029969505109285054,-2.752394845125968,0.0342448039870148,2.7663679543071322,0.7691630533470046,0.0001650601136624662,0.0004966577828626941,0.0004298458244632267,0.00030870500625431835,-0.00038586661360035787,0.0003380668385942892,0.0010481163159343557,0.0,0.0,0.0,0.0,0.0,0.0,0.0,0.00017571448113340438,-0.00020471012906024544,0.0001382286071385727,0.00018751004975392505,-0.000213491130460923,5.340252297925119e-05,-3.8155714670806695e-05,-0.0001650601136624662,-0.0004966577828626941,-0.0004298458244632267,-0.00030870500625431835,0.00038586661360035787,-0.0003380668385942892,-0.0010481163159343557,0.3236324191093445,22.819665908813477,-0.02542426437139511,-14.155611038208008,0.0015358328819274902,-2.1517977714538574,0.43979209661483765,0
10,0.04421210289001465,-0.3236324191093445,-22.772058486938477,0.001620553433895111,14.155611038208008,-0.00702899694442749,2.1655306816101074,-0.41324180364608765,0.0,0.0,0.0,0.0,0.0,0.0,0.0,-0.310940762087736,-0.007041095257097694,-0.06167841262294715,0.3036907518049634,-0.24150814097331855,-0.026831703595834405,-0.4135778037143776,1.6753216402614326,0.052305696082219744,0.029833648225429495,-2.752584581797562,0.034457880604220205,2.7663130316596227,0.7691982590291234,1.6754973547542302,0.052104326824870026,0.029969505109285054,-2.752394845125968,0.0342448039870148,2.7663679543071322,0.7691630533470046,0.0001729434235721965,-0.000929397441825967,0.0005503809498152481,-0.00013737617275940087,-5.279726382589621e-05,-0.000307615629898101,0.0002816303452116641,0.0,0.0,0.0,0.0,0.0,0.0,0.0,0.00017571449279762952,-0.00020136925734971778,0.00013585688385555836,0.00018973667159372098,-0.00021307661720540438,5.4922647509503264e-05,-3.5205682118788495e-05,-0.0001729434235721965,0.000929397441825967,-0.0005503809498152481,0.00013737617275940087,5.279726382589621e-05,0.000307615629898101,-0.0002816303452116641,0.3236324191093445,22.772058486938477,-0.001620553433895111,-14.155611038208008,0.00702899694442749,-2.1655306816101074,0.41324180364608765,0
11,0.049219608306884766,-0.3236324191093445,-22.772058486938477,0.001620553433895111,14.155611038208008,-0.00702899694442749,2.1655306816101074,-0.41324180364608765,0.0,0.0,0.0,0.0,0.0,0.0,0.0,-0.310940762087736,-0.007041095257097694,-0.06167841262294715,0.3036907518049634,-0.24150814097331855,-0.026831703595834405,-0.4135778037143776,1.6753216402614326,0.052305696082219744,0.029833648225429495,-2.752584581797562,0.034457880604220205,2.7663130316596227,0.7691982590291234,1.6754973547542302,0.052104326824870026,0.029969505109285054,-2.752394845125968,0.0342448039870148,2.7663679543071322,0.7691630533470046,0.0001729434235721965,-0.000929397441825967,0.0005503809498152481,-0.00013737617275940087,-5.279726382589621e-05,-0.000307615629898101,0.0002816303452116641,0.0,0.0,0.0,0.0,0.0,0.0,0.0,0.00017571449279762952,-0.00020136925734971778,0.00013585688385555836,0.00018973667159372098,-0.00021307661720540438,5.4922647509503264e-05,-3.5205682118788495e-05,-0.0001729434235721965,0.000929397441825967,-0.0005503809498152481,0.00013737617275940087,5.279726382589621e-05,0.000307615629898101,-0.0002816303452116641,0.3236324191093445,22.772058486938477,-0.001620553433895111,-14.155611038208008,0.00702899694442749,-2.1655306816101074,0.41324180364608765,0
12,0.05423593521118164,-0.2720577120780945,-22.847436904907227,-0.04995415359735489,14.155611038208008,-0.01343768835067749,2.1582064628601074,-0.38577598333358765,0.0,0.0,0.0,0.0,0.0,0.0,0.0,-0.3128626188057351,-0.008345000849295762,-0.06593206775799958,0.30644324868214856,-0.24112816167892992,-0.026483581254751486,-0.4133279034478111,1.6753180209837462,0.05231098579576141,0.02983919307757489,-2.752584581810131,0.034462094843911086,2.7663138396475375,0.7691952072713109,1.6754973547542302,0.052104326824870026,0.029969505109285054,-2.752394845125968,0.0342448039870148,2.7663679543071322,0.7691630533470046,-0.000629476591689004,0.0010462964505439112,0.000835767507813303,0.0005844886907056408,0.0001956925395368864,-6.317531088311107e-05,-0.0005811364413328941,0.0,0.0,0.0,0.0,0.0,0.0,0.0,0.00017933377048406918,-0.00020665897089138657,0.00013031203171016276,0.0001897366841627779,-0.00021729085689628502,5.411465959470618e-05,-3.215392430622188e-05,0.000629476591689004,-0.0010462964505439112,-0.000835767507813303,-0.0005844886907056408,-0.0001956925395368864,6.317531088311107e-05,0.0005811364413328941,0.2720577120780945,22.847436904907227,0.04995415359735489,-14.155611038208008,0.01343768835067749,-2.1582064628601074,0.38577598333358765,0
13,0.059209346771240234,-0.2720577120780945,-22.847436904907227,-0.04995415359735489,14.155611038208008,-0.01343768835067749,2.1582064628601074,-0.38577598333358765,0.0,0.0,0.0,0.0,0.0,0.0,0.0,-0.3128626188057351,-0.008345000849295762,-0.06593206775799958,0.30644324868214856,-0.24112816167892992,-0.026483581254751486,-0.4133279034478111,1.6753180209837462,0.05231098579576141,0.02983919307757489,-2.752584581810131,0.034462094843911086,2.7663138396475375,0.7691952072713109,1.6754973547542302,0.052104326824870026,0.029969505109285054,-2.752394845125968,0.0342448039870148,2.7663679543071322,0.7691630533470046,-0.000629476591689004,0.0010462964505439112,0.000835767507813303,0.0005844886907056408,0.0001956925395368864,-6.317531088311107e-05,-0.0005811364413328941,0.0,0.0,0.0,0.0,0.0,0.0,0.0,0.00017933377048406918,-0.00020665897089138657,0.00013031203171016276,0.0001897366841627779,-0.00021729085689628502,5.411465959470618e-05,-3.215392430622188e-05,0.000629476591689004,-0.0010462964505439112,-0.000835767507813303,-0.0005844886907056408,-0.0001956925395368864,6.317531088311107e-05,0.0005811364413328941,0.2720577120780945,22.847436904907227,0.04995415359735489,-14.155611038208008,0.01343768835067749,-2.1582064628601074,0.38577598333358765,0
14,0.0642085075378418,-0.2720577120780945,-22.847436904907227,-0.04995415359735489,14.155611038208008,-0.01343768835067749,2.1582064628601074,-0.38577598333358765,0.0,0.0,0.0,0.0,0.0,0.0,0.0,-0.3128626188057351,-0.008345000849295762,-0.06593206775799958,0.30644324868214856,-0.24112816167892992,-0.026483581254751486,-0.4133279034478111,1.6753180209837462,0.05231098579576141,0.02983919307757489,-2.752584581810131,0.034462094843911086,2.7663138396475375,0.7691952072713109,1.6754973547542302,0.052104326824870026,0.029969505109285054,-2.752394845125968,0.0342448039870148,2.7663679543071322,0.7691630533470046,-0.000629476591689004,0.0010462964505439112,0.000835767507813303,0.0005844886907056408,0.0001956925395368864,-6.317531088311107e-05,-0.0005811364413328941,0.0,0.0,0.0,0.0,0.0,0.0,0.0,0.00017933377048406918,-0.00020665897089138657,0.00013031203171016276,0.0001897366841627779,-0.00021729085689628502,5.411465959470618e-05,-3.215392430622188e-05,0.000629476591689004,-0.0010462964505439112,-0.000835767507813303,-0.0005844886907056408,-0.0001956925395368864,6.317531088311107e-05,0.0005811364413328941,0.2720577120780945,22.847436904907227,0.04995415359735489,-14.155611038208008,0.01343768835067749,-2.1582064628601074,0.38577598333358765,0
15,0.06976652145385742,-0.2998287081718445,-22.795862197875977,0.04922797530889511,14.155611038208008,-0.01343768835067749,2.1582064628601074,-0.44711631536483765,0.0,0.0,0.0,0.0,0.0,0.0,0.0,-0.3034659868231333,-0.0072659842384808545,-0.06233734417566351,0.3039088298092828,-0.24192777505950483,-0.027044635272878485,-0.4113304880144299,1.6753199698255774,0.05230736651807501,0.029829628258516885,-2.7525823555525744,0.03445964388649902,2.766314899500975,0.7692020228637588,1.6754973547542302,0.052104326824870026,0.029969505109285054,-2.752394845125968,0.0342448039870148,2.7663679543071322,0.7691630533470046,-6.081271047243126e-05,-0.00011094194035890954,-0.00022967814419852482,0.0004310259461036338,0.0002336032894049074,-3.630409317821187e-05,0.0013721038723999597,0.0,0.0,0.0,0.0,0.0,0.0,0.0,0.00017738492865282396,-0.0002030396932049816,0.0001398768507681683,0.00018751042660625217,-0.00021483989948421767,5.305480615724889e-05,-3.89695167541948e-05,6.081271047243126e-05,0.00011094194035890954,0.00022967814419852482,-0.0004310259461036338,-0.0002336032894049074,3.630409317821187e-05,-0.0013721038723999597,0.2998287081718445,22.795862197875977,-0.04922797530889511,-14.155611038208008,0.01343768835067749,-2.1582064628601074,0.44711631536483765,0
16,0.07421135902404785,-0.2998287081718445,-22.795862197875977,0.04922797530889511,14.155611038208008,-0.01343768835067749,2.1582064628601074,-0.44711631536483765,0.0,0.0,0.0,0.0,0.0,0.0,0.0,-0.3034659868231333,-0.0072659842384808545,-0.06233734417566351,0.3039088298092828,-0.24192777505950483,-0.027044635272878485,-0.4113304880144299,1.6753199698255774,0.05230736651807501,0.029829628258516885,-2.7525823555525744,0.03445964388649902,2.766314899500975,0.7692020228637588,1.6754973547542302,0.052104326824870026,0.029969505109285054,-2.752394845125968,0.0342448039870148,2.7663679543071322,0.7691630533470046,-6.081271047243126e-05,-0.00011094194035890954,-0.00022967814419852482,0.0004310259461036338,0.0002336032894049074,-3.630409317821187e-05,0.0013721038723999597,0.0,0.0,0.0,0.0,0.0,0.0,0.0,0.00017738492865282396,-0.0002030396932049816,0.0001398768507681683,0.00018751042660625217,-0.00021483989948421767,5.305480615724889e-05,-3.89695167541948e-05,6.081271047243126e-05,0.00011094194035890954,0.00022967814419852482,-0.0004310259461036338,-0.0002336032894049074,3.630409317821187e-05,-0.0013721038723999597,0.2998287081718445,22.795862197875977,-0.04922797530889511,-14.155611038208008,0.01343768835067749,-2.1582064628601074,0.44711631536483765,0
17,0.07920384407043457,-0.2720577120780945,-22.795862197875977,0.04922797530889511,14.207185745239258,-0.00702899694442749,2.1655306816101074,-0.44711631536483765,0.0,0.0,0.0,0.0,0.0,0.0,0.0,-0.30387393702335336,-0.011390761726851306,-0.05963885600753269,0.3051361927903119,-0.24175191084335182,-0.026680340283337878,-0.4121717390276542,1.6753180209837462,0.05230736651807501,0.029832393581013618,-2.752587950773898,0.03445782922119947,2.76631302601291,0.7692020228637588,1.6754973547542302,0.052104326824870026,0.029969505109285054,-2.752394845125968,0.0342448039870148,2.7663679543071322,0.7691630533470046,-4.885718376221283e-05,-0.0005559587359090028,-0.0002558793843336631,-0.000661891835495072,-0.0002047678003268284,-0.00011121857174947347,0.001382682514822895,0.0,0.0,0.0,0.0,0.0,0.0,0.0,0.00017933377048406918,-0.0002030396932049816,0.0001371115282714358,0.00019310564792984763,-0.0002130252341846703,5.4928294222378327e-05,-3.89695167541948e-05,4.885718376221283e-05,0.0005559587359090028,0.0002558793843336631,0.000661891835495072,0.0002047678003268284,0.00011121857174947347,-0.001382682514822895,0.2720577120780945,22.795862197875977,-0.04922797530889511,-14.207185745239258,0.00702899694442749,-2.1655306816101074,0.44711631536483765,0
18,0.08420610427856445,-0.2720577120780945,-22.795862197875977,0.04922797530889511,14.207185745239258,-0.00702899694442749,2.1655306816101074,-0.44711631536483765,0.0,0.0,0.0,0.0,0.0,0.0,0.0,-0.30387393702335336,-0.011390761726851306,-0.05963885600753269,0.3051361927903119,-0.24175191084335182,-0.026680340283337878,-0.4121717390276542,1.6753180209837462,0.05230736651807501,0.029832393581013618,-2.752587950773898,0.03445782922119947,2.76631302601291,0.7692020228637588,1.6754973547542302,0.052104326824870026,0.029969505109285054,-2.752394845125968,0.0342448039870148,2.7663679543071322,0.7691630533470046,-4.885718376221283e-05,-0.0005559587359090028,-0.0002558793843336631,-0.000661891835495072,-0.0002047678003268284,-0.00011121857174947347,0.001382682514822895,0.0,0.0,0.0,0.0,0.0,0.0,0.0,0.00017933377048406918,-0.0002030396932049816,0.0001371115282714358,0.00019310564792984763,-0.0002130252341846703,5.4928294222378327e-05,-3.89695167541948e-05,4.885718376221283e-05,0.0005559587359090028,0.0002558793843336631,0.000661891835495072,0.0002047678003268284,0.00011121857174947347,-0.001382682514822895,0.2720577120780945,22.795862197875977,-0.04922797530889511,-14.207185745239258,0.00702899694442749,-2.1655306816101074,0.44711631536483765,0
19,0.08920979499816895,-0.2720577120780945,-22.795862197875977,0.04922797530889511,14.207185745239258,-0.00702899694442749,2.1655306816101074,-0.44711631536483765,0.0,0.0,0.0,0.0,0.0,0.0,0.0,-0.30387393702335336,-0.011390761726851306,-0.05963885600753269,0.3051361927903119,-0.24175191084335182,-0.026680340283337878,-0.4121717390276542,1.6753180209837462,0.05230736651807501,0.029832393581013618,-2.752587950773898,0.03445782922119947,2.76631302601291,0.7692020228637588,1.6754973547542302,0.052104326824870026,0.029969505109285054,-2.752394845125968,0.0342448039870148,2.7663679543071322,0.7691630533470046,-4.885718376221283e-05,-0.0005559587359090028,-0.0002558793843336631,-0.000661891835495072,-0.0002047678003268284,-0.00011121857174947347,0.001382682514822895,0.0,0.0,0.0,0.0,0.0,0.0,0.0,0.00017933377048406918,-0.0002030396932049816,0.0001371115282714358,0.00019310564792984763,-0.0002130252341846703,5.4928294222378327e-05,-3.89695167541948e-05,4.885718376221283e-05,0.0005559587359090028,0.0002558793843336631,0.000661891835495072,0.0002047678003268284,0.00011121857174947347,-0.001382682514822895,0.2720577120780945,22.795862197875977,-0.04922797530889511,-14.207185745239258,0.00702899694442749,-2.1655306816101074,0.44711631536483765,0
20,0.09421491622924805,-0.2720577120780945,-22.795862197875977,0.04922797530889511,14.207185745239258,-0.00702899694442749,2.1655306816101074,-0.44711631536483765,0.0,0.0,0.0,0.0,0.0,0.0,0.0,-0.30387393702335336,-0.011390761726851306,-0.05963885600753269,0.3051361927903119,-0.24175191084335182,-0.026680340283337878,-0.4121717390276542,1.6753180209837462,0.05230736651807501,0.029832393581013618,-2.752587950773898,0.03445782922119947,2.76631302601291,0.7692020228637588,1.6754973547542302,0.052104326824870026,0.029969505109285054,-2.752394845125968,0.0342448039870148,2.7663679543071322,0.7691630533470046,-4.885718376221283e-05,-0.0005559587359090028,-0.0002558793843336631,-0.000661891835495072,-0.0002047678003268284,-0.00011121857174947347,0.001382682514822895,0.0,0.0,0.0,0.0,0.0,0.0,0.0,0.00017933377048406918,-0.0002030396932049816,0.0001371115282714358,0.00019310564792984763,-0.0002130252341846703,5.4928294222378327e-05,-3.89695167541948e-05,4.885718376221283e-05,0.0005559587359090028,0.0002558793843336631,0.000661891835495072,0.0002047678003268284,0.00011121857174947347,-0.001382682514822895,0.2720577120780945,22.795862197875977,-0.04922797530889511,-14.207185745239258,0.00702899694442749,-2.1655306816101074,0.44711631536483765,0
21,0.09921002388000488,-0.3236324191093445,-22.795862197875977,0.02542426437139511,14.207185745239258,-0.00702899694442749,2.1655306816101074,-0.43979209661483765,0.0,0.0,0.0,0.0,0.0,0.0,0.0,-0.30460578508328473,-0.01230578592567973,-0.06268596508773044,0.30890487600430006,-0.2414003011616019,-0.02545001976348208,-0.41298765430805856,1.6753216402614326,0.05230736651807501,0.02983311795523401,-2.752585728484382,0.034459264590291507,2.7663131450365426,0.7692012090616754,1.6754973547542302,0.052104326824870026,0.029969505109285054,-2.752394845125968,0.0342448039870148,2.7663679543071322,0.7691630533470046,0.0006159054240229156,-0.00040930964344448417,5.382718161345885e-05,-0.00032377990099078947,7.154624373803626e-05,-0.00034725803517461965,0.0014048086224528748,0.0,0.0,0.0,0.0,0.0,0.0,0.0,0.00017571449279762952,-0.0002030396932049816,0.00013638715405104446,0.0001908833584138847,-0.00021446060327670602,5.4809270589650794e-05,-3.8155714670806695e-05,-0.0006159054240229156,0.00040930964344448417,-5.382718161345885e-05,0.00032377990099078947,-7.154624373803626e-05,0.00034725803517461965,-0.0014048086224528748,0.3236324191093445,22.795862197875977,-0.02542426437139511,-14.207185745239258,0.00702899694442749,-2.1655306816101074,0.43979209661483765,0
22,0.10420680046081543,-0.3236324191093445,-22.795862197875977,0.02542426437139511,14.207185745239258,-0.00702899694442749,2.1655306816101074,-0.43979209661483765,0.0,0.0,0.0,0.0,0.0,0.0,0.0,-0.30460578508328473,-0.01230578592567973,-0.06268596508773044,0.30890487600430006,-0.2414003011616019,-0.02545001976348208,-0.41298765430805856,1.6753216402614326,0.05230736651807501,0.02983311795523401,-2.752585728484382,0.034459264590291507,2.7663131450365426,0.7692012090616754,1.6754973547542302,0.052104326824870026,0.029969505109285054,-2.752394845125968,0.0342448039870148,2.7663679543071322,0.7691630533470046,0.0006159054240229156,-0.00040930964344448417,5.382718161345885e-05,-0.00032377990099078947,7.154624373803626e-05,-0.00034725803517461965,0.0014048086224528748,0.0,0.0,0.0,0.0,0.0,0.0,0.0,0.00017571449279762952,-0.0002030396932049816,0.00013638715405104446,0.0001908833584138847,-0.00021446060327670602,5.4809270589650794e-05,-3.8155714670806695e-05,-0.0006159054240229156,0.00040930964344448417,-5.382718161345885e-05,0.00032377990099078947,-7.154624373803626e-05,0.00034725803517461965,-0.0014048086224528748,0.3236324191093445,22.795862197875977,-0.02542426437139511,-14.207185745239258,0.00702899694442749,-2.1655306816101074,0.43979209661483765,0
23,0.10920858383178711,-0.3236324191093445,-22.819665908813477,-0.02615044265985489,14.179414749145508,-0.00702899694442749,2.1517977714538574,-0.43338340520858765,0.0,0.0,0.0,0.0,0.0,0.0,0.0,-0.30448062968840717,-0.005904838739761123,-0.0614510224070953,0.3028844639188125,-0.2413563913551265,-0.02663225983597888,-0.41273887489643896,1.6753216657712393,0.05230903695393027,0.029837754575472327,-2.752586001930676,0.03446209916445778,2.766314590970857,0.7692004969848526,1.6754973547542302,0.052104326824870026,0.029969505109285054,-2.752394845125968,0.0342448039870148,2.7663679543071322,0.7691630533470046,7.716400413946429e-05,0.0004870529842998479,0.0008980099684885754,-0.00031148330022915457,-0.00010897367913142945,0.00045861715197426605,0.0009189897554122432,0.0,0.0,0.0,0.0,0.0,0.0,0.0,0.00017568898299091806,-0.00020471012906024544,0.00013175053381272658,0.00019115680470793706,-0.00021729517744297627,5.336333627514733e-05,-3.7443637847967004e-05,-7.716400413946429e-05,-0.0004870529842998479,-0.0008980099684885754,0.00031148330022915457,0.00010897367913142945,-0.00045861715197426605,-0.0009189897554122432,0.3236324191093445,22.819665908813477,0.02615044265985489,-14.179414749145508,0.00702899694442749,-2.1517977714538574,0.43338340520858765,0
24,0.11422538757324219,-0.3236324191093445,-22.819665908813477,-0.02615044265985489,14.179414749145508,-0.00702899694442749,2.1517977714538574,-0.43338340520858765,0.0,0.0,0.0,0.0,0.0,0.0,0.0,-0.30448062968840717,-0.005904838739761123,-0.0614510224070953,0.3028844639188125,-0.2413563913551265,-0.02663225983597888,-0.41273887489643896,1.6753216657712393,0.05230903695393027,0.029837754575472327,-2.752586001930676,0.03446209916445778,2.766314590970857,0.7692004969848526,1.6754973547542302,0.052104326824870026,0.029969505109285054,-2.752394845125968,0.0342448039870148,2.7663679543071322,0.7691630533470046,7.716400413946429e-05,0.0004870529842998479,0.0008980099684885754,-0.00031148330022915457,-0.00010897367913142945,0.00045861715197426605,0.0009189897554122432,0.0,0.0,0.0,0.0,0.0,0.0,0.0,0.00017568898299091806,-0.00020471012906024544,0.00013175053381272658,0.00019115680470793706,-0.00021729517744297627,5.336333627514733e-05,-3.7443637847967004e-05,-7.716400413946429e-05,-0.0004870529842998479,-0.0008980099684885754,0.00031148330022915457,0.00010897367913142945,-0.00045861715197426605,-0.0009189897554122432,0.3236324191093445,22.819665908813477,0.02615044265985489,-14.179414749145508,0.00702899694442749,-2.1517977714538574,0.43338340520858765,0
25,0.11922073364257812,-0.3514034152030945,-22.819665908813477,0.02542426437139511,14.179414749145508,-0.00702899694442749,2.1517977714538574,-0.43979209661483765,0.0,0.0,0.0,0.0,0.0,0.0,0.0,-0.30120529329254564,-0.008048781253593587,-0.057615784542375245,0.30552125251242246,-0.24186940030545973,-0.025389429404117016,-0.41307887908156216,1.6753235891034075,0.05230903695393027,0.029833325199852708,-2.752585510497883,0.03445890742023659,2.766315022674829,0.7692012090616754,1.6754973547542302,0.052104326824870026,0.029969505109285054,-2.752394845125968,0.0342448039870148,2.7663679543071322,0.7691630533470046,0.0009997711889593178,0.0003898140082924219,-0.00031242990195522695,-0.00026069129568530113,-0.00019305612484979943,0.00032844819470731213,0.0006540569587029705,0.0,0.0,0.0,0.0,0.0,0.0,0.0,0.00017376565082272144,-0.00020471012906024544,0.00013617990943234556,0.00019066537191481103,-0.00021410343322179198,5.293163230302156e-05,-3.8155714670806695e-05,-0.0009997711889593178,-0.0003898140082924219,0.00031242990195522695,0.00026069129568530113,0.00019305612484979943,-0.00032844819470731213,-0.0006540569587029705,0.3514034152030945,22.819665908813477,-0.02542426437139511,-14.179414749145508,0.00702899694442749,-2.1517977714538574,0.43979209661483765,0
26,0.12424325942993164,-0.3514034152030945,-22.819665908813477,0.02542426437139511,14.179414749145508,-0.00702899694442749,2.1517977714538574,-0.43979209661483765,0.0,0.0,0.0,0.0,0.0,0.0,0.0,-0.30120529329254564,-0.008048781253593587,-0.057615784542375245,0.30552125251242246,-0.24186940030545973,-0.025389429404117016,-0.41307887908156216,1.6753235891034075,0.05230903695393027,0.029833325199852708,-2.752585510497883,0.03445890742023659,2.766315022674829,0.7692012090616754,1.6754973547542302,0.052104326824870026,0.029969505109285054,-2.752394845125968,0.0342448039870148,2.7663679543071322,0.7691630533470046,0.0009997711889593178,0.0003898140082924219,-0.00031242990195522695,-0.00026069129568530113,-0.00019305612484979943,0.00032844819470731213,0.0006540569587029705,0.0,0.0,0.0,0.0,0.0,0.0,0.0,0.00017376565082272144,-0.00020471012906024544,0.00013617990943234556,0.00019066537191481103,-0.00021410343322179198,5.293163230302156e-05,-3.8155714670806695e-05,-0.0009997711889593178,-0.0003898140082924219,0.00031242990195522695,0.00026069129568530113,0.00019305612484979943,-0.00032844819470731213,-0.0006540569587029705,0.3514034152030945,22.819665908813477,-0.02542426437139511,-14.179414749145508,0.00702899694442749,-2.1517977714538574,0.43979209661483765,0
27,0.12917375564575195,-0.3514034152030945,-22.819665908813477,0.02542426437139511,14.155611038208008,-0.0015358328819274902,2.1517977714538574,-0.41324180364608765,0.0,0.0,0.0,0.0,0.0,0.0,0.0,-0.3062109100922059,-0.009236532220771865,-0.06069460156366238,0.3091172230332846,-0.2417956126261958,-0.024881615991030934,-0.4145389887063237,1.6753235891032636,0.05230903695393027,0.029833871218653718,-2.752584581805944,0.0344584000874332,2.7663145560876368,0.7691982590291234,1.6754973547542302,0.052104326824870026,0.029969505109285054,-2.752394845125968,0.0342448039870148,2.7663679543071322,0.7691630533470046,0.001025103732448042,0.00041575294873026197,-7.580547989578733e-05,0.0007105897544257528,-0.0005004713371856818,9.856895929034309e-05,-0.00025772908407655594,0.0,0.0,0.0,0.0,0.0,0.0,0.0,0.00017376565096660634,-0.00020471012906024544,0.00013563389063133563,0.00018973667997590482,-0.00021359610041839922,5.339821949545964e-05,-3.5205682118788495e-05,-0.001025103732448042,-0.00041575294873026197,7.580547989578733e-05,-0.0007105897544257528,0.0005004713371856818,-9.856895929034309e-05,0.00025772908407655594,0.3514034152030945,22.819665908813477,-0.02542426437139511,-14.155611038208008,0.0015358328819274902,-2.1517977714538574,0.41324180364608765,0
28,0.13422107696533203,-0.3514034152030945,-22.819665908813477,0.02542426437139511,14.155611038208008,-0.0015358328819274902,2.1517977714538574,-0.41324180364608765,0.0,0.0,0.0,0.0,0.0,0.0,0.0,-0.3062109100922059,-0.009236532220771865,-0.06069460156366238,0.3091172230332846,-0.2417956126261958,-0.024881615991030934,-0.4145389887063237,1.6753235891032636,0.05230903695393027,0.029833871218653718,-2.752584581805944,0.0344584000874332,2.7663145560876368,0.7691982590291234,1.6754973547542302,0.052104326824870026,0.029969505109285054,-2.752394845125968,0.0342448039870148,2.7663679543071322,0.7691630533470046,0.001025103732448042,0.00041575294873026197,-7.580547989578733e-05,0.0007105897544257528,-0.0005004713371856818,9.856895929034309e-05,-0.00025772908407655594,0.0,0.0,0.0,0.0,0.0,0.0,0.0,0.00017376565096660634,-0.00020471012906024544,0.00013563389063133563,0.00018973667997590482,-0.00021359610041839922,5.339821949545964e-05,-3.5205682118788495e-05,-0.001025103732448042,-0.00041575294873026197,7.580547989578733e-05,-0.0007105897544257528,0.0005004713371856818,-9.856895929034309e-05,0.00025772908407655594,0.3514034152030945,22.819665908813477,-0.02542426437139511,-14.155611038208008,0.0015358328819274902,-2.1517977714538574,0.41324180364608765,0
29,0.13920307159423828,-0.2998287081718445,-22.819665908813477,0.02542426437139511,14.155611038208008,-0.01893085241317749,2.1655306816101074,-0.38577598333358765,0.0,0.0,0.0,0.0,0.0,0.0,0.0,-0.30828159138374883,-0.010555211913219682,-0.06120653526988795,0.30885159446272714,-0.24200725806121418,-0.025868460577230277,-0.4130083077700383,1.67531996986057,0.05230903695393027,0.029831977793219527,-2.752584553961185,0.034463528301686606,2.766316248366325,0.7691952029106601,1.6754973547542302,0.052104326824870026,0.029969505109285054,-2.752394845125968,0.0342448039870148,2.7663679543071322,0.7691630533470046,-0.00017653806732821918,5.905949476231215e-06,-6.436647458636629e-05,0.0002838968819146958,0.00027327919184638234,-0.00023840809836445247,-0.0007398914902408665,0.0,0.0,0.0,0.0,0.0,0.0,0.0,0.00017738489366014853,-0.00020471012906024544,0.00013752731606552632,0.0001897088352169618,-0.00021872431467180597,5.1705940807167394e-05,-3.2149563655492486e-05,0.00017653806732821918,-5.905949476231215e-06,6.436647458636629e-05,-0.0002838968819146958,-0.00027327919184638234,0.00023840809836445247,0.0007398914902408665,0.2998287081718445,22.819665908813477,-0.02542426437139511,-14.155611038208008,0.01893085241317749,-2.1655306816101074,0.38577598333358765,0
30,0.14420795440673828,-0.2998287081718445,-22.819665908813477,0.02542426437139511,14.155611038208008,-0.01893085241317749,2.1655306816101074,-0.38577598333358765,0.0,0.0,0.0,0.0,0.0,0.0,0.0,-0.30828159138374883,-0.010555211913219682,-0.06120653526988795,0.30885159446272714,-0.24200725806121418,-0.025868460577230277,-0.4130083077700383,1.67531996986057,0.05230903695393027,0.029831977793219527,-2.752584553961185,0.034463528301686606,2.766316248366325,0.7691952029106601,1.6754973547542302,0.052104326824870026,0.029969505109285054,-2.752394845125968,0.0342448039870148,2.7663679543071322,0.7691630533470046,-0.00017653806732821918,5.905949476231215e-06,-6.436647458636629e-05,0.0002838968819146958,0.00027327919184638234,-0.00023840809836445247,-0.0007398914902408665,0.0,0.0,0.0,0.0,0.0,0.0,0.0,0.00017738489366014853,-0.00020471012906024544,0.00013752731606552632,0.0001897088352169618,-0.00021872431467180597,5.1705940807167394e-05,-3.2149563655492486e-05,0.00017653806732821918,-5.905949476231215e-06,6.436647458636629e-05,-0.0002838968819146958,-0.00027327919184638234,0.00023840809836445247,0.0007398914902408665,0.2998287081718445,22.819665908813477,-0.02542426437139511,-14.155611038208008,0.01893085241317749,-2.1655306816101074,0.38577598333358765,0
31,0.14920568466186523,-0.22445029020309448,-22.819665908813477,0.04922797530889511,14.207185745239258,-0.00702899694442749,2.1655306816101074,-0.41324180364608765,0.0,0.0,0.0,0.0,0.0,0.0,0.0,-0.30721501776428534,-0.014815354414206816,-0.06069447453638357,0.3088507254164746,-0.2422509550689542,-0.026376797901136503,-0.41197070893118737,1.6753146804269718,0.05230903695393027,0.029832227093809567,-2.7525882010873457,0.03446143032980216,2.766316204814383,0.7691982197831929,1.6754973547542302,0.052104326824870026,0.029969505109285054,-2.752394845125968,0.0342448039870148,2.7663679543071322,0.7691630533470046,-0.0016706118196945158,-0.0006175355508420589,-0.0005331753092476741,-0.0007751406441400371,-1.1161683706669664e-05,-2.6302402136646956e-05,-0.0002962520449879969,0.0,0.0,0.0,0.0,0.0,0.0,0.0,0.00018267432725838084,-0.00020471012906024544,0.00013727801547548657,0.0001933559613775948,-0.00021662634278735854,5.174949274922014e-05,-3.516643618828308e-05,0.0016706118196945158,0.0006175355508420589,0.0005331753092476741,0.0007751406441400371,1.1161683706669664e-05,2.6302402136646956e-05,0.0002962520449879969,0.22445029020309448,22.819665908813477,-0.04922797530889511,-14.207185745239258,0.00702899694442749,-2.1655306816101074,0.41324180364608765,0
32,0.15420246124267578,-0.22445029020309448,-22.819665908813477,0.04922797530889511,14.207185745239258,-0.00702899694442749,2.1655306816101074,-0.41324180364608765,0.0,0.0,0.0,0.0,0.0,0.0,0.0,-0.30721501776428534,-0.014815354414206816,-0.06069447453638357,0.3088507254164746,-0.2422509550689542,-0.026376797901136503,-0.41197070893118737,1.6753146804269718,0.05230903695393027,0.029832227093809567,-2.7525882010873457,0.03446143032980216,2.766316204814383,0.7691982197831929,1.6754973547542302,0.052104326824870026,0.029969505109285054,-2.752394845125968,0.0342448039870148,2.7663679543071322,0.7691630533470046,-0.0016706118196945158,-0.0006175355508420589,-0.0005331753092476741,-0.0007751406441400371,-1.1161683706669664e-05,-2.6302402136646956e-05,-0.0002962520449879969,0.0,0.0,0.0,0.0,0.0,0.0,0.0,0.00018267432725838084,-0.00020471012906024544,0.00013727801547548657,0.0001933559613775948,-0.00021662634278735854,5.174949274922014e-05,-3.516643618828308e-05,0.0016706118196945158,0.0006175355508420589,0.0005331753092476741,0.0007751406441400371,1.1161683706669664e-05,2.6302402136646956e-05,0.0002962520449879969,0.22445029020309448,22.819665908813477,-0.04922797530889511,-14.207185745239258,0.00702899694442749,-2.1655306816101074,0.41324180364608765,0
33,0.15920615196228027,-0.3236324191093445,-22.819665908813477,0.04922797530889511,14.179414749145508,-0.00702899694442749,2.1453890800476074,-0.39218467473983765,0.0,0.0,0.0,0.0,0.0,0.0,0.0,-0.3026575802132118,-0.01155350196815774,-0.05759450838248034,0.30338694862677934,-0.242239492021461,-0.02697303961686592,-0.4135492614650224,1.675321640261433,0.05230903695393027,0.02983222767132784,-2.7525862522459863,0.03446210415720835,2.766316324898812,0.76919591934806,1.6754973547542302,0.052104326824870026,0.029969505109285054,-2.752394845125968,0.0342448039870148,2.7663679543071322,0.7691630533470046,0.0008251739842627447,0.00020270237361943308,-0.00023423077237587006,-0.00037518839639598265,-0.00010910033342219163,0.00039308706009181556,-0.0007087796556564879,0.0,0.0,0.0,0.0,0.0,0.0,0.0,0.00017571449279718543,-0.00020471012906024544,0.00013727743795721378,0.00019140712001819438,-0.00021730017019355036,5.162940832015295e-05,-3.2866001055342764e-05,-0.0008251739842627447,-0.00020270237361943308,0.00023423077237587006,0.00037518839639598265,0.00010910033342219163,-0.00039308706009181556,0.0007087796556564879,0.3236324191093445,22.819665908813477,-0.04922797530889511,-14.179414749145508,0.00702899694442749,-2.1453890800476074,0.39218467473983765,0
34,0.16423463821411133,-0.3236324191093445,-22.819665908813477,0.04922797530889511,14.179414749145508,-0.00702899694442749,2.1453890800476074,-0.39218467473983765,0.0,0.0,0.0,0.0,0.0,0.0,0.0,-0.3026575802132118,-0.01155350196815774,-0.05759450838248034,0.30338694862677934,-0.242239492021461,-0.02697303961686592,-0.4135492614650224,1.675321640261433,0.05230903695393027,0.02983222767132784,-2.7525862522459863,0.03446210415720835,2.766316324898812,0.76919591934806,1.6754973547542302,0.052104326824870026,0.029969505109285054,-2.752394845125968,0.0342448039870148,2.7663679543071322,0.7691630533470046,0.0008251739842627447,0.00020270237361943308,-0.00023423077237587006,-0.00037518839639598265,-0.00010910033342219163,0.00039308706009181556,-0.0007087796556564879,0.0,0.0,0.0,0.0,0.0,0.0,0.0,0.00017571449279718543,-0.00020471012906024544,0.00013727743795721378,0.00019140712001819438,-0.00021730017019355036,5.162940832015295e-05,-3.2866001055342764e-05,-0.0008251739842627447,-0.00020270237361943308,0.00023423077237587006,0.00037518839639598265,0.00010910033342219163,-0.00039308706009181556,0.0007087796556564879,0.3236324191093445,22.819665908813477,-0.04922797530889511,-14.179414749145508,0.00702899694442749,-2.1453890800476074,0.39218467473983765,0
35,0.1692361831665039,-0.3236324191093445,-22.772058486938477,0.04922797530889511,14.179414749145508,-0.01343768835067749,2.1582064628601074,-0.41965049505233765,0.0,0.0,0.0,0.0,0.0,0.0,0.0,-0.3006611494488755,-0.01252040982255726,-0.054772073985676586,0.3048349925703574,-0.24134981065989136,-0.027373128175316775,-0.4131552308199975,1.6753216402614326,0.052305696082219744,0.02983026352353754,-2.7525862522459863,0.03446296037667657,2.76631419292004,0.7691989696523961,1.6754973547542302,0.052104326824870026,0.029969505109285054,-2.752394845125968,0.0342448039870148,2.7663679543071322,0.7691630533470046,0.000772842483901827,-0.0006779247482899435,-0.0003070879190382296,-0.00016244151472542343,0.0003110080824409795,-2.2935292795876462e-05,0.0008779468641971598,0.0,0.0,0.0,0.0,0.0,0.0,0.0,0.00017571449279762952,-0.00020136925734971778,0.00013924158574751475,0.00019140712001819438,-0.0002181563896617722,5.376138709234368e-05,-3.591630539145907e-05,-0.000772842483901827,0.0006779247482899435,0.0003070879190382296,0.00016244151472542343,-0.0003110080824409795,2.2935292795876462e-05,-0.0008779468641971598,0.3236324191093445,22.772058486938477,-0.04922797530889511,-14.179414749145508,0.01343768835067749,-2.1582064628601074,0.41965049505233765,0
36,0.17422103881835938,-0.3236324191093445,-22.772058486938477,0.04922797530889511,14.179414749145508,-0.01343768835067749,2.1582064628601074,-0.41965049505233765,0.0,0.0,0.0,0.0,0.0,0.0,0.0,-0.3006611494488755,-0.01252040982255726,-0.054772073985676586,0.3048349925703574,-0.24134981065989136,-0.027373128175316775,-0.4131552308199975,1.6753216402614326,0.052305696082219744,0.02983026352353754,-2.7525862522459863,0.03446296037667657,2.76631419292004,0.7691989696523961,1.6754973547542302,0.052104326824870026,0.029969505109285054,-2.752394845125968,0.0342448039870148,2.7663679543071322,0.7691630533470046,0.000772842483901827,-0.0006779247482899435,-0.0003070879190382296,-0.00016244151472542343,0.0003110080824409795,-2.2935292795876462e-05,0.0008779468641971598,0.0,0.0,0.0,0.0,0.0,0.0,0.0,0.00017571449279762952,-0.00020136925734971778,0.00013924158574751475,0.00019140712001819438,-0.0002181563896617722,5.376138709234368e-05,-3.591630539145907e-05,-0.000772842483901827,0.0006779247482899435,0.0003070879190382296,0.00016244151472542343,-0.0003110080824409795,2.2935292795876462e-05,-0.0008779468641971598,0.3236324191093445,22.772058486938477,-0.04922797530889511,-14.179414749145508,0.01343768835067749,-2.1582064628601074,0.41965049505233765,0
37,0.17923426628112793,-0.2720577120780945,-22.772058486938477,0.04922797530889511,14.155611038208008,-0.01343768835067749,2.1582064628601074,-0.43979209661483765,0.0,0.0,0.0,0.0,0.0,0.0,0.0,-0.3010712363890514,-0.011487733243340638,-0.05359934871089047,0.30682356046437687,-0.2409134693850781,-0.027270137195220503,-0.41213206804593566,1.6753180209837462,0.052305696082219744,0.02983239069768741,-2.7525843345612344,0.034458557218482816,2.76631419867641,0.7692012090616672,1.6754973547542302,0.052104326824870026,0.029969505109285054,-2.752394845125968,0.0342448039870148,2.7663679543071322,0.7691630533470046,-0.001071708822752034,-0.00016325714604788774,-7.869520448431188e-05,0.0002871033491859138,4.8921645910161946e-05,-9.254585642773677e-05,0.0009918098932358013,0.0,0.0,0.0,0.0,0.0,0.0,0.0,0.00017933377048406918,-0.00020136925734971778,0.00013711441159764207,0.00018948943526631012,-0.00021375323146801545,5.375563072229639e-05,-3.8155714662591045e-05,0.001071708822752034,0.00016325714604788774,7.869520448431188e-05,-0.0002871033491859138,-4.8921645910161946e-05,9.254585642773677e-05,-0.0009918098932358013,0.2720577120780945,22.772058486938477,-0.04922797530889511,-14.155611038208008,0.01343768835067749,-2.1582064628601074,0.43979209661483765,0
38,0.18422985076904297,-0.2720577120780945,-22.772058486938477,0.04922797530889511,14.155611038208008,-0.01343768835067749,2.1582064628601074,-0.43979209661483765,0.0,0.0,0.0,0.0,0.0,0.0,0.0,-0.3010712363890514,-0.011487733243340638,-0.05359934871089047,0.30682356046437687,-0.2409134693850781,-0.027270137195220503,-0.41213206804593566,1.6753180209837462,0.052305696082219744,0.02983239069768741,-2.7525843345612344,0.034458557218482816,2.76631419867641,0.7692012090616672,1.6754973547542302,0.052104326824870026,0.029969505109285054,-2.752394845125968,0.0342448039870148,2.7663679543071322,0.7691630533470046,-0.001071708822752034,-0.00016325714604788774,-7.869520448431188e-05,0.0002871033491859138,4.8921645910161946e-05,-9.254585642773677e-05,0.0009918098932358013,0.0,0.0,0.0,0.0,0.0,0.0,0.0,0.00017933377048406918,-0.00020136925734971778,0.00013711441159764207,0.00018948943526631012,-0.00021375323146801545,5.375563072229639e-05,-3.8155714662591045e-05,0.001071708822752034,0.00016325714604788774,7.869520448431188e-05,-0.0002871033491859138,-4.8921645910161946e-05,9.254585642773677e-05,-0.0009918098932358013,0.2720577120780945,22.772058486938477,-0.04922797530889511,-14.155611038208008,0.01343768835067749,-2.1582064628601074,0.43979209661483765,0
39,0.1892566680908203,-0.2720577120780945,-22.795862197875977,0.02542426437139511,14.179414749145508,-0.00702899694442749,2.1655306816101074,-0.43338340520858765,0.0,0.0,0.0,0.0,0.0,0.0,0.0,-0.3046024626574859,-0.012184814852660337,-0.05213972197243721,0.3115799844702675,-0.24100506745591754,-0.026490413938929085,-0.41360644687883785,1.6753180209837462,0.05230736651807501,0.02983342404009372,-2.7525859954991656,0.03446141765335565,2.766316204761836,0.7692001437721429,1.6754973547542302,0.052104326824870026,0.029969505109285054,-2.752394845125968,0.0342448039870148,2.7663679543071322,0.7691630533470046,-0.001018878876494054,0.0001705716197384196,-0.0001275218321924859,-5.446574461842359e-05,8.08126436889897e-06,-0.0003218495855778525,0.0010312789092821043,0.0,0.0,0.0,0.0,0.0,0.0,0.0,0.00017933377048406918,-0.0002030396932049816,0.00013608106919133292,0.00019115037319750172,-0.000216613666340848,5.1749545296075894e-05,-3.709042513821981e-05,0.001018878876494054,-0.0001705716197384196,0.0001275218321924859,5.446574461842359e-05,-8.08126436889897e-06,0.0003218495855778525,-0.0010312789092821043,0.2720577120780945,22.795862197875977,-0.02542426437139511,-14.179414749145508,0.00702899694442749,-2.1655306816101074,0.43338340520858765,0
40,0.19425606727600098,-0.2720577120780945,-22.795862197875977,0.02542426437139511,14.179414749145508,-0.00702899694442749,2.1655306816101074,-0.43338340520858765,0.0,0.0,0.0,0.0,0.0,0.0,0.0,-0.3046024626574859,-0.012184814852660337,-0.05213972197243721,0.3115799844702675,-0.24100506745591754,-0.026490413938929085,-0.41360644687883785,1.6753180209837462,0.05230736651807501,0.02983342404009372,-2.7525859954991656,0.03446141765335565,2.766316204761836,0.7692001437721429,1.6754973547542302,0.052104326824870026,0.029969505109285054,-2.752394845125968,0.0342448039870148,2.7663679543071322,0.7691630533470046,-0.001018878876494054,0.0001705716197384196,-0.0001275218321924859,-5.446574461842359e-05,8.08126436889897e-06,-0.0003218495855778525,0.0010312789092821043,0.0,0.0,0.0,0.0,0.0,0.0,0.0,0.00017933377048406918,-0.0002030396932049816,0.00013608106919133292,0.00019115037319750172,-0.000216613666340848,5.1749545296075894e-05,-3.709042513821981e-05,0.001018878876494054,-0.0001705716197384196,0.0001275218321924859,5.446574461842359e-05,-8.08126436889897e-06,0.0003218495855778525,-0.0010312789092821043,0.2720577120780945,22.795862197875977,-0.02542426437139511,-14.179414749145508,0.00702899694442749,-2.1655306816101074,0.43338340520858765,0
41,0.19923806190490723,-0.3236324191093445,-22.847436904907227,0.001620553433895111,14.207185745239258,-0.01343768835067749,2.1655306816101074,-0.43979209661483765,0.0,0.0,0.0,0.0,0.0,0.0,0.0,-0.3041023663307332,-0.011345828156360729,-0.04943621832214088,0.3082011008783413,-0.2418829119886848,-0.026337232035930795,-0.4133927046671584,1.6753216402614326,0.05231098579576141,0.029833680570970106,-2.7525882010863683,0.03446283770224517,2.7663130394298356,0.7692012090596816,1.6754973547542302,0.052104326824870026,0.029969505109285054,-2.752394845125968,0.0342448039870148,2.7663679543071322,0.7691630533470046,0.0002189330517576482,0.00028795468901898037,0.0006441367708971483,-0.000888003052756131,6.054446487239647e-05,-0.00015129193423642575,0.0013567705804490256,0.0,0.0,0.0,0.0,0.0,0.0,0.0,0.00017571449279762952,-0.00020665897089138657,0.00013582453831494784,0.00019335596040015446,-0.0002180337152303674,5.491487729658573e-05,-3.8155712676957165e-05,-0.0002189330517576482,-0.00028795468901898037,-0.0006441367708971483,0.000888003052756131,-6.054446487239647e-05,0.00015129193423642575,-0.0013567705804490256,0.3236324191093445,22.847436904907227,-0.001620553433895111,-14.207185745239258,0.01343768835067749,-2.1655306816101074,0.43979209661483765,0
42,0.20421361923217773,-0.3236324191093445,-22.847436904907227,0.001620553433895111,14.207185745239258,-0.01343768835067749,2.1655306816101074,-0.43979209661483765,0.0,0.0,0.0,0.0,0.0,0.0,0.0,-0.3041023663307332,-0.011345828156360729,-0.04943621832214088,0.3082011008783413,-0.2418829119886848,-0.026337232035930795,-0.4133927046671584,1.6753216402614326,0.05231098579576141,0.029833680570970106,-2.7525882010863683,0.03446283770224517,2.7663130394298356,0.7692012090596816,1.6754973547542302,0.052104326824870026,0.029969505109285054,-2.752394845125968,0.0342448039870148,2.7663679543071322,0.7691630533470046,0.0002189330517576482,0.00028795468901898037,0.0006441367708971483,-0.000888003052756131,6.054446487239647e-05,-0.00015129193423642575,0.0013567705804490256,0.0,0.0,0.0,0.0,0.0,0.0,0.0,0.00017571449279762952,-0.00020665897089138657,0.00013582453831494784,0.00019335596040015446,-0.0002180337152303674,5.491487729658573e-05,-3.8155712676957165e-05,-0.0002189330517576482,-0.00028795468901898037,-0.0006441367708971483,0.000888003052756131,-6.054446487239647e-05,0.00015129193423642575,-0.0013567705804490256,0.3236324191093445,22.847436904907227,-0.001620553433895111,-14.207185745239258,0.01343768835067749,-2.1655306816101074,0.43979209661483765,0
43,0.2092576026916504,-0.3236324191093445,-22.847436904907227,0.001620553433895111,14.207185745239258,-0.01343768835067749,2.1655306816101074,-0.43979209661483765,0.0,0.0,0.0,0.0,0.0,0.0,0.0,-0.3041023663307332,-0.011345828156360729,-0.04943621832214088,0.3082011008783413,-0.2418829119886848,-0.026337232035930795,-0.4133927046671584,1.6753216402614326,0.05231098579576141,0.029833680570970106,-2.7525882010863683,0.03446283770224517,2.7663130394298356,0.7692012090596816,1.6754973547542302,0.052104326824870026,0.029969505109285054,-2.752394845125968,0.0342448039870148,2.7663679543071322,0.7691630533470046,0.0002189330517576482,0.00028795468901898037,0.0006441367708971483,-0.000888003052756131,6.054446487239647e-05,-0.00015129193423642575,0.0013567705804490256,0.0,0.0,0.0,0.0,0.0,0.0,0.0,0.00017571449279762952,-0.00020665897089138657,0.00013582453831494784,0.00019335596040015446,-0.0002180337152303674,5.491487729658573e-05,-3.8155712676957165e-05,-0.0002189330517576482,-0.00028795468901898037,-0.0006441367708971483,0.000888003052756131,-6.054446487239647e-05,0.00015129193423642575,-0.0013567705804490256,0.3236324191093445,22.847436904907227,-0.001620553433895111,-14.207185745239258,0.01343768835067749,-2.1655306816101074,0.43979209661483765,0
44,0.21423816680908203,-0.3236324191093445,-22.847436904907227,0.001620553433895111,14.207185745239258,-0.01343768835067749,2.1655306816101074,-0.43979209661483765,0.0,0.0,0.0,0.0,0.0,0.0,0.0,-0.3041023663307332,-0.011345828156360729,-0.04943621832214088,0.3082011008783413,-0.2418829119886848,-0.026337232035930795,-0.4133927046671584,1.6753216402614326,0.05231098579576141,0.029833680570970106,-2.7525882010863683,0.03446283770224517,2.7663130394298356,0.7692012090596816,1.6754973547542302,0.052104326824870026,0.029969505109285054,-2.752394845125968,0.0342448039870148,2.7663679543071322,0.7691630533470046,0.0002189330517576482,0.00028795468901898037,0.0006441367708971483,-0.000888003052756131,6.054446487239647e-05,-0.00015129193423642575,0.0013567705804490256,0.0,0.0,0.0,0.0,0.0,0.0,0.0,0.00017571449279762952,-0.00020665897089138657,0.00013582453831494784,0.00019335596040015446,-0.0002180337152303674,5.491487729658573e-05,-3.8155712676957165e-05,-0.0002189330517576482,-0.00028795468901898037,-0.0006441367708971483,0.000888003052756131,-6.054446487239647e-05,0.00015129193423642575,-0.0013567705804490256,0.3236324191093445,22.847436904907227,-0.001620553433895111,-14.207185745239258,0.01343768835067749,-2.1655306816101074,0.43979209661483765,0
45,0.21924495697021484,-0.3514034152030945,-22.847436904907227,0.02542426437139511,14.207185745239258,-0.0015358328819274902,2.1655306816101074,-0.43979209661483765,0.0,0.0,0.0,0.0,0.0,0.0,0.0,-0.31034739558454133,-0.01184645257702537,-0.054108066119208785,0.30696893879811427,-0.2423256362368255,-0.02590574436210811,-0.4116205557283526,1.6753235891032636,0.05231098579576141,0.029833161608188236,-2.752588191930451,0.03446041167555198,2.766313025845498,0.7692012090616754,1.6754973547542302,0.052104326824870026,0.029969505109285054,-2.752394845125968,0.0342448039870148,2.7663679543071322,0.7691630533470046,0.000441007103410076,0.00016856496974200613,7.28604245895098e-05,-0.0006347249769353178,-0.00027320202797384655,-0.00026510798835773603,0.0009859721452811156,0.0,0.0,0.0,0.0,0.0,0.0,0.0,0.00017376565096660634,-0.00020665897089138657,0.0001363435010968174,0.00019334680448279684,-0.00021560768853717827,5.492846163424048e-05,-3.8155714670806695e-05,-0.000441007103410076,-0.00016856496974200613,-7.28604245895098e-05,0.0006347249769353178,0.00027320202797384655,0.00026510798835773603,-0.0009859721452811156,0.3514034152030945,22.847436904907227,-0.02542426437139511,-14.207185745239258,0.0015358328819274902,-2.1655306816101074,0.43979209661483765,0
46,0.22422027587890625,-0.3514034152030945,-22.847436904907227,0.02542426437139511,14.207185745239258,-0.0015358328819274902,2.1655306816101074,-0.43979209661483765,0.0,0.0,0.0,0.0,0.0,0.0,0.0,-0.31034739558454133,-0.01184645257702537,-0.054108066119208785,0.30696893879811427,-0.2423256362368255,-0.02590574436210811,-0.4116205557283526,1.6753235891032636,0.05231098579576141,0.029833161608188236,-2.752588191930451,0.03446041167555198,2.766313025845498,0.7692012090616754,1.6754973547542302,0.052104326824870026,0.029969505109285054,-2.752394845125968,0.0342448039870148,2.7663679543071322,0.7691630533470046,0.000441007103410076,0.00016856496974200613,7.28604245895098e-05,-0.0006347249769353178,-0.00027320202797384655,-0.00026510798835773603,0.0009859721452811156,0.0,0.0,0.0,0.0,0.0,0.0,0.0,0.00017376565096660634,-0.00020665897089138657,0.0001363435010968174,0.00019334680448279684,-0.00021560768853717827,5.492846163424048e-05,-3.8155714670806695e-05,-0.000441007103410076,-0.00016856496974200613,-7.28604245895098e-05,0.0006347249769353178,0.00027320202797384655,0.00026510798835773603,-0.0009859721452811156,0.3514034152030945,22.847436904907227,-0.02542426437139511,-14.207185745239258,0.0015358328819274902,-2.1655306816101074,0.43979209661483765,0
47,0.2292160987854004,-0.2998287081718445,-22.795862197875977,0.02542426437139511,14.179414749145508,-0.0015358328819274902,2.1582064628601074,-0.39950889348983765,0.0,0.0,0.0,0.0,0.0,0.0,0.0,-0.3114768372663926,-0.012658227736361632,-0.052265298730359365,0.3048366115744241,-0.2428417283233293,-0.026256579714049145,-0.4123839109920668,1.6753199698255774,0.052307366626334215,0.02983177207532571,-2.752584026968213,0.03446159884289338,2.7663139590001307,0.7691967329887116,1.6754973547542302,0.052104326824870026,0.029969505109285054,-2.752394845125968,0.0342448039870148,2.7663679543071322,0.7691630533470046,-0.0007571234585182787,-0.0003528672893576522,-5.816007110649664e-05,2.7790629837598878e-05,-0.0003096739278674586,8.65519362685589e-05,-0.000870225102905574,0.0,0.0,0.0,0.0,0.0,0.0,0.0,0.00017738492865282396,-0.00020303980146418876,0.00013773303395934328,0.0001891818422450342,-0.0002167948558785826,5.3995307001564186e-05,-3.367964170697402e-05,0.0007571234585182787,0.0003528672893576522,5.816007110649664e-05,-2.7790629837598878e-05,0.0003096739278674586,-8.65519362685589e-05,0.000870225102905574,0.2998287081718445,22.795862197875977,-0.02542426437139511,-14.179414749145508,0.0015358328819274902,-2.1582064628601074,0.39950889348983765,0
48,0.2342076301574707,-0.2998287081718445,-22.795862197875977,0.02542426437139511,14.179414749145508,-0.0015358328819274902,2.1582064628601074,-0.39950889348983765,0.0,0.0,0.0,0.0,0.0,0.0,0.0,-0.3114768372663926,-0.012658227736361632,-0.052265298730359365,0.3048366115744241,-0.2428417283233293,-0.026256579714049145,-0.4123839109920668,1.6753199698255774,0.052307366626334215,0.02983177207532571,-2.752584026968213,0.03446159884289338,2.7663139590001307,0.7691967329887116,1.6754973547542302,0.052104326824870026,0.029969505109285054,-2.752394845125968,0.0342448039870148,2.7663679543071322,0.7691630533470046,-0.0007571234585182787,-0.0003528672893576522,-5.816007110649664e-05,2.7790629837598878e-05,-0.0003096739278674586,8.65519362685589e-05,-0.000870225102905574,0.0,0.0,0.0,0.0,0.0,0.0,0.0,0.00017738492865282396,-0.00020303980146418876,0.00013773303395934328,0.0001891818422450342,-0.0002167948558785826,5.3995307001564186e-05,-3.367964170697402e-05,0.0007571234585182787,0.0003528672893576522,5.816007110649664e-05,-2.7790629837598878e-05,0.0003096739278674586,-8.65519362685589e-05,0.000870225102905574,0.2998287081718445,22.795862197875977,-0.02542426437139511,-14.179414749145508,0.0015358328819274902,-2.1582064628601074,0.39950889348983765,0
49,0.24002575874328613,-0.3236324191093445,-22.795862197875977,0.04922797530889511,14.131807327270508,-0.01343768835067749,2.1582064628601074,-0.43979209661483765,0.0,0.0,0.0,0.0,0.0,0.0,0.0,-0.3137243121254357,-0.016148813548459862,-0.053686665236141684,0.3093451906766901,-0.24269652650872972,-0.025765323176799415,-0.41311254507771966,1.6753216402614326,0.05230736651807562,0.02983030768129413,-2.752581922026965,0.03445902664408048,2.766317018562567,0.7692012090616746,1.6754973547542302,0.052104326824870026,0.029969505109285054,-2.752394845125968,0.0342448039870148,2.7663679543071322,0.7691630533470046,0.00019604022118105212,-0.00019245109469123912,-0.00067262048149742,0.0013204500152817226,0.00013245894900256066,0.00010231473175414161,0.0005707891862550911,0.0,0.0,0.0,0.0,0.0,0.0,0.0,0.00017571449279762952,-0.00020303969320559223,0.00013919742799092458,0.00018707690099706298,-0.00021422265706567967,5.09357445652725e-05,-3.815571466991852e-05,-0.00019604022118105212,0.00019245109469123912,0.00067262048149742,-0.0013204500152817226,-0.00013245894900256066,-0.00010231473175414161,-0.0005707891862550911,0.3236324191093445,22.795862197875977,-0.04922797530889511,-14.131807327270508,0.01343768835067749,-2.1582064628601074,0.43979209661483765,0
50,0.24425554275512695,-0.3236324191093445,-22.795862197875977,0.04922797530889511,14.131807327270508,-0.01343768835067749,2.1582064628601074,-0.43979209661483765,0.0,0.0,0.0,0.0,0.0,0.0,0.0,-0.3137243121254357,-0.016148813548459862,-0.053686665236141684,0.3093451906766901,-0.24269652650872972,-0.025765323176799415,-0.41311254507771966,1.6753216402614326,0.05230736651807562,0.02983030768129413,-2.752581922026965,0.03445902664408048,2.766317018562567,0.7692012090616746,1.6754973547542302,0.052104326824870026,0.029969505109285054,-2.752394845125968,0.0342448039870148,2.7663679543071322,0.7691630533470046,0.00019604022118105212,-0.00019245109469123912,-0.00067262048149742,0.0013204500152817226,0.00013245894900256066,0.00010231473175414161,0.0005707891862550911,0.0,0.0,0.0,0.0,0.0,0.0,0.0,0.00017571449279762952,-0.00020303969320559223,0.00013919742799092458,0.00018707690099706298,-0.00021422265706567967,5.09357445652725e-05,-3.815571466991852e-05,-0.00019604022118105212,0.00019245109469123912,0.00067262048149742,-0.0013204500152817226,-0.00013245894900256066,-0.00010231473175414161,-0.0005707891862550911,0.3236324191093445,22.795862197875977,-0.04922797530889511,-14.131807327270508,0.01343768835067749,-2.1582064628601074,0.43979209661483765,0
51,0.24922776222229004,-0.3236324191093445,-22.748254776000977,0.07303168624639511,14.155611038208008,-0.00702899694442749,2.1517977714538574,-0.37845176458358765,0.0,0.0,0.0,0.0,0.0,0.0,0.0,-0.307965775915743,-0.010691386411562127,-0.049251404430175144,0.30644656186677827,-0.24333926269468825,-0.026579649261593785,-0.4146510886641619,1.6753216402614326,0.05230402564636448,0.029829987635913973,-2.752584581804546,0.034459306078179666,2.7663149049549824,0.7691943934692276,1.6754973547542302,0.052104326824870026,0.029969505109285054,-2.752394845125968,0.0342448039870148,2.7663679543071322,0.7691630533470046,0.0006898583214339375,-0.0010223820515133063,-0.0007430821513647831,0.0002950421686564207,-0.0001724329783435805,0.0002693257726490169,-0.001816097688968752,0.0,0.0,0.0,0.0,0.0,0.0,0.0,0.00017571449279762952,-0.00019969882149445395,0.00013951747337108064,0.000189736678577912,-0.00021450209116486568,5.3049352149781015e-05,-3.13401222229448e-05,-0.0006898583214339375,0.0010223820515133063,0.0007430821513647831,-0.0002950421686564207,0.0001724329783435805,-0.0002693257726490169,0.001816097688968752,0.3236324191093445,22.748254776000977,-0.07303168624639511,-14.155611038208008,0.00702899694442749,-2.1517977714538574,0.37845176458358765,0
52,0.2542712688446045,-0.3236324191093445,-22.748254776000977,0.07303168624639511,14.155611038208008,-0.00702899694442749,2.1517977714538574,-0.37845176458358765,0.0,0.0,0.0,0.0,0.0,0.0,0.0,-0.307965775915743,-0.010691386411562127,-0.049251404430175144,0.30644656186677827,-0.24333926269468825,-0.026579649261593785,-0.4146510886641619,1.6753216402614326,0.05230402564636448,0.029829987635913973,-2.752584581804546,0.034459306078179666,2.7663149049549824,0.7691943934692276,1.6754973547542302,0.052104326824870026,0.029969505109285054,-2.752394845125968,0.0342448039870148,2.7663679543071322,0.7691630533470046,0.0006898583214339375,-0.0010223820515133063,-0.0007430821513647831,0.0002950421686564207,-0.0001724329783435805,0.0002693257726490169,-0.001816097688968752,0.0,0.0,0.0,0.0,0.0,0.0,0.0,0.00017571449279762952,-0.00019969882149445395,0.00013951747337108064,0.000189736678577912,-0.00021450209116486568,5.3049352149781015e-05,-3.13401222229448e-05,-0.0006898583214339375,0.0010223820515133063,0.0007430821513647831,-0.0002950421686564207,0.0001724329783435805,-0.0002693257726490169,0.001816097688968752,0.3236324191093445,22.748254776000977,-0.07303168624639511,-14.155611038208008,0.00702899694442749,-2.1517977714538574,0.37845176458358765,0
53,0.2592329978942871,-0.3236324191093445,-22.819665908813477,0.04922797530889511,14.179414749145508,-0.01893085241317749,2.1453890800476074,-0.39950889348983765,0.0,0.0,0.0,0.0,0.0,0.0,0.0,-0.3096387404100166,-0.014673590219318588,-0.05188100496538194,0.31446660289172035,-0.2425400156787912,-0.02565646134615322,-0.41476403392800953,1.6753216402614326,0.05230903695393027,0.029829518372172608,-2.752585510499296,0.034460271534353513,2.76631561863091,0.7691967331502172,1.6754973547542302,0.052104326824870026,0.029969505109285054,-2.752394845125968,0.0342448039870148,2.7663679543071322,0.7691630533470046,0.0009024776614364763,0.00010510799597940639,-0.0001299222137302135,0.00015282393993718823,0.0001916529848279739,0.00046917658605676466,-0.0005548900433595739,0.0,0.0,0.0,0.0,0.0,0.0,0.0,0.00017571449279762952,-0.00020471012906024544,0.00013998673711244566,0.0001906653733279029,-0.00021546754733871298,5.2335676222092786e-05,-3.36798032125607e-05,-0.0009024776614364763,-0.00010510799597940639,0.0001299222137302135,-0.00015282393993718823,-0.0001916529848279739,-0.00046917658605676466,0.0005548900433595739,0.3236324191093445,22.819665908813477,-0.04922797530889511,-14.179414749145508,0.01893085241317749,-2.1453890800476074,0.39950889348983765,0
54,0.2642064094543457,-0.3236324191093445,-22.819665908813477,0.04922797530889511,14.179414749145508,-0.01893085241317749,2.1453890800476074,-0.39950889348983765,0.0,0.0,0.0,0.0,0.0,0.0,0.0,-0.3096387404100166,-0.014673590219318588,-0.05188100496538194,0.31446660289172035,-0.2425400156787912,-0.02565646134615322,-0.41476403392800953,1.6753216402614326,0.05230903695393027,0.029829518372172608,-2.752585510499296,0.034460271534353513,2.76631561863091,0.7691967331502172,1.6754973547542302,0.052104326824870026,0.029969505109285054,-2.752394845125968,0.0342448039870148,2.7663679543071322,0.7691630533470046,0.0009024776614364763,0.00010510799597940639,-0.0001299222137302135,0.00015282393993718823,0.0001916529848279739,0.00046917658605676466,-0.0005548900433595739,0.0,0.0,0.0,0.0,0.0,0.0,0.0,0.00017571449279762952,-0.00020471012906024544,0.00013998673711244566,0.0001906653733279029,-0.00021546754733871298,5.2335676222092786e-05,-3.36798032125607e-05,-0.0009024776614364763,-0.00010510799597940639,0.0001299222137302135,-0.00015282393993718823,-0.0001916529848279739,-0.00046917658605676466,0.0005548900433595739,0.3236324191093445,22.819665908813477,-0.04922797530889511,-14.179414749145508,0.01893085241317749,-2.1453890800476074,0.39950889348983765,0
55,0.269212007522583,-0.2720577120780945,-22.795862197875977,0.07303168624639511,14.155611038208008,-0.00702899694442749,2.1582064628601074,-0.43979209661483765,0.0,0.0,0.0,0.0,0.0,0.0,0.0,-0.3064920836135512,-0.006042148416671767,-0.049875028438665606,0.30667641964868314,-0.24266395090881213,-0.027507896415766824,-0.41465281037066654,1.6753180209837462,0.05230736651807501,0.029830005172171783,-2.752584581684516,0.03446138987125108,2.7663138401380305,0.7692008558489657,1.6754973547542302,0.052104326824870026,0.029969505109285054,-2.752394845125968,0.0342448039870148,2.7663679543071322,0.7691630533470046,-0.0006593105245362386,-0.0003595029514376474,-0.0006433378668365834,0.00019761783652507854,-0.00020866307327115175,9.290815151324257e-05,0.0004320378462700788,0.0,0.0,0.0,0.0,0.0,0.0,0.0,0.00017933377048406918,-0.0002030396932049816,0.0001394999371132702,0.000189736558547704,-0.00021658588423627972,5.411416910172662e-05,-3.78025019610595e-05,0.0006593105245362386,0.0003595029514376474,0.0006433378668365834,-0.00019761783652507854,0.00020866307327115175,-9.290815151324257e-05,-0.0004320378462700788,0.2720577120780945,22.795862197875977,-0.07303168624639511,-14.155611038208008,0.00702899694442749,-2.1582064628601074,0.43979209661483765,0
56,0.27422332763671875,-0.2720577120780945,-22.795862197875977,0.07303168624639511,14.155611038208008,-0.00702899694442749,2.1582064628601074,-0.43979209661483765,0.0,0.0,0.0,0.0,0.0,0.0,0.0,-0.3064920836135512,-0.006042148416671767,-0.049875028438665606,0.30667641964868314,-0.24266395090881213,-0.027507896415766824,-0.41465281037066654,1.6753180209837462,0.05230736651807501,0.029830005172171783,-2.752584581684516,0.03446138987125108,2.7663138401380305,0.7692008558489657,1.6754973547542302,0.052104326824870026,0.029969505109285054,-2.752394845125968,0.0342448039870148,2.7663679543071322,0.7691630533470046,-0.0006593105245362386,-0.0003595029514376474,-0.0006433378668365834,0.00019761783652507854,-0.00020866307327115175,9.290815151324257e-05,0.0004320378462700788,0.0,0.0,0.0,0.0,0.0,0.0,0.0,0.00017933377048406918,-0.0002030396932049816,0.0001394999371132702,0.000189736558547704,-0.00021658588423627972,5.411416910172662e-05,-3.78025019610595e-05,0.0006593105245362386,0.0003595029514376474,0.0006433378668365834,-0.00019761783652507854,0.00020866307327115175,-9.290815151324257e-05,-0.0004320378462700788,0.2720577120780945,22.795862197875977,-0.07303168624639511,-14.155611038208008,0.00702899694442749,-2.1582064628601074,0.43979209661483765,0
57,0.27921319007873535,-0.2998287081718445,-22.847436904907227,0.001620553433895111,14.179414749145508,-0.01343768835067749,2.1517977714538574,-0.41324180364608765,0.0,0.0,0.0,0.0,0.0,0.0,0.0,-0.30582048278033197,-0.012968225925991284,-0.05084055094774714,0.31495904120611323,-0.24284454086121446,-0.025974283987441945,-0.41569853180218475,1.6753199698255774,0.05231098579576141,0.029832946936946325,-2.752586251228501,0.034462142843997845,2.7663145517422736,0.7691982590284588,1.6754973547542302,0.052104326824870026,0.029969505109285054,-2.752394845125968,0.0342448039870148,2.7663679543071322,0.7691630533470046,0.00014247325004092154,0.0007933674624292789,0.0007534470666788935,0.0006214084803399577,4.431772818365951e-05,0.00039030467557939235,-0.0002943809602833982,0.0,0.0,0.0,0.0,0.0,0.0,0.0,0.00017738492865282396,-0.00020665897089138657,0.00013655817233872852,0.00019140610253298718,-0.0002173388569830445,5.3402564858640034e-05,-3.520568145420899e-05,-0.00014247325004092154,-0.0007933674624292789,-0.0007534470666788935,-0.0006214084803399577,-4.431772818365951e-05,-0.00039030467557939235,0.0002943809602833982,0.2998287081718445,22.847436904907227,-0.001620553433895111,-14.179414749145508,0.01343768835067749,-2.1517977714538574,0.41324180364608765,0
58,0.2842061519622803,-0.2998287081718445,-22.847436904907227,0.001620553433895111,14.179414749145508,-0.01343768835067749,2.1517977714538574,-0.41324180364608765,0.0,0.0,0.0,0.0,0.0,0.0,0.0,-0.30582048278033197,-0.012968225925991284,-0.05084055094774714,0.31495904120611323,-0.24284454086121446,-0.025974283987441945,-0.41569853180218475,1.6753199698255774,0.05231098579576141,0.029832946936946325,-2.752586251228501,0.034462142843997845,2.7663145517422736,0.7691982590284588,1.6754973547542302,0.052104326824870026,0.029969505109285054,-2.752394845125968,0.0342448039870148,2.7663679543071322,0.7691630533470046,0.00014247325004092154,0.0007933674624292789,0.0007534470666788935,0.0006214084803399577,4.431772818365951e-05,0.00039030467557939235,-0.0002943809602833982,0.0,0.0,0.0,0.0,0.0,0.0,0.0,0.00017738492865282396,-0.00020665897089138657,0.00013655817233872852,0.00019140610253298718,-0.0002173388569830445,5.3402564858640034e-05,-3.520568145420899e-05,-0.00014247325004092154,-0.0007933674624292789,-0.0007534470666788935,-0.0006214084803399577,-4.431772818365951e-05,-0.00039030467557939235,0.0002943809602833982,0.2998287081718445,22.847436904907227,-0.001620553433895111,-14.179414749145508,0.01343768835067749,-2.1517977714538574,0.41324180364608765,0
59,0.28920722007751465,-0.3236324191093445,-22.819665908813477,0.02542426437139511,14.131807327270508,-0.01343768835067749,2.1517977714538574,-0.39218467473983765,0.0,0.0,0.0,0.0,0.0,0.0,0.0,-0.311308917339736,-0.010118278928350185,-0.05963656914338835,0.31027348924011344,-0.24248915133371837,-0.02682185498856412,-0.41529576149471525,1.6753216402614326,0.05230903695393027,0.029833906860455586,-2.7525826640123197,0.034458664469473065,2.76631456480628,0.7691959193481338,1.6754973547542302,0.052104326824870026,0.029969505109285054,-2.752394845125968,0.0342448039870148,2.7663679543071322,0.7691630533470046,-0.000206740476301335,2.75458281937342e-05,-0.0007087402961224934,0.0012226200507594314,0.00015876371120440304,0.00023851883589154967,-0.0009041852999653535,0.0,0.0,0.0,0.0,0.0,0.0,0.0,0.00017571449279762952,-0.00020471012906024544,0.0001355982488294681,0.00018781888635155397,-0.00021386048245826406,5.338950085231886e-05,-3.2866001129172595e-05,0.000206740476301335,-2.75458281937342e-05,0.0007087402961224934,-0.0012226200507594314,-0.00015876371120440304,-0.00023851883589154967,0.0009041852999653535,0.3236324191093445,22.819665908813477,-0.02542426437139511,-14.131807327270508,0.01343768835067749,-2.1517977714538574,0.39218467473983765,0
60,0.29758262634277344,-0.3236324191093445,-22.819665908813477,0.02542426437139511,14.131807327270508,-0.01343768835067749,2.1517977714538574,-0.39218467473983765,0.0,0.0,0.0,0.0,0.0,0.0,0.0,-0.311308917339736,-0.010118278928350185,-0.05963656914338835,0.31027348924011344,-0.24248915133371837,-0.02682185498856412,-0.41529576149471525,1.6753216402614326,0.05230903695393027,0.029833906860455586,-2.7525826640123197,0.034458664469473065,2.76631456480628,0.7691959193481338,1.6754973547542302,0.052104326824870026,0.029969505109285054,-2.752394845125968,0.0342448039870148,2.7663679543071322,0.7691630533470046,-0.000206740476301335,2.75458281937342e-05,-0.0007087402961224934,0.0012226200507594314,0.00015876371120440304,0.00023851883589154967,-0.0009041852999653535,0.0,0.0,0.0,0.0,0.0,0.0,0.0,0.00017571449279762952,-0.00020471012906024544,0.0001355982488294681,0.00018781888635155397,-0.00021386048245826406,5.338950085231886e-05,-3.2866001129172595e-05,0.000206740476301335,-2.75458281937342e-05,0.0007087402961224934,-0.0012226200507594314,-0.00015876371120440304,-0.00023851883589154967,0.0009041852999653535,0.3236324191093445,22.819665908813477,-0.02542426437139511,-14.131807327270508,0.01343768835067749,-2.1517977714538574,0.39218467473983765,0
61,0.2992103099822998,-0.3236324191093445,-22.795862197875977,0.001620553433895111,14.179414749145508,-0.01893085241317749,2.1582064628601074,-0.42605918645858765,0.0,0.0,0.0,0.0,0.0,0.0,0.0,-0.3108524954973455,-0.01177721941789006,-0.05855637992728495,0.30975241320688796,-0.24290893975350722,-0.026451409249217295,-0.4155072387642692,1.6753216657712393,0.05230736651807501,0.029834858675380393,-2.7525862491930657,0.03446271229890677,2.7663138396475295,0.7691993299700595,1.6754973547542302,0.052104326824870026,0.029969505109285054,-2.752394845125968,0.0342448039870148,2.7663679543071322,0.7691630533470046,-0.00017646330893295923,-8.547815199411166e-05,0.00025624825696173855,-0.0005079916786896825,0.0002251369012131237,0.00016457931634763495,0.0010777868473349234,0.0,0.0,0.0,0.0,0.0,0.0,0.0,0.00017568898299091806,-0.0002030396932049816,0.00013464643390466088,0.00019140406709761137,-0.0002179083118919664,5.411465960269979e-05,-3.62766230548317e-05,0.00017646330893295923,8.547815199411166e-05,-0.00025624825696173855,0.0005079916786896825,-0.0002251369012131237,-0.00016457931634763495,-0.0010777868473349234,0.3236324191093445,22.795862197875977,-0.001620553433895111,-14.179414749145508,0.01893085241317749,-2.1582064628601074,0.42605918645858765,0
62,0.30426669120788574,-0.3236324191093445,-22.795862197875977,0.001620553433895111,14.179414749145508,-0.01893085241317749,2.1582064628601074,-0.42605918645858765,0.0,0.0,0.0,0.0,0.0,0.0,0.0,-0.3108524954973455,-0.01177721941789006,-0.05855637992728495,0.30975241320688796,-0.24290893975350722,-0.026451409249217295,-0.4155072387642692,1.6753216657712393,0.05230736651807501,0.029834858675380393,-2.7525862491930657,0.03446271229890677,2.7663138396475295,0.7691993299700595,1.6754973547542302,0.052104326824870026,0.029969505109285054,-2.752394845125968,0.0342448039870148,2.7663679543071322,0.7691630533470046,-0.00017646330893295923,-8.547815199411166e-05,0.00025624825696173855,-0.0005079916786896825,0.0002251369012131237,0.00016457931634763495,0.0010777868473349234,0.0,0.0,0.0,0.0,0.0,0.0,0.0,0.00017568898299091806,-0.0002030396932049816,0.00013464643390466088,0.00019140406709761137,-0.0002179083118919664,5.411465960269979e-05,-3.62766230548317e-05,0.00017646330893295923,8.547815199411166e-05,-0.00025624825696173855,0.0005079916786896825,-0.0002251369012131237,-0.00016457931634763495,-0.0010777868473349234,0.3236324191093445,22.795862197875977,-0.001620553433895111,-14.179414749145508,0.01893085241317749,-2.1582064628601074,0.42605918645858765,0
63,0.30924510955810547,-0.3236324191093445,-22.795862197875977,0.001620553433895111,14.179414749145508,-0.01893085241317749,2.1582064628601074,-0.42605918645858765,0.0,0.0,0.0,0.0,0.0,0.0,0.0,-0.3108524954973455,-0.01177721941789006,-0.05855637992728495,0.30975241320688796,-0.24290893975350722,-0.026451409249217295,-0.4155072387642692,1.6753216657712393,0.05230736651807501,0.029834858675380393,-2.7525862491930657,0.03446271229890677,2.7663138396475295,0.7691993299700595,1.6754973547542302,0.052104326824870026,0.029969505109285054,-2.752394845125968,0.0342448039870148,2.7663679543071322,0.7691630533470046,-0.00017646330893295923,-8.547815199411166e-05,0.00025624825696173855,-0.0005079916786896825,0.0002251369012131237,0.00016457931634763495,0.0010777868473349234,0.0,0.0,0.0,0.0,0.0,0.0,0.0,0.00017568898299091806,-0.0002030396932049816,0.00013464643390466088,0.00019140406709761137,-0.0002179083118919664,5.411465960269979e-05,-3.62766230548317e-05,0.00017646330893295923,8.547815199411166e-05,-0.00025624825696173855,0.0005079916786896825,-0.0002251369012131237,-0.00016457931634763495,-0.0010777868473349234,0.3236324191093445,22.795862197875977,-0.001620553433895111,-14.179414749145508,0.01893085241317749,-2.1582064628601074,0.42605918645858765,0
64,0.31424498558044434,-0.3236324191093445,-22.795862197875977,0.001620553433895111,14.179414749145508,-0.01893085241317749,2.1582064628601074,-0.42605918645858765,0.0,0.0,0.0,0.0,0.0,0.0,0.0,-0.3108524954973455,-0.01177721941789006,-0.05855637992728495,0.30975241320688796,-0.24290893975350722,-0.026451409249217295,-0.4155072387642692,1.6753216657712393,0.05230736651807501,0.029834858675380393,-2.7525862491930657,0.03446271229890677,2.7663138396475295,0.7691993299700595,1.6754973547542302,0.052104326824870026,0.029969505109285054,-2.752394845125968,0.0342448039870148,2.7663679543071322,0.7691630533470046,-0.00017646330893295923,-8.547815199411166e-05,0.00025624825696173855,-0.0005079916786896825,0.0002251369012131237,0.00016457931634763495,0.0010777868473349234,0.0,0.0,0.0,0.0,0.0,0.0,0.0,0.00017568898299091806,-0.0002030396932049816,0.00013464643390466088,0.00019140406709761137,-0.0002179083118919664,5.411465960269979e-05,-3.62766230548317e-05,0.00017646330893295923,8.547815199411166e-05,-0.00025624825696173855,0.0005079916786896825,-0.0002251369012131237,-0.00016457931634763495,-0.0010777868473349234,0.3236324191093445,22.795862197875977,-0.001620553433895111,-14.179414749145508,0.01893085241317749,-2.1582064628601074,0.42605918645858765,0
65,0.319256067276001,-0.2720577120780945,-22.772058486938477,0.02542426437139511,14.179414749145508,-0.01343768835067749,2.1582064628601074,-0.43338340520858765,0.0,0.0,0.0,0.0,0.0,0.0,0.0,-0.31284328984317095,-0.0060318144751083085,-0.05704509245378461,0.3068531584255076,-0.24337983530856977,-0.025903226540943756,-0.41434042692465,1.67531802098389,0.052305696082219744,0.02983390632995135,-2.7525862519068074,0.03446210151648925,2.766313839647505,0.7692001437701489,1.6754973547542302,0.052104326824870026,0.029969505109285054,-2.752394845125968,0.0342448039870148,2.7663679543071322,0.7691630533470046,-0.0008808309074612674,-1.7707000551324677e-05,-0.00016756346749491273,-0.00025309970934447623,0.00010530945232359457,0.00024096025378131557,0.00034882203496047916,0.0,0.0,0.0,0.0,0.0,0.0,0.0,0.00017933377034018427,-0.00020136925734971778,0.0001355987793337024,0.0001914067808392872,-0.00021729752947444864,5.4114659627124695e-05,-3.7090423144259255e-05,0.0008808309074612674,1.7707000551324677e-05,0.00016756346749491273,0.00025309970934447623,-0.00010530945232359457,-0.00024096025378131557,-0.00034882203496047916,0.2720577120780945,22.772058486938477,-0.02542426437139511,-14.179414749145508,0.01343768835067749,-2.1582064628601074,0.43338340520858765,0
66,0.32423853874206543,-0.2720577120780945,-22.772058486938477,0.02542426437139511,14.179414749145508,-0.01343768835067749,2.1582064628601074,-0.43338340520858765,0.0,0.0,0.0,0.0,0.0,0.0,0.0,-0.31284328984317095,-0.0060318144751083085,-0.05704509245378461,0.3068531584255076,-0.24337983530856977,-0.025903226540943756,-0.41434042692465,1.67531802098389,0.052305696082219744,0.02983390632995135,-2.7525862519068074,0.03446210151648925,2.766313839647505,0.7692001437701489,1.6754973547542302,0.052104326824870026,0.029969505109285054,-2.752394845125968,0.0342448039870148,2.7663679543071322,0.7691630533470046,-0.0008808309074612674,-1.7707000551324677e-05,-0.00016756346749491273,-0.00025309970934447623,0.00010530945232359457,0.00024096025378131557,0.00034882203496047916,0.0,0.0,0.0,0.0,0.0,0.0,0.0,0.00017933377034018427,-0.00020136925734971778,0.0001355987793337024,0.0001914067808392872,-0.00021729752947444864,5.4114659627124695e-05,-3.7090423144259255e-05,0.0008808309074612674,1.7707000551324677e-05,0.00016756346749491273,0.00025309970934447623,-0.00010530945232359457,-0.00024096025378131557,-0.00034882203496047916,0.2720577120780945,22.772058486938477,-0.02542426437139511,-14.179414749145508,0.01343768835067749,-2.1582064628601074,0.43338340520858765,0
67,0.32921767234802246,-0.2720577120780945,-22.720483779907227,0.04922797530889511,14.207185745239258,-0.01893085241317749,2.1582064628601074,-0.41965049505233765,0.0,0.0,0.0,0.0,0.0,0.0,0.0,-0.3118141455223339,-0.0030001659920799663,-0.05774974289153725,0.3045594771699679,-0.2433068108216665,-0.02524527919931868,-0.41362386420248537,1.6753180209837462,0.05230207680453334,0.029829628222447224,-2.7525882007109694,0.03446022043338245,2.7663148992856343,0.7691989711039524,1.6754973547542302,0.052104326824870026,0.029969505109285054,-2.752394845125968,0.0342448039870148,2.7663679543071322,0.7691630533470046,-0.0009025559679213188,-0.001579997966269339,-0.0002699186921153238,-0.0009769674625710455,0.0003625931890797519,0.00020736293007922314,0.0006755887438160181,0.0,0.0,0.0,0.0,0.0,0.0,0.0,0.00017933377048406918,-0.00019774997966331281,0.00013987688683782945,0.00019335558500133132,-0.00021541644636764723,5.3055021497883104e-05,-3.5917756947778656e-05,0.0009025559679213188,0.001579997966269339,0.0002699186921153238,0.0009769674625710455,-0.0003625931890797519,-0.00020736293007922314,-0.0006755887438160181,0.2720577120780945,22.720483779907227,-0.04922797530889511,-14.207185745239258,0.01893085241317749,-2.1582064628601074,0.41965049505233765,0
68,0.33420681953430176,-0.2720577120780945,-22.720483779907227,0.04922797530889511,14.207185745239258,-0.01893085241317749,2.1582064628601074,-0.41965049505233765,0.0,0.0,0.0,0.0,0.0,0.0,0.0,-0.3118141455223339,-0.0030001659920799663,-0.05774974289153725,0.3045594771699679,-0.2433068108216665,-0.02524527919931868,-0.41362386420248537,1.6753180209837462,0.05230207680453334,0.029829628222447224,-2.7525882007109694,0.03446022043338245,2.7663148992856343,0.7691989711039524,1.6754973547542302,0.052104326824870026,0.029969505109285054,-2.752394845125968,0.0342448039870148,2.7663679543071322,0.7691630533470046,-0.0009025559679213188,-0.001579997966269339,-0.0002699186921153238,-0.0009769674625710455,0.0003625931890797519,0.00020736293007922314,0.0006755887438160181,0.0,0.0,0.0,0.0,0.0,0.0,0.0,0.00017933377048406918,-0.00019774997966331281,0.00013987688683782945,0.00019335558500133132,-0.00021541644636764723,5.3055021497883104e-05,-3.5917756947778656e-05,0.0009025559679213188,0.001579997966269339,0.0002699186921153238,0.0009769674625710455,-0.0003625931890797519,-0.00020736293007922314,-0.0006755887438160181,0.2720577120780945,22.720483779907227,-0.04922797530889511,-14.207185745239258,0.01893085241317749,-2.1582064628601074,0.41965049505233765,0
69,0.33921003341674805,-0.2998287081718445,-22.819665908813477,0.001620553433895111,14.179414749145508,-0.01893085241317749,2.1517977714538574,-0.43338340520858765,0.0,0.0,0.0,0.0,0.0,0.0,0.0,-0.3083111630851868,-0.006982060173859845,-0.05734230077629426,0.30851932273373545,-0.2434475416570059,-0.02444828486382705,-0.4126820578998806,1.6753199698255774,0.05230903695393027,0.029834761888058444,-2.752586249080475,0.03446342153668626,2.7663145517303094,0.7692004926242019,1.6754973547542302,0.052104326824870026,0.029969505109285054,-2.752394845125968,0.0342448039870148,2.7663679543071322,0.7691630533470046,0.00024365713183750322,0.0005219462201747684,0.0008883877434147491,8.234334809730647e-05,0.0002704944112427692,0.00034135117540870106,0.0006565145369790685,0.0,0.0,0.0,0.0,0.0,0.0,0.0,0.00017738492865282396,-0.00020471012906024544,0.00013474322122660962,0.00019140395450678582,-0.00021861754967145847,5.3402576822847436e-05,-3.743927719723761e-05,-0.00024365713183750322,-0.0005219462201747684,-0.0008883877434147491,-8.234334809730647e-05,-0.0002704944112427692,-0.00034135117540870106,-0.0006565145369790685,0.2998287081718445,22.819665908813477,-0.001620553433895111,-14.179414749145508,0.01893085241317749,-2.1517977714538574,0.43338340520858765,0
70,0.3442115783691406,-0.2998287081718445,-22.819665908813477,0.001620553433895111,14.179414749145508,-0.01893085241317749,2.1517977714538574,-0.43338340520858765,0.0,0.0,0.0,0.0,0.0,0.0,0.0,-0.3083111630851868,-0.006982060173859845,-0.05734230077629426,0.30851932273373545,-0.2434475416570059,-0.02444828486382705,-0.4126820578998806,1.6753199698255774,0.05230903695393027,0.029834761888058444,-2.752586249080475,0.03446342153668626,2.7663145517303094,0.7692004926242019,1.6754973547542302,0.052104326824870026,0.029969505109285054,-2.752394845125968,0.0342448039870148,2.7663679543071322,0.7691630533470046,0.00024365713183750322,0.0005219462201747684,0.0008883877434147491,8.234334809730647e-05,0.0002704944112427692,0.00034135117540870106,0.0006565145369790685,0.0,0.0,0.0,0.0,0.0,0.0,0.0,0.00017738492865282396,-0.00020471012906024544,0.00013474322122660962,0.00019140395450678582,-0.00021861754967145847,5.3402576822847436e-05,-3.743927719723761e-05,-0.00024365713183750322,-0.0005219462201747684,-0.0008883877434147491,-8.234334809730647e-05,-0.0002704944112427692,-0.00034135117540870106,-0.0006565145369790685,0.2998287081718445,22.819665908813477,-0.001620553433895111,-14.179414749145508,0.01893085241317749,-2.1517977714538574,0.43338340520858765,0
71,0.3492288589477539,-0.3236324191093445,-22.795862197875977,0.02542426437139511,14.155611038208008,-0.0015358328819274902,2.1655306816101074,-0.42605918645858765,0.0,0.0,0.0,0.0,0.0,0.0,0.0,-0.30573519748997685,-0.0059703004520308255,-0.05499611248754783,0.3053065502711706,-0.24338041390542153,-0.02549916908916986,-0.41396127366422447,1.6753216402614326,0.05230736651807501,0.02983382444935504,-2.752584498941599,0.034461949492532055,2.766316597218376,0.7691996831827446,1.6754973547542302,0.052104326824870026,0.029969505109285054,-2.752394845125968,0.0342448039870148,2.7663679543071322,0.7691630533470046,0.0003878393436651662,-0.000540216502682075,0.0006236228573111908,0.00022344478417267858,-0.0004121158649707459,-0.00038792561039849944,3.829266322683286e-06,0.0,0.0,0.0,0.0,0.0,0.0,0.0,0.00017571449279762952,-0.0002030396932049816,0.00013568065993001255,0.00018965381563074146,-0.00021714550551725498,5.1357088756365243e-05,-3.662983573993195e-05,-0.0003878393436651662,0.000540216502682075,-0.0006236228573111908,-0.00022344478417267858,0.0004121158649707459,0.00038792561039849944,-3.829266322683286e-06,0.3236324191093445,22.795862197875977,-0.02542426437139511,-14.155611038208008,0.0015358328819274902,-2.1655306816101074,0.42605918645858765,0
72,0.354215145111084,-0.3236324191093445,-22.795862197875977,0.02542426437139511,14.155611038208008,-0.0015358328819274902,2.1655306816101074,-0.42605918645858765,0.0,0.0,0.0,0.0,0.0,0.0,0.0,-0.30573519748997685,-0.0059703004520308255,-0.05499611248754783,0.3053065502711706,-0.24338041390542153,-0.02549916908916986,-0.41396127366422447,1.6753216402614326,0.05230736651807501,0.02983382444935504,-2.752584498941599,0.034461949492532055,2.766316597218376,0.7691996831827446,1.6754973547542302,0.052104326824870026,0.029969505109285054,-2.752394845125968,0.0342448039870148,2.7663679543071322,0.7691630533470046,0.0003878393436651662,-0.000540216502682075,0.0006236228573111908,0.00022344478417267858,-0.0004121158649707459,-0.00038792561039849944,3.829266322683286e-06,0.0,0.0,0.0,0.0,0.0,0.0,0.0,0.00017571449279762952,-0.0002030396932049816,0.00013568065993001255,0.00018965381563074146,-0.00021714550551725498,5.1357088756365243e-05,-3.662983573993195e-05,-0.0003878393436651662,0.000540216502682075,-0.0006236228573111908,-0.00022344478417267858,0.0004121158649707459,0.00038792561039849944,-3.829266322683286e-06,0.3236324191093445,22.795862197875977,-0.02542426437139511,-14.155611038208008,0.0015358328819274902,-2.1655306816101074,0.42605918645858765,0
73,0.3592565059661865,-0.3236324191093445,-22.795862197875977,0.001620553433895111,14.179414749145508,-0.01343768835067749,2.1582064628601074,-0.39950889348983765,0.0,0.0,0.0,0.0,0.0,0.0,0.0,-0.3079976629323214,-0.005859695439532977,-0.05471937462965685,0.30695600992211813,-0.24277488641307932,-0.025631471675163185,-0.41498793415848034,1.6753216402614326,0.05230744543903985,0.02983581125884913,-2.7525862522455187,0.03445858350678922,2.7663138527496174,0.7691935542358292,1.6754973547542302,0.052104326824870026,0.029969505109285054,-2.752394845125968,0.0342448039870148,2.7663679543071322,0.7691630533470046,0.00019384394992473752,-0.00012565322942353105,0.0007508986559682794,-8.941250648310001e-05,0.00012600996440396435,0.00012760004882896058,-0.0009351525872349207,0.0,0.0,0.0,0.0,0.0,0.0,0.0,0.00017571449279762952,-0.0002031186141698213,0.00013369385043592377,0.00019140711955056844,-0.00021377951977442217,5.410155751484069e-05,-3.050088882461388e-05,-0.00019384394992473752,0.00012565322942353105,-0.0007508986559682794,8.941250648310001e-05,-0.00012600996440396435,-0.00012760004882896058,0.0009351525872349207,0.3236324191093445,22.795862197875977,-0.001620553433895111,-14.179414749145508,0.01343768835067749,-2.1582064628601074,0.39950889348983765,0
74,0.36423206329345703,-0.3236324191093445,-22.795862197875977,0.001620553433895111,14.179414749145508,-0.01343768835067749,2.1582064628601074,-0.39950889348983765,0.0,0.0,0.0,0.0,0.0,0.0,0.0,-0.3079976629323214,-0.005859695439532977,-0.05471937462965685,0.30695600992211813,-0.24277488641307932,-0.025631471675163185,-0.41498793415848034,1.6753216402614326,0.05230744543903985,0.02983581125884913,-2.7525862522455187,0.03445858350678922,2.7663138527496174,0.7691935542358292,1.6754973547542302,0.052104326824870026,0.029969505109285054,-2.752394845125968,0.0342448039870148,2.7663679543071322,0.7691630533470046,0.00019384394992473752,-0.00012565322942353105,0.0007508986559682794,-8.941250648310001e-05,0.00012600996440396435,0.00012760004882896058,-0.0009351525872349207,0.0,0.0,0.0,0.0,0.0,0.0,0.0,0.00017571449279762952,-0.0002031186141698213,0.00013369385043592377,0.00019140711955056844,-0.00021377951977442217,5.410155751484069e-05,-3.050088882461388e-05,-0.00019384394992473752,0.00012565322942353105,-0.0007508986559682794,8.941250648310001e-05,-0.00012600996440396435,-0.00012760004882896058,0.0009351525872349207,0.3236324191093445,22.795862197875977,-0.001620553433895111,-14.179414749145508,0.01343768835067749,-2.1582064628601074,0.39950889348983765,0
75,0.3692288398742676,-0.2998287081718445,-22.795862197875977,0.02542426437139511,14.131807327270508,-0.0015358328819274902,2.1655306816101074,-0.41324180364608765,0.0,0.0,0.0,0.0,0.0,0.0,0.0,-0.3082972347199818,-0.007240591091003396,-0.054895363619839925,0.30659762029484916,-0.24237532595714723,-0.025646262926670646,-0.4152443988254316,1.6753199698255774,0.05230736651852051,0.029834141041298227,-2.752580603378744,0.03445769050705893,2.7663130258454953,0.7691971993730491,1.6754973547542302,0.052104326824870026,0.029969505109285054,-2.752394845125968,0.0342448039870148,2.7663679543071322,0.7691630533470046,-0.0006515518206202654,-8.816782637504101e-05,0.0003607343409243244,0.0008123970000580782,-0.00011310965793024679,-0.00014482331761662135,-0.00029903662146562866,0.0,0.0,0.0,0.0,0.0,0.0,0.0,0.00017738492865282396,-0.00020303969365048635,0.0001353640679868269,0.00018575825277578062,-0.00021288652004412822,5.492846163690501e-05,-3.4146026044457045e-05,0.0006515518206202654,8.816782637504101e-05,-0.0003607343409243244,-0.0008123970000580782,0.00011310965793024679,0.00014482331761662135,0.00029903662146562866,0.2998287081718445,22.795862197875977,-0.02542426437139511,-14.131807327270508,0.0015358328819274902,-2.1655306816101074,0.41324180364608765,0
76,0.3742198944091797,-0.2998287081718445,-22.795862197875977,0.02542426437139511,14.131807327270508,-0.0015358328819274902,2.1655306816101074,-0.41324180364608765,0.0,0.0,0.0,0.0,0.0,0.0,0.0,-0.3082972347199818,-0.007240591091003396,-0.054895363619839925,0.30659762029484916,-0.24237532595714723,-0.025646262926670646,-0.4152443988254316,1.6753199698255774,0.05230736651852051,0.029834141041298227,-2.752580603378744,0.03445769050705893,2.7663130258454953,0.7691971993730491,1.6754973547542302,0.052104326824870026,0.029969505109285054,-2.752394845125968,0.0342448039870148,2.7663679543071322,0.7691630533470046,-0.0006515518206202654,-8.816782637504101e-05,0.0003607343409243244,0.0008123970000580782,-0.00011310965793024679,-0.00014482331761662135,-0.00029903662146562866,0.0,0.0,0.0,0.0,0.0,0.0,0.0,0.00017738492865282396,-0.00020303969365048635,0.0001353640679868269,0.00018575825277578062,-0.00021288652004412822,5.492846163690501e-05,-3.4146026044457045e-05,0.0006515518206202654,8.816782637504101e-05,-0.0003607343409243244,-0.0008123970000580782,0.00011310965793024679,0.00014482331761662135,0.00029903662146562866,0.2998287081718445,22.795862197875977,-0.02542426437139511,-14.131807327270508,0.0015358328819274902,-2.1655306816101074,0.41324180364608765,0
77,0.37920641899108887,-0.3236324191093445,-22.772058486938477,0.001620553433895111,14.179414749145508,-0.01893085241317749,2.1582064628601074,-0.39950889348983765,0.0,0.0,0.0,0.0,0.0,0.0,0.0,-0.3094090235185527,-0.008629919234591811,-0.05309222523471867,0.30549001926896446,-0.2416584226792232,-0.025914510723821085,-0.4150499448413594,1.6753216402614326,0.052305696082219744,0.029833338728515568,-2.752586242962537,0.03446250155823234,2.7663170200154434,0.7691967331442354,1.6754973547542302,0.052104326824870026,0.029969505109285054,-2.752394845125968,0.0342448039870148,2.7663679543071322,0.7691630533470046,0.00024230621944806892,-0.000974754217855541,0.0005226979919235369,-0.00028055731254503967,0.0002738082684698096,0.00010538279279649764,-0.0007727313728924705,0.0,0.0,0.0,0.0,0.0,0.0,0.0,0.00017571449279762952,-0.00020136925734971778,0.00013616638076948545,0.00019139783656907383,-0.00021769757121754135,5.0934291688786715e-05,-3.3679797230790065e-05,-0.00024230621944806892,0.000974754217855541,-0.0005226979919235369,0.00028055731254503967,-0.0002738082684698096,-0.00010538279279649764,0.0007727313728924705,0.3236324191093445,22.772058486938477,-0.001620553433895111,-14.179414749145508,0.01893085241317749,-2.1582064628601074,0.39950889348983765,0
78,0.3842201232910156,-0.3236324191093445,-22.772058486938477,0.001620553433895111,14.179414749145508,-0.01893085241317749,2.1582064628601074,-0.39950889348983765,0.0,0.0,0.0,0.0,0.0,0.0,0.0,-0.3094090235185527,-0.008629919234591811,-0.05309222523471867,0.30549001926896446,-0.2416584226792232,-0.025914510723821085,-0.4150499448413594,1.6753216402614326,0.052305696082219744,0.029833338728515568,-2.752586242962537,0.03446250155823234,2.7663170200154434,0.7691967331442354,1.6754973547542302,0.052104326824870026,0.029969505109285054,-2.752394845125968,0.0342448039870148,2.7663679543071322,0.7691630533470046,0.00024230621944806892,-0.000974754217855541,0.0005226979919235369,-0.00028055731254503967,0.0002738082684698096,0.00010538279279649764,-0.0007727313728924705,0.0,0.0,0.0,0.0,0.0,0.0,0.0,0.00017571449279762952,-0.00020136925734971778,0.00013616638076948545,0.00019139783656907383,-0.00021769757121754135,5.0934291688786715e-05,-3.3679797230790065e-05,-0.00024230621944806892,0.000974754217855541,-0.0005226979919235369,0.00028055731254503967,-0.0002738082684698096,-0.00010538279279649764,0.0007727313728924705,0.3236324191093445,22.772058486938477,-0.001620553433895111,-14.179414749145508,0.01893085241317749,-2.1582064628601074,0.39950889348983765,0
79,0.38921666145324707,-0.3236324191093445,-22.748254776000977,0.001620553433895111,14.131807327270508,-0.01343768835067749,2.1719393730163574,-0.41965049505233765,0.0,0.0,0.0,0.0,0.0,0.0,0.0,-0.3161748493053683,-0.007406475904824334,-0.05853276621252038,0.3057744663806698,-0.24121374930313694,-0.02603442217770392,-0.4141785920187949,1.6753216402614326,0.05230402564636448,0.029835776467519122,-2.7525829113741187,0.03445858348274717,2.7663123270659162,0.7691989711059463,1.6754973547542302,0.052104326824870026,0.029969505109285054,-2.752394845125968,0.0342448039870148,2.7663679543071322,0.7691630533470046,-0.0001365828527321065,-0.0012287752531406541,0.00034154473997252444,0.0010045325862843082,0.00015119031912296993,-0.0005601085660297192,0.0003528202405469008,0.0,0.0,0.0,0.0,0.0,0.0,0.0,0.00017571449279762952,-0.00019969882149445395,0.0001337286417659317,0.00018806624815059791,-0.0002137794957323691,5.562724121599416e-05,-3.5917758941628186e-05,0.0001365828527321065,0.0012287752531406541,-0.00034154473997252444,-0.0010045325862843082,-0.00015119031912296993,0.0005601085660297192,-0.0003528202405469008,0.3236324191093445,22.748254776000977,-0.001620553433895111,-14.131807327270508,0.01343768835067749,-2.1719393730163574,0.41965049505233765,0
