rezayati/contactInterpretation/dataset/franka_main/labeled_data/link7/a6_1.csv
index,time,tau_J0,tau_J1,tau_J2,tau_J3,tau_J4,tau_J5,tau_J6,tau_J_d0,tau_J_d1,tau_J_d2,tau_J_d3,tau_J_d4,tau_J_d5,tau_J_d6,tau_ext0,tau_ext1,tau_ext2,tau_ext3,tau_ext4,tau_ext5,tau_ext6,q0,q1,q2,q3,q4,q5,q6,q_d0,q_d1,q_d2,q_d3,q_d4,q_d5,q_d6,dq0,dq1,dq2,dq3,dq4,dq5,dq6,dq_d0,dq_d1,dq_d2,dq_d3,dq_d4,dq_d5,dq_d6,e0,e1,e2,e3,e4,e5,e6,de0,de1,de2,de3,de4,de5,de6,etau_J0,etau_J1,etau_J2,etau_J3,etau_J4,etau_J5,etau_J6,label
1,0.0,-0.4505855441093445,-47.07168197631836,-1.0933501720428467,21.074556350708008,0.6475730538368225,2.3330721855163574,-0.28964561223983765,0.0,0.0,0.0,0.0,0.0,0.0,0.0,-0.44780563683221647,-0.26312135808459414,-0.2080221764022988,0.6778201799838691,0.06901231247926419,0.14172306452555827,-0.3454267559242117,0.06228887267175473,0.6882704957577165,-0.07865484779042321,-1.6211006699277624,0.028162881289919218,2.2877787851218763,0.8466314040753576,0.06226373270833701,0.6884179775783729,-0.07863937525950354,-1.6210372792796082,0.028167345702647853,2.2878312372101677,0.8466366937888992,-0.00041628756049204806,-6.269651427529453e-05,-0.0005763138031303845,5.3217409823837066e-05,-5.118419933729441e-05,0.0003675266147087348,-0.0021681496062822794,0.0,0.0,0.0,0.0,0.0,0.0,0.0,-2.5139963417721012e-05,0.00014748182065638105,1.5472530919671823e-05,6.339064815419349e-05,4.464412728635153e-06,5.245208829141035e-05,5.289713541523078e-06,0.00041628756049204806,6.269651427529453e-05,0.0005763138031303845,-5.3217409823837066e-05,5.118419933729441e-05,-0.0003675266147087348,0.0021681496062822794,0.4505855441093445,47.07168197631836,1.0933501720428467,-21.074556350708008,-0.6475730538368225,-2.3330721855163574,0.28964561223983765,0
2,0.0049898624420166016,-0.4505855441093445,-47.07168197631836,-1.0933501720428467,21.074556350708008,0.6475730538368225,2.3330721855163574,-0.28964561223983765,0.0,0.0,0.0,0.0,0.0,0.0,0.0,-0.44780563683221647,-0.26312135808459414,-0.2080221764022988,0.6778201799838691,0.06901231247926419,0.14172306452555827,-0.3454267559242117,0.06228887267175473,0.6882704957577165,-0.07865484779042321,-1.6211006699277624,0.028162881289919218,2.2877787851218763,0.8466314040753576,0.06226373270833701,0.6884179775783729,-0.07863937525950354,-1.6210372792796082,0.028167345702647853,2.2878312372101677,0.8466366937888992,-0.00041628756049204806,-6.269651427529453e-05,-0.0005763138031303845,5.3217409823837066e-05,-5.118419933729441e-05,0.0003675266147087348,-0.0021681496062822794,0.0,0.0,0.0,0.0,0.0,0.0,0.0,-2.5139963417721012e-05,0.00014748182065638105,1.5472530919671823e-05,6.339064815419349e-05,4.464412728635153e-06,5.245208829141035e-05,5.289713541523078e-06,0.00041628756049204806,6.269651427529453e-05,0.0005763138031303845,-5.3217409823837066e-05,5.118419933729441e-05,-0.0003675266147087348,0.0021681496062822794,0.4505855441093445,47.07168197631836,1.0933501720428467,-21.074556350708008,-0.6475730538368225,-2.3330721855163574,0.28964561223983765,0
3,0.009990692138671875,-0.4267818331718445,-47.07168197631836,-1.0933501720428467,21.098360061645508,0.6475730538368225,2.3724398612976074,-0.34457725286483765,0.0,0.0,0.0,0.0,0.0,0.0,0.0,-0.4068520572786583,-0.28540342089917947,-0.17977345598284852,0.6886880703447665,0.06863206445523248,0.14109542527891974,-0.3448083511371493,0.062287202235899466,0.6882704957577219,-0.0786548565592708,-1.6211023403636193,0.028162881289919218,2.287774371690711,0.8466375075909827,0.06226373270833701,0.6884179775783729,-0.07863937525950354,-1.6210372792796082,0.028167345702647853,2.2878312372101677,0.8466366937888992,-8.377038929227072e-05,-0.00017272182120631907,0.0007308544522964469,-1.9451067445007702e-05,2.335644984207404e-05,-5.4204840763152944e-05,1.2516974321235415e-05,0.0,0.0,0.0,0.0,0.0,0.0,0.0,-2.3469527562457182e-05,0.00014748182065094095,1.548129976726431e-05,6.506108401116428e-05,4.464412728635153e-06,5.686551945682794e-05,-8.138020834991266e-07,8.377038929227072e-05,0.00017272182120631907,-0.0007308544522964469,1.9451067445007702e-05,-2.335644984207404e-05,5.4204840763152944e-05,-1.2516974321235415e-05,0.4267818331718445,47.07168197631836,1.0933501720428467,-21.098360061645508,-0.6475730538368225,-2.3724398612976074,0.34457725286483765,0
4,0.014990568161010742,-0.4267818331718445,-47.07168197631836,-1.0933501720428467,21.098360061645508,0.6475730538368225,2.3724398612976074,-0.34457725286483765,0.0,0.0,0.0,0.0,0.0,0.0,0.0,-0.4068520572786583,-0.28540342089917947,-0.17977345598284852,0.6886880703447665,0.06863206445523248,0.14109542527891974,-0.3448083511371493,0.062287202235899466,0.6882704957577219,-0.0786548565592708,-1.6211023403636193,0.028162881289919218,2.287774371690711,0.8466375075909827,0.06226373270833701,0.6884179775783729,-0.07863937525950354,-1.6210372792796082,0.028167345702647853,2.2878312372101677,0.8466366937888992,-8.377038929227072e-05,-0.00017272182120631907,0.0007308544522964469,-1.9451067445007702e-05,2.335644984207404e-05,-5.4204840763152944e-05,1.2516974321235415e-05,0.0,0.0,0.0,0.0,0.0,0.0,0.0,-2.3469527562457182e-05,0.00014748182065094095,1.548129976726431e-05,6.506108401116428e-05,4.464412728635153e-06,5.686551945682794e-05,-8.138020834991266e-07,8.377038929227072e-05,0.00017272182120631907,-0.0007308544522964469,1.9451067445007702e-05,-2.335644984207404e-05,5.4204840763152944e-05,-1.2516974321235415e-05,0.4267818331718445,47.07168197631836,1.0933501720428467,-21.098360061645508,-0.6475730538368225,-2.3724398612976074,0.34457725286483765,0
5,0.019989967346191406,-0.4505855441093445,-47.07168197631836,-1.0417754650115967,21.098360061645508,0.6539817452430725,2.3724398612976074,-0.31711143255233765,0.0,0.0,0.0,0.0,0.0,0.0,0.0,-0.43229616056847797,-0.26950255287059943,-0.19875947042056602,0.6788349562180912,0.06892328407633791,0.14239734509073784,-0.34407791005358573,0.06228887267175473,0.6882704957577219,-0.0786584670679776,-1.6211023403636193,0.028162169213096302,2.2877743964009913,0.846631276918782,0.06226373270833701,0.6884179775783729,-0.07863937525950354,-1.6210372792796082,0.028167345702647853,2.2878312372101677,0.8466366937888992,0.00011619726090602008,6.018787029895969e-05,-0.0005906248395989796,-0.0003845133064128497,-0.0002709049272911194,-0.00027565697760929575,-0.0013470455688308867,0.0,0.0,0.0,0.0,0.0,0.0,0.0,-2.5139963417721012e-05,0.00014748182065094095,1.909180847406433e-05,6.506108401116428e-05,5.176489551551172e-06,5.684080917633949e-05,5.4168701171253275e-06,-0.00011619726090602008,-6.018787029895969e-05,0.0005906248395989796,0.0003845133064128497,0.0002709049272911194,0.00027565697760929575,0.0013470455688308867,0.4505855441093445,47.07168197631836,1.0417754650115967,-21.098360061645508,-0.6539817452430725,-2.3724398612976074,0.31711143255233765,0
6,0.02499103546142578,-0.4505855441093445,-47.07168197631836,-1.0417754650115967,21.098360061645508,0.6539817452430725,2.3724398612976074,-0.31711143255233765,0.0,0.0,0.0,0.0,0.0,0.0,0.0,-0.43229616056847797,-0.26950255287059943,-0.19875947042056602,0.6788349562180912,0.06892328407633791,0.14239734509073784,-0.34407791005358573,0.06228887267175473,0.6882704957577219,-0.0786584670679776,-1.6211023403636193,0.028162169213096302,2.2877743964009913,0.846631276918782,0.06226373270833701,0.6884179775783729,-0.07863937525950354,-1.6210372792796082,0.028167345702647853,2.2878312372101677,0.8466366937888992,0.00011619726090602008,6.018787029895969e-05,-0.0005906248395989796,-0.0003845133064128497,-0.0002709049272911194,-0.00027565697760929575,-0.0013470455688308867,0.0,0.0,0.0,0.0,0.0,0.0,0.0,-2.5139963417721012e-05,0.00014748182065094095,1.909180847406433e-05,6.506108401116428e-05,5.176489551551172e-06,5.684080917633949e-05,5.4168701171253275e-06,-0.00011619726090602008,-6.018787029895969e-05,0.0005906248395989796,0.0003845133064128497,0.0002709049272911194,0.00027565697760929575,0.0013470455688308867,0.4505855441093445,47.07168197631836,1.0417754650115967,-21.098360061645508,-0.6539817452430725,-2.3724398612976074,0.31711143255233765,0
7,0.029992103576660156,-0.4029781222343445,-47.02010726928711,-1.0695464611053467,21.074556350708008,0.6420798897743225,2.3660311698913574,-0.35831016302108765,0.0,0.0,0.0,0.0,0.0,0.0,0.0,-0.42623138064205374,-0.25794599646863925,-0.1957842253928123,0.6743901372176749,0.06918704524971045,0.14232041354708175,-0.3438466885088484,0.0622855318000442,0.6882668761529868,-0.07865659714709482,-1.6211006699277641,0.028163491641481717,2.2877751167144265,0.8466390334160537,0.06226373270833701,0.6884179775783729,-0.07863937525950354,-1.6210372792796082,0.028167345702647853,2.2878312372101677,0.8466366937888992,-0.00028090302957406687,-0.00023163309336912292,-0.00033453775116487063,0.000371470718412435,0.00029195554875110325,-0.0007218461517662423,0.0007046504866723768,0.0,0.0,0.0,0.0,0.0,0.0,0.0,-2.1799091707193352e-05,0.00015110142538610205,1.7221887591276075e-05,6.339064815596984e-05,3.854061166135708e-06,5.612049574121869e-05,-2.339627154568369e-06,0.00028090302957406687,0.00023163309336912292,0.00033453775116487063,-0.000371470718412435,-0.00029195554875110325,0.0007218461517662423,-0.0007046504866723768,0.4029781222343445,47.02010726928711,1.0695464611053467,-21.074556350708008,-0.6420798897743225,-2.3660311698913574,0.35831016302108765,0
8,0.035002946853637695,-0.4029781222343445,-47.02010726928711,-1.0695464611053467,21.074556350708008,0.6420798897743225,2.3660311698913574,-0.35831016302108765,0.0,0.0,0.0,0.0,0.0,0.0,0.0,-0.42623138064205374,-0.25794599646863925,-0.1957842253928123,0.6743901372176749,0.06918704524971045,0.14232041354708175,-0.3438466885088484,0.0622855318000442,0.6882668761529868,-0.07865659714709482,-1.6211006699277641,0.028163491641481717,2.2877751167144265,0.8466390334160537,0.06226373270833701,0.6884179775783729,-0.07863937525950354,-1.6210372792796082,0.028167345702647853,2.2878312372101677,0.8466366937888992,-0.00028090302957406687,-0.00023163309336912292,-0.00033453775116487063,0.000371470718412435,0.00029195554875110325,-0.0007218461517662423,0.0007046504866723768,0.0,0.0,0.0,0.0,0.0,0.0,0.0,-2.1799091707193352e-05,0.00015110142538610205,1.7221887591276075e-05,6.339064815596984e-05,3.854061166135708e-06,5.612049574121869e-05,-2.339627154568369e-06,0.00028090302957406687,0.00023163309336912292,0.00033453775116487063,-0.000371470718412435,-0.00029195554875110325,0.0007218461517662423,-0.0007046504866723768,0.4029781222343445,47.02010726928711,1.0695464611053467,-21.074556350708008,-0.6420798897743225,-2.3660311698913574,0.35831016302108765,0
9,0.03999614715576172,-0.3752071261405945,-47.04787826538086,-1.0179717540740967,21.098360061645508,0.6475730538368225,2.3724398612976074,-0.34457725286483765,0.0,0.0,0.0,0.0,0.0,0.0,0.0,-0.412905357776575,-0.2695841290555303,-0.1888806676087821,0.6832614905718001,0.06949444502168123,0.1421962007282312,-0.3427002435421342,0.06228358295821306,0.6882688253218661,-0.07866013750396487,-1.6211023403636193,0.028162881289919218,2.287773349791041,0.8466375075909826,0.06226373270833701,0.6884179775783729,-0.07863937525950354,-1.6210372792796082,0.028167345702647853,2.2878312372101677,0.8466366937888992,-0.00035680297799192787,0.0005542864469582667,4.069011713968175e-05,-0.00039581508338521767,-0.00010761034524317466,-0.0003114509770965073,-0.0005154090625840412,0.0,0.0,0.0,0.0,0.0,0.0,0.0,-1.9850249876052217e-05,0.00014915225650680153,2.076224446133368e-05,6.506108401116428e-05,4.464412728635153e-06,5.7887419126601e-05,-8.138020833881043e-07,0.00035680297799192787,-0.0005542864469582667,-4.069011713968175e-05,0.00039581508338521767,0.00010761034524317466,0.0003114509770965073,0.0005154090625840412,0.3752071261405945,47.04787826538086,1.0179717540740967,-21.098360061645508,-0.6475730538368225,-2.3724398612976074,0.34457725286483765,0
10,0.04499936103820801,-0.3752071261405945,-47.04787826538086,-1.0179717540740967,21.098360061645508,0.6475730538368225,2.3724398612976074,-0.34457725286483765,0.0,0.0,0.0,0.0,0.0,0.0,0.0,-0.412905357776575,-0.2695841290555303,-0.1888806676087821,0.6832614905718001,0.06949444502168123,0.1421962007282312,-0.3427002435421342,0.06228358295821306,0.6882688253218661,-0.07866013750396487,-1.6211023403636193,0.028162881289919218,2.287773349791041,0.8466375075909826,0.06226373270833701,0.6884179775783729,-0.07863937525950354,-1.6210372792796082,0.028167345702647853,2.2878312372101677,0.8466366937888992,-0.00035680297799192787,0.0005542864469582667,4.069011713968175e-05,-0.00039581508338521767,-0.00010761034524317466,-0.0003114509770965073,-0.0005154090625840412,0.0,0.0,0.0,0.0,0.0,0.0,0.0,-1.9850249876052217e-05,0.00014915225650680153,2.076224446133368e-05,6.506108401116428e-05,4.464412728635153e-06,5.7887419126601e-05,-8.138020833881043e-07,0.00035680297799192787,-0.0005542864469582667,-4.069011713968175e-05,0.00039581508338521767,0.00010761034524317466,0.0003114509770965073,0.0005154090625840412,0.3752071261405945,47.04787826538086,1.0179717540740967,-21.098360061645508,-0.6475730538368225,-2.3724398612976074,0.34457725286483765,0
11,0.05011558532714844,-0.4267818331718445,-47.07168197631836,-1.1171538829803467,21.122163772583008,0.6475730538368225,2.3596224784851074,-0.39218467473983765,0.0,0.0,0.0,0.0,0.0,0.0,0.0,-0.45495874968068667,-0.27163082396814003,-0.21686432274618372,0.6840898076510101,0.06976875533230134,0.14295602098047008,-0.34400562934789375,0.062287202235899466,0.6882704957577219,-0.07865317735441944,-1.6211040107994747,0.028162881289919218,2.2877726547162847,0.8466427973045243,0.06226373270833701,0.6884179775783729,-0.07863937525950354,-1.6210372792796082,0.028167345702647853,2.2878312372101677,0.8466366937888992,5.905007926302858e-06,0.0006483227435663869,0.0006789626945624372,-0.0008668743635921813,5.004491959963748e-05,-0.00012039750880918525,0.0019441214843829958,0.0,0.0,0.0,0.0,0.0,0.0,0.0,-2.3469527562457182e-05,0.00014748182065094095,1.3802094915901786e-05,6.673151986658077e-05,4.464412728635153e-06,5.858249388301928e-05,-6.103515625133227e-06,-5.905007926302858e-06,-0.0006483227435663869,-0.0006789626945624372,0.0008668743635921813,-5.004491959963748e-05,0.00012039750880918525,-0.0019441214843829958,0.4267818331718445,47.07168197631836,1.1171538829803467,-21.122163772583008,-0.6475730538368225,-2.3596224784851074,0.39218467473983765,0
12,0.054944515228271484,-0.4267818331718445,-47.07168197631836,-1.1171538829803467,21.122163772583008,0.6475730538368225,2.3596224784851074,-0.39218467473983765,0.0,0.0,0.0,0.0,0.0,0.0,0.0,-0.45495874968068667,-0.27163082396814003,-0.21686432274618372,0.6840898076510101,0.06976875533230134,0.14295602098047008,-0.34400562934789375,0.062287202235899466,0.6882704957577219,-0.07865317735441944,-1.6211040107994747,0.028162881289919218,2.2877726547162847,0.8466427973045243,0.06226373270833701,0.6884179775783729,-0.07863937525950354,-1.6210372792796082,0.028167345702647853,2.2878312372101677,0.8466366937888992,5.905007926302858e-06,0.0006483227435663869,0.0006789626945624372,-0.0008668743635921813,5.004491959963748e-05,-0.00012039750880918525,0.0019441214843829958,0.0,0.0,0.0,0.0,0.0,0.0,0.0,-2.3469527562457182e-05,0.00014748182065094095,1.3802094915901786e-05,6.673151986658077e-05,4.464412728635153e-06,5.858249388301928e-05,-6.103515625133227e-06,-5.905007926302858e-06,-0.0006483227435663869,-0.0006789626945624372,0.0008668743635921813,-5.004491959963748e-05,0.00012039750880918525,-0.0019441214843829958,0.4267818331718445,47.07168197631836,1.1171538829803467,-21.122163772583008,-0.6475730538368225,-2.3596224784851074,0.39218467473983765,0
13,0.059990644454956055,-0.4029781222343445,-47.09548568725586,-1.0695464611053467,21.098360061645508,0.6420798897743225,2.3660311698913574,-0.32352012395858765,0.0,0.0,0.0,0.0,0.0,0.0,0.0,-0.4070823084217335,-0.27087145847632754,-0.1855401877063858,0.6866854098460643,0.06965539736990485,0.1426278759003099,-0.34494506649534,0.0622855318000442,0.6882721661935771,-0.07865651822612997,-1.6211023403636193,0.028163531101964137,2.2877746126377954,0.846635167909993,0.06226373270833701,0.6884179775783729,-0.07863937525950354,-1.6210372792796082,0.028167345702647853,2.2878312372101677,0.8466366937888992,0.00024860108314268093,0.0010580630439665794,8.109437983268384e-05,0.0001532431692401764,0.00027277964903457333,-9.721299262109763e-06,-0.0006206435106286156,0.0,0.0,0.0,0.0,0.0,0.0,0.0,-2.1799091707193352e-05,0.0001458113847957465,1.7142966626429446e-05,6.506108401116428e-05,3.814600683715863e-06,5.6624572372321325e-05,1.5258789061167732e-06,-0.00024860108314268093,-0.0010580630439665794,-8.109437983268384e-05,-0.0001532431692401764,-0.00027277964903457333,9.721299262109763e-06,0.0006206435106286156,0.4029781222343445,47.09548568725586,1.0695464611053467,-21.098360061645508,-0.6420798897743225,-2.3660311698913574,0.32352012395858765,0
14,0.06499052047729492,-0.4029781222343445,-47.09548568725586,-1.0695464611053467,21.098360061645508,0.6420798897743225,2.3660311698913574,-0.32352012395858765,0.0,0.0,0.0,0.0,0.0,0.0,0.0,-0.4070823084217335,-0.27087145847632754,-0.1855401877063858,0.6866854098460643,0.06965539736990485,0.1426278759003099,-0.34494506649534,0.0622855318000442,0.6882721661935771,-0.07865651822612997,-1.6211023403636193,0.028163531101964137,2.2877746126377954,0.846635167909993,0.06226373270833701,0.6884179775783729,-0.07863937525950354,-1.6210372792796082,0.028167345702647853,2.2878312372101677,0.8466366937888992,0.00024860108314268093,0.0010580630439665794,8.109437983268384e-05,0.0001532431692401764,0.00027277964903457333,-9.721299262109763e-06,-0.0006206435106286156,0.0,0.0,0.0,0.0,0.0,0.0,0.0,-2.1799091707193352e-05,0.0001458113847957465,1.7142966626429446e-05,6.506108401116428e-05,3.814600683715863e-06,5.6624572372321325e-05,1.5258789061167732e-06,-0.00024860108314268093,-0.0010580630439665794,-8.109437983268384e-05,-0.0001532431692401764,-0.00027277964903457333,9.721299262109763e-06,0.0006206435106286156,0.4029781222343445,47.09548568725586,1.0695464611053467,-21.098360061645508,-0.6420798897743225,-2.3660311698913574,0.32352012395858765,0
15,0.06999015808105469,-0.4267818331718445,-47.04787826538086,-1.0695464611053467,21.122163772583008,0.6356711983680725,2.3724398612976074,-0.33725303411483765,0.0,0.0,0.0,0.0,0.0,0.0,0.0,-0.40150188325062636,-0.26786831917745013,-0.18426181200689745,0.6833813679803485,0.06967082132978533,0.14273041296550357,-0.34478445489390525,0.062287202235899466,0.6882688253218666,-0.07865651826221637,-1.6211040196297926,0.028164203718527386,2.2877697653871003,0.8466366937888993,0.06226373270833701,0.6884179775783729,-0.07863937525950354,-1.6210372792796082,0.028167345702647853,2.2878312372101677,0.8466366937888992,0.0006318795054028864,-0.00046691698984144975,0.0011217829846620119,-0.0007472733388215723,0.0005382392650205638,-0.00029886584604584075,2.5275147512396095e-05,0.0,0.0,0.0,0.0,0.0,0.0,0.0,-2.3469527562457182e-05,0.00014915225650624642,1.7143002712827204e-05,6.674035018439106e-05,3.141984120467317e-06,6.147182306737164e-05,-1.1102230246251565e-16,-0.0006318795054028864,0.00046691698984144975,-0.0011217829846620119,0.0007472733388215723,-0.0005382392650205638,0.00029886584604584075,-2.5275147512396095e-05,0.4267818331718445,47.04787826538086,1.0695464611053467,-21.122163772583008,-0.6356711983680725,-2.3724398612976074,0.33725303411483765,0
16,0.07499337196350098,-0.4267818331718445,-47.04787826538086,-1.0695464611053467,21.122163772583008,0.6356711983680725,2.3724398612976074,-0.33725303411483765,0.0,0.0,0.0,0.0,0.0,0.0,0.0,-0.40150188325062636,-0.26786831917745013,-0.18426181200689745,0.6833813679803485,0.06967082132978533,0.14273041296550357,-0.34478445489390525,0.062287202235899466,0.6882688253218666,-0.07865651826221637,-1.6211040196297926,0.028164203718527386,2.2877697653871003,0.8466366937888993,0.06226373270833701,0.6884179775783729,-0.07863937525950354,-1.6210372792796082,0.028167345702647853,2.2878312372101677,0.8466366937888992,0.0006318795054028864,-0.00046691698984144975,0.0011217829846620119,-0.0007472733388215723,0.0005382392650205638,-0.00029886584604584075,2.5275147512396095e-05,0.0,0.0,0.0,0.0,0.0,0.0,0.0,-2.3469527562457182e-05,0.00014915225650624642,1.7143002712827204e-05,6.674035018439106e-05,3.141984120467317e-06,6.147182306737164e-05,-1.1102230246251565e-16,-0.0006318795054028864,0.00046691698984144975,-0.0011217829846620119,0.0007472733388215723,-0.0005382392650205638,0.00029886584604584075,-2.5275147512396095e-05,0.4267818331718445,47.04787826538086,1.0695464611053467,-21.122163772583008,-0.6356711983680725,-2.3724398612976074,0.33725303411483765,0
17,0.07999062538146973,-0.4267818331718445,-47.04787826538086,-1.0695464611053467,21.122163772583008,0.6356711983680725,2.3724398612976074,-0.33725303411483765,0.0,0.0,0.0,0.0,0.0,0.0,0.0,-0.40150188325062636,-0.26786831917745013,-0.18426181200689745,0.6833813679803485,0.06967082132978533,0.14273041296550357,-0.34478445489390525,0.062287202235899466,0.6882688253218666,-0.07865651826221637,-1.6211040196297926,0.028164203718527386,2.2877697653871003,0.8466366937888993,0.06226373270833701,0.6884179775783729,-0.07863937525950354,-1.6210372792796082,0.028167345702647853,2.2878312372101677,0.8466366937888992,0.0006318795054028864,-0.00046691698984144975,0.0011217829846620119,-0.0007472733388215723,0.0005382392650205638,-0.00029886584604584075,2.5275147512396095e-05,0.0,0.0,0.0,0.0,0.0,0.0,0.0,-2.3469527562457182e-05,0.00014915225650624642,1.7143002712827204e-05,6.674035018439106e-05,3.141984120467317e-06,6.147182306737164e-05,-1.1102230246251565e-16,-0.0006318795054028864,0.00046691698984144975,-0.0011217829846620119,0.0007472733388215723,-0.0005382392650205638,0.00029886584604584075,-2.5275147512396095e-05,0.4267818331718445,47.04787826538086,1.0695464611053467,-21.122163772583008,-0.6356711983680725,-2.3724398612976074,0.33725303411483765,0
18,0.08498859405517578,-0.4267818331718445,-47.07168197631836,-1.0933501720428467,21.046785354614258,0.6539817452430725,2.3660311698913574,-0.30978721380233765,0.0,0.0,0.0,0.0,0.0,0.0,0.0,-0.4379644207383842,-0.25671221406119427,-0.2091644892752712,0.6744121156697883,0.06952897820795051,0.14176803856722003,-0.3439015826187834,0.062287211015115834,0.6882704957577219,-0.07865484811505255,-1.6210987210859826,0.028162169213096302,2.2877707621749224,0.8466336420310868,0.06226373270833701,0.6884179775783729,-0.07863937525950354,-1.6210372792796082,0.028167345702647853,2.2878312372101677,0.8466366937888992,-0.0002291718242545703,0.0007933082502067609,0.00039135289401871055,0.0007427961628152414,-0.00021793739205838684,-0.00040402291985577784,-0.0015988628594265334,0.0,0.0,0.0,0.0,0.0,0.0,0.0,-2.3478306778824953e-05,0.00014748182065094095,1.5472855549009124e-05,6.144180637446262e-05,5.176489551551172e-06,6.047503524531095e-05,3.0517578123445688e-06,0.0002291718242545703,-0.0007933082502067609,-0.00039135289401871055,-0.0007427961628152414,0.00021793739205838684,0.00040402291985577784,0.0015988628594265334,0.4267818331718445,47.07168197631836,1.0933501720428467,-21.046785354614258,-0.6539817452430725,-2.3660311698913574,0.30978721380233765,0
19,0.08999443054199219,-0.4267818331718445,-47.07168197631836,-1.0933501720428467,21.046785354614258,0.6539817452430725,2.3660311698913574,-0.30978721380233765,0.0,0.0,0.0,0.0,0.0,0.0,0.0,-0.4379644207383842,-0.25671221406119427,-0.2091644892752712,0.6744121156697883,0.06952897820795051,0.14176803856722003,-0.3439015826187834,0.062287211015115834,0.6882704957577219,-0.07865484811505255,-1.6210987210859826,0.028162169213096302,2.2877707621749224,0.8466336420310868,0.06226373270833701,0.6884179775783729,-0.07863937525950354,-1.6210372792796082,0.028167345702647853,2.2878312372101677,0.8466366937888992,-0.0002291718242545703,0.0007933082502067609,0.00039135289401871055,0.0007427961628152414,-0.00021793739205838684,-0.00040402291985577784,-0.0015988628594265334,0.0,0.0,0.0,0.0,0.0,0.0,0.0,-2.3478306778824953e-05,0.00014748182065094095,1.5472855549009124e-05,6.144180637446262e-05,5.176489551551172e-06,6.047503524531095e-05,3.0517578123445688e-06,0.0002291718242545703,-0.0007933082502067609,-0.00039135289401871055,-0.0007427961628152414,0.00021793739205838684,0.00040402291985577784,0.0015988628594265334,0.4267818331718445,47.07168197631836,1.0933501720428467,-21.046785354614258,-0.6539817452430725,-2.3660311698913574,0.30978721380233765,0
20,0.0950005054473877,-0.4267818331718445,-46.99630355834961,-1.1171538829803467,21.074556350708008,0.6475730538368225,2.3660311698913574,-0.36471885442733765,0.0,0.0,0.0,0.0,0.0,0.0,0.0,-0.4218657530770716,-0.25869723188480054,-0.19894669732419817,0.67394903822977,0.06928272141005669,0.14224707735297873,-0.3448759125686674,0.062287202235949024,0.6882652060441803,-0.07865317735442127,-1.6211006699277641,0.028162881289919218,2.2877708407759134,0.8466397455467118,0.06226373270833701,0.6884179775783729,-0.07863937525950354,-1.6210372792796082,0.028167345702647853,2.2878312372101677,0.8466366937888992,2.281062006772434e-05,-0.0008921813905999876,0.00027074572307005785,7.231626199295384e-05,8.830829007078072e-05,0.00015511768205883836,0.0008868064191602919,0.0,0.0,0.0,0.0,0.0,0.0,0.0,-2.3469527612014762e-05,0.00015277153419257505,1.3802094917733654e-05,6.339064815596984e-05,4.464412728635153e-06,6.039643425426178e-05,-3.0517578126776357e-06,-2.281062006772434e-05,0.0008921813905999876,-0.00027074572307005785,-7.231626199295384e-05,-8.830829007078072e-05,-0.00015511768205883836,-0.0008868064191602919,0.4267818331718445,46.99630355834961,1.1171538829803467,-21.074556350708008,-0.6475730538368225,-2.3660311698913574,0.36471885442733765,0
21,0.10021805763244629,-0.4267818331718445,-46.99630355834961,-1.1171538829803467,21.074556350708008,0.6475730538368225,2.3660311698913574,-0.36471885442733765,0.0,0.0,0.0,0.0,0.0,0.0,0.0,-0.4218657530770716,-0.25869723188480054,-0.19894669732419817,0.67394903822977,0.06928272141005669,0.14224707735297873,-0.3448759125686674,0.062287202235949024,0.6882652060441803,-0.07865317735442127,-1.6211006699277641,0.028162881289919218,2.2877708407759134,0.8466397455467118,0.06226373270833701,0.6884179775783729,-0.07863937525950354,-1.6210372792796082,0.028167345702647853,2.2878312372101677,0.8466366937888992,2.281062006772434e-05,-0.0008921813905999876,0.00027074572307005785,7.231626199295384e-05,8.830829007078072e-05,0.00015511768205883836,0.0008868064191602919,0.0,0.0,0.0,0.0,0.0,0.0,0.0,-2.3469527612014762e-05,0.00015277153419257505,1.3802094917733654e-05,6.339064815596984e-05,4.464412728635153e-06,6.039643425426178e-05,-3.0517578126776357e-06,-2.281062006772434e-05,0.0008921813905999876,-0.00027074572307005785,-7.231626199295384e-05,-8.830829007078072e-05,-0.00015511768205883836,-0.0008868064191602919,0.4267818331718445,46.99630355834961,1.1171538829803467,-21.074556350708008,-0.6475730538368225,-2.3660311698913574,0.36471885442733765,0
22,0.10499691963195801,-0.4783565402030945,-47.02010726928711,-1.0695464611053467,21.074556350708008,0.6539817452430725,2.3522982597351074,-0.36471885442733765,0.0,0.0,0.0,0.0,0.0,0.0,0.0,-0.41844422438779577,-0.2684078099039856,-0.19823880191466692,0.6805838331756658,0.06996371624962285,0.14339639746793179,-0.344752999165212,0.06229082151358587,0.6882668764800355,-0.07865652991812476,-1.6211006699277641,0.028162169213096302,2.287773111842023,0.8466397455467118,0.06226373270833701,0.6884179775783729,-0.07863937525950354,-1.6210372792796082,0.028167345702647853,2.2878312372101677,0.8466366937888992,0.0009596136766342878,-0.00021641859007736855,8.658258147146961e-05,0.00037181770576032744,-0.0002568683096454242,-0.00014376211646823073,0.0012754983207777454,0.0,0.0,0.0,0.0,0.0,0.0,0.0,-2.7088805248862147e-05,0.0001511010983373806,1.7154658621218455e-05,6.339064815596984e-05,5.176489551551172e-06,5.8125368144867906e-05,-3.0517578126776357e-06,-0.0009596136766342878,0.00021641859007736855,-8.658258147146961e-05,-0.00037181770576032744,0.0002568683096454242,0.00014376211646823073,-0.0012754983207777454,0.4783565402030945,47.02010726928711,1.0695464611053467,-21.074556350708008,-0.6539817452430725,-2.3522982597351074,0.36471885442733765,0
23,0.10999393463134766,-0.4783565402030945,-47.02010726928711,-1.0695464611053467,21.074556350708008,0.6539817452430725,2.3522982597351074,-0.36471885442733765,0.0,0.0,0.0,0.0,0.0,0.0,0.0,-0.41844422438779577,-0.2684078099039856,-0.19823880191466692,0.6805838331756658,0.06996371624962285,0.14339639746793179,-0.344752999165212,0.06229082151358587,0.6882668764800355,-0.07865652991812476,-1.6211006699277641,0.028162169213096302,2.287773111842023,0.8466397455467118,0.06226373270833701,0.6884179775783729,-0.07863937525950354,-1.6210372792796082,0.028167345702647853,2.2878312372101677,0.8466366937888992,0.0009596136766342878,-0.00021641859007736855,8.658258147146961e-05,0.00037181770576032744,-0.0002568683096454242,-0.00014376211646823073,0.0012754983207777454,0.0,0.0,0.0,0.0,0.0,0.0,0.0,-2.7088805248862147e-05,0.0001511010983373806,1.7154658621218455e-05,6.339064815596984e-05,5.176489551551172e-06,5.8125368144867906e-05,-3.0517578126776357e-06,-0.0009596136766342878,0.00021641859007736855,-8.658258147146961e-05,-0.00037181770576032744,0.0002568683096454242,0.00014376211646823073,-0.0012754983207777454,0.4783565402030945,47.02010726928711,1.0695464611053467,-21.074556350708008,-0.6539817452430725,-2.3522982597351074,0.36471885442733765,0
24,0.11499500274658203,-0.4783565402030945,-47.07168197631836,-1.0933501720428467,21.122163772583008,0.6475730538368225,2.3660311698913574,-0.35831016302108765,0.0,0.0,0.0,0.0,0.0,0.0,0.0,-0.42993112318572035,-0.27928787138675704,-0.20308404372987088,0.686794584569365,0.06978947462401137,0.14221297985765985,-0.3438308617039646,0.06229082151358587,0.6882704957577219,-0.07865484779034071,-1.6211040107994747,0.028162881289919218,2.287770765249786,0.8466390334698889,0.06226373270833701,0.6884179775783729,-0.07863937525950354,-1.6210372792796082,0.028167345702647853,2.2878312372101677,0.8466366937888992,0.0007296985871948754,0.0003634347686538237,0.00029002947002503357,-0.0009414585168141515,-7.747642007313416e-05,-0.00031064619137046644,-0.002061960345841745,0.0,0.0,0.0,0.0,0.0,0.0,0.0,-2.7088805248862147e-05,0.00014748182065094095,1.5472530837168375e-05,6.673151986658077e-05,4.464412728635153e-06,6.0471960381836e-05,-2.339680989726922e-06,-0.0007296985871948754,-0.0003634347686538237,-0.00029002947002503357,0.0009414585168141515,7.747642007313416e-05,0.00031064619137046644,0.002061960345841745,0.4783565402030945,47.07168197631836,1.0933501720428467,-21.122163772583008,-0.6475730538368225,-2.3660311698913574,0.35831016302108765,0
25,0.11999344825744629,-0.4783565402030945,-47.07168197631836,-1.0933501720428467,21.122163772583008,0.6475730538368225,2.3660311698913574,-0.35831016302108765,0.0,0.0,0.0,0.0,0.0,0.0,0.0,-0.42993112318572035,-0.27928787138675704,-0.20308404372987088,0.686794584569365,0.06978947462401137,0.14221297985765985,-0.3438308617039646,0.06229082151358587,0.6882704957577219,-0.07865484779034071,-1.6211040107994747,0.028162881289919218,2.287770765249786,0.8466390334698889,0.06226373270833701,0.6884179775783729,-0.07863937525950354,-1.6210372792796082,0.028167345702647853,2.2878312372101677,0.8466366937888992,0.0007296985871948754,0.0003634347686538237,0.00029002947002503357,-0.0009414585168141515,-7.747642007313416e-05,-0.00031064619137046644,-0.002061960345841745,0.0,0.0,0.0,0.0,0.0,0.0,0.0,-2.7088805248862147e-05,0.00014748182065094095,1.5472530837168375e-05,6.673151986658077e-05,4.464412728635153e-06,6.0471960381836e-05,-2.339680989726922e-06,-0.0007296985871948754,-0.0003634347686538237,-0.00029002947002503357,0.0009414585168141515,7.747642007313416e-05,0.00031064619137046644,0.002061960345841745,0.4783565402030945,47.07168197631836,1.0933501720428467,-21.122163772583008,-0.6475730538368225,-2.3660311698913574,0.35831016302108765,0
26,0.12499523162841797,-0.4783565402030945,-47.07168197631836,-1.0933501720428467,21.122163772583008,0.6475730538368225,2.3660311698913574,-0.35831016302108765,0.0,0.0,0.0,0.0,0.0,0.0,0.0,-0.42993112318572035,-0.27928787138675704,-0.20308404372987088,0.686794584569365,0.06978947462401137,0.14221297985765985,-0.3438308617039646,0.06229082151358587,0.6882704957577219,-0.07865484779034071,-1.6211040107994747,0.028162881289919218,2.287770765249786,0.8466390334698889,0.06226373270833701,0.6884179775783729,-0.07863937525950354,-1.6210372792796082,0.028167345702647853,2.2878312372101677,0.8466366937888992,0.0007296985871948754,0.0003634347686538237,0.00029002947002503357,-0.0009414585168141515,-7.747642007313416e-05,-0.00031064619137046644,-0.002061960345841745,0.0,0.0,0.0,0.0,0.0,0.0,0.0,-2.7088805248862147e-05,0.00014748182065094095,1.5472530837168375e-05,6.673151986658077e-05,4.464412728635153e-06,6.0471960381836e-05,-2.339680989726922e-06,-0.0007296985871948754,-0.0003634347686538237,-0.00029002947002503357,0.0009414585168141515,7.747642007313416e-05,0.00031064619137046644,0.002061960345841745,0.4783565402030945,47.07168197631836,1.0933501720428467,-21.122163772583008,-0.6475730538368225,-2.3660311698913574,0.35831016302108765,0
27,0.12999486923217773,-0.4783565402030945,-47.07168197631836,-1.0933501720428467,21.122163772583008,0.6475730538368225,2.3660311698913574,-0.35831016302108765,0.0,0.0,0.0,0.0,0.0,0.0,0.0,-0.42993112318572035,-0.27928787138675704,-0.20308404372987088,0.686794584569365,0.06978947462401137,0.14221297985765985,-0.3438308617039646,0.06229082151358587,0.6882704957577219,-0.07865484779034071,-1.6211040107994747,0.028162881289919218,2.287770765249786,0.8466390334698889,0.06226373270833701,0.6884179775783729,-0.07863937525950354,-1.6210372792796082,0.028167345702647853,2.2878312372101677,0.8466366937888992,0.0007296985871948754,0.0003634347686538237,0.00029002947002503357,-0.0009414585168141515,-7.747642007313416e-05,-0.00031064619137046644,-0.002061960345841745,0.0,0.0,0.0,0.0,0.0,0.0,0.0,-2.7088805248862147e-05,0.00014748182065094095,1.5472530837168375e-05,6.673151986658077e-05,4.464412728635153e-06,6.0471960381836e-05,-2.339680989726922e-06,-0.0007296985871948754,-0.0003634347686538237,-0.00029002947002503357,0.0009414585168141515,7.747642007313416e-05,0.00031064619137046644,0.002061960345841745,0.4783565402030945,47.07168197631836,1.0933501720428467,-21.122163772583008,-0.6475730538368225,-2.3660311698913574,0.35831016302108765,0
28,0.1349945068359375,-0.4029781222343445,-47.07168197631836,-1.0695464611053467,21.098360061645508,0.6420798897743225,2.3724398612976074,-0.31711143255233765,0.0,0.0,0.0,0.0,0.0,0.0,0.0,-0.4171569119447984,-0.27350083885695653,-0.19242467726077028,0.6840602776853044,0.0689582186718042,0.14287974391726999,-0.3440779602252038,0.0622855318000442,0.6882704957577219,-0.07865651822612997,-1.6211023403636193,0.028163491641481717,2.2877742539285415,0.8466344558331701,0.06226373270833701,0.6884179775783729,-0.07863937525950354,-1.6210372792796082,0.028167345702647853,2.2878312372101677,0.8466366937888992,-0.000598736558913602,-4.302205714437655e-05,-1.1762707363802801e-05,6.42607342385517e-05,0.00024463240225792125,3.861126802942113e-06,-0.0008587343456756258,0.0,0.0,0.0,0.0,0.0,0.0,0.0,-2.1799091707193352e-05,0.00014748182065094095,1.7142966626429446e-05,6.506108401116428e-05,3.854061166135708e-06,5.6983281626177273e-05,2.2379557290674867e-06,0.000598736558913602,4.302205714437655e-05,1.1762707363802801e-05,-6.42607342385517e-05,-0.00024463240225792125,-3.861126802942113e-06,0.0008587343456756258,0.4029781222343445,47.07168197631836,1.0695464611053467,-21.098360061645508,-0.6420798897743225,-2.3724398612976074,0.31711143255233765,0
29,0.14024138450622559,-0.4029781222343445,-47.07168197631836,-1.0695464611053467,21.098360061645508,0.6420798897743225,2.3724398612976074,-0.31711143255233765,0.0,0.0,0.0,0.0,0.0,0.0,0.0,-0.4171569119447984,-0.27350083885695653,-0.19242467726077028,0.6840602776853044,0.0689582186718042,0.14287974391726999,-0.3440779602252038,0.0622855318000442,0.6882704957577219,-0.07865651822612997,-1.6211023403636193,0.028163491641481717,2.2877742539285415,0.8466344558331701,0.06226373270833701,0.6884179775783729,-0.07863937525950354,-1.6210372792796082,0.028167345702647853,2.2878312372101677,0.8466366937888992,-0.000598736558913602,-4.302205714437655e-05,-1.1762707363802801e-05,6.42607342385517e-05,0.00024463240225792125,3.861126802942113e-06,-0.0008587343456756258,0.0,0.0,0.0,0.0,0.0,0.0,0.0,-2.1799091707193352e-05,0.00014748182065094095,1.7142966626429446e-05,6.506108401116428e-05,3.854061166135708e-06,5.6983281626177273e-05,2.2379557290674867e-06,0.000598736558913602,4.302205714437655e-05,1.1762707363802801e-05,-6.42607342385517e-05,-0.00024463240225792125,-3.861126802942113e-06,0.0008587343456756258,0.4029781222343445,47.07168197631836,1.0695464611053467,-21.098360061645508,-0.6420798897743225,-2.3724398612976074,0.31711143255233765,0
30,0.14499425888061523,-0.4505855441093445,-47.04787826538086,-1.0179717540740967,21.074556350708008,0.6475730538368225,2.3596224784851074,-0.31711143255233765,0.0,0.0,0.0,0.0,0.0,0.0,0.0,-0.42469686477640695,-0.257207137643506,-0.1969801453613785,0.6734396911686692,0.06899344673464895,0.14241419601320524,-0.34388070605401444,0.06228887267175473,0.6882688253218666,-0.07866013750381637,-1.6211006699277641,0.028162881289919218,2.287775834550975,0.8466344558331701,0.06226373270833701,0.6884179775783729,-0.07863937525950354,-1.6210372792796082,0.028167345702647853,2.2878312372101677,0.8466366937888992,0.000508474882828743,-0.0001892320096649889,-0.0007032161008147455,0.00044110486552161916,0.00013383463801679805,-0.00032070745890251266,-0.0011375185647583648,0.0,0.0,0.0,0.0,0.0,0.0,0.0,-2.5139963417721012e-05,0.00014915225650624642,2.076224431282747e-05,6.339064815596984e-05,4.464412728635153e-06,5.5402659192793635e-05,2.2379557290674867e-06,-0.000508474882828743,0.0001892320096649889,0.0007032161008147455,-0.00044110486552161916,-0.00013383463801679805,0.00032070745890251266,0.0011375185647583648,0.4505855441093445,47.04787826538086,1.0179717540740967,-21.074556350708008,-0.6475730538368225,-2.3596224784851074,0.31711143255233765,0
31,0.14994454383850098,-0.4505855441093445,-47.04787826538086,-1.0179717540740967,21.074556350708008,0.6475730538368225,2.3596224784851074,-0.31711143255233765,0.0,0.0,0.0,0.0,0.0,0.0,0.0,-0.42469686477640695,-0.257207137643506,-0.1969801453613785,0.6734396911686692,0.06899344673464895,0.14241419601320524,-0.34388070605401444,0.06228887267175473,0.6882688253218666,-0.07866013750381637,-1.6211006699277641,0.028162881289919218,2.287775834550975,0.8466344558331701,0.06226373270833701,0.6884179775783729,-0.07863937525950354,-1.6210372792796082,0.028167345702647853,2.2878312372101677,0.8466366937888992,0.000508474882828743,-0.0001892320096649889,-0.0007032161008147455,0.00044110486552161916,0.00013383463801679805,-0.00032070745890251266,-0.0011375185647583648,0.0,0.0,0.0,0.0,0.0,0.0,0.0,-2.5139963417721012e-05,0.00014915225650624642,2.076224431282747e-05,6.339064815596984e-05,4.464412728635153e-06,5.5402659192793635e-05,2.2379557290674867e-06,-0.000508474882828743,0.0001892320096649889,0.0007032161008147455,-0.00044110486552161916,-0.00013383463801679805,0.00032070745890251266,0.0011375185647583648,0.4505855441093445,47.04787826538086,1.0179717540740967,-21.074556350708008,-0.6475730538368225,-2.3596224784851074,0.31711143255233765,0
32,0.15499258041381836,-0.3752071261405945,-47.04787826538086,-1.0933501720428467,21.145967483520508,0.6475730538368225,2.3660311698913574,-0.36471885442733765,0.0,0.0,0.0,0.0,0.0,0.0,0.0,-0.42169911110852587,-0.2626781006806638,-0.1914605984887222,0.6758757268496218,0.06936703889499864,0.14176813776291516,-0.34355875037551226,0.06228358295821306,0.6882688253218666,-0.07865484811505234,-1.6211056812716687,0.028162881289919218,2.2877751230133874,0.8466397455467118,0.06226373270833701,0.6884179775783729,-0.07863937525950354,-1.6210372792796082,0.028167345702647853,2.2878312372101677,0.8466366937888992,-0.0003917608145808781,-6.742240477603448e-06,0.0006937636510925546,-0.0013298666740101284,0.00014453526369732287,1.0303226998334192e-05,0.0007235370158355201,0.0,0.0,0.0,0.0,0.0,0.0,0.0,-1.9850249876052217e-05,0.00014915225650624642,1.5472855548800957e-05,6.840199206048503e-05,4.464412728635153e-06,5.6114196780310266e-05,-3.0517578126776357e-06,0.0003917608145808781,6.742240477603448e-06,-0.0006937636510925546,0.0013298666740101284,-0.00014453526369732287,-1.0303226998334192e-05,-0.0007235370158355201,0.3752071261405945,47.04787826538086,1.0933501720428467,-21.145967483520508,-0.6475730538368225,-2.3660311698913574,0.36471885442733765,0
33,0.15995240211486816,-0.3752071261405945,-47.04787826538086,-1.0933501720428467,21.145967483520508,0.6475730538368225,2.3660311698913574,-0.36471885442733765,0.0,0.0,0.0,0.0,0.0,0.0,0.0,-0.42169911110852587,-0.2626781006806638,-0.1914605984887222,0.6758757268496218,0.06936703889499864,0.14176813776291516,-0.34355875037551226,0.06228358295821306,0.6882688253218666,-0.07865484811505234,-1.6211056812716687,0.028162881289919218,2.2877751230133874,0.8466397455467118,0.06226373270833701,0.6884179775783729,-0.07863937525950354,-1.6210372792796082,0.028167345702647853,2.2878312372101677,0.8466366937888992,-0.0003917608145808781,-6.742240477603448e-06,0.0006937636510925546,-0.0013298666740101284,0.00014453526369732287,1.0303226998334192e-05,0.0007235370158355201,0.0,0.0,0.0,0.0,0.0,0.0,0.0,-1.9850249876052217e-05,0.00014915225650624642,1.5472855548800957e-05,6.840199206048503e-05,4.464412728635153e-06,5.6114196780310266e-05,-3.0517578126776357e-06,0.0003917608145808781,6.742240477603448e-06,-0.0006937636510925546,0.0013298666740101284,-0.00014453526369732287,-1.0303226998334192e-05,-0.0007235370158355201,0.3752071261405945,47.04787826538086,1.0933501720428467,-21.145967483520508,-0.6475730538368225,-2.3660311698913574,0.36471885442733765,0
34,0.164992094039917,-0.3752071261405945,-47.04787826538086,-1.0417754650115967,21.046785354614258,0.6420798897743225,2.3522982597351074,-0.35098594427108765,0.0,0.0,0.0,0.0,0.0,0.0,0.0,-0.4218198448366999,-0.26430614033261884,-0.19612829870042753,0.6770712003593055,0.06952837828947651,0.1433308166674954,-0.34425454811357,0.06228358295821306,0.6882688253218666,-0.07865846706796294,-1.6210987210859331,0.02816349158737314,2.2877761777805117,0.8466382196678056,0.06226373270833701,0.6884179775783729,-0.07863937525950354,-1.6210372792796082,0.028167345702647853,2.2878312372101677,0.8466366937888992,-0.000638200687654716,0.0004820683906641744,-0.0005202383280002472,0.0007154004061309748,0.00011285917059554843,0.0003726391361149267,0.0006748577260639347,0.0,0.0,0.0,0.0,0.0,0.0,0.0,-1.9850249876052217e-05,0.00014915225650624642,1.909180845939551e-05,6.144180632494667e-05,3.854115274714437e-06,5.505942965600141e-05,-1.5258789064498401e-06,0.000638200687654716,-0.0004820683906641744,0.0005202383280002472,-0.0007154004061309748,-0.00011285917059554843,-0.0003726391361149267,-0.0006748577260639347,0.3752071261405945,47.04787826538086,1.0417754650115967,-21.046785354614258,-0.6420798897743225,-2.3522982597351074,0.35098594427108765,0
35,0.16998839378356934,-0.3752071261405945,-47.04787826538086,-1.0417754650115967,21.046785354614258,0.6420798897743225,2.3522982597351074,-0.35098594427108765,0.0,0.0,0.0,0.0,0.0,0.0,0.0,-0.4218198448366999,-0.26430614033261884,-0.19612829870042753,0.6770712003593055,0.06952837828947651,0.1433308166674954,-0.34425454811357,0.06228358295821306,0.6882688253218666,-0.07865846706796294,-1.6210987210859331,0.02816349158737314,2.2877761777805117,0.8466382196678056,0.06226373270833701,0.6884179775783729,-0.07863937525950354,-1.6210372792796082,0.028167345702647853,2.2878312372101677,0.8466366937888992,-0.000638200687654716,0.0004820683906641744,-0.0005202383280002472,0.0007154004061309748,0.00011285917059554843,0.0003726391361149267,0.0006748577260639347,0.0,0.0,0.0,0.0,0.0,0.0,0.0,-1.9850249876052217e-05,0.00014915225650624642,1.909180845939551e-05,6.144180632494667e-05,3.854115274714437e-06,5.505942965600141e-05,-1.5258789064498401e-06,0.000638200687654716,-0.0004820683906641744,0.0005202383280002472,-0.0007154004061309748,-0.00011285917059554843,-0.0003726391361149267,-0.0006748577260639347,0.3752071261405945,47.04787826538086,1.0417754650115967,-21.046785354614258,-0.6420798897743225,-2.3522982597351074,0.35098594427108765,0
36,0.17499017715454102,-0.4029781222343445,-47.04787826538086,-1.0695464611053467,21.098360061645508,0.6475730538368225,2.3596224784851074,-0.36471885442733765,0.0,0.0,0.0,0.0,0.0,0.0,0.0,-0.41168857513921425,-0.25531166215737794,-0.1925369661691273,0.6744308449261036,0.06847894069718576,0.14250928133547916,-0.3435875223959488,0.0622855318000442,0.6882685869032875,-0.07865654453311825,-1.6211023403636193,0.02816607758899499,2.287775833149487,0.8466397455467118,0.06226373270833701,0.6884179775783729,-0.07863937525950354,-1.6210372792796082,0.028167345702647853,2.2878312372101677,0.8466366937888992,-6.083813264551732e-05,0.0007087224650339408,0.0005381868683706249,-0.000408639624859817,0.0015016845160533867,-0.00029968188288579517,0.0011194838711050881,0.0,0.0,0.0,0.0,0.0,0.0,0.0,-2.1799091707193352e-05,0.00014939067508534798,1.7169273614711655e-05,6.506108401116428e-05,1.2681136528636117e-06,5.5404060680608325e-05,-3.0517578126776357e-06,6.083813264551732e-05,-0.0007087224650339408,-0.0005381868683706249,0.000408639624859817,-0.0015016845160533867,0.00029968188288579517,-0.0011194838711050881,0.4029781222343445,47.04787826538086,1.0695464611053467,-21.098360061645508,-0.6475730538368225,-2.3596224784851074,0.36471885442733765,0
37,0.17999029159545898,-0.4029781222343445,-47.04787826538086,-1.0695464611053467,21.098360061645508,0.6475730538368225,2.3596224784851074,-0.36471885442733765,0.0,0.0,0.0,0.0,0.0,0.0,0.0,-0.41168857513921425,-0.25531166215737794,-0.1925369661691273,0.6744308449261036,0.06847894069718576,0.14250928133547916,-0.3435875223959488,0.0622855318000442,0.6882685869032875,-0.07865654453311825,-1.6211023403636193,0.02816607758899499,2.287775833149487,0.8466397455467118,0.06226373270833701,0.6884179775783729,-0.07863937525950354,-1.6210372792796082,0.028167345702647853,2.2878312372101677,0.8466366937888992,-6.083813264551732e-05,0.0007087224650339408,0.0005381868683706249,-0.000408639624859817,0.0015016845160533867,-0.00029968188288579517,0.0011194838711050881,0.0,0.0,0.0,0.0,0.0,0.0,0.0,-2.1799091707193352e-05,0.00014939067508534798,1.7169273614711655e-05,6.506108401116428e-05,1.2681136528636117e-06,5.5404060680608325e-05,-3.0517578126776357e-06,6.083813264551732e-05,-0.0007087224650339408,-0.0005381868683706249,0.000408639624859817,-0.0015016845160533867,0.00029968188288579517,-0.0011194838711050881,0.4029781222343445,47.04787826538086,1.0695464611053467,-21.098360061645508,-0.6475730538368225,-2.3596224784851074,0.36471885442733765,0
38,0.18499088287353516,-0.4029781222343445,-47.02010726928711,-1.0695464611053467,21.074556350708008,0.6475730538368225,2.3596224784851074,-0.33084434270858765,0.0,0.0,0.0,0.0,0.0,0.0,0.0,-0.4045306671720197,-0.26738190266653644,-0.1855777870036475,0.6848783844500442,0.06954062898807921,0.14197085291933936,-0.3427286634733207,0.0622855318000442,0.6882668764786897,-0.07865722851496204,-1.6211006699277641,0.028162881307962417,2.287775835090202,0.8466359817120764,0.06226373270833701,0.6884179775783729,-0.07863937525950354,-1.6210372792796082,0.028167345702647853,2.2878312372101677,0.8466366937888992,0.00041563025153117626,-0.0001951853371376668,0.0007379242602214384,0.0010567064484539616,-3.7235735051846855e-07,8.039940676884812e-05,-0.0005765590440438054,0.0,0.0,0.0,0.0,0.0,0.0,0.0,-2.1799091707193352e-05,0.00015110109968319296,1.7853255458499806e-05,6.339064815596984e-05,4.464394685436274e-06,5.540211996546418e-05,7.120768227286689e-07,-0.00041563025153117626,0.0001951853371376668,-0.0007379242602214384,-0.0010567064484539616,3.7235735051846855e-07,-8.039940676884812e-05,0.0005765590440438054,0.4029781222343445,47.02010726928711,1.0695464611053467,-21.074556350708008,-0.6475730538368225,-2.3596224784851074,0.33084434270858765,0
39,0.18999147415161133,-0.4029781222343445,-47.02010726928711,-1.0695464611053467,21.074556350708008,0.6475730538368225,2.3596224784851074,-0.33084434270858765,0.0,0.0,0.0,0.0,0.0,0.0,0.0,-0.4045306671720197,-0.26738190266653644,-0.1855777870036475,0.6848783844500442,0.06954062898807921,0.14197085291933936,-0.3427286634733207,0.0622855318000442,0.6882668764786897,-0.07865722851496204,-1.6211006699277641,0.028162881307962417,2.287775835090202,0.8466359817120764,0.06226373270833701,0.6884179775783729,-0.07863937525950354,-1.6210372792796082,0.028167345702647853,2.2878312372101677,0.8466366937888992,0.00041563025153117626,-0.0001951853371376668,0.0007379242602214384,0.0010567064484539616,-3.7235735051846855e-07,8.039940676884812e-05,-0.0005765590440438054,0.0,0.0,0.0,0.0,0.0,0.0,0.0,-2.1799091707193352e-05,0.00015110109968319296,1.7853255458499806e-05,6.339064815596984e-05,4.464394685436274e-06,5.540211996546418e-05,7.120768227286689e-07,-0.00041563025153117626,0.0001951853371376668,-0.0007379242602214384,-0.0010567064484539616,3.7235735051846855e-07,-8.039940676884812e-05,0.0005765590440438054,0.4029781222343445,47.02010726928711,1.0695464611053467,-21.074556350708008,-0.6475730538368225,-2.3596224784851074,0.33084434270858765,0
40,0.19499564170837402,-0.4267818331718445,-47.04787826538086,-1.0695464611053467,21.046785354614258,0.6475730538368225,2.3660311698913574,-0.35098594427108765,0.0,0.0,0.0,0.0,0.0,0.0,0.0,-0.4224124650601789,-0.2613865352388609,-0.1993199154690172,0.6807051189552842,0.07008484555067103,0.14143725185042455,-0.34280103280772384,0.062287202561055625,0.6882688253218666,-0.0786567549930341,-1.621098721085933,0.02816288128991932,2.2877747678626137,0.8466382196678056,0.06226373270833701,0.6884179775783729,-0.07863937525950354,-1.6210372792796082,0.028167345702647853,2.2878312372101677,0.8466366937888992,0.0005236721123755474,-0.0002946639898968932,0.00027774635837310695,0.0010478996589252116,0.00011219891147471997,-9.355629146356265e-05,-5.605387481433417e-05,0.0,0.0,0.0,0.0,0.0,0.0,0.0,-2.3469852718616124e-05,0.00014915225650624642,1.7379733530553665e-05,6.144180632472462e-05,4.464412728534539e-06,5.6469347553989024e-05,-1.5258789064498401e-06,-0.0005236721123755474,0.0002946639898968932,-0.00027774635837310695,-0.0010478996589252116,-0.00011219891147471997,9.355629146356265e-05,5.605387481433417e-05,0.4267818331718445,47.04787826538086,1.0695464611053467,-21.046785354614258,-0.6475730538368225,-2.3660311698913574,0.35098594427108765,0
41,0.19999384880065918,-0.4267818331718445,-47.04787826538086,-1.0695464611053467,21.046785354614258,0.6475730538368225,2.3660311698913574,-0.35098594427108765,0.0,0.0,0.0,0.0,0.0,0.0,0.0,-0.4224124650601789,-0.2613865352388609,-0.1993199154690172,0.6807051189552842,0.07008484555067103,0.14143725185042455,-0.34280103280772384,0.062287202561055625,0.6882688253218666,-0.0786567549930341,-1.621098721085933,0.02816288128991932,2.2877747678626137,0.8466382196678056,0.06226373270833701,0.6884179775783729,-0.07863937525950354,-1.6210372792796082,0.028167345702647853,2.2878312372101677,0.8466366937888992,0.0005236721123755474,-0.0002946639898968932,0.00027774635837310695,0.0010478996589252116,0.00011219891147471997,-9.355629146356265e-05,-5.605387481433417e-05,0.0,0.0,0.0,0.0,0.0,0.0,0.0,-2.3469852718616124e-05,0.00014915225650624642,1.7379733530553665e-05,6.144180632472462e-05,4.464412728534539e-06,5.6469347553989024e-05,-1.5258789064498401e-06,-0.0005236721123755474,0.0002946639898968932,-0.00027774635837310695,-0.0010478996589252116,-0.00011219891147471997,9.355629146356265e-05,5.605387481433417e-05,0.4267818331718445,47.04787826538086,1.0695464611053467,-21.046785354614258,-0.6475730538368225,-2.3660311698913574,0.35098594427108765,0
42,0.20501208305358887,-0.4783565402030945,-47.11928939819336,-1.1171538829803467,21.098360061645508,0.6475730538368225,2.3596224784851074,-0.35831016302108765,0.0,0.0,0.0,0.0,0.0,0.0,0.0,-0.41927944228937075,-0.27627468124209154,-0.19721260988878558,0.68570306984203,0.07076380223068361,0.14267275688118033,-0.3427141580689512,0.06229082151358771,0.6882737571565728,-0.0786531783300889,-1.6211023403636193,0.028162881289919218,2.287771539847231,0.8466390291092382,0.06226373270833701,0.6884179775783729,-0.07863937525950354,-1.6210372792796082,0.028167345702647853,2.2878312372101677,0.8466366937888992,0.0008123419166474681,0.0009351399463205149,0.0014135863127343285,-0.00040676639315974524,-0.0001699234952505184,-7.917393407452969e-05,0.000544345012547955,0.0,0.0,0.0,0.0,0.0,0.0,0.0,-2.7088805250700954e-05,0.00014422042180006756,1.3803070585363675e-05,6.506108401116428e-05,4.464412728635153e-06,5.969736293653938e-05,-2.3353203389975263e-06,-0.0008123419166474681,-0.0009351399463205149,-0.0014135863127343285,0.00040676639315974524,0.0001699234952505184,7.917393407452969e-05,-0.000544345012547955,0.4783565402030945,47.11928939819336,1.1171538829803467,-21.098360061645508,-0.6475730538368225,-2.3596224784851074,0.35831016302108765,0
43,0.21000981330871582,-0.4783565402030945,-47.11928939819336,-1.1171538829803467,21.098360061645508,0.6475730538368225,2.3596224784851074,-0.35831016302108765,0.0,0.0,0.0,0.0,0.0,0.0,0.0,-0.41927944228937075,-0.27627468124209154,-0.19721260988878558,0.68570306984203,0.07076380223068361,0.14267275688118033,-0.3427141580689512,0.06229082151358771,0.6882737571565728,-0.0786531783300889,-1.6211023403636193,0.028162881289919218,2.287771539847231,0.8466390291092382,0.06226373270833701,0.6884179775783729,-0.07863937525950354,-1.6210372792796082,0.028167345702647853,2.2878312372101677,0.8466366937888992,0.0008123419166474681,0.0009351399463205149,0.0014135863127343285,-0.00040676639315974524,-0.0001699234952505184,-7.917393407452969e-05,0.000544345012547955,0.0,0.0,0.0,0.0,0.0,0.0,0.0,-2.7088805250700954e-05,0.00014422042180006756,1.3803070585363675e-05,6.506108401116428e-05,4.464412728635153e-06,5.969736293653938e-05,-2.3353203389975263e-06,-0.0008123419166474681,-0.0009351399463205149,-0.0014135863127343285,0.00040676639315974524,0.0001699234952505184,7.917393407452969e-05,-0.000544345012547955,0.4783565402030945,47.11928939819336,1.1171538829803467,-21.098360061645508,-0.6475730538368225,-2.3596224784851074,0.35831016302108765,0
44,0.2150132656097412,-0.4783565402030945,-47.04787826538086,-1.0695464611053467,21.074556350708008,0.6475730538368225,2.3660311698913574,-0.33725303411483765,0.0,0.0,0.0,0.0,0.0,0.0,0.0,-0.42044871730785194,-0.27166056097415253,-0.1941952063495306,0.6810602471157859,0.07017628579188555,0.1417610686567655,-0.34188470340722116,0.06229082151358587,0.6882688253205208,-0.07865676375803711,-1.6211006699277641,0.028162881289919218,2.2877750793341427,0.8466366545429688,0.06226373270833701,0.6884179775783729,-0.07863937525950354,-1.6210372792796082,0.028167345702647853,2.2878312372101677,0.8466366937888992,0.0008046557425156579,-0.0006737797022928664,-0.0006304609556921867,9.007625400007566e-05,9.70323036530325e-05,-0.00014883663863737859,-0.00022325402305679892,0.0,0.0,0.0,0.0,0.0,0.0,0.0,-2.7088805248862147e-05,0.00014915225785205877,1.738849853356872e-05,6.339064815596984e-05,4.464412728635153e-06,5.6157876024975906e-05,3.9245930394393724e-08,-0.0008046557425156579,0.0006737797022928664,0.0006304609556921867,-9.007625400007566e-05,-9.70323036530325e-05,0.00014883663863737859,0.00022325402305679892,0.4783565402030945,47.04787826538086,1.0695464611053467,-21.074556350708008,-0.6475730538368225,-2.3660311698913574,0.33725303411483765,0
45,0.2200024127960205,-0.4783565402030945,-47.04787826538086,-1.0695464611053467,21.074556350708008,0.6475730538368225,2.3660311698913574,-0.33725303411483765,0.0,0.0,0.0,0.0,0.0,0.0,0.0,-0.42044871730785194,-0.27166056097415253,-0.1941952063495306,0.6810602471157859,0.07017628579188555,0.1417610686567655,-0.34188470340722116,0.06229082151358587,0.6882688253205208,-0.07865676375803711,-1.6211006699277641,0.028162881289919218,2.2877750793341427,0.8466366545429688,0.06226373270833701,0.6884179775783729,-0.07863937525950354,-1.6210372792796082,0.028167345702647853,2.2878312372101677,0.8466366937888992,0.0008046557425156579,-0.0006737797022928664,-0.0006304609556921867,9.007625400007566e-05,9.70323036530325e-05,-0.00014883663863737859,-0.00022325402305679892,0.0,0.0,0.0,0.0,0.0,0.0,0.0,-2.7088805248862147e-05,0.00014915225785205877,1.738849853356872e-05,6.339064815596984e-05,4.464412728635153e-06,5.6157876024975906e-05,3.9245930394393724e-08,-0.0008046557425156579,0.0006737797022928664,0.0006304609556921867,-9.007625400007566e-05,-9.70323036530325e-05,0.00014883663863737859,0.00022325402305679892,0.4783565402030945,47.04787826538086,1.0695464611053467,-21.074556350708008,-0.6475730538368225,-2.3660311698913574,0.33725303411483765,0
46,0.22500920295715332,-0.4505855441093445,-47.07168197631836,-1.0933501720428467,21.074556350708008,0.6475730538368225,2.3458895683288574,-0.34457725286483765,0.0,0.0,0.0,0.0,0.0,0.0,0.0,-0.42416859695448644,-0.26929854532860226,-0.19686226822677588,0.6802600899260086,0.06993301845588251,0.1422809803384946,-0.3413139515544252,0.06228887267175473,0.6882704957577219,-0.07865485655973281,-1.6211006699277641,0.028162881289919218,2.2877736917057545,0.8466375075909088,0.06226373270833701,0.6884179775783729,-0.07863937525950354,-1.6210372792796082,0.028167345702647853,2.2878312372101677,0.8466366937888992,0.00010366881468544516,0.00043633188348729003,-0.0001478128160452122,0.00045856707211631856,1.3743100538940599e-05,0.0006139547487726092,1.2648754652006173e-05,0.0,0.0,0.0,0.0,0.0,0.0,0.0,-2.5139963417721012e-05,0.00014748182065094095,1.5481300229269745e-05,6.339064815596984e-05,4.464412728635153e-06,5.754550441317008e-05,-8.138020096692955e-07,-0.00010366881468544516,-0.00043633188348729003,0.0001478128160452122,-0.00045856707211631856,-1.3743100538940599e-05,-0.0006139547487726092,-1.2648754652006173e-05,0.4505855441093445,47.07168197631836,1.0933501720428467,-21.074556350708008,-0.6475730538368225,-2.3458895683288574,0.34457725286483765,0
47,0.22998881340026855,-0.4505855441093445,-47.07168197631836,-1.0933501720428467,21.074556350708008,0.6475730538368225,2.3458895683288574,-0.34457725286483765,0.0,0.0,0.0,0.0,0.0,0.0,0.0,-0.42416859695448644,-0.26929854532860226,-0.19686226822677588,0.6802600899260086,0.06993301845588251,0.1422809803384946,-0.3413139515544252,0.06228887267175473,0.6882704957577219,-0.07865485655973281,-1.6211006699277641,0.028162881289919218,2.2877736917057545,0.8466375075909088,0.06226373270833701,0.6884179775783729,-0.07863937525950354,-1.6210372792796082,0.028167345702647853,2.2878312372101677,0.8466366937888992,0.00010366881468544516,0.00043633188348729003,-0.0001478128160452122,0.00045856707211631856,1.3743100538940599e-05,0.0006139547487726092,1.2648754652006173e-05,0.0,0.0,0.0,0.0,0.0,0.0,0.0,-2.5139963417721012e-05,0.00014748182065094095,1.5481300229269745e-05,6.339064815596984e-05,4.464412728635153e-06,5.754550441317008e-05,-8.138020096692955e-07,-0.00010366881468544516,-0.00043633188348729003,0.0001478128160452122,-0.00045856707211631856,-1.3743100538940599e-05,-0.0006139547487726092,-1.2648754652006173e-05,0.4505855441093445,47.07168197631836,1.0933501720428467,-21.074556350708008,-0.6475730538368225,-2.3458895683288574,0.34457725286483765,0
48,0.23499155044555664,-0.4505855441093445,-47.07168197631836,-1.0933501720428467,21.074556350708008,0.6475730538368225,2.3458895683288574,-0.34457725286483765,0.0,0.0,0.0,0.0,0.0,0.0,0.0,-0.42416859695448644,-0.26929854532860226,-0.19686226822677588,0.6802600899260086,0.06993301845588251,0.1422809803384946,-0.3413139515544252,0.06228887267175473,0.6882704957577219,-0.07865485655973281,-1.6211006699277641,0.028162881289919218,2.2877736917057545,0.8466375075909088,0.06226373270833701,0.6884179775783729,-0.07863937525950354,-1.6210372792796082,0.028167345702647853,2.2878312372101677,0.8466366937888992,0.00010366881468544516,0.00043633188348729003,-0.0001478128160452122,0.00045856707211631856,1.3743100538940599e-05,0.0006139547487726092,1.2648754652006173e-05,0.0,0.0,0.0,0.0,0.0,0.0,0.0,-2.5139963417721012e-05,0.00014748182065094095,1.5481300229269745e-05,6.339064815596984e-05,4.464412728635153e-06,5.754550441317008e-05,-8.138020096692955e-07,-0.00010366881468544516,-0.00043633188348729003,0.0001478128160452122,-0.00045856707211631856,-1.3743100538940599e-05,-0.0006139547487726092,-1.2648754652006173e-05,0.4505855441093445,47.07168197631836,1.0933501720428467,-21.074556350708008,-0.6475730538368225,-2.3458895683288574,0.34457725286483765,0
49,0.23999261856079102,-0.4505855441093445,-47.07168197631836,-1.0933501720428467,21.074556350708008,0.6475730538368225,2.3458895683288574,-0.34457725286483765,0.0,0.0,0.0,0.0,0.0,0.0,0.0,-0.42416859695448644,-0.26929854532860226,-0.19686226822677588,0.6802600899260086,0.06993301845588251,0.1422809803384946,-0.3413139515544252,0.06228887267175473,0.6882704957577219,-0.07865485655973281,-1.6211006699277641,0.028162881289919218,2.2877736917057545,0.8466375075909088,0.06226373270833701,0.6884179775783729,-0.07863937525950354,-1.6210372792796082,0.028167345702647853,2.2878312372101677,0.8466366937888992,0.00010366881468544516,0.00043633188348729003,-0.0001478128160452122,0.00045856707211631856,1.3743100538940599e-05,0.0006139547487726092,1.2648754652006173e-05,0.0,0.0,0.0,0.0,0.0,0.0,0.0,-2.5139963417721012e-05,0.00014748182065094095,1.5481300229269745e-05,6.339064815596984e-05,4.464412728635153e-06,5.754550441317008e-05,-8.138020096692955e-07,-0.00010366881468544516,-0.00043633188348729003,0.0001478128160452122,-0.00045856707211631856,-1.3743100538940599e-05,-0.0006139547487726092,-1.2648754652006173e-05,0.4505855441093445,47.07168197631836,1.0933501720428467,-21.074556350708008,-0.6475730538368225,-2.3458895683288574,0.34457725286483765,0
50,0.24506020545959473,-0.3752071261405945,-47.04787826538086,-1.0695464611053467,21.074556350708008,0.6475730538368225,2.3522982597351074,-0.34457725286483765,0.0,0.0,0.0,0.0,0.0,0.0,0.0,-0.40661977918339787,-0.25878178595734547,-0.18522320264092756,0.67554529675528,0.06977258559847882,0.1411522170289609,-0.3407212634907238,0.06228571630779065,0.6882688253218666,-0.07865935938091377,-1.6211006699277641,0.028162881289919218,2.2877766488177484,0.8466375071609741,0.06226373270833701,0.6884179775783729,-0.07863937525950354,-1.6210372792796082,0.028167345702647853,2.2878312372101677,0.8466366937888992,-0.0014715492457233954,0.00023723408566602005,0.0004797553922374827,0.0002801666418779884,-0.00014652952472448005,6.564077390215265e-05,0.00025217476146103195,0.0,0.0,0.0,0.0,0.0,0.0,0.0,-2.19835994536427e-05,0.00014915225650624642,1.998412141022976e-05,6.339064815596984e-05,4.464412728635153e-06,5.45883924192303e-05,-8.13372074914831e-07,0.0014715492457233954,-0.00023723408566602005,-0.0004797553922374827,-0.0002801666418779884,0.00014652952472448005,-6.564077390215265e-05,-0.00025217476146103195,0.3752071261405945,47.04787826538086,1.0695464611053467,-21.074556350708008,-0.6475730538368225,-2.3522982597351074,0.34457725286483765,0
51,0.25004148483276367,-0.3752071261405945,-47.04787826538086,-1.0695464611053467,21.074556350708008,0.6475730538368225,2.3522982597351074,-0.34457725286483765,0.0,0.0,0.0,0.0,0.0,0.0,0.0,-0.40661977918339787,-0.25878178595734547,-0.18522320264092756,0.67554529675528,0.06977258559847882,0.1411522170289609,-0.3407212634907238,0.06228571630779065,0.6882688253218666,-0.07865935938091377,-1.6211006699277641,0.028162881289919218,2.2877766488177484,0.8466375071609741,0.06226373270833701,0.6884179775783729,-0.07863937525950354,-1.6210372792796082,0.028167345702647853,2.2878312372101677,0.8466366937888992,-0.0014715492457233954,0.00023723408566602005,0.0004797553922374827,0.0002801666418779884,-0.00014652952472448005,6.564077390215265e-05,0.00025217476146103195,0.0,0.0,0.0,0.0,0.0,0.0,0.0,-2.19835994536427e-05,0.00014915225650624642,1.998412141022976e-05,6.339064815596984e-05,4.464412728635153e-06,5.45883924192303e-05,-8.13372074914831e-07,0.0014715492457233954,-0.00023723408566602005,-0.0004797553922374827,-0.0002801666418779884,0.00014652952472448005,-6.564077390215265e-05,-0.00025217476146103195,0.3752071261405945,47.04787826538086,1.0695464611053467,-21.074556350708008,-0.6475730538368225,-2.3522982597351074,0.34457725286483765,0
52,0.2550177574157715,-0.4267818331718445,-47.04787826538086,-1.0417754650115967,21.074556350708008,0.6301780343055725,2.3596224784851074,-0.34457725286483765,0.0,0.0,0.0,0.0,0.0,0.0,0.0,-0.438256667361532,-0.2656243932284885,-0.20589192919577576,0.6790735854389469,0.06976123467832204,0.14069317126440944,-0.3405492603473099,0.06228720223991374,0.6882688253218666,-0.07865847584230333,-1.6211006699277641,0.028164814069867133,2.2877722898093826,0.8466375075909819,0.06226373270833701,0.6884179775783729,-0.07863937525950354,-1.6210372792796082,0.028167345702647853,2.2878312372101677,0.8466366937888992,-0.00017697894434816642,0.00032542134855290144,-0.0005985416943064023,0.00039934287739917584,0.0007590760372607798,-0.00028030898502499755,0.0001913362089949089,0.0,0.0,0.0,0.0,0.0,0.0,0.0,-2.3469531576732205e-05,0.00014915225650624642,1.9100582799788657e-05,6.339064815596984e-05,2.5316327807202443e-06,5.894740078504768e-05,-8.138020827219705e-07,0.00017697894434816642,-0.00032542134855290144,0.0005985416943064023,-0.00039934287739917584,-0.0007590760372607798,0.00028030898502499755,-0.0001913362089949089,0.4267818331718445,47.04787826538086,1.0417754650115967,-21.074556350708008,-0.6301780343055725,-2.3596224784851074,0.34457725286483765,0
53,0.26004695892333984,-0.4267818331718445,-47.04787826538086,-1.0417754650115967,21.074556350708008,0.6301780343055725,2.3596224784851074,-0.34457725286483765,0.0,0.0,0.0,0.0,0.0,0.0,0.0,-0.438256667361532,-0.2656243932284885,-0.20589192919577576,0.6790735854389469,0.06976123467832204,0.14069317126440944,-0.3405492603473099,0.06228720223991374,0.6882688253218666,-0.07865847584230333,-1.6211006699277641,0.028164814069867133,2.2877722898093826,0.8466375075909819,0.06226373270833701,0.6884179775783729,-0.07863937525950354,-1.6210372792796082,0.028167345702647853,2.2878312372101677,0.8466366937888992,-0.00017697894434816642,0.00032542134855290144,-0.0005985416943064023,0.00039934287739917584,0.0007590760372607798,-0.00028030898502499755,0.0001913362089949089,0.0,0.0,0.0,0.0,0.0,0.0,0.0,-2.3469531576732205e-05,0.00014915225650624642,1.9100582799788657e-05,6.339064815596984e-05,2.5316327807202443e-06,5.894740078504768e-05,-8.138020827219705e-07,0.00017697894434816642,-0.00032542134855290144,0.0005985416943064023,-0.00039934287739917584,-0.0007590760372607798,0.00028030898502499755,-0.0001913362089949089,0.4267818331718445,47.04787826538086,1.0417754650115967,-21.074556350708008,-0.6301780343055725,-2.3596224784851074,0.34457725286483765,0
54,0.2650120258331299,-0.4267818331718445,-47.02010726928711,-1.0695464611053467,21.074556350708008,0.6539817452430725,2.3522982597351074,-0.33084434270858765,0.0,0.0,0.0,0.0,0.0,0.0,0.0,-0.43855109573133894,-0.26502031452196706,-0.2035794284906579,0.6798857539092752,0.07045528447965504,0.1401168847157378,-0.34242837759018907,0.06228720223589949,0.6882668764800355,-0.0786565192005124,-1.6211006709089106,0.028162169375485116,2.28777311513013,0.8466359817120764,0.06226373270833701,0.6884179775783729,-0.07863937525950354,-1.6210372792796082,0.028167345702647853,2.2878312372101677,0.8466366937888992,-7.137291224756717e-05,-0.0005128558263054901,-0.00014762912847621673,0.0002430787500704831,1.249218790653995e-05,0.0003577405423310282,-0.010125779539822258,0.0,0.0,0.0,0.0,0.0,0.0,0.0,-2.3469527562478e-05,0.0001511010983373806,1.7143941008865293e-05,6.339162930246722e-05,5.176327162736971e-06,5.812208003774799e-05,7.120768227286689e-07,7.137291224756717e-05,0.0005128558263054901,0.00014762912847621673,-0.0002430787500704831,-1.249218790653995e-05,-0.0003577405423310282,0.010125779539822258,0.4267818331718445,47.02010726928711,1.0695464611053467,-21.074556350708008,-0.6539817452430725,-2.3522982597351074,0.33084434270858765,0
55,0.27011847496032715,-0.4267818331718445,-47.02010726928711,-1.0695464611053467,21.074556350708008,0.6539817452430725,2.3522982597351074,-0.33084434270858765,0.0,0.0,0.0,0.0,0.0,0.0,0.0,-0.43855109573133894,-0.26502031452196706,-0.2035794284906579,0.6798857539092752,0.07045528447965504,0.1401168847157378,-0.34242837759018907,0.06228720223589949,0.6882668764800355,-0.0786565192005124,-1.6211006709089106,0.028162169375485116,2.28777311513013,0.8466359817120764,0.06226373270833701,0.6884179775783729,-0.07863937525950354,-1.6210372792796082,0.028167345702647853,2.2878312372101677,0.8466366937888992,-7.137291224756717e-05,-0.0005128558263054901,-0.00014762912847621673,0.0002430787500704831,1.249218790653995e-05,0.0003577405423310282,-0.010125779539822258,0.0,0.0,0.0,0.0,0.0,0.0,0.0,-2.3469527562478e-05,0.0001511010983373806,1.7143941008865293e-05,6.339162930246722e-05,5.176327162736971e-06,5.812208003774799e-05,7.120768227286689e-07,7.137291224756717e-05,0.0005128558263054901,0.00014762912847621673,-0.0002430787500704831,-1.249218790653995e-05,-0.0003577405423310282,0.010125779539822258,0.4267818331718445,47.02010726928711,1.0695464611053467,-21.074556350708008,-0.6539817452430725,-2.3522982597351074,0.33084434270858765,0
56,0.27498817443847656,-0.3752071261405945,-47.07168197631836,-1.0179717540740967,21.074556350708008,0.6539817452430725,2.3522982597351074,-0.39218467473983765,0.0,0.0,0.0,0.0,0.0,0.0,0.0,-0.4253719528637771,-0.2761070197000015,-0.19582059001797594,0.6848222302183211,0.0711595356309383,0.14127493221843168,-0.34365084177751537,0.06228358295821306,0.6882704957577219,-0.07866016381081015,-1.6211006699277697,0.028162169213097218,2.287776531134779,0.8466427929438736,0.06226373270833701,0.6884179775783729,-0.07863937525950354,-1.6210372792796082,0.028167345702647853,2.2878312372101677,0.8466366937888992,-0.0010971691965112685,-5.919099535838435e-05,-0.001143209434515251,0.00025547795910696013,-0.0001849688262984264,0.0006163364675180675,0.0014026610392976588,0.0,0.0,0.0,0.0,0.0,0.0,0.0,-1.9850249876052217e-05,0.00014748182065094095,2.0788551306605285e-05,6.339064816152096e-05,5.176489550635238e-06,5.470607538882177e-05,-6.099154974403831e-06,0.0010971691965112685,5.919099535838435e-05,0.001143209434515251,-0.00025547795910696013,0.0001849688262984264,-0.0006163364675180675,-0.0014026610392976588,0.3752071261405945,47.07168197631836,1.0179717540740967,-21.074556350708008,-0.6539817452430725,-2.3522982597351074,0.39218467473983765,0
57,0.28000664710998535,-0.3752071261405945,-47.07168197631836,-1.0179717540740967,21.074556350708008,0.6539817452430725,2.3522982597351074,-0.39218467473983765,0.0,0.0,0.0,0.0,0.0,0.0,0.0,-0.4253719528637771,-0.2761070197000015,-0.19582059001797594,0.6848222302183211,0.0711595356309383,0.14127493221843168,-0.34365084177751537,0.06228358295821306,0.6882704957577219,-0.07866016381081015,-1.6211006699277697,0.028162169213097218,2.287776531134779,0.8466427929438736,0.06226373270833701,0.6884179775783729,-0.07863937525950354,-1.6210372792796082,0.028167345702647853,2.2878312372101677,0.8466366937888992,-0.0010971691965112685,-5.919099535838435e-05,-0.001143209434515251,0.00025547795910696013,-0.0001849688262984264,0.0006163364675180675,0.0014026610392976588,0.0,0.0,0.0,0.0,0.0,0.0,0.0,-1.9850249876052217e-05,0.00014748182065094095,2.0788551306605285e-05,6.339064816152096e-05,5.176489550635238e-06,5.470607538882177e-05,-6.099154974403831e-06,0.0010971691965112685,5.919099535838435e-05,0.001143209434515251,-0.00025547795910696013,0.0001849688262984264,-0.0006163364675180675,-0.0014026610392976588,0.3752071261405945,47.07168197631836,1.0179717540740967,-21.074556350708008,-0.6539817452430725,-2.3522982597351074,0.39218467473983765,0
58,0.2849891185760498,-0.4267818331718445,-46.99630355834961,-1.0695464611053467,21.074556350708008,0.6539817452430725,2.3522982597351074,-0.34457725286483765,0.0,0.0,0.0,0.0,0.0,0.0,0.0,-0.4278894034148438,-0.25404868239587225,-0.19719443966286074,0.6713625600390455,0.07099571572234138,0.14026645432702936,-0.34426641039082195,0.062287202235899466,0.6882652060441803,-0.07865651822627848,-1.6211006699277641,0.028162169213096302,2.287775582954785,0.8466378652188267,0.06226373270833701,0.6884179775783729,-0.07863937525950354,-1.6210372792796082,0.028167345702647853,2.2878312372101677,0.8466366937888992,0.0003129311701786483,-0.0015574691948790403,0.0005016097266676136,0.00024090160844926291,-0.00011146263405184263,0.0005130005865071212,-0.0001403110842595992,0.0,0.0,0.0,0.0,0.0,0.0,0.0,-2.3469527562457182e-05,0.00015277153419257505,1.7142966774935653e-05,6.339064815596984e-05,5.176489551551172e-06,5.565425538289759e-05,-1.1714299275045192e-06,-0.0003129311701786483,0.0015574691948790403,-0.0005016097266676136,-0.00024090160844926291,0.00011146263405184263,-0.0005130005865071212,0.0001403110842595992,0.4267818331718445,46.99630355834961,1.0695464611053467,-21.074556350708008,-0.6539817452430725,-2.3522982597351074,0.34457725286483765,0
59,0.29001307487487793,-0.4267818331718445,-46.99630355834961,-1.0695464611053467,21.074556350708008,0.6539817452430725,2.3522982597351074,-0.34457725286483765,0.0,0.0,0.0,0.0,0.0,0.0,0.0,-0.4278894034148438,-0.25404868239587225,-0.19719443966286074,0.6713625600390455,0.07099571572234138,0.14026645432702936,-0.34426641039082195,0.062287202235899466,0.6882652060441803,-0.07865651822627848,-1.6211006699277641,0.028162169213096302,2.287775582954785,0.8466378652188267,0.06226373270833701,0.6884179775783729,-0.07863937525950354,-1.6210372792796082,0.028167345702647853,2.2878312372101677,0.8466366937888992,0.0003129311701786483,-0.0015574691948790403,0.0005016097266676136,0.00024090160844926291,-0.00011146263405184263,0.0005130005865071212,-0.0001403110842595992,0.0,0.0,0.0,0.0,0.0,0.0,0.0,-2.3469527562457182e-05,0.00015277153419257505,1.7142966774935653e-05,6.339064815596984e-05,5.176489551551172e-06,5.565425538289759e-05,-1.1714299275045192e-06,-0.0003129311701786483,0.0015574691948790403,-0.0005016097266676136,-0.00024090160844926291,0.00011146263405184263,-0.0005130005865071212,0.0001403110842595992,0.4267818331718445,46.99630355834961,1.0695464611053467,-21.074556350708008,-0.6539817452430725,-2.3522982597351074,0.34457725286483765,0
60,0.2950100898742676,-0.4029781222343445,-47.09548568725586,-1.0695464611053467,21.098360061645508,0.6420798897743225,2.3660311698913574,-0.31711143255233765,0.0,0.0,0.0,0.0,0.0,0.0,0.0,-0.42361703036797765,-0.2673728753685894,-0.19513820211020214,0.6785554174454214,0.07107413818333141,0.1416756873263555,-0.3445327801714741,0.0622855318000442,0.6882721661935771,-0.07865652703121247,-1.6211023403636193,0.028163491641481717,2.2877707667172857,0.8466344558351889,0.06226373270833701,0.6884179775783729,-0.07863937525950354,-1.6210372792796082,0.028167345702647853,2.2878312372101677,0.8466366937888992,-1.1733681833971461e-05,0.0007528215667066027,-0.0002622955233832443,0.0069734023828825,0.00010143811685583072,-0.00011962205096103144,-0.0011095125787719956,0.0,0.0,0.0,0.0,0.0,0.0,0.0,-2.1799091707193352e-05,0.0001458113847957465,1.71517717089259e-05,6.506108401116428e-05,3.854061166135708e-06,6.047049288193662e-05,2.2379537102379388e-06,1.1733681833971461e-05,-0.0007528215667066027,0.0002622955233832443,-0.0069734023828825,-0.00010143811685583072,0.00011962205096103144,0.0011095125787719956,0.4029781222343445,47.09548568725586,1.0695464611053467,-21.098360061645508,-0.6420798897743225,-2.3660311698913574,0.31711143255233765,0
61,0.30000948905944824,-0.4029781222343445,-47.09548568725586,-1.0695464611053467,21.098360061645508,0.6420798897743225,2.3660311698913574,-0.31711143255233765,0.0,0.0,0.0,0.0,0.0,0.0,0.0,-0.42361703036797765,-0.2673728753685894,-0.19513820211020214,0.6785554174454214,0.07107413818333141,0.1416756873263555,-0.3445327801714741,0.0622855318000442,0.6882721661935771,-0.07865652703121247,-1.6211023403636193,0.028163491641481717,2.2877707667172857,0.8466344558351889,0.06226373270833701,0.6884179775783729,-0.07863937525950354,-1.6210372792796082,0.028167345702647853,2.2878312372101677,0.8466366937888992,-1.1733681833971461e-05,0.0007528215667066027,-0.0002622955233832443,0.0069734023828825,0.00010143811685583072,-0.00011962205096103144,-0.0011095125787719956,0.0,0.0,0.0,0.0,0.0,0.0,0.0,-2.1799091707193352e-05,0.0001458113847957465,1.71517717089259e-05,6.506108401116428e-05,3.854061166135708e-06,6.047049288193662e-05,2.2379537102379388e-06,1.1733681833971461e-05,-0.0007528215667066027,0.0002622955233832443,-0.0069734023828825,-0.00010143811685583072,0.00011962205096103144,0.0011095125787719956,0.4029781222343445,47.09548568725586,1.0695464611053467,-21.098360061645508,-0.6420798897743225,-2.3660311698913574,0.31711143255233765,0
62,0.3050353527069092,-0.4267818331718445,-47.07168197631836,-1.0417754650115967,21.098360061645508,0.6539817452430725,2.3458895683288574,-0.31711143255233765,0.0,0.0,0.0,0.0,0.0,0.0,0.0,-0.4213942015092725,-0.22332047089765872,-0.1951219631462672,0.6459225420163259,0.06993217183984268,0.1382521585492629,-0.3443438898723109,0.062287202235899466,0.6882704957577219,-0.07865846706801082,-1.6211023403636193,0.028162169213096302,2.2877730694181797,0.8466344558331701,0.06226373270833701,0.6884179775783729,-0.07863937525950354,-1.6210372792796082,0.028167345702647853,2.2878312372101677,0.8466366937888992,0.0003918081352979005,0.00042693706389101683,-0.0007358976661928348,0.0002758430233108032,-0.0001691572327258699,0.000695868088172044,-0.0016006809340224535,0.0,0.0,0.0,0.0,0.0,0.0,0.0,-2.3469527562457182e-05,0.00014748182065094095,1.9091808507273877e-05,6.506108401116428e-05,5.176489551551172e-06,5.816779198797306e-05,2.2379557290674867e-06,-0.0003918081352979005,-0.00042693706389101683,0.0007358976661928348,-0.0002758430233108032,0.0001691572327258699,-0.000695868088172044,0.0016006809340224535,0.4267818331718445,47.07168197631836,1.0417754650115967,-21.098360061645508,-0.6539817452430725,-2.3458895683288574,0.31711143255233765,0
63,0.31000494956970215,-0.4267818331718445,-47.07168197631836,-1.0417754650115967,21.098360061645508,0.6539817452430725,2.3458895683288574,-0.31711143255233765,0.0,0.0,0.0,0.0,0.0,0.0,0.0,-0.4213942015092725,-0.22332047089765872,-0.1951219631462672,0.6459225420163259,0.06993217183984268,0.1382521585492629,-0.3443438898723109,0.062287202235899466,0.6882704957577219,-0.07865846706801082,-1.6211023403636193,0.028162169213096302,2.2877730694181797,0.8466344558331701,0.06226373270833701,0.6884179775783729,-0.07863937525950354,-1.6210372792796082,0.028167345702647853,2.2878312372101677,0.8466366937888992,0.0003918081352979005,0.00042693706389101683,-0.0007358976661928348,0.0002758430233108032,-0.0001691572327258699,0.000695868088172044,-0.0016006809340224535,0.0,0.0,0.0,0.0,0.0,0.0,0.0,-2.3469527562457182e-05,0.00014748182065094095,1.9091808507273877e-05,6.506108401116428e-05,5.176489551551172e-06,5.816779198797306e-05,2.2379557290674867e-06,-0.0003918081352979005,-0.00042693706389101683,0.0007358976661928348,-0.0002758430233108032,0.0001691572327258699,-0.000695868088172044,0.0016006809340224535,0.4267818331718445,47.07168197631836,1.0417754650115967,-21.098360061645508,-0.6539817452430725,-2.3458895683288574,0.31711143255233765,0
64,0.31589293479919434,-0.4029781222343445,-47.02010726928711,-1.0179717540740967,21.046785354614258,0.6420798897743225,2.3458895683288574,-0.31711143255233765,0.0,0.0,0.0,0.0,0.0,0.0,0.0,-0.4262803695288144,-0.2736141220101101,-0.20047845728521937,0.684082693188086,0.07048054310976382,0.14406824020984488,-0.34450072861119174,0.0622855318000442,0.6882667970071759,-0.07866013750381637,-1.621098721085933,0.028163491641481717,2.287776288025622,0.8466344558331701,0.06226373270833701,0.6884179775783729,-0.07863937525950354,-1.6210372792796082,0.028167345702647853,2.2878312372101677,0.8466366937888992,-0.00037655384613056027,-0.0004172549649411862,-0.0013158197751583437,0.0011229410832563722,0.0002093492943071774,0.00019554059471938985,-0.00137476836165717,0.0,0.0,0.0,0.0,0.0,0.0,0.0,-2.1799091707193352e-05,0.00015118057119700712,2.076224431282747e-05,6.144180632472462e-05,3.854061166135708e-06,5.494918454562736e-05,2.2379557290674867e-06,0.00037655384613056027,0.0004172549649411862,0.0013158197751583437,-0.0011229410832563722,-0.0002093492943071774,-0.00019554059471938985,0.00137476836165717,0.4029781222343445,47.02010726928711,1.0179717540740967,-21.046785354614258,-0.6420798897743225,-2.3458895683288574,0.31711143255233765,0
65,0.32001233100891113,-0.4029781222343445,-47.02010726928711,-1.0179717540740967,21.046785354614258,0.6420798897743225,2.3458895683288574,-0.31711143255233765,0.0,0.0,0.0,0.0,0.0,0.0,0.0,-0.4262803695288144,-0.2736141220101101,-0.20047845728521937,0.684082693188086,0.07048054310976382,0.14406824020984488,-0.34450072861119174,0.0622855318000442,0.6882667970071759,-0.07866013750381637,-1.621098721085933,0.028163491641481717,2.287776288025622,0.8466344558331701,0.06226373270833701,0.6884179775783729,-0.07863937525950354,-1.6210372792796082,0.028167345702647853,2.2878312372101677,0.8466366937888992,-0.00037655384613056027,-0.0004172549649411862,-0.0013158197751583437,0.0011229410832563722,0.0002093492943071774,0.00019554059471938985,-0.00137476836165717,0.0,0.0,0.0,0.0,0.0,0.0,0.0,-2.1799091707193352e-05,0.00015118057119700712,2.076224431282747e-05,6.144180632472462e-05,3.854061166135708e-06,5.494918454562736e-05,2.2379557290674867e-06,0.00037655384613056027,0.0004172549649411862,0.0013158197751583437,-0.0011229410832563722,-0.0002093492943071774,-0.00019554059471938985,0.00137476836165717,0.4029781222343445,47.02010726928711,1.0179717540740967,-21.046785354614258,-0.6420798897743225,-2.3458895683288574,0.31711143255233765,0
66,0.32500290870666504,-0.4783565402030945,-47.02010726928711,-1.0417754650115967,21.098360061645508,0.6539817452430725,2.3660311698913574,-0.30978721380233765,0.0,0.0,0.0,0.0,0.0,0.0,0.0,-0.4326200782918585,-0.2836256707772494,-0.20484070078146746,0.6897331972301879,0.07031153967244878,0.14343129204905977,-0.34457195928120654,0.06229082151358587,0.688266876479587,-0.0786584670679611,-1.6211023403636193,0.028162169213096302,2.287775117193133,0.8466336420310868,0.06226373270833701,0.6884179775783729,-0.07863937525950354,-1.6210372792796082,0.028167345702647853,2.2878312372101677,0.8466366937888992,0.000819592995028336,-0.0004512506813998958,-0.0010148582586544,-0.00036864554608425607,-0.0002697744706914699,-0.0003021778057135229,-0.001235082601333592,0.0,0.0,0.0,0.0,0.0,0.0,0.0,-2.7088805248862147e-05,0.00015110109878591071,1.909180845756364e-05,6.506108401116428e-05,5.176489551551172e-06,5.612001703481084e-05,3.0517578123445688e-06,-0.000819592995028336,0.0004512506813998958,0.0010148582586544,0.00036864554608425607,0.0002697744706914699,0.0003021778057135229,0.001235082601333592,0.4783565402030945,47.02010726928711,1.0417754650115967,-21.098360061645508,-0.6539817452430725,-2.3660311698913574,0.30978721380233765,0
67,0.3300025463104248,-0.4783565402030945,-47.02010726928711,-1.0417754650115967,21.098360061645508,0.6539817452430725,2.3660311698913574,-0.30978721380233765,0.0,0.0,0.0,0.0,0.0,0.0,0.0,-0.4326200782918585,-0.2836256707772494,-0.20484070078146746,0.6897331972301879,0.07031153967244878,0.14343129204905977,-0.34457195928120654,0.06229082151358587,0.688266876479587,-0.0786584670679611,-1.6211023403636193,0.028162169213096302,2.287775117193133,0.8466336420310868,0.06226373270833701,0.6884179775783729,-0.07863937525950354,-1.6210372792796082,0.028167345702647853,2.2878312372101677,0.8466366937888992,0.000819592995028336,-0.0004512506813998958,-0.0010148582586544,-0.00036864554608425607,-0.0002697744706914699,-0.0003021778057135229,-0.001235082601333592,0.0,0.0,0.0,0.0,0.0,0.0,0.0,-2.7088805248862147e-05,0.00015110109878591071,1.909180845756364e-05,6.506108401116428e-05,5.176489551551172e-06,5.612001703481084e-05,3.0517578123445688e-06,-0.000819592995028336,0.0004512506813998958,0.0010148582586544,0.00036864554608425607,0.0002697744706914699,0.0003021778057135229,0.001235082601333592,0.4783565402030945,47.02010726928711,1.0417754650115967,-21.098360061645508,-0.6539817452430725,-2.3660311698913574,0.30978721380233765,0
68,0.3350067138671875,-0.4783565402030945,-47.02010726928711,-1.0417754650115967,21.098360061645508,0.6539817452430725,2.3660311698913574,-0.30978721380233765,0.0,0.0,0.0,0.0,0.0,0.0,0.0,-0.4326200782918585,-0.2836256707772494,-0.20484070078146746,0.6897331972301879,0.07031153967244878,0.14343129204905977,-0.34457195928120654,0.06229082151358587,0.688266876479587,-0.0786584670679611,-1.6211023403636193,0.028162169213096302,2.287775117193133,0.8466336420310868,0.06226373270833701,0.6884179775783729,-0.07863937525950354,-1.6210372792796082,0.028167345702647853,2.2878312372101677,0.8466366937888992,0.000819592995028336,-0.0004512506813998958,-0.0010148582586544,-0.00036864554608425607,-0.0002697744706914699,-0.0003021778057135229,-0.001235082601333592,0.0,0.0,0.0,0.0,0.0,0.0,0.0,-2.7088805248862147e-05,0.00015110109878591071,1.909180845756364e-05,6.506108401116428e-05,5.176489551551172e-06,5.612001703481084e-05,3.0517578123445688e-06,-0.000819592995028336,0.0004512506813998958,0.0010148582586544,0.00036864554608425607,0.0002697744706914699,0.0003021778057135229,0.001235082601333592,0.4783565402030945,47.02010726928711,1.0417754650115967,-21.098360061645508,-0.6539817452430725,-2.3660311698913574,0.30978721380233765,0
69,0.3400228023529053,-0.4783565402030945,-47.02010726928711,-1.0417754650115967,21.098360061645508,0.6539817452430725,2.3660311698913574,-0.30978721380233765,0.0,0.0,0.0,0.0,0.0,0.0,0.0,-0.4326200782918585,-0.2836256707772494,-0.20484070078146746,0.6897331972301879,0.07031153967244878,0.14343129204905977,-0.34457195928120654,0.06229082151358587,0.688266876479587,-0.0786584670679611,-1.6211023403636193,0.028162169213096302,2.287775117193133,0.8466336420310868,0.06226373270833701,0.6884179775783729,-0.07863937525950354,-1.6210372792796082,0.028167345702647853,2.2878312372101677,0.8466366937888992,0.000819592995028336,-0.0004512506813998958,-0.0010148582586544,-0.00036864554608425607,-0.0002697744706914699,-0.0003021778057135229,-0.001235082601333592,0.0,0.0,0.0,0.0,0.0,0.0,0.0,-2.7088805248862147e-05,0.00015110109878591071,1.909180845756364e-05,6.506108401116428e-05,5.176489551551172e-06,5.612001703481084e-05,3.0517578123445688e-06,-0.000819592995028336,0.0004512506813998958,0.0010148582586544,0.00036864554608425607,0.0002697744706914699,0.0003021778057135229,0.001235082601333592,0.4783565402030945,47.02010726928711,1.0417754650115967,-21.098360061645508,-0.6539817452430725,-2.3660311698913574,0.30978721380233765,0
70,0.34505367279052734,-0.4505855441093445,-47.02010726928711,-1.0933501720428467,21.122163772583008,0.6420798897743225,2.3660311698913574,-0.33725303411483765,0.0,0.0,0.0,0.0,0.0,0.0,0.0,-0.42305317063432374,-0.2914914219189077,-0.19788482472127353,0.6941532430329052,0.07006575987849817,0.14442122099282895,-0.34321889802600863,0.062288872780140114,0.6882668764800355,-0.0786548477902747,-1.6211040107994747,0.028163491641481717,2.287774726194075,0.8466366937888993,0.06226373270833701,0.6884179775783729,-0.07863937525950354,-1.6210372792796082,0.028167345702647853,2.2878312372101677,0.8466366937888992,0.0001685765191134196,-0.0010042056118461753,0.0004540440741424413,-0.0006698953447774593,0.0001211599572288738,8.578173696970912e-05,-0.00018794210775586087,0.0,0.0,0.0,0.0,0.0,0.0,0.0,-2.5140071803105013e-05,0.0001511010983373806,1.5472530771165616e-05,6.673151986658077e-05,3.854061166135708e-06,5.65110160928306e-05,-1.1102230246251565e-16,-0.0001685765191134196,0.0010042056118461753,-0.0004540440741424413,0.0006698953447774593,-0.0001211599572288738,-8.578173696970912e-05,0.00018794210775586087,0.4505855441093445,47.02010726928711,1.0933501720428467,-21.122163772583008,-0.6420798897743225,-2.3660311698913574,0.33725303411483765,0
71,0.3499908447265625,-0.4505855441093445,-47.02010726928711,-1.0933501720428467,21.122163772583008,0.6420798897743225,2.3660311698913574,-0.33725303411483765,0.0,0.0,0.0,0.0,0.0,0.0,0.0,-0.42305317063432374,-0.2914914219189077,-0.19788482472127353,0.6941532430329052,0.07006575987849817,0.14442122099282895,-0.34321889802600863,0.062288872780140114,0.6882668764800355,-0.0786548477902747,-1.6211040107994747,0.028163491641481717,2.287774726194075,0.8466366937888993,0.06226373270833701,0.6884179775783729,-0.07863937525950354,-1.6210372792796082,0.028167345702647853,2.2878312372101677,0.8466366937888992,0.0001685765191134196,-0.0010042056118461753,0.0004540440741424413,-0.0006698953447774593,0.0001211599572288738,8.578173696970912e-05,-0.00018794210775586087,0.0,0.0,0.0,0.0,0.0,0.0,0.0,-2.5140071803105013e-05,0.0001511010983373806,1.5472530771165616e-05,6.673151986658077e-05,3.854061166135708e-06,5.65110160928306e-05,-1.1102230246251565e-16,-0.0001685765191134196,0.0010042056118461753,-0.0004540440741424413,0.0006698953447774593,-0.0001211599572288738,-8.578173696970912e-05,0.00018794210775586087,0.4505855441093445,47.02010726928711,1.0933501720428467,-21.122163772583008,-0.6420798897743225,-2.3660311698913574,0.33725303411483765,0
72,0.3549926280975342,-0.4505855441093445,-47.07168197631836,-1.0695464611053467,21.074556350708008,0.6301780343055725,2.3596224784851074,-0.33725303411483765,0.0,0.0,0.0,0.0,0.0,0.0,0.0,-0.4201170168870965,-0.27094303337991044,-0.19672788838917557,0.6833278711858836,0.06954762942211158,0.14278228956694902,-0.3416761639663018,0.0622888726717548,0.6882704957577219,-0.07865651822612997,-1.6211006699277641,0.028164814069867133,2.287775830507991,0.8466366937888993,0.06226373270833701,0.6884179775783729,-0.07863937525950354,-1.6210372792796082,0.028167345702647853,2.2878312372101677,0.8466366937888992,0.0008703017269769367,0.0002935853866164548,7.396731107289348e-05,9.839027865310735e-05,0.0007423807950185362,2.477102017118292e-05,2.4739426893337894e-05,0.0,0.0,0.0,0.0,0.0,0.0,0.0,-2.51399634177904e-05,0.00014748182065094095,1.7142966626429446e-05,6.339064815596984e-05,2.5316327807202443e-06,5.540670217651922e-05,-1.1102230246251565e-16,-0.0008703017269769367,-0.0002935853866164548,-7.396731107289348e-05,-9.839027865310735e-05,-0.0007423807950185362,-2.477102017118292e-05,-2.4739426893337894e-05,0.4505855441093445,47.07168197631836,1.0695464611053467,-21.074556350708008,-0.6301780343055725,-2.3596224784851074,0.33725303411483765,0
73,0.35999035835266113,-0.4505855441093445,-47.07168197631836,-1.0695464611053467,21.074556350708008,0.6301780343055725,2.3596224784851074,-0.33725303411483765,0.0,0.0,0.0,0.0,0.0,0.0,0.0,-0.4201170168870965,-0.27094303337991044,-0.19672788838917557,0.6833278711858836,0.06954762942211158,0.14278228956694902,-0.3416761639663018,0.0622888726717548,0.6882704957577219,-0.07865651822612997,-1.6211006699277641,0.028164814069867133,2.287775830507991,0.8466366937888993,0.06226373270833701,0.6884179775783729,-0.07863937525950354,-1.6210372792796082,0.028167345702647853,2.2878312372101677,0.8466366937888992,0.0008703017269769367,0.0002935853866164548,7.396731107289348e-05,9.839027865310735e-05,0.0007423807950185362,2.477102017118292e-05,2.4739426893337894e-05,0.0,0.0,0.0,0.0,0.0,0.0,0.0,-2.51399634177904e-05,0.00014748182065094095,1.7142966626429446e-05,6.339064815596984e-05,2.5316327807202443e-06,5.540670217651922e-05,-1.1102230246251565e-16,-0.0008703017269769367,-0.0002935853866164548,-7.396731107289348e-05,-9.839027865310735e-05,-0.0007423807950185362,-2.477102017118292e-05,-2.4739426893337894e-05,0.4505855441093445,47.07168197631836,1.0695464611053467,-21.074556350708008,-0.6301780343055725,-2.3596224784851074,0.33725303411483765,0
74,0.3649899959564209,-0.4267818331718445,-47.04787826538086,-1.0695464611053467,21.122163772583008,0.6539817452430725,2.3788485527038574,-0.37204307317733765,0.0,0.0,0.0,0.0,0.0,0.0,0.0,-0.4244578787822275,-0.27946037098043636,-0.20250486441916135,0.6882774131572599,0.07016943233264139,0.14396804570930943,-0.3410282844201093,0.062287202235899466,0.6882688164915489,-0.07865651822612997,-1.6211040108358135,0.028162169213096302,2.287773653799661,0.8466405593487951,0.06226373270833701,0.6884179775783729,-0.07863937525950354,-1.6210372792796082,0.028167345702647853,2.2878312372101677,0.8466366937888992,0.0004391330761174884,-0.00046912608079982353,-2.403916298225457e-05,-0.00039692612920540655,-0.00029071401173460436,-0.0005006479512640034,0.0012453427443007267,0.0,0.0,0.0,0.0,0.0,0.0,0.0,-2.3469527562457182e-05,0.0001491610868239457,1.7142966626429446e-05,6.673155620529059e-05,5.176489551551172e-06,5.758341050654536e-05,-3.865559895954718e-06,-0.0004391330761174884,0.00046912608079982353,2.403916298225457e-05,0.00039692612920540655,0.00029071401173460436,0.0005006479512640034,-0.0012453427443007267,0.4267818331718445,47.04787826538086,1.0695464611053467,-21.122163772583008,-0.6539817452430725,-2.3788485527038574,0.37204307317733765,0
75,0.3699967861175537,-0.4267818331718445,-47.04787826538086,-1.0695464611053467,21.122163772583008,0.6539817452430725,2.3788485527038574,-0.37204307317733765,0.0,0.0,0.0,0.0,0.0,0.0,0.0,-0.4244578787822275,-0.27946037098043636,-0.20250486441916135,0.6882774131572599,0.07016943233264139,0.14396804570930943,-0.3410282844201093,0.062287202235899466,0.6882688164915489,-0.07865651822612997,-1.6211040108358135,0.028162169213096302,2.287773653799661,0.8466405593487951,0.06226373270833701,0.6884179775783729,-0.07863937525950354,-1.6210372792796082,0.028167345702647853,2.2878312372101677,0.8466366937888992,0.0004391330761174884,-0.00046912608079982353,-2.403916298225457e-05,-0.00039692612920540655,-0.00029071401173460436,-0.0005006479512640034,0.0012453427443007267,0.0,0.0,0.0,0.0,0.0,0.0,0.0,-2.3469527562457182e-05,0.0001491610868239457,1.7142966626429446e-05,6.673155620529059e-05,5.176489551551172e-06,5.758341050654536e-05,-3.865559895954718e-06,-0.0004391330761174884,0.00046912608079982353,2.403916298225457e-05,0.00039692612920540655,0.00029071401173460436,0.0005006479512640034,-0.0012453427443007267,0.4267818331718445,47.04787826538086,1.0695464611053467,-21.122163772583008,-0.6539817452430725,-2.3788485527038574,0.37204307317733765,0
76,0.37505412101745605,-0.4505855441093445,-47.02010726928711,-1.0695464611053467,21.074556350708008,0.6475730538368225,2.3458895683288574,-0.35098594427108765,0.0,0.0,0.0,0.0,0.0,0.0,0.0,-0.42882711740318946,-0.2627074368679197,-0.205677451959367,0.6775651771973652,0.06989695555467938,0.1434654418452996,-0.34134618941736633,0.06228887267175473,0.6882668764799857,-0.07865652114912867,-1.6211006699277644,0.028162881289919218,2.2877741426471148,0.8466382196678056,0.06226373270833701,0.6884179775783729,-0.07863937525950354,-1.6210372792796082,0.028167345702647853,2.2878312372101677,0.8466366937888992,0.00038926000527821634,-0.0008793691143355244,0.00025704648366900245,-6.888028728462033e-05,7.344335246680037e-05,0.000500726813033331,0.001611778077527644,0.0,0.0,0.0,0.0,0.0,0.0,0.0,-2.5139963417721012e-05,0.0001511010983871186,1.7145889625133637e-05,6.339064815619189e-05,4.464412728635153e-06,5.709456305291738e-05,-1.5258789064498401e-06,-0.00038926000527821634,0.0008793691143355244,-0.00025704648366900245,6.888028728462033e-05,-7.344335246680037e-05,-0.000500726813033331,-0.001611778077527644,0.4505855441093445,47.02010726928711,1.0695464611053467,-21.074556350708008,-0.6475730538368225,-2.3458895683288574,0.35098594427108765,0
77,0.38001227378845215,-0.4505855441093445,-47.02010726928711,-1.0695464611053467,21.074556350708008,0.6475730538368225,2.3458895683288574,-0.35098594427108765,0.0,0.0,0.0,0.0,0.0,0.0,0.0,-0.42882711740318946,-0.2627074368679197,-0.205677451959367,0.6775651771973652,0.06989695555467938,0.1434654418452996,-0.34134618941736633,0.06228887267175473,0.6882668764799857,-0.07865652114912867,-1.6211006699277644,0.028162881289919218,2.2877741426471148,0.8466382196678056,0.06226373270833701,0.6884179775783729,-0.07863937525950354,-1.6210372792796082,0.028167345702647853,2.2878312372101677,0.8466366937888992,0.00038926000527821634,-0.0008793691143355244,0.00025704648366900245,-6.888028728462033e-05,7.344335246680037e-05,0.000500726813033331,0.001611778077527644,0.0,0.0,0.0,0.0,0.0,0.0,0.0,-2.5139963417721012e-05,0.0001511010983871186,1.7145889625133637e-05,6.339064815619189e-05,4.464412728635153e-06,5.709456305291738e-05,-1.5258789064498401e-06,-0.00038926000527821634,0.0008793691143355244,-0.00025704648366900245,6.888028728462033e-05,-7.344335246680037e-05,-0.000500726813033331,-0.001611778077527644,0.4505855441093445,47.02010726928711,1.0695464611053467,-21.074556350708008,-0.6475730538368225,-2.3458895683288574,0.35098594427108765,0
78,0.38503384590148926,-0.4029781222343445,-47.04787826538086,-1.0695464611053467,21.074556350708008,0.6420798897743225,2.3660311698913574,-0.31711143255233765,0.0,0.0,0.0,0.0,0.0,0.0,0.0,-0.41842976736730714,-0.26781660892896925,-0.19586336089541423,0.6798638515861116,0.06982600847879822,0.1432830677588219,-0.3408894134348031,0.0622855318000442,0.6882688253218666,-0.07865651865918331,-1.6211006699277641,0.028163491641481717,2.2877750836955313,0.8466344553486533,0.06226373270833701,0.6884179775783729,-0.07863937525950354,-1.6210372792796082,0.028167345702647853,2.2878312372101677,0.8466366937888992,-0.00018018906428206188,-2.522093399789377e-06,-5.895285307094702e-05,-0.00011017565934688855,8.610163238762582e-05,-0.0003529418327433186,-0.0010160566779650157,0.0,0.0,0.0,0.0,0.0,0.0,0.0,-2.1799091707193352e-05,0.00014915225650624642,1.714339967977263e-05,6.339064815596984e-05,3.854061166135708e-06,5.615351463639229e-05,2.238440245827533e-06,0.00018018906428206188,2.522093399789377e-06,5.895285307094702e-05,0.00011017565934688855,-8.610163238762582e-05,0.0003529418327433186,0.0010160566779650157,0.4029781222343445,47.04787826538086,1.0695464611053467,-21.074556350708008,-0.6420798897743225,-2.3660311698913574,0.31711143255233765,0
79,0.390012264251709,-0.4029781222343445,-47.04787826538086,-1.0695464611053467,21.074556350708008,0.6420798897743225,2.3660311698913574,-0.31711143255233765,0.0,0.0,0.0,0.0,0.0,0.0,0.0,-0.41842976736730714,-0.26781660892896925,-0.19586336089541423,0.6798638515861116,0.06982600847879822,0.1432830677588219,-0.3408894134348031,0.0622855318000442,0.6882688253218666,-0.07865651865918331,-1.6211006699277641,0.028163491641481717,2.2877750836955313,0.8466344553486533,0.06226373270833701,0.6884179775783729,-0.07863937525950354,-1.6210372792796082,0.028167345702647853,2.2878312372101677,0.8466366937888992,-0.00018018906428206188,-2.522093399789377e-06,-5.895285307094702e-05,-0.00011017565934688855,8.610163238762582e-05,-0.0003529418327433186,-0.0010160566779650157,0.0,0.0,0.0,0.0,0.0,0.0,0.0,-2.1799091707193352e-05,0.00014915225650624642,1.714339967977263e-05,6.339064815596984e-05,3.854061166135708e-06,5.615351463639229e-05,2.238440245827533e-06,0.00018018906428206188,2.522093399789377e-06,5.895285307094702e-05,0.00011017565934688855,-8.610163238762582e-05,0.0003529418327433186,0.0010160566779650157,0.4029781222343445,47.04787826538086,1.0695464611053467,-21.074556350708008,-0.6420798897743225,-2.3660311698913574,0.31711143255233765,0
