rezayati/contactInterpretation/dataset/franka_main/labeled_data/link7/a6_3.csv
index,time,tau_J0,tau_J1,tau_J2,tau_J3,tau_J4,tau_J5,tau_J6,tau_J_d0,tau_J_d1,tau_J_d2,tau_J_d3,tau_J_d4,tau_J_d5,tau_J_d6,tau_ext0,tau_ext1,tau_ext2,tau_ext3,tau_ext4,tau_ext5,tau_ext6,q0,q1,q2,q3,q4,q5,q6,q_d0,q_d1,q_d2,q_d3,q_d4,q_d5,q_d6,dq0,dq1,dq2,dq3,dq4,dq5,dq6,dq_d0,dq_d1,dq_d2,dq_d3,dq_d4,dq_d5,dq_d6,e0,e1,e2,e3,e4,e5,e6,de0,de1,de2,de3,de4,de5,de6,etau_J0,etau_J1,etau_J2,etau_J3,etau_J4,etau_J5,etau_J6,label
1,0.0,-0.6568843722343445,-34.28908920288086,-4.072781085968018,19.412263870239258,0.1357932686805725,1.815799355506897,-0.11844198405742645,0.0,0.0,0.0,0.0,0.0,0.0,0.0,-0.6528292817975464,-0.2102044649863406,-0.4831157092648615,0.42295356948453694,0.07498492349536749,-0.07527822668168022,-0.14796822238424506,1.0546611179008818,0.32379440709582546,-0.3923334132035573,-2.153053974311928,0.8646232463185984,2.4658544299927416,0.5444933243296862,1.0544104758940245,0.3238615046091247,-0.39250456234122666,-2.153291787532338,0.8647539153680389,2.46587817577521,0.5445020185570556,0.0009684231419229375,-0.00027483036943688966,0.00037369397700012704,0.0008412982866428713,-0.0001667376970877433,0.000541871075770354,-0.0012129230302411948,0.0,0.0,0.0,0.0,0.0,0.0,0.0,-0.00025064200685731564,6.70975132992524e-05,-0.00017114913766935747,-0.00023781322040994368,0.0001306690494404794,2.374578246833181e-05,8.694227369376861e-06,-0.0009684231419229375,0.00027483036943688966,-0.00037369397700012704,-0.0008412982866428713,0.0001667376970877433,-0.000541871075770354,0.0012129230302411948,0.6568843722343445,34.28908920288086,4.072781085968018,-19.412263870239258,-0.1357932686805725,-1.815799355506897,0.11844198405742645,0
2,0.004599094390869141,-0.6568843722343445,-34.28908920288086,-4.072781085968018,19.412263870239258,0.1357932686805725,1.815799355506897,-0.11844198405742645,0.0,0.0,0.0,0.0,0.0,0.0,0.0,-0.6528292817975464,-0.2102044649863406,-0.4831157092648615,0.42295356948453694,0.07498492349536749,-0.07527822668168022,-0.14796822238424506,1.0546611179008818,0.32379440709582546,-0.3923334132035573,-2.153053974311928,0.8646232463185984,2.4658544299927416,0.5444933243296862,1.0544104758940245,0.3238615046091247,-0.39250456234122666,-2.153291787532338,0.8647539153680389,2.46587817577521,0.5445020185570556,0.0009684231419229375,-0.00027483036943688966,0.00037369397700012704,0.0008412982866428713,-0.0001667376970877433,0.000541871075770354,-0.0012129230302411948,0.0,0.0,0.0,0.0,0.0,0.0,0.0,-0.00025064200685731564,6.70975132992524e-05,-0.00017114913766935747,-0.00023781322040994368,0.0001306690494404794,2.374578246833181e-05,8.694227369376861e-06,-0.0009684231419229375,0.00027483036943688966,-0.00037369397700012704,-0.0008412982866428713,0.0001667376970877433,-0.000541871075770354,0.0012129230302411948,0.6568843722343445,34.28908920288086,4.072781085968018,-19.412263870239258,-0.1357932686805725,-1.815799355506897,0.11844198405742645,0
3,0.010185718536376953,-0.6568843722343445,-34.28908920288086,-4.072781085968018,19.412263870239258,0.1357932686805725,1.815799355506897,-0.11844198405742645,0.0,0.0,0.0,0.0,0.0,0.0,0.0,-0.6528292817975464,-0.2102044649863406,-0.4831157092648615,0.42295356948453694,0.07498492349536749,-0.07527822668168022,-0.14796822238424506,1.0546611179008818,0.32379440709582546,-0.3923334132035573,-2.153053974311928,0.8646232463185984,2.4658544299927416,0.5444933243296862,1.0544104758940245,0.3238615046091247,-0.39250456234122666,-2.153291787532338,0.8647539153680389,2.46587817577521,0.5445020185570556,0.0009684231419229375,-0.00027483036943688966,0.00037369397700012704,0.0008412982866428713,-0.0001667376970877433,0.000541871075770354,-0.0012129230302411948,0.0,0.0,0.0,0.0,0.0,0.0,0.0,-0.00025064200685731564,6.70975132992524e-05,-0.00017114913766935747,-0.00023781322040994368,0.0001306690494404794,2.374578246833181e-05,8.694227369376861e-06,-0.0009684231419229375,0.00027483036943688966,-0.00037369397700012704,-0.0008412982866428713,0.0001667376970877433,-0.000541871075770354,0.0012129230302411948,0.6568843722343445,34.28908920288086,4.072781085968018,-19.412263870239258,-0.1357932686805725,-1.815799355506897,0.11844198405742645,0
4,0.014906644821166992,-0.6568843722343445,-34.28908920288086,-4.072781085968018,19.412263870239258,0.1357932686805725,1.815799355506897,-0.11844198405742645,0.0,0.0,0.0,0.0,0.0,0.0,0.0,-0.6528292817975464,-0.2102044649863406,-0.4831157092648615,0.42295356948453694,0.07498492349536749,-0.07527822668168022,-0.14796822238424506,1.0546611179008818,0.32379440709582546,-0.3923334132035573,-2.153053974311928,0.8646232463185984,2.4658544299927416,0.5444933243296862,1.0544104758940245,0.3238615046091247,-0.39250456234122666,-2.153291787532338,0.8647539153680389,2.46587817577521,0.5445020185570556,0.0009684231419229375,-0.00027483036943688966,0.00037369397700012704,0.0008412982866428713,-0.0001667376970877433,0.000541871075770354,-0.0012129230302411948,0.0,0.0,0.0,0.0,0.0,0.0,0.0,-0.00025064200685731564,6.70975132992524e-05,-0.00017114913766935747,-0.00023781322040994368,0.0001306690494404794,2.374578246833181e-05,8.694227369376861e-06,-0.0009684231419229375,0.00027483036943688966,-0.00037369397700012704,-0.0008412982866428713,0.0001667376970877433,-0.000541871075770354,0.0012129230302411948,0.6568843722343445,34.28908920288086,4.072781085968018,-19.412263870239258,-0.1357932686805725,-1.815799355506897,0.11844198405742645,0
5,0.019601106643676758,-0.6291133761405945,-34.36446762084961,-3.9497954845428467,19.459871292114258,0.12389141321182251,1.822208046913147,-0.15231649577617645,0.0,0.0,0.0,0.0,0.0,0.0,0.0,-0.6434113308690963,-0.23805512552309668,-0.48403232295653936,0.44030107092054455,0.07522847206567754,-0.07449708411568132,-0.14876379070244455,1.0546591690590508,0.32379969680936715,-0.3923420437720783,-2.153057237890998,0.8646240860052339,2.4658538268423165,0.5444975177612211,1.0544104758940245,0.3238615046091247,-0.39250456234122666,-2.153291787532338,0.8647539153680389,2.46587817577521,0.5445020185570556,9.00827830128156e-06,0.00016579746036783795,-0.0012650141762897233,-2.0448643475743326e-05,0.00028221708174543206,-1.7145112833516775e-06,0.0003287688808659111,0.0,0.0,0.0,0.0,0.0,0.0,0.0,-0.00024869316502629246,6.180779975756279e-05,-0.00016251856914833995,-0.0002345496413398429,0.000129829362805034,2.4348932893492048e-05,4.500795834472271e-06,-9.00827830128156e-06,-0.00016579746036783795,0.0012650141762897233,2.0448643475743326e-05,-0.00028221708174543206,1.7145112833516775e-06,-0.0003287688808659111,0.6291133761405945,34.36446762084961,3.9497954845428467,-19.459871292114258,-0.12389141321182251,-1.822208046913147,0.15231649577617645,0
6,0.02460026741027832,-0.6291133761405945,-34.36446762084961,-3.9497954845428467,19.459871292114258,0.12389141321182251,1.822208046913147,-0.15231649577617645,0.0,0.0,0.0,0.0,0.0,0.0,0.0,-0.6434113308690963,-0.23805512552309668,-0.48403232295653936,0.44030107092054455,0.07522847206567754,-0.07449708411568132,-0.14876379070244455,1.0546591690590508,0.32379969680936715,-0.3923420437720783,-2.153057237890998,0.8646240860052339,2.4658538268423165,0.5444975177612211,1.0544104758940245,0.3238615046091247,-0.39250456234122666,-2.153291787532338,0.8647539153680389,2.46587817577521,0.5445020185570556,9.00827830128156e-06,0.00016579746036783795,-0.0012650141762897233,-2.0448643475743326e-05,0.00028221708174543206,-1.7145112833516775e-06,0.0003287688808659111,0.0,0.0,0.0,0.0,0.0,0.0,0.0,-0.00024869316502629246,6.180779975756279e-05,-0.00016251856914833995,-0.0002345496413398429,0.000129829362805034,2.4348932893492048e-05,4.500795834472271e-06,-9.00827830128156e-06,-0.00016579746036783795,0.0012650141762897233,2.0448643475743326e-05,-0.00028221708174543206,1.7145112833516775e-06,-0.0003287688808659111,0.6291133761405945,34.36446762084961,3.9497954845428467,-19.459871292114258,-0.12389141321182251,-1.822208046913147,0.15231649577617645,0
7,0.029565095901489258,-0.6291133761405945,-34.31289291381836,-4.025173664093018,19.535249710083008,0.1293845772743225,1.835025429725647,-0.17337362468242645,0.0,0.0,0.0,0.0,0.0,0.0,0.0,-0.6472696966864804,-0.22880224002326477,-0.4798316535464343,0.4357916938343423,0.07539304389334485,-0.07573691544674582,-0.14797192295132588,1.0546591690590508,0.3237960775316807,-0.3923367540752678,-2.1530632060109958,0.864623476147576,2.4658520873765526,0.5444995455773552,1.0544104758940245,0.3238615046091247,-0.39250456234122666,-2.153291787532338,0.8647539153680389,2.46587817577521,0.5445020185570556,0.00029656320348399605,-0.00026231798181961376,0.000894885021401414,-0.0006172284445548725,3.25731811749685e-05,-8.880281408586498e-05,0.0011840676245695834,0.0,0.0,0.0,0.0,0.0,0.0,0.0,-0.00024869316502629246,6.542707744400245e-05,-0.00016780826595885756,-0.0002285815213420861,0.0001304392204629634,2.6088398657364564e-05,2.472979700351985e-06,-0.00029656320348399605,0.00026231798181961376,-0.000894885021401414,0.0006172284445548725,-3.25731811749685e-05,8.880281408586498e-05,-0.0011840676245695834,0.6291133761405945,34.31289291381836,4.025173664093018,-19.535249710083008,-0.1293845772743225,-1.835025429725647,0.17337362468242645,0
8,0.034609079360961914,-0.6291133761405945,-34.31289291381836,-4.025173664093018,19.535249710083008,0.1293845772743225,1.835025429725647,-0.17337362468242645,0.0,0.0,0.0,0.0,0.0,0.0,0.0,-0.6472696966864804,-0.22880224002326477,-0.4798316535464343,0.4357916938343423,0.07539304389334485,-0.07573691544674582,-0.14797192295132588,1.0546591690590508,0.3237960775316807,-0.3923367540752678,-2.1530632060109958,0.864623476147576,2.4658520873765526,0.5444995455773552,1.0544104758940245,0.3238615046091247,-0.39250456234122666,-2.153291787532338,0.8647539153680389,2.46587817577521,0.5445020185570556,0.00029656320348399605,-0.00026231798181961376,0.000894885021401414,-0.0006172284445548725,3.25731811749685e-05,-8.880281408586498e-05,0.0011840676245695834,0.0,0.0,0.0,0.0,0.0,0.0,0.0,-0.00024869316502629246,6.542707744400245e-05,-0.00016780826595885756,-0.0002285815213420861,0.0001304392204629634,2.6088398657364564e-05,2.472979700351985e-06,-0.00029656320348399605,0.00026231798181961376,-0.000894885021401414,0.0006172284445548725,-3.25731811749685e-05,8.880281408586498e-05,-0.0011840676245695834,0.6291133761405945,34.31289291381836,4.025173664093018,-19.535249710083008,-0.1293845772743225,-1.835025429725647,0.17337362468242645,0
9,0.03960561752319336,-0.6053096652030945,-34.28908920288086,-4.072781085968018,19.487642288208008,0.1357932686805725,1.828616738319397,-0.10470907390117645,0.0,0.0,0.0,0.0,0.0,0.0,0.0,-0.6717284249392041,-0.220794104490322,-0.4950010764059875,0.4300144836255154,0.07649709197983652,-0.07422379596916334,-0.14700226134097624,1.0546574986231954,0.32379440709582546,-0.3923334132035573,-2.1530573251501965,0.8646227655606448,2.465848570481743,0.544492858081623,1.0544104758940245,0.3238615046091247,-0.39250456234122666,-2.153291787532338,0.8647539153680389,2.46587817577521,0.5445020185570556,-0.0013674694397941005,-4.936372275921248e-05,0.0004369715417529501,-6.85228723727274e-05,-0.0002512603166655936,-6.957450154078687e-05,-0.0018406620847165787,0.0,0.0,0.0,0.0,0.0,0.0,0.0,-0.000247022729170876,6.70975132992524e-05,-0.00017114913766935747,-0.00023446238214130943,0.0001311498073941486,2.9605293466961058e-05,9.160475432645754e-06,0.0013674694397941005,4.936372275921248e-05,-0.0004369715417529501,6.85228723727274e-05,0.0002512603166655936,6.957450154078687e-05,0.0018406620847165787,0.6053096652030945,34.28908920288086,4.072781085968018,-19.487642288208008,-0.1357932686805725,-1.828616738319397,0.10470907390117645,0
10,0.0446014404296875,-0.6053096652030945,-34.28908920288086,-4.072781085968018,19.487642288208008,0.1357932686805725,1.828616738319397,-0.10470907390117645,0.0,0.0,0.0,0.0,0.0,0.0,0.0,-0.6717284249392041,-0.220794104490322,-0.4950010764059875,0.4300144836255154,0.07649709197983652,-0.07422379596916334,-0.14700226134097624,1.0546574986231954,0.32379440709582546,-0.3923334132035573,-2.1530573251501965,0.8646227655606448,2.465848570481743,0.544492858081623,1.0544104758940245,0.3238615046091247,-0.39250456234122666,-2.153291787532338,0.8647539153680389,2.46587817577521,0.5445020185570556,-0.0013674694397941005,-4.936372275921248e-05,0.0004369715417529501,-6.85228723727274e-05,-0.0002512603166655936,-6.957450154078687e-05,-0.0018406620847165787,0.0,0.0,0.0,0.0,0.0,0.0,0.0,-0.000247022729170876,6.70975132992524e-05,-0.00017114913766935747,-0.00023446238214130943,0.0001311498073941486,2.9605293466961058e-05,9.160475432645754e-06,0.0013674694397941005,4.936372275921248e-05,-0.0004369715417529501,6.85228723727274e-05,0.0002512603166655936,6.957450154078687e-05,0.0018406620847165787,0.6053096652030945,34.28908920288086,4.072781085968018,-19.487642288208008,-0.1357932686805725,-1.828616738319397,0.10470907390117645,0
11,0.049605369567871094,-0.6568843722343445,-34.28908920288086,-4.096584796905518,19.459871292114258,0.11748272180557251,1.835025429725647,-0.15964071452617645,0.0,0.0,0.0,0.0,0.0,0.0,0.0,-0.6640707497914434,-0.22224892829978427,-0.4919941787972481,0.43540553600258175,0.07635081694633195,-0.07473634976924912,-0.1471338385724351,1.0546611179008818,0.32379440709582546,-0.392331742767702,-2.153058127992937,0.8646251601223629,2.465848917157168,0.5444983729164877,1.0544104758940245,0.3238615046091247,-0.39250456234122666,-2.153291787532338,0.8647539153680389,2.46587817577521,0.5445020185570556,-0.001157996558169352,0.0003451128236145476,0.0002912019547024661,-0.0002157538165152348,0.0006141382914678367,-0.0002833364822810541,0.0001751289315045688,0.0,0.0,0.0,0.0,0.0,0.0,0.0,-0.00025064200685731564,6.70975132992524e-05,-0.00017281957352466293,-0.00023365953940102102,0.00012875524567601548,2.9258618042149465e-05,3.6456405678730874e-06,0.001157996558169352,-0.0003451128236145476,-0.0002912019547024661,0.0002157538165152348,-0.0006141382914678367,0.0002833364822810541,-0.0001751289315045688,0.6568843722343445,34.28908920288086,4.096584796905518,-19.459871292114258,-0.11748272180557251,-1.835025429725647,0.15964071452617645,0
12,0.05460095405578613,-0.6568843722343445,-34.28908920288086,-4.096584796905518,19.459871292114258,0.11748272180557251,1.835025429725647,-0.15964071452617645,0.0,0.0,0.0,0.0,0.0,0.0,0.0,-0.6640707497914434,-0.22224892829978427,-0.4919941787972481,0.43540553600258175,0.07635081694633195,-0.07473634976924912,-0.1471338385724351,1.0546611179008818,0.32379440709582546,-0.392331742767702,-2.153058127992937,0.8646251601223629,2.465848917157168,0.5444983729164877,1.0544104758940245,0.3238615046091247,-0.39250456234122666,-2.153291787532338,0.8647539153680389,2.46587817577521,0.5445020185570556,-0.001157996558169352,0.0003451128236145476,0.0002912019547024661,-0.0002157538165152348,0.0006141382914678367,-0.0002833364822810541,0.0001751289315045688,0.0,0.0,0.0,0.0,0.0,0.0,0.0,-0.00025064200685731564,6.70975132992524e-05,-0.00017281957352466293,-0.00023365953940102102,0.00012875524567601548,2.9258618042149465e-05,3.6456405678730874e-06,0.001157996558169352,-0.0003451128236145476,-0.0002912019547024661,0.0002157538165152348,-0.0006141382914678367,0.0002833364822810541,-0.0001751289315045688,0.6568843722343445,34.28908920288086,4.096584796905518,-19.459871292114258,-0.11748272180557251,-1.835025429725647,0.15964071452617645,0
13,0.059598684310913086,-0.7322627902030945,-34.28908920288086,-4.072781085968018,19.487642288208008,0.1357932686805725,1.835025429725647,-0.17337362468242645,0.0,0.0,0.0,0.0,0.0,0.0,0.0,-0.6559201989970826,-0.23188718351982454,-0.4882221953115216,0.44617883112192724,0.07594103368205307,-0.07377729786967475,-0.1476301998312293,1.0546664076144234,0.32379440709582546,-0.3923334132035573,-2.153060178504322,0.8646238541790041,2.4658519841687,0.5445009448499954,1.0544104758940245,0.3238615046091247,-0.39250456234122666,-2.153291787532338,0.8647539153680389,2.46587817577521,0.5445020185570556,0.0006068306070030213,-0.00018827562679657255,0.00013509431875662696,-8.267737725511087e-06,-0.00018308769286516736,0.00026299111145084363,0.0009492219831212965,0.0,0.0,0.0,0.0,0.0,0.0,0.0,-0.00025593172039894974,6.70975132992524e-05,-0.00017114913766935747,-0.0002316090280158889,0.00013006118903480246,2.6191606509851084e-05,1.0737070601507526e-06,-0.0006068306070030213,0.00018827562679657255,-0.00013509431875662696,8.267737725511087e-06,0.00018308769286516736,-0.00026299111145084363,-0.0009492219831212965,0.7322627902030945,34.28908920288086,4.072781085968018,-19.487642288208008,-0.1357932686805725,-1.835025429725647,0.17337362468242645,0
14,0.06460785865783691,-0.7322627902030945,-34.28908920288086,-4.072781085968018,19.487642288208008,0.1357932686805725,1.835025429725647,-0.17337362468242645,0.0,0.0,0.0,0.0,0.0,0.0,0.0,-0.6559201989970826,-0.23188718351982454,-0.4882221953115216,0.44617883112192724,0.07594103368205307,-0.07377729786967475,-0.1476301998312293,1.0546664076144234,0.32379440709582546,-0.3923334132035573,-2.153060178504322,0.8646238541790041,2.4658519841687,0.5445009448499954,1.0544104758940245,0.3238615046091247,-0.39250456234122666,-2.153291787532338,0.8647539153680389,2.46587817577521,0.5445020185570556,0.0006068306070030213,-0.00018827562679657255,0.00013509431875662696,-8.267737725511087e-06,-0.00018308769286516736,0.00026299111145084363,0.0009492219831212965,0.0,0.0,0.0,0.0,0.0,0.0,0.0,-0.00025593172039894974,6.70975132992524e-05,-0.00017114913766935747,-0.0002316090280158889,0.00013006118903480246,2.6191606509851084e-05,1.0737070601507526e-06,-0.0006068306070030213,0.00018827562679657255,-0.00013509431875662696,8.267737725511087e-06,0.00018308769286516736,-0.00026299111145084363,-0.0009492219831212965,0.7322627902030945,34.28908920288086,4.072781085968018,-19.487642288208008,-0.1357932686805725,-1.835025429725647,0.17337362468242645,0
15,0.06960678100585938,-0.6806880831718445,-34.28908920288086,-4.048977375030518,19.459871292114258,0.12389141321182251,1.815799355506897,-0.16604940593242645,0.0,0.0,0.0,0.0,0.0,0.0,0.0,-0.6564437661228403,-0.21910667698199043,-0.484192995694361,0.4374221417251974,0.07533059088109192,-0.07409463368271554,-0.14916017886136396,1.0546627883367372,0.32379440709582546,-0.39233508363941255,-2.1530579953169835,0.864624086004561,2.4658544212892646,0.5444996673833031,1.0544104758940245,0.3238615046091247,-0.39250456234122666,-2.153291787532338,0.8647539153680389,2.46587817577521,0.5445020185570556,9.825594494445737e-05,-0.00038803570444541265,-0.00043627809041641737,0.00017354416336356945,0.00018030701787318838,0.00039066844731578965,0.0010177251528267215,0.0,0.0,0.0,0.0,0.0,0.0,0.0,-0.0002523124427127321,6.70975132992524e-05,-0.0001694787018141075,-0.0002337922153543559,0.00012982936347794016,2.3754485945381987e-05,2.351173752468405e-06,-9.825594494445737e-05,0.00038803570444541265,0.00043627809041641737,-0.00017354416336356945,-0.00018030701787318838,-0.00039066844731578965,-0.0010177251528267215,0.6806880831718445,34.28908920288086,4.048977375030518,-19.459871292114258,-0.12389141321182251,-1.815799355506897,0.16604940593242645,0
16,0.07460212707519531,-0.6806880831718445,-34.28908920288086,-4.048977375030518,19.459871292114258,0.12389141321182251,1.815799355506897,-0.16604940593242645,0.0,0.0,0.0,0.0,0.0,0.0,0.0,-0.6564437661228403,-0.21910667698199043,-0.484192995694361,0.4374221417251974,0.07533059088109192,-0.07409463368271554,-0.14916017886136396,1.0546627883367372,0.32379440709582546,-0.39233508363941255,-2.1530579953169835,0.864624086004561,2.4658544212892646,0.5444996673833031,1.0544104758940245,0.3238615046091247,-0.39250456234122666,-2.153291787532338,0.8647539153680389,2.46587817577521,0.5445020185570556,9.825594494445737e-05,-0.00038803570444541265,-0.00043627809041641737,0.00017354416336356945,0.00018030701787318838,0.00039066844731578965,0.0010177251528267215,0.0,0.0,0.0,0.0,0.0,0.0,0.0,-0.0002523124427127321,6.70975132992524e-05,-0.0001694787018141075,-0.0002337922153543559,0.00012982936347794016,2.3754485945381987e-05,2.351173752468405e-06,-9.825594494445737e-05,0.00038803570444541265,0.00043627809041641737,-0.00017354416336356945,-0.00018030701787318838,-0.00039066844731578965,-0.0010177251528267215,0.6806880831718445,34.28908920288086,4.048977375030518,-19.459871292114258,-0.12389141321182251,-1.815799355506897,0.16604940593242645,0
17,0.07956314086914062,-0.6291133761405945,-34.26528549194336,-4.048977375030518,19.487642288208008,0.1357932686805725,1.822208046913147,-0.16604940593242645,0.0,0.0,0.0,0.0,0.0,0.0,0.0,-0.6518804807107724,-0.21717535390005402,-0.4793520186829384,0.4376590049615256,0.07448011218322799,-0.07571494634630682,-0.1477343824452881,1.0546591690590508,0.3237927366599702,-0.39233508363941255,-2.1530573251856358,0.8646260621883741,2.4658534040206512,0.5444999876462056,1.0544104758940245,0.3238615046091247,-0.39250456234122666,-2.153291787532338,0.8647539153680389,2.46587817577521,0.5445020185570556,-0.00014586773465189232,-0.0004135918570638865,4.122751845982994e-05,-0.0007094755908190347,-0.0004153745233819458,0.00022190964406443187,0.0010577105501082173,0.0,0.0,0.0,0.0,0.0,0.0,0.0,-0.00024869316502629246,6.876794915450235e-05,-0.0001694787018141075,-0.0002344623467021023,0.00012785317966479415,2.477175455872782e-05,2.030910850048251e-06,0.00014586773465189232,0.0004135918570638865,-4.122751845982994e-05,0.0007094755908190347,0.0004153745233819458,-0.00022190964406443187,-0.0010577105501082173,0.6291133761405945,34.26528549194336,4.048977375030518,-19.487642288208008,-0.1357932686805725,-1.822208046913147,0.16604940593242645,0
18,0.08460402488708496,-0.6291133761405945,-34.26528549194336,-4.048977375030518,19.487642288208008,0.1357932686805725,1.822208046913147,-0.16604940593242645,0.0,0.0,0.0,0.0,0.0,0.0,0.0,-0.6518804807107724,-0.21717535390005402,-0.4793520186829384,0.4376590049615256,0.07448011218322799,-0.07571494634630682,-0.1477343824452881,1.0546591690590508,0.3237927366599702,-0.39233508363941255,-2.1530573251856358,0.8646260621883741,2.4658534040206512,0.5444999876462056,1.0544104758940245,0.3238615046091247,-0.39250456234122666,-2.153291787532338,0.8647539153680389,2.46587817577521,0.5445020185570556,-0.00014586773465189232,-0.0004135918570638865,4.122751845982994e-05,-0.0007094755908190347,-0.0004153745233819458,0.00022190964406443187,0.0010577105501082173,0.0,0.0,0.0,0.0,0.0,0.0,0.0,-0.00024869316502629246,6.876794915450235e-05,-0.0001694787018141075,-0.0002344623467021023,0.00012785317966479415,2.477175455872782e-05,2.030910850048251e-06,0.00014586773465189232,0.0004135918570638865,-4.122751845982994e-05,0.0007094755908190347,0.0004153745233819458,-0.00022190964406443187,-0.0010577105501082173,0.6291133761405945,34.26528549194336,4.048977375030518,-19.487642288208008,-0.1357932686805725,-1.822208046913147,0.16604940593242645,0
19,0.0895991325378418,-0.6806880831718445,-34.33669662475586,-3.9974029064178467,19.487642288208008,0.12389141321182251,1.835025429725647,-0.13858358561992645,0.0,0.0,0.0,0.0,0.0,0.0,0.0,-0.6724833665275367,-0.23753479576108244,-0.5033675260822954,0.44672206437387957,0.0756830569978347,-0.0736080505090666,-0.14636008107799406,1.0546627883367372,0.32379774796753596,-0.39233657700137087,-2.153058089590234,0.8646273445739204,2.4658492698016024,0.544496582623656,1.0544104758940245,0.3238615046091247,-0.39250456234122666,-2.153291787532338,0.8647539153680389,2.46587817577521,0.5445020185570556,0.0005925801786876006,0.00033998565946284566,-0.001543497200071646,-2.8362873029461305e-05,0.0003266561135171239,4.176958235222844e-05,0.00014608002016925896,0.0,0.0,0.0,0.0,0.0,0.0,0.0,-0.0002523124427127321,6.37566415887525e-05,-0.00016798533985579178,-0.00023369794210381656,0.0001265707941184857,2.890597360760694e-05,5.435933399633441e-06,-0.0005925801786876006,-0.00033998565946284566,0.001543497200071646,2.8362873029461305e-05,-0.0003266561135171239,-4.176958235222844e-05,-0.00014608002016925896,0.6806880831718445,34.33669662475586,3.9974029064178467,-19.487642288208008,-0.12389141321182251,-1.835025429725647,0.13858358561992645,0
20,0.09460163116455078,-0.6806880831718445,-34.33669662475586,-3.9974029064178467,19.487642288208008,0.12389141321182251,1.835025429725647,-0.13858358561992645,0.0,0.0,0.0,0.0,0.0,0.0,0.0,-0.6724833665275367,-0.23753479576108244,-0.5033675260822954,0.44672206437387957,0.0756830569978347,-0.0736080505090666,-0.14636008107799406,1.0546627883367372,0.32379774796753596,-0.39233657700137087,-2.153058089590234,0.8646273445739204,2.4658492698016024,0.544496582623656,1.0544104758940245,0.3238615046091247,-0.39250456234122666,-2.153291787532338,0.8647539153680389,2.46587817577521,0.5445020185570556,0.0005925801786876006,0.00033998565946284566,-0.001543497200071646,-2.8362873029461305e-05,0.0003266561135171239,4.176958235222844e-05,0.00014608002016925896,0.0,0.0,0.0,0.0,0.0,0.0,0.0,-0.0002523124427127321,6.37566415887525e-05,-0.00016798533985579178,-0.00023369794210381656,0.0001265707941184857,2.890597360760694e-05,5.435933399633441e-06,-0.0005925801786876006,-0.00033998565946284566,0.001543497200071646,2.8362873029461305e-05,-0.0003266561135171239,-4.176958235222844e-05,-0.00014608002016925896,0.6806880831718445,34.33669662475586,3.9974029064178467,-19.487642288208008,-0.12389141321182251,-1.835025429725647,0.13858358561992645,0
21,0.09960246086120605,-0.6806880831718445,-34.31289291381836,-4.072781085968018,19.459871292114258,0.12389141321182251,1.835025429725647,-0.15231649577617645,0.0,0.0,0.0,0.0,0.0,0.0,0.0,-0.6754883350785218,-0.22571695041516682,-0.5026416745814368,0.44000488349457245,0.07628448825385319,-0.07375474376091577,-0.14504412008929893,1.0546627883367372,0.3237960775316807,-0.3923334131915565,-2.153055852516396,0.8646242067019126,2.4658519652606468,0.5444986172969893,1.0544104758940245,0.3238615046091247,-0.39250456234122666,-2.153291787532338,0.8647539153680389,2.46587817577521,0.5445020185570556,-0.0005062122161876214,-5.488534725763439e-05,0.00017035892803617014,0.0007786232468731149,0.00035493009911180025,-0.00023481795840977018,-0.00016187253548280542,0.0,0.0,0.0,0.0,0.0,0.0,0.0,-0.0002523124427127321,6.542707744400245e-05,-0.00017114914967014672,-0.0002359350159419904,0.0001297086661262714,2.621051456319634e-05,3.401260066260292e-06,0.0005062122161876214,5.488534725763439e-05,-0.00017035892803617014,-0.0007786232468731149,-0.00035493009911180025,0.00023481795840977018,0.00016187253548280542,0.6806880831718445,34.31289291381836,4.072781085968018,-19.459871292114258,-0.12389141321182251,-1.835025429725647,0.15231649577617645,0
22,0.10461306571960449,-0.6806880831718445,-34.31289291381836,-4.072781085968018,19.459871292114258,0.12389141321182251,1.835025429725647,-0.15231649577617645,0.0,0.0,0.0,0.0,0.0,0.0,0.0,-0.6754883350785218,-0.22571695041516682,-0.5026416745814368,0.44000488349457245,0.07628448825385319,-0.07375474376091577,-0.14504412008929893,1.0546627883367372,0.3237960775316807,-0.3923334131915565,-2.153055852516396,0.8646242067019126,2.4658519652606468,0.5444986172969893,1.0544104758940245,0.3238615046091247,-0.39250456234122666,-2.153291787532338,0.8647539153680389,2.46587817577521,0.5445020185570556,-0.0005062122161876214,-5.488534725763439e-05,0.00017035892803617014,0.0007786232468731149,0.00035493009911180025,-0.00023481795840977018,-0.00016187253548280542,0.0,0.0,0.0,0.0,0.0,0.0,0.0,-0.0002523124427127321,6.542707744400245e-05,-0.00017114914967014672,-0.0002359350159419904,0.0001297086661262714,2.621051456319634e-05,3.401260066260292e-06,0.0005062122161876214,5.488534725763439e-05,-0.00017035892803617014,-0.0007786232468731149,-0.00035493009911180025,0.00023481795840977018,0.00016187253548280542,0.6806880831718445,34.31289291381836,4.072781085968018,-19.459871292114258,-0.12389141321182251,-1.835025429725647,0.15231649577617645,0
23,0.1096031665802002,-0.6568843722343445,-34.26528549194336,-4.048977375030518,19.436067581176758,0.12389141321182251,1.835025429725647,-0.12485067546367645,0.0,0.0,0.0,0.0,0.0,0.0,0.0,-0.6541427374057167,-0.21529366486157686,-0.48069029316034134,0.43510204006360614,0.0757634680165064,-0.07575248596231082,-0.14606950858012774,1.0546611179008818,0.3237927366599702,-0.3923350836394125,-2.153053574532595,0.8646240994121912,2.465851349939592,0.5444944548143202,1.0544104758940245,0.3238615046091247,-0.39250456234122666,-2.153291787532338,0.8647539153680389,2.46587817577521,0.5445020185570556,0.00032874498609334626,-0.0005576350755345735,0.00032498195132131487,0.000633559446240651,0.0002564913584481375,-0.0002325890048996519,-0.0008989127545632539,0.0,0.0,0.0,0.0,0.0,0.0,0.0,-0.00025064200685731564,6.876794915450235e-05,-0.00016947870181416302,-0.00023821299974269294,0.00012981595584771188,2.682583561774976e-05,7.563742735361423e-06,-0.00032874498609334626,0.0005576350755345735,-0.00032498195132131487,-0.000633559446240651,-0.0002564913584481375,0.0002325890048996519,0.0008989127545632539,0.6568843722343445,34.26528549194336,4.048977375030518,-19.436067581176758,-0.12389141321182251,-1.835025429725647,0.12485067546367645,0
24,0.11461496353149414,-0.6568843722343445,-34.26528549194336,-4.048977375030518,19.436067581176758,0.12389141321182251,1.835025429725647,-0.12485067546367645,0.0,0.0,0.0,0.0,0.0,0.0,0.0,-0.6541427374057167,-0.21529366486157686,-0.48069029316034134,0.43510204006360614,0.0757634680165064,-0.07575248596231082,-0.14606950858012774,1.0546611179008818,0.3237927366599702,-0.3923350836394125,-2.153053574532595,0.8646240994121912,2.465851349939592,0.5444944548143202,1.0544104758940245,0.3238615046091247,-0.39250456234122666,-2.153291787532338,0.8647539153680389,2.46587817577521,0.5445020185570556,0.00032874498609334626,-0.0005576350755345735,0.00032498195132131487,0.000633559446240651,0.0002564913584481375,-0.0002325890048996519,-0.0008989127545632539,0.0,0.0,0.0,0.0,0.0,0.0,0.0,-0.00025064200685731564,6.876794915450235e-05,-0.00016947870181416302,-0.00023821299974269294,0.00012981595584771188,2.682583561774976e-05,7.563742735361423e-06,-0.00032874498609334626,0.0005576350755345735,-0.00032498195132131487,-0.000633559446240651,-0.0002564913584481375,0.0002325890048996519,0.0008989127545632539,0.6568843722343445,34.26528549194336,4.048977375030518,-19.436067581176758,-0.12389141321182251,-1.835025429725647,0.12485067546367645,0
25,0.11961030960083008,-0.6568843722343445,-34.26528549194336,-4.048977375030518,19.436067581176758,0.12389141321182251,1.835025429725647,-0.12485067546367645,0.0,0.0,0.0,0.0,0.0,0.0,0.0,-0.6541427374057167,-0.21529366486157686,-0.48069029316034134,0.43510204006360614,0.0757634680165064,-0.07575248596231082,-0.14606950858012774,1.0546611179008818,0.3237927366599702,-0.3923350836394125,-2.153053574532595,0.8646240994121912,2.465851349939592,0.5444944548143202,1.0544104758940245,0.3238615046091247,-0.39250456234122666,-2.153291787532338,0.8647539153680389,2.46587817577521,0.5445020185570556,0.00032874498609334626,-0.0005576350755345735,0.00032498195132131487,0.000633559446240651,0.0002564913584481375,-0.0002325890048996519,-0.0008989127545632539,0.0,0.0,0.0,0.0,0.0,0.0,0.0,-0.00025064200685731564,6.876794915450235e-05,-0.00016947870181416302,-0.00023821299974269294,0.00012981595584771188,2.682583561774976e-05,7.563742735361423e-06,-0.00032874498609334626,0.0005576350755345735,-0.00032498195132131487,-0.000633559446240651,-0.0002564913584481375,0.0002325890048996519,0.0008989127545632539,0.6568843722343445,34.26528549194336,4.048977375030518,-19.436067581176758,-0.12389141321182251,-1.835025429725647,0.12485067546367645,0
26,0.12455892562866211,-0.6568843722343445,-34.26528549194336,-4.048977375030518,19.436067581176758,0.12389141321182251,1.835025429725647,-0.12485067546367645,0.0,0.0,0.0,0.0,0.0,0.0,0.0,-0.6541427374057167,-0.21529366486157686,-0.48069029316034134,0.43510204006360614,0.0757634680165064,-0.07575248596231082,-0.14606950858012774,1.0546611179008818,0.3237927366599702,-0.3923350836394125,-2.153053574532595,0.8646240994121912,2.465851349939592,0.5444944548143202,1.0544104758940245,0.3238615046091247,-0.39250456234122666,-2.153291787532338,0.8647539153680389,2.46587817577521,0.5445020185570556,0.00032874498609334626,-0.0005576350755345735,0.00032498195132131487,0.000633559446240651,0.0002564913584481375,-0.0002325890048996519,-0.0008989127545632539,0.0,0.0,0.0,0.0,0.0,0.0,0.0,-0.00025064200685731564,6.876794915450235e-05,-0.00016947870181416302,-0.00023821299974269294,0.00012981595584771188,2.682583561774976e-05,7.563742735361423e-06,-0.00032874498609334626,0.0005576350755345735,-0.00032498195132131487,-0.000633559446240651,-0.0002564913584481375,0.0002325890048996519,0.0008989127545632539,0.6568843722343445,34.26528549194336,4.048977375030518,-19.436067581176758,-0.12389141321182251,-1.835025429725647,0.12485067546367645,0
27,0.12959671020507812,-0.6568843722343445,-34.28908920288086,-4.072781085968018,19.487642288208008,0.1357932686805725,1.828616738319397,-0.13217489421367645,0.0,0.0,0.0,0.0,0.0,0.0,0.0,-0.6554191667318828,-0.22355439283243017,-0.4855021425296791,0.4421831942518519,0.07579558618410706,-0.07421814086747698,-0.14596951104749584,1.0546611179008818,0.32379440709582546,-0.3923334132035573,-2.1530573991446342,0.864626022513207,2.465849970358297,0.544496380795598,1.0544104758940245,0.3238615046091247,-0.39250456234122666,-2.153291787532338,0.8647539153680389,2.46587817577521,0.5445020185570556,0.000622628670718537,0.00040604631031358204,0.0009092258437957154,-0.00020157566092817014,-0.000261954933656038,-6.193933299834833e-05,-0.0007300885013468168,0.0,0.0,0.0,0.0,0.0,0.0,0.0,-0.00025064200685731564,6.70975132992524e-05,-0.00017114913766935747,-0.00023438838770362125,0.0001278928548319458,2.820541691317402e-05,5.637761457566448e-06,-0.000622628670718537,-0.00040604631031358204,-0.0009092258437957154,0.00020157566092817014,0.000261954933656038,6.193933299834833e-05,0.0007300885013468168,0.6568843722343445,34.28908920288086,4.072781085968018,-19.487642288208008,-0.1357932686805725,-1.828616738319397,0.13217489421367645,0
28,0.1345975399017334,-0.6568843722343445,-34.28908920288086,-4.072781085968018,19.487642288208008,0.1357932686805725,1.828616738319397,-0.13217489421367645,0.0,0.0,0.0,0.0,0.0,0.0,0.0,-0.6554191667318828,-0.22355439283243017,-0.4855021425296791,0.4421831942518519,0.07579558618410706,-0.07421814086747698,-0.14596951104749584,1.0546611179008818,0.32379440709582546,-0.3923334132035573,-2.1530573991446342,0.864626022513207,2.465849970358297,0.544496380795598,1.0544104758940245,0.3238615046091247,-0.39250456234122666,-2.153291787532338,0.8647539153680389,2.46587817577521,0.5445020185570556,0.000622628670718537,0.00040604631031358204,0.0009092258437957154,-0.00020157566092817014,-0.000261954933656038,-6.193933299834833e-05,-0.0007300885013468168,0.0,0.0,0.0,0.0,0.0,0.0,0.0,-0.00025064200685731564,6.70975132992524e-05,-0.00017114913766935747,-0.00023438838770362125,0.0001278928548319458,2.820541691317402e-05,5.637761457566448e-06,-0.000622628670718537,-0.00040604631031358204,-0.0009092258437957154,0.00020157566092817014,0.000261954933656038,6.193933299834833e-05,0.0007300885013468168,0.6568843722343445,34.28908920288086,4.072781085968018,-19.487642288208008,-0.1357932686805725,-1.828616738319397,0.13217489421367645,0
29,0.1396024227142334,-0.6806880831718445,-34.31289291381836,-4.025173664093018,19.487642288208008,0.1357932686805725,1.815799355506897,-0.13217489421367645,0.0,0.0,0.0,0.0,0.0,0.0,0.0,-0.6453677140894103,-0.22765142342184586,-0.4796111080126796,0.4449796354895158,0.07576515750273755,-0.07497525611778943,-0.14617832182576226,1.0546627883367372,0.3237960775316807,-0.3923367540752678,-2.1530580112066087,0.8646238497216027,2.4658512756817017,0.5444928354271351,1.0544104758940245,0.3238615046091247,-0.39250456234122666,-2.153291787532338,0.8647539153680389,2.46587817577521,0.5445020185570556,0.0012609735804913456,0.00015210817326204311,0.0006709574063112971,-0.0003290398258558345,-0.00020408382336134482,0.0001867102139361931,-0.0005658872080857044,0.0,0.0,0.0,0.0,0.0,0.0,0.0,-0.0002523124427127321,6.542707744400245e-05,-0.00016780826595885756,-0.00023377632572918472,0.0001300656464362504,2.6900093508253065e-05,9.183129920486977e-06,-0.0012609735804913456,-0.00015210817326204311,-0.0006709574063112971,0.0003290398258558345,0.00020408382336134482,-0.0001867102139361931,0.0005658872080857044,0.6806880831718445,34.31289291381836,4.025173664093018,-19.487642288208008,-0.1357932686805725,-1.815799355506897,0.13217489421367645,0
30,0.14460086822509766,-0.6806880831718445,-34.31289291381836,-4.025173664093018,19.487642288208008,0.1357932686805725,1.815799355506897,-0.13217489421367645,0.0,0.0,0.0,0.0,0.0,0.0,0.0,-0.6453677140894103,-0.22765142342184586,-0.4796111080126796,0.4449796354895158,0.07576515750273755,-0.07497525611778943,-0.14617832182576226,1.0546627883367372,0.3237960775316807,-0.3923367540752678,-2.1530580112066087,0.8646238497216027,2.4658512756817017,0.5444928354271351,1.0544104758940245,0.3238615046091247,-0.39250456234122666,-2.153291787532338,0.8647539153680389,2.46587817577521,0.5445020185570556,0.0012609735804913456,0.00015210817326204311,0.0006709574063112971,-0.0003290398258558345,-0.00020408382336134482,0.0001867102139361931,-0.0005658872080857044,0.0,0.0,0.0,0.0,0.0,0.0,0.0,-0.0002523124427127321,6.542707744400245e-05,-0.00016780826595885756,-0.00023377632572918472,0.0001300656464362504,2.6900093508253065e-05,9.183129920486977e-06,-0.0012609735804913456,-0.00015210817326204311,-0.0006709574063112971,0.0003290398258558345,0.00020408382336134482,-0.0001867102139361931,0.0005658872080857044,0.6806880831718445,34.31289291381836,4.025173664093018,-19.487642288208008,-0.1357932686805725,-1.815799355506897,0.13217489421367645,0
31,0.14959502220153809,-0.6291133761405945,-34.26528549194336,-4.072781085968018,19.487642288208008,0.11748272180557251,1.828616738319397,-0.13858358561992645,0.0,0.0,0.0,0.0,0.0,0.0,0.0,-0.6572522928721669,-0.22070483097502808,-0.486833869656686,0.43953244196427765,0.07667932110967685,-0.07624202511153244,-0.14756259832266946,1.0546591690590508,0.3237927366599702,-0.3923334132035573,-2.153059388957761,0.8646249590077814,2.4658531624043127,0.5444969746457557,1.0544104758940245,0.3238615046091247,-0.39250456234122666,-2.153291787532338,0.8647539153680389,2.46587817577521,0.5445020185570556,-0.0003653737031209584,-0.0005007165507698512,0.0006743493176817444,-0.0006041613838101892,0.0005469982101202429,-0.00014722936102114085,-0.0006969521727083499,0.0,0.0,0.0,0.0,0.0,0.0,0.0,-0.00024869316502629246,6.876794915450235e-05,-0.00017114913766935747,-0.0002323985745769086,0.0001289563602575594,2.501337089722e-05,5.043911299851267e-06,0.0003653737031209584,0.0005007165507698512,-0.0006743493176817444,0.0006041613838101892,-0.0005469982101202429,0.00014722936102114085,0.0006969521727083499,0.6291133761405945,34.26528549194336,4.072781085968018,-19.487642288208008,-0.11748272180557251,-1.828616738319397,0.13858358561992645,0
32,0.1546006202697754,-0.6291133761405945,-34.26528549194336,-4.072781085968018,19.487642288208008,0.11748272180557251,1.828616738319397,-0.13858358561992645,0.0,0.0,0.0,0.0,0.0,0.0,0.0,-0.6572522928721669,-0.22070483097502808,-0.486833869656686,0.43953244196427765,0.07667932110967685,-0.07624202511153244,-0.14756259832266946,1.0546591690590508,0.3237927366599702,-0.3923334132035573,-2.153059388957761,0.8646249590077814,2.4658531624043127,0.5444969746457557,1.0544104758940245,0.3238615046091247,-0.39250456234122666,-2.153291787532338,0.8647539153680389,2.46587817577521,0.5445020185570556,-0.0003653737031209584,-0.0005007165507698512,0.0006743493176817444,-0.0006041613838101892,0.0005469982101202429,-0.00014722936102114085,-0.0006969521727083499,0.0,0.0,0.0,0.0,0.0,0.0,0.0,-0.00024869316502629246,6.876794915450235e-05,-0.00017114913766935747,-0.0002323985745769086,0.0001289563602575594,2.501337089722e-05,5.043911299851267e-06,0.0003653737031209584,0.0005007165507698512,-0.0006743493176817444,0.0006041613838101892,-0.0005469982101202429,0.00014722936102114085,0.0006969521727083499,0.6291133761405945,34.26528549194336,4.072781085968018,-19.487642288208008,-0.11748272180557251,-1.828616738319397,0.13858358561992645,0
33,0.1596088409423828,-0.6806880831718445,-34.26528549194336,-4.096584796905518,19.487642288208008,0.1357932686805725,1.847842812538147,-0.14590780436992645,0.0,0.0,0.0,0.0,0.0,0.0,0.0,-0.660612310827165,-0.22117333325847505,-0.492576662319121,0.4411338751088389,0.0766362086224989,-0.07587829124287795,-0.14859029237235757,1.0546627883367372,0.3237927366599702,-0.39233150655670235,-2.153057162955527,0.8646227635750318,2.4658506250001877,0.5444946885156849,1.0544104758940245,0.3238615046091247,-0.39250456234122666,-2.153291787532338,0.8647539153680389,2.46587817577521,0.5445020185570556,0.0001455157537278953,-0.00030955583858278165,0.0004924146460970363,-0.00023928437855820964,-0.0001153086531274567,-0.0003279083702501574,6.24669136809846e-05,0.0,0.0,0.0,0.0,0.0,0.0,0.0,-0.0002523124427127321,6.876794915450235e-05,-0.00017305578452431192,-0.00023462457681100446,0.00013115179300715596,2.755077502225589e-05,7.330041370656737e-06,-0.0001455157537278953,0.00030955583858278165,-0.0004924146460970363,0.00023928437855820964,0.0001153086531274567,0.0003279083702501574,-6.24669136809846e-05,0.6806880831718445,34.26528549194336,4.096584796905518,-19.487642288208008,-0.1357932686805725,-1.847842812538147,0.14590780436992645,0
34,0.1646103858947754,-0.6806880831718445,-34.26528549194336,-4.096584796905518,19.487642288208008,0.1357932686805725,1.847842812538147,-0.14590780436992645,0.0,0.0,0.0,0.0,0.0,0.0,0.0,-0.660612310827165,-0.22117333325847505,-0.492576662319121,0.4411338751088389,0.0766362086224989,-0.07587829124287795,-0.14859029237235757,1.0546627883367372,0.3237927366599702,-0.39233150655670235,-2.153057162955527,0.8646227635750318,2.4658506250001877,0.5444946885156849,1.0544104758940245,0.3238615046091247,-0.39250456234122666,-2.153291787532338,0.8647539153680389,2.46587817577521,0.5445020185570556,0.0001455157537278953,-0.00030955583858278165,0.0004924146460970363,-0.00023928437855820964,-0.0001153086531274567,-0.0003279083702501574,6.24669136809846e-05,0.0,0.0,0.0,0.0,0.0,0.0,0.0,-0.0002523124427127321,6.876794915450235e-05,-0.00017305578452431192,-0.00023462457681100446,0.00013115179300715596,2.755077502225589e-05,7.330041370656737e-06,-0.0001455157537278953,0.00030955583858278165,-0.0004924146460970363,0.00023928437855820964,0.0001153086531274567,0.0003279083702501574,-6.24669136809846e-05,0.6806880831718445,34.26528549194336,4.096584796905518,-19.487642288208008,-0.1357932686805725,-1.847842812538147,0.14590780436992645,0
35,0.16959834098815918,-0.6806880831718445,-34.26528549194336,-4.096584796905518,19.487642288208008,0.1357932686805725,1.847842812538147,-0.14590780436992645,0.0,0.0,0.0,0.0,0.0,0.0,0.0,-0.660612310827165,-0.22117333325847505,-0.492576662319121,0.4411338751088389,0.0766362086224989,-0.07587829124287795,-0.14859029237235757,1.0546627883367372,0.3237927366599702,-0.39233150655670235,-2.153057162955527,0.8646227635750318,2.4658506250001877,0.5444946885156849,1.0544104758940245,0.3238615046091247,-0.39250456234122666,-2.153291787532338,0.8647539153680389,2.46587817577521,0.5445020185570556,0.0001455157537278953,-0.00030955583858278165,0.0004924146460970363,-0.00023928437855820964,-0.0001153086531274567,-0.0003279083702501574,6.24669136809846e-05,0.0,0.0,0.0,0.0,0.0,0.0,0.0,-0.0002523124427127321,6.876794915450235e-05,-0.00017305578452431192,-0.00023462457681100446,0.00013115179300715596,2.755077502225589e-05,7.330041370656737e-06,-0.0001455157537278953,0.00030955583858278165,-0.0004924146460970363,0.00023928437855820964,0.0001153086531274567,0.0003279083702501574,-6.24669136809846e-05,0.6806880831718445,34.26528549194336,4.096584796905518,-19.487642288208008,-0.1357932686805725,-1.847842812538147,0.14590780436992645,0
36,0.17456269264221191,-0.6568843722343445,-34.28908920288086,-4.072781085968018,19.487642288208008,0.1293845772743225,1.835025429725647,-0.17978231608867645,0.0,0.0,0.0,0.0,0.0,0.0,0.0,-0.6542630231363341,-0.22714203020475085,-0.48949625156879806,0.4479180395960311,0.07590026160023397,-0.07443910894269547,-0.14885087472897815,1.0546611179008818,0.32379440709582546,-0.39233341320222387,-2.1530578782673384,0.8646236365589585,2.4658492714170492,0.5445016573572784,1.0544104758940245,0.3238615046091247,-0.39250456234122666,-2.153291787532338,0.8647539153680389,2.46587817577521,0.5445020185570556,-0.0007942595145239245,-0.00032316879407495746,5.16624046109425e-05,7.553751931908556e-05,-0.00017332432877215458,-6.568621123441637e-05,0.001262158019163345,0.0,0.0,0.0,0.0,0.0,0.0,0.0,-0.00025064200685731564,6.70975132992524e-05,-0.00017114913900279083,-0.00023390926499944342,0.00013027880908045297,2.8904358160719568e-05,3.611997771990616e-07,0.0007942595145239245,0.00032316879407495746,-5.16624046109425e-05,-7.553751931908556e-05,0.00017332432877215458,6.568621123441637e-05,-0.001262158019163345,0.6568843722343445,34.28908920288086,4.072781085968018,-19.487642288208008,-0.1293845772743225,-1.835025429725647,0.17978231608867645,0
37,0.17955493927001953,-0.6568843722343445,-34.28908920288086,-4.072781085968018,19.487642288208008,0.1293845772743225,1.835025429725647,-0.17978231608867645,0.0,0.0,0.0,0.0,0.0,0.0,0.0,-0.6542630231363341,-0.22714203020475085,-0.48949625156879806,0.4479180395960311,0.07590026160023397,-0.07443910894269547,-0.14885087472897815,1.0546611179008818,0.32379440709582546,-0.39233341320222387,-2.1530578782673384,0.8646236365589585,2.4658492714170492,0.5445016573572784,1.0544104758940245,0.3238615046091247,-0.39250456234122666,-2.153291787532338,0.8647539153680389,2.46587817577521,0.5445020185570556,-0.0007942595145239245,-0.00032316879407495746,5.16624046109425e-05,7.553751931908556e-05,-0.00017332432877215458,-6.568621123441637e-05,0.001262158019163345,0.0,0.0,0.0,0.0,0.0,0.0,0.0,-0.00025064200685731564,6.70975132992524e-05,-0.00017114913900279083,-0.00023390926499944342,0.00013027880908045297,2.8904358160719568e-05,3.611997771990616e-07,0.0007942595145239245,0.00032316879407495746,-5.16624046109425e-05,-7.553751931908556e-05,0.00017332432877215458,6.568621123441637e-05,-0.001262158019163345,0.6568843722343445,34.28908920288086,4.072781085968018,-19.487642288208008,-0.1293845772743225,-1.835025429725647,0.17978231608867645,0
38,0.1845998764038086,-0.6568843722343445,-34.33669662475586,-4.048977375030518,19.436067581176758,0.1293845772743225,1.822208046913147,-0.16604940593242645,0.0,0.0,0.0,0.0,0.0,0.0,0.0,-0.6610954429118949,-0.22451518900365847,-0.493168553754452,0.44522772542421596,0.07524027165580034,-0.07440173755878463,-0.15020384336736706,1.0546611179008818,0.32379774796753596,-0.39233508363941255,-2.1530541613985577,0.8646234756518546,2.4658502147528942,0.5444969509670207,1.0544104758940245,0.3238615046091247,-0.39250456234122666,-2.153291787532338,0.8647539153680389,2.46587817577521,0.5445020185570556,-0.0009427894428114058,7.758993572260085e-05,-0.00036181298882891354,0.0008394623215971671,0.0001242840848039672,8.539069308620476e-05,0.0008317566789417633,0.0,0.0,0.0,0.0,0.0,0.0,0.0,-0.00025064200685731564,6.37566415887525e-05,-0.0001694787018141075,-0.00023762613378019992,0.00013043971618431627,2.7961022315725614e-05,5.0675900349350655e-06,0.0009427894428114058,-7.758993572260085e-05,0.00036181298882891354,-0.0008394623215971671,-0.0001242840848039672,-8.539069308620476e-05,-0.0008317566789417633,0.6568843722343445,34.33669662475586,4.048977375030518,-19.436067581176758,-0.1293845772743225,-1.822208046913147,0.16604940593242645,0
39,0.18960046768188477,-0.6568843722343445,-34.33669662475586,-4.048977375030518,19.436067581176758,0.1293845772743225,1.822208046913147,-0.16604940593242645,0.0,0.0,0.0,0.0,0.0,0.0,0.0,-0.6610954429118949,-0.22451518900365847,-0.493168553754452,0.44522772542421596,0.07524027165580034,-0.07440173755878463,-0.15020384336736706,1.0546611179008818,0.32379774796753596,-0.39233508363941255,-2.1530541613985577,0.8646234756518546,2.4658502147528942,0.5444969509670207,1.0544104758940245,0.3238615046091247,-0.39250456234122666,-2.153291787532338,0.8647539153680389,2.46587817577521,0.5445020185570556,-0.0009427894428114058,7.758993572260085e-05,-0.00036181298882891354,0.0008394623215971671,0.0001242840848039672,8.539069308620476e-05,0.0008317566789417633,0.0,0.0,0.0,0.0,0.0,0.0,0.0,-0.00025064200685731564,6.37566415887525e-05,-0.0001694787018141075,-0.00023762613378019992,0.00013043971618431627,2.7961022315725614e-05,5.0675900349350655e-06,0.0009427894428114058,-7.758993572260085e-05,0.00036181298882891354,-0.0008394623215971671,-0.0001242840848039672,-8.539069308620476e-05,-0.0008317566789417633,0.6568843722343445,34.33669662475586,4.048977375030518,-19.436067581176758,-0.1293845772743225,-1.822208046913147,0.16604940593242645,0
40,0.19460153579711914,-0.6568843722343445,-34.28908920288086,-4.072781085968018,19.487642288208008,0.1293845772743225,1.828616738319397,-0.15964071452617645,0.0,0.0,0.0,0.0,0.0,0.0,0.0,-0.6538659223273509,-0.21347776583918404,-0.48388370681756016,0.44035655333275414,0.07517793223017447,-0.07625995832680385,-0.15051336387846076,1.0546611179008818,0.32379440709582546,-0.39233269474193416,-2.153059414108166,0.8646234757061273,2.465852107543068,0.5444983598173934,1.0544104758940245,0.3238615046091247,-0.39250456234122666,-2.153291787532338,0.8647539153680389,2.46587817577521,0.5445020185570556,0.00035268448074441815,0.0003294074893394626,0.0002835159779333397,7.888416445547083e-05,-6.295233856391524e-05,5.504003554788377e-05,0.000701056241111042,0.0,0.0,0.0,0.0,0.0,0.0,0.0,-0.00025064200685731564,6.70975132992524e-05,-0.00017186759929249673,-0.00023237342417203877,0.00013043966191161882,2.606823214179599e-05,3.658739662237842e-06,-0.00035268448074441815,-0.0003294074893394626,-0.0002835159779333397,-7.888416445547083e-05,6.295233856391524e-05,-5.504003554788377e-05,-0.000701056241111042,0.6568843722343445,34.28908920288086,4.072781085968018,-19.487642288208008,-0.1293845772743225,-1.828616738319397,0.15964071452617645,0
41,0.19960284233093262,-0.6568843722343445,-34.28908920288086,-4.072781085968018,19.487642288208008,0.1293845772743225,1.828616738319397,-0.15964071452617645,0.0,0.0,0.0,0.0,0.0,0.0,0.0,-0.6538659223273509,-0.21347776583918404,-0.48388370681756016,0.44035655333275414,0.07517793223017447,-0.07625995832680385,-0.15051336387846076,1.0546611179008818,0.32379440709582546,-0.39233269474193416,-2.153059414108166,0.8646234757061273,2.465852107543068,0.5444983598173934,1.0544104758940245,0.3238615046091247,-0.39250456234122666,-2.153291787532338,0.8647539153680389,2.46587817577521,0.5445020185570556,0.00035268448074441815,0.0003294074893394626,0.0002835159779333397,7.888416445547083e-05,-6.295233856391524e-05,5.504003554788377e-05,0.000701056241111042,0.0,0.0,0.0,0.0,0.0,0.0,0.0,-0.00025064200685731564,6.70975132992524e-05,-0.00017186759929249673,-0.00023237342417203877,0.00013043966191161882,2.606823214179599e-05,3.658739662237842e-06,-0.00035268448074441815,-0.0003294074893394626,-0.0002835159779333397,-7.888416445547083e-05,6.295233856391524e-05,-5.504003554788377e-05,-0.000701056241111042,0.6568843722343445,34.28908920288086,4.072781085968018,-19.487642288208008,-0.1293845772743225,-1.828616738319397,0.15964071452617645,0
42,0.20455598831176758,-0.6568843722343445,-34.31289291381836,-4.025173664093018,19.511445999145508,0.1357932686805725,1.828616738319397,-0.15964071452617645,0.0,0.0,0.0,0.0,0.0,0.0,0.0,-0.6515824746193868,-0.2194702745814439,-0.4842816827113736,0.4424340106946693,0.07483049897862536,-0.07614418002917442,-0.14895549130671762,1.0546611179008818,0.3237960775316807,-0.39233675407121205,-2.153060855314909,0.8646227635741236,2.465851631816161,0.5444993104512269,1.0544104758940245,0.3238615046091247,-0.39250456234122666,-2.153291787532338,0.8647539153680389,2.46587817577521,0.5445020185570556,0.0008580729148249564,0.0009008140567208611,-0.000149105927556618,-0.0007951901478644236,-0.00011657424046309786,3.787759442546206e-06,8.025844159454895e-05,0.0,0.0,0.0,0.0,0.0,0.0,0.0,-0.00025064200685731564,6.542707744400245e-05,-0.0001678082700146133,-0.0002309322174287587,0.0001311517939153184,2.6543959048996868e-05,2.7081058286970716e-06,-0.0008580729148249564,-0.0009008140567208611,0.000149105927556618,0.0007951901478644236,0.00011657424046309786,-3.787759442546206e-06,-8.025844159454895e-05,0.6568843722343445,34.31289291381836,4.025173664093018,-19.511445999145508,-0.1357932686805725,-1.828616738319397,0.15964071452617645,0
43,0.20954680442810059,-0.6568843722343445,-34.31289291381836,-4.025173664093018,19.511445999145508,0.1357932686805725,1.828616738319397,-0.15964071452617645,0.0,0.0,0.0,0.0,0.0,0.0,0.0,-0.6515824746193868,-0.2194702745814439,-0.4842816827113736,0.4424340106946693,0.07483049897862536,-0.07614418002917442,-0.14895549130671762,1.0546611179008818,0.3237960775316807,-0.39233675407121205,-2.153060855314909,0.8646227635741236,2.465851631816161,0.5444993104512269,1.0544104758940245,0.3238615046091247,-0.39250456234122666,-2.153291787532338,0.8647539153680389,2.46587817577521,0.5445020185570556,0.0008580729148249564,0.0009008140567208611,-0.000149105927556618,-0.0007951901478644236,-0.00011657424046309786,3.787759442546206e-06,8.025844159454895e-05,0.0,0.0,0.0,0.0,0.0,0.0,0.0,-0.00025064200685731564,6.542707744400245e-05,-0.0001678082700146133,-0.0002309322174287587,0.0001311517939153184,2.6543959048996868e-05,2.7081058286970716e-06,-0.0008580729148249564,-0.0009008140567208611,0.000149105927556618,0.0007951901478644236,0.00011657424046309786,-3.787759442546206e-06,-8.025844159454895e-05,0.6568843722343445,34.31289291381836,4.025173664093018,-19.511445999145508,-0.1357932686805725,-1.828616738319397,0.15964071452617645,0
44,0.21459507942199707,-0.6806880831718445,-34.33669662475586,-4.072781085968018,19.511445999145508,0.1293845772743225,1.828616738319397,-0.15964071452617645,0.0,0.0,0.0,0.0,0.0,0.0,0.0,-0.6641425798441437,-0.2352604235744071,-0.49651587895527693,0.45082801123797955,0.07535815811014468,-0.07429797294377742,-0.14907180237129555,1.0546627883367372,0.32379774796753596,-0.3923334132035573,-2.1530587877595195,0.8646281883354032,2.4658517355000593,0.5444993787734548,1.0544104758940245,0.3238615046091247,-0.39250456234122666,-2.153291787532338,0.8647539153680389,2.46587817577521,0.5445020185570556,0.0006231592310617195,0.0003008006872879206,0.0009631552930288699,-0.0006101689702246468,7.267151178388285e-05,-5.278705454935968e-05,0.0009795454669729931,0.0,0.0,0.0,0.0,0.0,0.0,0.0,-0.0002523124427127321,6.37566415887525e-05,-0.00017114913766935747,-0.00023299977281832085,0.00012572703263569185,2.6440275150640957e-05,2.6397836008218434e-06,-0.0006231592310617195,-0.0003008006872879206,-0.0009631552930288699,0.0006101689702246468,-7.267151178388285e-05,5.278705454935968e-05,-0.0009795454669729931,0.6806880831718445,34.33669662475586,4.072781085968018,-19.511445999145508,-0.1293845772743225,-1.828616738319397,0.15964071452617645,0
45,0.21964740753173828,-0.6806880831718445,-34.33669662475586,-4.072781085968018,19.511445999145508,0.1293845772743225,1.828616738319397,-0.15964071452617645,0.0,0.0,0.0,0.0,0.0,0.0,0.0,-0.6641425798441437,-0.2352604235744071,-0.49651587895527693,0.45082801123797955,0.07535815811014468,-0.07429797294377742,-0.14907180237129555,1.0546627883367372,0.32379774796753596,-0.3923334132035573,-2.1530587877595195,0.8646281883354032,2.4658517355000593,0.5444993787734548,1.0544104758940245,0.3238615046091247,-0.39250456234122666,-2.153291787532338,0.8647539153680389,2.46587817577521,0.5445020185570556,0.0006231592310617195,0.0003008006872879206,0.0009631552930288699,-0.0006101689702246468,7.267151178388285e-05,-5.278705454935968e-05,0.0009795454669729931,0.0,0.0,0.0,0.0,0.0,0.0,0.0,-0.0002523124427127321,6.37566415887525e-05,-0.00017114913766935747,-0.00023299977281832085,0.00012572703263569185,2.6440275150640957e-05,2.6397836008218434e-06,-0.0006231592310617195,-0.0003008006872879206,-0.0009631552930288699,0.0006101689702246468,-7.267151178388285e-05,5.278705454935968e-05,-0.0009795454669729931,0.6806880831718445,34.33669662475586,4.072781085968018,-19.511445999145508,-0.1293845772743225,-1.828616738319397,0.15964071452617645,0
46,0.22464632987976074,-0.6291133761405945,-34.31289291381836,-4.096584796905518,19.487642288208008,0.1293845772743225,1.841434121131897,-0.15231649577617645,0.0,0.0,0.0,0.0,0.0,0.0,0.0,-0.6597109734083915,-0.21972871112536121,-0.4889665505920042,0.4421464742250872,0.07526745718688227,-0.0760782901462696,-0.14881518754778594,1.0546591690590508,0.3237960775316807,-0.39233173401914645,-2.153058031326306,0.8646245618598386,2.465851331723107,0.5444984966542885,1.0544104758940245,0.3238615046091247,-0.39250456234122666,-2.153291787532338,0.8647539153680389,2.46587817577521,0.5445020185570556,-0.0005347746930853707,0.0003442880330736683,0.0011462248954090487,-0.0001331055415101129,6.821915781709589e-05,-0.00036948923706554805,0.00035129389860721487,0.0,0.0,0.0,0.0,0.0,0.0,0.0,-0.00024869316502629246,6.542707744400245e-05,-0.0001728283220802096,-0.0002337562060317211,0.00012935350820031388,2.6844052102958926e-05,3.5219027670896352e-06,0.0005347746930853707,-0.0003442880330736683,-0.0011462248954090487,0.0001331055415101129,-6.821915781709589e-05,0.00036948923706554805,-0.00035129389860721487,0.6291133761405945,34.31289291381836,4.096584796905518,-19.487642288208008,-0.1293845772743225,-1.841434121131897,0.15231649577617645,0
47,0.22964739799499512,-0.6291133761405945,-34.31289291381836,-4.096584796905518,19.487642288208008,0.1293845772743225,1.841434121131897,-0.15231649577617645,0.0,0.0,0.0,0.0,0.0,0.0,0.0,-0.6597109734083915,-0.21972871112536121,-0.4889665505920042,0.4421464742250872,0.07526745718688227,-0.0760782901462696,-0.14881518754778594,1.0546591690590508,0.3237960775316807,-0.39233173401914645,-2.153058031326306,0.8646245618598386,2.465851331723107,0.5444984966542885,1.0544104758940245,0.3238615046091247,-0.39250456234122666,-2.153291787532338,0.8647539153680389,2.46587817577521,0.5445020185570556,-0.0005347746930853707,0.0003442880330736683,0.0011462248954090487,-0.0001331055415101129,6.821915781709589e-05,-0.00036948923706554805,0.00035129389860721487,0.0,0.0,0.0,0.0,0.0,0.0,0.0,-0.00024869316502629246,6.542707744400245e-05,-0.0001728283220802096,-0.0002337562060317211,0.00012935350820031388,2.6844052102958926e-05,3.5219027670896352e-06,0.0005347746930853707,-0.0003442880330736683,-0.0011462248954090487,0.0001331055415101129,-6.821915781709589e-05,0.00036948923706554805,-0.00035129389860721487,0.6291133761405945,34.31289291381836,4.096584796905518,-19.487642288208008,-0.1293845772743225,-1.841434121131897,0.15231649577617645,0
48,0.2346339225769043,-0.6291133761405945,-34.23751449584961,-4.072781085968018,19.487642288208008,0.12389141321182251,1.828616738319397,-0.11111776530742645,0.0,0.0,0.0,0.0,0.0,0.0,0.0,-0.6476052573253632,-0.21772862003722265,-0.4795990961727986,0.4415044973521625,0.07517343534809824,-0.07643470856942979,-0.14982686977263598,1.0546591690590508,0.3237907878181391,-0.3923334132035408,-2.1530594901222044,0.8646241267281854,2.465853125891571,0.5444905075358233,1.0544104758940245,0.3238615046091247,-0.39250456234122666,-2.153291787532338,0.8647539153680389,2.46587817577521,0.5445020185570556,-1.097915171601385e-05,-0.0010294933851526912,0.0009909330808313592,-0.0003562694451952563,8.325531276853496e-05,2.6008265345189484e-05,-0.0019481196839258002,0.0,0.0,0.0,0.0,0.0,0.0,0.0,-0.00024869316502629246,7.071679098563655e-05,-0.00017114913768584428,-0.00023229741013341965,0.00012978863985346756,2.5049883638939008e-05,1.151102123231329e-05,1.097915171601385e-05,0.0010294933851526912,-0.0009909330808313592,0.0003562694451952563,-8.325531276853496e-05,-2.6008265345189484e-05,0.0019481196839258002,0.6291133761405945,34.23751449584961,4.072781085968018,-19.487642288208008,-0.12389141321182251,-1.828616738319397,0.11111776530742645,0
49,0.2396082878112793,-0.6291133761405945,-34.23751449584961,-4.072781085968018,19.487642288208008,0.12389141321182251,1.828616738319397,-0.11111776530742645,0.0,0.0,0.0,0.0,0.0,0.0,0.0,-0.6476052573253632,-0.21772862003722265,-0.4795990961727986,0.4415044973521625,0.07517343534809824,-0.07643470856942979,-0.14982686977263598,1.0546591690590508,0.3237907878181391,-0.3923334132035408,-2.1530594901222044,0.8646241267281854,2.465853125891571,0.5444905075358233,1.0544104758940245,0.3238615046091247,-0.39250456234122666,-2.153291787532338,0.8647539153680389,2.46587817577521,0.5445020185570556,-1.097915171601385e-05,-0.0010294933851526912,0.0009909330808313592,-0.0003562694451952563,8.325531276853496e-05,2.6008265345189484e-05,-0.0019481196839258002,0.0,0.0,0.0,0.0,0.0,0.0,0.0,-0.00024869316502629246,7.071679098563655e-05,-0.00017114913768584428,-0.00023229741013341965,0.00012978863985346756,2.5049883638939008e-05,1.151102123231329e-05,1.097915171601385e-05,0.0010294933851526912,-0.0009909330808313592,0.0003562694451952563,-8.325531276853496e-05,-2.6008265345189484e-05,0.0019481196839258002,0.6291133761405945,34.23751449584961,4.072781085968018,-19.487642288208008,-0.12389141321182251,-1.828616738319397,0.11111776530742645,0
50,0.24459505081176758,-0.6291133761405945,-34.23751449584961,-4.072781085968018,19.487642288208008,0.12389141321182251,1.828616738319397,-0.11111776530742645,0.0,0.0,0.0,0.0,0.0,0.0,0.0,-0.6476052573253632,-0.21772862003722265,-0.4795990961727986,0.4415044973521625,0.07517343534809824,-0.07643470856942979,-0.14982686977263598,1.0546591690590508,0.3237907878181391,-0.3923334132035408,-2.1530594901222044,0.8646241267281854,2.465853125891571,0.5444905075358233,1.0544104758940245,0.3238615046091247,-0.39250456234122666,-2.153291787532338,0.8647539153680389,2.46587817577521,0.5445020185570556,-1.097915171601385e-05,-0.0010294933851526912,0.0009909330808313592,-0.0003562694451952563,8.325531276853496e-05,2.6008265345189484e-05,-0.0019481196839258002,0.0,0.0,0.0,0.0,0.0,0.0,0.0,-0.00024869316502629246,7.071679098563655e-05,-0.00017114913768584428,-0.00023229741013341965,0.00012978863985346756,2.5049883638939008e-05,1.151102123231329e-05,1.097915171601385e-05,0.0010294933851526912,-0.0009909330808313592,0.0003562694451952563,-8.325531276853496e-05,-2.6008265345189484e-05,0.0019481196839258002,0.6291133761405945,34.23751449584961,4.072781085968018,-19.487642288208008,-0.12389141321182251,-1.828616738319397,0.11111776530742645,0
51,0.24960613250732422,-0.6291133761405945,-34.23751449584961,-4.072781085968018,19.487642288208008,0.12389141321182251,1.828616738319397,-0.11111776530742645,0.0,0.0,0.0,0.0,0.0,0.0,0.0,-0.6476052573253632,-0.21772862003722265,-0.4795990961727986,0.4415044973521625,0.07517343534809824,-0.07643470856942979,-0.14982686977263598,1.0546591690590508,0.3237907878181391,-0.3923334132035408,-2.1530594901222044,0.8646241267281854,2.465853125891571,0.5444905075358233,1.0544104758940245,0.3238615046091247,-0.39250456234122666,-2.153291787532338,0.8647539153680389,2.46587817577521,0.5445020185570556,-1.097915171601385e-05,-0.0010294933851526912,0.0009909330808313592,-0.0003562694451952563,8.325531276853496e-05,2.6008265345189484e-05,-0.0019481196839258002,0.0,0.0,0.0,0.0,0.0,0.0,0.0,-0.00024869316502629246,7.071679098563655e-05,-0.00017114913768584428,-0.00023229741013341965,0.00012978863985346756,2.5049883638939008e-05,1.151102123231329e-05,1.097915171601385e-05,0.0010294933851526912,-0.0009909330808313592,0.0003562694451952563,-8.325531276853496e-05,-2.6008265345189484e-05,0.0019481196839258002,0.6291133761405945,34.23751449584961,4.072781085968018,-19.487642288208008,-0.12389141321182251,-1.828616738319397,0.11111776530742645,0
52,0.2546052932739258,-0.6568843722343445,-34.28908920288086,-4.025173664093018,19.487642288208008,0.1357932686805725,1.822208046913147,-0.16604940593242645,0.0,0.0,0.0,0.0,0.0,0.0,0.0,-0.6556482793360082,-0.22864323381387947,-0.4901831765356682,0.4464431376367138,0.07548286558171215,-0.07471667135023587,-0.15054131853609434,1.0546611179008818,0.32379440709582546,-0.3923367511590826,-2.15305802822495,0.8646228189209706,2.465853469377304,0.544496965697991,1.0544104758940245,0.3238615046091247,-0.39250456234122666,-2.153291787532338,0.8647539153680389,2.46587817577521,0.5445020185570556,0.00026125379582677126,-0.0003250735516485698,-0.00043619801863630355,-0.0004823770131524911,-0.00037125028446197486,9.820436149855927e-05,0.0010322094109933956,0.0,0.0,0.0,0.0,0.0,0.0,0.0,-0.00025064200685731564,6.70975132992524e-05,-0.00016781118214403978,-0.00023375930738778194,0.00013109644706832402,2.4706397905749355e-05,5.052859064602622e-06,-0.00026125379582677126,0.0003250735516485698,0.00043619801863630355,0.0004823770131524911,0.00037125028446197486,-9.820436149855927e-05,-0.0010322094109933956,0.6568843722343445,34.28908920288086,4.025173664093018,-19.487642288208008,-0.1357932686805725,-1.822208046913147,0.16604940593242645,0
53,0.2596092224121094,-0.6568843722343445,-34.28908920288086,-4.025173664093018,19.487642288208008,0.1357932686805725,1.822208046913147,-0.16604940593242645,0.0,0.0,0.0,0.0,0.0,0.0,0.0,-0.6556482793360082,-0.22864323381387947,-0.4901831765356682,0.4464431376367138,0.07548286558171215,-0.07471667135023587,-0.15054131853609434,1.0546611179008818,0.32379440709582546,-0.3923367511590826,-2.15305802822495,0.8646228189209706,2.465853469377304,0.544496965697991,1.0544104758940245,0.3238615046091247,-0.39250456234122666,-2.153291787532338,0.8647539153680389,2.46587817577521,0.5445020185570556,0.00026125379582677126,-0.0003250735516485698,-0.00043619801863630355,-0.0004823770131524911,-0.00037125028446197486,9.820436149855927e-05,0.0010322094109933956,0.0,0.0,0.0,0.0,0.0,0.0,0.0,-0.00025064200685731564,6.70975132992524e-05,-0.00016781118214403978,-0.00023375930738778194,0.00013109644706832402,2.4706397905749355e-05,5.052859064602622e-06,-0.00026125379582677126,0.0003250735516485698,0.00043619801863630355,0.0004823770131524911,0.00037125028446197486,-9.820436149855927e-05,-0.0010322094109933956,0.6568843722343445,34.28908920288086,4.025173664093018,-19.487642288208008,-0.1357932686805725,-1.822208046913147,0.16604940593242645,0
54,0.26462650299072266,-0.6568843722343445,-34.31289291381836,-4.025173664093018,19.511445999145508,0.12389141321182251,1.835025429725647,-0.15231649577617645,0.0,0.0,0.0,0.0,0.0,0.0,0.0,-0.6595611835588747,-0.22936016039344914,-0.4916902268528345,0.445795710398191,0.07544431134743199,-0.07532183038495506,-0.15001309989348566,1.0546611179008818,0.3237960775316807,-0.39233675115906613,-2.153061130246115,0.8646240860028213,2.4658487922299623,0.5444985664076659,1.0544104758940245,0.3238615046091247,-0.39250456234122666,-2.153291787532338,0.8647539153680389,2.46587817577521,0.5445020185570556,-0.0004768455715571453,-0.00010868200079758297,-0.0004701105955964936,-0.0006777700331666384,0.00012377888051792792,-0.00013274058298977988,0.00016876120055404724,0.0,0.0,0.0,0.0,0.0,0.0,0.0,-0.00025064200685731564,6.542707744400245e-05,-0.0001678111821605266,-0.00023065728622295723,0.00012982936521765964,2.938354524761877e-05,3.452149389682191e-06,0.0004768455715571453,0.00010868200079758297,0.0004701105955964936,0.0006777700331666384,-0.00012377888051792792,0.00013274058298977988,-0.00016876120055404724,0.6568843722343445,34.31289291381836,4.025173664093018,-19.511445999145508,-0.12389141321182251,-1.835025429725647,0.15231649577617645,0
55,0.26959943771362305,-0.6568843722343445,-34.31289291381836,-4.025173664093018,19.511445999145508,0.12389141321182251,1.835025429725647,-0.15231649577617645,0.0,0.0,0.0,0.0,0.0,0.0,0.0,-0.6595611835588747,-0.22936016039344914,-0.4916902268528345,0.445795710398191,0.07544431134743199,-0.07532183038495506,-0.15001309989348566,1.0546611179008818,0.3237960775316807,-0.39233675115906613,-2.153061130246115,0.8646240860028213,2.4658487922299623,0.5444985664076659,1.0544104758940245,0.3238615046091247,-0.39250456234122666,-2.153291787532338,0.8647539153680389,2.46587817577521,0.5445020185570556,-0.0004768455715571453,-0.00010868200079758297,-0.0004701105955964936,-0.0006777700331666384,0.00012377888051792792,-0.00013274058298977988,0.00016876120055404724,0.0,0.0,0.0,0.0,0.0,0.0,0.0,-0.00025064200685731564,6.542707744400245e-05,-0.0001678111821605266,-0.00023065728622295723,0.00012982936521765964,2.938354524761877e-05,3.452149389682191e-06,0.0004768455715571453,0.00010868200079758297,0.0004701105955964936,0.0006777700331666384,-0.00012377888051792792,0.00013274058298977988,-0.00016876120055404724,0.6568843722343445,34.31289291381836,4.025173664093018,-19.511445999145508,-0.12389141321182251,-1.835025429725647,0.15231649577617645,0
56,0.2745518684387207,-0.6806880831718445,-34.23751449584961,-4.025173664093018,19.459871292114258,0.12389141321182251,1.828616738319397,-0.12485067546367645,0.0,0.0,0.0,0.0,0.0,0.0,0.0,-0.6478651258207158,-0.22038456491995795,-0.4775515941457957,0.4413832949309369,0.074614201932004,-0.07642352363293826,-0.14999336770103774,1.0546627883367372,0.3237907878181391,-0.3923367540752513,-2.1530552111047085,0.8646273577987575,2.465849870529249,0.544495566995312,1.0544104758940245,0.3238615046091247,-0.39250456234122666,-2.153291787532338,0.8647539153680389,2.46587817577521,0.5445020185570556,0.0005830487934402287,-0.0011650320212519486,-0.0005598706355833828,0.00016913070313241758,0.00021525693670551322,0.00036360639314321497,-0.0007520362547304446,0.0,0.0,0.0,0.0,0.0,0.0,0.0,-0.0002523124427127321,7.071679098563655e-05,-0.00016780826597534437,-0.0002365764276293092,0.0001265575692813714,2.830524596086903e-05,6.451561743614498e-06,-0.0005830487934402287,0.0011650320212519486,0.0005598706355833828,-0.00016913070313241758,-0.00021525693670551322,-0.00036360639314321497,0.0007520362547304446,0.6806880831718445,34.23751449584961,4.025173664093018,-19.459871292114258,-0.12389141321182251,-1.828616738319397,0.12485067546367645,0
57,0.28000807762145996,-0.6806880831718445,-34.23751449584961,-4.025173664093018,19.459871292114258,0.12389141321182251,1.828616738319397,-0.12485067546367645,0.0,0.0,0.0,0.0,0.0,0.0,0.0,-0.6478651258207158,-0.22038456491995795,-0.4775515941457957,0.4413832949309369,0.074614201932004,-0.07642352363293826,-0.14999336770103774,1.0546627883367372,0.3237907878181391,-0.3923367540752513,-2.1530552111047085,0.8646273577987575,2.465849870529249,0.544495566995312,1.0544104758940245,0.3238615046091247,-0.39250456234122666,-2.153291787532338,0.8647539153680389,2.46587817577521,0.5445020185570556,0.0005830487934402287,-0.0011650320212519486,-0.0005598706355833828,0.00016913070313241758,0.00021525693670551322,0.00036360639314321497,-0.0007520362547304446,0.0,0.0,0.0,0.0,0.0,0.0,0.0,-0.0002523124427127321,7.071679098563655e-05,-0.00016780826597534437,-0.0002365764276293092,0.0001265575692813714,2.830524596086903e-05,6.451561743614498e-06,-0.0005830487934402287,0.0011650320212519486,0.0005598706355833828,-0.00016913070313241758,-0.00021525693670551322,-0.00036360639314321497,0.0007520362547304446,0.6806880831718445,34.23751449584961,4.025173664093018,-19.459871292114258,-0.12389141321182251,-1.828616738319397,0.12485067546367645,0
58,0.28459715843200684,-0.6291133761405945,-34.31289291381836,-4.048977375030518,19.487642288208008,0.1293845772743225,1.828616738319397,-0.15231649577617645,0.0,0.0,0.0,0.0,0.0,0.0,0.0,-0.6623672057098284,-0.22235641490417193,-0.48857471687541654,0.43967690692941747,0.07523620549364754,-0.07441552010239838,-0.14938454876849483,1.0546591690590508,0.3237960775316807,-0.39233508072322737,-2.1530578608758617,0.8646234756694157,2.4658494998760037,0.5444943669036095,1.0544104758940245,0.3238615046091247,-0.39250456234122666,-2.153291787532338,0.8647539153680389,2.46587817577521,0.5445020185570556,-0.0013201114356045597,0.0006089042711849661,3.690293094788442e-05,-0.0006709687380604916,0.0001487859455801419,0.00020668773218817453,0.0006294327711651528,0.0,0.0,0.0,0.0,0.0,0.0,0.0,-0.00024869316502629246,6.542707744400245e-05,-0.00016948161799928974,-0.00023392665647614663,0.00013043969862325255,2.867589920629854e-05,7.651653446072437e-06,0.0013201114356045597,-0.0006089042711849661,-3.690293094788442e-05,0.0006709687380604916,-0.0001487859455801419,-0.00020668773218817453,-0.0006294327711651528,0.6291133761405945,34.31289291381836,4.048977375030518,-19.487642288208008,-0.1293845772743225,-1.828616738319397,0.15231649577617645,0
59,0.28961873054504395,-0.6291133761405945,-34.31289291381836,-4.048977375030518,19.487642288208008,0.1293845772743225,1.828616738319397,-0.15231649577617645,0.0,0.0,0.0,0.0,0.0,0.0,0.0,-0.6623672057098284,-0.22235641490417193,-0.48857471687541654,0.43967690692941747,0.07523620549364754,-0.07441552010239838,-0.14938454876849483,1.0546591690590508,0.3237960775316807,-0.39233508072322737,-2.1530578608758617,0.8646234756694157,2.4658494998760037,0.5444943669036095,1.0544104758940245,0.3238615046091247,-0.39250456234122666,-2.153291787532338,0.8647539153680389,2.46587817577521,0.5445020185570556,-0.0013201114356045597,0.0006089042711849661,3.690293094788442e-05,-0.0006709687380604916,0.0001487859455801419,0.00020668773218817453,0.0006294327711651528,0.0,0.0,0.0,0.0,0.0,0.0,0.0,-0.00024869316502629246,6.542707744400245e-05,-0.00016948161799928974,-0.00023392665647614663,0.00013043969862325255,2.867589920629854e-05,7.651653446072437e-06,0.0013201114356045597,-0.0006089042711849661,-3.690293094788442e-05,0.0006709687380604916,-0.0001487859455801419,-0.00020668773218817453,-0.0006294327711651528,0.6291133761405945,34.31289291381836,4.048977375030518,-19.487642288208008,-0.1293845772743225,-1.828616738319397,0.15231649577617645,0
60,0.2946033477783203,-0.6568843722343445,-34.28908920288086,-4.048977375030518,19.459871292114258,0.12389141321182251,1.841434121131897,-0.13858358561992645,0.0,0.0,0.0,0.0,0.0,0.0,0.0,-0.6597719682846517,-0.23100467226490545,-0.48460690414957047,0.44591791807618436,0.07590184754153707,-0.07399217673395345,-0.14947901733390234,1.0546611179008818,0.32379440709582546,-0.39233508363939607,-2.153056087212326,0.8646251855405924,2.4658484420149276,0.5444960312743156,1.0544104758940245,0.3238615046091247,-0.39250456234122666,-2.153291787532338,0.8647539153680389,2.46587817577521,0.5445020185570556,-0.00026257665220442197,-0.000571158864614045,-4.081869423890773e-05,0.00047895478158738224,0.000294948217973845,-0.00030822433268256423,-0.000584381949735293,0.0,0.0,0.0,0.0,0.0,0.0,0.0,-0.00025064200685731564,6.70975132992524e-05,-0.00016947870183059432,-0.00023570032001174468,0.0001287298274464943,2.973376028236885e-05,5.98728274003868e-06,0.00026257665220442197,0.000571158864614045,4.081869423890773e-05,-0.00047895478158738224,-0.000294948217973845,0.00030822433268256423,0.000584381949735293,0.6568843722343445,34.28908920288086,4.048977375030518,-19.459871292114258,-0.12389141321182251,-1.841434121131897,0.13858358561992645,0
61,0.29961276054382324,-0.6568843722343445,-34.28908920288086,-4.048977375030518,19.459871292114258,0.12389141321182251,1.841434121131897,-0.13858358561992645,0.0,0.0,0.0,0.0,0.0,0.0,0.0,-0.6597719682846517,-0.23100467226490545,-0.48460690414957047,0.44591791807618436,0.07590184754153707,-0.07399217673395345,-0.14947901733390234,1.0546611179008818,0.32379440709582546,-0.39233508363939607,-2.153056087212326,0.8646251855405924,2.4658484420149276,0.5444960312743156,1.0544104758940245,0.3238615046091247,-0.39250456234122666,-2.153291787532338,0.8647539153680389,2.46587817577521,0.5445020185570556,-0.00026257665220442197,-0.000571158864614045,-4.081869423890773e-05,0.00047895478158738224,0.000294948217973845,-0.00030822433268256423,-0.000584381949735293,0.0,0.0,0.0,0.0,0.0,0.0,0.0,-0.00025064200685731564,6.70975132992524e-05,-0.00016947870183059432,-0.00023570032001174468,0.0001287298274464943,2.973376028236885e-05,5.98728274003868e-06,0.00026257665220442197,0.000571158864614045,4.081869423890773e-05,-0.00047895478158738224,-0.000294948217973845,0.00030822433268256423,0.000584381949735293,0.6568843722343445,34.28908920288086,4.048977375030518,-19.459871292114258,-0.12389141321182251,-1.841434121131897,0.13858358561992645,0
62,0.3045973777770996,-0.6053096652030945,-34.26528549194336,-4.048977375030518,19.487642288208008,0.12389141321182251,1.828616738319397,-0.16604940593242645,0.0,0.0,0.0,0.0,0.0,0.0,0.0,-0.6582133051278327,-0.21884631228199544,-0.480922678469253,0.4390238360988695,0.07546057143882964,-0.07484138845403207,-0.14937079967117273,1.0546574986231954,0.3237927366599702,-0.39233508363941255,-2.153059391570609,0.8646240860045777,2.465849829898143,0.5444996735185432,1.0544104758940245,0.3238615046091247,-0.39250456234122666,-2.153291787532338,0.8647539153680389,2.46587817577521,0.5445020185570556,-0.001296390667335234,-0.0007116517122888744,7.100858180178184e-07,-0.00041130731121429644,0.00012467009469602862,0.00023073587200442787,0.00104740350474931,0.0,0.0,0.0,0.0,0.0,0.0,0.0,-0.000247022729170876,6.876794915450235e-05,-0.0001694787018141075,-0.00023239596172874855,0.0001298293634611758,2.834587706690428e-05,2.345038512374664e-06,0.001296390667335234,0.0007116517122888744,-7.100858180178184e-07,0.00041130731121429644,-0.00012467009469602862,-0.00023073587200442787,-0.00104740350474931,0.6053096652030945,34.26528549194336,4.048977375030518,-19.487642288208008,-0.12389141321182251,-1.828616738319397,0.16604940593242645,0
63,0.3095967769622803,-0.6053096652030945,-34.26528549194336,-4.048977375030518,19.487642288208008,0.12389141321182251,1.828616738319397,-0.16604940593242645,0.0,0.0,0.0,0.0,0.0,0.0,0.0,-0.6582133051278327,-0.21884631228199544,-0.480922678469253,0.4390238360988695,0.07546057143882964,-0.07484138845403207,-0.14937079967117273,1.0546574986231954,0.3237927366599702,-0.39233508363941255,-2.153059391570609,0.8646240860045777,2.465849829898143,0.5444996735185432,1.0544104758940245,0.3238615046091247,-0.39250456234122666,-2.153291787532338,0.8647539153680389,2.46587817577521,0.5445020185570556,-0.001296390667335234,-0.0007116517122888744,7.100858180178184e-07,-0.00041130731121429644,0.00012467009469602862,0.00023073587200442787,0.00104740350474931,0.0,0.0,0.0,0.0,0.0,0.0,0.0,-0.000247022729170876,6.876794915450235e-05,-0.0001694787018141075,-0.00023239596172874855,0.0001298293634611758,2.834587706690428e-05,2.345038512374664e-06,0.001296390667335234,0.0007116517122888744,-7.100858180178184e-07,0.00041130731121429644,-0.00012467009469602862,-0.00023073587200442787,-0.00104740350474931,0.6053096652030945,34.26528549194336,4.048977375030518,-19.487642288208008,-0.12389141321182251,-1.828616738319397,0.16604940593242645,0
64,0.31459808349609375,-0.6291133761405945,-34.26528549194336,-4.048977375030518,19.459871292114258,0.1293845772743225,1.822208046913147,-0.12485067546367645,0.0,0.0,0.0,0.0,0.0,0.0,0.0,-0.6662083075534037,-0.2256609041378052,-0.4910367984047286,0.4407905969188082,0.07560365806512849,-0.07329720867561507,-0.14908157632360258,1.0546591690590508,0.3237927366599702,-0.39233508363941255,-2.153057927741281,0.8646235963319554,2.465852775853725,0.5444923831795573,1.0544104758940245,0.3238615046091247,-0.39250456234122666,-2.153291787532338,0.8647539153680389,2.46587817577521,0.5445020185570556,-0.0005041464594972043,-0.0006672568781591246,-0.0002494506997027585,0.00025564019459430634,2.4953080867513796e-05,0.00033813114713980753,-0.0008086534186863669,0.0,0.0,0.0,0.0,0.0,0.0,0.0,-0.00024869316502629246,6.876794915450235e-05,-0.0001694787018141075,-0.00023385979105672305,0.00013031903608351492,2.539992148475889e-05,9.63537749831822e-06,0.0005041464594972043,0.0006672568781591246,0.0002494506997027585,-0.00025564019459430634,-2.4953080867513796e-05,-0.00033813114713980753,0.0008086534186863669,0.6291133761405945,34.26528549194336,4.048977375030518,-19.459871292114258,-0.1293845772743225,-1.822208046913147,0.12485067546367645,0
65,0.31965088844299316,-0.6291133761405945,-34.26528549194336,-4.048977375030518,19.459871292114258,0.1293845772743225,1.822208046913147,-0.12485067546367645,0.0,0.0,0.0,0.0,0.0,0.0,0.0,-0.6662083075534037,-0.2256609041378052,-0.4910367984047286,0.4407905969188082,0.07560365806512849,-0.07329720867561507,-0.14908157632360258,1.0546591690590508,0.3237927366599702,-0.39233508363941255,-2.153057927741281,0.8646235963319554,2.465852775853725,0.5444923831795573,1.0544104758940245,0.3238615046091247,-0.39250456234122666,-2.153291787532338,0.8647539153680389,2.46587817577521,0.5445020185570556,-0.0005041464594972043,-0.0006672568781591246,-0.0002494506997027585,0.00025564019459430634,2.4953080867513796e-05,0.00033813114713980753,-0.0008086534186863669,0.0,0.0,0.0,0.0,0.0,0.0,0.0,-0.00024869316502629246,6.876794915450235e-05,-0.0001694787018141075,-0.00023385979105672305,0.00013031903608351492,2.539992148475889e-05,9.63537749831822e-06,0.0005041464594972043,0.0006672568781591246,0.0002494506997027585,-0.00025564019459430634,-2.4953080867513796e-05,-0.00033813114713980753,0.0008086534186863669,0.6291133761405945,34.26528549194336,4.048977375030518,-19.459871292114258,-0.1293845772743225,-1.822208046913147,0.12485067546367645,0
66,0.3246181011199951,-0.6568843722343445,-34.33669662475586,-4.072781085968018,19.487642288208008,0.1293845772743225,1.828616738319397,-0.12485067546367645,0.0,0.0,0.0,0.0,0.0,0.0,0.0,-0.6568575078789506,-0.23445180911709199,-0.48675644677315455,0.44953840324700356,0.07561249512597168,-0.07269308853449184,-0.14948294762931208,1.0546611179008818,0.32379774796753596,-0.3923334122314956,-2.1530574011897814,0.8646234756516276,2.465853036429968,0.5444955537341769,1.0544104758940245,0.3238615046091247,-0.39250456234122666,-2.153291787532338,0.8647539153680389,2.46587817577521,0.5445020185570556,0.0001734875255048622,0.000708996514356222,0.0006290730021678891,0.0005283509315888966,3.311867577268704e-06,0.00015517024525222835,-0.0013534474168076214,0.0,0.0,0.0,0.0,0.0,0.0,0.0,-0.00025064200685731564,6.37566415887525e-05,-0.00017115010973106637,-0.00023438634255645852,0.00013043971641135688,2.5139345241953492e-05,6.4648228786934325e-06,-0.0001734875255048622,-0.000708996514356222,-0.0006290730021678891,-0.0005283509315888966,-3.311867577268704e-06,-0.00015517024525222835,0.0013534474168076214,0.6568843722343445,34.33669662475586,4.072781085968018,-19.487642288208008,-0.1293845772743225,-1.828616738319397,0.12485067546367645,0
67,0.3296680450439453,-0.6568843722343445,-34.33669662475586,-4.072781085968018,19.487642288208008,0.1293845772743225,1.828616738319397,-0.12485067546367645,0.0,0.0,0.0,0.0,0.0,0.0,0.0,-0.6568575078789506,-0.23445180911709199,-0.48675644677315455,0.44953840324700356,0.07561249512597168,-0.07269308853449184,-0.14948294762931208,1.0546611179008818,0.32379774796753596,-0.3923334122314956,-2.1530574011897814,0.8646234756516276,2.465853036429968,0.5444955537341769,1.0544104758940245,0.3238615046091247,-0.39250456234122666,-2.153291787532338,0.8647539153680389,2.46587817577521,0.5445020185570556,0.0001734875255048622,0.000708996514356222,0.0006290730021678891,0.0005283509315888966,3.311867577268704e-06,0.00015517024525222835,-0.0013534474168076214,0.0,0.0,0.0,0.0,0.0,0.0,0.0,-0.00025064200685731564,6.37566415887525e-05,-0.00017115010973106637,-0.00023438634255645852,0.00013043971641135688,2.5139345241953492e-05,6.4648228786934325e-06,-0.0001734875255048622,-0.000708996514356222,-0.0006290730021678891,-0.0005283509315888966,-3.311867577268704e-06,-0.00015517024525222835,0.0013534474168076214,0.6568843722343445,34.33669662475586,4.072781085968018,-19.487642288208008,-0.1293845772743225,-1.828616738319397,0.12485067546367645,0
68,0.3346076011657715,-0.7084590792655945,-34.31289291381836,-4.048977375030518,19.459871292114258,0.1476951241493225,1.822208046913147,-0.16604940593242645,0.0,0.0,0.0,0.0,0.0,0.0,0.0,-0.6588923144550417,-0.2228979321599185,-0.4876948050714841,0.44262513816646837,0.07551618238820294,-0.07345837281940283,-0.15000386914479494,1.0546647371785682,0.3237960775316807,-0.39233508363940706,-2.153058156373499,0.8646214411457379,2.465853879170298,0.5445001256822629,1.0544104758940245,0.3238615046091247,-0.39250456234122666,-2.153291787532338,0.8647539153680389,2.46587817577521,0.5445020185570556,0.0010795391469065718,0.00027287782961485726,-0.00021082602753267932,0.00044181511307661727,-0.0007633464892851093,0.0005610017670972384,0.0009285043557590523,0.0,0.0,0.0,0.0,0.0,0.0,0.0,-0.0002542612845437553,6.542707744400245e-05,-0.00016947870181960312,-0.00023363115883867636,0.00013247422230100447,2.4296604911988595e-05,1.8928747926860723e-06,-0.0010795391469065718,-0.00027287782961485726,0.00021082602753267932,-0.00044181511307661727,0.0007633464892851093,-0.0005610017670972384,-0.0009285043557590523,0.7084590792655945,34.31289291381836,4.048977375030518,-19.459871292114258,-0.1476951241493225,-1.822208046913147,0.16604940593242645,0
69,0.339599609375,-0.7084590792655945,-34.31289291381836,-4.048977375030518,19.459871292114258,0.1476951241493225,1.822208046913147,-0.16604940593242645,0.0,0.0,0.0,0.0,0.0,0.0,0.0,-0.6588923144550417,-0.2228979321599185,-0.4876948050714841,0.44262513816646837,0.07551618238820294,-0.07345837281940283,-0.15000386914479494,1.0546647371785682,0.3237960775316807,-0.39233508363940706,-2.153058156373499,0.8646214411457379,2.465853879170298,0.5445001256822629,1.0544104758940245,0.3238615046091247,-0.39250456234122666,-2.153291787532338,0.8647539153680389,2.46587817577521,0.5445020185570556,0.0010795391469065718,0.00027287782961485726,-0.00021082602753267932,0.00044181511307661727,-0.0007633464892851093,0.0005610017670972384,0.0009285043557590523,0.0,0.0,0.0,0.0,0.0,0.0,0.0,-0.0002542612845437553,6.542707744400245e-05,-0.00016947870181960312,-0.00023363115883867636,0.00013247422230100447,2.4296604911988595e-05,1.8928747926860723e-06,-0.0010795391469065718,-0.00027287782961485726,0.00021082602753267932,-0.00044181511307661727,0.0007633464892851093,-0.0005610017670972384,-0.0009285043557590523,0.7084590792655945,34.31289291381836,4.048977375030518,-19.459871292114258,-0.1476951241493225,-1.822208046913147,0.16604940593242645,0
70,0.34460020065307617,-0.6806880831718445,-34.31289291381836,-4.025173664093018,19.487642288208008,0.1293845772743225,1.828616738319397,-0.15964071452617645,0.0,0.0,0.0,0.0,0.0,0.0,0.0,-0.6487410322949871,-0.2179402870712438,-0.476931082776632,0.43900100660460306,0.07533128012370076,-0.07449835694969394,-0.15009995385849934,1.0546627883367372,0.3237960775316807,-0.3923367540752678,-2.153060182599844,0.8646235158779493,2.4658489243425503,0.5444951940028788,1.0544104758940245,0.3238615046091247,-0.39250456234122666,-2.153291787532338,0.8647539153680389,2.46587817577521,0.5445020185570556,0.0007061058804740477,0.00044585524742724524,4.48929519117288e-05,-0.0003170156146483545,-8.80279760779752e-05,0.00012838700825182461,0.0003009810932241347,0.0,0.0,0.0,0.0,0.0,0.0,0.0,-0.0002523124427127321,6.542707744400245e-05,-0.00016780826595885756,-0.00023160493249374525,0.0001303994900896388,2.9251432659638255e-05,6.8245541767764095e-06,-0.0007061058804740477,-0.00044585524742724524,-4.48929519117288e-05,0.0003170156146483545,8.80279760779752e-05,-0.00012838700825182461,-0.0003009810932241347,0.6806880831718445,34.31289291381836,4.025173664093018,-19.487642288208008,-0.1293845772743225,-1.828616738319397,0.15964071452617645,0
71,0.34960055351257324,-0.6806880831718445,-34.31289291381836,-4.025173664093018,19.487642288208008,0.1293845772743225,1.828616738319397,-0.15964071452617645,0.0,0.0,0.0,0.0,0.0,0.0,0.0,-0.6487410322949871,-0.2179402870712438,-0.476931082776632,0.43900100660460306,0.07533128012370076,-0.07449835694969394,-0.15009995385849934,1.0546627883367372,0.3237960775316807,-0.3923367540752678,-2.153060182599844,0.8646235158779493,2.4658489243425503,0.5444951940028788,1.0544104758940245,0.3238615046091247,-0.39250456234122666,-2.153291787532338,0.8647539153680389,2.46587817577521,0.5445020185570556,0.0007061058804740477,0.00044585524742724524,4.48929519117288e-05,-0.0003170156146483545,-8.80279760779752e-05,0.00012838700825182461,0.0003009810932241347,0.0,0.0,0.0,0.0,0.0,0.0,0.0,-0.0002523124427127321,6.542707744400245e-05,-0.00016780826595885756,-0.00023160493249374525,0.0001303994900896388,2.9251432659638255e-05,6.8245541767764095e-06,-0.0007061058804740477,-0.00044585524742724524,-4.48929519117288e-05,0.0003170156146483545,8.80279760779752e-05,-0.00012838700825182461,-0.0003009810932241347,0.6806880831718445,34.31289291381836,4.025173664093018,-19.487642288208008,-0.1293845772743225,-1.828616738319397,0.15964071452617645,0
72,0.3546140193939209,-0.6568843722343445,-34.31289291381836,-4.025173664093018,19.436067581176758,0.1293845772743225,1.841434121131897,-0.15964071452617645,0.0,0.0,0.0,0.0,0.0,0.0,0.0,-0.6513443687124458,-0.21965600531412474,-0.47761776987245524,0.4400617624103161,0.07553308561861763,-0.07435920821656927,-0.15121446225538332,1.0546611179008818,0.3237960775316807,-0.3923367540752678,-2.153053499416332,0.8646234801208403,2.4658516237254964,0.5444994325315764,1.0544104758940245,0.3238615046091247,-0.39250456234122666,-2.153291787532338,0.8647539153680389,2.46587817577521,0.5445020185570556,0.0002322151522532994,0.0007287394474665075,0.00036525947913161925,0.0006655641828150065,9.8030450687627e-05,-0.0004581517033894417,3.95190808914236e-05,0.0,0.0,0.0,0.0,0.0,0.0,0.0,-0.00025064200685731564,6.542707744400245e-05,-0.00016780826595885756,-0.00023828811600568045,0.00013043524719857924,2.6552049713579606e-05,2.5860254792009485e-06,-0.0002322151522532994,-0.0007287394474665075,-0.00036525947913161925,-0.0006655641828150065,-9.8030450687627e-05,0.0004581517033894417,-3.95190808914236e-05,0.6568843722343445,34.31289291381836,4.025173664093018,-19.436067581176758,-0.1293845772743225,-1.841434121131897,0.15964071452617645,0
73,0.35961222648620605,-0.6568843722343445,-34.31289291381836,-4.025173664093018,19.436067581176758,0.1293845772743225,1.841434121131897,-0.15964071452617645,0.0,0.0,0.0,0.0,0.0,0.0,0.0,-0.6513443687124458,-0.21965600531412474,-0.47761776987245524,0.4400617624103161,0.07553308561861763,-0.07435920821656927,-0.15121446225538332,1.0546611179008818,0.3237960775316807,-0.3923367540752678,-2.153053499416332,0.8646234801208403,2.4658516237254964,0.5444994325315764,1.0544104758940245,0.3238615046091247,-0.39250456234122666,-2.153291787532338,0.8647539153680389,2.46587817577521,0.5445020185570556,0.0002322151522532994,0.0007287394474665075,0.00036525947913161925,0.0006655641828150065,9.8030450687627e-05,-0.0004581517033894417,3.95190808914236e-05,0.0,0.0,0.0,0.0,0.0,0.0,0.0,-0.00025064200685731564,6.542707744400245e-05,-0.00016780826595885756,-0.00023828811600568045,0.00013043524719857924,2.6552049713579606e-05,2.5860254792009485e-06,-0.0002322151522532994,-0.0007287394474665075,-0.00036525947913161925,-0.0006655641828150065,-9.8030450687627e-05,0.0004581517033894417,-3.95190808914236e-05,0.6568843722343445,34.31289291381836,4.025173664093018,-19.436067581176758,-0.1293845772743225,-1.841434121131897,0.15964071452617645,0
74,0.3646061420440674,-0.6568843722343445,-34.31289291381836,-4.025173664093018,19.436067581176758,0.1293845772743225,1.841434121131897,-0.15964071452617645,0.0,0.0,0.0,0.0,0.0,0.0,0.0,-0.6513443687124458,-0.21965600531412474,-0.47761776987245524,0.4400617624103161,0.07553308561861763,-0.07435920821656927,-0.15121446225538332,1.0546611179008818,0.3237960775316807,-0.3923367540752678,-2.153053499416332,0.8646234801208403,2.4658516237254964,0.5444994325315764,1.0544104758940245,0.3238615046091247,-0.39250456234122666,-2.153291787532338,0.8647539153680389,2.46587817577521,0.5445020185570556,0.0002322151522532994,0.0007287394474665075,0.00036525947913161925,0.0006655641828150065,9.8030450687627e-05,-0.0004581517033894417,3.95190808914236e-05,0.0,0.0,0.0,0.0,0.0,0.0,0.0,-0.00025064200685731564,6.542707744400245e-05,-0.00016780826595885756,-0.00023828811600568045,0.00013043524719857924,2.6552049713579606e-05,2.5860254792009485e-06,-0.0002322151522532994,-0.0007287394474665075,-0.00036525947913161925,-0.0006655641828150065,-9.8030450687627e-05,0.0004581517033894417,-3.95190808914236e-05,0.6568843722343445,34.31289291381836,4.025173664093018,-19.436067581176758,-0.1293845772743225,-1.841434121131897,0.15964071452617645,0
75,0.36964988708496094,-0.6568843722343445,-34.31289291381836,-4.025173664093018,19.436067581176758,0.1293845772743225,1.841434121131897,-0.15964071452617645,0.0,0.0,0.0,0.0,0.0,0.0,0.0,-0.6513443687124458,-0.21965600531412474,-0.47761776987245524,0.4400617624103161,0.07553308561861763,-0.07435920821656927,-0.15121446225538332,1.0546611179008818,0.3237960775316807,-0.3923367540752678,-2.153053499416332,0.8646234801208403,2.4658516237254964,0.5444994325315764,1.0544104758940245,0.3238615046091247,-0.39250456234122666,-2.153291787532338,0.8647539153680389,2.46587817577521,0.5445020185570556,0.0002322151522532994,0.0007287394474665075,0.00036525947913161925,0.0006655641828150065,9.8030450687627e-05,-0.0004581517033894417,3.95190808914236e-05,0.0,0.0,0.0,0.0,0.0,0.0,0.0,-0.00025064200685731564,6.542707744400245e-05,-0.00016780826595885756,-0.00023828811600568045,0.00013043524719857924,2.6552049713579606e-05,2.5860254792009485e-06,-0.0002322151522532994,-0.0007287394474665075,-0.00036525947913161925,-0.0006655641828150065,-9.8030450687627e-05,0.0004581517033894417,-3.95190808914236e-05,0.6568843722343445,34.31289291381836,4.025173664093018,-19.436067581176758,-0.1293845772743225,-1.841434121131897,0.15964071452617645,0
76,0.3746204376220703,-0.6806880831718445,-34.28908920288086,-4.025173664093018,19.487642288208008,0.1293845772743225,1.828616738319397,-0.11111776530742645,0.0,0.0,0.0,0.0,0.0,0.0,0.0,-0.6685227845093461,-0.2320345283868177,-0.4919510589273482,0.4451480071937952,0.07647802655818028,-0.07287352458776214,-0.15245950578076048,1.0546627883367372,0.32379440709582546,-0.3923367540752678,-2.153060145490936,0.8646245632699935,2.4658527743106147,0.544493687903991,1.0544104758940245,0.3238615046091247,-0.39250456234122666,-2.153291787532338,0.8647539153680389,2.46587817577521,0.5445020185570556,2.108030343026285e-06,-0.00053976141427489,-0.00025465995180319926,-0.00031929769520398413,-4.637784528449597e-05,9.078266532791346e-05,-0.0015618480306560459,0.0,0.0,0.0,0.0,0.0,0.0,0.0,-0.0002523124427127321,6.70975132992524e-05,-0.00016780826595885756,-0.00023164204140169176,0.00012935209804543213,2.5401464595287138e-05,8.330653064603233e-06,-2.108030343026285e-06,0.00053976141427489,0.00025465995180319926,0.00031929769520398413,4.637784528449597e-05,-9.078266532791346e-05,0.0015618480306560459,0.6806880831718445,34.28908920288086,4.025173664093018,-19.487642288208008,-0.1293845772743225,-1.828616738319397,0.11111776530742645,0
77,0.37961316108703613,-0.6806880831718445,-34.28908920288086,-4.025173664093018,19.487642288208008,0.1293845772743225,1.828616738319397,-0.11111776530742645,0.0,0.0,0.0,0.0,0.0,0.0,0.0,-0.6685227845093461,-0.2320345283868177,-0.4919510589273482,0.4451480071937952,0.07647802655818028,-0.07287352458776214,-0.15245950578076048,1.0546627883367372,0.32379440709582546,-0.3923367540752678,-2.153060145490936,0.8646245632699935,2.4658527743106147,0.544493687903991,1.0544104758940245,0.3238615046091247,-0.39250456234122666,-2.153291787532338,0.8647539153680389,2.46587817577521,0.5445020185570556,2.108030343026285e-06,-0.00053976141427489,-0.00025465995180319926,-0.00031929769520398413,-4.637784528449597e-05,9.078266532791346e-05,-0.0015618480306560459,0.0,0.0,0.0,0.0,0.0,0.0,0.0,-0.0002523124427127321,6.70975132992524e-05,-0.00016780826595885756,-0.00023164204140169176,0.00012935209804543213,2.5401464595287138e-05,8.330653064603233e-06,-2.108030343026285e-06,0.00053976141427489,0.00025465995180319926,0.00031929769520398413,4.637784528449597e-05,-9.078266532791346e-05,0.0015618480306560459,0.6806880831718445,34.28908920288086,4.025173664093018,-19.487642288208008,-0.1293845772743225,-1.828616738319397,0.11111776530742645,0
78,0.38460493087768555,-0.6053096652030945,-34.28908920288086,-4.048977375030518,19.487642288208008,0.1293845772743225,1.835025429725647,-0.12485067546367645,0.0,0.0,0.0,0.0,0.0,0.0,0.0,-0.6625512549008827,-0.21384103797391685,-0.48196689424176603,0.43087291779970927,0.07611487146271498,-0.0751163856007335,-0.1517732350685878,1.0546574986231954,0.32379440709582546,-0.39233508363941255,-2.1530578773628357,0.864627097573157,2.465852335448685,0.5444955669949428,1.0544104758940245,0.3238615046091247,-0.39250456234122666,-2.153291787532338,0.8647539153680389,2.46587817577521,0.5445020185570556,-0.001614088394919707,0.0001361909206409377,-0.00025159412305736785,-0.001234386727698232,2.5886031164092e-06,-0.00033154011665718414,-0.0009018941302955755,0.0,0.0,0.0,0.0,0.0,0.0,0.0,-0.000247022729170876,6.70975132992524e-05,-0.0001694787018141075,-0.0002339101695021384,0.00012681779488188383,2.584032652475088e-05,6.4515621127636535e-06,0.001614088394919707,-0.0001361909206409377,0.00025159412305736785,0.001234386727698232,-2.5886031164092e-06,0.00033154011665718414,0.0009018941302955755,0.6053096652030945,34.28908920288086,4.048977375030518,-19.487642288208008,-0.1293845772743225,-1.835025429725647,0.12485067546367645,0
79,0.3896012306213379,-0.6053096652030945,-34.28908920288086,-4.048977375030518,19.487642288208008,0.1293845772743225,1.835025429725647,-0.12485067546367645,0.0,0.0,0.0,0.0,0.0,0.0,0.0,-0.6625512549008827,-0.21384103797391685,-0.48196689424176603,0.43087291779970927,0.07611487146271498,-0.0751163856007335,-0.1517732350685878,1.0546574986231954,0.32379440709582546,-0.39233508363941255,-2.1530578773628357,0.864627097573157,2.465852335448685,0.5444955669949428,1.0544104758940245,0.3238615046091247,-0.39250456234122666,-2.153291787532338,0.8647539153680389,2.46587817577521,0.5445020185570556,-0.001614088394919707,0.0001361909206409377,-0.00025159412305736785,-0.001234386727698232,2.5886031164092e-06,-0.00033154011665718414,-0.0009018941302955755,0.0,0.0,0.0,0.0,0.0,0.0,0.0,-0.000247022729170876,6.70975132992524e-05,-0.0001694787018141075,-0.0002339101695021384,0.00012681779488188383,2.584032652475088e-05,6.4515621127636535e-06,0.001614088394919707,-0.0001361909206409377,0.00025159412305736785,0.001234386727698232,-2.5886031164092e-06,0.00033154011665718414,0.0009018941302955755,0.6053096652030945,34.28908920288086,4.048977375030518,-19.487642288208008,-0.1293845772743225,-1.835025429725647,0.12485067546367645,0
80,0.39460039138793945,-0.6568843722343445,-34.28908920288086,-4.072781085968018,19.487642288208008,0.1293845772743225,1.828616738319397,-0.15964071452617645,0.0,0.0,0.0,0.0,0.0,0.0,0.0,-0.6585902465487486,-0.23266053102940099,-0.48345385149797737,0.44296724117362024,0.07546496841695029,-0.07368418381955687,-0.15052761378368773,1.0546611179008818,0.32379440709582546,-0.39233128730456035,-2.15306007956824,0.8646267340586398,2.4658530101101115,0.5444983278573162,1.0544104758940245,0.3238615046091247,-0.39250456234122666,-2.153291787532338,0.8647539153680389,2.46587817577521,0.5445020185570556,-6.712267046545914e-05,-0.0003984127820571615,0.0004381070509282186,-0.00014007499746167588,-5.171732322875973e-05,0.00027726831470175343,0.0007226477425119773,0.0,0.0,0.0,0.0,0.0,0.0,0.0,-0.00025064200685731564,6.70975132992524e-05,-0.0001732750366663094,-0.00023170796409788252,0.00012718130939914918,2.5165665098469958e-05,3.6906997393781893e-06,6.712267046545914e-05,0.0003984127820571615,-0.0004381070509282186,0.00014007499746167588,5.171732322875973e-05,-0.00027726831470175343,-0.0007226477425119773,0.6568843722343445,34.28908920288086,4.072781085968018,-19.487642288208008,-0.1293845772743225,-1.828616738319397,0.15964071452617645,0
