rezayati/contactInterpretation/dataset/franka_main/labeled_data/link7/a6_4.csv
index,time,tau_J0,tau_J1,tau_J2,tau_J3,tau_J4,tau_J5,tau_J6,tau_J_d0,tau_J_d1,tau_J_d2,tau_J_d3,tau_J_d4,tau_J_d5,tau_J_d6,tau_ext0,tau_ext1,tau_ext2,tau_ext3,tau_ext4,tau_ext5,tau_ext6,q0,q1,q2,q3,q4,q5,q6,q_d0,q_d1,q_d2,q_d3,q_d4,q_d5,q_d6,dq0,dq1,dq2,dq3,dq4,dq5,dq6,dq_d0,dq_d1,dq_d2,dq_d3,dq_d4,dq_d5,dq_d6,e0,e1,e2,e3,e4,e5,e6,de0,de1,de2,de3,de4,de5,de6,etau_J0,etau_J1,etau_J2,etau_J3,etau_J4,etau_J5,etau_J6,label
1,0.0,-0.4505855441093445,-19.816431045532227,-0.4466826617717743,20.106538772583008,0.5404563546180725,2.4630770683288574,-0.20083944499492645,0.0,0.0,0.0,0.0,0.0,0.0,0.0,-0.42580045331500543,-0.12100397681549926,-0.2449346792206936,0.366492073618622,-0.03821220401140835,0.0960797785148562,-0.2063566636471466,1.2135223478722699,-0.22014177779072952,-0.007366916002607658,-2.6040780785594113,-0.10895351968208947,2.468117266390059,0.8264688486970142,1.2134413937687574,-0.2202432315892585,-0.0075118285948192216,-2.6038483821997875,-0.10888392708698907,2.4681821257803174,0.826474908251239,0.000385758609265372,-6.0507012870524655e-05,-9.181863889731904e-05,0.00037043372995924,0.00014237008564179992,0.00012820603076430531,-0.000783503426640685,0.0,0.0,0.0,0.0,0.0,0.0,0.0,-8.095410351249832e-05,-0.00010145379852896652,-0.0001449125922115633,0.00022969635962377666,6.959259510039284e-05,6.48593902585759e-05,6.059554224835395e-06,-0.000385758609265372,6.0507012870524655e-05,9.181863889731904e-05,-0.00037043372995924,-0.00014237008564179992,-0.00012820603076430531,0.000783503426640685,0.4505855441093445,19.816431045532227,0.4466826617717743,-20.106538772583008,-0.5404563546180725,-2.4630770683288574,0.20083944499492645,0
2,0.004994869232177734,-0.4505855441093445,-19.816431045532227,-0.4466826617717743,20.106538772583008,0.5404563546180725,2.4630770683288574,-0.20083944499492645,0.0,0.0,0.0,0.0,0.0,0.0,0.0,-0.42580045331500543,-0.12100397681549926,-0.2449346792206936,0.366492073618622,-0.03821220401140835,0.0960797785148562,-0.2063566636471466,1.2135223478722699,-0.22014177779072952,-0.007366916002607658,-2.6040780785594113,-0.10895351968208947,2.468117266390059,0.8264688486970142,1.2134413937687574,-0.2202432315892585,-0.0075118285948192216,-2.6038483821997875,-0.10888392708698907,2.4681821257803174,0.826474908251239,0.000385758609265372,-6.0507012870524655e-05,-9.181863889731904e-05,0.00037043372995924,0.00014237008564179992,0.00012820603076430531,-0.000783503426640685,0.0,0.0,0.0,0.0,0.0,0.0,0.0,-8.095410351249832e-05,-0.00010145379852896652,-0.0001449125922115633,0.00022969635962377666,6.959259510039284e-05,6.48593902585759e-05,6.059554224835395e-06,-0.000385758609265372,6.0507012870524655e-05,9.181863889731904e-05,-0.00037043372995924,-0.00014237008564179992,-0.00012820603076430531,0.000783503426640685,0.4505855441093445,19.816431045532227,0.4466826617717743,-20.106538772583008,-0.5404563546180725,-2.4630770683288574,0.20083944499492645,0
3,0.00999760627746582,-0.3752071261405945,-19.868005752563477,-0.4466826617717743,20.106538772583008,0.5404563546180725,2.4694857597351074,-0.18710653483867645,0.0,0.0,0.0,0.0,0.0,0.0,0.0,-0.42357072584700567,-0.12121668855540339,-0.2406054932899694,0.36992359472252073,-0.03890830962420283,0.09643336759898398,-0.20760775234709297,1.213517054997275,-0.22014028444804298,-0.007366916002607658,-2.6040781804932287,-0.10895340139262469,2.468116554313236,0.8264673228181071,1.2134413937687574,-0.2202432315892585,-0.0075118285948192216,-2.6038483821997875,-0.10888392708698907,2.4681821257803174,0.826474908251239,-0.0011836537341402575,0.0006521817978768842,0.0004185394622265028,0.0005093445732792907,0.0002283732082169868,1.979994034918204e-05,-0.0010567413851777768,0.0,0.0,0.0,0.0,0.0,0.0,0.0,-7.566122851754287e-05,-0.00010294714121550363,-0.0001449125922115633,0.00022979829344116354,6.947430563561396e-05,6.557146708141559e-05,7.585433131951369e-06,0.0011836537341402575,-0.0006521817978768842,-0.0004185394622265028,-0.0005093445732792907,-0.0002283732082169868,-1.979994034918204e-05,0.0010567413851777768,0.3752071261405945,19.868005752563477,0.4466826617717743,-20.106538772583008,-0.5404563546180725,-2.4694857597351074,0.18710653483867645,0
4,0.014993667602539062,-0.3752071261405945,-19.868005752563477,-0.4466826617717743,20.106538772583008,0.5404563546180725,2.4694857597351074,-0.18710653483867645,0.0,0.0,0.0,0.0,0.0,0.0,0.0,-0.42357072584700567,-0.12121668855540339,-0.2406054932899694,0.36992359472252073,-0.03890830962420283,0.09643336759898398,-0.20760775234709297,1.213517054997275,-0.22014028444804298,-0.007366916002607658,-2.6040781804932287,-0.10895340139262469,2.468116554313236,0.8264673228181071,1.2134413937687574,-0.2202432315892585,-0.0075118285948192216,-2.6038483821997875,-0.10888392708698907,2.4681821257803174,0.826474908251239,-0.0011836537341402575,0.0006521817978768842,0.0004185394622265028,0.0005093445732792907,0.0002283732082169868,1.979994034918204e-05,-0.0010567413851777768,0.0,0.0,0.0,0.0,0.0,0.0,0.0,-7.566122851754287e-05,-0.00010294714121550363,-0.0001449125922115633,0.00022979829344116354,6.947430563561396e-05,6.557146708141559e-05,7.585433131951369e-06,0.0011836537341402575,-0.0006521817978768842,-0.0004185394622265028,-0.0005093445732792907,-0.0002283732082169868,-1.979994034918204e-05,0.0010567413851777768,0.3752071261405945,19.868005752563477,0.4466826617717743,-20.106538772583008,-0.5404563546180725,-2.4694857597351074,0.18710653483867645,0
5,0.019997835159301758,-0.4505855441093445,-19.868005752563477,-0.3713042438030243,20.181917190551758,0.5404563546180725,2.4694857597351074,-0.17337362468242645,0.0,0.0,0.0,0.0,0.0,0.0,0.0,-0.4243819485632498,-0.12760790231108524,-0.2410877108338899,0.3738798853894416,-0.03914610206213174,0.09729883320503836,-0.20786026270153252,1.2135223446017824,-0.22013815938909956,-0.007372205716149325,-2.604083393677925,-0.10895351968142172,2.468116554313236,0.8264657969392009,1.2134413937687574,-0.2202432315892585,-0.0075118285948192216,-2.6038483821997875,-0.10888392708698907,2.4681821257803174,0.826474908251239,0.001232673114938493,-0.000530205293886096,-0.0016065250115348646,-0.0005655110919149084,0.00017591459506701752,-7.440074072062021e-05,-0.001245322130881109,0.0,0.0,0.0,0.0,0.0,0.0,0.0,-8.09508330250619e-05,-0.00010507220015892882,-0.00013962287866989623,0.00023501147813753676,6.95925944326492e-05,6.557146708141559e-05,9.111312038179165e-06,-0.001232673114938493,0.000530205293886096,0.0016065250115348646,0.0005655110919149084,-0.00017591459506701752,7.440074072062021e-05,0.001245322130881109,0.4505855441093445,19.868005752563477,0.3713042438030243,-20.181917190551758,-0.5404563546180725,-2.4694857597351074,0.17337362468242645,0
6,0.025012731552124023,-0.4505855441093445,-19.868005752563477,-0.3713042438030243,20.181917190551758,0.5404563546180725,2.4694857597351074,-0.17337362468242645,0.0,0.0,0.0,0.0,0.0,0.0,0.0,-0.4243819485632498,-0.12760790231108524,-0.2410877108338899,0.3738798853894416,-0.03914610206213174,0.09729883320503836,-0.20786026270153252,1.2135223446017824,-0.22013815938909956,-0.007372205716149325,-2.604083393677925,-0.10895351968142172,2.468116554313236,0.8264657969392009,1.2134413937687574,-0.2202432315892585,-0.0075118285948192216,-2.6038483821997875,-0.10888392708698907,2.4681821257803174,0.826474908251239,0.001232673114938493,-0.000530205293886096,-0.0016065250115348646,-0.0005655110919149084,0.00017591459506701752,-7.440074072062021e-05,-0.001245322130881109,0.0,0.0,0.0,0.0,0.0,0.0,0.0,-8.09508330250619e-05,-0.00010507220015892882,-0.00013962287866989623,0.00023501147813753676,6.95925944326492e-05,6.557146708141559e-05,9.111312038179165e-06,-0.001232673114938493,0.000530205293886096,0.0016065250115348646,0.0005655110919149084,-0.00017591459506701752,7.440074072062021e-05,0.001245322130881109,0.4505855441093445,19.868005752563477,0.3713042438030243,-20.181917190551758,-0.5404563546180725,-2.4694857597351074,0.17337362468242645,0
7,0.029949665069580078,-0.4267818331718445,-19.868005752563477,-0.3713042438030243,20.106538772583008,0.5404563546180725,2.4694857597351074,-0.19351522624492645,0.0,0.0,0.0,0.0,0.0,0.0,0.0,-0.42271652188479275,-0.12094964009696099,-0.23921039788188503,0.36878323456271456,-0.03988403781374344,0.09647126079023043,-0.2057109455133382,1.2135207006568798,-0.2201381584050418,-0.007372205716149325,-2.6040780869574136,-0.10895351968208947,2.468116554313236,0.82646803489493,1.2134413937687574,-0.2202432315892585,-0.0075118285948192216,-2.6038483821997875,-0.10888392708698907,2.4681821257803174,0.826474908251239,0.00022167517399457911,-0.00045700887320297045,-0.0014858076231879982,0.0012547607695075345,0.00020096904312847,-7.302572394011048e-05,-0.0003729206418879847,0.0,0.0,0.0,0.0,0.0,0.0,0.0,-7.930688812241016e-05,-0.00010507318421668077,-0.00013962287866989623,0.00022970475762607023,6.959259510039284e-05,6.557146708141559e-05,6.8733563090006555e-06,-0.00022167517399457911,0.00045700887320297045,0.0014858076231879982,-0.0012547607695075345,-0.00020096904312847,7.302572394011048e-05,0.0003729206418879847,0.4267818331718445,19.868005752563477,0.3713042438030243,-20.106538772583008,-0.5404563546180725,-2.4694857597351074,0.19351522624492645,0
8,0.0350039005279541,-0.4267818331718445,-19.868005752563477,-0.3713042438030243,20.106538772583008,0.5404563546180725,2.4694857597351074,-0.19351522624492645,0.0,0.0,0.0,0.0,0.0,0.0,0.0,-0.42271652188479275,-0.12094964009696099,-0.23921039788188503,0.36878323456271456,-0.03988403781374344,0.09647126079023043,-0.2057109455133382,1.2135207006568798,-0.2201381584050418,-0.007372205716149325,-2.6040780869574136,-0.10895351968208947,2.468116554313236,0.82646803489493,1.2134413937687574,-0.2202432315892585,-0.0075118285948192216,-2.6038483821997875,-0.10888392708698907,2.4681821257803174,0.826474908251239,0.00022167517399457911,-0.00045700887320297045,-0.0014858076231879982,0.0012547607695075345,0.00020096904312847,-7.302572394011048e-05,-0.0003729206418879847,0.0,0.0,0.0,0.0,0.0,0.0,0.0,-7.930688812241016e-05,-0.00010507318421668077,-0.00013962287866989623,0.00022970475762607023,6.959259510039284e-05,6.557146708141559e-05,6.8733563090006555e-06,-0.00022167517399457911,0.00045700887320297045,0.0014858076231879982,-0.0012547607695075345,-0.00020096904312847,7.302572394011048e-05,0.0003729206418879847,0.4267818331718445,19.868005752563477,0.3713042438030243,-20.106538772583008,-0.5404563546180725,-2.4694857597351074,0.19351522624492645,0
9,0.03999686241149902,-0.3752071261405945,-19.868005752563477,-0.4466826617717743,20.154146194458008,0.5285544991493225,2.4630770683288574,-0.20724813640117645,0.0,0.0,0.0,0.0,0.0,0.0,0.0,-0.41053955730974656,-0.12280954263595369,-0.22666356739466084,0.36624295137017754,-0.04055082287756256,0.0963483982870313,-0.205466645094283,1.2135170548883896,-0.22013815840503625,-0.007366916002607658,-2.6040815044984202,-0.10895219725370406,2.468117266390059,0.826469559320286,1.2134413937687574,-0.2202432315892585,-0.0075118285948192216,-2.6038483821997875,-0.10888392708698907,2.4681821257803174,0.826474908251239,-8.890490406110018e-05,-0.00019319773914321938,0.0012118481940155113,-0.00031103381358588383,0.0005366952797796563,-8.267948960246867e-05,-0.00011006778290736965,0.0,0.0,0.0,0.0,0.0,0.0,0.0,-7.566111963219768e-05,-0.00010507318422223189,-0.0001449125922115633,0.00023312229863270417,6.827016671498431e-05,6.48593902585759e-05,5.348930953052999e-06,8.890490406110018e-05,0.00019319773914321938,-0.0012118481940155113,0.00031103381358588383,-0.0005366952797796563,8.267948960246867e-05,0.00011006778290736965,0.3752071261405945,19.868005752563477,0.4466826617717743,-20.154146194458008,-0.5285544991493225,-2.4630770683288574,0.20724813640117645,0
10,0.04499650001525879,-0.3752071261405945,-19.868005752563477,-0.4466826617717743,20.154146194458008,0.5285544991493225,2.4630770683288574,-0.20724813640117645,0.0,0.0,0.0,0.0,0.0,0.0,0.0,-0.41053955730974656,-0.12280954263595369,-0.22666356739466084,0.36624295137017754,-0.04055082287756256,0.0963483982870313,-0.205466645094283,1.2135170548883896,-0.22013815840503625,-0.007366916002607658,-2.6040815044984202,-0.10895219725370406,2.468117266390059,0.826469559320286,1.2134413937687574,-0.2202432315892585,-0.0075118285948192216,-2.6038483821997875,-0.10888392708698907,2.4681821257803174,0.826474908251239,-8.890490406110018e-05,-0.00019319773914321938,0.0012118481940155113,-0.00031103381358588383,0.0005366952797796563,-8.267948960246867e-05,-0.00011006778290736965,0.0,0.0,0.0,0.0,0.0,0.0,0.0,-7.566111963219768e-05,-0.00010507318422223189,-0.0001449125922115633,0.00023312229863270417,6.827016671498431e-05,6.48593902585759e-05,5.348930953052999e-06,8.890490406110018e-05,0.00019319773914321938,-0.0012118481940155113,0.00031103381358588383,-0.0005366952797796563,8.267948960246867e-05,0.00011006778290736965,0.3752071261405945,19.868005752563477,0.4466826617717743,-20.154146194458008,-0.5285544991493225,-2.4630770683288574,0.20724813640117645,0
11,0.05076193809509277,-0.3752071261405945,-19.844202041625977,-0.3990752398967743,20.130342483520508,0.5340476632118225,2.4694857597351074,-0.20083944499492645,0.0,0.0,0.0,0.0,0.0,0.0,0.0,-0.40925299232616275,-0.1231550414083654,-0.228610826649045,0.3624272052279613,-0.04041642464718263,0.09541590091089505,-0.20555845688390031,1.2135170548882401,-0.22014266337288751,-0.007370256874318185,-2.604079748890337,-0.10895280760526656,2.468116554313236,0.8264677890588757,1.2134413937687574,-0.2202432315892585,-0.0075118285948192216,-2.6038483821997875,-0.10888392708698907,2.4681821257803174,0.826474908251239,-0.00048677315584097134,-0.00029868319185494794,0.00010977782094755428,-0.0001870027414243104,0.0004779118756551134,8.972199397039106e-07,-0.0005356265654977006,0.0,0.0,0.0,0.0,0.0,0.0,0.0,-7.566111948276166e-05,-0.00010056821637097202,-0.0001415717205010365,0.00023136669054935055,6.888051827748376e-05,6.557146708141559e-05,7.1191923632918375e-06,0.00048677315584097134,0.00029868319185494794,-0.00010977782094755428,0.0001870027414243104,-0.0004779118756551134,-8.972199397039106e-07,0.0005356265654977006,0.3752071261405945,19.844202041625977,0.3990752398967743,-20.130342483520508,-0.5340476632118225,-2.4694857597351074,0.20083944499492645,0
12,0.05494952201843262,-0.3752071261405945,-19.844202041625977,-0.3990752398967743,20.130342483520508,0.5340476632118225,2.4694857597351074,-0.20083944499492645,0.0,0.0,0.0,0.0,0.0,0.0,0.0,-0.40925299232616275,-0.1231550414083654,-0.228610826649045,0.3624272052279613,-0.04041642464718263,0.09541590091089505,-0.20555845688390031,1.2135170548882401,-0.22014266337288751,-0.007370256874318185,-2.604079748890337,-0.10895280760526656,2.468116554313236,0.8264677890588757,1.2134413937687574,-0.2202432315892585,-0.0075118285948192216,-2.6038483821997875,-0.10888392708698907,2.4681821257803174,0.826474908251239,-0.00048677315584097134,-0.00029868319185494794,0.00010977782094755428,-0.0001870027414243104,0.0004779118756551134,8.972199397039106e-07,-0.0005356265654977006,0.0,0.0,0.0,0.0,0.0,0.0,0.0,-7.566111948276166e-05,-0.00010056821637097202,-0.0001415717205010365,0.00023136669054935055,6.888051827748376e-05,6.557146708141559e-05,7.1191923632918375e-06,0.00048677315584097134,0.00029868319185494794,-0.00010977782094755428,0.0001870027414243104,-0.0004779118756551134,-8.972199397039106e-07,0.0005356265654977006,0.3752071261405945,19.844202041625977,0.3990752398967743,-20.130342483520508,-0.5340476632118225,-2.4694857597351074,0.20083944499492645,0
13,0.0599977970123291,-0.4505855441093445,-19.868005752563477,-0.4982573688030243,20.130342483520508,0.5459495186805725,2.4694857597351074,-0.20724813640117645,0.0,0.0,0.0,0.0,0.0,0.0,0.0,-0.4142528937265529,-0.1302572645327898,-0.23566080619366328,0.36860014987765605,-0.04021223307511727,0.09683210663815116,-0.20557039910945324,1.2135223446017818,-0.2201381584530393,-0.007363296724921255,-2.6040797489948346,-0.10895413003365198,2.468116555766786,0.8264695607558912,1.2134413937687574,-0.2202432315892585,-0.0075118285948192216,-2.6038483821997875,-0.10888392708698907,2.4681821257803174,0.826474908251239,0.00036754741385495884,0.0002472712151587487,0.0014433544391210158,0.00023721339840671903,-0.0001537794685445385,-0.00019528129847951975,0.0002021105954911766,0.0,0.0,0.0,0.0,0.0,0.0,0.0,-8.095083302439576e-05,-0.0001050731362191859,-0.00014853186989796652,0.00023136679504709434,7.020294666290616e-05,6.557001353124647e-05,5.3474953478627185e-06,-0.00036754741385495884,-0.0002472712151587487,-0.0014433544391210158,-0.00023721339840671903,0.0001537794685445385,0.00019528129847951975,-0.0002021105954911766,0.4505855441093445,19.868005752563477,0.4982573688030243,-20.130342483520508,-0.5459495186805725,-2.4694857597351074,0.20724813640117645,0
14,0.06499314308166504,-0.4505855441093445,-19.868005752563477,-0.4982573688030243,20.130342483520508,0.5459495186805725,2.4694857597351074,-0.20724813640117645,0.0,0.0,0.0,0.0,0.0,0.0,0.0,-0.4142528937265529,-0.1302572645327898,-0.23566080619366328,0.36860014987765605,-0.04021223307511727,0.09683210663815116,-0.20557039910945324,1.2135223446017818,-0.2201381584530393,-0.007363296724921255,-2.6040797489948346,-0.10895413003365198,2.468116555766786,0.8264695607558912,1.2134413937687574,-0.2202432315892585,-0.0075118285948192216,-2.6038483821997875,-0.10888392708698907,2.4681821257803174,0.826474908251239,0.00036754741385495884,0.0002472712151587487,0.0014433544391210158,0.00023721339840671903,-0.0001537794685445385,-0.00019528129847951975,0.0002021105954911766,0.0,0.0,0.0,0.0,0.0,0.0,0.0,-8.095083302439576e-05,-0.0001050731362191859,-0.00014853186989796652,0.00023136679504709434,7.020294666290616e-05,6.557001353124647e-05,5.3474953478627185e-06,-0.00036754741385495884,-0.0002472712151587487,-0.0014433544391210158,-0.00023721339840671903,0.0001537794685445385,0.00019528129847951975,-0.0002021105954911766,0.4505855441093445,19.868005752563477,0.4982573688030243,-20.130342483520508,-0.5459495186805725,-2.4694857597351074,0.20724813640117645,0
15,0.0699911117553711,-0.4267818331718445,-19.816431045532227,-0.4228789508342743,20.130342483520508,0.5340476632118225,2.4630770683288574,-0.23471395671367645,0.0,0.0,0.0,0.0,0.0,0.0,0.0,-0.41529628175287914,-0.12618671753627994,-0.23563684163048276,0.36552367134233354,-0.04091939481402268,0.09575462298022139,-0.20570012152780437,1.2135206741659266,-0.2201420138937226,-0.007368586438462921,-2.6040797492047925,-0.10895280760526656,2.468117266390067,0.8264726125316486,1.2134413937687574,-0.2202432315892585,-0.0075118285948192216,-2.6038483821997875,-0.10888392708698907,2.4681821257803174,0.826474908251239,-0.0006326582548305335,-0.0011946058684671143,-0.0012033761049625865,5.9282665967218484e-05,0.0003640895783895791,0.0001000355348399763,0.001908464255231181,0.0,0.0,0.0,0.0,0.0,0.0,0.0,-7.928039716920132e-05,-0.00010121769553589344,-0.00014324215635630033,0.00023136700500492324,6.888051827748376e-05,6.48593902505823e-05,2.2957195904282912e-06,0.0006326582548305335,0.0011946058684671143,0.0012033761049625865,-5.9282665967218484e-05,-0.0003640895783895791,-0.0001000355348399763,-0.001908464255231181,0.4267818331718445,19.816431045532227,0.4228789508342743,-20.130342483520508,-0.5340476632118225,-2.4630770683288574,0.23471395671367645,0
16,0.07499122619628906,-0.4267818331718445,-19.816431045532227,-0.4228789508342743,20.130342483520508,0.5340476632118225,2.4630770683288574,-0.23471395671367645,0.0,0.0,0.0,0.0,0.0,0.0,0.0,-0.41529628175287914,-0.12618671753627994,-0.23563684163048276,0.36552367134233354,-0.04091939481402268,0.09575462298022139,-0.20570012152780437,1.2135206741659266,-0.2201420138937226,-0.007368586438462921,-2.6040797492047925,-0.10895280760526656,2.468117266390067,0.8264726125316486,1.2134413937687574,-0.2202432315892585,-0.0075118285948192216,-2.6038483821997875,-0.10888392708698907,2.4681821257803174,0.826474908251239,-0.0006326582548305335,-0.0011946058684671143,-0.0012033761049625865,5.9282665967218484e-05,0.0003640895783895791,0.0001000355348399763,0.001908464255231181,0.0,0.0,0.0,0.0,0.0,0.0,0.0,-7.928039716920132e-05,-0.00010121769553589344,-0.00014324215635630033,0.00023136700500492324,6.888051827748376e-05,6.48593902505823e-05,2.2957195904282912e-06,0.0006326582548305335,0.0011946058684671143,0.0012033761049625865,-5.9282665967218484e-05,-0.0003640895783895791,-0.0001000355348399763,-0.001908464255231181,0.4267818331718445,19.816431045532227,0.4228789508342743,-20.130342483520508,-0.5340476632118225,-2.4630770683288574,0.23471395671367645,0
17,0.07999491691589355,-0.4267818331718445,-19.868005752563477,-0.4982573688030243,20.106538772583008,0.5404563546180725,2.4694857597351074,-0.20724813640117645,0.0,0.0,0.0,0.0,0.0,0.0,0.0,-0.4185151168674051,-0.12369968234548506,-0.23723815377756916,0.36589331699498284,-0.04116510911869146,0.09566217354895348,-0.20563767538720126,1.2135206741659266,-0.22013816132522168,-0.007363296724921255,-2.604078155088405,-0.10895351968208947,2.468116554313236,0.8264695607738363,1.2134413937687574,-0.2202432315892585,-0.0075118285948192216,-2.6038483821997875,-0.10888392708698907,2.4681821257803174,0.826474908251239,-0.0006812220151348281,0.0002265576623066426,0.0006760447320166951,0.0006392273932613129,0.00020318185427199148,0.00014338076427467534,-7.218010917552923e-05,0.0,0.0,0.0,0.0,0.0,0.0,0.0,-7.928039716920132e-05,-0.00010507026403680508,-0.00014853186989796652,0.00022977288861758538,6.959259510039284e-05,6.557146708141559e-05,5.34747740277286e-06,0.0006812220151348281,-0.0002265576623066426,-0.0006760447320166951,-0.0006392273932613129,-0.00020318185427199148,-0.00014338076427467534,7.218010917552923e-05,0.4267818331718445,19.868005752563477,0.4982573688030243,-20.106538772583008,-0.5404563546180725,-2.4694857597351074,0.20724813640117645,0
18,0.08499860763549805,-0.4267818331718445,-19.868005752563477,-0.4982573688030243,20.106538772583008,0.5404563546180725,2.4694857597351074,-0.20724813640117645,0.0,0.0,0.0,0.0,0.0,0.0,0.0,-0.4185151168674051,-0.12369968234548506,-0.23723815377756916,0.36589331699498284,-0.04116510911869146,0.09566217354895348,-0.20563767538720126,1.2135206741659266,-0.22013816132522168,-0.007363296724921255,-2.604078155088405,-0.10895351968208947,2.468116554313236,0.8264695607738363,1.2134413937687574,-0.2202432315892585,-0.0075118285948192216,-2.6038483821997875,-0.10888392708698907,2.4681821257803174,0.826474908251239,-0.0006812220151348281,0.0002265576623066426,0.0006760447320166951,0.0006392273932613129,0.00020318185427199148,0.00014338076427467534,-7.218010917552923e-05,0.0,0.0,0.0,0.0,0.0,0.0,0.0,-7.928039716920132e-05,-0.00010507026403680508,-0.00014853186989796652,0.00022977288861758538,6.959259510039284e-05,6.557146708141559e-05,5.34747740277286e-06,0.0006812220151348281,-0.0002265576623066426,-0.0006760447320166951,-0.0006392273932613129,-0.00020318185427199148,-0.00014338076427467534,7.218010917552923e-05,0.4267818331718445,19.868005752563477,0.4982573688030243,-20.106538772583008,-0.5404563546180725,-2.4694857597351074,0.20724813640117645,0
19,0.08995342254638672,-0.4505855441093445,-19.868005752563477,-0.4704863727092743,20.130342483520508,0.5404563546180725,2.4694857597351074,-0.22098104655742645,0.0,0.0,0.0,0.0,0.0,0.0,0.0,-0.4269621878109454,-0.12346845227906791,-0.2460556147066537,0.36531495471441666,-0.04056685621038485,0.0957949024346195,-0.2069568752560657,1.2135223534320996,-0.22013815840504175,-0.007365245566752395,-2.604079751724423,-0.10895351968208947,2.4681162011005258,0.8264710866527425,1.2134413937687574,-0.2202432315892585,-0.0075118285948192216,-2.6038483821997875,-0.10888392708698907,2.4681821257803174,0.826474908251239,-6.187394666318633e-05,2.6137543813236274e-05,-0.0001294429281768433,0.00026233182398043193,7.283575083935371e-05,-9.046757532468267e-05,0.000553542683371042,0.0,0.0,0.0,0.0,0.0,0.0,0.0,-8.095966334220606e-05,-0.00010507318421673628,-0.00014658302806682625,0.00023136952463564953,6.959259510039284e-05,6.592467979160688e-05,3.8215984965450644e-06,6.187394666318633e-05,-2.6137543813236274e-05,0.0001294429281768433,-0.00026233182398043193,-7.283575083935371e-05,9.046757532468267e-05,-0.000553542683371042,0.4505855441093445,19.868005752563477,0.4704863727092743,-20.130342483520508,-0.5404563546180725,-2.4694857597351074,0.22098104655742645,0
20,0.09500360488891602,-0.4505855441093445,-19.868005752563477,-0.4704863727092743,20.130342483520508,0.5404563546180725,2.4694857597351074,-0.22098104655742645,0.0,0.0,0.0,0.0,0.0,0.0,0.0,-0.4269621878109454,-0.12346845227906791,-0.2460556147066537,0.36531495471441666,-0.04056685621038485,0.0957949024346195,-0.2069568752560657,1.2135223534320996,-0.22013815840504175,-0.007365245566752395,-2.604079751724423,-0.10895351968208947,2.4681162011005258,0.8264710866527425,1.2134413937687574,-0.2202432315892585,-0.0075118285948192216,-2.6038483821997875,-0.10888392708698907,2.4681821257803174,0.826474908251239,-6.187394666318633e-05,2.6137543813236274e-05,-0.0001294429281768433,0.00026233182398043193,7.283575083935371e-05,-9.046757532468267e-05,0.000553542683371042,0.0,0.0,0.0,0.0,0.0,0.0,0.0,-8.095966334220606e-05,-0.00010507318421673628,-0.00014658302806682625,0.00023136952463564953,6.959259510039284e-05,6.592467979160688e-05,3.8215984965450644e-06,6.187394666318633e-05,-2.6137543813236274e-05,0.0001294429281768433,-0.00026233182398043193,-7.283575083935371e-05,9.046757532468267e-05,-0.000553542683371042,0.4505855441093445,19.868005752563477,0.4704863727092743,-20.130342483520508,-0.5404563546180725,-2.4694857597351074,0.22098104655742645,0
21,0.1000053882598877,-0.3752071261405945,-19.844202041625977,-0.3713042438030243,20.130342483520508,0.5459495186805725,2.4694857597351074,-0.24112264811992645,0.0,0.0,0.0,0.0,0.0,0.0,0.0,-0.4180625508049522,-0.1211506592508794,-0.23912241530175837,0.36568248619573823,-0.04083169713687764,0.09614978992001819,-0.20717204943051132,1.2135170548882899,-0.22013982927291897,-0.00737196898774823,-2.6040805144990125,-0.10895412857328822,2.468116554311242,0.8264733246084717,1.2134413937687574,-0.2202432315892585,-0.0075118285948192216,-2.6038483821997875,-0.10888392708698907,2.4681821257803174,0.826474908251239,-0.0008712756166034074,-0.0001644528305499296,-0.0010183673765790384,0.00044259167669041176,-8.28755476971442e-05,-6.228192356956342e-05,0.001548321599273674,0.0,0.0,0.0,0.0,0.0,0.0,0.0,-7.566111953249965e-05,-0.00010340231633951258,-0.00013985960707099156,0.00023213229922491863,7.020148629914569e-05,6.557146907537614e-05,1.5836427673665554e-06,0.0008712756166034074,0.0001644528305499296,0.0010183673765790384,-0.00044259167669041176,8.28755476971442e-05,6.228192356956342e-05,-0.001548321599273674,0.3752071261405945,19.844202041625977,0.3713042438030243,-20.130342483520508,-0.5459495186805725,-2.4694857597351074,0.24112264811992645,0
22,0.10499143600463867,-0.3752071261405945,-19.844202041625977,-0.3713042438030243,20.130342483520508,0.5459495186805725,2.4694857597351074,-0.24112264811992645,0.0,0.0,0.0,0.0,0.0,0.0,0.0,-0.4180625508049522,-0.1211506592508794,-0.23912241530175837,0.36568248619573823,-0.04083169713687764,0.09614978992001819,-0.20717204943051132,1.2135170548882899,-0.22013982927291897,-0.00737196898774823,-2.6040805144990125,-0.10895412857328822,2.468116554311242,0.8264733246084717,1.2134413937687574,-0.2202432315892585,-0.0075118285948192216,-2.6038483821997875,-0.10888392708698907,2.4681821257803174,0.826474908251239,-0.0008712756166034074,-0.0001644528305499296,-0.0010183673765790384,0.00044259167669041176,-8.28755476971442e-05,-6.228192356956342e-05,0.001548321599273674,0.0,0.0,0.0,0.0,0.0,0.0,0.0,-7.566111953249965e-05,-0.00010340231633951258,-0.00013985960707099156,0.00023213229922491863,7.020148629914569e-05,6.557146907537614e-05,1.5836427673665554e-06,0.0008712756166034074,0.0001644528305499296,0.0010183673765790384,-0.00044259167669041176,8.28755476971442e-05,6.228192356956342e-05,-0.001548321599273674,0.3752071261405945,19.844202041625977,0.3713042438030243,-20.130342483520508,-0.5459495186805725,-2.4694857597351074,0.24112264811992645,0
23,0.1100318431854248,-0.4267818331718445,-19.844202041625977,-0.4228789508342743,20.154146194458008,0.5404563546180725,2.4758944511413574,-0.23471395671367645,0.0,0.0,0.0,0.0,0.0,0.0,0.0,-0.41860801795806135,-0.11639410373482581,-0.23925997840850682,0.36395256616192184,-0.04045989864398791,0.09536979753353653,-0.20635910852763578,1.2135228199331385,-0.2201398298129557,-0.007368586437126583,-2.6040814207297482,-0.10895351968208122,2.4681158422364127,0.8264726125316487,1.2134413937687574,-0.2202432315892585,-0.0075118285948192216,-2.6038483821997875,-0.10888392708698907,2.4681821257803174,0.826474908251239,0.0011134663554780708,8.019651459469566e-05,0.0009855278324955212,-0.000425035956892736,0.00023632329243264774,-0.0003537784247836404,0.001475396040177496,0.0,0.0,0.0,0.0,0.0,0.0,0.0,-8.142616438111538e-05,-0.00010340177630277503,-0.00014324215769263848,0.00023303852996070518,6.959259509214943e-05,6.628354390469937e-05,2.295719590317269e-06,-0.0011134663554780708,-8.019651459469566e-05,-0.0009855278324955212,0.000425035956892736,-0.00023632329243264774,0.0003537784247836404,-0.001475396040177496,0.4267818331718445,19.844202041625977,0.4228789508342743,-20.154146194458008,-0.5404563546180725,-2.4758944511413574,0.23471395671367645,0
24,0.1177663803100586,-0.4267818331718445,-19.844202041625977,-0.4228789508342743,20.154146194458008,0.5404563546180725,2.4758944511413574,-0.23471395671367645,0.0,0.0,0.0,0.0,0.0,0.0,0.0,-0.41860801795806135,-0.11639410373482581,-0.23925997840850682,0.36395256616192184,-0.04045989864398791,0.09536979753353653,-0.20635910852763578,1.2135228199331385,-0.2201398298129557,-0.007368586437126583,-2.6040814207297482,-0.10895351968208122,2.4681158422364127,0.8264726125316487,1.2134413937687574,-0.2202432315892585,-0.0075118285948192216,-2.6038483821997875,-0.10888392708698907,2.4681821257803174,0.826474908251239,0.0011134663554780708,8.019651459469566e-05,0.0009855278324955212,-0.000425035956892736,0.00023632329243264774,-0.0003537784247836404,0.001475396040177496,0.0,0.0,0.0,0.0,0.0,0.0,0.0,-8.142616438111538e-05,-0.00010340177630277503,-0.00014324215769263848,0.00023303852996070518,6.959259509214943e-05,6.628354390469937e-05,2.295719590317269e-06,-0.0011134663554780708,-8.019651459469566e-05,-0.0009855278324955212,0.000425035956892736,-0.00023632329243264774,0.0003537784247836404,-0.001475396040177496,0.4267818331718445,19.844202041625977,0.4228789508342743,-20.154146194458008,-0.5404563546180725,-2.4758944511413574,0.23471395671367645,0
25,0.12000560760498047,-0.3752071261405945,-19.891809463500977,-0.3990752398967743,20.181917190551758,0.5459495186805725,2.4758944511413574,-0.22098104655742645,0.0,0.0,0.0,0.0,0.0,0.0,0.0,-0.4211565520339861,-0.12403631310366796,-0.2372421295130038,0.3718119682884366,-0.0401433672487571,0.09631038199120394,-0.20540219178116753,1.213517054900353,-0.22013672418018615,-0.007370256874318178,-2.604083376670819,-0.10895413003365198,2.4681158422364127,0.8264710822920918,1.2134413937687574,-0.2202432315892585,-0.0075118285948192216,-2.6038483821997875,-0.10888392708698907,2.4681821257803174,0.826474908251239,-0.0006521036235735689,0.0006573665989383459,-0.0002826010673762026,-0.0009208370874985929,-0.00023025796898764415,-0.000132700165191483,0.00040698869722792703,0.0,0.0,0.0,0.0,0.0,0.0,0.0,-7.566113159573895e-05,-0.00010650740907233724,-0.00014157172050104343,0.000234994471031591,7.020294666290616e-05,6.628354390469937e-05,3.82595914727446e-06,0.0006521036235735689,-0.0006573665989383459,0.0002826010673762026,0.0009208370874985929,0.00023025796898764415,0.000132700165191483,-0.00040698869722792703,0.3752071261405945,19.891809463500977,0.3990752398967743,-20.181917190551758,-0.5459495186805725,-2.4758944511413574,0.22098104655742645,0
26,0.12499046325683594,-0.3752071261405945,-19.891809463500977,-0.3990752398967743,20.181917190551758,0.5459495186805725,2.4758944511413574,-0.22098104655742645,0.0,0.0,0.0,0.0,0.0,0.0,0.0,-0.4211565520339861,-0.12403631310366796,-0.2372421295130038,0.3718119682884366,-0.0401433672487571,0.09631038199120394,-0.20540219178116753,1.213517054900353,-0.22013672418018615,-0.007370256874318178,-2.604083376670819,-0.10895413003365198,2.4681158422364127,0.8264710822920918,1.2134413937687574,-0.2202432315892585,-0.0075118285948192216,-2.6038483821997875,-0.10888392708698907,2.4681821257803174,0.826474908251239,-0.0006521036235735689,0.0006573665989383459,-0.0002826010673762026,-0.0009208370874985929,-0.00023025796898764415,-0.000132700165191483,0.00040698869722792703,0.0,0.0,0.0,0.0,0.0,0.0,0.0,-7.566113159573895e-05,-0.00010650740907233724,-0.00014157172050104343,0.000234994471031591,7.020294666290616e-05,6.628354390469937e-05,3.82595914727446e-06,0.0006521036235735689,-0.0006573665989383459,0.0002826010673762026,0.0009208370874985929,0.00023025796898764415,0.000132700165191483,-0.00040698869722792703,0.3752071261405945,19.891809463500977,0.3990752398967743,-20.181917190551758,-0.5459495186805725,-2.4758944511413574,0.22098104655742645,0
27,0.13001298904418945,-0.3752071261405945,-19.868005752563477,-0.3990752398967743,20.130342483520508,0.5340476632118225,2.4823031425476074,-0.24112264811992645,0.0,0.0,0.0,0.0,0.0,0.0,0.0,-0.41368605612256365,-0.12134259274854288,-0.22512607397303996,0.3714252792845561,-0.0397158020228531,0.0961944628337784,-0.20529393971719107,1.2135170548882401,-0.22013815840636966,-0.007370256874318185,-2.6040798254193245,-0.10895280760526656,2.4681151301595894,0.826473324608447,1.2134413937687574,-0.2202432315892585,-0.0075118285948192216,-2.6038483821997875,-0.10888392708698907,2.4681821257803174,0.826474908251239,-0.0009469295000890436,-0.00035224540002411344,-8.981530109321353e-06,0.0004945921859125536,-0.0005044378793054095,0.008928725127668435,0.0014925267915829078,0.0,0.0,0.0,0.0,0.0,0.0,0.0,-7.566111948276166e-05,-0.00010507318288882628,-0.0001415717205010365,0.00023144321953694202,6.888051827748376e-05,6.699562072798315e-05,1.5836427920135066e-06,0.0009469295000890436,0.00035224540002411344,8.981530109321353e-06,-0.0004945921859125536,0.0005044378793054095,-0.008928725127668435,-0.0014925267915829078,0.3752071261405945,19.868005752563477,0.3990752398967743,-20.130342483520508,-0.5340476632118225,-2.4823031425476074,0.24112264811992645,0
28,0.13501811027526855,-0.3752071261405945,-19.868005752563477,-0.3990752398967743,20.130342483520508,0.5340476632118225,2.4823031425476074,-0.24112264811992645,0.0,0.0,0.0,0.0,0.0,0.0,0.0,-0.41368605612256365,-0.12134259274854288,-0.22512607397303996,0.3714252792845561,-0.0397158020228531,0.0961944628337784,-0.20529393971719107,1.2135170548882401,-0.22013815840636966,-0.007370256874318185,-2.6040798254193245,-0.10895280760526656,2.4681151301595894,0.826473324608447,1.2134413937687574,-0.2202432315892585,-0.0075118285948192216,-2.6038483821997875,-0.10888392708698907,2.4681821257803174,0.826474908251239,-0.0009469295000890436,-0.00035224540002411344,-8.981530109321353e-06,0.0004945921859125536,-0.0005044378793054095,0.008928725127668435,0.0014925267915829078,0.0,0.0,0.0,0.0,0.0,0.0,0.0,-7.566111948276166e-05,-0.00010507318288882628,-0.0001415717205010365,0.00023144321953694202,6.888051827748376e-05,6.699562072798315e-05,1.5836427920135066e-06,0.0009469295000890436,0.00035224540002411344,8.981530109321353e-06,-0.0004945921859125536,0.0005044378793054095,-0.008928725127668435,-0.0014925267915829078,0.3752071261405945,19.868005752563477,0.3990752398967743,-20.130342483520508,-0.5340476632118225,-2.4823031425476074,0.24112264811992645,0
29,0.1400008201599121,-0.3752071261405945,-19.868005752563477,-0.3990752398967743,20.130342483520508,0.5340476632118225,2.4823031425476074,-0.24112264811992645,0.0,0.0,0.0,0.0,0.0,0.0,0.0,-0.41368605612256365,-0.12134259274854288,-0.22512607397303996,0.3714252792845561,-0.0397158020228531,0.0961944628337784,-0.20529393971719107,1.2135170548882401,-0.22013815840636966,-0.007370256874318185,-2.6040798254193245,-0.10895280760526656,2.4681151301595894,0.826473324608447,1.2134413937687574,-0.2202432315892585,-0.0075118285948192216,-2.6038483821997875,-0.10888392708698907,2.4681821257803174,0.826474908251239,-0.0009469295000890436,-0.00035224540002411344,-8.981530109321353e-06,0.0004945921859125536,-0.0005044378793054095,0.008928725127668435,0.0014925267915829078,0.0,0.0,0.0,0.0,0.0,0.0,0.0,-7.566111948276166e-05,-0.00010507318288882628,-0.0001415717205010365,0.00023144321953694202,6.888051827748376e-05,6.699562072798315e-05,1.5836427920135066e-06,0.0009469295000890436,0.00035224540002411344,8.981530109321353e-06,-0.0004945921859125536,0.0005044378793054095,-0.008928725127668435,-0.0014925267915829078,0.3752071261405945,19.868005752563477,0.3990752398967743,-20.130342483520508,-0.5340476632118225,-2.4823031425476074,0.24112264811992645,0
30,0.14501523971557617,-0.3752071261405945,-19.868005752563477,-0.3990752398967743,20.130342483520508,0.5340476632118225,2.4823031425476074,-0.24112264811992645,0.0,0.0,0.0,0.0,0.0,0.0,0.0,-0.41368605612256365,-0.12134259274854288,-0.22512607397303996,0.3714252792845561,-0.0397158020228531,0.0961944628337784,-0.20529393971719107,1.2135170548882401,-0.22013815840636966,-0.007370256874318185,-2.6040798254193245,-0.10895280760526656,2.4681151301595894,0.826473324608447,1.2134413937687574,-0.2202432315892585,-0.0075118285948192216,-2.6038483821997875,-0.10888392708698907,2.4681821257803174,0.826474908251239,-0.0009469295000890436,-0.00035224540002411344,-8.981530109321353e-06,0.0004945921859125536,-0.0005044378793054095,0.008928725127668435,0.0014925267915829078,0.0,0.0,0.0,0.0,0.0,0.0,0.0,-7.566111948276166e-05,-0.00010507318288882628,-0.0001415717205010365,0.00023144321953694202,6.888051827748376e-05,6.699562072798315e-05,1.5836427920135066e-06,0.0009469295000890436,0.00035224540002411344,8.981530109321353e-06,-0.0004945921859125536,0.0005044378793054095,-0.008928725127668435,-0.0014925267915829078,0.3752071261405945,19.868005752563477,0.3990752398967743,-20.130342483520508,-0.5340476632118225,-2.4823031425476074,0.24112264811992645,0
31,0.14995622634887695,-0.4505855441093445,-19.915613174438477,-0.4228789508342743,20.154146194458008,0.5404563546180725,2.4630770683288574,-0.22830526530742645,0.0,0.0,0.0,0.0,0.0,0.0,0.0,-0.4178356117637047,-0.11408720872469548,-0.22647580256398173,0.3603303765829681,-0.04017072608591353,0.0939742545569539,-0.20590675422405919,1.2135223446017818,-0.2201369434323227,-0.007368586438462921,-2.604081419326143,-0.10895351968208947,2.4681172663900584,0.8264719004548258,1.2134413937687574,-0.2202432315892585,-0.0075118285948192216,-2.6038483821997875,-0.10888392708698907,2.4681821257803174,0.826474908251239,0.00040700017490950916,0.0012102132003960172,-0.00020120074978975653,-0.00040995710772979423,0.0001144132521474237,0.0004529141542673922,-0.008264766834011157,0.0,0.0,0.0,0.0,0.0,0.0,0.0,-8.095083302439576e-05,-0.00010628815693577987,-0.00014324215635630033,0.00023303712635547313,6.959259510039284e-05,6.485939025901999e-05,3.0077964132679824e-06,-0.00040700017490950916,-0.0012102132003960172,0.00020120074978975653,0.00040995710772979423,-0.0001144132521474237,-0.0004529141542673922,0.008264766834011157,0.4505855441093445,19.915613174438477,0.4228789508342743,-20.154146194458008,-0.5404563546180725,-2.4630770683288574,0.22830526530742645,0
32,0.15499067306518555,-0.4505855441093445,-19.915613174438477,-0.4228789508342743,20.154146194458008,0.5404563546180725,2.4630770683288574,-0.22830526530742645,0.0,0.0,0.0,0.0,0.0,0.0,0.0,-0.4178356117637047,-0.11408720872469548,-0.22647580256398173,0.3603303765829681,-0.04017072608591353,0.0939742545569539,-0.20590675422405919,1.2135223446017818,-0.2201369434323227,-0.007368586438462921,-2.604081419326143,-0.10895351968208947,2.4681172663900584,0.8264719004548258,1.2134413937687574,-0.2202432315892585,-0.0075118285948192216,-2.6038483821997875,-0.10888392708698907,2.4681821257803174,0.826474908251239,0.00040700017490950916,0.0012102132003960172,-0.00020120074978975653,-0.00040995710772979423,0.0001144132521474237,0.0004529141542673922,-0.008264766834011157,0.0,0.0,0.0,0.0,0.0,0.0,0.0,-8.095083302439576e-05,-0.00010628815693577987,-0.00014324215635630033,0.00023303712635547313,6.959259510039284e-05,6.485939025901999e-05,3.0077964132679824e-06,-0.00040700017490950916,-0.0012102132003960172,0.00020120074978975653,0.00040995710772979423,-0.0001144132521474237,-0.0004529141542673922,0.008264766834011157,0.4505855441093445,19.915613174438477,0.4228789508342743,-20.154146194458008,-0.5404563546180725,-2.4630770683288574,0.22830526530742645,0
33,0.1600041389465332,-0.4267818331718445,-19.844202041625977,-0.4466826617717743,20.154146194458008,0.5404563546180725,2.4630770683288574,-0.19351522624492645,0.0,0.0,0.0,0.0,0.0,0.0,0.0,-0.40956358704118945,-0.12202892345262713,-0.21528876909835973,0.3672632192627065,-0.04056184713269262,0.09617520891104317,-0.20605683936192037,1.2135206741659266,-0.22013982917691288,-0.007366913080034805,-2.6040821080904952,-0.10895351968208947,2.4681172663900584,0.82646803489493,1.2134413937687574,-0.2202432315892585,-0.0075118285948192216,-2.6038483821997875,-0.10888392708698907,2.4681821257803174,0.826474908251239,0.0002321770083305268,-0.0002693196713747271,0.0007510565435524201,-0.0007242948206184689,0.00013724105570832388,0.0003333463957665516,-0.0009067942442822609,0.0,0.0,0.0,0.0,0.0,0.0,0.0,-7.928039716920132e-05,-0.00010340241234560454,-0.00014491551478441628,0.00023372589070769223,6.959259510039284e-05,6.485939025901999e-05,6.8733563090006555e-06,-0.0002321770083305268,0.0002693196713747271,-0.0007510565435524201,0.0007242948206184689,-0.00013724105570832388,-0.0003333463957665516,0.0009067942442822609,0.4267818331718445,19.844202041625977,0.4466826617717743,-20.154146194458008,-0.5404563546180725,-2.4630770683288574,0.19351522624492645,0
34,0.16504240036010742,-0.4267818331718445,-19.844202041625977,-0.4466826617717743,20.154146194458008,0.5404563546180725,2.4630770683288574,-0.19351522624492645,0.0,0.0,0.0,0.0,0.0,0.0,0.0,-0.40956358704118945,-0.12202892345262713,-0.21528876909835973,0.3672632192627065,-0.04056184713269262,0.09617520891104317,-0.20605683936192037,1.2135206741659266,-0.22013982917691288,-0.007366913080034805,-2.6040821080904952,-0.10895351968208947,2.4681172663900584,0.82646803489493,1.2134413937687574,-0.2202432315892585,-0.0075118285948192216,-2.6038483821997875,-0.10888392708698907,2.4681821257803174,0.826474908251239,0.0002321770083305268,-0.0002693196713747271,0.0007510565435524201,-0.0007242948206184689,0.00013724105570832388,0.0003333463957665516,-0.0009067942442822609,0.0,0.0,0.0,0.0,0.0,0.0,0.0,-7.928039716920132e-05,-0.00010340241234560454,-0.00014491551478441628,0.00023372589070769223,6.959259510039284e-05,6.485939025901999e-05,6.8733563090006555e-06,-0.0002321770083305268,0.0002693196713747271,-0.0007510565435524201,0.0007242948206184689,-0.00013724105570832388,-0.0003333463957665516,0.0009067942442822609,0.4267818331718445,19.844202041625977,0.4466826617717743,-20.154146194458008,-0.5404563546180725,-2.4630770683288574,0.19351522624492645,0
35,0.17004132270812988,-0.4029781222343445,-19.868005752563477,-0.4466826617717743,20.154146194458008,0.5459495186805725,2.4630770683288574,-0.20083944499492645,0.0,0.0,0.0,0.0,0.0,0.0,0.0,-0.4172969319524314,-0.1218265684427164,-0.22076754913890967,0.3669488321233956,-0.04055774123328133,0.09710577419213141,-0.20707969012193833,1.2135190037300712,-0.22013815851304502,-0.007364785446981299,-2.6040814958590195,-0.10895413003365198,2.4681172663900584,0.8264688486970133,1.2134413937687574,-0.2202432315892585,-0.0075118285948192216,-2.6038483821997875,-0.10888392708698907,2.4681821257803174,0.826474908251239,-0.00044889275099006164,0.0006646194239581777,0.00039597165983426335,-0.0007919311260462707,-0.0001449828367289792,0.0001993461216373686,-0.00039933148786991255,0.0,0.0,0.0,0.0,0.0,0.0,0.0,-7.760996131378484e-05,-0.00010507307621346329,-0.0001470431478379228,0.00023311365923195382,7.020294666290616e-05,6.485939025901999e-05,6.0595542257235735e-06,0.00044889275099006164,-0.0006646194239581777,-0.00039597165983426335,0.0007919311260462707,0.0001449828367289792,-0.0001993461216373686,0.00039933148786991255,0.4029781222343445,19.868005752563477,0.4466826617717743,-20.154146194458008,-0.5459495186805725,-2.4630770683288574,0.20083944499492645,0
36,0.175004243850708,-0.4029781222343445,-19.868005752563477,-0.4466826617717743,20.154146194458008,0.5459495186805725,2.4630770683288574,-0.20083944499492645,0.0,0.0,0.0,0.0,0.0,0.0,0.0,-0.4172969319524314,-0.1218265684427164,-0.22076754913890967,0.3669488321233956,-0.04055774123328133,0.09710577419213141,-0.20707969012193833,1.2135190037300712,-0.22013815851304502,-0.007364785446981299,-2.6040814958590195,-0.10895413003365198,2.4681172663900584,0.8264688486970133,1.2134413937687574,-0.2202432315892585,-0.0075118285948192216,-2.6038483821997875,-0.10888392708698907,2.4681821257803174,0.826474908251239,-0.00044889275099006164,0.0006646194239581777,0.00039597165983426335,-0.0007919311260462707,-0.0001449828367289792,0.0001993461216373686,-0.00039933148786991255,0.0,0.0,0.0,0.0,0.0,0.0,0.0,-7.760996131378484e-05,-0.00010507307621346329,-0.0001470431478379228,0.00023311365923195382,7.020294666290616e-05,6.485939025901999e-05,6.0595542257235735e-06,0.00044889275099006164,-0.0006646194239581777,-0.00039597165983426335,0.0007919311260462707,0.0001449828367289792,-0.0001993461216373686,0.00039933148786991255,0.4029781222343445,19.868005752563477,0.4466826617717743,-20.154146194458008,-0.5459495186805725,-2.4630770683288574,0.20083944499492645,0
37,0.17999792098999023,-0.4505855441093445,-19.868005752563477,-0.4466826617717743,20.181917190551758,0.5523582100868225,2.4630770683288574,-0.25485557317733765,0.0,0.0,0.0,0.0,0.0,0.0,0.0,-0.4253411913642408,-0.12175445914836276,-0.23086420790429663,0.36640435208185307,-0.04008961660856954,0.09744990393123111,-0.20672596594611395,1.2135244903689937,-0.22014028430403507,-0.007366915966526512,-2.6040833681688382,-0.10895448724208054,2.4681172663900584,0.8264748504890336,1.2134413937687574,-0.2202432315892585,-0.0075118285948192216,-2.6038483821997875,-0.10888392708698907,2.4681821257803174,0.826474908251239,0.000185811133100977,0.0004191696889782261,-0.000481004958258364,-0.0012744174523691572,-1.7742448383618406e-05,0.00014154894155474196,0.0021577653667675164,0.0,0.0,0.0,0.0,0.0,0.0,0.0,-8.309660023630983e-05,-0.00010294728522342034,-0.00014491262829270917,0.0002349859690506939,7.056015509146474e-05,6.485939025901999e-05,5.776220546316324e-08,-0.000185811133100977,-0.0004191696889782261,0.000481004958258364,0.0012744174523691572,1.7742448383618406e-05,-0.00014154894155474196,-0.0021577653667675164,0.4505855441093445,19.868005752563477,0.4466826617717743,-20.181917190551758,-0.5523582100868225,-2.4630770683288574,0.25485557317733765,0
38,0.1849963665008545,-0.4505855441093445,-19.868005752563477,-0.4466826617717743,20.181917190551758,0.5523582100868225,2.4630770683288574,-0.25485557317733765,0.0,0.0,0.0,0.0,0.0,0.0,0.0,-0.4253411913642408,-0.12175445914836276,-0.23086420790429663,0.36640435208185307,-0.04008961660856954,0.09744990393123111,-0.20672596594611395,1.2135244903689937,-0.22014028430403507,-0.007366915966526512,-2.6040833681688382,-0.10895448724208054,2.4681172663900584,0.8264748504890336,1.2134413937687574,-0.2202432315892585,-0.0075118285948192216,-2.6038483821997875,-0.10888392708698907,2.4681821257803174,0.826474908251239,0.000185811133100977,0.0004191696889782261,-0.000481004958258364,-0.0012744174523691572,-1.7742448383618406e-05,0.00014154894155474196,0.0021577653667675164,0.0,0.0,0.0,0.0,0.0,0.0,0.0,-8.309660023630983e-05,-0.00010294728522342034,-0.00014491262829270917,0.0002349859690506939,7.056015509146474e-05,6.485939025901999e-05,5.776220546316324e-08,-0.000185811133100977,-0.0004191696889782261,0.000481004958258364,0.0012744174523691572,1.7742448383618406e-05,-0.00014154894155474196,-0.0021577653667675164,0.4505855441093445,19.868005752563477,0.4466826617717743,-20.181917190551758,-0.5523582100868225,-2.4630770683288574,0.25485557317733765,0
39,0.19012737274169922,-0.4505855441093445,-19.868005752563477,-0.4466826617717743,20.154146194458008,0.5523582100868225,2.4694857597351074,-0.17978231608867645,0.0,0.0,0.0,0.0,0.0,0.0,0.0,-0.46201653081399785,-0.12453743085114737,-0.2734960584929647,0.36807740744368583,-0.03760748627326197,0.09735547498814198,-0.2069662025539872,1.2135223534361372,-0.2201381584090365,-0.007366915677877274,-2.604081430978339,-0.10895484210980715,2.4681165543132355,0.8264665090160237,1.2134413937687574,-0.2202432315892585,-0.0075118285948192216,-2.6038483821997875,-0.10888392708698907,2.4681821257803174,0.826474908251239,-9.183979250358431e-05,-0.00025290714936085975,3.4375956148124226e-05,-0.00040772780583813817,0.009018325176899229,6.122253030137752e-05,-0.001059946405463657,0.0,0.0,0.0,0.0,0.0,0.0,0.0,-8.095966737986515e-05,-0.0001050731802219873,-0.00014491291694194736,0.00023304877855157002,7.09150228180716e-05,6.557146708185968e-05,8.399235215339473e-06,9.183979250358431e-05,0.00025290714936085975,-3.4375956148124226e-05,0.00040772780583813817,-0.009018325176899229,-6.122253030137752e-05,0.001059946405463657,0.4505855441093445,19.868005752563477,0.4466826617717743,-20.154146194458008,-0.5523582100868225,-2.4694857597351074,0.17978231608867645,0
40,0.19499516487121582,-0.4505855441093445,-19.868005752563477,-0.4466826617717743,20.154146194458008,0.5523582100868225,2.4694857597351074,-0.17978231608867645,0.0,0.0,0.0,0.0,0.0,0.0,0.0,-0.46201653081399785,-0.12453743085114737,-0.2734960584929647,0.36807740744368583,-0.03760748627326197,0.09735547498814198,-0.2069662025539872,1.2135223534361372,-0.2201381584090365,-0.007366915677877274,-2.604081430978339,-0.10895484210980715,2.4681165543132355,0.8264665090160237,1.2134413937687574,-0.2202432315892585,-0.0075118285948192216,-2.6038483821997875,-0.10888392708698907,2.4681821257803174,0.826474908251239,-9.183979250358431e-05,-0.00025290714936085975,3.4375956148124226e-05,-0.00040772780583813817,0.009018325176899229,6.122253030137752e-05,-0.001059946405463657,0.0,0.0,0.0,0.0,0.0,0.0,0.0,-8.095966737986515e-05,-0.0001050731802219873,-0.00014491291694194736,0.00023304877855157002,7.09150228180716e-05,6.557146708185968e-05,8.399235215339473e-06,9.183979250358431e-05,0.00025290714936085975,-3.4375956148124226e-05,0.00040772780583813817,-0.009018325176899229,-6.122253030137752e-05,0.001059946405463657,0.4505855441093445,19.868005752563477,0.4466826617717743,-20.154146194458008,-0.5523582100868225,-2.4694857597351074,0.17978231608867645,0
41,0.19999194145202637,-0.4505855441093445,-19.844202041625977,-0.3990752398967743,20.154146194458008,0.5523582100868225,2.4694857597351074,-0.24112264811992645,0.0,0.0,0.0,0.0,0.0,0.0,0.0,-0.42096079747447046,-0.1208370251361977,-0.23240221447141773,0.35838839721156446,-0.03981299207590768,0.09736703924327669,-0.20750947183921775,1.2135223450378967,-0.22013982884089156,-0.007370256874316352,-2.60408149589019,-0.10895448724208054,2.4681165543132355,0.8264733246084717,1.2134413937687574,-0.2202432315892585,-0.0075118285948192216,-2.6038483821997875,-0.10888392708698907,2.4681821257803174,0.826474908251239,0.0003041197317746815,-0.0008455299302875072,-0.0011527771241064014,-0.0010245031131517963,0.00020843033261145735,-6.767922911320413e-05,0.001631094911587543,0.0,0.0,0.0,0.0,0.0,0.0,0.0,-8.095126913931772e-05,-0.00010340274836692642,-0.00014157172050286923,0.00023311369040257546,7.056015509146474e-05,6.557146708185968e-05,1.5836427673665554e-06,-0.0003041197317746815,0.0008455299302875072,0.0011527771241064014,0.0010245031131517963,-0.00020843033261145735,6.767922911320413e-05,-0.001631094911587543,0.4505855441093445,19.844202041625977,0.3990752398967743,-20.154146194458008,-0.5523582100868225,-2.4694857597351074,0.24112264811992645,0
42,0.20503592491149902,-0.4505855441093445,-19.844202041625977,-0.3990752398967743,20.154146194458008,0.5523582100868225,2.4694857597351074,-0.24112264811992645,0.0,0.0,0.0,0.0,0.0,0.0,0.0,-0.42096079747447046,-0.1208370251361977,-0.23240221447141773,0.35838839721156446,-0.03981299207590768,0.09736703924327669,-0.20750947183921775,1.2135223450378967,-0.22013982884089156,-0.007370256874316352,-2.60408149589019,-0.10895448724208054,2.4681165543132355,0.8264733246084717,1.2134413937687574,-0.2202432315892585,-0.0075118285948192216,-2.6038483821997875,-0.10888392708698907,2.4681821257803174,0.826474908251239,0.0003041197317746815,-0.0008455299302875072,-0.0011527771241064014,-0.0010245031131517963,0.00020843033261145735,-6.767922911320413e-05,0.001631094911587543,0.0,0.0,0.0,0.0,0.0,0.0,0.0,-8.095126913931772e-05,-0.00010340274836692642,-0.00014157172050286923,0.00023311369040257546,7.056015509146474e-05,6.557146708185968e-05,1.5836427673665554e-06,-0.0003041197317746815,0.0008455299302875072,0.0011527771241064014,0.0010245031131517963,-0.00020843033261145735,6.767922911320413e-05,-0.001631094911587543,0.4505855441093445,19.844202041625977,0.3990752398967743,-20.154146194458008,-0.5523582100868225,-2.4694857597351074,0.24112264811992645,0
43,0.21006059646606445,-0.3514034152030945,-19.915613174438477,-0.3990752398967743,20.130342483520508,0.5523582100868225,2.4566683769226074,-0.22098104655742645,0.0,0.0,0.0,0.0,0.0,0.0,0.0,-0.41482281206399635,-0.1293179159459059,-0.22594553419392524,0.36053180658856465,-0.038786796178654125,0.09793433255632415,-0.2068896450825764,1.2135153845614035,-0.22013481753332573,-0.007370256874318185,-2.6040804376550724,-0.10895484210847166,2.468117978466881,0.8264710866527425,1.2134413937687574,-0.2202432315892585,-0.0075118285948192216,-2.6038483821997875,-0.10888392708698907,2.4681821257803174,0.826474908251239,-0.0014890624021721057,0.0007596284321897253,-0.0004027498475062322,-0.00026823673717500234,-0.00021513230678344604,0.0004912321881249032,0.00018529712802061693,0.0,0.0,0.0,0.0,0.0,0.0,0.0,-7.399079264613917e-05,-0.00010841405593275955,-0.0001415717205010365,0.00023205545528481863,7.091502148258433e-05,6.41473134361803e-05,3.8215984965450644e-06,0.0014890624021721057,-0.0007596284321897253,0.0004027498475062322,0.00026823673717500234,0.00021513230678344604,-0.0004912321881249032,-0.00018529712802061693,0.3514034152030945,19.915613174438477,0.3990752398967743,-20.130342483520508,-0.5523582100868225,-2.4566683769226074,0.22098104655742645,0
44,0.21500134468078613,-0.3514034152030945,-19.915613174438477,-0.3990752398967743,20.130342483520508,0.5523582100868225,2.4566683769226074,-0.22098104655742645,0.0,0.0,0.0,0.0,0.0,0.0,0.0,-0.41482281206399635,-0.1293179159459059,-0.22594553419392524,0.36053180658856465,-0.038786796178654125,0.09793433255632415,-0.2068896450825764,1.2135153845614035,-0.22013481753332573,-0.007370256874318185,-2.6040804376550724,-0.10895484210847166,2.468117978466881,0.8264710866527425,1.2134413937687574,-0.2202432315892585,-0.0075118285948192216,-2.6038483821997875,-0.10888392708698907,2.4681821257803174,0.826474908251239,-0.0014890624021721057,0.0007596284321897253,-0.0004027498475062322,-0.00026823673717500234,-0.00021513230678344604,0.0004912321881249032,0.00018529712802061693,0.0,0.0,0.0,0.0,0.0,0.0,0.0,-7.399079264613917e-05,-0.00010841405593275955,-0.0001415717205010365,0.00023205545528481863,7.091502148258433e-05,6.41473134361803e-05,3.8215984965450644e-06,0.0014890624021721057,-0.0007596284321897253,0.0004027498475062322,0.00026823673717500234,0.00021513230678344604,-0.0004912321881249032,-0.00018529712802061693,0.3514034152030945,19.915613174438477,0.3990752398967743,-20.130342483520508,-0.5523582100868225,-2.4566683769226074,0.22098104655742645,0
45,0.21999526023864746,-0.3752071261405945,-19.868005752563477,-0.3713042438030243,20.130342483520508,0.5459495186805725,2.4694857597351074,-0.20724813640117645,0.0,0.0,0.0,0.0,0.0,0.0,0.0,-0.40967760021539973,-0.1281135984159665,-0.21966099547134157,0.361254048110998,-0.038593489579952844,0.09761521090214266,-0.20723787140628144,1.213517054888242,-0.22013815840503625,-0.007372205716149325,-2.6040797492164565,-0.10895413003365195,2.4681165543132355,0.8264695607738363,1.2134413937687574,-0.2202432315892585,-0.0075118285948192216,-2.6038483821997875,-0.10888392708698907,2.4681821257803174,0.826474908251239,0.00011350059590080822,3.7501640164754606e-05,-5.6387704004418734e-05,0.0005053137689708842,2.6726493330013082e-05,-0.00020837595846105874,0.00025409739816619457,0.0,0.0,0.0,0.0,0.0,0.0,0.0,-7.566111948453802e-05,-0.00010507318422223189,-0.00013962287866989623,0.00023136701666892634,7.020294666287841e-05,6.557146708185968e-05,5.34747740277286e-06,-0.00011350059590080822,-3.7501640164754606e-05,5.6387704004418734e-05,-0.0005053137689708842,-2.6726493330013082e-05,0.00020837595846105874,-0.00025409739816619457,0.3752071261405945,19.868005752563477,0.3713042438030243,-20.130342483520508,-0.5459495186805725,-2.4694857597351074,0.20724813640117645,0
46,0.22499871253967285,-0.3752071261405945,-19.868005752563477,-0.3713042438030243,20.130342483520508,0.5459495186805725,2.4694857597351074,-0.20724813640117645,0.0,0.0,0.0,0.0,0.0,0.0,0.0,-0.40967760021539973,-0.1281135984159665,-0.21966099547134157,0.361254048110998,-0.038593489579952844,0.09761521090214266,-0.20723787140628144,1.213517054888242,-0.22013815840503625,-0.007372205716149325,-2.6040797492164565,-0.10895413003365195,2.4681165543132355,0.8264695607738363,1.2134413937687574,-0.2202432315892585,-0.0075118285948192216,-2.6038483821997875,-0.10888392708698907,2.4681821257803174,0.826474908251239,0.00011350059590080822,3.7501640164754606e-05,-5.6387704004418734e-05,0.0005053137689708842,2.6726493330013082e-05,-0.00020837595846105874,0.00025409739816619457,0.0,0.0,0.0,0.0,0.0,0.0,0.0,-7.566111948453802e-05,-0.00010507318422223189,-0.00013962287866989623,0.00023136701666892634,7.020294666287841e-05,6.557146708185968e-05,5.34747740277286e-06,-0.00011350059590080822,-3.7501640164754606e-05,5.6387704004418734e-05,-0.0005053137689708842,-2.6726493330013082e-05,0.00020837595846105874,-0.00025409739816619457,0.3752071261405945,19.868005752563477,0.3713042438030243,-20.130342483520508,-0.5459495186805725,-2.4694857597351074,0.20724813640117645,0
47,0.22999358177185059,-0.4029781222343445,-19.816431045532227,-0.3990752398967743,20.130342483520508,0.5459495186805725,2.4823031425476074,-0.15964071452617645,0.0,0.0,0.0,0.0,0.0,0.0,0.0,-0.4121146117643114,-0.1277633676615667,-0.22357832883636675,0.3591298369046935,-0.03824954787761459,0.0956528704287486,-0.20614904667327033,1.2135190037300712,-0.22014177768272267,-0.007370256874318185,-2.604079774411328,-0.10895413003365198,2.4681151301595894,0.8264642710602945,1.2134413937687574,-0.2202432315892585,-0.0075118285948192216,-2.6038483821997875,-0.10888392708698907,2.4681821257803174,0.826474908251239,0.0008323397116671076,-0.0011279241199092548,-4.418663494629639e-05,0.00015184912594398402,-3.092111800958606e-05,-0.0005836792287919279,-0.0019359529584214964,0.0,0.0,0.0,0.0,0.0,0.0,0.0,-7.760996131378484e-05,-0.00010145390653581998,-0.0001415717205010365,0.00023139221154044876,7.020294666290616e-05,6.699562072798315e-05,1.0637190944517982e-05,-0.0008323397116671076,0.0011279241199092548,4.418663494629639e-05,-0.00015184912594398402,3.092111800958606e-05,0.0005836792287919279,0.0019359529584214964,0.4029781222343445,19.816431045532227,0.3990752398967743,-20.130342483520508,-0.5459495186805725,-2.4823031425476074,0.15964071452617645,0
48,0.23577117919921875,-0.4029781222343445,-19.816431045532227,-0.3990752398967743,20.130342483520508,0.5459495186805725,2.4823031425476074,-0.15964071452617645,0.0,0.0,0.0,0.0,0.0,0.0,0.0,-0.4121146117643114,-0.1277633676615667,-0.22357832883636675,0.3591298369046935,-0.03824954787761459,0.0956528704287486,-0.20614904667327033,1.2135190037300712,-0.22014177768272267,-0.007370256874318185,-2.604079774411328,-0.10895413003365198,2.4681151301595894,0.8264642710602945,1.2134413937687574,-0.2202432315892585,-0.0075118285948192216,-2.6038483821997875,-0.10888392708698907,2.4681821257803174,0.826474908251239,0.0008323397116671076,-0.0011279241199092548,-4.418663494629639e-05,0.00015184912594398402,-3.092111800958606e-05,-0.0005836792287919279,-0.0019359529584214964,0.0,0.0,0.0,0.0,0.0,0.0,0.0,-7.760996131378484e-05,-0.00010145390653581998,-0.0001415717205010365,0.00023139221154044876,7.020294666290616e-05,6.699562072798315e-05,1.0637190944517982e-05,-0.0008323397116671076,0.0011279241199092548,4.418663494629639e-05,-0.00015184912594398402,3.092111800958606e-05,0.0005836792287919279,0.0019359529584214964,0.4029781222343445,19.816431045532227,0.3990752398967743,-20.130342483520508,-0.5459495186805725,-2.4823031425476074,0.15964071452617645,0
49,0.23999524116516113,-0.4505855441093445,-19.891809463500977,-0.4228789508342743,20.154146194458008,0.5459495186805725,2.4566683769226074,-0.20083944499492645,0.0,0.0,0.0,0.0,0.0,0.0,0.0,-0.4094046949790439,-0.12963393518446478,-0.2227844564801204,0.3633479905384233,-0.03840301951204936,0.09625830137533084,-0.2053130867627689,1.2135223446017818,-0.22013672421618297,-0.007369296623666209,-2.604081725443537,-0.10895413003365198,2.468117978466881,0.8264688486970133,1.2134413937687574,-0.2202432315892585,-0.0075118285948192216,-2.6038483821997875,-0.10888392708698907,2.4681821257803174,0.826474908251239,0.0009326637554891641,0.0005477104528747779,-0.0001437473030682543,-0.00037519509957386493,8.021017564245554e-05,0.0002623344428204853,-0.00018660563562663635,0.0,0.0,0.0,0.0,0.0,0.0,0.0,-8.095083302439576e-05,-0.0001065073730755206,-0.0001425319711530126,0.00023334324374957305,7.020294666290616e-05,6.41473134361803e-05,6.0595542257235735e-06,-0.0009326637554891641,-0.0005477104528747779,0.0001437473030682543,0.00037519509957386493,-8.021017564245554e-05,-0.0002623344428204853,0.00018660563562663635,0.4505855441093445,19.891809463500977,0.4228789508342743,-20.154146194458008,-0.5459495186805725,-2.4566683769226074,0.20083944499492645,0
50,0.2449963092803955,-0.4505855441093445,-19.891809463500977,-0.4228789508342743,20.154146194458008,0.5459495186805725,2.4566683769226074,-0.20083944499492645,0.0,0.0,0.0,0.0,0.0,0.0,0.0,-0.4094046949790439,-0.12963393518446478,-0.2227844564801204,0.3633479905384233,-0.03840301951204936,0.09625830137533084,-0.2053130867627689,1.2135223446017818,-0.22013672421618297,-0.007369296623666209,-2.604081725443537,-0.10895413003365198,2.468117978466881,0.8264688486970133,1.2134413937687574,-0.2202432315892585,-0.0075118285948192216,-2.6038483821997875,-0.10888392708698907,2.4681821257803174,0.826474908251239,0.0009326637554891641,0.0005477104528747779,-0.0001437473030682543,-0.00037519509957386493,8.021017564245554e-05,0.0002623344428204853,-0.00018660563562663635,0.0,0.0,0.0,0.0,0.0,0.0,0.0,-8.095083302439576e-05,-0.0001065073730755206,-0.0001425319711530126,0.00023334324374957305,7.020294666290616e-05,6.41473134361803e-05,6.0595542257235735e-06,-0.0009326637554891641,-0.0005477104528747779,0.0001437473030682543,0.00037519509957386493,-8.021017564245554e-05,-0.0002623344428204853,0.00018660563562663635,0.4505855441093445,19.891809463500977,0.4228789508342743,-20.154146194458008,-0.5459495186805725,-2.4566683769226074,0.20083944499492645,0
51,0.24999427795410156,-0.4505855441093445,-19.868005752563477,-0.4466826617717743,20.106538772583008,0.5578513741493225,2.4630770683288574,-0.23471395671367645,0.0,0.0,0.0,0.0,0.0,0.0,0.0,-0.41179672643549114,-0.11901521832468163,-0.22446452453807453,0.36135246186819564,-0.03854515524965165,0.0952380646480118,-0.2046468455789874,1.2135223446017818,-0.22014028430536686,-0.007366916006616675,-2.6040787930452556,-0.10895545246203739,2.4681172663900584,0.8264726125316487,1.2134413937687574,-0.2202432315892585,-0.0075118285948192216,-2.6038483821997875,-0.10888392708698907,2.4681821257803174,0.826474908251239,3.2532053443785435e-05,0.000591011829662236,-0.00022357003493281657,0.0007635478074012964,-0.0005533443057175419,5.7511773385306275e-05,0.001011457429162155,0.0,0.0,0.0,0.0,0.0,0.0,0.0,-8.095083302439576e-05,-0.00010294728389162455,-0.0001449125882025462,0.00023041084546804314,7.152537504831469e-05,6.485939025901999e-05,2.295719590317269e-06,-3.2532053443785435e-05,-0.000591011829662236,0.00022357003493281657,-0.0007635478074012964,0.0005533443057175419,-5.7511773385306275e-05,-0.001011457429162155,0.4505855441093445,19.868005752563477,0.4466826617717743,-20.106538772583008,-0.5578513741493225,-2.4630770683288574,0.23471395671367645,0
52,0.2549905776977539,-0.4505855441093445,-19.868005752563477,-0.4466826617717743,20.106538772583008,0.5578513741493225,2.4630770683288574,-0.23471395671367645,0.0,0.0,0.0,0.0,0.0,0.0,0.0,-0.41179672643549114,-0.11901521832468163,-0.22446452453807453,0.36135246186819564,-0.03854515524965165,0.0952380646480118,-0.2046468455789874,1.2135223446017818,-0.22014028430536686,-0.007366916006616675,-2.6040787930452556,-0.10895545246203739,2.4681172663900584,0.8264726125316487,1.2134413937687574,-0.2202432315892585,-0.0075118285948192216,-2.6038483821997875,-0.10888392708698907,2.4681821257803174,0.826474908251239,3.2532053443785435e-05,0.000591011829662236,-0.00022357003493281657,0.0007635478074012964,-0.0005533443057175419,5.7511773385306275e-05,0.001011457429162155,0.0,0.0,0.0,0.0,0.0,0.0,0.0,-8.095083302439576e-05,-0.00010294728389162455,-0.0001449125882025462,0.00023041084546804314,7.152537504831469e-05,6.485939025901999e-05,2.295719590317269e-06,-3.2532053443785435e-05,-0.000591011829662236,0.00022357003493281657,-0.0007635478074012964,0.0005533443057175419,-5.7511773385306275e-05,-0.001011457429162155,0.4505855441093445,19.868005752563477,0.4466826617717743,-20.106538772583008,-0.5578513741493225,-2.4630770683288574,0.23471395671367645,0
53,0.2599966526031494,-0.4505855441093445,-19.868005752563477,-0.4466826617717743,20.106538772583008,0.5578513741493225,2.4630770683288574,-0.23471395671367645,0.0,0.0,0.0,0.0,0.0,0.0,0.0,-0.41179672643549114,-0.11901521832468163,-0.22446452453807453,0.36135246186819564,-0.03854515524965165,0.0952380646480118,-0.2046468455789874,1.2135223446017818,-0.22014028430536686,-0.007366916006616675,-2.6040787930452556,-0.10895545246203739,2.4681172663900584,0.8264726125316487,1.2134413937687574,-0.2202432315892585,-0.0075118285948192216,-2.6038483821997875,-0.10888392708698907,2.4681821257803174,0.826474908251239,3.2532053443785435e-05,0.000591011829662236,-0.00022357003493281657,0.0007635478074012964,-0.0005533443057175419,5.7511773385306275e-05,0.001011457429162155,0.0,0.0,0.0,0.0,0.0,0.0,0.0,-8.095083302439576e-05,-0.00010294728389162455,-0.0001449125882025462,0.00023041084546804314,7.152537504831469e-05,6.485939025901999e-05,2.295719590317269e-06,-3.2532053443785435e-05,-0.000591011829662236,0.00022357003493281657,-0.0007635478074012964,0.0005533443057175419,-5.7511773385306275e-05,-0.001011457429162155,0.4505855441093445,19.868005752563477,0.4466826617717743,-20.106538772583008,-0.5578513741493225,-2.4630770683288574,0.23471395671367645,0
54,0.2649984359741211,-0.4505855441093445,-19.868005752563477,-0.4466826617717743,20.106538772583008,0.5578513741493225,2.4630770683288574,-0.23471395671367645,0.0,0.0,0.0,0.0,0.0,0.0,0.0,-0.41179672643549114,-0.11901521832468163,-0.22446452453807453,0.36135246186819564,-0.03854515524965165,0.0952380646480118,-0.2046468455789874,1.2135223446017818,-0.22014028430536686,-0.007366916006616675,-2.6040787930452556,-0.10895545246203739,2.4681172663900584,0.8264726125316487,1.2134413937687574,-0.2202432315892585,-0.0075118285948192216,-2.6038483821997875,-0.10888392708698907,2.4681821257803174,0.826474908251239,3.2532053443785435e-05,0.000591011829662236,-0.00022357003493281657,0.0007635478074012964,-0.0005533443057175419,5.7511773385306275e-05,0.001011457429162155,0.0,0.0,0.0,0.0,0.0,0.0,0.0,-8.095083302439576e-05,-0.00010294728389162455,-0.0001449125882025462,0.00023041084546804314,7.152537504831469e-05,6.485939025901999e-05,2.295719590317269e-06,-3.2532053443785435e-05,-0.000591011829662236,0.00022357003493281657,-0.0007635478074012964,0.0005533443057175419,-5.7511773385306275e-05,-0.001011457429162155,0.4505855441093445,19.868005752563477,0.4466826617717743,-20.106538772583008,-0.5578513741493225,-2.4630770683288574,0.23471395671367645,0
55,0.2700316905975342,-0.4505855441093445,-19.844202041625977,-0.4466826617717743,20.106538772583008,0.5340476632118225,2.4566683769226074,-0.20083944499492645,0.0,0.0,0.0,0.0,0.0,0.0,0.0,-0.4106770448390848,-0.12006909194417006,-0.22316411043734846,0.36307708449776216,-0.03914991339501746,0.09583691853125034,-0.20514009676158168,1.2135223446017818,-0.2201398288528923,-0.007366916002607682,-2.604078154987455,-0.10895280760526656,2.468117978466881,0.8264688486970133,1.2134413937687574,-0.2202432315892585,-0.0075118285948192216,-2.6038483821997875,-0.10888392708698907,2.4681821257803174,0.826474908251239,0.0005835250938860782,-7.60980107365039e-05,-0.0004889382350147771,0.0005467423059551936,0.0004279623519310828,0.0003122595538954902,-0.0004441042746288731,0.0,0.0,0.0,0.0,0.0,0.0,0.0,-8.095083302439576e-05,-0.00010340273636619268,-0.00014491259221153987,0.00022977278766767029,6.888051827748376e-05,6.41473134361803e-05,6.0595542257235735e-06,-0.0005835250938860782,7.60980107365039e-05,0.0004889382350147771,-0.0005467423059551936,-0.0004279623519310828,-0.0003122595538954902,0.0004441042746288731,0.4505855441093445,19.844202041625977,0.4466826617717743,-20.106538772583008,-0.5340476632118225,-2.4566683769226074,0.20083944499492645,0
56,0.27501964569091797,-0.4505855441093445,-19.844202041625977,-0.4466826617717743,20.106538772583008,0.5340476632118225,2.4566683769226074,-0.20083944499492645,0.0,0.0,0.0,0.0,0.0,0.0,0.0,-0.4106770448390848,-0.12006909194417006,-0.22316411043734846,0.36307708449776216,-0.03914991339501746,0.09583691853125034,-0.20514009676158168,1.2135223446017818,-0.2201398288528923,-0.007366916002607682,-2.604078154987455,-0.10895280760526656,2.468117978466881,0.8264688486970133,1.2134413937687574,-0.2202432315892585,-0.0075118285948192216,-2.6038483821997875,-0.10888392708698907,2.4681821257803174,0.826474908251239,0.0005835250938860782,-7.60980107365039e-05,-0.0004889382350147771,0.0005467423059551936,0.0004279623519310828,0.0003122595538954902,-0.0004441042746288731,0.0,0.0,0.0,0.0,0.0,0.0,0.0,-8.095083302439576e-05,-0.00010340273636619268,-0.00014491259221153987,0.00022977278766767029,6.888051827748376e-05,6.41473134361803e-05,6.0595542257235735e-06,-0.0005835250938860782,7.60980107365039e-05,0.0004889382350147771,-0.0005467423059551936,-0.0004279623519310828,-0.0003122595538954902,0.0004441042746288731,0.4505855441093445,19.844202041625977,0.4466826617717743,-20.106538772583008,-0.5340476632118225,-2.4566683769226074,0.20083944499492645,0
57,0.27999210357666016,-0.4029781222343445,-19.868005752563477,-0.4228789508342743,20.130342483520508,0.5459495186805725,2.4823031425476074,-0.17978231608867645,0.0,0.0,0.0,0.0,0.0,0.0,0.0,-0.4196548325464306,-0.12338330457885546,-0.23301309263390438,0.3698405206675966,-0.039130780780353806,0.0966388075562106,-0.20514113999073882,1.2135197189858085,-0.2201402843040333,-0.007368586438462922,-2.604079748890288,-0.10895412997956444,2.4681151301595894,0.8264665090160237,1.2134413937687574,-0.2202432315892585,-0.0075118285948192216,-2.6038483821997875,-0.10888392708698907,2.4681821257803174,0.826474908251239,-0.0009487172261128472,2.7013161576995738e-05,-0.0011499985130936595,0.0005995690539764561,0.00016147056578187934,-0.0005594607282886127,-0.0005010038128189582,0.0,0.0,0.0,0.0,0.0,0.0,0.0,-7.832521705108952e-05,-0.0001029472852251967,-0.00014324215635629946,0.00023136669050050074,7.020289257536616e-05,6.699562072798315e-05,8.399235215339473e-06,0.0009487172261128472,-2.7013161576995738e-05,0.0011499985130936595,-0.0005995690539764561,-0.00016147056578187934,0.0005594607282886127,0.0005010038128189582,0.4029781222343445,19.868005752563477,0.4228789508342743,-20.130342483520508,-0.5459495186805725,-2.4823031425476074,0.17978231608867645,0
58,0.28499913215637207,-0.4029781222343445,-19.868005752563477,-0.4228789508342743,20.130342483520508,0.5459495186805725,2.4823031425476074,-0.17978231608867645,0.0,0.0,0.0,0.0,0.0,0.0,0.0,-0.4196548325464306,-0.12338330457885546,-0.23301309263390438,0.3698405206675966,-0.039130780780353806,0.0966388075562106,-0.20514113999073882,1.2135197189858085,-0.2201402843040333,-0.007368586438462922,-2.604079748890288,-0.10895412997956444,2.4681151301595894,0.8264665090160237,1.2134413937687574,-0.2202432315892585,-0.0075118285948192216,-2.6038483821997875,-0.10888392708698907,2.4681821257803174,0.826474908251239,-0.0009487172261128472,2.7013161576995738e-05,-0.0011499985130936595,0.0005995690539764561,0.00016147056578187934,-0.0005594607282886127,-0.0005010038128189582,0.0,0.0,0.0,0.0,0.0,0.0,0.0,-7.832521705108952e-05,-0.0001029472852251967,-0.00014324215635629946,0.00023136669050050074,7.020289257536616e-05,6.699562072798315e-05,8.399235215339473e-06,0.0009487172261128472,-2.7013161576995738e-05,0.0011499985130936595,-0.0005995690539764561,-0.00016147056578187934,0.0005594607282886127,0.0005010038128189582,0.4029781222343445,19.868005752563477,0.4228789508342743,-20.130342483520508,-0.5459495186805725,-2.4823031425476074,0.17978231608867645,0
59,0.29000234603881836,-0.4267818331718445,-19.891809463500977,-0.3990752398967743,20.154146194458008,0.5459495186805725,2.4694857597351074,-0.26217979192733765,0.0,0.0,0.0,0.0,0.0,0.0,0.0,-0.4161278227559863,-0.11803307463404376,-0.2312186945140624,0.366585395722226,-0.03943191737131628,0.0962864610556679,-0.20418480754887375,1.2135209129236675,-0.2201364880051833,-0.007370256874318186,-2.6040814221601343,-0.10895413003365106,2.4681165543132355,0.826475664291117,1.2134413937687574,-0.2202432315892585,-0.0075118285948192216,-2.6038483821997875,-0.10888392708698907,2.4681821257803174,0.826474908251239,0.00038443089748166196,0.0009731755245427825,-0.0007353992733636998,-7.622340560456395e-05,-7.3616542904751e-05,-9.832410976277538e-05,0.002223750216378954,0.0,0.0,0.0,0.0,0.0,0.0,0.0,-7.951915491011263e-05,-0.00010674358407519735,-0.00014157172050103563,0.00023303996034673702,7.020294666199023e-05,6.557146708185968e-05,-7.560398779249411e-07,-0.00038443089748166196,-0.0009731755245427825,0.0007353992733636998,7.622340560456395e-05,7.3616542904751e-05,9.832410976277538e-05,-0.002223750216378954,0.4267818331718445,19.891809463500977,0.3990752398967743,-20.154146194458008,-0.5459495186805725,-2.4694857597351074,0.26217979192733765,0
60,0.2949948310852051,-0.4267818331718445,-19.891809463500977,-0.3990752398967743,20.154146194458008,0.5459495186805725,2.4694857597351074,-0.26217979192733765,0.0,0.0,0.0,0.0,0.0,0.0,0.0,-0.4161278227559863,-0.11803307463404376,-0.2312186945140624,0.366585395722226,-0.03943191737131628,0.0962864610556679,-0.20418480754887375,1.2135209129236675,-0.2201364880051833,-0.007370256874318186,-2.6040814221601343,-0.10895413003365106,2.4681165543132355,0.826475664291117,1.2134413937687574,-0.2202432315892585,-0.0075118285948192216,-2.6038483821997875,-0.10888392708698907,2.4681821257803174,0.826474908251239,0.00038443089748166196,0.0009731755245427825,-0.0007353992733636998,-7.622340560456395e-05,-7.3616542904751e-05,-9.832410976277538e-05,0.002223750216378954,0.0,0.0,0.0,0.0,0.0,0.0,0.0,-7.951915491011263e-05,-0.00010674358407519735,-0.00014157172050103563,0.00023303996034673702,7.020294666199023e-05,6.557146708185968e-05,-7.560398779249411e-07,-0.00038443089748166196,-0.0009731755245427825,0.0007353992733636998,7.622340560456395e-05,7.3616542904751e-05,9.832410976277538e-05,-0.002223750216378954,0.4267818331718445,19.891809463500977,0.3990752398967743,-20.154146194458008,-0.5459495186805725,-2.4694857597351074,0.26217979192733765,0
61,0.29994750022888184,-0.4267818331718445,-19.891809463500977,-0.3990752398967743,20.154146194458008,0.5459495186805725,2.4694857597351074,-0.26217979192733765,0.0,0.0,0.0,0.0,0.0,0.0,0.0,-0.4161278227559863,-0.11803307463404376,-0.2312186945140624,0.366585395722226,-0.03943191737131628,0.0962864610556679,-0.20418480754887375,1.2135209129236675,-0.2201364880051833,-0.007370256874318186,-2.6040814221601343,-0.10895413003365106,2.4681165543132355,0.826475664291117,1.2134413937687574,-0.2202432315892585,-0.0075118285948192216,-2.6038483821997875,-0.10888392708698907,2.4681821257803174,0.826474908251239,0.00038443089748166196,0.0009731755245427825,-0.0007353992733636998,-7.622340560456395e-05,-7.3616542904751e-05,-9.832410976277538e-05,0.002223750216378954,0.0,0.0,0.0,0.0,0.0,0.0,0.0,-7.951915491011263e-05,-0.00010674358407519735,-0.00014157172050103563,0.00023303996034673702,7.020294666199023e-05,6.557146708185968e-05,-7.560398779249411e-07,-0.00038443089748166196,-0.0009731755245427825,0.0007353992733636998,7.622340560456395e-05,7.3616542904751e-05,9.832410976277538e-05,-0.002223750216378954,0.4267818331718445,19.891809463500977,0.3990752398967743,-20.154146194458008,-0.5459495186805725,-2.4694857597351074,0.26217979192733765,0
62,0.3049924373626709,-0.3752071261405945,-19.891809463500977,-0.4228789508342743,20.130342483520508,0.5523582100868225,2.4694857597351074,-0.20083944499492645,0.0,0.0,0.0,0.0,0.0,0.0,0.0,-0.42127691408981854,-0.12485342598157138,-0.23818593749466987,0.3697614178090799,-0.039051932297953534,0.09661848364236622,-0.20554979559796768,1.2135170548886893,-0.22013648807718794,-0.0073685075289958895,-2.6040800040229226,-0.10895480262656576,2.4681165543132355,0.8264688486970133,1.2134413937687574,-0.2202432315892585,-0.0075118285948192216,-2.6038483821997875,-0.10888392708698907,2.4681821257803174,0.826474908251239,-0.0006137524918585939,-0.0001425912859115948,-4.9581900450989866e-05,0.00014200154122245292,-0.0003920104075307998,-0.00018890229921492304,-0.0010529448271763822,0.0,0.0,0.0,0.0,0.0,0.0,0.0,-7.56611199319579e-05,-0.00010674351207054511,-0.0001433210658233321,0.0002316218231350753,7.087553957668691e-05,6.557146708185968e-05,6.0595542257235735e-06,0.0006137524918585939,0.0001425912859115948,4.9581900450989866e-05,-0.00014200154122245292,0.0003920104075307998,0.00018890229921492304,0.0010529448271763822,0.3752071261405945,19.891809463500977,0.4228789508342743,-20.130342483520508,-0.5523582100868225,-2.4694857597351074,0.20083944499492645,0
63,0.31000232696533203,-0.3752071261405945,-19.891809463500977,-0.4228789508342743,20.130342483520508,0.5523582100868225,2.4694857597351074,-0.20083944499492645,0.0,0.0,0.0,0.0,0.0,0.0,0.0,-0.42127691408981854,-0.12485342598157138,-0.23818593749466987,0.3697614178090799,-0.039051932297953534,0.09661848364236622,-0.20554979559796768,1.2135170548886893,-0.22013648807718794,-0.0073685075289958895,-2.6040800040229226,-0.10895480262656576,2.4681165543132355,0.8264688486970133,1.2134413937687574,-0.2202432315892585,-0.0075118285948192216,-2.6038483821997875,-0.10888392708698907,2.4681821257803174,0.826474908251239,-0.0006137524918585939,-0.0001425912859115948,-4.9581900450989866e-05,0.00014200154122245292,-0.0003920104075307998,-0.00018890229921492304,-0.0010529448271763822,0.0,0.0,0.0,0.0,0.0,0.0,0.0,-7.56611199319579e-05,-0.00010674351207054511,-0.0001433210658233321,0.0002316218231350753,7.087553957668691e-05,6.557146708185968e-05,6.0595542257235735e-06,0.0006137524918585939,0.0001425912859115948,4.9581900450989866e-05,-0.00014200154122245292,0.0003920104075307998,0.00018890229921492304,0.0010529448271763822,0.3752071261405945,19.891809463500977,0.4228789508342743,-20.130342483520508,-0.5523582100868225,-2.4694857597351074,0.20083944499492645,0
64,0.31577014923095703,-0.4029781222343445,-19.816431045532227,-0.4228789508342743,20.181917190551758,0.5459495186805725,2.4694857597351074,-0.24112264811992645,0.0,0.0,0.0,0.0,0.0,0.0,0.0,-0.42284546873032103,-0.12358910112246743,-0.24109683774983873,0.3677341220333317,-0.039116532744184224,0.09584075478275704,-0.20637303917699076,1.2135190037300712,-0.2201418564197244,-0.007368586437126583,-2.604085434466215,-0.10895412565189204,2.4681165543132355,0.8264733246084717,1.2134413937687574,-0.2202432315892585,-0.0075118285948192216,-2.6038483821997875,-0.10888392708698907,2.4681821257803174,0.826474908251239,-0.00044871708910086043,-0.001867692363556066,-0.0002456726406460593,-0.0008639015683102177,-1.6886344939137797e-05,-0.00014668247612188321,0.001543212107777157,0.0,0.0,0.0,0.0,0.0,0.0,0.0,-7.760996131378484e-05,-0.00010137516953409587,-0.00014324215769263848,0.00023705226642745103,7.019856490296517e-05,6.557146708185968e-05,1.5836427673665554e-06,0.00044871708910086043,0.001867692363556066,0.0002456726406460593,0.0008639015683102177,1.6886344939137797e-05,0.00014668247612188321,-0.001543212107777157,0.4029781222343445,19.816431045532227,0.4228789508342743,-20.181917190551758,-0.5459495186805725,-2.4694857597351074,0.24112264811992645,0
65,0.32003188133239746,-0.4029781222343445,-19.816431045532227,-0.4228789508342743,20.181917190551758,0.5459495186805725,2.4694857597351074,-0.24112264811992645,0.0,0.0,0.0,0.0,0.0,0.0,0.0,-0.42284546873032103,-0.12358910112246743,-0.24109683774983873,0.3677341220333317,-0.039116532744184224,0.09584075478275704,-0.20637303917699076,1.2135190037300712,-0.2201418564197244,-0.007368586437126583,-2.604085434466215,-0.10895412565189204,2.4681165543132355,0.8264733246084717,1.2134413937687574,-0.2202432315892585,-0.0075118285948192216,-2.6038483821997875,-0.10888392708698907,2.4681821257803174,0.826474908251239,-0.00044871708910086043,-0.001867692363556066,-0.0002456726406460593,-0.0008639015683102177,-1.6886344939137797e-05,-0.00014668247612188321,0.001543212107777157,0.0,0.0,0.0,0.0,0.0,0.0,0.0,-7.760996131378484e-05,-0.00010137516953409587,-0.00014324215769263848,0.00023705226642745103,7.019856490296517e-05,6.557146708185968e-05,1.5836427673665554e-06,0.00044871708910086043,0.001867692363556066,0.0002456726406460593,0.0008639015683102177,1.6886344939137797e-05,0.00014668247612188321,-0.001543212107777157,0.4029781222343445,19.816431045532227,0.4228789508342743,-20.181917190551758,-0.5459495186805725,-2.4694857597351074,0.24112264811992645,0
66,0.3250293731689453,-0.4029781222343445,-19.816431045532227,-0.4228789508342743,20.106538772583008,0.5404563546180725,2.4630770683288574,-0.17978231608867645,0.0,0.0,0.0,0.0,0.0,0.0,0.0,-0.41521737033201744,-0.11796092956031495,-0.23476479456255822,0.36384952250530583,-0.03954295885975838,0.09485425149452041,-0.20657286092951924,1.2135190037300712,-0.22014248631577105,-0.007368586438462921,-2.6040780784902897,-0.10895351968208672,2.468117227162147,0.8264668622466785,1.2134413937687574,-0.2202432315892585,-0.0075118285948192216,-2.6038483821997875,-0.10888392708698907,2.4681821257803174,0.826474908251239,-0.00022836458062618813,-0.0006022641676950021,8.750639433110058e-05,0.0009510838173962376,8.45909700679435e-05,0.0002462971826038748,-0.0009006259216834464,0.0,0.0,0.0,0.0,0.0,0.0,0.0,-7.760996131378484e-05,-0.00010074527348744033,-0.00014324215635630033,0.00022969629050217932,6.959259509764504e-05,6.489861817016163e-05,8.046004560502418e-06,0.00022836458062618813,0.0006022641676950021,-8.750639433110058e-05,-0.0009510838173962376,-8.45909700679435e-05,-0.0002462971826038748,0.0009006259216834464,0.4029781222343445,19.816431045532227,0.4228789508342743,-20.106538772583008,-0.5404563546180725,-2.4630770683288574,0.17978231608867645,0
67,0.3299977779388428,-0.4029781222343445,-19.816431045532227,-0.4228789508342743,20.106538772583008,0.5404563546180725,2.4630770683288574,-0.17978231608867645,0.0,0.0,0.0,0.0,0.0,0.0,0.0,-0.41521737033201744,-0.11796092956031495,-0.23476479456255822,0.36384952250530583,-0.03954295885975838,0.09485425149452041,-0.20657286092951924,1.2135190037300712,-0.22014248631577105,-0.007368586438462921,-2.6040780784902897,-0.10895351968208672,2.468117227162147,0.8264668622466785,1.2134413937687574,-0.2202432315892585,-0.0075118285948192216,-2.6038483821997875,-0.10888392708698907,2.4681821257803174,0.826474908251239,-0.00022836458062618813,-0.0006022641676950021,8.750639433110058e-05,0.0009510838173962376,8.45909700679435e-05,0.0002462971826038748,-0.0009006259216834464,0.0,0.0,0.0,0.0,0.0,0.0,0.0,-7.760996131378484e-05,-0.00010074527348744033,-0.00014324215635630033,0.00022969629050217932,6.959259509764504e-05,6.489861817016163e-05,8.046004560502418e-06,0.00022836458062618813,0.0006022641676950021,-8.750639433110058e-05,-0.0009510838173962376,-8.45909700679435e-05,-0.0002462971826038748,0.0009006259216834464,0.4029781222343445,19.816431045532227,0.4228789508342743,-20.106538772583008,-0.5404563546180725,-2.4630770683288574,0.17978231608867645,0
68,0.3367626667022705,-0.4029781222343445,-19.868005752563477,-0.4466826617717743,20.130342483520508,0.5523582100868225,2.4566683769226074,-0.16604940593242645,0.0,0.0,0.0,0.0,0.0,0.0,0.0,-0.4083008375395079,-0.12364736054665111,-0.22659326845793185,0.3700101474323435,-0.04005903582262743,0.09628859631102547,-0.20661247037141903,1.21351900405712,-0.2201381584090365,-0.007366916002607658,-2.6040797488898564,-0.10895484211047489,2.46811797846666,0.8264649831391114,1.2134413937687574,-0.2202432315892585,-0.0075118285948192216,-2.6038483821997875,-0.10888392708698907,2.4681821257803174,0.826474908251239,0.00042653667088574625,0.00043576600232049875,0.0008067603338925759,0.0005152418149914885,-7.58791753330733e-05,0.0002683522885538083,-0.0020106032126715025,0.0,0.0,0.0,0.0,0.0,0.0,0.0,-7.76102883626173e-05,-0.0001050731802219873,-0.0001449125922115633,0.00023136669006884603,7.091502348581524e-05,6.414731365733672e-05,9.925112127606717e-06,-0.00042653667088574625,-0.00043576600232049875,-0.0008067603338925759,-0.0005152418149914885,7.58791753330733e-05,-0.0002683522885538083,0.0020106032126715025,0.4029781222343445,19.868005752563477,0.4466826617717743,-20.130342483520508,-0.5523582100868225,-2.4566683769226074,0.16604940593242645,0
69,0.33994603157043457,-0.4029781222343445,-19.868005752563477,-0.4466826617717743,20.130342483520508,0.5523582100868225,2.4566683769226074,-0.16604940593242645,0.0,0.0,0.0,0.0,0.0,0.0,0.0,-0.4083008375395079,-0.12364736054665111,-0.22659326845793185,0.3700101474323435,-0.04005903582262743,0.09628859631102547,-0.20661247037141903,1.21351900405712,-0.2201381584090365,-0.007366916002607658,-2.6040797488898564,-0.10895484211047489,2.46811797846666,0.8264649831391114,1.2134413937687574,-0.2202432315892585,-0.0075118285948192216,-2.6038483821997875,-0.10888392708698907,2.4681821257803174,0.826474908251239,0.00042653667088574625,0.00043576600232049875,0.0008067603338925759,0.0005152418149914885,-7.58791753330733e-05,0.0002683522885538083,-0.0020106032126715025,0.0,0.0,0.0,0.0,0.0,0.0,0.0,-7.76102883626173e-05,-0.0001050731802219873,-0.0001449125922115633,0.00023136669006884603,7.091502348581524e-05,6.414731365733672e-05,9.925112127606717e-06,-0.00042653667088574625,-0.00043576600232049875,-0.0008067603338925759,-0.0005152418149914885,7.58791753330733e-05,-0.0002683522885538083,0.0020106032126715025,0.4029781222343445,19.868005752563477,0.4466826617717743,-20.130342483520508,-0.5523582100868225,-2.4566683769226074,0.16604940593242645,0
70,0.34499406814575195,-0.4267818331718445,-19.844202041625977,-0.3713042438030243,20.130342483520508,0.5523582100868225,2.4694857597351074,-0.18710653483867645,0.0,0.0,0.0,0.0,0.0,0.0,0.0,-0.40652197766765763,-0.11932044621265292,-0.22576459370191448,0.36891419814881604,-0.03905791200061952,0.09571921442656911,-0.2074252789757417,1.2135206741659283,-0.22013982884089156,-0.007372205716149325,-2.6040797488898564,-0.10895484065011113,2.4681165543132355,0.8264673228181071,1.2134413937687574,-0.2202432315892585,-0.0075118285948192216,-2.6038483821997875,-0.10888392708698907,2.4681821257803174,0.826474908251239,0.00037613916679516714,-2.95375179740321e-05,-0.001005865432640078,0.00040538294417781306,-0.00028802641476951846,-0.00012501729687697062,-0.0006362745022442727,0.0,0.0,0.0,0.0,0.0,0.0,0.0,-7.928039717097768e-05,-0.00010340274836692642,-0.00013962287866989623,0.00023136669006884603,7.091356312205477e-05,6.557146708185968e-05,7.585433131951369e-06,-0.00037613916679516714,2.95375179740321e-05,0.001005865432640078,-0.00040538294417781306,0.00028802641476951846,0.00012501729687697062,0.0006362745022442727,0.4267818331718445,19.844202041625977,0.3713042438030243,-20.130342483520508,-0.5523582100868225,-2.4694857597351074,0.18710653483867645,0
71,0.3499917984008789,-0.4267818331718445,-19.844202041625977,-0.3713042438030243,20.130342483520508,0.5523582100868225,2.4694857597351074,-0.18710653483867645,0.0,0.0,0.0,0.0,0.0,0.0,0.0,-0.40652197766765763,-0.11932044621265292,-0.22576459370191448,0.36891419814881604,-0.03905791200061952,0.09571921442656911,-0.2074252789757417,1.2135206741659283,-0.22013982884089156,-0.007372205716149325,-2.6040797488898564,-0.10895484065011113,2.4681165543132355,0.8264673228181071,1.2134413937687574,-0.2202432315892585,-0.0075118285948192216,-2.6038483821997875,-0.10888392708698907,2.4681821257803174,0.826474908251239,0.00037613916679516714,-2.95375179740321e-05,-0.001005865432640078,0.00040538294417781306,-0.00028802641476951846,-0.00012501729687697062,-0.0006362745022442727,0.0,0.0,0.0,0.0,0.0,0.0,0.0,-7.928039717097768e-05,-0.00010340274836692642,-0.00013962287866989623,0.00023136669006884603,7.091356312205477e-05,6.557146708185968e-05,7.585433131951369e-06,-0.00037613916679516714,2.95375179740321e-05,0.001005865432640078,-0.00040538294417781306,0.00028802641476951846,0.00012501729687697062,0.0006362745022442727,0.4267818331718445,19.844202041625977,0.3713042438030243,-20.130342483520508,-0.5523582100868225,-2.4694857597351074,0.18710653483867645,0
72,0.354994535446167,-0.4505855441093445,-19.844202041625977,-0.4466826617717743,20.106538772583008,0.5404563546180725,2.4758944511413574,-0.16604940593242645,0.0,0.0,0.0,0.0,0.0,0.0,0.0,-0.40999908210726443,-0.12034168543427254,-0.2291163319955034,0.3681667490307189,-0.038247001814206746,0.09603209013877961,-0.20665485952512602,1.213522371092735,-0.22013982981295327,-0.007366916002607658,-2.6040787704031367,-0.10895351968208122,2.4681158422364127,0.8264649831371175,1.2134413937687574,-0.2202432315892585,-0.0075118285948192216,-2.6038483821997875,-0.10888392708698907,2.4681821257803174,0.826474908251239,0.0008195143095481759,-0.0007300462387762425,9.634705504817907e-05,0.0006201133542392823,0.000196236468329445,-0.00015925451413170672,-0.0017682630315153795,0.0,0.0,0.0,0.0,0.0,0.0,0.0,-8.09773239776046e-05,-0.00010340177630521752,-0.0001449125922115633,0.00023038820334919663,6.959259509214943e-05,6.628354390469937e-05,9.925114121567269e-06,-0.0008195143095481759,0.0007300462387762425,-9.634705504817907e-05,-0.0006201133542392823,-0.000196236468329445,0.00015925451413170672,0.0017682630315153795,0.4505855441093445,19.844202041625977,0.4466826617717743,-20.106538772583008,-0.5404563546180725,-2.4758944511413574,0.16604940593242645,0
73,0.36000800132751465,-0.4505855441093445,-19.844202041625977,-0.4466826617717743,20.106538772583008,0.5404563546180725,2.4758944511413574,-0.16604940593242645,0.0,0.0,0.0,0.0,0.0,0.0,0.0,-0.40999908210726443,-0.12034168543427254,-0.2291163319955034,0.3681667490307189,-0.038247001814206746,0.09603209013877961,-0.20665485952512602,1.213522371092735,-0.22013982981295327,-0.007366916002607658,-2.6040787704031367,-0.10895351968208122,2.4681158422364127,0.8264649831371175,1.2134413937687574,-0.2202432315892585,-0.0075118285948192216,-2.6038483821997875,-0.10888392708698907,2.4681821257803174,0.826474908251239,0.0008195143095481759,-0.0007300462387762425,9.634705504817907e-05,0.0006201133542392823,0.000196236468329445,-0.00015925451413170672,-0.0017682630315153795,0.0,0.0,0.0,0.0,0.0,0.0,0.0,-8.09773239776046e-05,-0.00010340177630521752,-0.0001449125922115633,0.00023038820334919663,6.959259509214943e-05,6.628354390469937e-05,9.925114121567269e-06,-0.0008195143095481759,0.0007300462387762425,-9.634705504817907e-05,-0.0006201133542392823,-0.000196236468329445,0.00015925451413170672,0.0017682630315153795,0.4505855441093445,19.844202041625977,0.4466826617717743,-20.106538772583008,-0.5404563546180725,-2.4758944511413574,0.16604940593242645,0
74,0.36499834060668945,-0.4267818331718445,-19.915613174438477,-0.4466826617717743,20.154146194458008,0.5523582100868225,2.4630770683288574,-0.19351522624492645,0.0,0.0,0.0,0.0,0.0,0.0,0.0,-0.41426777896833733,-0.12429376761961955,-0.23298943982866974,0.3689700238456894,-0.03812294527485049,0.09701909509150866,-0.2052355177988371,1.2135207016381757,-0.22013482660590733,-0.007366916002607658,-2.6040815043623065,-0.10895484211047489,2.4681172663900584,0.82646803489493,1.2134413937687574,-0.2202432315892585,-0.0075118285948192216,-2.6038483821997875,-0.10888392708698907,2.4681821257803174,0.826474908251239,-0.0002911808357085124,0.0006202541654393894,-0.0002776834365130194,-0.00020552625221896924,0.0002540054572419723,-4.103718575647433e-05,-0.0002307108490308392,0.0,0.0,0.0,0.0,0.0,0.0,0.0,-7.930786941834356e-05,-0.00010840498335115689,-0.0001449125922115633,0.00023312216251891726,7.091502348581524e-05,6.485939025901999e-05,6.8733563090006555e-06,0.0002911808357085124,-0.0006202541654393894,0.0002776834365130194,0.00020552625221896924,-0.0002540054572419723,4.103718575647433e-05,0.0002307108490308392,0.4267818331718445,19.915613174438477,0.4466826617717743,-20.154146194458008,-0.5523582100868225,-2.4630770683288574,0.19351522624492645,0
75,0.36999058723449707,-0.4267818331718445,-19.915613174438477,-0.4466826617717743,20.154146194458008,0.5523582100868225,2.4630770683288574,-0.19351522624492645,0.0,0.0,0.0,0.0,0.0,0.0,0.0,-0.41426777896833733,-0.12429376761961955,-0.23298943982866974,0.3689700238456894,-0.03812294527485049,0.09701909509150866,-0.2052355177988371,1.2135207016381757,-0.22013482660590733,-0.007366916002607658,-2.6040815043623065,-0.10895484211047489,2.4681172663900584,0.82646803489493,1.2134413937687574,-0.2202432315892585,-0.0075118285948192216,-2.6038483821997875,-0.10888392708698907,2.4681821257803174,0.826474908251239,-0.0002911808357085124,0.0006202541654393894,-0.0002776834365130194,-0.00020552625221896924,0.0002540054572419723,-4.103718575647433e-05,-0.0002307108490308392,0.0,0.0,0.0,0.0,0.0,0.0,0.0,-7.930786941834356e-05,-0.00010840498335115689,-0.0001449125922115633,0.00023312216251891726,7.091502348581524e-05,6.485939025901999e-05,6.8733563090006555e-06,0.0002911808357085124,-0.0006202541654393894,0.0002776834365130194,0.00020552625221896924,-0.0002540054572419723,4.103718575647433e-05,0.0002307108490308392,0.4267818331718445,19.915613174438477,0.4466826617717743,-20.154146194458008,-0.5523582100868225,-2.4630770683288574,0.19351522624492645,0
76,0.37499070167541504,-0.4267818331718445,-19.915613174438477,-0.4466826617717743,20.154146194458008,0.5523582100868225,2.4630770683288574,-0.19351522624492645,0.0,0.0,0.0,0.0,0.0,0.0,0.0,-0.41426777896833733,-0.12429376761961955,-0.23298943982866974,0.3689700238456894,-0.03812294527485049,0.09701909509150866,-0.2052355177988371,1.2135207016381757,-0.22013482660590733,-0.007366916002607658,-2.6040815043623065,-0.10895484211047489,2.4681172663900584,0.82646803489493,1.2134413937687574,-0.2202432315892585,-0.0075118285948192216,-2.6038483821997875,-0.10888392708698907,2.4681821257803174,0.826474908251239,-0.0002911808357085124,0.0006202541654393894,-0.0002776834365130194,-0.00020552625221896924,0.0002540054572419723,-4.103718575647433e-05,-0.0002307108490308392,0.0,0.0,0.0,0.0,0.0,0.0,0.0,-7.930786941834356e-05,-0.00010840498335115689,-0.0001449125922115633,0.00023312216251891726,7.091502348581524e-05,6.485939025901999e-05,6.8733563090006555e-06,0.0002911808357085124,-0.0006202541654393894,0.0002776834365130194,0.00020552625221896924,-0.0002540054572419723,4.103718575647433e-05,0.0002307108490308392,0.4267818331718445,19.915613174438477,0.4466826617717743,-20.154146194458008,-0.5523582100868225,-2.4630770683288574,0.19351522624492645,0
77,0.38004302978515625,-0.4267818331718445,-19.915613174438477,-0.4466826617717743,20.154146194458008,0.5523582100868225,2.4630770683288574,-0.19351522624492645,0.0,0.0,0.0,0.0,0.0,0.0,0.0,-0.41426777896833733,-0.12429376761961955,-0.23298943982866974,0.3689700238456894,-0.03812294527485049,0.09701909509150866,-0.2052355177988371,1.2135207016381757,-0.22013482660590733,-0.007366916002607658,-2.6040815043623065,-0.10895484211047489,2.4681172663900584,0.82646803489493,1.2134413937687574,-0.2202432315892585,-0.0075118285948192216,-2.6038483821997875,-0.10888392708698907,2.4681821257803174,0.826474908251239,-0.0002911808357085124,0.0006202541654393894,-0.0002776834365130194,-0.00020552625221896924,0.0002540054572419723,-4.103718575647433e-05,-0.0002307108490308392,0.0,0.0,0.0,0.0,0.0,0.0,0.0,-7.930786941834356e-05,-0.00010840498335115689,-0.0001449125922115633,0.00023312216251891726,7.091502348581524e-05,6.485939025901999e-05,6.8733563090006555e-06,0.0002911808357085124,-0.0006202541654393894,0.0002776834365130194,0.00020552625221896924,-0.0002540054572419723,4.103718575647433e-05,0.0002307108490308392,0.4267818331718445,19.915613174438477,0.4466826617717743,-20.154146194458008,-0.5523582100868225,-2.4630770683288574,0.19351522624492645,0
78,0.385040283203125,-0.4505855441093445,-19.844202041625977,-0.4466826617717743,20.130342483520508,0.5404563546180725,2.4630770683288574,-0.22098104655742645,0.0,0.0,0.0,0.0,0.0,0.0,0.0,-0.419796373655557,-0.11965219877813794,-0.23752099741193092,0.36184504308218435,-0.038130257270174835,0.09566447769546325,-0.2043012637396908,1.213522583020826,-0.2201398288410452,-0.007366916002607658,-2.6040825053151546,-0.10895316481369512,2.4681172663900584,0.8264710866527425,1.2134413937687574,-0.2202432315892585,-0.0075118285948192216,-2.6038483821997875,-0.10888392708698907,2.4681821257803174,0.826474908251239,-0.0002745727579939584,-0.0007628342331388571,-0.0005402409400930604,0.00015332653171124403,0.00033281665362494523,0.00011716589384741127,0.0008470430994978906,0.0,0.0,0.0,0.0,0.0,0.0,0.0,-8.118925206868077e-05,-0.00010340274821329931,-0.0001449125922115633,0.00023412311536707975,6.923772670604234e-05,6.485939025901999e-05,3.8215984965450644e-06,0.0002745727579939584,0.0007628342331388571,0.0005402409400930604,-0.00015332653171124403,-0.00033281665362494523,-0.00011716589384741127,-0.0008470430994978906,0.4505855441093445,19.844202041625977,0.4466826617717743,-20.130342483520508,-0.5404563546180725,-2.4630770683288574,0.22098104655742645,0
79,0.39003992080688477,-0.4505855441093445,-19.844202041625977,-0.4466826617717743,20.130342483520508,0.5404563546180725,2.4630770683288574,-0.22098104655742645,0.0,0.0,0.0,0.0,0.0,0.0,0.0,-0.419796373655557,-0.11965219877813794,-0.23752099741193092,0.36184504308218435,-0.038130257270174835,0.09566447769546325,-0.2043012637396908,1.213522583020826,-0.2201398288410452,-0.007366916002607658,-2.6040825053151546,-0.10895316481369512,2.4681172663900584,0.8264710866527425,1.2134413937687574,-0.2202432315892585,-0.0075118285948192216,-2.6038483821997875,-0.10888392708698907,2.4681821257803174,0.826474908251239,-0.0002745727579939584,-0.0007628342331388571,-0.0005402409400930604,0.00015332653171124403,0.00033281665362494523,0.00011716589384741127,0.0008470430994978906,0.0,0.0,0.0,0.0,0.0,0.0,0.0,-8.118925206868077e-05,-0.00010340274821329931,-0.0001449125922115633,0.00023412311536707975,6.923772670604234e-05,6.485939025901999e-05,3.8215984965450644e-06,0.0002745727579939584,0.0007628342331388571,0.0005402409400930604,-0.00015332653171124403,-0.00033281665362494523,-0.00011716589384741127,-0.0008470430994978906,0.4505855441093445,19.844202041625977,0.4466826617717743,-20.130342483520508,-0.5404563546180725,-2.4630770683288574,0.22098104655742645,0
