rezayati/contactInterpretation/dataset/franka_main/labeled_data/link7/a6_5.csv
index,time,tau_J0,tau_J1,tau_J2,tau_J3,tau_J4,tau_J5,tau_J6,tau_J_d0,tau_J_d1,tau_J_d2,tau_J_d3,tau_J_d4,tau_J_d5,tau_J_d6,tau_ext0,tau_ext1,tau_ext2,tau_ext3,tau_ext4,tau_ext5,tau_ext6,q0,q1,q2,q3,q4,q5,q6,q_d0,q_d1,q_d2,q_d3,q_d4,q_d5,q_d6,dq0,dq1,dq2,dq3,dq4,dq5,dq6,dq_d0,dq_d1,dq_d2,dq_d3,dq_d4,dq_d5,dq_d6,e0,e1,e2,e3,e4,e5,e6,de0,de1,de2,de3,de4,de5,de6,etau_J0,etau_J1,etau_J2,etau_J3,etau_J4,etau_J5,etau_J6,label
1,0.0,-0.6568843722343445,-46.50039291381836,-5.588284015655518,19.709810256958008,0.6063743233680725,2.4365267753601074,-0.34457725286483765,0.0,0.0,0.0,0.0,0.0,0.0,0.0,-0.6270354619395822,-0.1785629041475737,-0.4265812456175109,0.534007775041421,0.01315540012157315,0.16760930737047544,-0.37551292989681634,0.8780520785942413,0.7558938564441365,-0.2825410152824605,-1.6692069728749845,0.14136567034400557,2.4033957710795932,1.0273591409825402,0.878092876070424,0.7554597494309409,-0.2825552651693207,-1.6690993614607135,0.1414185955172306,2.4034451173676383,1.0273381002308042,0.0006502277119265866,-0.00032439210807128375,-0.0004849808724245362,0.0008538540078565412,6.308148437475411e-05,-0.0001799088873403437,-0.000792951009585595,0.0,0.0,0.0,0.0,0.0,0.0,0.0,4.07974761826857e-05,-0.0004341070131956837,-1.4249886860218108e-05,0.00010761141427106935,5.292517322502688e-05,4.9346288045093445e-05,-2.104075173603448e-05,-0.0006502277119265866,0.00032439210807128375,0.0004849808724245362,-0.0008538540078565412,-6.308148437475411e-05,0.0001799088873403437,0.000792951009585595,0.6568843722343445,46.50039291381836,5.588284015655518,-19.709810256958008,-0.6063743233680725,-2.4365267753601074,0.34457725286483765,0
2,0.005186796188354492,-0.6291133761405945,-46.52419662475586,-5.612087726593018,19.733613967895508,0.5999656319618225,2.4237093925476074,-0.35831016302108765,0.0,0.0,0.0,0.0,0.0,0.0,0.0,-0.6423151614791058,-0.16614179522628902,-0.43491679563975577,0.5253164782171863,0.0141994241342881,0.16622593411166292,-0.374779107434206,0.87805012975241,0.7558935280921951,-0.28254006042894275,-1.6692087247459442,0.14136638242006302,2.403400374147627,1.027361137319234,0.878092876070424,0.7554597494309409,-0.2825552651693207,-1.6690993614607135,0.1414185955172306,2.4034451173676383,1.0273381002308042,-0.00023296166210058633,0.0004902803269165974,-3.9386741094275694e-05,-0.00035062988152626424,-1.964546982947626e-05,0.00027832705497833274,-0.0005470415569936801,0.0,0.0,0.0,0.0,0.0,0.0,0.0,4.274631801393092e-05,-0.00043377866125426934,-1.5204740377972037e-05,0.00010936328523070138,5.221309716757494e-05,4.47432200112452e-05,-2.303708842976704e-05,0.00023296166210058633,-0.0004902803269165974,3.9386741094275694e-05,0.00035062988152626424,1.964546982947626e-05,-0.00027832705497833274,0.0005470415569936801,0.6291133761405945,46.52419662475586,5.612087726593018,-19.733613967895508,-0.5999656319618225,-2.4237093925476074,0.35831016302108765,0
3,0.010011672973632812,-0.6291133761405945,-46.52419662475586,-5.612087726593018,19.733613967895508,0.5999656319618225,2.4237093925476074,-0.35831016302108765,0.0,0.0,0.0,0.0,0.0,0.0,0.0,-0.6423151614791058,-0.16614179522628902,-0.43491679563975577,0.5253164782171863,0.0141994241342881,0.16622593411166292,-0.374779107434206,0.87805012975241,0.7558935280921951,-0.28254006042894275,-1.6692087247459442,0.14136638242006302,2.403400374147627,1.027361137319234,0.878092876070424,0.7554597494309409,-0.2825552651693207,-1.6690993614607135,0.1414185955172306,2.4034451173676383,1.0273381002308042,-0.00023296166210058633,0.0004902803269165974,-3.9386741094275694e-05,-0.00035062988152626424,-1.964546982947626e-05,0.00027832705497833274,-0.0005470415569936801,0.0,0.0,0.0,0.0,0.0,0.0,0.0,4.274631801393092e-05,-0.00043377866125426934,-1.5204740377972037e-05,0.00010936328523070138,5.221309716757494e-05,4.47432200112452e-05,-2.303708842976704e-05,0.00023296166210058633,-0.0004902803269165974,3.9386741094275694e-05,0.00035062988152626424,1.964546982947626e-05,-0.00027832705497833274,0.0005470415569936801,0.6291133761405945,46.52419662475586,5.612087726593018,-19.733613967895508,-0.5999656319618225,-2.4237093925476074,0.35831016302108765,0
4,0.014945507049560547,-0.6291133761405945,-46.52419662475586,-5.612087726593018,19.733613967895508,0.5999656319618225,2.4237093925476074,-0.35831016302108765,0.0,0.0,0.0,0.0,0.0,0.0,0.0,-0.6423151614791058,-0.16614179522628902,-0.43491679563975577,0.5253164782171863,0.0141994241342881,0.16622593411166292,-0.374779107434206,0.87805012975241,0.7558935280921951,-0.28254006042894275,-1.6692087247459442,0.14136638242006302,2.403400374147627,1.027361137319234,0.878092876070424,0.7554597494309409,-0.2825552651693207,-1.6690993614607135,0.1414185955172306,2.4034451173676383,1.0273381002308042,-0.00023296166210058633,0.0004902803269165974,-3.9386741094275694e-05,-0.00035062988152626424,-1.964546982947626e-05,0.00027832705497833274,-0.0005470415569936801,0.0,0.0,0.0,0.0,0.0,0.0,0.0,4.274631801393092e-05,-0.00043377866125426934,-1.5204740377972037e-05,0.00010936328523070138,5.221309716757494e-05,4.47432200112452e-05,-2.303708842976704e-05,0.00023296166210058633,-0.0004902803269165974,3.9386741094275694e-05,0.00035062988152626424,1.964546982947626e-05,-0.00027832705497833274,0.0005470415569936801,0.6291133761405945,46.52419662475586,5.612087726593018,-19.733613967895508,-0.5999656319618225,-2.4237093925476074,0.35831016302108765,0
5,0.01999664306640625,-0.6291133761405945,-46.52419662475586,-5.612087726593018,19.733613967895508,0.5999656319618225,2.4237093925476074,-0.35831016302108765,0.0,0.0,0.0,0.0,0.0,0.0,0.0,-0.6423151614791058,-0.16614179522628902,-0.43491679563975577,0.5253164782171863,0.0141994241342881,0.16622593411166292,-0.374779107434206,0.87805012975241,0.7558935280921951,-0.28254006042894275,-1.6692087247459442,0.14136638242006302,2.403400374147627,1.027361137319234,0.878092876070424,0.7554597494309409,-0.2825552651693207,-1.6690993614607135,0.1414185955172306,2.4034451173676383,1.0273381002308042,-0.00023296166210058633,0.0004902803269165974,-3.9386741094275694e-05,-0.00035062988152626424,-1.964546982947626e-05,0.00027832705497833274,-0.0005470415569936801,0.0,0.0,0.0,0.0,0.0,0.0,0.0,4.274631801393092e-05,-0.00043377866125426934,-1.5204740377972037e-05,0.00010936328523070138,5.221309716757494e-05,4.47432200112452e-05,-2.303708842976704e-05,0.00023296166210058633,-0.0004902803269165974,3.9386741094275694e-05,0.00035062988152626424,1.964546982947626e-05,-0.00027832705497833274,0.0005470415569936801,0.6291133761405945,46.52419662475586,5.612087726593018,-19.733613967895508,-0.5999656319618225,-2.4237093925476074,0.35831016302108765,0
6,0.02499556541442871,-0.6291133761405945,-46.47658920288086,-5.612087726593018,19.709810256958008,0.6118674874305725,2.4365267753601074,-0.35831016302108765,0.0,0.0,0.0,0.0,0.0,0.0,0.0,-0.6417254822818111,-0.17797250784025262,-0.435973797584275,0.5324552151310245,0.01437250944513893,0.16693603445858138,-0.3747964295966452,0.87805012975241,0.7558908091611879,-0.28253960975703546,-1.6692070552926295,0.14136824889417648,2.4033957710855747,1.0273569065271562,0.878092876070424,0.7554597494309409,-0.2825552651693207,-1.6690993614607135,0.1414185955172306,2.4034451173676383,1.0273381002308042,0.00021833464127839683,-0.0008165261610303072,-0.00014386384360438203,0.00047939833511870744,-0.00046937669385137384,-0.0003016700472772111,-0.00027770476834789023,0.0,0.0,0.0,0.0,0.0,0.0,0.0,4.274631801393092e-05,-0.0004310597302470409,-1.565541228526479e-05,0.00010769383191600035,5.034662305411497e-05,4.934628206365588e-05,-1.8806296351980833e-05,-0.00021833464127839683,0.0008165261610303072,0.00014386384360438203,-0.00047939833511870744,0.00046937669385137384,0.0003016700472772111,0.00027770476834789023,0.6291133761405945,46.47658920288086,5.612087726593018,-19.709810256958008,-0.6118674874305725,-2.4365267753601074,0.35831016302108765,0
7,0.03000617027282715,-0.6291133761405945,-46.47658920288086,-5.612087726593018,19.709810256958008,0.6118674874305725,2.4365267753601074,-0.35831016302108765,0.0,0.0,0.0,0.0,0.0,0.0,0.0,-0.6417254822818111,-0.17797250784025262,-0.435973797584275,0.5324552151310245,0.01437250944513893,0.16693603445858138,-0.3747964295966452,0.87805012975241,0.7558908091611879,-0.28253960975703546,-1.6692070552926295,0.14136824889417648,2.4033957710855747,1.0273569065271562,0.878092876070424,0.7554597494309409,-0.2825552651693207,-1.6690993614607135,0.1414185955172306,2.4034451173676383,1.0273381002308042,0.00021833464127839683,-0.0008165261610303072,-0.00014386384360438203,0.00047939833511870744,-0.00046937669385137384,-0.0003016700472772111,-0.00027770476834789023,0.0,0.0,0.0,0.0,0.0,0.0,0.0,4.274631801393092e-05,-0.0004310597302470409,-1.565541228526479e-05,0.00010769383191600035,5.034662305411497e-05,4.934628206365588e-05,-1.8806296351980833e-05,-0.00021833464127839683,0.0008165261610303072,0.00014386384360438203,-0.00047939833511870744,0.00046937669385137384,0.0003016700472772111,0.00027770476834789023,0.6291133761405945,46.47658920288086,5.612087726593018,-19.709810256958008,-0.6118674874305725,-2.4365267753601074,0.35831016302108765,0
8,0.0353550910949707,-0.6053096652030945,-46.52419662475586,-5.612087726593018,19.709810256958008,0.5944724678993225,2.4301180839538574,-0.38577598333358765,0.0,0.0,0.0,0.0,0.0,0.0,0.0,-0.6412754533831447,-0.17513157255171574,-0.43820839912280835,0.5316294456001442,0.015192989237087447,0.16682652777958554,-0.37305985546704573,0.8780484593165548,0.7558941346648466,-0.2825393536779698,-1.6692060718568735,0.14136700591246026,2.403396602347536,1.0273610193527143,0.878092876070424,0.7554597494309409,-0.2825552651693207,-1.6690993614607135,0.1414185955172306,2.4034451173676383,1.0273381002308042,-0.00035797170373403085,0.0006558131584230635,0.00017629331746416558,0.0007103056398179832,0.00011477933782473666,3.7237185133745916e-06,0.0001917434847632814,0.0,0.0,0.0,0.0,0.0,0.0,0.0,4.441675386912536e-05,-0.0004343852339057097,-1.59114913509395e-05,0.00010671039616005906,5.1589604770335695e-05,4.8515020102168904e-05,-2.2919121910103257e-05,0.00035797170373403085,-0.0006558131584230635,-0.00017629331746416558,-0.0007103056398179832,-0.00011477933782473666,-3.7237185133745916e-06,-0.0001917434847632814,0.6053096652030945,46.52419662475586,5.612087726593018,-19.709810256958008,-0.5944724678993225,-2.4301180839538574,0.38577598333358765,0
9,0.03999686241149902,-0.6053096652030945,-46.52419662475586,-5.612087726593018,19.709810256958008,0.5944724678993225,2.4301180839538574,-0.38577598333358765,0.0,0.0,0.0,0.0,0.0,0.0,0.0,-0.6412754533831447,-0.17513157255171574,-0.43820839912280835,0.5316294456001442,0.015192989237087447,0.16682652777958554,-0.37305985546704573,0.8780484593165548,0.7558941346648466,-0.2825393536779698,-1.6692060718568735,0.14136700591246026,2.403396602347536,1.0273610193527143,0.878092876070424,0.7554597494309409,-0.2825552651693207,-1.6690993614607135,0.1414185955172306,2.4034451173676383,1.0273381002308042,-0.00035797170373403085,0.0006558131584230635,0.00017629331746416558,0.0007103056398179832,0.00011477933782473666,3.7237185133745916e-06,0.0001917434847632814,0.0,0.0,0.0,0.0,0.0,0.0,0.0,4.441675386912536e-05,-0.0004343852339057097,-1.59114913509395e-05,0.00010671039616005906,5.1589604770335695e-05,4.8515020102168904e-05,-2.2919121910103257e-05,0.00035797170373403085,-0.0006558131584230635,-0.00017629331746416558,-0.0007103056398179832,-0.00011477933782473666,-3.7237185133745916e-06,-0.0001917434847632814,0.6053096652030945,46.52419662475586,5.612087726593018,-19.709810256958008,-0.5944724678993225,-2.4301180839538574,0.38577598333358765,0
10,0.04500222206115723,-0.6053096652030945,-46.52419662475586,-5.612087726593018,19.757417678833008,0.5944724678993225,2.4301180839538574,-0.35098594427108765,0.0,0.0,0.0,0.0,0.0,0.0,0.0,-0.6345919760963651,-0.17294558441713398,-0.4326406734734281,0.5326758162050238,0.014693884444865732,0.16674650107137728,-0.37296679864803883,0.8780484593165548,0.7558955540929138,-0.28253934484620646,-1.669210393215351,0.14136699277169967,2.403396483157089,1.027359983861137,0.878092876070424,0.7554597494309409,-0.2825552651693207,-1.6690993614607135,0.1414185955172306,2.4034451173676383,1.0273381002308042,-0.0006168762074337775,0.0007760079482339351,0.0003556880727867594,-0.0002401182198852254,0.0002323265117065194,0.0001018176952189,-0.0010106549611441262,0.0,0.0,0.0,0.0,0.0,0.0,0.0,4.441675386912536e-05,-0.000435804661972905,-1.592032311426017e-05,0.00011103175463755832,5.1602745530926475e-05,4.86342105494586e-05,-2.1883630332730775e-05,0.0006168762074337775,-0.0007760079482339351,-0.0003556880727867594,0.0002401182198852254,-0.0002323265117065194,-0.0001018176952189,0.0010106549611441262,0.6053096652030945,46.52419662475586,5.612087726593018,-19.757417678833008,-0.5944724678993225,-2.4301180839538574,0.35098594427108765,0
11,0.04999494552612305,-0.6053096652030945,-46.52419662475586,-5.612087726593018,19.757417678833008,0.5944724678993225,2.4301180839538574,-0.35098594427108765,0.0,0.0,0.0,0.0,0.0,0.0,0.0,-0.6345919760963651,-0.17294558441713398,-0.4326406734734281,0.5326758162050238,0.014693884444865732,0.16674650107137728,-0.37296679864803883,0.8780484593165548,0.7558955540929138,-0.28253934484620646,-1.669210393215351,0.14136699277169967,2.403396483157089,1.027359983861137,0.878092876070424,0.7554597494309409,-0.2825552651693207,-1.6690993614607135,0.1414185955172306,2.4034451173676383,1.0273381002308042,-0.0006168762074337775,0.0007760079482339351,0.0003556880727867594,-0.0002401182198852254,0.0002323265117065194,0.0001018176952189,-0.0010106549611441262,0.0,0.0,0.0,0.0,0.0,0.0,0.0,4.441675386912536e-05,-0.000435804661972905,-1.592032311426017e-05,0.00011103175463755832,5.1602745530926475e-05,4.86342105494586e-05,-2.1883630332730775e-05,0.0006168762074337775,-0.0007760079482339351,-0.0003556880727867594,0.0002401182198852254,-0.0002323265117065194,-0.0001018176952189,0.0010106549611441262,0.6053096652030945,46.52419662475586,5.612087726593018,-19.757417678833008,-0.5944724678993225,-2.4301180839538574,0.35098594427108765,0
12,0.05494046211242676,-0.6053096652030945,-46.44881820678711,-5.635891437530518,19.757417678833008,0.5999656319618225,2.4365267753601074,-0.39950889348983765,0.0,0.0,0.0,0.0,0.0,0.0,0.0,-0.6420739293879755,-0.17481301059102364,-0.43632270741763657,0.535001904621263,0.014474717415011877,0.16688307812754774,-0.3736058391037374,0.8780484593165548,0.7558903160555723,-0.2825376832406191,-1.669210148915395,0.1413667367365625,2.4033957710795932,1.027365687340713,0.878092876070424,0.7554597494309409,-0.2825552651693207,-1.6690993614607135,0.1414185955172306,2.4034451173676383,1.0273381002308042,-0.0009099240321366671,-0.0012782317097707304,0.0005578598221117332,-0.0005884445665763643,-5.805121600477954e-05,-0.00012433616178657436,0.0009628668507739492,0.0,0.0,0.0,0.0,0.0,0.0,0.0,4.441675386912536e-05,-0.00043056662463147877,-1.7581928701604355e-05,0.00011078745468151574,5.1858780668101456e-05,4.9346288045093445e-05,-2.758710990891089e-05,0.0009099240321366671,0.0012782317097707304,-0.0005578598221117332,0.0005884445665763643,5.805121600477954e-05,0.00012433616178657436,-0.0009628668507739492,0.6053096652030945,46.44881820678711,5.635891437530518,-19.757417678833008,-0.5999656319618225,-2.4365267753601074,0.39950889348983765,0
13,0.0599973201751709,-0.6053096652030945,-46.44881820678711,-5.635891437530518,19.757417678833008,0.5999656319618225,2.4365267753601074,-0.39950889348983765,0.0,0.0,0.0,0.0,0.0,0.0,0.0,-0.6420739293879755,-0.17481301059102364,-0.43632270741763657,0.535001904621263,0.014474717415011877,0.16688307812754774,-0.3736058391037374,0.8780484593165548,0.7558903160555723,-0.2825376832406191,-1.669210148915395,0.1413667367365625,2.4033957710795932,1.027365687340713,0.878092876070424,0.7554597494309409,-0.2825552651693207,-1.6690993614607135,0.1414185955172306,2.4034451173676383,1.0273381002308042,-0.0009099240321366671,-0.0012782317097707304,0.0005578598221117332,-0.0005884445665763643,-5.805121600477954e-05,-0.00012433616178657436,0.0009628668507739492,0.0,0.0,0.0,0.0,0.0,0.0,0.0,4.441675386912536e-05,-0.00043056662463147877,-1.7581928701604355e-05,0.00011078745468151574,5.1858780668101456e-05,4.9346288045093445e-05,-2.758710990891089e-05,0.0009099240321366671,0.0012782317097707304,-0.0005578598221117332,0.0005884445665763643,5.805121600477954e-05,0.00012433616178657436,-0.0009628668507739492,0.6053096652030945,46.44881820678711,5.635891437530518,-19.757417678833008,-0.5999656319618225,-2.4365267753601074,0.39950889348983765,0
14,0.06499457359313965,-0.6291133761405945,-46.52419662475586,-5.663662433624268,19.709810256958008,0.5999656319618225,2.4365267753601074,-0.34457725286483765,0.0,0.0,0.0,0.0,0.0,0.0,0.0,-0.6348449952755569,-0.17424514671185873,-0.4314722223287119,0.5367734274039722,0.014411497312694414,0.16704283563730768,-0.37423233949761714,0.87805012975241,0.7558962377710263,-0.2825357265496332,-1.6692069727668508,0.1413663829067606,2.4033957710795932,1.0273563225487574,0.878092876070424,0.7554597494309409,-0.2825552651693207,-1.6690993614607135,0.1414185955172306,2.4034451173676383,1.0273381002308042,3.658126274217592e-05,0.00021087926154494428,0.0010074817812466877,0.0004960632632259827,2.299543921434188e-05,-0.00032311269850496634,-0.0006933149676501811,0.0,0.0,0.0,0.0,0.0,0.0,0.0,4.274631801393092e-05,-0.00043648834008547244,-1.953861968750914e-05,0.00010761130613734515,5.2212610470003806e-05,4.9346288045093445e-05,-1.822231795323148e-05,-3.658126274217592e-05,-0.00021087926154494428,-0.0010074817812466877,-0.0004960632632259827,-2.299543921434188e-05,0.00032311269850496634,0.0006933149676501811,0.6291133761405945,46.52419662475586,5.663662433624268,-19.709810256958008,-0.5999656319618225,-2.4365267753601074,0.34457725286483765,0
15,0.06999659538269043,-0.6291133761405945,-46.52419662475586,-5.663662433624268,19.709810256958008,0.5999656319618225,2.4365267753601074,-0.34457725286483765,0.0,0.0,0.0,0.0,0.0,0.0,0.0,-0.6348449952755569,-0.17424514671185873,-0.4314722223287119,0.5367734274039722,0.014411497312694414,0.16704283563730768,-0.37423233949761714,0.87805012975241,0.7558962377710263,-0.2825357265496332,-1.6692069727668508,0.1413663829067606,2.4033957710795932,1.0273563225487574,0.878092876070424,0.7554597494309409,-0.2825552651693207,-1.6690993614607135,0.1414185955172306,2.4034451173676383,1.0273381002308042,3.658126274217592e-05,0.00021087926154494428,0.0010074817812466877,0.0004960632632259827,2.299543921434188e-05,-0.00032311269850496634,-0.0006933149676501811,0.0,0.0,0.0,0.0,0.0,0.0,0.0,4.274631801393092e-05,-0.00043648834008547244,-1.953861968750914e-05,0.00010761130613734515,5.2212610470003806e-05,4.9346288045093445e-05,-1.822231795323148e-05,-3.658126274217592e-05,-0.00021087926154494428,-0.0010074817812466877,-0.0004960632632259827,-2.299543921434188e-05,0.00032311269850496634,0.0006933149676501811,0.6291133761405945,46.52419662475586,5.663662433624268,-19.709810256958008,-0.5999656319618225,-2.4365267753601074,0.34457725286483765,0
16,0.07500910758972168,-0.7084590792655945,-46.47658920288086,-5.612087726593018,19.733613967895508,0.5999656319618225,2.4365267753601074,-0.36471885442733765,0.0,0.0,0.0,0.0,0.0,0.0,0.0,-0.6416054481472045,-0.1826674697502732,-0.44107412572436594,0.5396561755698897,0.015212967734640336,0.16772434506240907,-0.3731143867680725,0.8780556978719276,0.7558924980246178,-0.2825414906133741,-1.6692084608184883,0.14136744590959854,2.4033957710795932,1.0273608018604008,0.878092876070424,0.7554597494309409,-0.2825552651693207,-1.6690993614607135,0.1414185955172306,2.4034451173676383,1.0273381002308042,0.00181474594316505,-0.001419578216597957,-0.0002426295323831696,-9.099444777615573e-05,1.6588107468574066e-05,-9.011472762279025e-05,0.000122850320459211,0.0,0.0,0.0,0.0,0.0,0.0,0.0,3.717819849635706e-05,-0.00043274859367692375,-1.3774555946644007e-05,0.00010909935777481117,5.1149607632056115e-05,4.9346288045093445e-05,-2.2701629596610928e-05,-0.00181474594316505,0.001419578216597957,0.0002426295323831696,9.099444777615573e-05,-1.6588107468574066e-05,9.011472762279025e-05,-0.000122850320459211,0.7084590792655945,46.47658920288086,5.612087726593018,-19.733613967895508,-0.5999656319618225,-2.4365267753601074,0.36471885442733765,0
17,0.08000659942626953,-0.7084590792655945,-46.47658920288086,-5.612087726593018,19.733613967895508,0.5999656319618225,2.4365267753601074,-0.36471885442733765,0.0,0.0,0.0,0.0,0.0,0.0,0.0,-0.6416054481472045,-0.1826674697502732,-0.44107412572436594,0.5396561755698897,0.015212967734640336,0.16772434506240907,-0.3731143867680725,0.8780556978719276,0.7558924980246178,-0.2825414906133741,-1.6692084608184883,0.14136744590959854,2.4033957710795932,1.0273608018604008,0.878092876070424,0.7554597494309409,-0.2825552651693207,-1.6690993614607135,0.1414185955172306,2.4034451173676383,1.0273381002308042,0.00181474594316505,-0.001419578216597957,-0.0002426295323831696,-9.099444777615573e-05,1.6588107468574066e-05,-9.011472762279025e-05,0.000122850320459211,0.0,0.0,0.0,0.0,0.0,0.0,0.0,3.717819849635706e-05,-0.00043274859367692375,-1.3774555946644007e-05,0.00010909935777481117,5.1149607632056115e-05,4.9346288045093445e-05,-2.2701629596610928e-05,-0.00181474594316505,0.001419578216597957,0.0002426295323831696,9.099444777615573e-05,-1.6588107468574066e-05,9.011472762279025e-05,-0.000122850320459211,0.7084590792655945,46.47658920288086,5.612087726593018,-19.733613967895508,-0.5999656319618225,-2.4365267753601074,0.36471885442733765,0
18,0.08499789237976074,-0.6568843722343445,-46.50039291381836,-5.612087726593018,19.686006546020508,0.6063743233680725,2.4301180839538574,-0.41965049505233765,0.0,0.0,0.0,0.0,0.0,0.0,0.0,-0.6423324477855095,-0.16668990684051072,-0.43776675063736564,0.5290605003493635,0.014766249583127462,0.16615006726936876,-0.37196718211545937,0.8780520785942413,0.7558941176700991,-0.28253934485826954,-1.6692053848552806,0.141368859197739,2.403396483156416,1.0273679272345013,0.878092876070424,0.7554597494309409,-0.2825552651693207,-1.6690993614607135,0.1414185955172306,2.4034451173676383,1.0273381002308042,-0.00010528911036752058,-0.0001871357536234432,-6.767167115828084e-05,0.0009208575117414778,-0.00028556888133469846,-0.00010480219248488199,0.0016502943680369061,0.0,0.0,0.0,0.0,0.0,0.0,0.0,4.07974761826857e-05,-0.00043436823915821154,-1.5920311051187408e-05,0.00010602339456711185,4.9736319491594516e-05,4.8634211222253754e-05,-2.982700369713598e-05,0.00010528911036752058,0.0001871357536234432,6.767167115828084e-05,-0.0009208575117414778,0.00028556888133469846,0.00010480219248488199,-0.0016502943680369061,0.6568843722343445,46.50039291381836,5.612087726593018,-19.686006546020508,-0.6063743233680725,-2.4301180839538574,0.41965049505233765,0
19,0.08999919891357422,-0.6568843722343445,-46.50039291381836,-5.612087726593018,19.686006546020508,0.6063743233680725,2.4301180839538574,-0.41965049505233765,0.0,0.0,0.0,0.0,0.0,0.0,0.0,-0.6423324477855095,-0.16668990684051072,-0.43776675063736564,0.5290605003493635,0.014766249583127462,0.16615006726936876,-0.37196718211545937,0.8780520785942413,0.7558941176700991,-0.28253934485826954,-1.6692053848552806,0.141368859197739,2.403396483156416,1.0273679272345013,0.878092876070424,0.7554597494309409,-0.2825552651693207,-1.6690993614607135,0.1414185955172306,2.4034451173676383,1.0273381002308042,-0.00010528911036752058,-0.0001871357536234432,-6.767167115828084e-05,0.0009208575117414778,-0.00028556888133469846,-0.00010480219248488199,0.0016502943680369061,0.0,0.0,0.0,0.0,0.0,0.0,0.0,4.07974761826857e-05,-0.00043436823915821154,-1.5920311051187408e-05,0.00010602339456711185,4.9736319491594516e-05,4.8634211222253754e-05,-2.982700369713598e-05,0.00010528911036752058,0.0001871357536234432,6.767167115828084e-05,-0.0009208575117414778,0.00028556888133469846,0.00010480219248488199,-0.0016502943680369061,0.6568843722343445,46.50039291381836,5.612087726593018,-19.686006546020508,-0.6063743233680725,-2.4301180839538574,0.41965049505233765,0
20,0.09500646591186523,-0.6568843722343445,-46.50039291381836,-5.612087726593018,19.686006546020508,0.6063743233680725,2.4301180839538574,-0.41965049505233765,0.0,0.0,0.0,0.0,0.0,0.0,0.0,-0.6423324477855095,-0.16668990684051072,-0.43776675063736564,0.5290605003493635,0.014766249583127462,0.16615006726936876,-0.37196718211545937,0.8780520785942413,0.7558941176700991,-0.28253934485826954,-1.6692053848552806,0.141368859197739,2.403396483156416,1.0273679272345013,0.878092876070424,0.7554597494309409,-0.2825552651693207,-1.6690993614607135,0.1414185955172306,2.4034451173676383,1.0273381002308042,-0.00010528911036752058,-0.0001871357536234432,-6.767167115828084e-05,0.0009208575117414778,-0.00028556888133469846,-0.00010480219248488199,0.0016502943680369061,0.0,0.0,0.0,0.0,0.0,0.0,0.0,4.07974761826857e-05,-0.00043436823915821154,-1.5920311051187408e-05,0.00010602339456711185,4.9736319491594516e-05,4.8634211222253754e-05,-2.982700369713598e-05,0.00010528911036752058,0.0001871357536234432,6.767167115828084e-05,-0.0009208575117414778,0.00028556888133469846,0.00010480219248488199,-0.0016502943680369061,0.6568843722343445,46.50039291381836,5.612087726593018,-19.686006546020508,-0.6063743233680725,-2.4301180839538574,0.41965049505233765,0
21,0.09999346733093262,-0.6568843722343445,-46.50039291381836,-5.612087726593018,19.686006546020508,0.6063743233680725,2.4301180839538574,-0.41965049505233765,0.0,0.0,0.0,0.0,0.0,0.0,0.0,-0.6423324477855095,-0.16668990684051072,-0.43776675063736564,0.5290605003493635,0.014766249583127462,0.16615006726936876,-0.37196718211545937,0.8780520785942413,0.7558941176700991,-0.28253934485826954,-1.6692053848552806,0.141368859197739,2.403396483156416,1.0273679272345013,0.878092876070424,0.7554597494309409,-0.2825552651693207,-1.6690993614607135,0.1414185955172306,2.4034451173676383,1.0273381002308042,-0.00010528911036752058,-0.0001871357536234432,-6.767167115828084e-05,0.0009208575117414778,-0.00028556888133469846,-0.00010480219248488199,0.0016502943680369061,0.0,0.0,0.0,0.0,0.0,0.0,0.0,4.07974761826857e-05,-0.00043436823915821154,-1.5920311051187408e-05,0.00010602339456711185,4.9736319491594516e-05,4.8634211222253754e-05,-2.982700369713598e-05,0.00010528911036752058,0.0001871357536234432,6.767167115828084e-05,-0.0009208575117414778,0.00028556888133469846,0.00010480219248488199,-0.0016502943680369061,0.6568843722343445,46.50039291381836,5.612087726593018,-19.686006546020508,-0.6063743233680725,-2.4301180839538574,0.41965049505233765,0
22,0.10494470596313477,-0.6568843722343445,-46.50039291381836,-5.612087726593018,19.686006546020508,0.6063743233680725,2.4301180839538574,-0.41965049505233765,0.0,0.0,0.0,0.0,0.0,0.0,0.0,-0.6423324477855095,-0.16668990684051072,-0.43776675063736564,0.5290605003493635,0.014766249583127462,0.16615006726936876,-0.37196718211545937,0.8780520785942413,0.7558941176700991,-0.28253934485826954,-1.6692053848552806,0.141368859197739,2.403396483156416,1.0273679272345013,0.878092876070424,0.7554597494309409,-0.2825552651693207,-1.6690993614607135,0.1414185955172306,2.4034451173676383,1.0273381002308042,-0.00010528911036752058,-0.0001871357536234432,-6.767167115828084e-05,0.0009208575117414778,-0.00028556888133469846,-0.00010480219248488199,0.0016502943680369061,0.0,0.0,0.0,0.0,0.0,0.0,0.0,4.07974761826857e-05,-0.00043436823915821154,-1.5920311051187408e-05,0.00010602339456711185,4.9736319491594516e-05,4.8634211222253754e-05,-2.982700369713598e-05,0.00010528911036752058,0.0001871357536234432,6.767167115828084e-05,-0.0009208575117414778,0.00028556888133469846,0.00010480219248488199,-0.0016502943680369061,0.6568843722343445,46.50039291381836,5.612087726593018,-19.686006546020508,-0.6063743233680725,-2.4301180839538574,0.41965049505233765,0
23,0.10999703407287598,-0.6568843722343445,-46.47658920288086,-5.635891437530518,19.757417678833008,0.5999656319618225,2.4365267753601074,-0.39950889348983765,0.0,0.0,0.0,0.0,0.0,0.0,0.0,-0.6420430181413791,-0.16387671295943618,-0.4324356966295282,0.5255852513931131,0.014069612402818905,0.16419459868886313,-0.3734126690701718,0.8780520785942413,0.7558900923891949,-0.28253767441031796,-1.6692080001922316,0.14136650052556293,2.403395771079596,1.027364511424543,0.878092876070424,0.7554597494309409,-0.2825552651693207,-1.6690993614607135,0.1414185955172306,2.4034451173676383,1.0273381002308042,4.070143725942295e-06,-0.0002517520630171394,0.0006363605625201746,-0.0007816246192076097,0.0001222928455086318,-0.00021779757445592124,0.001097757729353889,0.0,0.0,0.0,0.0,0.0,0.0,0.0,4.07974761826857e-05,-0.00043034295825405966,-1.7590759002761303e-05,0.00010863873151811809,5.209499166766718e-05,4.934628804242891e-05,-2.641119373891776e-05,-4.070143725942295e-06,0.0002517520630171394,-0.0006363605625201746,0.0007816246192076097,-0.0001222928455086318,0.00021779757445592124,-0.001097757729353889,0.6568843722343445,46.47658920288086,5.635891437530518,-19.757417678833008,-0.5999656319618225,-2.4365267753601074,0.39950889348983765,0
24,0.1149449348449707,-0.6568843722343445,-46.47658920288086,-5.635891437530518,19.757417678833008,0.5999656319618225,2.4365267753601074,-0.39950889348983765,0.0,0.0,0.0,0.0,0.0,0.0,0.0,-0.6420430181413791,-0.16387671295943618,-0.4324356966295282,0.5255852513931131,0.014069612402818905,0.16419459868886313,-0.3734126690701718,0.8780520785942413,0.7558900923891949,-0.28253767441031796,-1.6692080001922316,0.14136650052556293,2.403395771079596,1.027364511424543,0.878092876070424,0.7554597494309409,-0.2825552651693207,-1.6690993614607135,0.1414185955172306,2.4034451173676383,1.0273381002308042,4.070143725942295e-06,-0.0002517520630171394,0.0006363605625201746,-0.0007816246192076097,0.0001222928455086318,-0.00021779757445592124,0.001097757729353889,0.0,0.0,0.0,0.0,0.0,0.0,0.0,4.07974761826857e-05,-0.00043034295825405966,-1.7590759002761303e-05,0.00010863873151811809,5.209499166766718e-05,4.934628804242891e-05,-2.641119373891776e-05,-4.070143725942295e-06,0.0002517520630171394,-0.0006363605625201746,0.0007816246192076097,-0.0001222928455086318,0.00021779757445592124,-0.001097757729353889,0.6568843722343445,46.47658920288086,5.635891437530518,-19.757417678833008,-0.5999656319618225,-2.4365267753601074,0.39950889348983765,0
25,0.11994600296020508,-0.6568843722343445,-46.54800033569336,-5.564480304718018,19.785188674926758,0.5944724678993225,2.4365267753601074,-0.34457725286483765,0.0,0.0,0.0,0.0,0.0,0.0,0.0,-0.6411440795242211,-0.17304062507468942,-0.43478849829403016,0.5310727453315199,0.014399657527424064,0.16466444475551648,-0.3732397258046285,0.8780520785942413,0.7558960401700031,-0.2825426857178671,-1.6692094563975992,0.1413669947699746,2.4033957710795932,1.0273594927396312,0.878092876070424,0.7554597494309409,-0.2825552651693207,-1.6690993614607135,0.1414185955172306,2.4034451173676383,1.0273381002308042,0.000651960818949043,0.0013366092262758486,-0.0011846845873587522,-0.0015724441547958058,0.00021438488624539874,-0.00016236190964337332,-0.0013105774522995887,0.0,0.0,0.0,0.0,0.0,0.0,0.0,4.07974761826857e-05,-0.0004362907390622617,-1.257945145360928e-05,0.00011009493688574068,5.160074725599206e-05,4.9346288045093445e-05,-2.139250882704502e-05,-0.000651960818949043,-0.0013366092262758486,0.0011846845873587522,0.0015724441547958058,-0.00021438488624539874,0.00016236190964337332,0.0013105774522995887,0.6568843722343445,46.54800033569336,5.564480304718018,-19.785188674926758,-0.5944724678993225,-2.4365267753601074,0.34457725286483765,0
26,0.12499785423278809,-0.6568843722343445,-46.54800033569336,-5.564480304718018,19.785188674926758,0.5944724678993225,2.4365267753601074,-0.34457725286483765,0.0,0.0,0.0,0.0,0.0,0.0,0.0,-0.6411440795242211,-0.17304062507468942,-0.43478849829403016,0.5310727453315199,0.014399657527424064,0.16466444475551648,-0.3732397258046285,0.8780520785942413,0.7558960401700031,-0.2825426857178671,-1.6692094563975992,0.1413669947699746,2.4033957710795932,1.0273594927396312,0.878092876070424,0.7554597494309409,-0.2825552651693207,-1.6690993614607135,0.1414185955172306,2.4034451173676383,1.0273381002308042,0.000651960818949043,0.0013366092262758486,-0.0011846845873587522,-0.0015724441547958058,0.00021438488624539874,-0.00016236190964337332,-0.0013105774522995887,0.0,0.0,0.0,0.0,0.0,0.0,0.0,4.07974761826857e-05,-0.0004362907390622617,-1.257945145360928e-05,0.00011009493688574068,5.160074725599206e-05,4.9346288045093445e-05,-2.139250882704502e-05,-0.000651960818949043,-0.0013366092262758486,0.0011846845873587522,0.0015724441547958058,-0.00021438488624539874,0.00016236190964337332,0.0013105774522995887,0.6568843722343445,46.54800033569336,5.564480304718018,-19.785188674926758,-0.5944724678993225,-2.4365267753601074,0.34457725286483765,0
27,0.12999463081359863,-0.6053096652030945,-46.54800033569336,-5.635891437530518,19.733613967895508,0.5999656319618225,2.4301180839538574,-0.37204307317733765,0.0,0.0,0.0,0.0,0.0,0.0,0.0,-0.6475688808182187,-0.16609925512567483,-0.4412329044500606,0.5272884052549476,0.0146486825168724,0.16423787919097002,-0.3738477701421103,0.8780484593165548,0.7558958308526613,-0.28253982021385204,-1.6692087168818623,0.1413663824200743,2.403396483156416,1.0273626244442506,0.878092876070424,0.7554597494309409,-0.2825552651693207,-1.6690993614607135,0.1414185955172306,2.4034451173676383,1.0273381002308042,-0.0008899792113482904,0.0015382576752511505,0.00046081372327946076,-0.00039455762258433535,-0.00011677893718652828,0.00011202499428845555,-0.0001292730360997103,0.0,0.0,0.0,0.0,0.0,0.0,0.0,4.441675386912536e-05,-0.00043608142172046893,-1.5444955468679744e-05,0.0001093554211488712,5.2213097156306176e-05,4.8634211222253754e-05,-2.4524213446452947e-05,0.0008899792113482904,-0.0015382576752511505,-0.00046081372327946076,0.00039455762258433535,0.00011677893718652828,-0.00011202499428845555,0.0001292730360997103,0.6053096652030945,46.54800033569336,5.635891437530518,-19.733613967895508,-0.5999656319618225,-2.4301180839538574,0.37204307317733765,0
28,0.13529038429260254,-0.6053096652030945,-46.54800033569336,-5.635891437530518,19.733613967895508,0.5999656319618225,2.4301180839538574,-0.37204307317733765,0.0,0.0,0.0,0.0,0.0,0.0,0.0,-0.6475688808182187,-0.16609925512567483,-0.4412329044500606,0.5272884052549476,0.0146486825168724,0.16423787919097002,-0.3738477701421103,0.8780484593165548,0.7558958308526613,-0.28253982021385204,-1.6692087168818623,0.1413663824200743,2.403396483156416,1.0273626244442506,0.878092876070424,0.7554597494309409,-0.2825552651693207,-1.6690993614607135,0.1414185955172306,2.4034451173676383,1.0273381002308042,-0.0008899792113482904,0.0015382576752511505,0.00046081372327946076,-0.00039455762258433535,-0.00011677893718652828,0.00011202499428845555,-0.0001292730360997103,0.0,0.0,0.0,0.0,0.0,0.0,0.0,4.441675386912536e-05,-0.00043608142172046893,-1.5444955468679744e-05,0.0001093554211488712,5.2213097156306176e-05,4.8634211222253754e-05,-2.4524213446452947e-05,0.0008899792113482904,-0.0015382576752511505,-0.00046081372327946076,0.00039455762258433535,0.00011677893718652828,-0.00011202499428845555,0.0001292730360997103,0.6053096652030945,46.54800033569336,5.635891437530518,-19.733613967895508,-0.5999656319618225,-2.4301180839538574,0.37204307317733765,0
29,0.14000725746154785,-0.6291133761405945,-46.54800033569336,-5.612087726593018,19.757417678833008,0.5880637764930725,2.4365267753601074,-0.40591758489608765,0.0,0.0,0.0,0.0,0.0,0.0,0.0,-0.6403249003071245,-0.17329691041796774,-0.43766879655325036,0.5316043367979716,0.01455047294452875,0.1653180494989907,-0.37465064280750726,0.87805012975241,0.7558958019978343,-0.28253934485826976,-1.669210395837243,0.14136782295394826,2.403396124292303,1.0273664391535962,0.878092876070424,0.7554597494309409,-0.2825552651693207,-1.6690993614607135,0.1414185955172306,2.4034451173676383,1.0273381002308042,9.89252465512631e-05,0.0011874481963657963,0.00014137860096424538,-0.0006728885911295649,0.0003063374324532633,-6.326920998597064e-05,0.0016608656399560058,0.0,0.0,0.0,0.0,0.0,0.0,0.0,4.274631801393092e-05,-0.0004360525668934967,-1.5920311050965363e-05,0.00011103437652959514,5.077256328234192e-05,4.899307533534625e-05,-2.833892279197059e-05,-9.89252465512631e-05,-0.0011874481963657963,-0.00014137860096424538,0.0006728885911295649,-0.0003063374324532633,6.326920998597064e-05,-0.0016608656399560058,0.6291133761405945,46.54800033569336,5.612087726593018,-19.757417678833008,-0.5880637764930725,-2.4365267753601074,0.40591758489608765,0
30,0.14501619338989258,-0.6291133761405945,-46.54800033569336,-5.612087726593018,19.757417678833008,0.5880637764930725,2.4365267753601074,-0.40591758489608765,0.0,0.0,0.0,0.0,0.0,0.0,0.0,-0.6403249003071245,-0.17329691041796774,-0.43766879655325036,0.5316043367979716,0.01455047294452875,0.1653180494989907,-0.37465064280750726,0.87805012975241,0.7558958019978343,-0.28253934485826976,-1.669210395837243,0.14136782295394826,2.403396124292303,1.0273664391535962,0.878092876070424,0.7554597494309409,-0.2825552651693207,-1.6690993614607135,0.1414185955172306,2.4034451173676383,1.0273381002308042,9.89252465512631e-05,0.0011874481963657963,0.00014137860096424538,-0.0006728885911295649,0.0003063374324532633,-6.326920998597064e-05,0.0016608656399560058,0.0,0.0,0.0,0.0,0.0,0.0,0.0,4.274631801393092e-05,-0.0004360525668934967,-1.5920311050965363e-05,0.00011103437652959514,5.077256328234192e-05,4.899307533534625e-05,-2.833892279197059e-05,-9.89252465512631e-05,-0.0011874481963657963,-0.00014137860096424538,0.0006728885911295649,-0.0003063374324532633,6.326920998597064e-05,-0.0016608656399560058,0.6291133761405945,46.54800033569336,5.612087726593018,-19.757417678833008,-0.5880637764930725,-2.4365267753601074,0.40591758489608765,0
31,0.1500096321105957,-0.6291133761405945,-46.54800033569336,-5.612087726593018,19.757417678833008,0.5880637764930725,2.4365267753601074,-0.40591758489608765,0.0,0.0,0.0,0.0,0.0,0.0,0.0,-0.6403249003071245,-0.17329691041796774,-0.43766879655325036,0.5316043367979716,0.01455047294452875,0.1653180494989907,-0.37465064280750726,0.87805012975241,0.7558958019978343,-0.28253934485826976,-1.669210395837243,0.14136782295394826,2.403396124292303,1.0273664391535962,0.878092876070424,0.7554597494309409,-0.2825552651693207,-1.6690993614607135,0.1414185955172306,2.4034451173676383,1.0273381002308042,9.89252465512631e-05,0.0011874481963657963,0.00014137860096424538,-0.0006728885911295649,0.0003063374324532633,-6.326920998597064e-05,0.0016608656399560058,0.0,0.0,0.0,0.0,0.0,0.0,0.0,4.274631801393092e-05,-0.0004360525668934967,-1.5920311050965363e-05,0.00011103437652959514,5.077256328234192e-05,4.899307533534625e-05,-2.833892279197059e-05,-9.89252465512631e-05,-0.0011874481963657963,-0.00014137860096424538,0.0006728885911295649,-0.0003063374324532633,6.326920998597064e-05,-0.0016608656399560058,0.6291133761405945,46.54800033569336,5.612087726593018,-19.757417678833008,-0.5880637764930725,-2.4365267753601074,0.40591758489608765,0
32,0.1549983024597168,-0.6291133761405945,-46.54800033569336,-5.612087726593018,19.757417678833008,0.5880637764930725,2.4365267753601074,-0.40591758489608765,0.0,0.0,0.0,0.0,0.0,0.0,0.0,-0.6403249003071245,-0.17329691041796774,-0.43766879655325036,0.5316043367979716,0.01455047294452875,0.1653180494989907,-0.37465064280750726,0.87805012975241,0.7558958019978343,-0.28253934485826976,-1.669210395837243,0.14136782295394826,2.403396124292303,1.0273664391535962,0.878092876070424,0.7554597494309409,-0.2825552651693207,-1.6690993614607135,0.1414185955172306,2.4034451173676383,1.0273381002308042,9.89252465512631e-05,0.0011874481963657963,0.00014137860096424538,-0.0006728885911295649,0.0003063374324532633,-6.326920998597064e-05,0.0016608656399560058,0.0,0.0,0.0,0.0,0.0,0.0,0.0,4.274631801393092e-05,-0.0004360525668934967,-1.5920311050965363e-05,0.00011103437652959514,5.077256328234192e-05,4.899307533534625e-05,-2.833892279197059e-05,-9.89252465512631e-05,-0.0011874481963657963,-0.00014137860096424538,0.0006728885911295649,-0.0003063374324532633,6.326920998597064e-05,-0.0016608656399560058,0.6291133761405945,46.54800033569336,5.612087726593018,-19.757417678833008,-0.5880637764930725,-2.4365267753601074,0.40591758489608765,0
33,0.16002464294433594,-0.6053096652030945,-46.47658920288086,-5.588284015655518,19.757417678833008,0.6063743233680725,2.4237093925476074,-0.37845176458358765,0.0,0.0,0.0,0.0,0.0,0.0,0.0,-0.6400571273909343,-0.1651439717823432,-0.43602939881864217,0.526894328859039,0.014164076179807299,0.16520751607451287,-0.37433816853699514,0.8780484593165548,0.7558931222438688,-0.2825410152820121,-1.6692101534941228,0.14136567034524022,2.4033971952392204,1.0273633873960542,0.878092876070424,0.7554597494309409,-0.2825552651693207,-1.6690993614607135,0.1414185955172306,2.4034451173676383,1.0273381002308042,-0.00061262678799522,-0.0003205729048992381,-0.00025362010659714336,-0.0008088806034731786,-0.00022341916832579624,0.00044727159955018625,0.0004116657939354808,0.0,0.0,0.0,0.0,0.0,0.0,0.0,4.441675386912536e-05,-0.0004333728129279901,-1.4249887308637188e-05,0.00011079203340935706,5.292517199037561e-05,4.7922128417976495e-05,-2.5287165249965327e-05,0.00061262678799522,0.0003205729048992381,0.00025362010659714336,0.0008088806034731786,0.00022341916832579624,-0.00044727159955018625,-0.0004116657939354808,0.6053096652030945,46.47658920288086,5.588284015655518,-19.757417678833008,-0.6063743233680725,-2.4237093925476074,0.37845176458358765,0
34,0.16499948501586914,-0.6053096652030945,-46.47658920288086,-5.588284015655518,19.757417678833008,0.6063743233680725,2.4237093925476074,-0.37845176458358765,0.0,0.0,0.0,0.0,0.0,0.0,0.0,-0.6400571273909343,-0.1651439717823432,-0.43602939881864217,0.526894328859039,0.014164076179807299,0.16520751607451287,-0.37433816853699514,0.8780484593165548,0.7558931222438688,-0.2825410152820121,-1.6692101534941228,0.14136567034524022,2.4033971952392204,1.0273633873960542,0.878092876070424,0.7554597494309409,-0.2825552651693207,-1.6690993614607135,0.1414185955172306,2.4034451173676383,1.0273381002308042,-0.00061262678799522,-0.0003205729048992381,-0.00025362010659714336,-0.0008088806034731786,-0.00022341916832579624,0.00044727159955018625,0.0004116657939354808,0.0,0.0,0.0,0.0,0.0,0.0,0.0,4.441675386912536e-05,-0.0004333728129279901,-1.4249887308637188e-05,0.00011079203340935706,5.292517199037561e-05,4.7922128417976495e-05,-2.5287165249965327e-05,0.00061262678799522,0.0003205729048992381,0.00025362010659714336,0.0008088806034731786,0.00022341916832579624,-0.00044727159955018625,-0.0004116657939354808,0.6053096652030945,46.47658920288086,5.588284015655518,-19.757417678833008,-0.6063743233680725,-2.4237093925476074,0.37845176458358765,0
35,0.17003726959228516,-0.6291133761405945,-46.47658920288086,-5.612087726593018,19.733613967895508,0.5944724678993225,2.4301180839538574,-0.39950889348983765,0.0,0.0,0.0,0.0,0.0,0.0,0.0,-0.6533007322959392,-0.16979478739676115,-0.4456551726122167,0.5286796048805295,0.015137321594862608,0.16585994672475002,-0.37378735832087057,0.87805012975241,0.7558910943624657,-0.2825393448461566,-1.6692063385987996,0.14136703214012544,2.403396483156416,1.0273657154486637,0.878092876070424,0.7554597494309409,-0.2825552651693207,-1.6690993614607135,0.1414185955172306,2.4034451173676383,1.0273381002308042,-0.00041268545904059415,-9.240876138096943e-05,-0.0003567959605923046,-0.0003479683192901788,0.00019071612022112216,0.00011990050693320783,0.0008617820861494413,0.0,0.0,0.0,0.0,0.0,0.0,0.0,4.274631801393092e-05,-0.0004313449315248574,-1.5920323164109185e-05,0.00010697713808616172,5.1563377105157127e-05,4.8634211222253754e-05,-2.7615217859544572e-05,0.00041268545904059415,9.240876138096943e-05,0.0003567959605923046,0.0003479683192901788,-0.00019071612022112216,-0.00011990050693320783,-0.0008617820861494413,0.6291133761405945,46.47658920288086,5.612087726593018,-19.733613967895508,-0.5944724678993225,-2.4301180839538574,0.39950889348983765,0
36,0.17500853538513184,-0.6291133761405945,-46.47658920288086,-5.612087726593018,19.733613967895508,0.5944724678993225,2.4301180839538574,-0.39950889348983765,0.0,0.0,0.0,0.0,0.0,0.0,0.0,-0.6533007322959392,-0.16979478739676115,-0.4456551726122167,0.5286796048805295,0.015137321594862608,0.16585994672475002,-0.37378735832087057,0.87805012975241,0.7558910943624657,-0.2825393448461566,-1.6692063385987996,0.14136703214012544,2.403396483156416,1.0273657154486637,0.878092876070424,0.7554597494309409,-0.2825552651693207,-1.6690993614607135,0.1414185955172306,2.4034451173676383,1.0273381002308042,-0.00041268545904059415,-9.240876138096943e-05,-0.0003567959605923046,-0.0003479683192901788,0.00019071612022112216,0.00011990050693320783,0.0008617820861494413,0.0,0.0,0.0,0.0,0.0,0.0,0.0,4.274631801393092e-05,-0.0004313449315248574,-1.5920323164109185e-05,0.00010697713808616172,5.1563377105157127e-05,4.8634211222253754e-05,-2.7615217859544572e-05,0.00041268545904059415,9.240876138096943e-05,0.0003567959605923046,0.0003479683192901788,-0.00019071612022112216,-0.00011990050693320783,-0.0008617820861494413,0.6291133761405945,46.47658920288086,5.612087726593018,-19.733613967895508,-0.5944724678993225,-2.4301180839538574,0.39950889348983765,0
37,0.1799910068511963,-0.6291133761405945,-46.50039291381836,-5.635891437530518,19.733613967895508,0.6063743233680725,2.4237093925476074,-0.36471885442733765,0.0,0.0,0.0,0.0,0.0,0.0,0.0,-0.6377569961929211,-0.1723267603701011,-0.4338093744283597,0.5324113806698361,0.014827155792944134,0.16630948180963923,-0.37394331267193065,0.87805012975241,0.7558938833377629,-0.28253838966603867,-1.669208646133135,0.14136673329296082,2.403397195233239,1.0273617452330792,0.878092876070424,0.7554597494309409,-0.2825552651693207,-1.6690993614607135,0.1414185955172306,2.4034451173676383,1.0273381002308042,-0.00041900028158572755,0.0001432054476915674,0.0011109982941204888,1.5062761735430726e-05,-0.00037865371656734746,0.00037505697356733414,-0.0006478892126096388,0.0,0.0,0.0,0.0,0.0,0.0,0.0,4.274631801393092e-05,-0.0004341339068220096,-1.687550328205445e-05,0.00010928467242155016,5.186222426978304e-05,4.792213439941406e-05,-2.364500227503008e-05,0.00041900028158572755,-0.0001432054476915674,-0.0011109982941204888,-1.5062761735430726e-05,0.00037865371656734746,-0.00037505697356733414,0.0006478892126096388,0.6291133761405945,46.50039291381836,5.635891437530518,-19.733613967895508,-0.6063743233680725,-2.4237093925476074,0.36471885442733765,0
38,0.18498969078063965,-0.6291133761405945,-46.50039291381836,-5.635891437530518,19.733613967895508,0.6063743233680725,2.4237093925476074,-0.36471885442733765,0.0,0.0,0.0,0.0,0.0,0.0,0.0,-0.6377569961929211,-0.1723267603701011,-0.4338093744283597,0.5324113806698361,0.014827155792944134,0.16630948180963923,-0.37394331267193065,0.87805012975241,0.7558938833377629,-0.28253838966603867,-1.669208646133135,0.14136673329296082,2.403397195233239,1.0273617452330792,0.878092876070424,0.7554597494309409,-0.2825552651693207,-1.6690993614607135,0.1414185955172306,2.4034451173676383,1.0273381002308042,-0.00041900028158572755,0.0001432054476915674,0.0011109982941204888,1.5062761735430726e-05,-0.00037865371656734746,0.00037505697356733414,-0.0006478892126096388,0.0,0.0,0.0,0.0,0.0,0.0,0.0,4.274631801393092e-05,-0.0004341339068220096,-1.687550328205445e-05,0.00010928467242155016,5.186222426978304e-05,4.792213439941406e-05,-2.364500227503008e-05,0.00041900028158572755,-0.0001432054476915674,-0.0011109982941204888,-1.5062761735430726e-05,0.00037865371656734746,-0.00037505697356733414,0.0006478892126096388,0.6291133761405945,46.50039291381836,5.635891437530518,-19.733613967895508,-0.6063743233680725,-2.4237093925476074,0.36471885442733765,0
39,0.18999004364013672,-0.6568843722343445,-46.47658920288086,-5.564480304718018,19.686006546020508,0.5999656319618225,2.4365267753601074,-0.33084434270858765,0.0,0.0,0.0,0.0,0.0,0.0,0.0,-0.6484558904730756,-0.16513768120780956,-0.43849428905043164,0.5281578507977959,0.014882750973759887,0.16610214346573873,-0.3739089544870413,0.8780520785942413,0.7558921889051274,-0.2825426857582435,-1.66920298886044,0.14136638437018684,2.4033957715641097,1.0273579421519963,0.878092876070424,0.7554597494309409,-0.2825552651693207,-1.6690993614607135,0.1414185955172306,2.4034451173676383,1.0273381002308042,5.199477240307204e-05,-0.00034629882697611696,-0.001593908377773398,0.0010557490617730053,4.085657336568916e-05,-0.00011389523339702066,-0.002182675588330405,0.0,0.0,0.0,0.0,0.0,0.0,0.0,4.07974761826857e-05,-0.00043243947418658557,-1.2579411077240366e-05,0.0001036273997265802,5.221114704376251e-05,4.9345803528666465e-05,-1.9841921192087497e-05,-5.199477240307204e-05,0.00034629882697611696,0.001593908377773398,-0.0010557490617730053,-4.085657336568916e-05,0.00011389523339702066,0.002182675588330405,0.6568843722343445,46.47658920288086,5.564480304718018,-19.686006546020508,-0.5999656319618225,-2.4365267753601074,0.33084434270858765,0
40,0.19500374794006348,-0.6568843722343445,-46.47658920288086,-5.564480304718018,19.686006546020508,0.5999656319618225,2.4365267753601074,-0.33084434270858765,0.0,0.0,0.0,0.0,0.0,0.0,0.0,-0.6484558904730756,-0.16513768120780956,-0.43849428905043164,0.5281578507977959,0.014882750973759887,0.16610214346573873,-0.3739089544870413,0.8780520785942413,0.7558921889051274,-0.2825426857582435,-1.66920298886044,0.14136638437018684,2.4033957715641097,1.0273579421519963,0.878092876070424,0.7554597494309409,-0.2825552651693207,-1.6690993614607135,0.1414185955172306,2.4034451173676383,1.0273381002308042,5.199477240307204e-05,-0.00034629882697611696,-0.001593908377773398,0.0010557490617730053,4.085657336568916e-05,-0.00011389523339702066,-0.002182675588330405,0.0,0.0,0.0,0.0,0.0,0.0,0.0,4.07974761826857e-05,-0.00043243947418658557,-1.2579411077240366e-05,0.0001036273997265802,5.221114704376251e-05,4.9345803528666465e-05,-1.9841921192087497e-05,-5.199477240307204e-05,0.00034629882697611696,0.001593908377773398,-0.0010557490617730053,-4.085657336568916e-05,0.00011389523339702066,0.002182675588330405,0.6568843722343445,46.47658920288086,5.564480304718018,-19.686006546020508,-0.5999656319618225,-2.4365267753601074,0.33084434270858765,0
41,0.19999241828918457,-0.6053096652030945,-46.52419662475586,-5.612087726593018,19.733613967895508,0.5999656319618225,2.4301180839538574,-0.34457725286483765,0.0,0.0,0.0,0.0,0.0,0.0,0.0,-0.6477797252386684,-0.17224720097850782,-0.43659986736896217,0.5331568439983552,0.015341973151571084,0.16693490314323323,-0.37395120201100723,0.8780484593165548,0.7558937591829221,-0.2825393743168881,-1.669208001628906,0.1413663838781666,2.403396522402275,1.0273549939491886,0.878092876070424,0.7554597494309409,-0.2825552651693207,-1.6690993614607135,0.1414185955172306,2.4034451173676383,1.0273381002308042,-0.0014497417798701154,0.0006076324232546252,2.1960024219502336e-05,0.0003487406465647059,8.717026328100635e-05,4.6364871182918176e-05,-0.001643095531672405,0.0,0.0,0.0,0.0,0.0,0.0,0.0,4.441675386912536e-05,-0.000434009751981268,-1.5890852432642877e-05,0.00010864016819245315,5.221163906399262e-05,4.85949653632467e-05,-1.6893718384425327e-05,0.0014497417798701154,-0.0006076324232546252,-2.1960024219502336e-05,-0.0003487406465647059,-8.717026328100635e-05,-4.6364871182918176e-05,0.001643095531672405,0.6053096652030945,46.52419662475586,5.612087726593018,-19.733613967895508,-0.5999656319618225,-2.4301180839538574,0.34457725286483765,0
42,0.20499634742736816,-0.6053096652030945,-46.52419662475586,-5.612087726593018,19.733613967895508,0.5999656319618225,2.4301180839538574,-0.34457725286483765,0.0,0.0,0.0,0.0,0.0,0.0,0.0,-0.6477797252386684,-0.17224720097850782,-0.43659986736896217,0.5331568439983552,0.015341973151571084,0.16693490314323323,-0.37395120201100723,0.8780484593165548,0.7558937591829221,-0.2825393743168881,-1.669208001628906,0.1413663838781666,2.403396522402275,1.0273549939491886,0.878092876070424,0.7554597494309409,-0.2825552651693207,-1.6690993614607135,0.1414185955172306,2.4034451173676383,1.0273381002308042,-0.0014497417798701154,0.0006076324232546252,2.1960024219502336e-05,0.0003487406465647059,8.717026328100635e-05,4.6364871182918176e-05,-0.001643095531672405,0.0,0.0,0.0,0.0,0.0,0.0,0.0,4.441675386912536e-05,-0.000434009751981268,-1.5890852432642877e-05,0.00010864016819245315,5.221163906399262e-05,4.85949653632467e-05,-1.6893718384425327e-05,0.0014497417798701154,-0.0006076324232546252,-2.1960024219502336e-05,-0.0003487406465647059,-8.717026328100635e-05,-4.6364871182918176e-05,0.001643095531672405,0.6053096652030945,46.52419662475586,5.612087726593018,-19.733613967895508,-0.5999656319618225,-2.4301180839538574,0.34457725286483765,0
43,0.2107715606689453,-0.6568843722343445,-46.47658920288086,-5.612087726593018,19.733613967895508,0.5999656319618225,2.4301180839538574,-0.33725303411483765,0.0,0.0,0.0,0.0,0.0,0.0,0.0,-0.6493797185449134,-0.1632050874380655,-0.43578543467764064,0.530168327638882,0.015161307160659356,0.1662518687488202,-0.3753528752714507,0.8780520785942413,0.7558910432771351,-0.2825393448466557,-1.669206579621963,0.1413663824200877,2.4033964831570804,1.0273555139980084,0.878092876070424,0.7554597494309409,-0.2825552651693207,-1.6690993614607135,0.1414185955172306,2.4034451173676383,1.0273381002308042,0.00015702141782933203,-0.0003206417882801242,-0.0003710817482202874,0.0004681622946321457,-5.428399100366221e-05,-1.4389517345118865e-06,-0.0017302354797534894,0.0,0.0,0.0,0.0,0.0,0.0,0.0,4.07974761826857e-05,-0.00043129384619422506,-1.5920322665008424e-05,0.00010721816124958927,5.221309714290023e-05,4.8634210557896296e-05,-1.741376720421073e-05,-0.00015702141782933203,0.0003206417882801242,0.0003710817482202874,-0.0004681622946321457,5.428399100366221e-05,1.4389517345118865e-06,0.0017302354797534894,0.6568843722343445,46.47658920288086,5.612087726593018,-19.733613967895508,-0.5999656319618225,-2.4301180839538574,0.33725303411483765,0
44,0.2149505615234375,-0.6568843722343445,-46.47658920288086,-5.612087726593018,19.733613967895508,0.5999656319618225,2.4301180839538574,-0.33725303411483765,0.0,0.0,0.0,0.0,0.0,0.0,0.0,-0.6493797185449134,-0.1632050874380655,-0.43578543467764064,0.530168327638882,0.015161307160659356,0.1662518687488202,-0.3753528752714507,0.8780520785942413,0.7558910432771351,-0.2825393448466557,-1.669206579621963,0.1413663824200877,2.4033964831570804,1.0273555139980084,0.878092876070424,0.7554597494309409,-0.2825552651693207,-1.6690993614607135,0.1414185955172306,2.4034451173676383,1.0273381002308042,0.00015702141782933203,-0.0003206417882801242,-0.0003710817482202874,0.0004681622946321457,-5.428399100366221e-05,-1.4389517345118865e-06,-0.0017302354797534894,0.0,0.0,0.0,0.0,0.0,0.0,0.0,4.07974761826857e-05,-0.00043129384619422506,-1.5920322665008424e-05,0.00010721816124958927,5.221309714290023e-05,4.8634210557896296e-05,-1.741376720421073e-05,-0.00015702141782933203,0.0003206417882801242,0.0003710817482202874,-0.0004681622946321457,5.428399100366221e-05,1.4389517345118865e-06,0.0017302354797534894,0.6568843722343445,46.47658920288086,5.612087726593018,-19.733613967895508,-0.5999656319618225,-2.4301180839538574,0.33725303411483765,0
45,0.21999335289001465,-0.6568843722343445,-46.47658920288086,-5.588284015655518,19.733613967895508,0.6063743233680725,2.4365267753601074,-0.41324180364608765,0.0,0.0,0.0,0.0,0.0,0.0,0.0,-0.6540813490728614,-0.17807243802618913,-0.4399129555831272,0.5393887797446504,0.01496891609960919,0.16685189860520674,-0.37614383954330916,0.8780520785942413,0.7558929139452771,-0.2825410152941248,-1.6692087257244481,0.14136567036124123,2.4033957710795932,1.0273668614422926,0.878092876070424,0.7554597494309409,-0.2825552651693207,-1.6690993614607135,0.1414185955172306,2.4034451173676383,1.0273381002308042,-0.00011648450239451742,-0.0007699858429041201,-0.0009065043059724703,-6.453357220733197e-05,-0.00034772171370762653,-0.00021747522345633223,0.0017913235518028903,0.0,0.0,0.0,0.0,0.0,0.0,0.0,4.07974761826857e-05,-0.00043316451433628167,-1.4249875195937456e-05,0.00010936426373464592,5.292515598936953e-05,4.9346288045093445e-05,-2.876121148842614e-05,0.00011648450239451742,0.0007699858429041201,0.0009065043059724703,6.453357220733197e-05,0.00034772171370762653,0.00021747522345633223,-0.0017913235518028903,0.6568843722343445,46.47658920288086,5.588284015655518,-19.733613967895508,-0.6063743233680725,-2.4365267753601074,0.41324180364608765,0
46,0.2257680892944336,-0.6568843722343445,-46.47658920288086,-5.588284015655518,19.733613967895508,0.6063743233680725,2.4365267753601074,-0.41324180364608765,0.0,0.0,0.0,0.0,0.0,0.0,0.0,-0.6540813490728614,-0.17807243802618913,-0.4399129555831272,0.5393887797446504,0.01496891609960919,0.16685189860520674,-0.37614383954330916,0.8780520785942413,0.7558929139452771,-0.2825410152941248,-1.6692087257244481,0.14136567036124123,2.4033957710795932,1.0273668614422926,0.878092876070424,0.7554597494309409,-0.2825552651693207,-1.6690993614607135,0.1414185955172306,2.4034451173676383,1.0273381002308042,-0.00011648450239451742,-0.0007699858429041201,-0.0009065043059724703,-6.453357220733197e-05,-0.00034772171370762653,-0.00021747522345633223,0.0017913235518028903,0.0,0.0,0.0,0.0,0.0,0.0,0.0,4.07974761826857e-05,-0.00043316451433628167,-1.4249875195937456e-05,0.00010936426373464592,5.292515598936953e-05,4.9346288045093445e-05,-2.876121148842614e-05,0.00011648450239451742,0.0007699858429041201,0.0009065043059724703,6.453357220733197e-05,0.00034772171370762653,0.00021747522345633223,-0.0017913235518028903,0.6568843722343445,46.47658920288086,5.588284015655518,-19.733613967895508,-0.6063743233680725,-2.4365267753601074,0.41324180364608765,0
47,0.2299494743347168,-0.6291133761405945,-46.47658920288086,-5.588284015655518,19.733613967895508,0.5944724678993225,2.4365267753601074,-0.37845176458358765,0.0,0.0,0.0,0.0,0.0,0.0,0.0,-0.6496340237683029,-0.17010463763919875,-0.4346307213559093,0.536974880414774,0.014504064427414991,0.1664013894188109,-0.37612990261236273,0.87805012975241,0.7558910169660297,-0.2825431875401771,-1.6692079306728407,0.14136699714590337,2.4033957710795932,1.027363336519602,0.878092876070424,0.7554597494309409,-0.2825552651693207,-1.6690993614607135,0.1414185955172306,2.4034451173676383,1.0273381002308042,-0.0008769046897541084,-0.0003824530598575758,-0.0004020844352535199,0.00020789456766229187,4.2626240123925485e-05,1.628587581580654e-05,-0.0002514243650901592,0.0,0.0,0.0,0.0,0.0,0.0,0.0,4.274631801393092e-05,-0.00043126753508881954,-1.2077629143625312e-05,0.00010856921212720749,5.159837132723277e-05,4.9346288045093445e-05,-2.523628879780304e-05,0.0008769046897541084,0.0003824530598575758,0.0004020844352535199,-0.00020789456766229187,-4.2626240123925485e-05,-1.628587581580654e-05,0.0002514243650901592,0.6291133761405945,46.47658920288086,5.588284015655518,-19.733613967895508,-0.5944724678993225,-2.4365267753601074,0.37845176458358765,0
48,0.23496031761169434,-0.6291133761405945,-46.47658920288086,-5.588284015655518,19.733613967895508,0.5944724678993225,2.4365267753601074,-0.37845176458358765,0.0,0.0,0.0,0.0,0.0,0.0,0.0,-0.6496340237683029,-0.17010463763919875,-0.4346307213559093,0.536974880414774,0.014504064427414991,0.1664013894188109,-0.37612990261236273,0.87805012975241,0.7558910169660297,-0.2825431875401771,-1.6692079306728407,0.14136699714590337,2.4033957710795932,1.027363336519602,0.878092876070424,0.7554597494309409,-0.2825552651693207,-1.6690993614607135,0.1414185955172306,2.4034451173676383,1.0273381002308042,-0.0008769046897541084,-0.0003824530598575758,-0.0004020844352535199,0.00020789456766229187,4.2626240123925485e-05,1.628587581580654e-05,-0.0002514243650901592,0.0,0.0,0.0,0.0,0.0,0.0,0.0,4.274631801393092e-05,-0.00043126753508881954,-1.2077629143625312e-05,0.00010856921212720749,5.159837132723277e-05,4.9346288045093445e-05,-2.523628879780304e-05,0.0008769046897541084,0.0003824530598575758,0.0004020844352535199,-0.00020789456766229187,-4.2626240123925485e-05,-1.628587581580654e-05,0.0002514243650901592,0.6291133761405945,46.47658920288086,5.588284015655518,-19.733613967895508,-0.5944724678993225,-2.4365267753601074,0.37845176458358765,0
49,0.23999357223510742,-0.6291133761405945,-46.52419662475586,-5.612087726593018,19.709810256958008,0.5999656319618225,2.4365267753601074,-0.34457725286483765,0.0,0.0,0.0,0.0,0.0,0.0,0.0,-0.652390374387735,-0.1739239955634205,-0.4366061439770216,0.5381658151210684,0.014157105598160722,0.16730254587788515,-0.37634261636201916,0.87805012975241,0.7558962645215669,-0.28253942433127877,-1.669204829066925,0.1413663824200877,2.4033957710795932,1.0273596119327462,0.878092876070424,0.7554597494309409,-0.2825552651693207,-1.6690993614607135,0.1414185955172306,2.4034451173676383,1.0273381002308042,-0.0004450290844972007,0.0005016211186534859,-0.00014580107617308467,0.0005948783964538595,-4.147108511967434e-05,-2.5316680314854167e-05,-0.0014040056972059016,0.0,0.0,0.0,0.0,0.0,0.0,0.0,4.274631801393092e-05,-0.0004365150906260329,-1.584083804195835e-05,0.00010546760621155116,5.221309714290023e-05,4.9346288045093445e-05,-2.15117019419786e-05,0.0004450290844972007,-0.0005016211186534859,0.00014580107617308467,-0.0005948783964538595,4.147108511967434e-05,2.5316680314854167e-05,0.0014040056972059016,0.6291133761405945,46.52419662475586,5.612087726593018,-19.709810256958008,-0.5999656319618225,-2.4365267753601074,0.34457725286483765,0
50,0.2449958324432373,-0.6291133761405945,-46.52419662475586,-5.612087726593018,19.709810256958008,0.5999656319618225,2.4365267753601074,-0.34457725286483765,0.0,0.0,0.0,0.0,0.0,0.0,0.0,-0.652390374387735,-0.1739239955634205,-0.4366061439770216,0.5381658151210684,0.014157105598160722,0.16730254587788515,-0.37634261636201916,0.87805012975241,0.7558962645215669,-0.28253942433127877,-1.669204829066925,0.1413663824200877,2.4033957710795932,1.0273596119327462,0.878092876070424,0.7554597494309409,-0.2825552651693207,-1.6690993614607135,0.1414185955172306,2.4034451173676383,1.0273381002308042,-0.0004450290844972007,0.0005016211186534859,-0.00014580107617308467,0.0005948783964538595,-4.147108511967434e-05,-2.5316680314854167e-05,-0.0014040056972059016,0.0,0.0,0.0,0.0,0.0,0.0,0.0,4.274631801393092e-05,-0.0004365150906260329,-1.584083804195835e-05,0.00010546760621155116,5.221309714290023e-05,4.9346288045093445e-05,-2.15117019419786e-05,0.0004450290844972007,-0.0005016211186534859,0.00014580107617308467,-0.0005948783964538595,4.147108511967434e-05,2.5316680314854167e-05,0.0014040056972059016,0.6291133761405945,46.52419662475586,5.612087726593018,-19.709810256958008,-0.5999656319618225,-2.4365267753601074,0.34457725286483765,0
51,0.25002121925354004,-0.6291133761405945,-46.50039291381836,-5.612087726593018,19.757417678833008,0.5944724678993225,2.4301180839538574,-0.34457725286483765,0.0,0.0,0.0,0.0,0.0,0.0,0.0,-0.6585892535035118,-0.16265982132613244,-0.43854306903151646,0.530506382394508,0.014263240802385722,0.1672424848028661,-0.3764749424290407,0.87805012975241,0.7558919853203474,-0.28254006893266037,-1.6692103696608216,0.1413669971999067,2.403396483156416,1.027356314796493,0.878092876070424,0.7554597494309409,-0.2825552651693207,-1.6690993614607135,0.1414185955172306,2.4034451173676383,1.0273381002308042,-0.0005817215077597478,0.00030093815805451923,-0.00015028289516145883,-0.0006090396552145178,9.79938795179516e-05,0.000141449781076748,-0.0009316436589601585,0.0,0.0,0.0,0.0,0.0,0.0,0.0,4.274631801393092e-05,-0.00043223588940655144,-1.519623666035308e-05,0.00011100820010812029,5.159831732390319e-05,4.8634211222253754e-05,-1.8214565688845497e-05,0.0005817215077597478,-0.00030093815805451923,0.00015028289516145883,0.0006090396552145178,-9.79938795179516e-05,-0.000141449781076748,0.0009316436589601585,0.6291133761405945,46.50039291381836,5.612087726593018,-19.757417678833008,-0.5944724678993225,-2.4301180839538574,0.34457725286483765,0
52,0.2549912929534912,-0.6291133761405945,-46.50039291381836,-5.612087726593018,19.757417678833008,0.5944724678993225,2.4301180839538574,-0.34457725286483765,0.0,0.0,0.0,0.0,0.0,0.0,0.0,-0.6585892535035118,-0.16265982132613244,-0.43854306903151646,0.530506382394508,0.014263240802385722,0.1672424848028661,-0.3764749424290407,0.87805012975241,0.7558919853203474,-0.28254006893266037,-1.6692103696608216,0.1413669971999067,2.403396483156416,1.027356314796493,0.878092876070424,0.7554597494309409,-0.2825552651693207,-1.6690993614607135,0.1414185955172306,2.4034451173676383,1.0273381002308042,-0.0005817215077597478,0.00030093815805451923,-0.00015028289516145883,-0.0006090396552145178,9.79938795179516e-05,0.000141449781076748,-0.0009316436589601585,0.0,0.0,0.0,0.0,0.0,0.0,0.0,4.274631801393092e-05,-0.00043223588940655144,-1.519623666035308e-05,0.00011100820010812029,5.159831732390319e-05,4.8634211222253754e-05,-1.8214565688845497e-05,0.0005817215077597478,-0.00030093815805451923,0.00015028289516145883,0.0006090396552145178,-9.79938795179516e-05,-0.000141449781076748,0.0009316436589601585,0.6291133761405945,46.50039291381836,5.612087726593018,-19.757417678833008,-0.5944724678993225,-2.4301180839538574,0.34457725286483765,0
53,0.26000022888183594,-0.6291133761405945,-46.47658920288086,-5.588284015655518,19.757417678833008,0.5999656319618225,2.4237093925476074,-0.34457725286483765,0.0,0.0,0.0,0.0,0.0,0.0,0.0,-0.6422144110748053,-0.1737666865239764,-0.42864567335010323,0.5386849532231682,0.014162547187847553,0.16854000265545668,-0.3756807582226596,0.87805012975241,0.7558924463329278,-0.282541094767134,-1.6692101476068009,0.14136638290616887,2.403397195233239,1.0273585522388533,0.878092876070424,0.7554597494309409,-0.2825552651693207,-1.6690993614607135,0.1414185955172306,2.4034451173676383,1.0273381002308042,1.033670110508256e-05,-0.0004362307718595361,-0.00035146581062762446,-4.7252483720570714e-05,1.7193563393349297e-05,0.00019671273207314558,-0.0011399610698274985,0.0,0.0,0.0,0.0,0.0,0.0,0.0,4.274631801393092e-05,-0.0004326969019869953,-1.4170402186708397e-05,0.00011078614608739379,5.221261106172492e-05,4.792213439941406e-05,-2.0452008049121062e-05,-1.033670110508256e-05,0.0004362307718595361,0.00035146581062762446,4.7252483720570714e-05,-1.7193563393349297e-05,-0.00019671273207314558,0.0011399610698274985,0.6291133761405945,46.47658920288086,5.588284015655518,-19.757417678833008,-0.5999656319618225,-2.4237093925476074,0.34457725286483765,0
54,0.2649972438812256,-0.6291133761405945,-46.47658920288086,-5.588284015655518,19.757417678833008,0.5999656319618225,2.4237093925476074,-0.34457725286483765,0.0,0.0,0.0,0.0,0.0,0.0,0.0,-0.6422144110748053,-0.1737666865239764,-0.42864567335010323,0.5386849532231682,0.014162547187847553,0.16854000265545668,-0.3756807582226596,0.87805012975241,0.7558924463329278,-0.282541094767134,-1.6692101476068009,0.14136638290616887,2.403397195233239,1.0273585522388533,0.878092876070424,0.7554597494309409,-0.2825552651693207,-1.6690993614607135,0.1414185955172306,2.4034451173676383,1.0273381002308042,1.033670110508256e-05,-0.0004362307718595361,-0.00035146581062762446,-4.7252483720570714e-05,1.7193563393349297e-05,0.00019671273207314558,-0.0011399610698274985,0.0,0.0,0.0,0.0,0.0,0.0,0.0,4.274631801393092e-05,-0.0004326969019869953,-1.4170402186708397e-05,0.00011078614608739379,5.221261106172492e-05,4.792213439941406e-05,-2.0452008049121062e-05,-1.033670110508256e-05,0.0004362307718595361,0.00035146581062762446,4.7252483720570714e-05,-1.7193563393349297e-05,-0.00019671273207314558,0.0011399610698274985,0.6291133761405945,46.47658920288086,5.588284015655518,-19.757417678833008,-0.5999656319618225,-2.4237093925476074,0.34457725286483765,0
55,0.2700040340423584,-0.6568843722343445,-46.50039291381836,-5.588284015655518,19.757417678833008,0.5999656319618225,2.4173007011413574,-0.37204307317733765,0.0,0.0,0.0,0.0,0.0,0.0,0.0,-0.6572582945837254,-0.1676941134202289,-0.43982097550494503,0.5353393737306469,0.014724633688914501,0.1672663165349521,-0.3755067515023112,0.8780520785942413,0.7558926980276585,-0.2825410153914768,-1.6692103961629388,0.14136638242006574,2.403397907310062,1.027361224508549,0.878092876070424,0.7554597494309409,-0.2825552651693207,-1.6690993614607135,0.1414185955172306,2.4034451173676383,1.0273381002308042,0.000299833365473439,-9.74822227297842e-05,-0.0005888341948125278,-0.000764631579640826,-7.153784153534684e-05,0.0006225010032394493,-6.427748617182104e-06,0.0,0.0,0.0,0.0,0.0,0.0,0.0,4.07974761826857e-05,-0.0004329485967176083,-1.4249777843922118e-05,0.00011103470222528777,5.2213097164854894e-05,4.721005757613028e-05,-2.3124277744868138e-05,-0.000299833365473439,9.74822227297842e-05,0.0005888341948125278,0.000764631579640826,7.153784153534684e-05,-0.0006225010032394493,6.427748617182104e-06,0.6568843722343445,46.50039291381836,5.588284015655518,-19.757417678833008,-0.5999656319618225,-2.4173007011413574,0.37204307317733765,0
56,0.2749910354614258,-0.6568843722343445,-46.50039291381836,-5.588284015655518,19.757417678833008,0.5999656319618225,2.4173007011413574,-0.37204307317733765,0.0,0.0,0.0,0.0,0.0,0.0,0.0,-0.6572582945837254,-0.1676941134202289,-0.43982097550494503,0.5353393737306469,0.014724633688914501,0.1672663165349521,-0.3755067515023112,0.8780520785942413,0.7558926980276585,-0.2825410153914768,-1.6692103961629388,0.14136638242006574,2.403397907310062,1.027361224508549,0.878092876070424,0.7554597494309409,-0.2825552651693207,-1.6690993614607135,0.1414185955172306,2.4034451173676383,1.0273381002308042,0.000299833365473439,-9.74822227297842e-05,-0.0005888341948125278,-0.000764631579640826,-7.153784153534684e-05,0.0006225010032394493,-6.427748617182104e-06,0.0,0.0,0.0,0.0,0.0,0.0,0.0,4.07974761826857e-05,-0.0004329485967176083,-1.4249777843922118e-05,0.00011103470222528777,5.2213097164854894e-05,4.721005757613028e-05,-2.3124277744868138e-05,-0.000299833365473439,9.74822227297842e-05,0.0005888341948125278,0.000764631579640826,7.153784153534684e-05,-0.0006225010032394493,6.427748617182104e-06,0.6568843722343445,46.50039291381836,5.588284015655518,-19.757417678833008,-0.5999656319618225,-2.4173007011413574,0.37204307317733765,0
57,0.27999305725097656,-0.6568843722343445,-46.54800033569336,-5.612087726593018,19.733613967895508,0.5999656319618225,2.4301180839538574,-0.38577598333358765,0.0,0.0,0.0,0.0,0.0,0.0,0.0,-0.6514649977455207,-0.18252791803166313,-0.4380019977848536,0.5427141610581584,0.014570076719544453,0.16799837997283829,-0.3746914971001355,0.8780520785942413,0.7558958751495979,-0.2825393449551735,-1.6692087256921477,0.14136639554289632,2.403396483156416,1.0273606705164167,0.878092876070424,0.7554597494309409,-0.2825552651693207,-1.6690993614607135,0.1414185955172306,2.4034451173676383,1.0273381002308042,0.00024268111975227997,0.0005507249570436709,1.5660135847495562e-06,-0.00015393408852556702,-4.622433169607382e-05,5.229771888747419e-05,0.0005859288130540875,0.0,0.0,0.0,0.0,0.0,0.0,0.0,4.07974761826857e-05,-0.0004361257186570322,-1.592021414720257e-05,0.00010936423143426133,5.2199974334282695e-05,4.8634211222253754e-05,-2.2570285612477647e-05,-0.00024268111975227997,-0.0005507249570436709,-1.5660135847495562e-06,0.00015393408852556702,4.622433169607382e-05,-5.229771888747419e-05,-0.0005859288130540875,0.6568843722343445,46.54800033569336,5.612087726593018,-19.733613967895508,-0.5999656319618225,-2.4301180839538574,0.38577598333358765,0
58,0.2850210666656494,-0.6568843722343445,-46.54800033569336,-5.612087726593018,19.733613967895508,0.5999656319618225,2.4301180839538574,-0.38577598333358765,0.0,0.0,0.0,0.0,0.0,0.0,0.0,-0.6514649977455207,-0.18252791803166313,-0.4380019977848536,0.5427141610581584,0.014570076719544453,0.16799837997283829,-0.3746914971001355,0.8780520785942413,0.7558958751495979,-0.2825393449551735,-1.6692087256921477,0.14136639554289632,2.403396483156416,1.0273606705164167,0.878092876070424,0.7554597494309409,-0.2825552651693207,-1.6690993614607135,0.1414185955172306,2.4034451173676383,1.0273381002308042,0.00024268111975227997,0.0005507249570436709,1.5660135847495562e-06,-0.00015393408852556702,-4.622433169607382e-05,5.229771888747419e-05,0.0005859288130540875,0.0,0.0,0.0,0.0,0.0,0.0,0.0,4.07974761826857e-05,-0.0004361257186570322,-1.592021414720257e-05,0.00010936423143426133,5.2199974334282695e-05,4.8634211222253754e-05,-2.2570285612477647e-05,-0.00024268111975227997,-0.0005507249570436709,-1.5660135847495562e-06,0.00015393408852556702,4.622433169607382e-05,-5.229771888747419e-05,-0.0005859288130540875,0.6568843722343445,46.54800033569336,5.612087726593018,-19.733613967895508,-0.5999656319618225,-2.4301180839538574,0.38577598333358765,0
59,0.2900087833404541,-0.6568843722343445,-46.54800033569336,-5.612087726593018,19.733613967895508,0.5999656319618225,2.4301180839538574,-0.38577598333358765,0.0,0.0,0.0,0.0,0.0,0.0,0.0,-0.6514649977455207,-0.18252791803166313,-0.4380019977848536,0.5427141610581584,0.014570076719544453,0.16799837997283829,-0.3746914971001355,0.8780520785942413,0.7558958751495979,-0.2825393449551735,-1.6692087256921477,0.14136639554289632,2.403396483156416,1.0273606705164167,0.878092876070424,0.7554597494309409,-0.2825552651693207,-1.6690993614607135,0.1414185955172306,2.4034451173676383,1.0273381002308042,0.00024268111975227997,0.0005507249570436709,1.5660135847495562e-06,-0.00015393408852556702,-4.622433169607382e-05,5.229771888747419e-05,0.0005859288130540875,0.0,0.0,0.0,0.0,0.0,0.0,0.0,4.07974761826857e-05,-0.0004361257186570322,-1.592021414720257e-05,0.00010936423143426133,5.2199974334282695e-05,4.8634211222253754e-05,-2.2570285612477647e-05,-0.00024268111975227997,-0.0005507249570436709,-1.5660135847495562e-06,0.00015393408852556702,4.622433169607382e-05,-5.229771888747419e-05,-0.0005859288130540875,0.6568843722343445,46.54800033569336,5.612087726593018,-19.733613967895508,-0.5999656319618225,-2.4301180839538574,0.38577598333358765,0
60,0.29500699043273926,-0.6568843722343445,-46.54800033569336,-5.612087726593018,19.733613967895508,0.5999656319618225,2.4301180839538574,-0.38577598333358765,0.0,0.0,0.0,0.0,0.0,0.0,0.0,-0.6514649977455207,-0.18252791803166313,-0.4380019977848536,0.5427141610581584,0.014570076719544453,0.16799837997283829,-0.3746914971001355,0.8780520785942413,0.7558958751495979,-0.2825393449551735,-1.6692087256921477,0.14136639554289632,2.403396483156416,1.0273606705164167,0.878092876070424,0.7554597494309409,-0.2825552651693207,-1.6690993614607135,0.1414185955172306,2.4034451173676383,1.0273381002308042,0.00024268111975227997,0.0005507249570436709,1.5660135847495562e-06,-0.00015393408852556702,-4.622433169607382e-05,5.229771888747419e-05,0.0005859288130540875,0.0,0.0,0.0,0.0,0.0,0.0,0.0,4.07974761826857e-05,-0.0004361257186570322,-1.592021414720257e-05,0.00010936423143426133,5.2199974334282695e-05,4.8634211222253754e-05,-2.2570285612477647e-05,-0.00024268111975227997,-0.0005507249570436709,-1.5660135847495562e-06,0.00015393408852556702,4.622433169607382e-05,-5.229771888747419e-05,-0.0005859288130540875,0.6568843722343445,46.54800033569336,5.612087726593018,-19.733613967895508,-0.5999656319618225,-2.4301180839538574,0.38577598333358765,0
61,0.3000025749206543,-0.6568843722343445,-46.57577133178711,-5.588284015655518,19.709810256958008,0.5944724678993225,2.4237093925476074,-0.39950889348983765,0.0,0.0,0.0,0.0,0.0,0.0,0.0,-0.644841937763884,-0.17080213528464308,-0.4326990570128145,0.5344843281937636,0.013990527029239376,0.1667191078406496,-0.3741894144759446,0.8780520785942413,0.7558980540438703,-0.28254125664403207,-1.669206728461858,0.14136699277184772,2.403397195233239,1.027365689224945,0.878092876070424,0.7554597494309409,-0.2825552651693207,-1.6690993614607135,0.1414185955172306,2.4034451173676383,1.0273381002308042,0.00012030642714739171,0.0015098422110783696,-0.0004464012029669784,0.0001297229639110128,0.00020614260897145966,0.0004040662027788917,0.0007665445205444611,0.0,0.0,0.0,0.0,0.0,0.0,0.0,4.07974761826857e-05,-0.0004383046129294854,-1.4008525288655704e-05,0.00010736700114444275,5.1602745382878235e-05,4.792213439941406e-05,-2.7588994140792522e-05,-0.00012030642714739171,-0.0015098422110783696,0.0004464012029669784,-0.0001297229639110128,-0.00020614260897145966,-0.0004040662027788917,-0.0007665445205444611,0.6568843722343445,46.57577133178711,5.588284015655518,-19.709810256958008,-0.5944724678993225,-2.4237093925476074,0.39950889348983765,0
62,0.3049912452697754,-0.6568843722343445,-46.57577133178711,-5.588284015655518,19.709810256958008,0.5944724678993225,2.4237093925476074,-0.39950889348983765,0.0,0.0,0.0,0.0,0.0,0.0,0.0,-0.644841937763884,-0.17080213528464308,-0.4326990570128145,0.5344843281937636,0.013990527029239376,0.1667191078406496,-0.3741894144759446,0.8780520785942413,0.7558980540438703,-0.28254125664403207,-1.669206728461858,0.14136699277184772,2.403397195233239,1.027365689224945,0.878092876070424,0.7554597494309409,-0.2825552651693207,-1.6690993614607135,0.1414185955172306,2.4034451173676383,1.0273381002308042,0.00012030642714739171,0.0015098422110783696,-0.0004464012029669784,0.0001297229639110128,0.00020614260897145966,0.0004040662027788917,0.0007665445205444611,0.0,0.0,0.0,0.0,0.0,0.0,0.0,4.07974761826857e-05,-0.0004383046129294854,-1.4008525288655704e-05,0.00010736700114444275,5.1602745382878235e-05,4.792213439941406e-05,-2.7588994140792522e-05,-0.00012030642714739171,-0.0015098422110783696,0.0004464012029669784,-0.0001297229639110128,-0.00020614260897145966,-0.0004040662027788917,-0.0007665445205444611,0.6568843722343445,46.57577133178711,5.588284015655518,-19.709810256958008,-0.5944724678993225,-2.4237093925476074,0.39950889348983765,0
63,0.3100013732910156,-0.6291133761405945,-46.54800033569336,-5.635891437530518,19.733613967895508,0.5999656319618225,2.4301180839538574,-0.38577598333358765,0.0,0.0,0.0,0.0,0.0,0.0,0.0,-0.6511106420865391,-0.1648664839275074,-0.4378156419060529,0.5312564731021643,0.014275643729718191,0.1664869971568941,-0.3739279561340605,0.8780501384192033,0.755895103730217,-0.282537754210664,-1.6692086462550118,0.14136638242006302,2.403396483156416,1.0273610222657552,0.878092876070424,0.7554597494309409,-0.2825552651693207,-1.6690993614607135,0.1414185955172306,2.4034451173676383,1.0273381002308042,-0.0005968487200092278,0.0017426651038240717,0.000231709988270748,0.00029362415033392926,-7.9486128705191e-05,-0.00011325185801107068,0.0005281689387652786,0.0,0.0,0.0,0.0,0.0,0.0,0.0,4.2737651220647876e-05,-0.0004353542992761028,-1.751095865670793e-05,0.00010928479429828108,5.221309716757494e-05,4.8634211222253754e-05,-2.292203495102285e-05,0.0005968487200092278,-0.0017426651038240717,-0.000231709988270748,-0.00029362415033392926,7.9486128705191e-05,0.00011325185801107068,-0.0005281689387652786,0.6291133761405945,46.54800033569336,5.635891437530518,-19.733613967895508,-0.5999656319618225,-2.4301180839538574,0.38577598333358765,0
64,0.3150153160095215,-0.6291133761405945,-46.54800033569336,-5.635891437530518,19.733613967895508,0.5999656319618225,2.4301180839538574,-0.38577598333358765,0.0,0.0,0.0,0.0,0.0,0.0,0.0,-0.6511106420865391,-0.1648664839275074,-0.4378156419060529,0.5312564731021643,0.014275643729718191,0.1664869971568941,-0.3739279561340605,0.8780501384192033,0.755895103730217,-0.282537754210664,-1.6692086462550118,0.14136638242006302,2.403396483156416,1.0273610222657552,0.878092876070424,0.7554597494309409,-0.2825552651693207,-1.6690993614607135,0.1414185955172306,2.4034451173676383,1.0273381002308042,-0.0005968487200092278,0.0017426651038240717,0.000231709988270748,0.00029362415033392926,-7.9486128705191e-05,-0.00011325185801107068,0.0005281689387652786,0.0,0.0,0.0,0.0,0.0,0.0,0.0,4.2737651220647876e-05,-0.0004353542992761028,-1.751095865670793e-05,0.00010928479429828108,5.221309716757494e-05,4.8634211222253754e-05,-2.292203495102285e-05,0.0005968487200092278,-0.0017426651038240717,-0.000231709988270748,-0.00029362415033392926,7.9486128705191e-05,0.00011325185801107068,-0.0005281689387652786,0.6291133761405945,46.54800033569336,5.635891437530518,-19.733613967895508,-0.5999656319618225,-2.4301180839538574,0.38577598333358765,0
65,0.320023775100708,-0.6291133761405945,-46.50039291381836,-5.588284015655518,19.757417678833008,0.5999656319618225,2.4301180839538574,-0.38577598333358765,0.0,0.0,0.0,0.0,0.0,0.0,0.0,-0.6522407699337252,-0.17549259634211592,-0.4384703793287544,0.5360487629656654,0.014515423232309553,0.16679159466896967,-0.375310289863547,0.8780501297524589,0.7558920661587705,-0.28254101528246234,-1.6692096769835703,0.14136638242006302,2.403396483156416,1.0273630979355723,0.878092876070424,0.7554597494309409,-0.2825552651693207,-1.6690993614607135,0.1414185955172306,2.4034451173676383,1.0273381002308042,-0.000817773870505244,-3.911842265292238e-05,-0.0007292419210807553,-0.0006428105272200208,-0.00022591387562850759,0.00020393629456281128,0.0004037498568507467,0.0,0.0,0.0,0.0,0.0,0.0,0.0,4.2746317965081104e-05,-0.00043231672782961805,-1.424988685838624e-05,0.00011031552285678536,5.221309716757494e-05,4.8634211222253754e-05,-2.4997704768159323e-05,0.000817773870505244,3.911842265292238e-05,0.0007292419210807553,0.0006428105272200208,0.00022591387562850759,-0.00020393629456281128,-0.0004037498568507467,0.6291133761405945,46.50039291381836,5.588284015655518,-19.757417678833008,-0.5999656319618225,-2.4301180839538574,0.38577598333358765,0
66,0.32501816749572754,-0.6291133761405945,-46.50039291381836,-5.588284015655518,19.757417678833008,0.5999656319618225,2.4301180839538574,-0.38577598333358765,0.0,0.0,0.0,0.0,0.0,0.0,0.0,-0.6522407699337252,-0.17549259634211592,-0.4384703793287544,0.5360487629656654,0.014515423232309553,0.16679159466896967,-0.375310289863547,0.8780501297524589,0.7558920661587705,-0.28254101528246234,-1.6692096769835703,0.14136638242006302,2.403396483156416,1.0273630979355723,0.878092876070424,0.7554597494309409,-0.2825552651693207,-1.6690993614607135,0.1414185955172306,2.4034451173676383,1.0273381002308042,-0.000817773870505244,-3.911842265292238e-05,-0.0007292419210807553,-0.0006428105272200208,-0.00022591387562850759,0.00020393629456281128,0.0004037498568507467,0.0,0.0,0.0,0.0,0.0,0.0,0.0,4.2746317965081104e-05,-0.00043231672782961805,-1.424988685838624e-05,0.00011031552285678536,5.221309716757494e-05,4.8634211222253754e-05,-2.4997704768159323e-05,0.000817773870505244,3.911842265292238e-05,0.0007292419210807553,0.0006428105272200208,0.00022591387562850759,-0.00020393629456281128,-0.0004037498568507467,0.6291133761405945,46.50039291381836,5.588284015655518,-19.757417678833008,-0.5999656319618225,-2.4301180839538574,0.38577598333358765,0
67,0.32999372482299805,-0.6053096652030945,-46.50039291381836,-5.612087726593018,19.757417678833008,0.5944724678993225,2.4365267753601074,-0.37845176458358765,0.0,0.0,0.0,0.0,0.0,0.0,0.0,-0.6431336480158774,-0.16902013119391618,-0.4317612710776196,0.5329478941836538,0.013678103678928891,0.16652058620765245,-0.3752735933563526,0.8780484593165548,0.7558924813105834,-0.2825393448461566,-1.6692079845023915,0.14136711087712533,2.4033957710795932,1.027363035630683,0.878092876070424,0.7554597494309409,-0.2825552651693207,-1.6690993614607135,0.1414185955172306,2.4034451173676383,1.0273381002308042,-0.0007554849384290518,0.0003452862092139889,-0.00041797031326699057,-0.0008018331926952832,0.00010060534649927215,-0.00010549873145599622,0.00011928418084955055,0.0,0.0,0.0,0.0,0.0,0.0,0.0,4.441675386912536e-05,-0.000432731879642545,-1.5920323164109185e-05,0.00010862304167802428,5.148464010526488e-05,4.9346288045093445e-05,-2.493539987891147e-05,0.0007554849384290518,-0.0003452862092139889,0.00041797031326699057,0.0008018331926952832,-0.00010060534649927215,0.00010549873145599622,-0.00011928418084955055,0.6053096652030945,46.50039291381836,5.612087726593018,-19.757417678833008,-0.5944724678993225,-2.4365267753601074,0.37845176458358765,0
68,0.33495211601257324,-0.6053096652030945,-46.50039291381836,-5.612087726593018,19.757417678833008,0.5944724678993225,2.4365267753601074,-0.37845176458358765,0.0,0.0,0.0,0.0,0.0,0.0,0.0,-0.6431336480158774,-0.16902013119391618,-0.4317612710776196,0.5329478941836538,0.013678103678928891,0.16652058620765245,-0.3752735933563526,0.8780484593165548,0.7558924813105834,-0.2825393448461566,-1.6692079845023915,0.14136711087712533,2.4033957710795932,1.027363035630683,0.878092876070424,0.7554597494309409,-0.2825552651693207,-1.6690993614607135,0.1414185955172306,2.4034451173676383,1.0273381002308042,-0.0007554849384290518,0.0003452862092139889,-0.00041797031326699057,-0.0008018331926952832,0.00010060534649927215,-0.00010549873145599622,0.00011928418084955055,0.0,0.0,0.0,0.0,0.0,0.0,0.0,4.441675386912536e-05,-0.000432731879642545,-1.5920323164109185e-05,0.00010862304167802428,5.148464010526488e-05,4.9346288045093445e-05,-2.493539987891147e-05,0.0007554849384290518,-0.0003452862092139889,0.00041797031326699057,0.0008018331926952832,-0.00010060534649927215,0.00010549873145599622,-0.00011928418084955055,0.6053096652030945,46.50039291381836,5.612087726593018,-19.757417678833008,-0.5944724678993225,-2.4365267753601074,0.37845176458358765,0
69,0.33994626998901367,-0.6291133761405945,-46.54800033569336,-5.588284015655518,19.757417678833008,0.6063743233680725,2.4365267753601074,-0.37845176458358765,0.0,0.0,0.0,0.0,0.0,0.0,0.0,-0.6453977047211962,-0.18104037318535515,-0.43753120546810614,0.5386243142067261,0.013445583129522334,0.1675405215612515,-0.3747804017991286,0.87805012975241,0.7558950914990605,-0.2825410421000139,-1.669208247440077,0.14136885919240227,2.4033957710795932,1.027360090742127,0.878092876070424,0.7554597494309409,-0.2825552651693207,-1.6690993614607135,0.1414185955172306,2.4034451173676383,1.0273381002308042,-0.0003623919767174807,0.0007521787479125825,-0.0006364967503716346,-0.00042762627384739904,-0.0003458714824652732,-0.0001299463698459766,4.689175073370502e-05,0.0,0.0,0.0,0.0,0.0,0.0,0.0,4.274631801393092e-05,-0.0004353420681196818,-1.4223069306817937e-05,0.0001088859793634267,4.973632482832557e-05,4.9346288045093445e-05,-2.1990511322789175e-05,0.0003623919767174807,-0.0007521787479125825,0.0006364967503716346,0.00042762627384739904,0.0003458714824652732,0.0001299463698459766,-4.689175073370502e-05,0.6291133761405945,46.54800033569336,5.588284015655518,-19.757417678833008,-0.6063743233680725,-2.4365267753601074,0.37845176458358765,0
70,0.34499382972717285,-0.6291133761405945,-46.54800033569336,-5.588284015655518,19.757417678833008,0.6063743233680725,2.4365267753601074,-0.37845176458358765,0.0,0.0,0.0,0.0,0.0,0.0,0.0,-0.6453977047211962,-0.18104037318535515,-0.43753120546810614,0.5386243142067261,0.013445583129522334,0.1675405215612515,-0.3747804017991286,0.87805012975241,0.7558950914990605,-0.2825410421000139,-1.669208247440077,0.14136885919240227,2.4033957710795932,1.027360090742127,0.878092876070424,0.7554597494309409,-0.2825552651693207,-1.6690993614607135,0.1414185955172306,2.4034451173676383,1.0273381002308042,-0.0003623919767174807,0.0007521787479125825,-0.0006364967503716346,-0.00042762627384739904,-0.0003458714824652732,-0.0001299463698459766,4.689175073370502e-05,0.0,0.0,0.0,0.0,0.0,0.0,0.0,4.274631801393092e-05,-0.0004353420681196818,-1.4223069306817937e-05,0.0001088859793634267,4.973632482832557e-05,4.9346288045093445e-05,-2.1990511322789175e-05,0.0003623919767174807,-0.0007521787479125825,0.0006364967503716346,0.00042762627384739904,0.0003458714824652732,0.0001299463698459766,-4.689175073370502e-05,0.6291133761405945,46.54800033569336,5.588284015655518,-19.757417678833008,-0.6063743233680725,-2.4365267753601074,0.37845176458358765,0
71,0.3499906063079834,-0.6568843722343445,-46.47658920288086,-5.663662433624268,19.733613967895508,0.5944724678993225,2.4237093925476074,-0.37845176458358765,0.0,0.0,0.0,0.0,0.0,0.0,0.0,-0.6434047816832363,-0.17880497252822314,-0.4368135345271326,0.5381842811862092,0.013107215199513984,0.16711680240681537,-0.3747551560822282,0.8780520785942413,0.7558901926773544,-0.28253572556862155,-1.669205596840436,0.14136699278962664,2.403397195233239,1.027358797065784,0.878092876070424,0.7554597494309409,-0.2825552651693207,-1.6690993614607135,0.1414185955172306,2.4034451173676383,1.0273381002308042,0.0005472992882116025,-0.0012670520822745117,0.0014010883645945884,0.0002675544984479288,0.00016437259400181933,0.00043913659933659865,0.0001581796047549406,0.0,0.0,0.0,0.0,0.0,0.0,0.0,4.07974761826857e-05,-0.0004304432464135033,-1.9539600699169934e-05,0.00010623537972254127,5.160272760396101e-05,4.792213439941406e-05,-2.0696834979849754e-05,-0.0005472992882116025,0.0012670520822745117,-0.0014010883645945884,-0.0002675544984479288,-0.00016437259400181933,-0.00043913659933659865,-0.0001581796047549406,0.6568843722343445,46.47658920288086,5.663662433624268,-19.733613967895508,-0.5944724678993225,-2.4237093925476074,0.37845176458358765,0
72,0.35500240325927734,-0.6568843722343445,-46.47658920288086,-5.663662433624268,19.733613967895508,0.5944724678993225,2.4237093925476074,-0.37845176458358765,0.0,0.0,0.0,0.0,0.0,0.0,0.0,-0.6434047816832363,-0.17880497252822314,-0.4368135345271326,0.5381842811862092,0.013107215199513984,0.16711680240681537,-0.3747551560822282,0.8780520785942413,0.7558901926773544,-0.28253572556862155,-1.669205596840436,0.14136699278962664,2.403397195233239,1.027358797065784,0.878092876070424,0.7554597494309409,-0.2825552651693207,-1.6690993614607135,0.1414185955172306,2.4034451173676383,1.0273381002308042,0.0005472992882116025,-0.0012670520822745117,0.0014010883645945884,0.0002675544984479288,0.00016437259400181933,0.00043913659933659865,0.0001581796047549406,0.0,0.0,0.0,0.0,0.0,0.0,0.0,4.07974761826857e-05,-0.0004304432464135033,-1.9539600699169934e-05,0.00010623537972254127,5.160272760396101e-05,4.792213439941406e-05,-2.0696834979849754e-05,-0.0005472992882116025,0.0012670520822745117,-0.0014010883645945884,-0.0002675544984479288,-0.00016437259400181933,-0.00043913659933659865,-0.0001581796047549406,0.6568843722343445,46.47658920288086,5.663662433624268,-19.733613967895508,-0.5944724678993225,-2.4237093925476074,0.37845176458358765,0
73,0.36002326011657715,-0.6568843722343445,-46.47658920288086,-5.612087726593018,19.757417678833008,0.5944724678993225,2.4237093925476074,-0.38577598333358765,0.0,0.0,0.0,0.0,0.0,0.0,0.0,-0.6406219280947317,-0.1626470672955894,-0.4325949152222473,0.531886476985561,0.012734142341129564,0.1659783289220742,-0.376518418992604,0.8780520785942413,0.7558911285485824,-0.2825393448461566,-1.6692103920885135,0.14136805572112401,2.403397195233239,1.0273641619436655,0.878092876070424,0.7554597494309409,-0.2825552651693207,-1.6690993614607135,0.1414185955172306,2.4034451173676383,1.0273381002308042,0.0005216241547516262,-0.0003043575956537515,0.00023251720496505834,-0.0004958961696081268,9.23715298441529e-05,0.0003509032469384094,0.0001531243575513384,0.0,0.0,0.0,0.0,0.0,0.0,0.0,4.07974761826857e-05,-0.00043137911764157266,-1.5920323164109185e-05,0.00011103062780004613,5.0539796106585655e-05,4.792213439941406e-05,-2.6061712861347175e-05,-0.0005216241547516262,0.0003043575956537515,-0.00023251720496505834,0.0004958961696081268,-9.23715298441529e-05,-0.0003509032469384094,-0.0001531243575513384,0.6568843722343445,46.47658920288086,5.612087726593018,-19.757417678833008,-0.5944724678993225,-2.4237093925476074,0.38577598333358765,0
74,0.3649940490722656,-0.6568843722343445,-46.47658920288086,-5.612087726593018,19.757417678833008,0.5944724678993225,2.4237093925476074,-0.38577598333358765,0.0,0.0,0.0,0.0,0.0,0.0,0.0,-0.6406219280947317,-0.1626470672955894,-0.4325949152222473,0.531886476985561,0.012734142341129564,0.1659783289220742,-0.376518418992604,0.8780520785942413,0.7558911285485824,-0.2825393448461566,-1.6692103920885135,0.14136805572112401,2.403397195233239,1.0273641619436655,0.878092876070424,0.7554597494309409,-0.2825552651693207,-1.6690993614607135,0.1414185955172306,2.4034451173676383,1.0273381002308042,0.0005216241547516262,-0.0003043575956537515,0.00023251720496505834,-0.0004958961696081268,9.23715298441529e-05,0.0003509032469384094,0.0001531243575513384,0.0,0.0,0.0,0.0,0.0,0.0,0.0,4.07974761826857e-05,-0.00043137911764157266,-1.5920323164109185e-05,0.00011103062780004613,5.0539796106585655e-05,4.792213439941406e-05,-2.6061712861347175e-05,-0.0005216241547516262,0.0003043575956537515,-0.00023251720496505834,0.0004958961696081268,-9.23715298441529e-05,-0.0003509032469384094,-0.0001531243575513384,0.6568843722343445,46.47658920288086,5.612087726593018,-19.757417678833008,-0.5944724678993225,-2.4237093925476074,0.38577598333358765,0
75,0.3699963092803955,-0.6568843722343445,-46.54800033569336,-5.564480304718018,19.709810256958008,0.5880637764930725,2.4365267753601074,-0.34457725286483765,0.0,0.0,0.0,0.0,0.0,0.0,0.0,-0.6361596675336193,-0.18744324700708984,-0.43341801808244795,0.5436866371509469,0.013378223986529067,0.16755858131477794,-0.3773380246106124,0.8780520785942413,0.7558975439180429,-0.2825426857178671,-1.6692070551472533,0.1413677048544488,2.4033957710795932,1.0273585647306123,0.878092876070424,0.7554597494309409,-0.2825552651693207,-1.6690993614607135,0.1414185955172306,2.4034451173676383,1.0273381002308042,0.0007117493521695416,0.0004052004682812998,-0.0007700441542644332,0.00048164830485288566,0.0004852223110205672,-0.00010644862226891917,-0.0009985111802045376,0.0,0.0,0.0,0.0,0.0,0.0,0.0,4.07974761826857e-05,-0.00043779448710201674,-1.257945145360928e-05,0.00010769368653984479,5.0890662781799545e-05,4.9346288045093445e-05,-2.0464499808081626e-05,-0.0007117493521695416,-0.0004052004682812998,0.0007700441542644332,-0.00048164830485288566,-0.0004852223110205672,0.00010644862226891917,0.0009985111802045376,0.6568843722343445,46.54800033569336,5.564480304718018,-19.709810256958008,-0.5880637764930725,-2.4365267753601074,0.34457725286483765,0
76,0.3750028610229492,-0.6568843722343445,-46.54800033569336,-5.564480304718018,19.709810256958008,0.5880637764930725,2.4365267753601074,-0.34457725286483765,0.0,0.0,0.0,0.0,0.0,0.0,0.0,-0.6361596675336193,-0.18744324700708984,-0.43341801808244795,0.5436866371509469,0.013378223986529067,0.16755858131477794,-0.3773380246106124,0.8780520785942413,0.7558975439180429,-0.2825426857178671,-1.6692070551472533,0.1413677048544488,2.4033957710795932,1.0273585647306123,0.878092876070424,0.7554597494309409,-0.2825552651693207,-1.6690993614607135,0.1414185955172306,2.4034451173676383,1.0273381002308042,0.0007117493521695416,0.0004052004682812998,-0.0007700441542644332,0.00048164830485288566,0.0004852223110205672,-0.00010644862226891917,-0.0009985111802045376,0.0,0.0,0.0,0.0,0.0,0.0,0.0,4.07974761826857e-05,-0.00043779448710201674,-1.257945145360928e-05,0.00010769368653984479,5.0890662781799545e-05,4.9346288045093445e-05,-2.0464499808081626e-05,-0.0007117493521695416,-0.0004052004682812998,0.0007700441542644332,-0.00048164830485288566,-0.0004852223110205672,0.00010644862226891917,0.0009985111802045376,0.6568843722343445,46.54800033569336,5.564480304718018,-19.709810256958008,-0.5880637764930725,-2.4365267753601074,0.34457725286483765,0
77,0.3800070285797119,-0.6568843722343445,-46.54800033569336,-5.564480304718018,19.709810256958008,0.5880637764930725,2.4365267753601074,-0.34457725286483765,0.0,0.0,0.0,0.0,0.0,0.0,0.0,-0.6361596675336193,-0.18744324700708984,-0.43341801808244795,0.5436866371509469,0.013378223986529067,0.16755858131477794,-0.3773380246106124,0.8780520785942413,0.7558975439180429,-0.2825426857178671,-1.6692070551472533,0.1413677048544488,2.4033957710795932,1.0273585647306123,0.878092876070424,0.7554597494309409,-0.2825552651693207,-1.6690993614607135,0.1414185955172306,2.4034451173676383,1.0273381002308042,0.0007117493521695416,0.0004052004682812998,-0.0007700441542644332,0.00048164830485288566,0.0004852223110205672,-0.00010644862226891917,-0.0009985111802045376,0.0,0.0,0.0,0.0,0.0,0.0,0.0,4.07974761826857e-05,-0.00043779448710201674,-1.257945145360928e-05,0.00010769368653984479,5.0890662781799545e-05,4.9346288045093445e-05,-2.0464499808081626e-05,-0.0007117493521695416,-0.0004052004682812998,0.0007700441542644332,-0.00048164830485288566,-0.0004852223110205672,0.00010644862226891917,0.0009985111802045376,0.6568843722343445,46.54800033569336,5.564480304718018,-19.709810256958008,-0.5880637764930725,-2.4365267753601074,0.34457725286483765,0
78,0.38495564460754395,-0.6568843722343445,-46.54800033569336,-5.564480304718018,19.709810256958008,0.5880637764930725,2.4365267753601074,-0.34457725286483765,0.0,0.0,0.0,0.0,0.0,0.0,0.0,-0.6361596675336193,-0.18744324700708984,-0.43341801808244795,0.5436866371509469,0.013378223986529067,0.16755858131477794,-0.3773380246106124,0.8780520785942413,0.7558975439180429,-0.2825426857178671,-1.6692070551472533,0.1413677048544488,2.4033957710795932,1.0273585647306123,0.878092876070424,0.7554597494309409,-0.2825552651693207,-1.6690993614607135,0.1414185955172306,2.4034451173676383,1.0273381002308042,0.0007117493521695416,0.0004052004682812998,-0.0007700441542644332,0.00048164830485288566,0.0004852223110205672,-0.00010644862226891917,-0.0009985111802045376,0.0,0.0,0.0,0.0,0.0,0.0,0.0,4.07974761826857e-05,-0.00043779448710201674,-1.257945145360928e-05,0.00010769368653984479,5.0890662781799545e-05,4.9346288045093445e-05,-2.0464499808081626e-05,-0.0007117493521695416,-0.0004052004682812998,0.0007700441542644332,-0.00048164830485288566,-0.0004852223110205672,0.00010644862226891917,0.0009985111802045376,0.6568843722343445,46.54800033569336,5.564480304718018,-19.709810256958008,-0.5880637764930725,-2.4365267753601074,0.34457725286483765,0
79,0.38999485969543457,-0.6291133761405945,-46.47658920288086,-5.588284015655518,19.709810256958008,0.5999656319618225,2.4301180839538574,-0.38577598333358765,0.0,0.0,0.0,0.0,0.0,0.0,0.0,-0.6501572679333658,-0.1649069334671668,-0.4408229272482339,0.5293212245005305,0.01302241129747784,0.16581507780247437,-0.3769532950299503,0.87805012975241,0.7558922669345075,-0.2825431611582401,-1.6692049094890804,0.14136638242006302,2.403396483156416,1.02736408421229,0.878092876070424,0.7554597494309409,-0.2825552651693207,-1.6690993614607135,0.1414185955172306,2.4034451173676383,1.0273381002308042,6.533155556072125e-05,-0.00024351286163656695,-0.0008827675829303301,0.0006169166880015964,-6.437145850365908e-05,-5.864776161464959e-05,0.0003652668891609812,0.0,0.0,0.0,0.0,0.0,0.0,0.0,4.274631801393092e-05,-0.00043251750356665397,-1.210401108064918e-05,0.00010554802836693078,5.221309716757494e-05,4.8634211222253754e-05,-2.5983981485788732e-05,-6.533155556072125e-05,0.00024351286163656695,0.0008827675829303301,-0.0006169166880015964,6.437145850365908e-05,5.864776161464959e-05,-0.0003652668891609812,0.6291133761405945,46.47658920288086,5.588284015655518,-19.709810256958008,-0.5999656319618225,-2.4301180839538574,0.38577598333358765,0
80,0.39499473571777344,-0.6291133761405945,-46.47658920288086,-5.588284015655518,19.709810256958008,0.5999656319618225,2.4301180839538574,-0.38577598333358765,0.0,0.0,0.0,0.0,0.0,0.0,0.0,-0.6501572679333658,-0.1649069334671668,-0.4408229272482339,0.5293212245005305,0.01302241129747784,0.16581507780247437,-0.3769532950299503,0.87805012975241,0.7558922669345075,-0.2825431611582401,-1.6692049094890804,0.14136638242006302,2.403396483156416,1.02736408421229,0.878092876070424,0.7554597494309409,-0.2825552651693207,-1.6690993614607135,0.1414185955172306,2.4034451173676383,1.0273381002308042,6.533155556072125e-05,-0.00024351286163656695,-0.0008827675829303301,0.0006169166880015964,-6.437145850365908e-05,-5.864776161464959e-05,0.0003652668891609812,0.0,0.0,0.0,0.0,0.0,0.0,0.0,4.274631801393092e-05,-0.00043251750356665397,-1.210401108064918e-05,0.00010554802836693078,5.221309716757494e-05,4.8634211222253754e-05,-2.5983981485788732e-05,-6.533155556072125e-05,0.00024351286163656695,0.0008827675829303301,-0.0006169166880015964,6.437145850365908e-05,5.864776161464959e-05,-0.0003652668891609812,0.6291133761405945,46.47658920288086,5.588284015655518,-19.709810256958008,-0.5999656319618225,-2.4301180839538574,0.38577598333358765,0
