rezayati/contactInterpretation/dataset/franka_main/labeled_data/link7/a6_7.csv
index,time,tau_J0,tau_J1,tau_J2,tau_J3,tau_J4,tau_J5,tau_J6,tau_J_d0,tau_J_d1,tau_J_d2,tau_J_d3,tau_J_d4,tau_J_d5,tau_J_d6,tau_ext0,tau_ext1,tau_ext2,tau_ext3,tau_ext4,tau_ext5,tau_ext6,q0,q1,q2,q3,q4,q5,q6,q_d0,q_d1,q_d2,q_d3,q_d4,q_d5,q_d6,dq0,dq1,dq2,dq3,dq4,dq5,dq6,dq_d0,dq_d1,dq_d2,dq_d3,dq_d4,dq_d5,dq_d6,e0,e1,e2,e3,e4,e5,e6,de0,de1,de2,de3,de4,de5,de6,etau_J0,etau_J1,etau_J2,etau_J3,etau_J4,etau_J5,etau_J6,label
1,0.0,-0.17287558317184448,-11.802515029907227,1.1918060779571533,21.792634963989258,0.2960105538368225,2.5271639823913574,-0.27591270208358765,0.0,0.0,0.0,0.0,0.0,0.0,0.0,-0.16616528663295058,0.484534774854442,0.035868380301886715,0.5072552007749511,-0.24481892935417743,0.12791251574232068,-0.30263466842613496,0.17278312354129655,-0.48750819723229655,-0.1114410635394711,-1.9467224792140425,0.13362833278529046,2.5954546332477135,0.9452556161217385,0.1728802376190821,-0.48752024683155326,-0.11147110072896137,-1.9463801863486305,0.1336059019074957,2.595550359778934,0.9452445589611904,-0.0005810907039610957,-0.0005948399263139456,-0.0002977954608957332,0.0006474247639738041,-8.176825869329883e-05,-5.925200133222352e-05,-0.0009991948148295744,0.0,0.0,0.0,0.0,0.0,0.0,0.0,9.711407778556502e-05,-1.2049599256713783e-05,-3.0037189490267346e-05,0.0003422928654119861,-2.2430877794771265e-05,9.57265312204747e-05,-1.1057160548055833e-05,0.0005810907039610957,0.0005948399263139456,0.0002977954608957332,-0.0006474247639738041,8.176825869329883e-05,5.925200133222352e-05,0.0009991948148295744,0.17287558317184448,11.802515029907227,-1.1918060779571533,-21.792634963989258,-0.2960105538368225,-2.5271639823913574,0.27591270208358765,0
2,0.005003690719604492,-0.17287558317184448,-11.802515029907227,1.1918060779571533,21.792634963989258,0.2960105538368225,2.5271639823913574,-0.27591270208358765,0.0,0.0,0.0,0.0,0.0,0.0,0.0,-0.16616528663295058,0.484534774854442,0.035868380301886715,0.5072552007749511,-0.24481892935417743,0.12791251574232068,-0.30263466842613496,0.17278312354129655,-0.48750819723229655,-0.1114410635394711,-1.9467224792140425,0.13362833278529046,2.5954546332477135,0.9452556161217385,0.1728802376190821,-0.48752024683155326,-0.11147110072896137,-1.9463801863486305,0.1336059019074957,2.595550359778934,0.9452445589611904,-0.0005810907039610957,-0.0005948399263139456,-0.0002977954608957332,0.0006474247639738041,-8.176825869329883e-05,-5.925200133222352e-05,-0.0009991948148295744,0.0,0.0,0.0,0.0,0.0,0.0,0.0,9.711407778556502e-05,-1.2049599256713783e-05,-3.0037189490267346e-05,0.0003422928654119861,-2.2430877794771265e-05,9.57265312204747e-05,-1.1057160548055833e-05,0.0005810907039610957,0.0005948399263139456,0.0002977954608957332,-0.0006474247639738041,8.176825869329883e-05,5.925200133222352e-05,0.0009991948148295744,0.17287558317184448,11.802515029907227,-1.1918060779571533,-21.792634963989258,-0.2960105538368225,-2.5271639823913574,0.27591270208358765,0
3,0.010030031204223633,-0.12130087614059448,-11.750940322875977,1.1918060779571533,21.792634963989258,0.2841086983680725,2.5271639823913574,-0.31711143255233765,0.0,0.0,0.0,0.0,0.0,0.0,0.0,-0.15887041865594023,0.5014914189522977,0.04532761659718211,0.5026513088889648,-0.2448535050726816,0.1267004156506942,-0.3025798526366148,0.17277950426361013,-0.48751181650998293,-0.1114410636477297,-1.9467224792179305,0.13362628210745053,2.5954576944251877,0.945264163816096,0.1728802376190821,-0.48752024683155326,-0.11147110072896137,-1.9463801863486305,0.1336059019074957,2.595550359778934,0.9452445589611904,-0.0012850450488155862,-0.0010354783367202327,0.0002523555484530317,0.00044769910517098013,0.00023463461456209553,-0.00019004478242751348,0.0006701155485434288,0.0,0.0,0.0,0.0,0.0,0.0,0.0,0.00010073335547197693,-8.430321570329635e-06,-3.0037081231670815e-05,0.00034229286929998715,-2.0380199954844747e-05,9.26653537463018e-05,-1.9604854905597158e-05,0.0012850450488155862,0.0010354783367202327,-0.0002523555484530317,-0.00044769910517098013,-0.00023463461456209553,0.00019004478242751348,-0.0006701155485434288,0.12130087614059448,11.750940322875977,-1.1918060779571533,-21.792634963989258,-0.2841086983680725,-2.5271639823913574,0.31711143255233765,0
4,0.015110015869140625,-0.12130087614059448,-11.750940322875977,1.1918060779571533,21.792634963989258,0.2841086983680725,2.5271639823913574,-0.31711143255233765,0.0,0.0,0.0,0.0,0.0,0.0,0.0,-0.15887041865594023,0.5014914189522977,0.04532761659718211,0.5026513088889648,-0.2448535050726816,0.1267004156506942,-0.3025798526366148,0.17277950426361013,-0.48751181650998293,-0.1114410636477297,-1.9467224792179305,0.13362628210745053,2.5954576944251877,0.945264163816096,0.1728802376190821,-0.48752024683155326,-0.11147110072896137,-1.9463801863486305,0.1336059019074957,2.595550359778934,0.9452445589611904,-0.0012850450488155862,-0.0010354783367202327,0.0002523555484530317,0.00044769910517098013,0.00023463461456209553,-0.00019004478242751348,0.0006701155485434288,0.0,0.0,0.0,0.0,0.0,0.0,0.0,0.00010073335547197693,-8.430321570329635e-06,-3.0037081231670815e-05,0.00034229286929998715,-2.0380199954844747e-05,9.26653537463018e-05,-1.9604854905597158e-05,0.0012850450488155862,0.0010354783367202327,-0.0002523555484530317,-0.00044769910517098013,-0.00023463461456209553,0.00019004478242751348,-0.0006701155485434288,0.12130087614059448,11.750940322875977,-1.1918060779571533,-21.792634963989258,-0.2841086983680725,-2.5271639823913574,0.31711143255233765,0
5,0.01999950408935547,-0.12130087614059448,-11.727136611938477,1.2156097888946533,21.792634963989258,0.2960105538368225,2.5207552909851074,-0.27591270208358765,0.0,0.0,0.0,0.0,0.0,0.0,0.0,-0.15280105451548284,0.5042924686751095,0.04554478522163715,0.5095603758745724,-0.24518602399330905,0.12689019514817337,-0.3028799044262975,0.17277950426361013,-0.4875134879178999,-0.11144273408358557,-1.9467222486848617,0.1336291588586777,2.595455345342473,0.9452585119366369,0.1728802376190821,-0.48752024683155326,-0.11147110072896137,-1.9463801863486305,0.1336059019074957,2.595550359778934,0.9452445589611904,-0.00027711725899114874,-0.0007465699338186298,0.001088257127979804,0.0006171984652147096,-0.00017801055262955902,0.00017990710875251742,-0.0005718709075585279,0.0,0.0,0.0,0.0,0.0,0.0,0.0,0.00010073335547197693,-6.7589136533707794e-06,-2.8366645375796362e-05,0.00034206233623113036,-2.3256951182021313e-05,9.501443646087182e-05,-1.3952975446485105e-05,0.00027711725899114874,0.0007465699338186298,-0.001088257127979804,-0.0006171984652147096,0.00017801055262955902,-0.00017990710875251742,0.0005718709075585279,0.12130087614059448,11.727136611938477,-1.2156097888946533,-21.792634963989258,-0.2960105538368225,-2.5207552909851074,0.27591270208358765,0
6,0.025000333786010742,-0.12130087614059448,-11.727136611938477,1.2156097888946533,21.792634963989258,0.2960105538368225,2.5207552909851074,-0.27591270208358765,0.0,0.0,0.0,0.0,0.0,0.0,0.0,-0.15280105451548284,0.5042924686751095,0.04554478522163715,0.5095603758745724,-0.24518602399330905,0.12689019514817337,-0.3028799044262975,0.17277950426361013,-0.4875134879178999,-0.11144273408358557,-1.9467222486848617,0.1336291588586777,2.595455345342473,0.9452585119366369,0.1728802376190821,-0.48752024683155326,-0.11147110072896137,-1.9463801863486305,0.1336059019074957,2.595550359778934,0.9452445589611904,-0.00027711725899114874,-0.0007465699338186298,0.001088257127979804,0.0006171984652147096,-0.00017801055262955902,0.00017990710875251742,-0.0005718709075585279,0.0,0.0,0.0,0.0,0.0,0.0,0.0,0.00010073335547197693,-6.7589136533707794e-06,-2.8366645375796362e-05,0.00034206233623113036,-2.3256951182021313e-05,9.501443646087182e-05,-1.3952975446485105e-05,0.00027711725899114874,0.0007465699338186298,-0.001088257127979804,-0.0006171984652147096,0.00017801055262955902,-0.00017990710875251742,0.0005718709075585279,0.12130087614059448,11.727136611938477,-1.2156097888946533,-21.792634963989258,-0.2960105538368225,-2.5207552909851074,0.27591270208358765,0
7,0.0299990177154541,-0.12130087614059448,-11.727136611938477,1.2156097888946533,21.792634963989258,0.2960105538368225,2.5207552909851074,-0.27591270208358765,0.0,0.0,0.0,0.0,0.0,0.0,0.0,-0.15280105451548284,0.5042924686751095,0.04554478522163715,0.5095603758745724,-0.24518602399330905,0.12689019514817337,-0.3028799044262975,0.17277950426361013,-0.4875134879178999,-0.11144273408358557,-1.9467222486848617,0.1336291588586777,2.595455345342473,0.9452585119366369,0.1728802376190821,-0.48752024683155326,-0.11147110072896137,-1.9463801863486305,0.1336059019074957,2.595550359778934,0.9452445589611904,-0.00027711725899114874,-0.0007465699338186298,0.001088257127979804,0.0006171984652147096,-0.00017801055262955902,0.00017990710875251742,-0.0005718709075585279,0.0,0.0,0.0,0.0,0.0,0.0,0.0,0.00010073335547197693,-6.7589136533707794e-06,-2.8366645375796362e-05,0.00034206233623113036,-2.3256951182021313e-05,9.501443646087182e-05,-1.3952975446485105e-05,0.00027711725899114874,0.0007465699338186298,-0.001088257127979804,-0.0006171984652147096,0.00017801055262955902,-0.00017990710875251742,0.0005718709075585279,0.12130087614059448,11.727136611938477,-1.2156097888946533,-21.792634963989258,-0.2960105538368225,-2.5207552909851074,0.27591270208358765,0
8,0.035025596618652344,-0.12130087614059448,-11.727136611938477,1.2156097888946533,21.792634963989258,0.2960105538368225,2.5207552909851074,-0.27591270208358765,0.0,0.0,0.0,0.0,0.0,0.0,0.0,-0.15280105451548284,0.5042924686751095,0.04554478522163715,0.5095603758745724,-0.24518602399330905,0.12689019514817337,-0.3028799044262975,0.17277950426361013,-0.4875134879178999,-0.11144273408358557,-1.9467222486848617,0.1336291588586777,2.595455345342473,0.9452585119366369,0.1728802376190821,-0.48752024683155326,-0.11147110072896137,-1.9463801863486305,0.1336059019074957,2.595550359778934,0.9452445589611904,-0.00027711725899114874,-0.0007465699338186298,0.001088257127979804,0.0006171984652147096,-0.00017801055262955902,0.00017990710875251742,-0.0005718709075585279,0.0,0.0,0.0,0.0,0.0,0.0,0.0,0.00010073335547197693,-6.7589136533707794e-06,-2.8366645375796362e-05,0.00034206233623113036,-2.3256951182021313e-05,9.501443646087182e-05,-1.3952975446485105e-05,0.00027711725899114874,0.0007465699338186298,-0.001088257127979804,-0.0006171984652147096,0.00017801055262955902,-0.00017990710875251742,0.0005718709075585279,0.12130087614059448,11.727136611938477,-1.2156097888946533,-21.792634963989258,-0.2960105538368225,-2.5207552909851074,0.27591270208358765,0
9,0.04000520706176758,-0.12130087614059448,-11.826318740844727,1.2909882068634033,21.768831253051758,0.2905173897743225,2.5271639823913574,-0.27591270208358765,0.0,0.0,0.0,0.0,0.0,0.0,0.0,-0.15440182070812947,0.49750966029901605,0.04198676883237009,0.5203721611301272,-0.24471723851289645,0.1280302007097442,-0.30294023386909896,0.17277950426361013,-0.4875065267964468,-0.11144802379712723,-1.9467208087807741,0.1336300189998051,2.595454554810492,0.9452556081369076,0.1728802376190821,-0.48752024683155326,-0.11147110072896137,-1.9463801863486305,0.1336059019074957,2.595550359778934,0.9452445589611904,-0.0001119843077936948,0.0007564254377472111,-0.00045110013096919996,0.0008645837931869798,-0.00012965974023670975,-6.584086842056465e-05,-0.0007724838054778934,0.0,0.0,0.0,0.0,0.0,0.0,0.0,0.00010073335547197693,-1.3720035106468131e-05,-2.3076931834134506e-05,0.0003406224321436113,-2.411709230940029e-05,9.580496844208142e-05,-1.1049175717148252e-05,0.0001119843077936948,-0.0007564254377472111,0.00045110013096919996,-0.0008645837931869798,0.00012965974023670975,6.584086842056465e-05,0.0007724838054778934,0.12130087614059448,11.826318740844727,-1.2909882068634033,-21.768831253051758,-0.2905173897743225,-2.5271639823913574,0.27591270208358765,0
10,0.04496407508850098,-0.12130087614059448,-11.826318740844727,1.2909882068634033,21.768831253051758,0.2905173897743225,2.5271639823913574,-0.27591270208358765,0.0,0.0,0.0,0.0,0.0,0.0,0.0,-0.15440182070812947,0.49750966029901605,0.04198676883237009,0.5203721611301272,-0.24471723851289645,0.1280302007097442,-0.30294023386909896,0.17277950426361013,-0.4875065267964468,-0.11144802379712723,-1.9467208087807741,0.1336300189998051,2.595454554810492,0.9452556081369076,0.1728802376190821,-0.48752024683155326,-0.11147110072896137,-1.9463801863486305,0.1336059019074957,2.595550359778934,0.9452445589611904,-0.0001119843077936948,0.0007564254377472111,-0.00045110013096919996,0.0008645837931869798,-0.00012965974023670975,-6.584086842056465e-05,-0.0007724838054778934,0.0,0.0,0.0,0.0,0.0,0.0,0.0,0.00010073335547197693,-1.3720035106468131e-05,-2.3076931834134506e-05,0.0003406224321436113,-2.411709230940029e-05,9.580496844208142e-05,-1.1049175717148252e-05,0.0001119843077936948,-0.0007564254377472111,0.00045110013096919996,-0.0008645837931869798,0.00012965974023670975,6.584086842056465e-05,0.0007724838054778934,0.12130087614059448,11.826318740844727,-1.2909882068634033,-21.768831253051758,-0.2905173897743225,-2.5271639823913574,0.27591270208358765,0
11,0.050003767013549805,-0.12130087614059448,-11.873926162719727,1.2671844959259033,21.792634963989258,0.2841086983680725,2.5271639823913574,-0.30978721380233765,0.0,0.0,0.0,0.0,0.0,0.0,0.0,-0.14914149502688898,0.49859984508707367,0.04782314934978058,0.521731492900041,-0.24514662110236232,0.12799444038321006,-0.3035933940607797,0.17277950426361013,-0.48750318592473074,-0.11144635336127197,-1.9467224026885102,0.13362663778010905,2.5954576945862504,0.9452593662163192,0.1728802376190821,-0.48752024683155326,-0.11147110072896137,-1.9463801863486305,0.1336059019074957,2.595550359778934,0.9452445589611904,-2.336634200737689e-05,0.0005025951662085634,0.0003859836679324088,9.478696686352717e-05,2.693976555555679e-05,0.00011794039121296916,0.0008637059284316487,0.0,0.0,0.0,0.0,0.0,0.0,0.0,0.00010073335547197693,-1.706090682251915e-05,-2.4747367689398336e-05,0.00034221633987963074,-2.0735872613364403e-05,9.266519268358309e-05,-1.4807255128812535e-05,2.336634200737689e-05,-0.0005025951662085634,-0.0003859836679324088,-9.478696686352717e-05,-2.693976555555679e-05,-0.00011794039121296916,-0.0008637059284316487,0.12130087614059448,11.873926162719727,-1.2671844959259033,-21.792634963989258,-0.2841086983680725,-2.5271639823913574,0.30978721380233765,0
12,0.05499768257141113,-0.12130087614059448,-11.873926162719727,1.2671844959259033,21.792634963989258,0.2841086983680725,2.5271639823913574,-0.30978721380233765,0.0,0.0,0.0,0.0,0.0,0.0,0.0,-0.14914149502688898,0.49859984508707367,0.04782314934978058,0.521731492900041,-0.24514662110236232,0.12799444038321006,-0.3035933940607797,0.17277950426361013,-0.48750318592473074,-0.11144635336127197,-1.9467224026885102,0.13362663778010905,2.5954576945862504,0.9452593662163192,0.1728802376190821,-0.48752024683155326,-0.11147110072896137,-1.9463801863486305,0.1336059019074957,2.595550359778934,0.9452445589611904,-2.336634200737689e-05,0.0005025951662085634,0.0003859836679324088,9.478696686352717e-05,2.693976555555679e-05,0.00011794039121296916,0.0008637059284316487,0.0,0.0,0.0,0.0,0.0,0.0,0.0,0.00010073335547197693,-1.706090682251915e-05,-2.4747367689398336e-05,0.00034221633987963074,-2.0735872613364403e-05,9.266519268358309e-05,-1.4807255128812535e-05,2.336634200737689e-05,-0.0005025951662085634,-0.0003859836679324088,-9.478696686352717e-05,-2.693976555555679e-05,-0.00011794039121296916,-0.0008637059284316487,0.12130087614059448,11.873926162719727,-1.2671844959259033,-21.792634963989258,-0.2841086983680725,-2.5271639823913574,0.30978721380233765,0
13,0.05999922752380371,-0.19667929410934448,-11.901697158813477,1.2433807849884033,21.816438674926758,0.2841086983680725,2.5335726737976074,-0.27591270208358765,0.0,0.0,0.0,0.0,0.0,0.0,0.0,-0.1537276136331483,0.505385372320099,0.04170862390354819,0.514340670587531,-0.24552996893314805,0.12793233732288561,-0.30452561191241284,0.1727847939771518,-0.4875012370828996,-0.11144397263673314,-1.946724149653354,0.1336294592741718,2.595453921350334,0.9452552406697102,0.1728802376190821,-0.48752024683155326,-0.11147110072896137,-1.9463801863486305,0.1336059019074957,2.595550359778934,0.9452445589611904,0.0008417041397710165,0.0010887361604117163,0.00034856006224397515,-3.6944329079079784e-06,0.00015215541118695133,-9.990063281744827e-05,-0.0008449709684787394,0.0,0.0,0.0,0.0,0.0,0.0,0.0,9.544364193031507e-05,-1.9009748653653347e-05,-2.712809222822632e-05,0.0003439633047235269,-2.3557366676113523e-05,9.643842860018736e-05,-1.0681708519810762e-05,-0.0008417041397710165,-0.0010887361604117163,-0.00034856006224397515,3.6944329079079784e-06,-0.00015215541118695133,9.990063281744827e-05,0.0008449709684787394,0.19667929410934448,11.901697158813477,-1.2433807849884033,-21.816438674926758,-0.2841086983680725,-2.5335726737976074,0.27591270208358765,0
14,0.0650019645690918,-0.19667929410934448,-11.901697158813477,1.2433807849884033,21.816438674926758,0.2841086983680725,2.5335726737976074,-0.27591270208358765,0.0,0.0,0.0,0.0,0.0,0.0,0.0,-0.1537276136331483,0.505385372320099,0.04170862390354819,0.514340670587531,-0.24552996893314805,0.12793233732288561,-0.30452561191241284,0.1727847939771518,-0.4875012370828996,-0.11144397263673314,-1.946724149653354,0.1336294592741718,2.595453921350334,0.9452552406697102,0.1728802376190821,-0.48752024683155326,-0.11147110072896137,-1.9463801863486305,0.1336059019074957,2.595550359778934,0.9452445589611904,0.0008417041397710165,0.0010887361604117163,0.00034856006224397515,-3.6944329079079784e-06,0.00015215541118695133,-9.990063281744827e-05,-0.0008449709684787394,0.0,0.0,0.0,0.0,0.0,0.0,0.0,9.544364193031507e-05,-1.9009748653653347e-05,-2.712809222822632e-05,0.0003439633047235269,-2.3557366676113523e-05,9.643842860018736e-05,-1.0681708519810762e-05,-0.0008417041397710165,-0.0010887361604117163,-0.00034856006224397515,3.6944329079079784e-06,-0.00015215541118695133,9.990063281744827e-05,0.0008449709684787394,0.19667929410934448,11.901697158813477,-1.2433807849884033,-21.816438674926758,-0.2841086983680725,-2.5335726737976074,0.27591270208358765,0
15,0.07000184059143066,-0.14510458707809448,-11.949304580688477,1.2671844959259033,21.840242385864258,0.2905173897743225,2.5335726737976074,-0.28964561223983765,0.0,0.0,0.0,0.0,0.0,0.0,0.0,-0.14550487602866025,0.4972805229370375,0.05998275316424396,0.5116310707711171,-0.24593531953699038,0.12757399916698675,-0.30513443915911714,0.1727811746994654,-0.4874978962111891,-0.11144635335726237,-1.9467258200896411,0.13362587369080436,2.595453842679835,0.9452568062217669,0.1728802376190821,-0.48752024683155326,-0.11147110072896137,-1.9463801863486305,0.1336059019074957,2.595550359778934,0.9452445589611904,0.0001209726490586379,0.001681569016585883,-0.00040285065912081116,-0.0006789498917282085,2.8877079374912044e-05,-0.0002019829104966481,-0.0003762770062637284,0.0,0.0,0.0,0.0,0.0,0.0,0.0,9.906291961669922e-05,-2.235062036415325e-05,-2.4747371698996545e-05,0.00034563374101059807,-1.997178330867544e-05,9.651709909919148e-05,-1.2247260576470076e-05,-0.0001209726490586379,-0.001681569016585883,0.00040285065912081116,0.0006789498917282085,-2.8877079374912044e-05,0.0002019829104966481,0.0003762770062637284,0.14510458707809448,11.949304580688477,-1.2671844959259033,-21.840242385864258,-0.2905173897743225,-2.5335726737976074,0.28964561223983765,0
16,0.07500219345092773,-0.14510458707809448,-11.949304580688477,1.2671844959259033,21.840242385864258,0.2905173897743225,2.5335726737976074,-0.28964561223983765,0.0,0.0,0.0,0.0,0.0,0.0,0.0,-0.14550487602866025,0.4972805229370375,0.05998275316424396,0.5116310707711171,-0.24593531953699038,0.12757399916698675,-0.30513443915911714,0.1727811746994654,-0.4874978962111891,-0.11144635335726237,-1.9467258200896411,0.13362587369080436,2.595453842679835,0.9452568062217669,0.1728802376190821,-0.48752024683155326,-0.11147110072896137,-1.9463801863486305,0.1336059019074957,2.595550359778934,0.9452445589611904,0.0001209726490586379,0.001681569016585883,-0.00040285065912081116,-0.0006789498917282085,2.8877079374912044e-05,-0.0002019829104966481,-0.0003762770062637284,0.0,0.0,0.0,0.0,0.0,0.0,0.0,9.906291961669922e-05,-2.235062036415325e-05,-2.4747371698996545e-05,0.00034563374101059807,-1.997178330867544e-05,9.651709909919148e-05,-1.2247260576470076e-05,-0.0001209726490586379,-0.001681569016585883,0.00040285065912081116,0.0006789498917282085,-2.8877079374912044e-05,0.0002019829104966481,0.0003762770062637284,0.14510458707809448,11.949304580688477,-1.2671844959259033,-21.840242385864258,-0.2905173897743225,-2.5335726737976074,0.28964561223983765,0
17,0.07999897003173828,-0.17287558317184448,-11.873926162719727,1.2671844959259033,21.816438674926758,0.2960105538368225,2.5271639823913574,-0.33725303411483765,0.0,0.0,0.0,0.0,0.0,0.0,0.0,-0.1455569597914531,0.5004501037530993,0.061204516777464614,0.5034488470965629,-0.24572114489318062,0.1265863541397302,-0.3065374120179899,0.17278312354129655,-0.48750318592473074,-0.11144635336127194,-1.946724149653786,0.13362625142376636,2.5954576944247445,0.9452621780449708,0.1728802376190821,-0.48752024683155326,-0.11147110072896137,-1.9463801863486305,0.1336059019074957,2.595550359778934,0.9452445589611904,0.0006872711225239004,0.0002960345626203017,-0.00038085362210821006,-0.0005307145315288784,-0.0002242625624203967,9.309241915101318e-05,0.0016085270085015612,0.0,0.0,0.0,0.0,0.0,0.0,0.0,9.711407778556502e-05,-1.706090682251915e-05,-2.4747367689426092e-05,0.00034396330515540363,-2.0349516270667944e-05,9.266535418950284e-05,-1.7619083780395783e-05,-0.0006872711225239004,-0.0002960345626203017,0.00038085362210821006,0.0005307145315288784,0.0002242625624203967,-9.309241915101318e-05,-0.0016085270085015612,0.17287558317184448,11.873926162719727,-1.2671844959259033,-21.816438674926758,-0.2960105538368225,-2.5271639823913574,0.33725303411483765,0
18,0.08499598503112793,-0.17287558317184448,-11.873926162719727,1.2671844959259033,21.816438674926758,0.2960105538368225,2.5271639823913574,-0.33725303411483765,0.0,0.0,0.0,0.0,0.0,0.0,0.0,-0.1455569597914531,0.5004501037530993,0.061204516777464614,0.5034488470965629,-0.24572114489318062,0.1265863541397302,-0.3065374120179899,0.17278312354129655,-0.48750318592473074,-0.11144635336127194,-1.946724149653786,0.13362625142376636,2.5954576944247445,0.9452621780449708,0.1728802376190821,-0.48752024683155326,-0.11147110072896137,-1.9463801863486305,0.1336059019074957,2.595550359778934,0.9452445589611904,0.0006872711225239004,0.0002960345626203017,-0.00038085362210821006,-0.0005307145315288784,-0.0002242625624203967,9.309241915101318e-05,0.0016085270085015612,0.0,0.0,0.0,0.0,0.0,0.0,0.0,9.711407778556502e-05,-1.706090682251915e-05,-2.4747367689426092e-05,0.00034396330515540363,-2.0349516270667944e-05,9.266535418950284e-05,-1.7619083780395783e-05,-0.0006872711225239004,-0.0002960345626203017,0.00038085362210821006,0.0005307145315288784,0.0002242625624203967,-9.309241915101318e-05,-0.0016085270085015612,0.17287558317184448,11.873926162719727,-1.2671844959259033,-21.816438674926758,-0.2960105538368225,-2.5271639823913574,0.33725303411483765,0
19,0.0899972915649414,-0.14510458707809448,-11.850122451782227,1.2433807849884033,21.768831253051758,0.2841086983680725,2.5207552909851074,-0.26858848333358765,0.0,0.0,0.0,0.0,0.0,0.0,0.0,-0.15131630107157126,0.48976708930034274,0.053955758994701584,0.5072840744598274,-0.245161477156196,0.12777667174223079,-0.3082895851149527,0.1727811746994654,-0.487504856360586,-0.11144468292541672,-1.9467208087820753,0.1336262426191944,2.595455227604903,0.9452578056034429,0.1728802376190821,-0.48752024683155326,-0.11147110072896137,-1.9463801863486305,0.1336059019074957,2.595550359778934,0.9452445589611904,-0.0005393440123212097,0.000459120176608657,-0.0003197450076595173,0.000999028361005608,0.0002901105394785505,0.0004649329106996615,-0.0011352634050315093,0.0,0.0,0.0,0.0,0.0,0.0,0.0,9.906291961669922e-05,-1.53904709672692e-05,-2.641780354464829e-05,0.0003406224334447927,-2.0340711698707548e-05,9.513217403078755e-05,-1.324664225244021e-05,0.0005393440123212097,-0.000459120176608657,0.0003197450076595173,-0.000999028361005608,-0.0002901105394785505,-0.0004649329106996615,0.0011352634050315093,0.14510458707809448,11.850122451782227,-1.2433807849884033,-21.768831253051758,-0.2841086983680725,-2.5207552909851074,0.26858848333358765,0
20,0.0957949161529541,-0.14510458707809448,-11.850122451782227,1.2433807849884033,21.768831253051758,0.2841086983680725,2.5207552909851074,-0.26858848333358765,0.0,0.0,0.0,0.0,0.0,0.0,0.0,-0.15131630107157126,0.48976708930034274,0.053955758994701584,0.5072840744598274,-0.245161477156196,0.12777667174223079,-0.3082895851149527,0.1727811746994654,-0.487504856360586,-0.11144468292541672,-1.9467208087820753,0.1336262426191944,2.595455227604903,0.9452578056034429,0.1728802376190821,-0.48752024683155326,-0.11147110072896137,-1.9463801863486305,0.1336059019074957,2.595550359778934,0.9452445589611904,-0.0005393440123212097,0.000459120176608657,-0.0003197450076595173,0.000999028361005608,0.0002901105394785505,0.0004649329106996615,-0.0011352634050315093,0.0,0.0,0.0,0.0,0.0,0.0,0.0,9.906291961669922e-05,-1.53904709672692e-05,-2.641780354464829e-05,0.0003406224334447927,-2.0340711698707548e-05,9.513217403078755e-05,-1.324664225244021e-05,0.0005393440123212097,-0.000459120176608657,0.0003197450076595173,-0.000999028361005608,-0.0002901105394785505,-0.0004649329106996615,0.0011352634050315093,0.14510458707809448,11.850122451782227,-1.2433807849884033,-21.768831253051758,-0.2841086983680725,-2.5207552909851074,0.26858848333358765,0
21,0.1000051498413086,-0.14510458707809448,-11.850122451782227,1.2433807849884033,21.768831253051758,0.2841086983680725,2.5207552909851074,-0.26858848333358765,0.0,0.0,0.0,0.0,0.0,0.0,0.0,-0.15131630107157126,0.48976708930034274,0.053955758994701584,0.5072840744598274,-0.245161477156196,0.12777667174223079,-0.3082895851149527,0.1727811746994654,-0.487504856360586,-0.11144468292541672,-1.9467208087820753,0.1336262426191944,2.595455227604903,0.9452578056034429,0.1728802376190821,-0.48752024683155326,-0.11147110072896137,-1.9463801863486305,0.1336059019074957,2.595550359778934,0.9452445589611904,-0.0005393440123212097,0.000459120176608657,-0.0003197450076595173,0.000999028361005608,0.0002901105394785505,0.0004649329106996615,-0.0011352634050315093,0.0,0.0,0.0,0.0,0.0,0.0,0.0,9.906291961669922e-05,-1.53904709672692e-05,-2.641780354464829e-05,0.0003406224334447927,-2.0340711698707548e-05,9.513217403078755e-05,-1.324664225244021e-05,0.0005393440123212097,-0.000459120176608657,0.0003197450076595173,-0.000999028361005608,-0.0002901105394785505,-0.0004649329106996615,0.0011352634050315093,0.14510458707809448,11.850122451782227,-1.2433807849884033,-21.768831253051758,-0.2841086983680725,-2.5207552909851074,0.26858848333358765,0
22,0.10501480102539062,-0.14510458707809448,-11.850122451782227,1.2433807849884033,21.768831253051758,0.2841086983680725,2.5207552909851074,-0.26858848333358765,0.0,0.0,0.0,0.0,0.0,0.0,0.0,-0.15131630107157126,0.48976708930034274,0.053955758994701584,0.5072840744598274,-0.245161477156196,0.12777667174223079,-0.3082895851149527,0.1727811746994654,-0.487504856360586,-0.11144468292541672,-1.9467208087820753,0.1336262426191944,2.595455227604903,0.9452578056034429,0.1728802376190821,-0.48752024683155326,-0.11147110072896137,-1.9463801863486305,0.1336059019074957,2.595550359778934,0.9452445589611904,-0.0005393440123212097,0.000459120176608657,-0.0003197450076595173,0.000999028361005608,0.0002901105394785505,0.0004649329106996615,-0.0011352634050315093,0.0,0.0,0.0,0.0,0.0,0.0,0.0,9.906291961669922e-05,-1.53904709672692e-05,-2.641780354464829e-05,0.0003406224334447927,-2.0340711698707548e-05,9.513217403078755e-05,-1.324664225244021e-05,0.0005393440123212097,-0.000459120176608657,0.0003197450076595173,-0.000999028361005608,-0.0002901105394785505,-0.0004649329106996615,0.0011352634050315093,0.14510458707809448,11.850122451782227,-1.2433807849884033,-21.768831253051758,-0.2841086983680725,-2.5207552909851074,0.26858848333358765,0
23,0.11000442504882812,-0.14510458707809448,-11.850122451782227,1.2433807849884033,21.768831253051758,0.2841086983680725,2.5207552909851074,-0.26858848333358765,0.0,0.0,0.0,0.0,0.0,0.0,0.0,-0.15131630107157126,0.48976708930034274,0.053955758994701584,0.5072840744598274,-0.245161477156196,0.12777667174223079,-0.3082895851149527,0.1727811746994654,-0.487504856360586,-0.11144468292541672,-1.9467208087820753,0.1336262426191944,2.595455227604903,0.9452578056034429,0.1728802376190821,-0.48752024683155326,-0.11147110072896137,-1.9463801863486305,0.1336059019074957,2.595550359778934,0.9452445589611904,-0.0005393440123212097,0.000459120176608657,-0.0003197450076595173,0.000999028361005608,0.0002901105394785505,0.0004649329106996615,-0.0011352634050315093,0.0,0.0,0.0,0.0,0.0,0.0,0.0,9.906291961669922e-05,-1.53904709672692e-05,-2.641780354464829e-05,0.0003406224334447927,-2.0340711698707548e-05,9.513217403078755e-05,-1.324664225244021e-05,0.0005393440123212097,-0.000459120176608657,0.0003197450076595173,-0.000999028361005608,-0.0002901105394785505,-0.0004649329106996615,0.0011352634050315093,0.14510458707809448,11.850122451782227,-1.2433807849884033,-21.768831253051758,-0.2841086983680725,-2.5207552909851074,0.26858848333358765,0
24,0.11495232582092285,-0.17287558317184448,-11.826318740844727,1.1918060779571533,21.792634963989258,0.2841086983680725,2.5335726737976074,-0.28232139348983765,0.0,0.0,0.0,0.0,0.0,0.0,0.0,-0.15616045823023764,0.47972031312619334,0.04677792535223691,0.5143682366445512,-0.24559993119722964,0.12955239912278121,-0.3063874096122841,0.17278312354129655,-0.4875065267964413,-0.1114410636477303,-1.9467224792140425,0.1336264672652164,2.5954541568095215,0.9452559700714216,0.1728802376190821,-0.48752024683155326,-0.11147110072896137,-1.9463801863486305,0.1336059019074957,2.595550359778934,0.9452445589611904,4.985340004997826e-06,-0.0003122696220850673,0.0006157462754642797,0.0002916781341581924,0.00028075510029248866,-0.0001696486950382386,0.00035631470478817356,0.0,0.0,0.0,0.0,0.0,0.0,0.0,9.711407778556502e-05,-1.3720035111963735e-05,-3.0037081231060192e-05,0.0003422928654119861,-2.0565357720714328e-05,9.620296941248441e-05,-1.1411110231174248e-05,-4.985340004997826e-06,0.0003122696220850673,-0.0006157462754642797,-0.0002916781341581924,-0.00028075510029248866,0.0001696486950382386,-0.00035631470478817356,0.17287558317184448,11.826318740844727,-1.1918060779571533,-21.792634963989258,-0.2841086983680725,-2.5335726737976074,0.28232139348983765,0
25,0.11999821662902832,-0.17287558317184448,-11.826318740844727,1.1918060779571533,21.792634963989258,0.2841086983680725,2.5335726737976074,-0.28232139348983765,0.0,0.0,0.0,0.0,0.0,0.0,0.0,-0.15616045823023764,0.47972031312619334,0.04677792535223691,0.5143682366445512,-0.24559993119722964,0.12955239912278121,-0.3063874096122841,0.17278312354129655,-0.4875065267964413,-0.1114410636477303,-1.9467224792140425,0.1336264672652164,2.5954541568095215,0.9452559700714216,0.1728802376190821,-0.48752024683155326,-0.11147110072896137,-1.9463801863486305,0.1336059019074957,2.595550359778934,0.9452445589611904,4.985340004997826e-06,-0.0003122696220850673,0.0006157462754642797,0.0002916781341581924,0.00028075510029248866,-0.0001696486950382386,0.00035631470478817356,0.0,0.0,0.0,0.0,0.0,0.0,0.0,9.711407778556502e-05,-1.3720035111963735e-05,-3.0037081231060192e-05,0.0003422928654119861,-2.0565357720714328e-05,9.620296941248441e-05,-1.1411110231174248e-05,-4.985340004997826e-06,0.0003122696220850673,-0.0006157462754642797,-0.0002916781341581924,-0.00028075510029248866,0.0001696486950382386,-0.00035631470478817356,0.17287558317184448,11.826318740844727,-1.1918060779571533,-21.792634963989258,-0.2841086983680725,-2.5335726737976074,0.28232139348983765,0
26,0.1250011920928955,-0.12130087614059448,-11.850122451782227,1.2156097888946533,21.792634963989258,0.3024192452430725,2.5335726737976074,-0.24844686686992645,0.0,0.0,0.0,0.0,0.0,0.0,0.0,-0.15816797173087804,0.4956529904786462,0.04162464277576204,0.5095968107149651,-0.24547765509340738,0.12821120350243,-0.3037662530041142,0.17277950426361013,-0.487504856360586,-0.11144270777659729,-1.9467224792179305,0.13362870108504848,2.5954541610086674,0.9452522285834902,0.1728802376190821,-0.48752024683155326,-0.11147110072896137,-1.9463801863486305,0.1336059019074957,2.595550359778934,0.9452445589611904,-0.0012489400283531302,0.0008993645891723513,-0.0002557802461943244,0.00022828833024828425,-0.00036628125530642713,-0.00024350073520679378,-0.001483751588199983,0.0,0.0,0.0,0.0,0.0,0.0,0.0,0.00010073335547197693,-1.53904709672692e-05,-2.8392952364078572e-05,0.00034229286929998715,-2.2799177552795813e-05,9.619877026656454e-05,-7.669622299810719e-06,0.0012489400283531302,-0.0008993645891723513,0.0002557802461943244,-0.00022828833024828425,0.00036628125530642713,0.00024350073520679378,0.001483751588199983,0.12130087614059448,11.850122451782227,-1.2156097888946533,-21.792634963989258,-0.3024192452430725,-2.5335726737976074,0.24844686686992645,0
27,0.13000035285949707,-0.12130087614059448,-11.850122451782227,1.2156097888946533,21.792634963989258,0.3024192452430725,2.5335726737976074,-0.24844686686992645,0.0,0.0,0.0,0.0,0.0,0.0,0.0,-0.15816797173087804,0.4956529904786462,0.04162464277576204,0.5095968107149651,-0.24547765509340738,0.12821120350243,-0.3037662530041142,0.17277950426361013,-0.487504856360586,-0.11144270777659729,-1.9467224792179305,0.13362870108504848,2.5954541610086674,0.9452522285834902,0.1728802376190821,-0.48752024683155326,-0.11147110072896137,-1.9463801863486305,0.1336059019074957,2.595550359778934,0.9452445589611904,-0.0012489400283531302,0.0008993645891723513,-0.0002557802461943244,0.00022828833024828425,-0.00036628125530642713,-0.00024350073520679378,-0.001483751588199983,0.0,0.0,0.0,0.0,0.0,0.0,0.0,0.00010073335547197693,-1.53904709672692e-05,-2.8392952364078572e-05,0.00034229286929998715,-2.2799177552795813e-05,9.619877026656454e-05,-7.669622299810719e-06,0.0012489400283531302,-0.0008993645891723513,0.0002557802461943244,-0.00022828833024828425,0.00036628125530642713,0.00024350073520679378,0.001483751588199983,0.12130087614059448,11.850122451782227,-1.2156097888946533,-21.792634963989258,-0.3024192452430725,-2.5335726737976074,0.24844686686992645,0
28,0.13574576377868652,-0.12130087614059448,-11.774744033813477,1.2433807849884033,21.816438674926758,0.2905173897743225,2.5271639823913574,-0.30337852239608765,0.0,0.0,0.0,0.0,0.0,0.0,0.0,-0.15124252506483166,0.5079158725648165,0.04765138019308887,0.5063729717033434,-0.24516486882481897,0.127628471395529,-0.303135993485419,0.17277950426361013,-0.4875101460741277,-0.11144467415627213,-1.946724149653786,0.13362647988650286,2.5954545155121536,0.9452583053380761,0.1728802376190821,-0.48752024683155326,-0.11147110072896137,-1.9463801863486305,0.1336059019074957,2.595550359778934,0.9452445589611904,-0.000533068710232547,-0.00019794760696744922,-0.0001753894020193622,-0.0004917106426404205,-3.2558500881523434e-05,5.699793741523416e-05,0.0006084118598364867,0.0,0.0,0.0,0.0,0.0,0.0,0.0,0.00010073335547197693,-1.0100757425579587e-05,-2.6426572689239314e-05,0.00034396330515540363,-2.057797900717473e-05,9.584426678044267e-05,-1.3746376885670486e-05,0.000533068710232547,0.00019794760696744922,0.0001753894020193622,0.0004917106426404205,3.2558500881523434e-05,-5.699793741523416e-05,-0.0006084118598364867,0.12130087614059448,11.774744033813477,-1.2433807849884033,-21.816438674926758,-0.2905173897743225,-2.5271639823913574,0.30337852239608765,0
29,0.140000581741333,-0.12130087614059448,-11.774744033813477,1.2433807849884033,21.816438674926758,0.2905173897743225,2.5271639823913574,-0.30337852239608765,0.0,0.0,0.0,0.0,0.0,0.0,0.0,-0.15124252506483166,0.5079158725648165,0.04765138019308887,0.5063729717033434,-0.24516486882481897,0.127628471395529,-0.303135993485419,0.17277950426361013,-0.4875101460741277,-0.11144467415627213,-1.946724149653786,0.13362647988650286,2.5954545155121536,0.9452583053380761,0.1728802376190821,-0.48752024683155326,-0.11147110072896137,-1.9463801863486305,0.1336059019074957,2.595550359778934,0.9452445589611904,-0.000533068710232547,-0.00019794760696744922,-0.0001753894020193622,-0.0004917106426404205,-3.2558500881523434e-05,5.699793741523416e-05,0.0006084118598364867,0.0,0.0,0.0,0.0,0.0,0.0,0.0,0.00010073335547197693,-1.0100757425579587e-05,-2.6426572689239314e-05,0.00034396330515540363,-2.057797900717473e-05,9.584426678044267e-05,-1.3746376885670486e-05,0.000533068710232547,0.00019794760696744922,0.0001753894020193622,0.0004917106426404205,3.2558500881523434e-05,-5.699793741523416e-05,-0.0006084118598364867,0.12130087614059448,11.774744033813477,-1.2433807849884033,-21.816438674926758,-0.2905173897743225,-2.5271639823913574,0.30337852239608765,0
30,0.14499926567077637,-0.17287558317184448,-11.774744033813477,1.2671844959259033,21.741060256958008,0.2905173897743225,2.5271639823913574,-0.26217979192733765,0.0,0.0,0.0,0.0,0.0,0.0,0.0,-0.15044280797373902,0.5102898962110052,0.04171864457064666,0.5092902562420863,-0.24480065855934363,0.12784340983161818,-0.30308893337651654,0.17278312354129655,-0.4875101460741277,-0.11144635336122247,-1.9467188599402443,0.13362965299999655,2.5954545549713326,0.9452537278115685,0.1728802376190821,-0.48752024683155326,-0.11147110072896137,-1.9463801863486305,0.1336059019074957,2.595550359778934,0.9452445589611904,0.0010355677914376756,9.993316424537944e-07,-0.00027690224884562936,0.0013129730238595927,-0.00018029965835908378,-5.2666313045019676e-05,-0.0012509387223435474,0.0,0.0,0.0,0.0,0.0,0.0,0.0,9.711407778556502e-05,-1.0100757425579587e-05,-2.4747367738900405e-05,0.00033867359161376953,-2.3751092500856608e-05,9.58048076014073e-05,-9.168850378049598e-06,-0.0010355677914376756,-9.993316424537944e-07,0.00027690224884562936,-0.0013129730238595927,0.00018029965835908378,5.2666313045019676e-05,0.0012509387223435474,0.17287558317184448,11.774744033813477,-1.2671844959259033,-21.741060256958008,-0.2905173897743225,-2.5271639823913574,0.26217979192733765,0
31,0.14999985694885254,-0.17287558317184448,-11.774744033813477,1.2671844959259033,21.741060256958008,0.2905173897743225,2.5271639823913574,-0.26217979192733765,0.0,0.0,0.0,0.0,0.0,0.0,0.0,-0.15044280797373902,0.5102898962110052,0.04171864457064666,0.5092902562420863,-0.24480065855934363,0.12784340983161818,-0.30308893337651654,0.17278312354129655,-0.4875101460741277,-0.11144635336122247,-1.9467188599402443,0.13362965299999655,2.5954545549713326,0.9452537278115685,0.1728802376190821,-0.48752024683155326,-0.11147110072896137,-1.9463801863486305,0.1336059019074957,2.595550359778934,0.9452445589611904,0.0010355677914376756,9.993316424537944e-07,-0.00027690224884562936,0.0013129730238595927,-0.00018029965835908378,-5.2666313045019676e-05,-0.0012509387223435474,0.0,0.0,0.0,0.0,0.0,0.0,0.0,9.711407778556502e-05,-1.0100757425579587e-05,-2.4747367738900405e-05,0.00033867359161376953,-2.3751092500856608e-05,9.58048076014073e-05,-9.168850378049598e-06,-0.0010355677914376756,-9.993316424537944e-07,0.00027690224884562936,-0.0013129730238595927,0.00018029965835908378,5.2666313045019676e-05,0.0012509387223435474,0.17287558317184448,11.774744033813477,-1.2671844959259033,-21.741060256958008,-0.2905173897743225,-2.5271639823913574,0.26217979192733765,0
32,0.1549999713897705,-0.14510458707809448,-11.826318740844727,1.2909882068634033,21.816438674926758,0.2841086983680725,2.5271639823913574,-0.30337852239608765,0.0,0.0,0.0,0.0,0.0,0.0,0.0,-0.14896672196543959,0.5021716953375179,0.043157337160616906,0.5152973753018538,-0.2451520005607445,0.1282721406980815,-0.30297950422527037,0.1727811746994654,-0.4875065267964413,-0.11144802379712723,-1.946724149653786,0.13362611189264864,2.595454555402237,0.9452584259637538,0.1728802376190821,-0.48752024683155326,-0.11147110072896137,-1.9463801863486305,0.1336059019074957,2.595550359778934,0.9452445589611904,-7.455119058792203e-05,0.0003560063374655059,-0.000733848993292838,-0.0006720228299615402,9.842456776095192e-05,-6.0940471158260935e-05,0.00025856069160913906,0.0,0.0,0.0,0.0,0.0,0.0,0.0,9.906291961669922e-05,-1.3720035111963735e-05,-2.3076931834134506e-05,0.00034396330515540363,-2.020998515295247e-05,9.58043766972061e-05,-1.386700256333917e-05,7.455119058792203e-05,-0.0003560063374655059,0.000733848993292838,0.0006720228299615402,-9.842456776095192e-05,6.0940471158260935e-05,-0.00025856069160913906,0.14510458707809448,11.826318740844727,-1.2909882068634033,-21.816438674926758,-0.2841086983680725,-2.5271639823913574,0.30337852239608765,0
33,0.1600184440612793,-0.14510458707809448,-11.826318740844727,1.2909882068634033,21.816438674926758,0.2841086983680725,2.5271639823913574,-0.30337852239608765,0.0,0.0,0.0,0.0,0.0,0.0,0.0,-0.14896672196543959,0.5021716953375179,0.043157337160616906,0.5152973753018538,-0.2451520005607445,0.1282721406980815,-0.30297950422527037,0.1727811746994654,-0.4875065267964413,-0.11144802379712723,-1.946724149653786,0.13362611189264864,2.595454555402237,0.9452584259637538,0.1728802376190821,-0.48752024683155326,-0.11147110072896137,-1.9463801863486305,0.1336059019074957,2.595550359778934,0.9452445589611904,-7.455119058792203e-05,0.0003560063374655059,-0.000733848993292838,-0.0006720228299615402,9.842456776095192e-05,-6.0940471158260935e-05,0.00025856069160913906,0.0,0.0,0.0,0.0,0.0,0.0,0.0,9.906291961669922e-05,-1.3720035111963735e-05,-2.3076931834134506e-05,0.00034396330515540363,-2.020998515295247e-05,9.58043766972061e-05,-1.386700256333917e-05,7.455119058792203e-05,-0.0003560063374655059,0.000733848993292838,0.0006720228299615402,-9.842456776095192e-05,6.0940471158260935e-05,-0.00025856069160913906,0.14510458707809448,11.826318740844727,-1.2909882068634033,-21.816438674926758,-0.2841086983680725,-2.5271639823913574,0.30337852239608765,0
34,0.16500449180603027,-0.14510458707809448,-11.826318740844727,1.2909882068634033,21.816438674926758,0.2841086983680725,2.5271639823913574,-0.30337852239608765,0.0,0.0,0.0,0.0,0.0,0.0,0.0,-0.14896672196543959,0.5021716953375179,0.043157337160616906,0.5152973753018538,-0.2451520005607445,0.1282721406980815,-0.30297950422527037,0.1727811746994654,-0.4875065267964413,-0.11144802379712723,-1.946724149653786,0.13362611189264864,2.595454555402237,0.9452584259637538,0.1728802376190821,-0.48752024683155326,-0.11147110072896137,-1.9463801863486305,0.1336059019074957,2.595550359778934,0.9452445589611904,-7.455119058792203e-05,0.0003560063374655059,-0.000733848993292838,-0.0006720228299615402,9.842456776095192e-05,-6.0940471158260935e-05,0.00025856069160913906,0.0,0.0,0.0,0.0,0.0,0.0,0.0,9.906291961669922e-05,-1.3720035111963735e-05,-2.3076931834134506e-05,0.00034396330515540363,-2.020998515295247e-05,9.58043766972061e-05,-1.386700256333917e-05,7.455119058792203e-05,-0.0003560063374655059,0.000733848993292838,0.0006720228299615402,-9.842456776095192e-05,6.0940471158260935e-05,-0.00025856069160913906,0.14510458707809448,11.826318740844727,-1.2909882068634033,-21.816438674926758,-0.2841086983680725,-2.5271639823913574,0.30337852239608765,0
35,0.17000460624694824,-0.14510458707809448,-11.826318740844727,1.2909882068634033,21.816438674926758,0.2841086983680725,2.5271639823913574,-0.30337852239608765,0.0,0.0,0.0,0.0,0.0,0.0,0.0,-0.14896672196543959,0.5021716953375179,0.043157337160616906,0.5152973753018538,-0.2451520005607445,0.1282721406980815,-0.30297950422527037,0.1727811746994654,-0.4875065267964413,-0.11144802379712723,-1.946724149653786,0.13362611189264864,2.595454555402237,0.9452584259637538,0.1728802376190821,-0.48752024683155326,-0.11147110072896137,-1.9463801863486305,0.1336059019074957,2.595550359778934,0.9452445589611904,-7.455119058792203e-05,0.0003560063374655059,-0.000733848993292838,-0.0006720228299615402,9.842456776095192e-05,-6.0940471158260935e-05,0.00025856069160913906,0.0,0.0,0.0,0.0,0.0,0.0,0.0,9.906291961669922e-05,-1.3720035111963735e-05,-2.3076931834134506e-05,0.00034396330515540363,-2.020998515295247e-05,9.58043766972061e-05,-1.386700256333917e-05,7.455119058792203e-05,-0.0003560063374655059,0.000733848993292838,0.0006720228299615402,-9.842456776095192e-05,6.0940471158260935e-05,-0.00025856069160913906,0.14510458707809448,11.826318740844727,-1.2909882068634033,-21.816438674926758,-0.2841086983680725,-2.5271639823913574,0.30337852239608765,0
36,0.17552995681762695,-0.17287558317184448,-11.873926162719727,1.2433807849884033,21.840242385864258,0.2905173897743225,2.5335726737976074,-0.31711143255233765,0.0,0.0,0.0,0.0,0.0,0.0,0.0,-0.15209736458812448,0.4977822900399556,0.04468445538765776,0.5171143097469844,-0.24516630112052898,0.12840195476319516,-0.3028905202159248,0.17278312354129655,-0.48750318592473074,-0.11144468292541672,-1.9467258191448336,0.1336269346232799,2.5954541566462472,0.9452601803481684,0.1728802376190821,-0.48752024683155326,-0.11147110072896137,-1.9463801863486305,0.1336059019074957,2.595550359778934,0.9452445589611904,0.0002743160013770557,0.00047165716356916706,0.00010263506229378605,-0.0004903415134589273,-0.00012389930320091125,-7.496035063913981e-05,0.0006765062673029491,0.0,0.0,0.0,0.0,0.0,0.0,0.0,9.711407778556502e-05,-1.706090682251915e-05,-2.641780354464829e-05,0.00034563279620303256,-2.103271578421384e-05,9.620313268676739e-05,-1.5621386977970886e-05,-0.0002743160013770557,-0.00047165716356916706,-0.00010263506229378605,0.0004903415134589273,0.00012389930320091125,7.496035063913981e-05,-0.0006765062673029491,0.17287558317184448,11.873926162719727,-1.2433807849884033,-21.840242385864258,-0.2905173897743225,-2.5335726737976074,0.31711143255233765,0
37,0.17999792098999023,-0.17287558317184448,-11.873926162719727,1.2433807849884033,21.840242385864258,0.2905173897743225,2.5335726737976074,-0.31711143255233765,0.0,0.0,0.0,0.0,0.0,0.0,0.0,-0.15209736458812448,0.4977822900399556,0.04468445538765776,0.5171143097469844,-0.24516630112052898,0.12840195476319516,-0.3028905202159248,0.17278312354129655,-0.48750318592473074,-0.11144468292541672,-1.9467258191448336,0.1336269346232799,2.5954541566462472,0.9452601803481684,0.1728802376190821,-0.48752024683155326,-0.11147110072896137,-1.9463801863486305,0.1336059019074957,2.595550359778934,0.9452445589611904,0.0002743160013770557,0.00047165716356916706,0.00010263506229378605,-0.0004903415134589273,-0.00012389930320091125,-7.496035063913981e-05,0.0006765062673029491,0.0,0.0,0.0,0.0,0.0,0.0,0.0,9.711407778556502e-05,-1.706090682251915e-05,-2.641780354464829e-05,0.00034563279620303256,-2.103271578421384e-05,9.620313268676739e-05,-1.5621386977970886e-05,-0.0002743160013770557,-0.00047165716356916706,-0.00010263506229378605,0.0004903415134589273,0.00012389930320091125,7.496035063913981e-05,-0.0006765062673029491,0.17287558317184448,11.873926162719727,-1.2433807849884033,-21.840242385864258,-0.2905173897743225,-2.5335726737976074,0.31711143255233765,0
38,0.1850907802581787,-0.17287558317184448,-11.873926162719727,1.2156097888946533,21.816438674926758,0.2841086983680725,2.5335726737976074,-0.26858848333358765,0.0,0.0,0.0,0.0,0.0,0.0,0.0,-0.14897592552835448,0.49451800077314867,0.053264154501756825,0.5141969185976765,-0.24538668444406073,0.1285228470665237,-0.3035642171225819,0.17278312354129655,-0.48750318592473074,-0.11144273408358557,-1.9467241496537806,0.13362754334620322,2.595454274385586,0.9452544398903622,0.1728802376190821,-0.48752024683155326,-0.11147110072896137,-1.9463801863486305,0.1336059019074957,2.595550359778934,0.9452445589611904,0.0004364877915505228,-0.00045933035398287164,0.0006435019534206651,-0.00030156212705756527,6.0864823161594794e-05,-6.774629532420221e-05,-0.001341709211821791,0.0,0.0,0.0,0.0,0.0,0.0,0.0,9.711407778556502e-05,-1.706090682251915e-05,-2.8366645375796362e-05,0.00034396330515007456,-2.1641438707531435e-05,9.608539334804433e-05,-9.880929171757202e-06,-0.0004364877915505228,0.00045933035398287164,-0.0006435019534206651,0.00030156212705756527,-6.0864823161594794e-05,6.774629532420221e-05,0.001341709211821791,0.17287558317184448,11.873926162719727,-1.2156097888946533,-21.816438674926758,-0.2841086983680725,-2.5335726737976074,0.26858848333358765,0
39,0.1900005340576172,-0.17287558317184448,-11.873926162719727,1.2156097888946533,21.816438674926758,0.2841086983680725,2.5335726737976074,-0.26858848333358765,0.0,0.0,0.0,0.0,0.0,0.0,0.0,-0.14897592552835448,0.49451800077314867,0.053264154501756825,0.5141969185976765,-0.24538668444406073,0.1285228470665237,-0.3035642171225819,0.17278312354129655,-0.48750318592473074,-0.11144273408358557,-1.9467241496537806,0.13362754334620322,2.595454274385586,0.9452544398903622,0.1728802376190821,-0.48752024683155326,-0.11147110072896137,-1.9463801863486305,0.1336059019074957,2.595550359778934,0.9452445589611904,0.0004364877915505228,-0.00045933035398287164,0.0006435019534206651,-0.00030156212705756527,6.0864823161594794e-05,-6.774629532420221e-05,-0.001341709211821791,0.0,0.0,0.0,0.0,0.0,0.0,0.0,9.711407778556502e-05,-1.706090682251915e-05,-2.8366645375796362e-05,0.00034396330515007456,-2.1641438707531435e-05,9.608539334804433e-05,-9.880929171757202e-06,-0.0004364877915505228,0.00045933035398287164,-0.0006435019534206651,0.00030156212705756527,-6.0864823161594794e-05,6.774629532420221e-05,0.001341709211821791,0.17287558317184448,11.873926162719727,-1.2156097888946533,-21.816438674926758,-0.2841086983680725,-2.5335726737976074,0.26858848333358765,0
40,0.19501709938049316,-0.14510458707809448,-11.826318740844727,1.2909882068634033,21.768831253051758,0.2905173897743225,2.5399813652038574,-0.31711143255233765,0.0,0.0,0.0,0.0,0.0,0.0,0.0,-0.14772922942163488,0.4982703140631158,0.05546868629562164,0.5064225372791595,-0.24626943903749912,0.1280335812597347,-0.3035100349616942,0.1727811746994654,-0.4875065267964413,-0.11144802379712723,-1.9467208087820753,0.13362556985669577,2.595453091359148,0.9452630761398975,0.1728802376190821,-0.48752024683155326,-0.11147110072896137,-1.9463801863486305,0.1336059019074957,2.595550359778934,0.9452445589611904,-0.0006739033697191303,-0.0013995687495827547,-0.0010748118881144042,0.000787822353355713,-6.835756341442683e-05,-0.0003234601731648657,0.0007446293574279143,0.0,0.0,0.0,0.0,0.0,0.0,0.0,9.906291961669922e-05,-1.3720035111963735e-05,-2.3076931834134506e-05,0.0003406224334447927,-1.9667949200080637e-05,9.72684197861895e-05,-1.8517178707044835e-05,0.0006739033697191303,0.0013995687495827547,0.0010748118881144042,-0.000787822353355713,6.835756341442683e-05,0.0003234601731648657,-0.0007446293574279143,0.14510458707809448,11.826318740844727,-1.2909882068634033,-21.768831253051758,-0.2905173897743225,-2.5399813652038574,0.31711143255233765,0
41,0.200789213180542,-0.14510458707809448,-11.826318740844727,1.2909882068634033,21.768831253051758,0.2905173897743225,2.5399813652038574,-0.31711143255233765,0.0,0.0,0.0,0.0,0.0,0.0,0.0,-0.14772922942163488,0.4982703140631158,0.05546868629562164,0.5064225372791595,-0.24626943903749912,0.1280335812597347,-0.3035100349616942,0.1727811746994654,-0.4875065267964413,-0.11144802379712723,-1.9467208087820753,0.13362556985669577,2.595453091359148,0.9452630761398975,0.1728802376190821,-0.48752024683155326,-0.11147110072896137,-1.9463801863486305,0.1336059019074957,2.595550359778934,0.9452445589611904,-0.0006739033697191303,-0.0013995687495827547,-0.0010748118881144042,0.000787822353355713,-6.835756341442683e-05,-0.0003234601731648657,0.0007446293574279143,0.0,0.0,0.0,0.0,0.0,0.0,0.0,9.906291961669922e-05,-1.3720035111963735e-05,-2.3076931834134506e-05,0.0003406224334447927,-1.9667949200080637e-05,9.72684197861895e-05,-1.8517178707044835e-05,0.0006739033697191303,0.0013995687495827547,0.0010748118881144042,-0.000787822353355713,6.835756341442683e-05,0.0003234601731648657,-0.0007446293574279143,0.14510458707809448,11.826318740844727,-1.2909882068634033,-21.768831253051758,-0.2905173897743225,-2.5399813652038574,0.31711143255233765,0
42,0.20499968528747559,-0.17287558317184448,-11.826318740844727,1.2433807849884033,21.768831253051758,0.2841086983680725,2.5207552909851074,-0.29605430364608765,0.0,0.0,0.0,0.0,0.0,0.0,0.0,-0.1531385139881504,0.4979201315934116,0.04965259511897256,0.501573912389193,-0.24587762681640757,0.1276053979839705,-0.3035055462934144,0.17278312354129655,-0.4875065267964413,-0.11144468292541672,-1.9467208087820753,0.1336266231740676,2.595456640491632,0.9452574780899774,0.1728802376190821,-0.48752024683155326,-0.11147110072896137,-1.9463801863486305,0.1336059019074957,2.595550359778934,0.9452445589611904,0.0004089779280359505,-0.0005632641288077127,-0.00019071563319881553,0.0008369566788313415,0.00016121144488653354,0.00023013031662671646,0.0005962977739609258,0.0,0.0,0.0,0.0,0.0,0.0,0.0,9.711407778556502e-05,-1.3720035111963735e-05,-2.641780354464829e-05,0.0003406224334447927,-2.0721266571904762e-05,9.371928730184109e-05,-1.2919128786981204e-05,-0.0004089779280359505,0.0005632641288077127,0.00019071563319881553,-0.0008369566788313415,-0.00016121144488653354,-0.00023013031662671646,-0.0005962977739609258,0.17287558317184448,11.826318740844727,-1.2433807849884033,-21.768831253051758,-0.2841086983680725,-2.5207552909851074,0.29605430364608765,0
43,0.20999789237976074,-0.17287558317184448,-11.826318740844727,1.2433807849884033,21.768831253051758,0.2841086983680725,2.5207552909851074,-0.29605430364608765,0.0,0.0,0.0,0.0,0.0,0.0,0.0,-0.1531385139881504,0.4979201315934116,0.04965259511897256,0.501573912389193,-0.24587762681640757,0.1276053979839705,-0.3035055462934144,0.17278312354129655,-0.4875065267964413,-0.11144468292541672,-1.9467208087820753,0.1336266231740676,2.595456640491632,0.9452574780899774,0.1728802376190821,-0.48752024683155326,-0.11147110072896137,-1.9463801863486305,0.1336059019074957,2.595550359778934,0.9452445589611904,0.0004089779280359505,-0.0005632641288077127,-0.00019071563319881553,0.0008369566788313415,0.00016121144488653354,0.00023013031662671646,0.0005962977739609258,0.0,0.0,0.0,0.0,0.0,0.0,0.0,9.711407778556502e-05,-1.3720035111963735e-05,-2.641780354464829e-05,0.0003406224334447927,-2.0721266571904762e-05,9.371928730184109e-05,-1.2919128786981204e-05,-0.0004089779280359505,0.0005632641288077127,0.00019071563319881553,-0.0008369566788313415,-0.00016121144488653354,-0.00023013031662671646,-0.0005962977739609258,0.17287558317184448,11.826318740844727,-1.2433807849884033,-21.768831253051758,-0.2841086983680725,-2.5207552909851074,0.29605430364608765,0
44,0.21499872207641602,-0.14510458707809448,-11.826318740844727,1.1918060779571533,21.792634963989258,0.2905173897743225,2.5271639823913574,-0.30978721380233765,0.0,0.0,0.0,0.0,0.0,0.0,0.0,-0.15980647606222287,0.4819179856169363,0.04086808463361644,0.5075785082697253,-0.24527500992720452,0.1278772562609358,-0.3014310452658882,0.1727811746994654,-0.4875065267964413,-0.1114410636477303,-1.9467224792179305,0.1336257949377946,2.5954545549254733,0.9452622668074047,0.1728802376190821,-0.48752024683155326,-0.11147110072896137,-1.9463801863486305,0.1336059019074957,2.595550359778934,0.9452445589611904,-0.000534813328771597,-0.0005401929053287488,0.0005320010479636996,-0.00010017945793927757,6.821054930170116e-05,3.1566164383507866e-05,0.0005895347475068321,0.0,0.0,0.0,0.0,0.0,0.0,0.0,9.906291961669922e-05,-1.3720035111963735e-05,-3.0037081231060192e-05,0.00034229286929998715,-1.9893030298923087e-05,9.580485346072365e-05,-1.770784621424326e-05,0.000534813328771597,0.0005401929053287488,-0.0005320010479636996,0.00010017945793927757,-6.821054930170116e-05,-3.1566164383507866e-05,-0.0005895347475068321,0.14510458707809448,11.826318740844727,-1.1918060779571533,-21.792634963989258,-0.2905173897743225,-2.5271639823913574,0.30978721380233765,0
45,0.2200002670288086,-0.14510458707809448,-11.826318740844727,1.1918060779571533,21.792634963989258,0.2905173897743225,2.5271639823913574,-0.30978721380233765,0.0,0.0,0.0,0.0,0.0,0.0,0.0,-0.15980647606222287,0.4819179856169363,0.04086808463361644,0.5075785082697253,-0.24527500992720452,0.1278772562609358,-0.3014310452658882,0.1727811746994654,-0.4875065267964413,-0.1114410636477303,-1.9467224792179305,0.1336257949377946,2.5954545549254733,0.9452622668074047,0.1728802376190821,-0.48752024683155326,-0.11147110072896137,-1.9463801863486305,0.1336059019074957,2.595550359778934,0.9452445589611904,-0.000534813328771597,-0.0005401929053287488,0.0005320010479636996,-0.00010017945793927757,6.821054930170116e-05,3.1566164383507866e-05,0.0005895347475068321,0.0,0.0,0.0,0.0,0.0,0.0,0.0,9.906291961669922e-05,-1.3720035111963735e-05,-3.0037081231060192e-05,0.00034229286929998715,-1.9893030298923087e-05,9.580485346072365e-05,-1.770784621424326e-05,0.000534813328771597,0.0005401929053287488,-0.0005320010479636996,0.00010017945793927757,-6.821054930170116e-05,-3.1566164383507866e-05,-0.0005895347475068321,0.14510458707809448,11.826318740844727,-1.1918060779571533,-21.792634963989258,-0.2905173897743225,-2.5271639823913574,0.30978721380233765,0
46,0.22580647468566895,-0.17287558317184448,-11.826318740844727,1.2156097888946533,21.816438674926758,0.2905173897743225,2.5335726737976074,-0.26217979192733765,0.0,0.0,0.0,0.0,0.0,0.0,0.0,-0.15871345348372634,0.49368779498702176,0.0399091981905699,0.5042809826436387,-0.24517646183031402,0.12733906800795522,-0.3015866307482601,0.17278312354129655,-0.4875065267964413,-0.11144273404749917,-1.946724149653786,0.13362894243551957,2.5954538048869367,0.9452548137995652,0.1728802376190821,-0.48752024683155326,-0.11147110072896137,-1.9463801863486305,0.1336059019074957,2.595550359778934,0.9452445589611904,-4.245879544359856e-05,0.0005273565799452828,2.0344476230586786e-05,-0.00035055275650403104,-1.4768641011650838e-05,-8.222208134847391e-05,-0.0014820786296268925,0.0,0.0,0.0,0.0,0.0,0.0,0.0,9.711407778556502e-05,-1.3720035111963735e-05,-2.836668146219412e-05,0.00034396330515540363,-2.3040528023876572e-05,9.65548919973358e-05,-1.0254838374801345e-05,4.245879544359856e-05,-0.0005273565799452828,-2.0344476230586786e-05,0.00035055275650403104,1.4768641011650838e-05,8.222208134847391e-05,0.0014820786296268925,0.17287558317184448,11.826318740844727,-1.2156097888946533,-21.816438674926758,-0.2905173897743225,-2.5335726737976074,0.26217979192733765,0
47,0.23001337051391602,-0.17287558317184448,-11.826318740844727,1.2156097888946533,21.816438674926758,0.2905173897743225,2.5335726737976074,-0.26217979192733765,0.0,0.0,0.0,0.0,0.0,0.0,0.0,-0.15871345348372634,0.49368779498702176,0.0399091981905699,0.5042809826436387,-0.24517646183031402,0.12733906800795522,-0.3015866307482601,0.17278312354129655,-0.4875065267964413,-0.11144273404749917,-1.946724149653786,0.13362894243551957,2.5954538048869367,0.9452548137995652,0.1728802376190821,-0.48752024683155326,-0.11147110072896137,-1.9463801863486305,0.1336059019074957,2.595550359778934,0.9452445589611904,-4.245879544359856e-05,0.0005273565799452828,2.0344476230586786e-05,-0.00035055275650403104,-1.4768641011650838e-05,-8.222208134847391e-05,-0.0014820786296268925,0.0,0.0,0.0,0.0,0.0,0.0,0.0,9.711407778556502e-05,-1.3720035111963735e-05,-2.836668146219412e-05,0.00034396330515540363,-2.3040528023876572e-05,9.65548919973358e-05,-1.0254838374801345e-05,4.245879544359856e-05,-0.0005273565799452828,-2.0344476230586786e-05,0.00035055275650403104,1.4768641011650838e-05,8.222208134847391e-05,0.0014820786296268925,0.17287558317184448,11.826318740844727,-1.2156097888946533,-21.816438674926758,-0.2905173897743225,-2.5335726737976074,0.26217979192733765,0
48,0.23501920700073242,-0.14510458707809448,-11.826318740844727,1.2909882068634033,21.816438674926758,0.2786155343055725,2.5335726737976074,-0.30978721380233765,0.0,0.0,0.0,0.0,0.0,0.0,0.0,-0.15606975622149213,0.4882570016099845,0.04665644133066083,0.5113386076536711,-0.24545444513037978,0.12856419928684262,-0.3028586896326297,0.1727811746994654,-0.4875065267964413,-0.11144802379712702,-1.946724149653786,0.133630974038194,2.5954538036486614,0.9452590084815451,0.1728802376190821,-0.48752024683155326,-0.11147110072896137,-1.9463801863486305,0.1336059019074957,2.595550359778934,0.9452445589611904,-0.0008893446966866874,6.531504031556033e-05,-0.0009901807722551312,0.0001809241641656335,0.000300172793656656,-0.00010103292496954982,0.000704867108060109,0.0,0.0,0.0,0.0,0.0,0.0,0.0,9.906291961669922e-05,-1.3720035111963735e-05,-2.3076931834342673e-05,0.00034396330515540363,-2.5072130698300388e-05,9.655613027259591e-05,-1.4449520354675727e-05,0.0008893446966866874,-6.531504031556033e-05,0.0009901807722551312,-0.0001809241641656335,-0.000300172793656656,0.00010103292496954982,-0.000704867108060109,0.14510458707809448,11.826318740844727,-1.2909882068634033,-21.816438674926758,-0.2786155343055725,-2.5335726737976074,0.30978721380233765,0
49,0.24000215530395508,-0.14510458707809448,-11.826318740844727,1.2909882068634033,21.816438674926758,0.2786155343055725,2.5335726737976074,-0.30978721380233765,0.0,0.0,0.0,0.0,0.0,0.0,0.0,-0.15606975622149213,0.4882570016099845,0.04665644133066083,0.5113386076536711,-0.24545444513037978,0.12856419928684262,-0.3028586896326297,0.1727811746994654,-0.4875065267964413,-0.11144802379712702,-1.946724149653786,0.133630974038194,2.5954538036486614,0.9452590084815451,0.1728802376190821,-0.48752024683155326,-0.11147110072896137,-1.9463801863486305,0.1336059019074957,2.595550359778934,0.9452445589611904,-0.0008893446966866874,6.531504031556033e-05,-0.0009901807722551312,0.0001809241641656335,0.000300172793656656,-0.00010103292496954982,0.000704867108060109,0.0,0.0,0.0,0.0,0.0,0.0,0.0,9.906291961669922e-05,-1.3720035111963735e-05,-2.3076931834342673e-05,0.00034396330515540363,-2.5072130698300388e-05,9.655613027259591e-05,-1.4449520354675727e-05,0.0008893446966866874,-6.531504031556033e-05,0.0009901807722551312,-0.0001809241641656335,-0.000300172793656656,0.00010103292496954982,-0.000704867108060109,0.14510458707809448,11.826318740844727,-1.2909882068634033,-21.816438674926758,-0.2786155343055725,-2.5335726737976074,0.30978721380233765,0
50,0.24500346183776855,-0.12130087614059448,-11.802515029907227,1.2909882068634033,21.792634963989258,0.2905173897743225,2.5335726737976074,-0.31711143255233765,0.0,0.0,0.0,0.0,0.0,0.0,0.0,-0.15663320771716147,0.5033228851522091,0.04800018920854536,0.5076192067307916,-0.2457320082352045,0.12822802989448792,-0.30317830214431674,0.17277950426361013,-0.48750819723229655,-0.11144802379712723,-1.9467224792179305,0.13362646292732666,2.59545486355596,0.9452598177525987,0.1728802376190821,-0.48752024683155326,-0.11147110072896137,-1.9463801863486305,0.1336059019074957,2.595550359778934,0.9452445589611904,-7.627991718629822e-05,0.00018640152586868355,-0.0007024435031889191,0.0004501607886261166,-0.0001739951891566839,-0.00014512536305696526,0.001218139621831638,0.0,0.0,0.0,0.0,0.0,0.0,0.0,0.00010073335547197693,-1.2049599256713783e-05,-2.3076931834134506e-05,0.00034229286929998715,-2.056101983097247e-05,9.549622297422289e-05,-1.525879140829023e-05,7.627991718629822e-05,-0.00018640152586868355,0.0007024435031889191,-0.0004501607886261166,0.0001739951891566839,0.00014512536305696526,-0.001218139621831638,0.12130087614059448,11.802515029907227,-1.2909882068634033,-21.792634963989258,-0.2905173897743225,-2.5335726737976074,0.31711143255233765,0
51,0.2499992847442627,-0.12130087614059448,-11.802515029907227,1.2909882068634033,21.792634963989258,0.2905173897743225,2.5335726737976074,-0.31711143255233765,0.0,0.0,0.0,0.0,0.0,0.0,0.0,-0.15663320771716147,0.5033228851522091,0.04800018920854536,0.5076192067307916,-0.2457320082352045,0.12822802989448792,-0.30317830214431674,0.17277950426361013,-0.48750819723229655,-0.11144802379712723,-1.9467224792179305,0.13362646292732666,2.59545486355596,0.9452598177525987,0.1728802376190821,-0.48752024683155326,-0.11147110072896137,-1.9463801863486305,0.1336059019074957,2.595550359778934,0.9452445589611904,-7.627991718629822e-05,0.00018640152586868355,-0.0007024435031889191,0.0004501607886261166,-0.0001739951891566839,-0.00014512536305696526,0.001218139621831638,0.0,0.0,0.0,0.0,0.0,0.0,0.0,0.00010073335547197693,-1.2049599256713783e-05,-2.3076931834134506e-05,0.00034229286929998715,-2.056101983097247e-05,9.549622297422289e-05,-1.525879140829023e-05,7.627991718629822e-05,-0.00018640152586868355,0.0007024435031889191,-0.0004501607886261166,0.0001739951891566839,0.00014512536305696526,-0.001218139621831638,0.12130087614059448,11.802515029907227,-1.2909882068634033,-21.792634963989258,-0.2905173897743225,-2.5335726737976074,0.31711143255233765,0
52,0.25499558448791504,-0.12130087614059448,-11.750940322875977,1.2433807849884033,21.792634963989258,0.2960105538368225,2.5207552909851074,-0.26858848333358765,0.0,0.0,0.0,0.0,0.0,0.0,0.0,-0.15453184029705497,0.5154761582913168,0.048085663574657905,0.5053154213903333,-0.24582686200676956,0.12862240015660484,-0.30304732406544554,0.17277950426361013,-0.48751181650998293,-0.11144468292541672,-1.9467224792179305,0.13362482849073454,2.5954584066688358,0.9452544263137711,0.1728802376190821,-0.48752024683155326,-0.11147110072896137,-1.9463801863486305,0.1336059019074957,2.595550359778934,0.9452445589611904,-0.0003475067196961617,-0.00024515353937157287,0.0007700145217349707,0.0003073400313501958,-0.00016682650180562832,0.00045920831592753805,-0.0010134537689805833,0.0,0.0,0.0,0.0,0.0,0.0,0.0,0.00010073335547197693,-8.430321570329635e-06,-2.641780354464829e-05,0.00034229286929998715,-1.892658323884855e-05,9.195311009824181e-05,-9.867352580683608e-06,0.0003475067196961617,0.00024515353937157287,-0.0007700145217349707,-0.0003073400313501958,0.00016682650180562832,-0.00045920831592753805,0.0010134537689805833,0.12130087614059448,11.750940322875977,-1.2433807849884033,-21.792634963989258,-0.2960105538368225,-2.5207552909851074,0.26858848333358765,0
53,0.2607877254486084,-0.12130087614059448,-11.750940322875977,1.2433807849884033,21.792634963989258,0.2960105538368225,2.5207552909851074,-0.26858848333358765,0.0,0.0,0.0,0.0,0.0,0.0,0.0,-0.15453184029705497,0.5154761582913168,0.048085663574657905,0.5053154213903333,-0.24582686200676956,0.12862240015660484,-0.30304732406544554,0.17277950426361013,-0.48751181650998293,-0.11144468292541672,-1.9467224792179305,0.13362482849073454,2.5954584066688358,0.9452544263137711,0.1728802376190821,-0.48752024683155326,-0.11147110072896137,-1.9463801863486305,0.1336059019074957,2.595550359778934,0.9452445589611904,-0.0003475067196961617,-0.00024515353937157287,0.0007700145217349707,0.0003073400313501958,-0.00016682650180562832,0.00045920831592753805,-0.0010134537689805833,0.0,0.0,0.0,0.0,0.0,0.0,0.0,0.00010073335547197693,-8.430321570329635e-06,-2.641780354464829e-05,0.00034229286929998715,-1.892658323884855e-05,9.195311009824181e-05,-9.867352580683608e-06,0.0003475067196961617,0.00024515353937157287,-0.0007700145217349707,-0.0003073400313501958,0.00016682650180562832,-0.00045920831592753805,0.0010134537689805833,0.12130087614059448,11.750940322875977,-1.2433807849884033,-21.792634963989258,-0.2960105538368225,-2.5207552909851074,0.26858848333358765,0
54,0.26500511169433594,-0.12130087614059448,-11.826318740844727,1.2671844959259033,21.768831253051758,0.2960105538368225,2.5271639823913574,-0.27591270208358765,0.0,0.0,0.0,0.0,0.0,0.0,0.0,-0.1490550765690551,0.49833385089480503,0.0517426988240347,0.5174639248444491,-0.2452067226302605,0.13062904354456045,-0.30281022166715144,0.17277950426361013,-0.4875065267964413,-0.11144635336127197,-1.9467208087820753,0.13362799103363,2.595454515516117,0.9452552938070397,0.1728802376190821,-0.48752024683155326,-0.11147110072896137,-1.9463801863486305,0.1336059019074957,2.595550359778934,0.9452445589611904,-0.0002281383652861682,0.0005721693153009753,-9.884760526573256e-05,0.0007889783817265646,-0.00027782316170080505,1.2160182486268511e-05,-0.0006466794633104748,0.0,0.0,0.0,0.0,0.0,0.0,0.0,0.00010073335547197693,-1.3720035111963735e-05,-2.4747367689398336e-05,0.0003406224334447927,-2.2089126134300363e-05,9.584426281694647e-05,-1.073484584923623e-05,0.0002281383652861682,-0.0005721693153009753,9.884760526573256e-05,-0.0007889783817265646,0.00027782316170080505,-1.2160182486268511e-05,0.0006466794633104748,0.12130087614059448,11.826318740844727,-1.2671844959259033,-21.768831253051758,-0.2960105538368225,-2.5271639823913574,0.27591270208358765,0
55,0.2700014114379883,-0.12130087614059448,-11.826318740844727,1.2671844959259033,21.768831253051758,0.2960105538368225,2.5271639823913574,-0.27591270208358765,0.0,0.0,0.0,0.0,0.0,0.0,0.0,-0.1490550765690551,0.49833385089480503,0.0517426988240347,0.5174639248444491,-0.2452067226302605,0.13062904354456045,-0.30281022166715144,0.17277950426361013,-0.4875065267964413,-0.11144635336127197,-1.9467208087820753,0.13362799103363,2.595454515516117,0.9452552938070397,0.1728802376190821,-0.48752024683155326,-0.11147110072896137,-1.9463801863486305,0.1336059019074957,2.595550359778934,0.9452445589611904,-0.0002281383652861682,0.0005721693153009753,-9.884760526573256e-05,0.0007889783817265646,-0.00027782316170080505,1.2160182486268511e-05,-0.0006466794633104748,0.0,0.0,0.0,0.0,0.0,0.0,0.0,0.00010073335547197693,-1.3720035111963735e-05,-2.4747367689398336e-05,0.0003406224334447927,-2.2089126134300363e-05,9.584426281694647e-05,-1.073484584923623e-05,0.0002281383652861682,-0.0005721693153009753,9.884760526573256e-05,-0.0007889783817265646,0.00027782316170080505,-1.2160182486268511e-05,0.0006466794633104748,0.12130087614059448,11.826318740844727,-1.2671844959259033,-21.768831253051758,-0.2960105538368225,-2.5271639823913574,0.27591270208358765,0
56,0.27501893043518066,-0.12130087614059448,-11.826318740844727,1.2671844959259033,21.768831253051758,0.2960105538368225,2.5271639823913574,-0.27591270208358765,0.0,0.0,0.0,0.0,0.0,0.0,0.0,-0.1490550765690551,0.49833385089480503,0.0517426988240347,0.5174639248444491,-0.2452067226302605,0.13062904354456045,-0.30281022166715144,0.17277950426361013,-0.4875065267964413,-0.11144635336127197,-1.9467208087820753,0.13362799103363,2.595454515516117,0.9452552938070397,0.1728802376190821,-0.48752024683155326,-0.11147110072896137,-1.9463801863486305,0.1336059019074957,2.595550359778934,0.9452445589611904,-0.0002281383652861682,0.0005721693153009753,-9.884760526573256e-05,0.0007889783817265646,-0.00027782316170080505,1.2160182486268511e-05,-0.0006466794633104748,0.0,0.0,0.0,0.0,0.0,0.0,0.0,0.00010073335547197693,-1.3720035111963735e-05,-2.4747367689398336e-05,0.0003406224334447927,-2.2089126134300363e-05,9.584426281694647e-05,-1.073484584923623e-05,0.0002281383652861682,-0.0005721693153009753,9.884760526573256e-05,-0.0007889783817265646,0.00027782316170080505,-1.2160182486268511e-05,0.0006466794633104748,0.12130087614059448,11.826318740844727,-1.2671844959259033,-21.768831253051758,-0.2960105538368225,-2.5271639823913574,0.27591270208358765,0
57,0.2800331115722656,-0.12130087614059448,-11.826318740844727,1.2671844959259033,21.768831253051758,0.2960105538368225,2.5271639823913574,-0.27591270208358765,0.0,0.0,0.0,0.0,0.0,0.0,0.0,-0.1490550765690551,0.49833385089480503,0.0517426988240347,0.5174639248444491,-0.2452067226302605,0.13062904354456045,-0.30281022166715144,0.17277950426361013,-0.4875065267964413,-0.11144635336127197,-1.9467208087820753,0.13362799103363,2.595454515516117,0.9452552938070397,0.1728802376190821,-0.48752024683155326,-0.11147110072896137,-1.9463801863486305,0.1336059019074957,2.595550359778934,0.9452445589611904,-0.0002281383652861682,0.0005721693153009753,-9.884760526573256e-05,0.0007889783817265646,-0.00027782316170080505,1.2160182486268511e-05,-0.0006466794633104748,0.0,0.0,0.0,0.0,0.0,0.0,0.0,0.00010073335547197693,-1.3720035111963735e-05,-2.4747367689398336e-05,0.0003406224334447927,-2.2089126134300363e-05,9.584426281694647e-05,-1.073484584923623e-05,0.0002281383652861682,-0.0005721693153009753,9.884760526573256e-05,-0.0007889783817265646,0.00027782316170080505,-1.2160182486268511e-05,0.0006466794633104748,0.12130087614059448,11.826318740844727,-1.2671844959259033,-21.768831253051758,-0.2960105538368225,-2.5271639823913574,0.27591270208358765,0
58,0.28502964973449707,-0.17287558317184448,-11.850122451782227,1.2433807849884033,21.816438674926758,0.3024192452430725,2.5335726737976074,-0.31711143255233765,0.0,0.0,0.0,0.0,0.0,0.0,0.0,-0.15077117122489034,0.5051253162481936,0.046015471262542476,0.5142783169385148,-0.24490739715012877,0.13003930968875896,-0.30195524941518315,0.17278312354129655,-0.487504856360586,-0.11144444616252219,-1.9467241495488075,0.13362514141107099,2.5954538034871475,0.9452601812857928,0.1728802376190821,-0.48752024683155326,-0.11147110072896137,-1.9463801863486305,0.1336059019074957,2.595550359778934,0.9452445589611904,0.0003469199579021896,0.000470299497415094,-0.00018250341637092657,-0.00035185539269393747,-0.0005164114850619984,1.4482854114935902e-05,0.0009689132641151284,0.0,0.0,0.0,0.0,0.0,0.0,0.0,9.711407778556502e-05,-1.53904709672692e-05,-2.66545664391743e-05,0.00034396320017693327,-1.92395035752968e-05,9.655629178650926e-05,-1.5622324602393434e-05,-0.0003469199579021896,-0.000470299497415094,0.00018250341637092657,0.00035185539269393747,0.0005164114850619984,-1.4482854114935902e-05,-0.0009689132641151284,0.17287558317184448,11.850122451782227,-1.2433807849884033,-21.816438674926758,-0.3024192452430725,-2.5335726737976074,0.31711143255233765,0
59,0.29004502296447754,-0.17287558317184448,-11.850122451782227,1.2433807849884033,21.816438674926758,0.3024192452430725,2.5335726737976074,-0.31711143255233765,0.0,0.0,0.0,0.0,0.0,0.0,0.0,-0.15077117122489034,0.5051253162481936,0.046015471262542476,0.5142783169385148,-0.24490739715012877,0.13003930968875896,-0.30195524941518315,0.17278312354129655,-0.487504856360586,-0.11144444616252219,-1.9467241495488075,0.13362514141107099,2.5954538034871475,0.9452601812857928,0.1728802376190821,-0.48752024683155326,-0.11147110072896137,-1.9463801863486305,0.1336059019074957,2.595550359778934,0.9452445589611904,0.0003469199579021896,0.000470299497415094,-0.00018250341637092657,-0.00035185539269393747,-0.0005164114850619984,1.4482854114935902e-05,0.0009689132641151284,0.0,0.0,0.0,0.0,0.0,0.0,0.0,9.711407778556502e-05,-1.53904709672692e-05,-2.66545664391743e-05,0.00034396320017693327,-1.92395035752968e-05,9.655629178650926e-05,-1.5622324602393434e-05,-0.0003469199579021896,-0.000470299497415094,0.00018250341637092657,0.00035185539269393747,0.0005164114850619984,-1.4482854114935902e-05,-0.0009689132641151284,0.17287558317184448,11.850122451782227,-1.2433807849884033,-21.816438674926758,-0.3024192452430725,-2.5335726737976074,0.31711143255233765,0
60,0.2950477600097656,-0.17287558317184448,-11.873926162719727,1.2433807849884033,21.741060256958008,0.2905173897743225,2.5271639823913574,-0.27591270208358765,0.0,0.0,0.0,0.0,0.0,0.0,0.0,-0.1492723993053726,0.4949901001978219,0.04824573863619311,0.5166471340951674,-0.24466777761600744,0.1307583186958279,-0.3021062056844127,0.17278312354129655,-0.48750318592473074,-0.11144468292497121,-1.9467188599402443,0.13362555820387562,2.595454528753593,0.9452552406131682,0.1728802376190821,-0.48752024683155326,-0.11147110072896137,-1.9463801863486305,0.1336059019074957,2.595550359778934,0.9452445589611904,0.0006116752812347627,-9.124704092833576e-05,-0.0006795735691519576,0.0020823272437035627,-0.0001275310240128204,0.0003516674065102527,-0.0004377174312324118,0.0,0.0,0.0,0.0,0.0,0.0,0.0,9.711407778556502e-05,-1.706090682251915e-05,-2.6417803990153033e-05,0.00033867359161376953,-1.9656296379927385e-05,9.583102534094223e-05,-1.0681651977817452e-05,-0.0006116752812347627,9.124704092833576e-05,0.0006795735691519576,-0.0020823272437035627,0.0001275310240128204,-0.0003516674065102527,0.0004377174312324118,0.17287558317184448,11.873926162719727,-1.2433807849884033,-21.741060256958008,-0.2905173897743225,-2.5271639823913574,0.27591270208358765,0
61,0.3000469207763672,-0.17287558317184448,-11.873926162719727,1.2433807849884033,21.741060256958008,0.2905173897743225,2.5271639823913574,-0.27591270208358765,0.0,0.0,0.0,0.0,0.0,0.0,0.0,-0.1492723993053726,0.4949901001978219,0.04824573863619311,0.5166471340951674,-0.24466777761600744,0.1307583186958279,-0.3021062056844127,0.17278312354129655,-0.48750318592473074,-0.11144468292497121,-1.9467188599402443,0.13362555820387562,2.595454528753593,0.9452552406131682,0.1728802376190821,-0.48752024683155326,-0.11147110072896137,-1.9463801863486305,0.1336059019074957,2.595550359778934,0.9452445589611904,0.0006116752812347627,-9.124704092833576e-05,-0.0006795735691519576,0.0020823272437035627,-0.0001275310240128204,0.0003516674065102527,-0.0004377174312324118,0.0,0.0,0.0,0.0,0.0,0.0,0.0,9.711407778556502e-05,-1.706090682251915e-05,-2.6417803990153033e-05,0.00033867359161376953,-1.9656296379927385e-05,9.583102534094223e-05,-1.0681651977817452e-05,-0.0006116752812347627,9.124704092833576e-05,0.0006795735691519576,-0.0020823272437035627,0.0001275310240128204,-0.0003516674065102527,0.0004377174312324118,0.17287558317184448,11.873926162719727,-1.2433807849884033,-21.741060256958008,-0.2905173897743225,-2.5271639823913574,0.27591270208358765,0
62,0.3050227165222168,-0.12130087614059448,-11.873926162719727,1.2433807849884033,21.792634963989258,0.2960105538368225,2.5271639823913574,-0.30337852239608765,0.0,0.0,0.0,0.0,0.0,0.0,0.0,-0.1437370846496703,0.5073753292919513,0.055673104094359195,0.5062320393585906,-0.2453152549836942,0.12947668928126596,-0.3016963764411343,0.17277950426361013,-0.48750318592473074,-0.11144468292541672,-1.9467224792179305,0.13362526197115418,2.5954545169637604,0.945258305448214,0.1728802376190821,-0.48752024683155326,-0.11147110072896137,-1.9463801863486305,0.1336059019074957,2.595550359778934,0.9452445589611904,-0.0005168057049285788,0.00031221723226321305,-9.382991060536822e-05,0.0005595873214192246,-0.00022822076194247762,0.00023329273288386955,0.0005227885955079126,0.0,0.0,0.0,0.0,0.0,0.0,0.0,0.00010073335547197693,-1.706090682251915e-05,-2.641780354464829e-05,0.00034229286929998715,-1.936006365849119e-05,9.584281517360793e-05,-1.3746487023569287e-05,0.0005168057049285788,-0.00031221723226321305,9.382991060536822e-05,-0.0005595873214192246,0.00022822076194247762,-0.00023329273288386955,-0.0005227885955079126,0.12130087614059448,11.873926162719727,-1.2433807849884033,-21.792634963989258,-0.2960105538368225,-2.5271639823913574,0.30337852239608765,0
63,0.3100125789642334,-0.12130087614059448,-11.873926162719727,1.2433807849884033,21.792634963989258,0.2960105538368225,2.5271639823913574,-0.30337852239608765,0.0,0.0,0.0,0.0,0.0,0.0,0.0,-0.1437370846496703,0.5073753292919513,0.055673104094359195,0.5062320393585906,-0.2453152549836942,0.12947668928126596,-0.3016963764411343,0.17277950426361013,-0.48750318592473074,-0.11144468292541672,-1.9467224792179305,0.13362526197115418,2.5954545169637604,0.945258305448214,0.1728802376190821,-0.48752024683155326,-0.11147110072896137,-1.9463801863486305,0.1336059019074957,2.595550359778934,0.9452445589611904,-0.0005168057049285788,0.00031221723226321305,-9.382991060536822e-05,0.0005595873214192246,-0.00022822076194247762,0.00023329273288386955,0.0005227885955079126,0.0,0.0,0.0,0.0,0.0,0.0,0.0,0.00010073335547197693,-1.706090682251915e-05,-2.641780354464829e-05,0.00034229286929998715,-1.936006365849119e-05,9.584281517360793e-05,-1.3746487023569287e-05,0.0005168057049285788,-0.00031221723226321305,9.382991060536822e-05,-0.0005595873214192246,0.00022822076194247762,-0.00023329273288386955,-0.0005227885955079126,0.12130087614059448,11.873926162719727,-1.2433807849884033,-21.792634963989258,-0.2960105538368225,-2.5271639823913574,0.30337852239608765,0
64,0.3150010108947754,-0.14510458707809448,-11.850122451782227,1.2433807849884033,21.816438674926758,0.2905173897743225,2.5271639823913574,-0.28964561223983765,0.0,0.0,0.0,0.0,0.0,0.0,0.0,-0.15156139838931149,0.5088973824701991,0.04484605557120613,0.5012485726077736,-0.24486158323298876,0.12886243782298673,-0.30258648863425064,0.1727811746994654,-0.487504856360586,-0.11144468292541672,-1.946724149653786,0.133625871838459,2.5954559283609826,0.9452567794038383,0.1728802376190821,-0.48752024683155326,-0.11147110072896137,-1.9463801863486305,0.1336059019074957,2.595550359778934,0.9452445589611904,-0.0007483042981907647,0.0007536965131586229,-0.0003465827712342532,-0.0005401962381688907,-0.00017181190206432763,6.691172169463726e-05,0.0002035166302377416,0.0,0.0,0.0,0.0,0.0,0.0,0.0,9.906291961669922e-05,-1.53904709672692e-05,-2.641780354464829e-05,0.00034396330515540363,-1.9969930963315008e-05,9.443141795140164e-05,-1.2220442647925545e-05,0.0007483042981907647,-0.0007536965131586229,0.0003465827712342532,0.0005401962381688907,0.00017181190206432763,-6.691172169463726e-05,-0.0002035166302377416,0.14510458707809448,11.850122451782227,-1.2433807849884033,-21.816438674926758,-0.2905173897743225,-2.5271639823913574,0.28964561223983765,0
65,0.31999683380126953,-0.14510458707809448,-11.850122451782227,1.2433807849884033,21.816438674926758,0.2905173897743225,2.5271639823913574,-0.28964561223983765,0.0,0.0,0.0,0.0,0.0,0.0,0.0,-0.15156139838931149,0.5088973824701991,0.04484605557120613,0.5012485726077736,-0.24486158323298876,0.12886243782298673,-0.30258648863425064,0.1727811746994654,-0.487504856360586,-0.11144468292541672,-1.946724149653786,0.133625871838459,2.5954559283609826,0.9452567794038383,0.1728802376190821,-0.48752024683155326,-0.11147110072896137,-1.9463801863486305,0.1336059019074957,2.595550359778934,0.9452445589611904,-0.0007483042981907647,0.0007536965131586229,-0.0003465827712342532,-0.0005401962381688907,-0.00017181190206432763,6.691172169463726e-05,0.0002035166302377416,0.0,0.0,0.0,0.0,0.0,0.0,0.0,9.906291961669922e-05,-1.53904709672692e-05,-2.641780354464829e-05,0.00034396330515540363,-1.9969930963315008e-05,9.443141795140164e-05,-1.2220442647925545e-05,0.0007483042981907647,-0.0007536965131586229,0.0003465827712342532,0.0005401962381688907,0.00017181190206432763,-6.691172169463726e-05,-0.0002035166302377416,0.14510458707809448,11.850122451782227,-1.2433807849884033,-21.816438674926758,-0.2905173897743225,-2.5271639823913574,0.28964561223983765,0
66,0.32501769065856934,-0.14510458707809448,-11.774744033813477,1.2433807849884033,21.840242385864258,0.2841086983680725,2.5143465995788574,-0.25485557317733765,0.0,0.0,0.0,0.0,0.0,0.0,0.0,-0.15575932391637307,0.4902955919159048,0.041771349846253344,0.5127009754811569,-0.24482362349439088,0.1305604678621937,-0.3028761160507867,0.1727811746994654,-0.4875101460741277,-0.11144468292541672,-1.9467258200896411,0.13363040741207557,2.5954559396717563,0.9452529019248296,0.1728802376190821,-0.48752024683155326,-0.11147110072896137,-1.9463801863486305,0.1336059019074957,2.595550359778934,0.9452445589611904,-0.00042017563707069146,-0.0010972770938886011,-0.0003507637116128402,-0.0007756676993786093,0.0001200033680866583,0.000540184413096829,-0.0015009405314755201,0.0,0.0,0.0,0.0,0.0,0.0,0.0,9.906291961669922e-05,-1.0100757425579587e-05,-2.641780354464829e-05,0.00034563374101059807,-2.4505504579885873e-05,9.442010717775062e-05,-8.342963639162981e-06,0.00042017563707069146,0.0010972770938886011,0.0003507637116128402,0.0007756676993786093,-0.0001200033680866583,-0.000540184413096829,0.0015009405314755201,0.14510458707809448,11.774744033813477,-1.2433807849884033,-21.840242385864258,-0.2841086983680725,-2.5143465995788574,0.25485557317733765,0
67,0.33001041412353516,-0.14510458707809448,-11.774744033813477,1.2433807849884033,21.840242385864258,0.2841086983680725,2.5143465995788574,-0.25485557317733765,0.0,0.0,0.0,0.0,0.0,0.0,0.0,-0.15575932391637307,0.4902955919159048,0.041771349846253344,0.5127009754811569,-0.24482362349439088,0.1305604678621937,-0.3028761160507867,0.1727811746994654,-0.4875101460741277,-0.11144468292541672,-1.9467258200896411,0.13363040741207557,2.5954559396717563,0.9452529019248296,0.1728802376190821,-0.48752024683155326,-0.11147110072896137,-1.9463801863486305,0.1336059019074957,2.595550359778934,0.9452445589611904,-0.00042017563707069146,-0.0010972770938886011,-0.0003507637116128402,-0.0007756676993786093,0.0001200033680866583,0.000540184413096829,-0.0015009405314755201,0.0,0.0,0.0,0.0,0.0,0.0,0.0,9.906291961669922e-05,-1.0100757425579587e-05,-2.641780354464829e-05,0.00034563374101059807,-2.4505504579885873e-05,9.442010717775062e-05,-8.342963639162981e-06,0.00042017563707069146,0.0010972770938886011,0.0003507637116128402,0.0007756676993786093,-0.0001200033680866583,-0.000540184413096829,0.0015009405314755201,0.14510458707809448,11.774744033813477,-1.2433807849884033,-21.840242385864258,-0.2841086983680725,-2.5143465995788574,0.25485557317733765,0
68,0.33504724502563477,-0.17287558317184448,-11.873926162719727,1.2671844959259033,21.816438674926758,0.2786155343055725,2.5335726737976074,-0.31711143255233765,0.0,0.0,0.0,0.0,0.0,0.0,0.0,-0.15115600733298676,0.49477173448653256,0.045860932154960836,0.5145531969721219,-0.24544207114000344,0.12956959552281824,-0.3020550162204338,0.17278312354129655,-0.48750318592473074,-0.11144635303649433,-1.9467241241439792,0.1336271329405298,2.5954569824015357,0.9452598182492112,0.1728802376190821,-0.48752024683155326,-0.11147110072896137,-1.9463801863486305,0.1336059019074957,2.595550359778934,0.9452445589611904,0.00048570150662237844,0.0014761695502781285,-0.0007489794113107308,0.00020336012861992095,0.00036239267959618175,-0.0001374469367857191,0.000983368345722565,0.0,0.0,0.0,0.0,0.0,0.0,0.0,9.711407778556502e-05,-1.706090682251915e-05,-2.4747692467033677e-05,0.0003439377953486922,-2.1231033034113667e-05,9.33773773983404e-05,-1.5259288020819106e-05,-0.00048570150662237844,-0.0014761695502781285,0.0007489794113107308,-0.00020336012861992095,-0.00036239267959618175,0.0001374469367857191,-0.000983368345722565,0.17287558317184448,11.873926162719727,-1.2671844959259033,-21.816438674926758,-0.2786155343055725,-2.5335726737976074,0.31711143255233765,0
69,0.3400077819824219,-0.17287558317184448,-11.873926162719727,1.2671844959259033,21.816438674926758,0.2786155343055725,2.5335726737976074,-0.31711143255233765,0.0,0.0,0.0,0.0,0.0,0.0,0.0,-0.15115600733298676,0.49477173448653256,0.045860932154960836,0.5145531969721219,-0.24544207114000344,0.12956959552281824,-0.3020550162204338,0.17278312354129655,-0.48750318592473074,-0.11144635303649433,-1.9467241241439792,0.1336271329405298,2.5954569824015357,0.9452598182492112,0.1728802376190821,-0.48752024683155326,-0.11147110072896137,-1.9463801863486305,0.1336059019074957,2.595550359778934,0.9452445589611904,0.00048570150662237844,0.0014761695502781285,-0.0007489794113107308,0.00020336012861992095,0.00036239267959618175,-0.0001374469367857191,0.000983368345722565,0.0,0.0,0.0,0.0,0.0,0.0,0.0,9.711407778556502e-05,-1.706090682251915e-05,-2.4747692467033677e-05,0.0003439377953486922,-2.1231033034113667e-05,9.33773773983404e-05,-1.5259288020819106e-05,-0.00048570150662237844,-0.0014761695502781285,0.0007489794113107308,-0.00020336012861992095,-0.00036239267959618175,0.0001374469367857191,-0.000983368345722565,0.17287558317184448,11.873926162719727,-1.2671844959259033,-21.816438674926758,-0.2786155343055725,-2.5335726737976074,0.31711143255233765,0
70,0.3450188636779785,-0.19667929410934448,-11.826318740844727,1.2433807849884033,21.840242385864258,0.2960105538368225,2.5271639823913574,-0.28964561223983765,0.0,0.0,0.0,0.0,0.0,0.0,0.0,-0.15488178422634277,0.4989720106783729,0.04180691737162071,0.5129105000325501,-0.24571007750500562,0.1292301596875637,-0.30254483129645154,0.1727847939771518,-0.4875065267964413,-0.11144444616252036,-1.9467258200894972,0.1336249246671592,2.5954576944424685,0.9452571414467921,0.1728802376190821,-0.48752024683155326,-0.11147110072896137,-1.9463801863486305,0.1336059019074957,2.595550359778934,0.9452445589611904,0.0009988930815516774,-6.448166797826765e-05,-7.724402118943621e-05,-0.0006269655515765947,-0.00041852431662069226,-0.00015466301331677502,7.948533569670859e-05,0.0,0.0,0.0,0.0,0.0,0.0,0.0,9.544364193031507e-05,-1.3720035111963735e-05,-2.6654566441006167e-05,0.00034563374086671317,-1.9022759663506195e-05,9.266533646545838e-05,-1.2582485601653204e-05,-0.0009988930815516774,6.448166797826765e-05,7.724402118943621e-05,0.0006269655515765947,0.00041852431662069226,0.00015466301331677502,-7.948533569670859e-05,0.19667929410934448,11.826318740844727,-1.2433807849884033,-21.840242385864258,-0.2960105538368225,-2.5271639823913574,0.28964561223983765,0
71,0.35001373291015625,-0.19667929410934448,-11.826318740844727,1.2433807849884033,21.840242385864258,0.2960105538368225,2.5271639823913574,-0.28964561223983765,0.0,0.0,0.0,0.0,0.0,0.0,0.0,-0.15488178422634277,0.4989720106783729,0.04180691737162071,0.5129105000325501,-0.24571007750500562,0.1292301596875637,-0.30254483129645154,0.1727847939771518,-0.4875065267964413,-0.11144444616252036,-1.9467258200894972,0.1336249246671592,2.5954576944424685,0.9452571414467921,0.1728802376190821,-0.48752024683155326,-0.11147110072896137,-1.9463801863486305,0.1336059019074957,2.595550359778934,0.9452445589611904,0.0009988930815516774,-6.448166797826765e-05,-7.724402118943621e-05,-0.0006269655515765947,-0.00041852431662069226,-0.00015466301331677502,7.948533569670859e-05,0.0,0.0,0.0,0.0,0.0,0.0,0.0,9.544364193031507e-05,-1.3720035111963735e-05,-2.6654566441006167e-05,0.00034563374086671317,-1.9022759663506195e-05,9.266533646545838e-05,-1.2582485601653204e-05,-0.0009988930815516774,6.448166797826765e-05,7.724402118943621e-05,0.0006269655515765947,0.00041852431662069226,0.00015466301331677502,-7.948533569670859e-05,0.19667929410934448,11.826318740844727,-1.2433807849884033,-21.840242385864258,-0.2960105538368225,-2.5271639823913574,0.28964561223983765,0
72,0.3557929992675781,-0.17287558317184448,-11.826318740844727,1.2433807849884033,21.741060256958008,0.3024192452430725,2.5335726737976074,-0.25485557317733765,0.0,0.0,0.0,0.0,0.0,0.0,0.0,-0.14980368613097986,0.507147793798723,0.052384783796558976,0.5103798461075939,-0.24683114337194711,0.12881351546402095,-0.30199048033617426,0.17278312354129655,-0.4875065267964413,-0.11144468292408019,-1.9467188599402443,0.1336240812524411,2.5954538426971143,0.9452529411606171,0.1728802376190821,-0.48752024683155326,-0.11147110072896137,-1.9463801863486305,0.1336059019074957,2.595550359778934,0.9452445589611904,0.000942741222781292,0.00039212242138906927,0.0004070057524864799,0.0014994178861984161,-0.0004975824828136592,-0.00018166939139129424,-0.0019119204532199385,0.0,0.0,0.0,0.0,0.0,0.0,0.0,9.711407778556502e-05,-1.3720035111963735e-05,-2.64178048811764e-05,0.00033867359161376953,-1.8179344945412623e-05,9.651708181968033e-05,-8.382199426670844e-06,-0.000942741222781292,-0.00039212242138906927,-0.0004070057524864799,-0.0014994178861984161,0.0004975824828136592,0.00018166939139129424,0.0019119204532199385,0.17287558317184448,11.826318740844727,-1.2433807849884033,-21.741060256958008,-0.3024192452430725,-2.5335726737976074,0.25485557317733765,0
73,0.3599979877471924,-0.17287558317184448,-11.826318740844727,1.2433807849884033,21.741060256958008,0.3024192452430725,2.5335726737976074,-0.25485557317733765,0.0,0.0,0.0,0.0,0.0,0.0,0.0,-0.14980368613097986,0.507147793798723,0.052384783796558976,0.5103798461075939,-0.24683114337194711,0.12881351546402095,-0.30199048033617426,0.17278312354129655,-0.4875065267964413,-0.11144468292408019,-1.9467188599402443,0.1336240812524411,2.5954538426971143,0.9452529411606171,0.1728802376190821,-0.48752024683155326,-0.11147110072896137,-1.9463801863486305,0.1336059019074957,2.595550359778934,0.9452445589611904,0.000942741222781292,0.00039212242138906927,0.0004070057524864799,0.0014994178861984161,-0.0004975824828136592,-0.00018166939139129424,-0.0019119204532199385,0.0,0.0,0.0,0.0,0.0,0.0,0.0,9.711407778556502e-05,-1.3720035111963735e-05,-2.64178048811764e-05,0.00033867359161376953,-1.8179344945412623e-05,9.651708181968033e-05,-8.382199426670844e-06,-0.000942741222781292,-0.00039212242138906927,-0.0004070057524864799,-0.0014994178861984161,0.0004975824828136592,0.00018166939139129424,0.0019119204532199385,0.17287558317184448,11.826318740844727,-1.2433807849884033,-21.741060256958008,-0.3024192452430725,-2.5335726737976074,0.25485557317733765,0
74,0.365009069442749,-0.14510458707809448,-11.802515029907227,1.2156097888946533,21.816438674926758,0.3024192452430725,2.5207552909851074,-0.30337852239608765,0.0,0.0,0.0,0.0,0.0,0.0,0.0,-0.1496762429763255,0.5023187378750503,0.05140201729767352,0.5139831269109126,-0.24609003313460065,0.13024274189056828,-0.30225990291788263,0.1727811746994654,-0.48750819723229655,-0.11144273408358556,-1.9467234607840234,0.13362549624955367,2.595455227748685,0.9452582963435638,0.1728802376190821,-0.48752024683155326,-0.11147110072896137,-1.9463801863486305,0.1336059019074957,2.595550359778934,0.9452445589611904,0.00037842316434988685,-0.000342016073643762,0.0013306427990038686,-3.983408100376753e-05,-0.0005310054680579564,0.0002140185917376259,7.103835000700278e-05,0.0,0.0,0.0,0.0,0.0,0.0,0.0,9.906291961669922e-05,-1.2049599256713783e-05,-2.836664537581024e-05,0.0003432744353928374,-1.9594342057976943e-05,9.513203024891226e-05,-1.3737382373424367e-05,-0.00037842316434988685,0.000342016073643762,-0.0013306427990038686,3.983408100376753e-05,0.0005310054680579564,-0.0002140185917376259,-7.103835000700278e-05,0.14510458707809448,11.802515029907227,-1.2156097888946533,-21.816438674926758,-0.3024192452430725,-2.5207552909851074,0.30337852239608765,0
75,0.3699953556060791,-0.14510458707809448,-11.802515029907227,1.2156097888946533,21.816438674926758,0.3024192452430725,2.5207552909851074,-0.30337852239608765,0.0,0.0,0.0,0.0,0.0,0.0,0.0,-0.1496762429763255,0.5023187378750503,0.05140201729767352,0.5139831269109126,-0.24609003313460065,0.13024274189056828,-0.30225990291788263,0.1727811746994654,-0.48750819723229655,-0.11144273408358556,-1.9467234607840234,0.13362549624955367,2.595455227748685,0.9452582963435638,0.1728802376190821,-0.48752024683155326,-0.11147110072896137,-1.9463801863486305,0.1336059019074957,2.595550359778934,0.9452445589611904,0.00037842316434988685,-0.000342016073643762,0.0013306427990038686,-3.983408100376753e-05,-0.0005310054680579564,0.0002140185917376259,7.103835000700278e-05,0.0,0.0,0.0,0.0,0.0,0.0,0.0,9.906291961669922e-05,-1.2049599256713783e-05,-2.836664537581024e-05,0.0003432744353928374,-1.9594342057976943e-05,9.513203024891226e-05,-1.3737382373424367e-05,-0.00037842316434988685,0.000342016073643762,-0.0013306427990038686,3.983408100376753e-05,0.0005310054680579564,-0.0002140185917376259,-7.103835000700278e-05,0.14510458707809448,11.802515029907227,-1.2156097888946533,-21.816438674926758,-0.3024192452430725,-2.5207552909851074,0.30337852239608765,0
76,0.3750011920928955,-0.12130087614059448,-11.826318740844727,1.2156097888946533,21.816438674926758,0.2905173897743225,2.5271639823913574,-0.24844686686992645,0.0,0.0,0.0,0.0,0.0,0.0,0.0,-0.14762991722560262,0.5057893384441919,0.05107071697139524,0.5120220206542903,-0.24571822839985621,0.12956475364531586,-0.30231851237392665,0.17277950426361013,-0.4875065267964413,-0.11144273408358557,-1.94672414964212,0.13362910574718212,2.5954545679994525,0.9452532749821742,0.1728802376190821,-0.48752024683155326,-0.11147110072896137,-1.9463801863486305,0.1336059019074957,2.595550359778934,0.9452445589611904,-8.294388940978417e-05,0.0003538905722638575,0.0011614568558959604,-0.0002486719640668716,-8.720487670673393e-05,0.00016044331835233865,-0.0019944212021732843,0.0,0.0,0.0,0.0,0.0,0.0,0.0,0.00010073335547197693,-1.3720035111963735e-05,-2.8366645375796362e-05,0.00034396329348940213,-2.3203839686430916e-05,9.579177948149109e-05,-8.716020983734474e-06,8.294388940978417e-05,-0.0003538905722638575,-0.0011614568558959604,0.0002486719640668716,8.720487670673393e-05,-0.00016044331835233865,0.0019944212021732843,0.12130087614059448,11.826318740844727,-1.2156097888946533,-21.816438674926758,-0.2905173897743225,-2.5271639823913574,0.24844686686992645,0
77,0.38004589080810547,-0.12130087614059448,-11.826318740844727,1.2156097888946533,21.816438674926758,0.2905173897743225,2.5271639823913574,-0.24844686686992645,0.0,0.0,0.0,0.0,0.0,0.0,0.0,-0.14762991722560262,0.5057893384441919,0.05107071697139524,0.5120220206542903,-0.24571822839985621,0.12956475364531586,-0.30231851237392665,0.17277950426361013,-0.4875065267964413,-0.11144273408358557,-1.94672414964212,0.13362910574718212,2.5954545679994525,0.9452532749821742,0.1728802376190821,-0.48752024683155326,-0.11147110072896137,-1.9463801863486305,0.1336059019074957,2.595550359778934,0.9452445589611904,-8.294388940978417e-05,0.0003538905722638575,0.0011614568558959604,-0.0002486719640668716,-8.720487670673393e-05,0.00016044331835233865,-0.0019944212021732843,0.0,0.0,0.0,0.0,0.0,0.0,0.0,0.00010073335547197693,-1.3720035111963735e-05,-2.8366645375796362e-05,0.00034396329348940213,-2.3203839686430916e-05,9.579177948149109e-05,-8.716020983734474e-06,8.294388940978417e-05,-0.0003538905722638575,-0.0011614568558959604,0.0002486719640668716,8.720487670673393e-05,-0.00016044331835233865,0.0019944212021732843,0.12130087614059448,11.826318740844727,-1.2156097888946533,-21.816438674926758,-0.2905173897743225,-2.5271639823913574,0.24844686686992645,0
78,0.38500142097473145,-0.12130087614059448,-11.826318740844727,1.2156097888946533,21.816438674926758,0.2905173897743225,2.5271639823913574,-0.24844686686992645,0.0,0.0,0.0,0.0,0.0,0.0,0.0,-0.14762991722560262,0.5057893384441919,0.05107071697139524,0.5120220206542903,-0.24571822839985621,0.12956475364531586,-0.30231851237392665,0.17277950426361013,-0.4875065267964413,-0.11144273408358557,-1.94672414964212,0.13362910574718212,2.5954545679994525,0.9452532749821742,0.1728802376190821,-0.48752024683155326,-0.11147110072896137,-1.9463801863486305,0.1336059019074957,2.595550359778934,0.9452445589611904,-8.294388940978417e-05,0.0003538905722638575,0.0011614568558959604,-0.0002486719640668716,-8.720487670673393e-05,0.00016044331835233865,-0.0019944212021732843,0.0,0.0,0.0,0.0,0.0,0.0,0.0,0.00010073335547197693,-1.3720035111963735e-05,-2.8366645375796362e-05,0.00034396329348940213,-2.3203839686430916e-05,9.579177948149109e-05,-8.716020983734474e-06,8.294388940978417e-05,-0.0003538905722638575,-0.0011614568558959604,0.0002486719640668716,8.720487670673393e-05,-0.00016044331835233865,0.0019944212021732843,0.12130087614059448,11.826318740844727,-1.2156097888946533,-21.816438674926758,-0.2905173897743225,-2.5271639823913574,0.24844686686992645,0
79,0.3900187015533447,-0.12130087614059448,-11.826318740844727,1.2156097888946533,21.816438674926758,0.2905173897743225,2.5271639823913574,-0.24844686686992645,0.0,0.0,0.0,0.0,0.0,0.0,0.0,-0.14762991722560262,0.5057893384441919,0.05107071697139524,0.5120220206542903,-0.24571822839985621,0.12956475364531586,-0.30231851237392665,0.17277950426361013,-0.4875065267964413,-0.11144273408358557,-1.94672414964212,0.13362910574718212,2.5954545679994525,0.9452532749821742,0.1728802376190821,-0.48752024683155326,-0.11147110072896137,-1.9463801863486305,0.1336059019074957,2.595550359778934,0.9452445589611904,-8.294388940978417e-05,0.0003538905722638575,0.0011614568558959604,-0.0002486719640668716,-8.720487670673393e-05,0.00016044331835233865,-0.0019944212021732843,0.0,0.0,0.0,0.0,0.0,0.0,0.0,0.00010073335547197693,-1.3720035111963735e-05,-2.8366645375796362e-05,0.00034396329348940213,-2.3203839686430916e-05,9.579177948149109e-05,-8.716020983734474e-06,8.294388940978417e-05,-0.0003538905722638575,-0.0011614568558959604,0.0002486719640668716,8.720487670673393e-05,-0.00016044331835233865,0.0019944212021732843,0.12130087614059448,11.826318740844727,-1.2156097888946533,-21.816438674926758,-0.2905173897743225,-2.5271639823913574,0.24844686686992645,0
