rezayati/contactInterpretation/dataset/franka_main/labeled_data/link7/a7_3.csv
index,time,tau_J0,tau_J1,tau_J2,tau_J3,tau_J4,tau_J5,tau_J6,tau_J_d0,tau_J_d1,tau_J_d2,tau_J_d3,tau_J_d4,tau_J_d5,tau_J_d6,tau_ext0,tau_ext1,tau_ext2,tau_ext3,tau_ext4,tau_ext5,tau_ext6,q0,q1,q2,q3,q4,q5,q6,q_d0,q_d1,q_d2,q_d3,q_d4,q_d5,q_d6,dq0,dq1,dq2,dq3,dq4,dq5,dq6,dq_d0,dq_d1,dq_d2,dq_d3,dq_d4,dq_d5,dq_d6,e0,e1,e2,e3,e4,e5,e6,de0,de1,de2,de3,de4,de5,de6,etau_J0,etau_J1,etau_J2,etau_J3,etau_J4,etau_J5,etau_J6,label
1,0.0,-0.6806880831718445,-34.28908920288086,-4.096584796905518,19.388460159301758,0.2548118233680725,1.802981972694397,-0.13217489421367645,0.0,0.0,0.0,0.0,0.0,0.0,0.0,-0.6704681359781667,-0.22214198236817573,-0.4886752689087117,0.4025682417183079,0.20194503227255883,-0.09342553292532091,-0.11427758357189036,1.0545799480245461,0.3238071922921297,-0.3922932817107362,-2.153622011811323,0.8646000025471051,2.4658753274679186,0.5444916125876144,1.0544104758940245,0.3238615046091247,-0.39250456234122666,-2.153291787532338,0.8647539153680389,2.46587817577521,0.5445020185570556,0.0003919081937166044,-0.00022706264249988315,0.000903742030759257,0.0008079232725452422,8.481148252801334e-05,0.00022545941657089522,0.0012357669887960974,0.0,0.0,0.0,0.0,0.0,0.0,0.0,-0.00016947213052165289,5.431231699504213e-05,-0.00021128063049047352,0.00033022427898510287,0.0001539128209337992,2.848307291358765e-06,1.0405969441240615e-05,-0.0003919081937166044,0.00022706264249988315,-0.000903742030759257,-0.0008079232725452422,-8.481148252801334e-05,-0.00022545941657089522,-0.0012357669887960974,0.6806880831718445,34.28908920288086,4.096584796905518,-19.388460159301758,-0.2548118233680725,-1.802981972694397,0.13217489421367645,0
2,0.004999876022338867,-0.7084590792655945,-34.31289291381836,-4.048977375030518,19.487642288208008,0.2548118233680725,1.822208046913147,-0.08365194499492645,0.0,0.0,0.0,0.0,0.0,0.0,0.0,-0.6721258860239465,-0.23470735258211872,-0.4936029281039317,0.4108449490552756,0.20283312817347374,-0.09283242136065005,-0.11269370754098257,1.054582366504331,0.323808862727985,-0.39229662292322853,-2.1536290396365536,0.8646000025471051,2.4658731912374496,0.5444862255094639,1.0544104758940245,0.3238615046091247,-0.39250456234122666,-2.153291787532338,0.8647539153680389,2.46587817577521,0.5445020185570556,0.0009709719248348828,8.772991963336561e-05,6.734674383225713e-05,-0.0005744545047621302,-0.003879219923665682,-1.1479237005081727e-07,-0.0015190355051902388,0.0,0.0,0.0,0.0,0.0,0.0,0.0,-0.0001718906103065354,5.264188113973667e-05,-0.00020793941799812643,0.00033725210421575724,0.0001539128209337992,4.984537760321928e-06,1.579304759169453e-05,-0.0009709719248348828,-8.772991963336561e-05,-6.734674383225713e-05,0.0005744545047621302,0.003879219923665682,1.1479237005081727e-07,0.0015190355051902388,0.7084590792655945,34.31289291381836,4.048977375030518,-19.487642288208008,-0.2548118233680725,-1.822208046913147,0.08365194499492645,0
3,0.009998321533203125,-0.7084590792655945,-34.31289291381836,-4.048977375030518,19.487642288208008,0.2548118233680725,1.822208046913147,-0.08365194499492645,0.0,0.0,0.0,0.0,0.0,0.0,0.0,-0.6721258860239465,-0.23470735258211872,-0.4936029281039317,0.4108449490552756,0.20283312817347374,-0.09283242136065005,-0.11269370754098257,1.054582366504331,0.323808862727985,-0.39229662292322853,-2.1536290396365536,0.8646000025471051,2.4658731912374496,0.5444862255094639,1.0544104758940245,0.3238615046091247,-0.39250456234122666,-2.153291787532338,0.8647539153680389,2.46587817577521,0.5445020185570556,0.0009709719248348828,8.772991963336561e-05,6.734674383225713e-05,-0.0005744545047621302,-0.003879219923665682,-1.1479237005081727e-07,-0.0015190355051902388,0.0,0.0,0.0,0.0,0.0,0.0,0.0,-0.0001718906103065354,5.264188113973667e-05,-0.00020793941799812643,0.00033725210421575724,0.0001539128209337992,4.984537760321928e-06,1.579304759169453e-05,-0.0009709719248348828,-8.772991963336561e-05,-6.734674383225713e-05,0.0005744545047621302,0.003879219923665682,1.1479237005081727e-07,0.0015190355051902388,0.7084590792655945,34.31289291381836,4.048977375030518,-19.487642288208008,-0.2548118233680725,-1.822208046913147,0.08365194499492645,0
4,0.015004634857177734,-0.7322627902030945,-34.31289291381836,-4.048977375030518,19.436067581176758,0.2429099678993225,1.809390664100647,-0.11844198405742645,0.0,0.0,0.0,0.0,0.0,0.0,0.0,-0.6806403338414727,-0.23096345902923382,-0.5007412609308467,0.4048705753053305,0.20292793819092358,-0.09179330954459584,-0.11351586492108293,1.0545834335377915,0.32380878388297824,-0.39229645551259973,-2.153625199274257,0.8646013249754906,2.4658746153910953,0.544490086547228,1.0544104758940245,0.3238615046091247,-0.39250456234122666,-2.153291787532338,0.8647539153680389,2.46587817577521,0.5445020185570556,0.0012547130255078469,-0.00039579524547364516,-0.0006300561801773754,-9.087956969505777e-05,0.00025424365516944547,0.0002117079432031089,0.00043537700308986314,0.0,0.0,0.0,0.0,0.0,0.0,0.0,-0.00017295764376701328,5.272072614648238e-05,-0.00020810682862693053,0.0003334117419191429,0.00015259039254833517,3.5603841146425452e-06,1.1932009827630985e-05,-0.0012547130255078469,0.00039579524547364516,0.0006300561801773754,9.087956969505777e-05,-0.00025424365516944547,-0.0002117079432031089,-0.00043537700308986314,0.7322627902030945,34.31289291381836,4.048977375030518,-19.436067581176758,-0.2429099678993225,-1.809390664100647,0.11844198405742645,0
5,0.019995450973510742,-0.7322627902030945,-34.31289291381836,-4.048977375030518,19.436067581176758,0.2429099678993225,1.809390664100647,-0.11844198405742645,0.0,0.0,0.0,0.0,0.0,0.0,0.0,-0.6806403338414727,-0.23096345902923382,-0.5007412609308467,0.4048705753053305,0.20292793819092358,-0.09179330954459584,-0.11351586492108293,1.0545834335377915,0.32380878388297824,-0.39229645551259973,-2.153625199274257,0.8646013249754906,2.4658746153910953,0.544490086547228,1.0544104758940245,0.3238615046091247,-0.39250456234122666,-2.153291787532338,0.8647539153680389,2.46587817577521,0.5445020185570556,0.0012547130255078469,-0.00039579524547364516,-0.0006300561801773754,-9.087956969505777e-05,0.00025424365516944547,0.0002117079432031089,0.00043537700308986314,0.0,0.0,0.0,0.0,0.0,0.0,0.0,-0.00017295764376701328,5.272072614648238e-05,-0.00020810682862693053,0.0003334117419191429,0.00015259039254833517,3.5603841146425452e-06,1.1932009827630985e-05,-0.0012547130255078469,0.00039579524547364516,0.0006300561801773754,9.087956969505777e-05,-0.00025424365516944547,-0.0002117079432031089,-0.00043537700308986314,0.7322627902030945,34.31289291381836,4.048977375030518,-19.436067581176758,-0.2429099678993225,-1.809390664100647,0.11844198405742645,0
6,0.024994611740112305,-0.6053096652030945,-34.26528549194336,-4.025173664093018,19.436067581176758,0.2548118233680725,1.802981972694397,-0.09738485515117645,0.0,0.0,0.0,0.0,0.0,0.0,0.0,-0.6618888212090182,-0.21124745701277386,-0.4828936974792316,0.3960417230201376,0.2010870648057023,-0.09425311376220541,-0.11548765150414227,1.0545752044776235,0.32380552174782257,-0.39229812691957167,-2.1536244263153645,0.8646000025471051,2.4658753274679186,0.5444877468662129,1.0544104758940245,0.3238615046091247,-0.39250456234122666,-2.153291787532338,0.8647539153680389,2.46587817577521,0.5445020185570556,-0.0013155351084738736,-0.00010213505180038407,-0.0005546393348883967,-0.0004322595504528127,7.430234860565142e-05,0.00020673245431832257,-0.0006785575684525369,0.0,0.0,0.0,0.0,0.0,0.0,0.0,-0.00016472858359906084,5.598286130215069e-05,-0.0002064354216549935,0.00033263878302669525,0.0001539128209337992,2.848307291358765e-06,1.4271690842670992e-05,0.0013155351084738736,0.00010213505180038407,0.0005546393348883967,0.0004322595504528127,-7.430234860565142e-05,-0.00020673245431832257,0.0006785575684525369,0.6053096652030945,34.26528549194336,4.025173664093018,-19.436067581176758,-0.2548118233680725,-1.802981972694397,0.09738485515117645,0
7,0.02999711036682129,-0.6053096652030945,-34.26528549194336,-4.025173664093018,19.436067581176758,0.2548118233680725,1.802981972694397,-0.09738485515117645,0.0,0.0,0.0,0.0,0.0,0.0,0.0,-0.6618888212090182,-0.21124745701277386,-0.4828936974792316,0.3960417230201376,0.2010870648057023,-0.09425311376220541,-0.11548765150414227,1.0545752044776235,0.32380552174782257,-0.39229812691957167,-2.1536244263153645,0.8646000025471051,2.4658753274679186,0.5444877468662129,1.0544104758940245,0.3238615046091247,-0.39250456234122666,-2.153291787532338,0.8647539153680389,2.46587817577521,0.5445020185570556,-0.0013155351084738736,-0.00010213505180038407,-0.0005546393348883967,-0.0004322595504528127,7.430234860565142e-05,0.00020673245431832257,-0.0006785575684525369,0.0,0.0,0.0,0.0,0.0,0.0,0.0,-0.00016472858359906084,5.598286130215069e-05,-0.0002064354216549935,0.00033263878302669525,0.0001539128209337992,2.848307291358765e-06,1.4271690842670992e-05,0.0013155351084738736,0.00010213505180038407,0.0005546393348883967,0.0004322595504528127,-7.430234860565142e-05,-0.00020673245431832257,0.0006785575684525369,0.6053096652030945,34.26528549194336,4.025173664093018,-19.436067581176758,-0.2548118233680725,-1.802981972694397,0.09738485515117645,0
8,0.035399436950683594,-0.6053096652030945,-34.31289291381836,-4.025173664093018,19.459871292114258,0.2429099678993225,1.809390664100647,-0.14590780436992645,0.0,0.0,0.0,0.0,0.0,0.0,0.0,-0.66320287626161,-0.23444670977609663,-0.4892814804032425,0.4122520989891394,0.20135626220834635,-0.09254748701760593,-0.11597448411802627,1.0545765820443778,0.32380885981179963,-0.39229627253884386,-2.1536250341569527,0.8646013249216554,2.4658746153910953,0.5444941979431442,1.0544104758940245,0.3238615046091247,-0.39250456234122666,-2.153291787532338,0.8647539153680389,2.46587817577521,0.5445020185570556,2.9249840003245516e-06,0.0005259912966502183,-0.0004609063693712384,-0.00016754437599488079,0.0005442035095339845,-1.89687186189837e-05,0.0012514876038447896,0.0,0.0,0.0,0.0,0.0,0.0,0.0,-0.00016610615035328458,5.2644797325085424e-05,-0.00020828980238279948,0.0003332466246148691,0.00015259044638349373,3.5603841146425452e-06,7.82061391135791e-06,-2.9249840003245516e-06,-0.0005259912966502183,0.0004609063693712384,0.00016754437599488079,-0.0005442035095339845,1.89687186189837e-05,-0.0012514876038447896,0.6053096652030945,34.31289291381836,4.025173664093018,-19.459871292114258,-0.2429099678993225,-1.809390664100647,0.14590780436992645,0
9,0.040001869201660156,-0.6053096652030945,-34.31289291381836,-4.025173664093018,19.459871292114258,0.2429099678993225,1.809390664100647,-0.14590780436992645,0.0,0.0,0.0,0.0,0.0,0.0,0.0,-0.66320287626161,-0.23444670977609663,-0.4892814804032425,0.4122520989891394,0.20135626220834635,-0.09254748701760593,-0.11597448411802627,1.0545765820443778,0.32380885981179963,-0.39229627253884386,-2.1536250341569527,0.8646013249216554,2.4658746153910953,0.5444941979431442,1.0544104758940245,0.3238615046091247,-0.39250456234122666,-2.153291787532338,0.8647539153680389,2.46587817577521,0.5445020185570556,2.9249840003245516e-06,0.0005259912966502183,-0.0004609063693712384,-0.00016754437599488079,0.0005442035095339845,-1.89687186189837e-05,0.0012514876038447896,0.0,0.0,0.0,0.0,0.0,0.0,0.0,-0.00016610615035328458,5.2644797325085424e-05,-0.00020828980238279948,0.0003332466246148691,0.00015259044638349373,3.5603841146425452e-06,7.82061391135791e-06,-2.9249840003245516e-06,-0.0005259912966502183,0.0004609063693712384,0.00016754437599488079,-0.0005442035095339845,1.89687186189837e-05,-0.0012514876038447896,0.6053096652030945,34.31289291381836,4.025173664093018,-19.459871292114258,-0.2429099678993225,-1.809390664100647,0.14590780436992645,0
10,0.04500007629394531,-0.6291133761405945,-34.28908920288086,-4.025173664093018,19.412263870239258,0.2603049874305725,1.796573281288147,-0.07724325358867645,0.0,0.0,0.0,0.0,0.0,0.0,0.0,-0.65898413039603,-0.2219261400347566,-0.48877772152953863,0.4035853338931373,0.20160803773821895,-0.09403042920906378,-0.11581582880369073,1.054576081177643,0.3238071922921133,-0.39229828924341753,-2.1536216130018073,0.8645993921955423,2.4658760395447414,0.5444855132771161,1.0544104758940245,0.3238615046091247,-0.39250456234122666,-2.153291787532338,0.8647539153680389,2.46587817577521,0.5445020185570556,-3.9985658252774124e-05,-8.208631854432122e-05,0.0006541352103544573,0.00020502517835062554,-8.801447831409248e-05,0.00034507648015282737,-0.001688442373148447,0.0,0.0,0.0,0.0,0.0,0.0,0.0,-0.00016560528361853066,5.431231701141792e-05,-0.00020627309780912872,0.0003298254694694691,0.0001545231724966456,2.1362304685190736e-06,1.6505279939460493e-05,3.9985658252774124e-05,8.208631854432122e-05,-0.0006541352103544573,-0.00020502517835062554,8.801447831409248e-05,-0.00034507648015282737,0.001688442373148447,0.6291133761405945,34.28908920288086,4.025173664093018,-19.412263870239258,-0.2603049874305725,-1.796573281288147,0.07724325358867645,0
11,0.049944400787353516,-0.6291133761405945,-34.28908920288086,-4.025173664093018,19.412263870239258,0.2603049874305725,1.796573281288147,-0.07724325358867645,0.0,0.0,0.0,0.0,0.0,0.0,0.0,-0.65898413039603,-0.2219261400347566,-0.48877772152953863,0.4035853338931373,0.20160803773821895,-0.09403042920906378,-0.11581582880369073,1.054576081177643,0.3238071922921133,-0.39229828924341753,-2.1536216130018073,0.8645993921955423,2.4658760395447414,0.5444855132771161,1.0544104758940245,0.3238615046091247,-0.39250456234122666,-2.153291787532338,0.8647539153680389,2.46587817577521,0.5445020185570556,-3.9985658252774124e-05,-8.208631854432122e-05,0.0006541352103544573,0.00020502517835062554,-8.801447831409248e-05,0.00034507648015282737,-0.001688442373148447,0.0,0.0,0.0,0.0,0.0,0.0,0.0,-0.00016560528361853066,5.431231701141792e-05,-0.00020627309780912872,0.0003298254694694691,0.0001545231724966456,2.1362304685190736e-06,1.6505279939460493e-05,3.9985658252774124e-05,8.208631854432122e-05,-0.0006541352103544573,-0.00020502517835062554,8.801447831409248e-05,-0.00034507648015282737,0.001688442373148447,0.6291133761405945,34.28908920288086,4.025173664093018,-19.412263870239258,-0.2603049874305725,-1.796573281288147,0.07724325358867645,0
12,0.05499601364135742,-0.6291133761405945,-34.28908920288086,-4.025173664093018,19.436067581176758,0.2603049874305725,1.809390664100647,-0.10470907390117645,0.0,0.0,0.0,0.0,0.0,0.0,0.0,-0.6627921953985108,-0.2246807729017156,-0.4872176355014464,0.40428816042531734,0.20232033987923287,-0.09416419995384924,-0.11539193197949142,1.0545761626368773,0.3238071921841229,-0.3922983718800487,-2.1536253281059645,0.8645993921955426,2.4658746153910953,0.5444885650289717,1.0544104758940245,0.3238615046091247,-0.39250456234122666,-2.153291787532338,0.8647539153680389,2.46587817577521,0.5445020185570556,-0.00014744551765505636,-3.372649727781729e-05,-0.00022559362552071954,-2.99451422306037e-05,-0.000159656793505316,0.00024419030105822466,-0.0005812615127711126,0.0,0.0,0.0,0.0,0.0,0.0,0.0,-0.0001656867428527775,5.4312425001812326e-05,-0.00020619046117797968,0.0003335405736266672,0.00015452317249631253,3.5603841146425452e-06,1.345352808390654e-05,0.00014744551765505636,3.372649727781729e-05,0.00022559362552071954,2.99451422306037e-05,0.000159656793505316,-0.00024419030105822466,0.0005812615127711126,0.6291133761405945,34.28908920288086,4.025173664093018,-19.436067581176758,-0.2603049874305725,-1.809390664100647,0.10470907390117645,0
13,0.06000781059265137,-0.6291133761405945,-34.28908920288086,-4.025173664093018,19.436067581176758,0.2603049874305725,1.809390664100647,-0.10470907390117645,0.0,0.0,0.0,0.0,0.0,0.0,0.0,-0.6627921953985108,-0.2246807729017156,-0.4872176355014464,0.40428816042531734,0.20232033987923287,-0.09416419995384924,-0.11539193197949142,1.0545761626368773,0.3238071921841229,-0.3922983718800487,-2.1536253281059645,0.8645993921955426,2.4658746153910953,0.5444885650289717,1.0544104758940245,0.3238615046091247,-0.39250456234122666,-2.153291787532338,0.8647539153680389,2.46587817577521,0.5445020185570556,-0.00014744551765505636,-3.372649727781729e-05,-0.00022559362552071954,-2.99451422306037e-05,-0.000159656793505316,0.00024419030105822466,-0.0005812615127711126,0.0,0.0,0.0,0.0,0.0,0.0,0.0,-0.0001656867428527775,5.4312425001812326e-05,-0.00020619046117797968,0.0003335405736266672,0.00015452317249631253,3.5603841146425452e-06,1.345352808390654e-05,0.00014744551765505636,3.372649727781729e-05,0.00022559362552071954,2.99451422306037e-05,0.000159656793505316,-0.00024419030105822466,0.0005812615127711126,0.6291133761405945,34.28908920288086,4.025173664093018,-19.436067581176758,-0.2603049874305725,-1.809390664100647,0.10470907390117645,0
14,0.06532621383666992,-0.7084590792655945,-34.26528549194336,-4.072781085968018,19.412263870239258,0.2548118233680725,1.835025429725647,-0.06991903483867645,0.0,0.0,0.0,0.0,0.0,0.0,0.0,-0.6746626446046553,-0.22308787800149607,-0.4965404085824462,0.4005753295019679,0.20361807433821139,-0.09315703657151687,-0.11497792163013877,1.0545818870498447,0.3238055218562739,-0.39229403399749335,-2.1536216168971056,0.8646000025471051,2.465871767083804,0.5444857547465544,1.0544104758940245,0.3238615046091247,-0.39250456234122666,-2.153291787532338,0.8647539153680389,2.46587817577521,0.5445020185570556,0.0007891436168550911,-0.0002870892739354661,-0.00023500204574746937,0.00038118724837854636,7.578827513123778e-05,-0.0005823961950144481,-0.0017912639267798488,0.0,0.0,0.0,0.0,0.0,0.0,0.0,-0.00017141115582020028,5.5982752850791684e-05,-0.0002105283437333072,0.00032982936476777525,0.0001539128209337992,6.40869140600131e-06,1.626381050123804e-05,-0.0007891436168550911,0.0002870892739354661,0.00023500204574746937,-0.00038118724837854636,-7.578827513123778e-05,0.0005823961950144481,0.0017912639267798488,0.7084590792655945,34.26528549194336,4.072781085968018,-19.412263870239258,-0.2548118233680725,-1.835025429725647,0.06991903483867645,0
15,0.07000112533569336,-0.7084590792655945,-34.26528549194336,-4.072781085968018,19.412263870239258,0.2548118233680725,1.835025429725647,-0.06991903483867645,0.0,0.0,0.0,0.0,0.0,0.0,0.0,-0.6746626446046553,-0.22308787800149607,-0.4965404085824462,0.4005753295019679,0.20361807433821139,-0.09315703657151687,-0.11497792163013877,1.0545818870498447,0.3238055218562739,-0.39229403399749335,-2.1536216168971056,0.8646000025471051,2.465871767083804,0.5444857547465544,1.0544104758940245,0.3238615046091247,-0.39250456234122666,-2.153291787532338,0.8647539153680389,2.46587817577521,0.5445020185570556,0.0007891436168550911,-0.0002870892739354661,-0.00023500204574746937,0.00038118724837854636,7.578827513123778e-05,-0.0005823961950144481,-0.0017912639267798488,0.0,0.0,0.0,0.0,0.0,0.0,0.0,-0.00017141115582020028,5.5982752850791684e-05,-0.0002105283437333072,0.00032982936476777525,0.0001539128209337992,6.40869140600131e-06,1.626381050123804e-05,-0.0007891436168550911,0.0002870892739354661,0.00023500204574746937,-0.00038118724837854636,-7.578827513123778e-05,0.0005823961950144481,0.0017912639267798488,0.7084590792655945,34.26528549194336,4.072781085968018,-19.412263870239258,-0.2548118233680725,-1.835025429725647,0.06991903483867645,0
16,0.07500624656677246,-0.6806880831718445,-34.31289291381836,-4.048977375030518,19.436067581176758,0.2548118233680725,1.809390664100647,-0.10470907390117645,0.0,0.0,0.0,0.0,0.0,0.0,0.0,-0.6656151559533752,-0.232425352246494,-0.4905904004489207,0.4057558152058284,0.20318404820684058,-0.09152929599651714,-0.11454829295136988,1.054579938208896,0.323808862727985,-0.39229664797563674,-2.153625404635407,0.8646000025471051,2.4658746153910953,0.544488560674278,1.0544104758940245,0.3238615046091247,-0.39250456234122666,-2.153291787532338,0.8647539153680389,2.46587817577521,0.5445020185570556,-0.0009943071714955364,0.0005359207368351227,-0.0005728057753805345,-0.0002044411807012772,3.044219082984041e-05,0.00036074737784807013,-7.717865490750218e-05,0.0,0.0,0.0,0.0,0.0,0.0,0.0,-0.00016946231487158236,5.264188113973667e-05,-0.00020791436558992293,0.00033361710306900605,0.0001539128209337992,3.5603841146425452e-06,1.3457882777623276e-05,0.0009943071714955364,-0.0005359207368351227,0.0005728057753805345,0.0002044411807012772,-3.044219082984041e-05,-0.00036074737784807013,7.717865490750218e-05,0.6806880831718445,34.31289291381836,4.048977375030518,-19.436067581176758,-0.2548118233680725,-1.809390664100647,0.10470907390117645,0
17,0.08050131797790527,-0.6806880831718445,-34.31289291381836,-4.048977375030518,19.436067581176758,0.2548118233680725,1.809390664100647,-0.10470907390117645,0.0,0.0,0.0,0.0,0.0,0.0,0.0,-0.6656151559533752,-0.232425352246494,-0.4905904004489207,0.4057558152058284,0.20318404820684058,-0.09152929599651714,-0.11454829295136988,1.054579938208896,0.323808862727985,-0.39229664797563674,-2.153625404635407,0.8646000025471051,2.4658746153910953,0.544488560674278,1.0544104758940245,0.3238615046091247,-0.39250456234122666,-2.153291787532338,0.8647539153680389,2.46587817577521,0.5445020185570556,-0.0009943071714955364,0.0005359207368351227,-0.0005728057753805345,-0.0002044411807012772,3.044219082984041e-05,0.00036074737784807013,-7.717865490750218e-05,0.0,0.0,0.0,0.0,0.0,0.0,0.0,-0.00016946231487158236,5.264188113973667e-05,-0.00020791436558992293,0.00033361710306900605,0.0001539128209337992,3.5603841146425452e-06,1.3457882777623276e-05,0.0009943071714955364,-0.0005359207368351227,0.0005728057753805345,0.0002044411807012772,-3.044219082984041e-05,-0.00036074737784807013,7.717865490750218e-05,0.6806880831718445,34.31289291381836,4.048977375030518,-19.436067581176758,-0.2548118233680725,-1.809390664100647,0.10470907390117645,0
18,0.0850064754486084,-0.6568843722343445,-34.28908920288086,-4.048977375030518,19.412263870239258,0.2548118233680725,1.802981972694397,-0.15231649577617645,0.0,0.0,0.0,0.0,0.0,0.0,0.0,-0.6660865406492179,-0.2263321910583012,-0.4871122107393494,0.40595137989466923,0.20383011488002056,-0.08999723723931863,-0.11441412241589854,1.0545780293908003,0.3238071892679377,-0.3922956943884089,-2.1536228413682648,0.8646000025471051,2.4658753274679186,0.5444942079551984,1.0544104758940245,0.3238615046091247,-0.39250456234122666,-2.153291787532338,0.8647539153680389,2.46587817577521,0.5445020185570556,-0.0005823887813427081,0.0003720760006610561,-5.98715050362151e-05,0.00017325442615649618,-0.0015402103868801492,-0.0016102655687495184,0.001412387533979898,0.0,0.0,0.0,0.0,0.0,0.0,0.0,-0.00016755349677577414,5.431534118699455e-05,-0.0002088679528177706,0.00033105383592690885,0.0001539128209337992,2.848307291358765e-06,7.810601857172195e-06,0.0005823887813427081,-0.0003720760006610561,5.98715050362151e-05,-0.00017325442615649618,0.0015402103868801492,0.0016102655687495184,-0.001412387533979898,0.6568843722343445,34.28908920288086,4.048977375030518,-19.412263870239258,-0.2548118233680725,-1.802981972694397,0.15231649577617645,0
19,0.0899956226348877,-0.6568843722343445,-34.28908920288086,-4.048977375030518,19.412263870239258,0.2548118233680725,1.802981972694397,-0.15231649577617645,0.0,0.0,0.0,0.0,0.0,0.0,0.0,-0.6660865406492179,-0.2263321910583012,-0.4871122107393494,0.40595137989466923,0.20383011488002056,-0.08999723723931863,-0.11441412241589854,1.0545780293908003,0.3238071892679377,-0.3922956943884089,-2.1536228413682648,0.8646000025471051,2.4658753274679186,0.5444942079551984,1.0544104758940245,0.3238615046091247,-0.39250456234122666,-2.153291787532338,0.8647539153680389,2.46587817577521,0.5445020185570556,-0.0005823887813427081,0.0003720760006610561,-5.98715050362151e-05,0.00017325442615649618,-0.0015402103868801492,-0.0016102655687495184,0.001412387533979898,0.0,0.0,0.0,0.0,0.0,0.0,0.0,-0.00016755349677577414,5.431534118699455e-05,-0.0002088679528177706,0.00033105383592690885,0.0001539128209337992,2.848307291358765e-06,7.810601857172195e-06,0.0005823887813427081,-0.0003720760006610561,5.98715050362151e-05,-0.00017325442615649618,0.0015402103868801492,0.0016102655687495184,-0.001412387533979898,0.6568843722343445,34.28908920288086,4.048977375030518,-19.412263870239258,-0.2548118233680725,-1.802981972694397,0.15231649577617645,0
20,0.09499573707580566,-0.7084590792655945,-34.26528549194336,-4.048977375030518,19.436067581176758,0.2667136788368225,1.815799355506897,-0.11844198405742645,0.0,0.0,0.0,0.0,0.0,0.0,0.0,-0.6703492622055609,-0.21794543853014892,-0.4888432596751091,0.3952390260305491,0.204138798661318,-0.09336031155616499,-0.11536530260400017,1.0545819661951923,0.3238054421471958,-0.39229591108078643,-2.153622663720305,0.8645986801187198,2.4658739033142725,0.5444900880027712,1.0544104758940245,0.3238615046091247,-0.39250456234122666,-2.153291787532338,0.8647539153680389,2.46587817577521,0.5445020185570556,0.0012410655173117127,-0.0004335552216742909,-0.0003776616653297512,-0.0009714584498606712,-0.0004843355007107182,-0.00027055033899553904,4.326461334346849e-05,0.0,0.0,0.0,0.0,0.0,0.0,0.0,-0.00017149030116780928,5.60624619289074e-05,-0.00020865126044022908,0.0003308761879670108,0.00015523524931915222,4.2724609374822364e-06,1.1930554284389494e-05,-0.0012410655173117127,0.0004335552216742909,0.0003776616653297512,0.0009714584498606712,0.0004843355007107182,0.00027055033899553904,-4.326461334346849e-05,0.7084590792655945,34.26528549194336,4.048977375030518,-19.436067581176758,-0.2667136788368225,-1.815799355506897,0.11844198405742645,0
21,0.1000068187713623,-0.7084590792655945,-34.26528549194336,-4.048977375030518,19.436067581176758,0.2667136788368225,1.815799355506897,-0.11844198405742645,0.0,0.0,0.0,0.0,0.0,0.0,0.0,-0.6703492622055609,-0.21794543853014892,-0.4888432596751091,0.3952390260305491,0.204138798661318,-0.09336031155616499,-0.11536530260400017,1.0545819661951923,0.3238054421471958,-0.39229591108078643,-2.153622663720305,0.8645986801187198,2.4658739033142725,0.5444900880027712,1.0544104758940245,0.3238615046091247,-0.39250456234122666,-2.153291787532338,0.8647539153680389,2.46587817577521,0.5445020185570556,0.0012410655173117127,-0.0004335552216742909,-0.0003776616653297512,-0.0009714584498606712,-0.0004843355007107182,-0.00027055033899553904,4.326461334346849e-05,0.0,0.0,0.0,0.0,0.0,0.0,0.0,-0.00017149030116780928,5.60624619289074e-05,-0.00020865126044022908,0.0003308761879670108,0.00015523524931915222,4.2724609374822364e-06,1.1930554284389494e-05,-0.0012410655173117127,0.0004335552216742909,0.0003776616653297512,0.0009714584498606712,0.0004843355007107182,0.00027055033899553904,-4.326461334346849e-05,0.7084590792655945,34.26528549194336,4.048977375030518,-19.436067581176758,-0.2667136788368225,-1.815799355506897,0.11844198405742645,0
22,0.10544443130493164,-0.7084590792655945,-34.26528549194336,-4.048977375030518,19.436067581176758,0.2667136788368225,1.815799355506897,-0.11844198405742645,0.0,0.0,0.0,0.0,0.0,0.0,0.0,-0.6703492622055609,-0.21794543853014892,-0.4888432596751091,0.3952390260305491,0.204138798661318,-0.09336031155616499,-0.11536530260400017,1.0545819661951923,0.3238054421471958,-0.39229591108078643,-2.153622663720305,0.8645986801187198,2.4658739033142725,0.5444900880027712,1.0544104758940245,0.3238615046091247,-0.39250456234122666,-2.153291787532338,0.8647539153680389,2.46587817577521,0.5445020185570556,0.0012410655173117127,-0.0004335552216742909,-0.0003776616653297512,-0.0009714584498606712,-0.0004843355007107182,-0.00027055033899553904,4.326461334346849e-05,0.0,0.0,0.0,0.0,0.0,0.0,0.0,-0.00017149030116780928,5.60624619289074e-05,-0.00020865126044022908,0.0003308761879670108,0.00015523524931915222,4.2724609374822364e-06,1.1930554284389494e-05,-0.0012410655173117127,0.0004335552216742909,0.0003776616653297512,0.0009714584498606712,0.0004843355007107182,0.00027055033899553904,-4.326461334346849e-05,0.7084590792655945,34.26528549194336,4.048977375030518,-19.436067581176758,-0.2667136788368225,-1.815799355506897,0.11844198405742645,0
23,0.11001014709472656,-0.7084590792655945,-34.26528549194336,-4.048977375030518,19.436067581176758,0.2667136788368225,1.815799355506897,-0.11844198405742645,0.0,0.0,0.0,0.0,0.0,0.0,0.0,-0.6703492622055609,-0.21794543853014892,-0.4888432596751091,0.3952390260305491,0.204138798661318,-0.09336031155616499,-0.11536530260400017,1.0545819661951923,0.3238054421471958,-0.39229591108078643,-2.153622663720305,0.8645986801187198,2.4658739033142725,0.5444900880027712,1.0544104758940245,0.3238615046091247,-0.39250456234122666,-2.153291787532338,0.8647539153680389,2.46587817577521,0.5445020185570556,0.0012410655173117127,-0.0004335552216742909,-0.0003776616653297512,-0.0009714584498606712,-0.0004843355007107182,-0.00027055033899553904,4.326461334346849e-05,0.0,0.0,0.0,0.0,0.0,0.0,0.0,-0.00017149030116780928,5.60624619289074e-05,-0.00020865126044022908,0.0003308761879670108,0.00015523524931915222,4.2724609374822364e-06,1.1930554284389494e-05,-0.0012410655173117127,0.0004335552216742909,0.0003776616653297512,0.0009714584498606712,0.0004843355007107182,0.00027055033899553904,-4.326461334346849e-05,0.7084590792655945,34.26528549194336,4.048977375030518,-19.436067581176758,-0.2667136788368225,-1.815799355506897,0.11844198405742645,0
24,0.11539411544799805,-0.6806880831718445,-34.28908920288086,-4.048977375030518,19.412263870239258,0.2603049874305725,1.809390664100647,-0.12485067546367645,0.0,0.0,0.0,0.0,0.0,0.0,0.0,-0.6612287603758535,-0.22670002220900884,-0.48572802875120297,0.4019520968944499,0.20372558211991496,-0.09366790773317014,-0.11621163748964501,1.0545796995000536,0.3238050663926828,-0.3922938844413157,-2.153622967922026,0.8645993921955426,2.4658746153910953,0.5444907986240337,1.0544104758940245,0.3238615046091247,-0.39250456234122666,-2.153291787532338,0.8647539153680389,2.46587817577521,0.5445020185570556,0.0008526714119569567,-0.00020421389318714498,-0.000405833898561219,0.0003657384391524587,-0.0002026251966428689,1.1622048146385064e-05,0.0005723424979339918,0.0,0.0,0.0,0.0,0.0,0.0,0.0,-0.0001692236060291119,5.643821644191194e-05,-0.00021067789991097152,0.0003311803896881571,0.00015452317249631253,3.5603841146425452e-06,1.1219933021888728e-05,-0.0008526714119569567,0.00020421389318714498,0.000405833898561219,-0.0003657384391524587,0.0002026251966428689,-1.1622048146385064e-05,-0.0005723424979339918,0.6806880831718445,34.28908920288086,4.048977375030518,-19.412263870239258,-0.2603049874305725,-1.809390664100647,0.12485067546367645,0
25,0.12000823020935059,-0.6806880831718445,-34.28908920288086,-4.048977375030518,19.412263870239258,0.2603049874305725,1.809390664100647,-0.12485067546367645,0.0,0.0,0.0,0.0,0.0,0.0,0.0,-0.6612287603758535,-0.22670002220900884,-0.48572802875120297,0.4019520968944499,0.20372558211991496,-0.09366790773317014,-0.11621163748964501,1.0545796995000536,0.3238050663926828,-0.3922938844413157,-2.153622967922026,0.8645993921955426,2.4658746153910953,0.5444907986240337,1.0544104758940245,0.3238615046091247,-0.39250456234122666,-2.153291787532338,0.8647539153680389,2.46587817577521,0.5445020185570556,0.0008526714119569567,-0.00020421389318714498,-0.000405833898561219,0.0003657384391524587,-0.0002026251966428689,1.1622048146385064e-05,0.0005723424979339918,0.0,0.0,0.0,0.0,0.0,0.0,0.0,-0.0001692236060291119,5.643821644191194e-05,-0.00021067789991097152,0.0003311803896881571,0.00015452317249631253,3.5603841146425452e-06,1.1219933021888728e-05,-0.0008526714119569567,0.00020421389318714498,0.000405833898561219,-0.0003657384391524587,0.0002026251966428689,-1.1622048146385064e-05,-0.0005723424979339918,0.6806880831718445,34.28908920288086,4.048977375030518,-19.412263870239258,-0.2603049874305725,-1.809390664100647,0.12485067546367645,0
26,0.12500333786010742,-0.6568843722343445,-34.31289291381836,-4.048977375030518,19.436067581176758,0.2484031319618225,1.822208046913147,-0.12485067546367645,0.0,0.0,0.0,0.0,0.0,0.0,0.0,-0.6643011189953968,-0.22806392552085003,-0.49119148570165316,0.4042923429689563,0.20384146963407054,-0.09305257394062635,-0.1165631602357553,1.0545789827003815,0.32380885979979906,-0.3922938661767162,-2.1536254301528404,0.8646007146239281,2.4658731912374496,0.5444908378698821,1.0544104758940245,0.3238615046091247,-0.39250456234122666,-2.153291787532338,0.8647539153680389,2.46587817577521,0.5445020185570556,-0.000349874321274119,0.0002976531192614346,0.0004391232512754723,0.0002855999131149926,-0.006810044399552007,-0.00032857027267171375,-1.1997767988720448e-05,0.0,0.0,0.0,0.0,0.0,0.0,0.0,-0.0001685068063570494,5.264480932565263e-05,-0.00021069616451047102,0.0003336426205025056,0.0001532007441108485,4.984537760321928e-06,1.1180687173539816e-05,0.000349874321274119,-0.0002976531192614346,-0.0004391232512754723,-0.0002855999131149926,0.006810044399552007,0.00032857027267171375,1.1997767988720448e-05,0.6568843722343445,34.31289291381836,4.048977375030518,-19.436067581176758,-0.2484031319618225,-1.822208046913147,0.12485067546367645,0
27,0.13000273704528809,-0.6568843722343445,-34.31289291381836,-4.048977375030518,19.436067581176758,0.2484031319618225,1.822208046913147,-0.12485067546367645,0.0,0.0,0.0,0.0,0.0,0.0,0.0,-0.6643011189953968,-0.22806392552085003,-0.49119148570165316,0.4042923429689563,0.20384146963407054,-0.09305257394062635,-0.1165631602357553,1.0545789827003815,0.32380885979979906,-0.3922938661767162,-2.1536254301528404,0.8646007146239281,2.4658731912374496,0.5444908378698821,1.0544104758940245,0.3238615046091247,-0.39250456234122666,-2.153291787532338,0.8647539153680389,2.46587817577521,0.5445020185570556,-0.000349874321274119,0.0002976531192614346,0.0004391232512754723,0.0002855999131149926,-0.006810044399552007,-0.00032857027267171375,-1.1997767988720448e-05,0.0,0.0,0.0,0.0,0.0,0.0,0.0,-0.0001685068063570494,5.264480932565263e-05,-0.00021069616451047102,0.0003336426205025056,0.0001532007441108485,4.984537760321928e-06,1.1180687173539816e-05,0.000349874321274119,-0.0002976531192614346,-0.0004391232512754723,-0.0002855999131149926,0.006810044399552007,0.00032857027267171375,1.1997767988720448e-05,0.6568843722343445,34.31289291381836,4.048977375030518,-19.436067581176758,-0.2484031319618225,-1.822208046913147,0.12485067546367645,0
28,0.13501667976379395,-0.6568843722343445,-34.28908920288086,-4.048977375030518,19.436067581176758,0.2548118233680725,1.822208046913147,-0.13217489421367645,0.0,0.0,0.0,0.0,0.0,0.0,0.0,-0.6677538052294623,-0.22800001618209723,-0.4905343455907866,0.4038587117004919,0.20378597391048983,-0.09266395930070136,-0.11702773768551061,1.0545809253864356,0.32380719229208016,-0.39229457153709557,-2.1536254187146393,0.8646000025471051,2.4658731912374496,0.5444916129112901,1.0544104758940245,0.3238615046091247,-0.39250456234122666,-2.153291787532338,0.8647539153680389,2.46587817577521,0.5445020185570556,6.138771176294784e-05,-0.0005769971154691327,4.634267972635174e-05,0.00011641131231293656,-0.00010079231364385535,-0.00035189494206105775,0.0006057316010045043,0.0,0.0,0.0,0.0,0.0,0.0,0.0,-0.00017044949241107332,5.431231704455808e-05,-0.00020999080413108828,0.0003336311823014526,0.0001539128209337992,4.984537760321928e-06,1.0405645765487748e-05,-6.138771176294784e-05,0.0005769971154691327,-4.634267972635174e-05,-0.00011641131231293656,0.00010079231364385535,0.00035189494206105775,-0.0006057316010045043,0.6568843722343445,34.28908920288086,4.048977375030518,-19.436067581176758,-0.2548118233680725,-1.822208046913147,0.13217489421367645,0
29,0.1400001049041748,-0.6568843722343445,-34.28908920288086,-4.048977375030518,19.436067581176758,0.2548118233680725,1.822208046913147,-0.13217489421367645,0.0,0.0,0.0,0.0,0.0,0.0,0.0,-0.6677538052294623,-0.22800001618209723,-0.4905343455907866,0.4038587117004919,0.20378597391048983,-0.09266395930070136,-0.11702773768551061,1.0545809253864356,0.32380719229208016,-0.39229457153709557,-2.1536254187146393,0.8646000025471051,2.4658731912374496,0.5444916129112901,1.0544104758940245,0.3238615046091247,-0.39250456234122666,-2.153291787532338,0.8647539153680389,2.46587817577521,0.5445020185570556,6.138771176294784e-05,-0.0005769971154691327,4.634267972635174e-05,0.00011641131231293656,-0.00010079231364385535,-0.00035189494206105775,0.0006057316010045043,0.0,0.0,0.0,0.0,0.0,0.0,0.0,-0.00017044949241107332,5.431231704455808e-05,-0.00020999080413108828,0.0003336311823014526,0.0001539128209337992,4.984537760321928e-06,1.0405645765487748e-05,-6.138771176294784e-05,0.0005769971154691327,-4.634267972635174e-05,-0.00011641131231293656,0.00010079231364385535,0.00035189494206105775,-0.0006057316010045043,0.6568843722343445,34.28908920288086,4.048977375030518,-19.436067581176758,-0.2548118233680725,-1.822208046913147,0.13217489421367645,0
30,0.14504218101501465,-0.6568843722343445,-34.28908920288086,-4.025173664093018,19.412263870239258,0.2548118233680725,1.809390664100647,-0.13217489421367645,0.0,0.0,0.0,0.0,0.0,0.0,0.0,-0.6615652879542624,-0.21297423807744997,-0.48565364476861705,0.39491471030063385,0.20357167340843532,-0.09332727688893064,-0.1167195813904593,1.054578065673094,0.3238049876561329,-0.3922953189907458,-2.153623756537081,0.8646000025471051,2.4658746153910953,0.5444916124261097,1.0544104758940245,0.3238615046091247,-0.39250456234122666,-2.153291787532338,0.8647539153680389,2.46587817577521,0.5445020185570556,-0.0001662589560742457,0.00059985888563428,-0.00019569801054119848,0.00015303534541309604,0.000141045478416467,0.00012078204989969898,0.0006311793178333099,0.0,0.0,0.0,0.0,0.0,0.0,0.0,-0.00016758977906961015,5.651695299180304e-05,-0.00020924335048083664,0.00033196900474319335,0.0001539128209337992,3.5603841146425452e-06,1.0406130945939118e-05,0.0001662589560742457,-0.00059985888563428,0.00019569801054119848,-0.00015303534541309604,-0.000141045478416467,-0.00012078204989969898,-0.0006311793178333099,0.6568843722343445,34.28908920288086,4.025173664093018,-19.412263870239258,-0.2548118233680725,-1.809390664100647,0.13217489421367645,0
31,0.15000104904174805,-0.6568843722343445,-34.28908920288086,-4.025173664093018,19.412263870239258,0.2548118233680725,1.809390664100647,-0.13217489421367645,0.0,0.0,0.0,0.0,0.0,0.0,0.0,-0.6615652879542624,-0.21297423807744997,-0.48565364476861705,0.39491471030063385,0.20357167340843532,-0.09332727688893064,-0.1167195813904593,1.054578065673094,0.3238049876561329,-0.3922953189907458,-2.153623756537081,0.8646000025471051,2.4658746153910953,0.5444916124261097,1.0544104758940245,0.3238615046091247,-0.39250456234122666,-2.153291787532338,0.8647539153680389,2.46587817577521,0.5445020185570556,-0.0001662589560742457,0.00059985888563428,-0.00019569801054119848,0.00015303534541309604,0.000141045478416467,0.00012078204989969898,0.0006311793178333099,0.0,0.0,0.0,0.0,0.0,0.0,0.0,-0.00016758977906961015,5.651695299180304e-05,-0.00020924335048083664,0.00033196900474319335,0.0001539128209337992,3.5603841146425452e-06,1.0406130945939118e-05,0.0001662589560742457,-0.00059985888563428,0.00019569801054119848,-0.00015303534541309604,-0.000141045478416467,-0.00012078204989969898,-0.0006311793178333099,0.6568843722343445,34.28908920288086,4.025173664093018,-19.412263870239258,-0.2548118233680725,-1.809390664100647,0.13217489421367645,0
32,0.15495848655700684,-0.6568843722343445,-34.28908920288086,-4.025173664093018,19.436067581176758,0.2548118233680725,1.809390664100647,-0.06991903483867645,0.0,0.0,0.0,0.0,0.0,0.0,0.0,-0.6586651508817741,-0.23124003176840946,-0.4822850339405865,0.4054885497326609,0.20410762015041234,-0.09268169812223248,-0.11641053134258922,1.0545780300074181,0.32380719224368226,-0.39229831937194826,-2.153625421304094,0.8646000025471051,2.4658746153910953,0.544484695269906,1.0544104758940245,0.3238615046091247,-0.39250456234122666,-2.153291787532338,0.8647539153680389,2.46587817577521,0.5445020185570556,0.00035739032952765193,-0.00013494367322342725,0.00018468809899702755,-0.0003690521071246912,0.00019344106858328318,-0.00018681779906097812,-0.0019903170981882532,0.0,0.0,0.0,0.0,0.0,0.0,0.0,-0.000167554113393642,5.431236544245488e-05,-0.0002062429692784029,0.00033363377175632536,0.0001539128209337992,3.5603841146425452e-06,1.7323287149650923e-05,-0.00035739032952765193,0.00013494367322342725,-0.00018468809899702755,0.0003690521071246912,-0.00019344106858328318,0.00018681779906097812,0.0019903170981882532,0.6568843722343445,34.28908920288086,4.025173664093018,-19.436067581176758,-0.2548118233680725,-1.809390664100647,0.06991903483867645,0
33,0.15999531745910645,-0.6568843722343445,-34.28908920288086,-4.025173664093018,19.436067581176758,0.2548118233680725,1.809390664100647,-0.06991903483867645,0.0,0.0,0.0,0.0,0.0,0.0,0.0,-0.6586651508817741,-0.23124003176840946,-0.4822850339405865,0.4054885497326609,0.20410762015041234,-0.09268169812223248,-0.11641053134258922,1.0545780300074181,0.32380719224368226,-0.39229831937194826,-2.153625421304094,0.8646000025471051,2.4658746153910953,0.544484695269906,1.0544104758940245,0.3238615046091247,-0.39250456234122666,-2.153291787532338,0.8647539153680389,2.46587817577521,0.5445020185570556,0.00035739032952765193,-0.00013494367322342725,0.00018468809899702755,-0.0003690521071246912,0.00019344106858328318,-0.00018681779906097812,-0.0019903170981882532,0.0,0.0,0.0,0.0,0.0,0.0,0.0,-0.000167554113393642,5.431236544245488e-05,-0.0002062429692784029,0.00033363377175632536,0.0001539128209337992,3.5603841146425452e-06,1.7323287149650923e-05,-0.00035739032952765193,0.00013494367322342725,-0.00018468809899702755,0.0003690521071246912,-0.00019344106858328318,0.00018681779906097812,0.0019903170981882532,0.6568843722343445,34.28908920288086,4.025173664093018,-19.436067581176758,-0.2548118233680725,-1.809390664100647,0.06991903483867645,0
34,0.16501450538635254,-0.6806880831718445,-34.28908920288086,-4.072781085968018,19.459871292114258,0.2548118233680725,1.809390664100647,-0.12485067546367645,0.0,0.0,0.0,0.0,0.0,0.0,0.0,-0.6649860118245077,-0.21786447549711846,-0.48388483580898567,0.3940463153129833,0.20465436313969135,-0.09623458884241962,-0.11680930183389861,1.0545796994619259,0.3238071922921295,-0.3922928529782009,-2.153625024745708,0.8646000025471051,2.4658746153910953,0.5444918582621557,1.0544104758940245,0.3238615046091247,-0.39250456234122666,-2.153291787532338,0.8647539153680389,2.46587817577521,0.5445020185570556,-0.0002779391733960502,-0.00026132834077659256,0.0007275211537803044,-0.0007113401914028687,7.85265290004741e-05,0.0011458635228910011,0.0005319552446987534,0.0,0.0,0.0,0.0,0.0,0.0,0.0,-0.0001692235679013887,5.4312316995208665e-05,-0.00021170936302578047,0.00033323721337019663,0.0001539128209337992,3.5603841146425452e-06,1.0160294899863587e-05,0.0002779391733960502,0.00026132834077659256,-0.0007275211537803044,0.0007113401914028687,-7.85265290004741e-05,-0.0011458635228910011,-0.0005319552446987534,0.6806880831718445,34.28908920288086,4.072781085968018,-19.459871292114258,-0.2548118233680725,-1.809390664100647,0.12485067546367645,0
35,0.17000174522399902,-0.6806880831718445,-34.28908920288086,-4.072781085968018,19.459871292114258,0.2548118233680725,1.809390664100647,-0.12485067546367645,0.0,0.0,0.0,0.0,0.0,0.0,0.0,-0.6649860118245077,-0.21786447549711846,-0.48388483580898567,0.3940463153129833,0.20465436313969135,-0.09623458884241962,-0.11680930183389861,1.0545796994619259,0.3238071922921295,-0.3922928529782009,-2.153625024745708,0.8646000025471051,2.4658746153910953,0.5444918582621557,1.0544104758940245,0.3238615046091247,-0.39250456234122666,-2.153291787532338,0.8647539153680389,2.46587817577521,0.5445020185570556,-0.0002779391733960502,-0.00026132834077659256,0.0007275211537803044,-0.0007113401914028687,7.85265290004741e-05,0.0011458635228910011,0.0005319552446987534,0.0,0.0,0.0,0.0,0.0,0.0,0.0,-0.0001692235679013887,5.4312316995208665e-05,-0.00021170936302578047,0.00033323721337019663,0.0001539128209337992,3.5603841146425452e-06,1.0160294899863587e-05,0.0002779391733960502,0.00026132834077659256,-0.0007275211537803044,0.0007113401914028687,-7.85265290004741e-05,-0.0011458635228910011,-0.0005319552446987534,0.6806880831718445,34.28908920288086,4.072781085968018,-19.459871292114258,-0.2548118233680725,-1.809390664100647,0.12485067546367645,0
36,0.17499661445617676,-0.6806880831718445,-34.28908920288086,-4.072781085968018,19.436067581176758,0.2548118233680725,1.815799355506897,-0.06991903483867645,0.0,0.0,0.0,0.0,0.0,0.0,0.0,-0.6598948036467438,-0.22439633879017962,-0.48047772154728796,0.4022704588773254,0.20359407390245943,-0.09401707018629636,-0.11668099289354665,1.0545796994619203,0.32380719229212973,-0.39229496619239446,-2.153622674946484,0.8646000025471051,2.4658739033142725,0.5444878740287701,1.0544104758940245,0.3238615046091247,-0.39250456234122666,-2.153291787532338,0.8647539153680389,2.46587817577521,0.5445020185570556,0.00033322755368602966,-0.00010145743554789282,0.0003757432644341613,-0.0002436164031393548,0.00013727472101417428,0.00013135039087978863,-0.0017340929524779249,0.0,0.0,0.0,0.0,0.0,0.0,0.0,-0.0001692235678958376,5.431231699498662e-05,-0.0002095961488322029,0.00033088741414610823,0.0001539128209337992,4.2724609374822364e-06,1.4144528285520153e-05,-0.00033322755368602966,0.00010145743554789282,-0.0003757432644341613,0.0002436164031393548,-0.00013727472101417428,-0.00013135039087978863,0.0017340929524779249,0.6806880831718445,34.28908920288086,4.072781085968018,-19.436067581176758,-0.2548118233680725,-1.815799355506897,0.06991903483867645,0
37,0.17999649047851562,-0.6806880831718445,-34.28908920288086,-4.072781085968018,19.436067581176758,0.2548118233680725,1.815799355506897,-0.06991903483867645,0.0,0.0,0.0,0.0,0.0,0.0,0.0,-0.6598948036467438,-0.22439633879017962,-0.48047772154728796,0.4022704588773254,0.20359407390245943,-0.09401707018629636,-0.11668099289354665,1.0545796994619203,0.32380719229212973,-0.39229496619239446,-2.153622674946484,0.8646000025471051,2.4658739033142725,0.5444878740287701,1.0544104758940245,0.3238615046091247,-0.39250456234122666,-2.153291787532338,0.8647539153680389,2.46587817577521,0.5445020185570556,0.00033322755368602966,-0.00010145743554789282,0.0003757432644341613,-0.0002436164031393548,0.00013727472101417428,0.00013135039087978863,-0.0017340929524779249,0.0,0.0,0.0,0.0,0.0,0.0,0.0,-0.0001692235678958376,5.431231699498662e-05,-0.0002095961488322029,0.00033088741414610823,0.0001539128209337992,4.2724609374822364e-06,1.4144528285520153e-05,-0.00033322755368602966,0.00010145743554789282,-0.0003757432644341613,0.0002436164031393548,-0.00013727472101417428,-0.00013135039087978863,0.0017340929524779249,0.6806880831718445,34.28908920288086,4.072781085968018,-19.436067581176758,-0.2548118233680725,-1.815799355506897,0.06991903483867645,0
38,0.18503952026367188,-0.6806880831718445,-34.26528549194336,-4.096584796905518,19.436067581176758,0.2548118233680725,1.815799355506897,-0.09738485515117645,0.0,0.0,0.0,0.0,0.0,0.0,0.0,-0.6642650306356858,-0.22921013343162258,-0.4886057979729548,0.4092254820424723,0.2034650759594548,-0.09202647247277936,-0.11537195004517019,1.0545804150447065,0.3238055218562745,-0.39229265118353646,-2.153625430036778,0.8646000025471051,2.4658739033142725,0.5444910450435013,1.0544104758940245,0.3238615046091247,-0.39250456234122666,-2.153291787532338,0.8647539153680389,2.46587817577521,0.5445020185570556,0.0003057461359670259,-0.0005594370707217555,0.000832013460739241,0.00016148592947369054,0.0001515916694051368,-0.00013104046179682451,-0.0005518276256545753,0.0,0.0,0.0,0.0,0.0,0.0,0.0,-0.00016993915068197474,5.598275285023657e-05,-0.0002119111576902033,0.0003336425044402347,0.0001539128209337992,4.2724609374822364e-06,1.097351355427989e-05,-0.0003057461359670259,0.0005594370707217555,-0.000832013460739241,-0.00016148592947369054,-0.0001515916694051368,0.00013104046179682451,0.0005518276256545753,0.6806880831718445,34.26528549194336,4.096584796905518,-19.436067581176758,-0.2548118233680725,-1.815799355506897,0.09738485515117645,0
39,0.19003558158874512,-0.6806880831718445,-34.26528549194336,-4.096584796905518,19.436067581176758,0.2548118233680725,1.815799355506897,-0.09738485515117645,0.0,0.0,0.0,0.0,0.0,0.0,0.0,-0.6642650306356858,-0.22921013343162258,-0.4886057979729548,0.4092254820424723,0.2034650759594548,-0.09202647247277936,-0.11537195004517019,1.0545804150447065,0.3238055218562745,-0.39229265118353646,-2.153625430036778,0.8646000025471051,2.4658739033142725,0.5444910450435013,1.0544104758940245,0.3238615046091247,-0.39250456234122666,-2.153291787532338,0.8647539153680389,2.46587817577521,0.5445020185570556,0.0003057461359670259,-0.0005594370707217555,0.000832013460739241,0.00016148592947369054,0.0001515916694051368,-0.00013104046179682451,-0.0005518276256545753,0.0,0.0,0.0,0.0,0.0,0.0,0.0,-0.00016993915068197474,5.598275285023657e-05,-0.0002119111576902033,0.0003336425044402347,0.0001539128209337992,4.2724609374822364e-06,1.097351355427989e-05,-0.0003057461359670259,0.0005594370707217555,-0.000832013460739241,-0.00016148592947369054,-0.0001515916694051368,0.00013104046179682451,0.0005518276256545753,0.6806880831718445,34.26528549194336,4.096584796905518,-19.436067581176758,-0.2548118233680725,-1.815799355506897,0.09738485515117645,0
40,0.19504499435424805,-0.6806880831718445,-34.28908920288086,-4.048977375030518,19.436067581176758,0.2667136788368225,1.815799355506897,-0.12485067546367645,0.0,0.0,0.0,0.0,0.0,0.0,0.0,-0.6583743887870362,-0.22249566625906478,-0.4835498956546126,0.40756481462766253,0.20363612974700016,-0.09314033097087931,-0.11451415210274923,1.0545799379208776,0.32380719229212973,-0.392293801816526,-2.153623134239703,0.8645986801187198,2.4658739033142725,0.5444908030571297,1.0544104758940245,0.3238615046091247,-0.39250456234122666,-2.153291787532338,0.8647539153680389,2.46587817577521,0.5445020185570556,-0.00011353919781062773,-3.9499441000010964e-06,0.0003052293134754679,-7.883325660496598e-06,-0.00031534449358840686,-0.00013522572156004123,0.000280315832687113,0.0,0.0,0.0,0.0,0.0,0.0,0.0,-0.00016946202685308442,5.431231699498662e-05,-0.00021076052470064832,0.00033134670736512106,0.00015523524931915222,4.2724609374822364e-06,1.1215499925887329e-05,0.00011353919781062773,3.9499441000010964e-06,-0.0003052293134754679,7.883325660496598e-06,0.00031534449358840686,0.00013522572156004123,-0.000280315832687113,0.6806880831718445,34.28908920288086,4.048977375030518,-19.436067581176758,-0.2667136788368225,-1.815799355506897,0.12485067546367645,0
41,0.20001792907714844,-0.6806880831718445,-34.28908920288086,-4.048977375030518,19.436067581176758,0.2667136788368225,1.815799355506897,-0.12485067546367645,0.0,0.0,0.0,0.0,0.0,0.0,0.0,-0.6583743887870362,-0.22249566625906478,-0.4835498956546126,0.40756481462766253,0.20363612974700016,-0.09314033097087931,-0.11451415210274923,1.0545799379208776,0.32380719229212973,-0.392293801816526,-2.153623134239703,0.8645986801187198,2.4658739033142725,0.5444908030571297,1.0544104758940245,0.3238615046091247,-0.39250456234122666,-2.153291787532338,0.8647539153680389,2.46587817577521,0.5445020185570556,-0.00011353919781062773,-3.9499441000010964e-06,0.0003052293134754679,-7.883325660496598e-06,-0.00031534449358840686,-0.00013522572156004123,0.000280315832687113,0.0,0.0,0.0,0.0,0.0,0.0,0.0,-0.00016946202685308442,5.431231699498662e-05,-0.00021076052470064832,0.00033134670736512106,0.00015523524931915222,4.2724609374822364e-06,1.1215499925887329e-05,0.00011353919781062773,3.9499441000010964e-06,-0.0003052293134754679,7.883325660496598e-06,0.00031534449358840686,0.00013522572156004123,-0.000280315832687113,0.6806880831718445,34.28908920288086,4.048977375030518,-19.436067581176758,-0.2667136788368225,-1.815799355506897,0.12485067546367645,0
42,0.2049560546875,-0.6806880831718445,-34.28908920288086,-3.9974029064178467,19.436067581176758,0.2603049874305725,1.802981972694397,-0.09097616374492645,0.0,0.0,0.0,0.0,0.0,0.0,0.0,-0.6538417444227824,-0.22309282931418534,-0.47804861078187694,0.40824534061705475,0.2042068080154714,-0.09386282529706806,-0.11455421085847955,1.0545818481739175,0.3238071919681092,-0.3922971613806271,-2.153623250473078,0.8645993921955426,2.4658753274679186,0.5444870740352716,1.0544104758940245,0.3238615046091247,-0.39250456234122666,-2.153291787532338,0.8647539153680389,2.46587817577521,0.5445020185570556,0.0006947408152048049,-0.00016320706017677533,-0.0005925639829904226,-4.4665138776166916e-05,-0.00013165919228489748,0.00022754204243701187,-0.0004798226050517633,0.0,0.0,0.0,0.0,0.0,0.0,0.0,-0.00017137227989305615,5.431264101551925e-05,-0.00020740096059956858,0.000331462940740046,0.00015452317249631253,2.848307291358765e-06,1.4944521783966103e-05,-0.0006947408152048049,0.00016320706017677533,0.0005925639829904226,4.4665138776166916e-05,0.00013165919228489748,-0.00022754204243701187,0.0004798226050517633,0.6806880831718445,34.28908920288086,3.9974029064178467,-19.436067581176758,-0.2603049874305725,-1.802981972694397,0.09097616374492645,0
43,0.20999383926391602,-0.6806880831718445,-34.28908920288086,-3.9974029064178467,19.436067581176758,0.2603049874305725,1.802981972694397,-0.09097616374492645,0.0,0.0,0.0,0.0,0.0,0.0,0.0,-0.6538417444227824,-0.22309282931418534,-0.47804861078187694,0.40824534061705475,0.2042068080154714,-0.09386282529706806,-0.11455421085847955,1.0545818481739175,0.3238071919681092,-0.3922971613806271,-2.153623250473078,0.8645993921955426,2.4658753274679186,0.5444870740352716,1.0544104758940245,0.3238615046091247,-0.39250456234122666,-2.153291787532338,0.8647539153680389,2.46587817577521,0.5445020185570556,0.0006947408152048049,-0.00016320706017677533,-0.0005925639829904226,-4.4665138776166916e-05,-0.00013165919228489748,0.00022754204243701187,-0.0004798226050517633,0.0,0.0,0.0,0.0,0.0,0.0,0.0,-0.00017137227989305615,5.431264101551925e-05,-0.00020740096059956858,0.000331462940740046,0.00015452317249631253,2.848307291358765e-06,1.4944521783966103e-05,-0.0006947408152048049,0.00016320706017677533,0.0005925639829904226,4.4665138776166916e-05,0.00013165919228489748,-0.00022754204243701187,0.0004798226050517633,0.6806880831718445,34.28908920288086,3.9974029064178467,-19.436067581176758,-0.2603049874305725,-1.802981972694397,0.09097616374492645,0
44,0.2149944305419922,-0.6806880831718445,-34.28908920288086,-3.9974029064178467,19.436067581176758,0.2603049874305725,1.802981972694397,-0.09097616374492645,0.0,0.0,0.0,0.0,0.0,0.0,0.0,-0.6538417444227824,-0.22309282931418534,-0.47804861078187694,0.40824534061705475,0.2042068080154714,-0.09386282529706806,-0.11455421085847955,1.0545818481739175,0.3238071919681092,-0.3922971613806271,-2.153623250473078,0.8645993921955426,2.4658753274679186,0.5444870740352716,1.0544104758940245,0.3238615046091247,-0.39250456234122666,-2.153291787532338,0.8647539153680389,2.46587817577521,0.5445020185570556,0.0006947408152048049,-0.00016320706017677533,-0.0005925639829904226,-4.4665138776166916e-05,-0.00013165919228489748,0.00022754204243701187,-0.0004798226050517633,0.0,0.0,0.0,0.0,0.0,0.0,0.0,-0.00017137227989305615,5.431264101551925e-05,-0.00020740096059956858,0.000331462940740046,0.00015452317249631253,2.848307291358765e-06,1.4944521783966103e-05,-0.0006947408152048049,0.00016320706017677533,0.0005925639829904226,4.4665138776166916e-05,0.00013165919228489748,-0.00022754204243701187,0.0004798226050517633,0.6806880831718445,34.28908920288086,3.9974029064178467,-19.436067581176758,-0.2603049874305725,-1.802981972694397,0.09097616374492645,0
45,0.22000598907470703,-0.6806880831718445,-34.28908920288086,-3.9974029064178467,19.436067581176758,0.2603049874305725,1.802981972694397,-0.09097616374492645,0.0,0.0,0.0,0.0,0.0,0.0,0.0,-0.6538417444227824,-0.22309282931418534,-0.47804861078187694,0.40824534061705475,0.2042068080154714,-0.09386282529706806,-0.11455421085847955,1.0545818481739175,0.3238071919681092,-0.3922971613806271,-2.153623250473078,0.8645993921955426,2.4658753274679186,0.5444870740352716,1.0544104758940245,0.3238615046091247,-0.39250456234122666,-2.153291787532338,0.8647539153680389,2.46587817577521,0.5445020185570556,0.0006947408152048049,-0.00016320706017677533,-0.0005925639829904226,-4.4665138776166916e-05,-0.00013165919228489748,0.00022754204243701187,-0.0004798226050517633,0.0,0.0,0.0,0.0,0.0,0.0,0.0,-0.00017137227989305615,5.431264101551925e-05,-0.00020740096059956858,0.000331462940740046,0.00015452317249631253,2.848307291358765e-06,1.4944521783966103e-05,-0.0006947408152048049,0.00016320706017677533,0.0005925639829904226,4.4665138776166916e-05,0.00013165919228489748,-0.00022754204243701187,0.0004798226050517633,0.6806880831718445,34.28908920288086,3.9974029064178467,-19.436067581176758,-0.2603049874305725,-1.802981972694397,0.09097616374492645,0
46,0.22531700134277344,-0.6568843722343445,-34.26528549194336,-4.072781085968018,19.436067581176758,0.2603049874305725,1.822208046913147,-0.11111776530742645,0.0,0.0,0.0,0.0,0.0,0.0,0.0,-0.6718556705618254,-0.22524073994011248,-0.4914877371257387,0.4062166437027475,0.2050019029122057,-0.0934839942216083,-0.11277434191953505,1.054580175895569,0.32380552088421094,-0.3922949435054147,-2.1536231087525852,0.8645993921955426,2.4658731912374496,0.5444896259580504,1.0544104758940245,0.3238615046091247,-0.39250456234122666,-2.153291787532338,0.8647539153680389,2.46587817577521,0.5445020185570556,-8.620810258124924e-05,-0.0005909482266235174,0.0007989309003557058,-1.4745730437465438e-05,3.184947718269704e-06,-0.0004679106787259215,0.00042650043755686093,0.0,0.0,0.0,0.0,0.0,0.0,0.0,-0.00016970000154459264,5.5983724913777344e-05,-0.00020961883581194218,0.00033132122024737143,0.00015452317249631253,4.984537760321928e-06,1.2392599005206506e-05,8.620810258124924e-05,0.0005909482266235174,-0.0007989309003557058,1.4745730437465438e-05,-3.184947718269704e-06,0.0004679106787259215,-0.00042650043755686093,0.6568843722343445,34.26528549194336,4.072781085968018,-19.436067581176758,-0.2603049874305725,-1.822208046913147,0.11111776530742645,0
47,0.22999835014343262,-0.6568843722343445,-34.26528549194336,-4.072781085968018,19.436067581176758,0.2603049874305725,1.822208046913147,-0.11111776530742645,0.0,0.0,0.0,0.0,0.0,0.0,0.0,-0.6718556705618254,-0.22524073994011248,-0.4914877371257387,0.4062166437027475,0.2050019029122057,-0.0934839942216083,-0.11277434191953505,1.054580175895569,0.32380552088421094,-0.3922949435054147,-2.1536231087525852,0.8645993921955426,2.4658731912374496,0.5444896259580504,1.0544104758940245,0.3238615046091247,-0.39250456234122666,-2.153291787532338,0.8647539153680389,2.46587817577521,0.5445020185570556,-8.620810258124924e-05,-0.0005909482266235174,0.0007989309003557058,-1.4745730437465438e-05,3.184947718269704e-06,-0.0004679106787259215,0.00042650043755686093,0.0,0.0,0.0,0.0,0.0,0.0,0.0,-0.00016970000154459264,5.5983724913777344e-05,-0.00020961883581194218,0.00033132122024737143,0.00015452317249631253,4.984537760321928e-06,1.2392599005206506e-05,8.620810258124924e-05,0.0005909482266235174,-0.0007989309003557058,1.4745730437465438e-05,-3.184947718269704e-06,0.0004679106787259215,-0.00042650043755686093,0.6568843722343445,34.26528549194336,4.072781085968018,-19.436067581176758,-0.2603049874305725,-1.822208046913147,0.11111776530742645,0
48,0.2349553108215332,-0.7084590792655945,-34.28908920288086,-4.048977375030518,19.487642288208008,0.2548118233680725,1.822208046913147,-0.08365194499492645,0.0,0.0,0.0,0.0,0.0,0.0,0.0,-0.6685149239012992,-0.2296746279547071,-0.49018714378277434,0.4095894780857625,0.2051748765783802,-0.093381413249197,-0.1128054059096028,1.0545816484128236,0.3238043577600844,-0.3922943387169773,-2.15362833472753,0.8646000025471051,2.4658731912374496,0.5444863387428216,1.0544104758940245,0.3238615046091247,-0.39250456234122666,-2.153291787532338,0.8647539153680389,2.46587817577521,0.5445020185570556,0.000947079049354879,-0.0001518945268098312,1.9933356827185398e-05,-0.0011599629183748482,0.00014523631343247187,-0.0002232656793305614,-0.0013366582056682827,0.0,0.0,0.0,0.0,0.0,0.0,0.0,-0.0001711725187991675,5.714684904029044e-05,-0.0002102236242493838,0.0003365471951921606,0.0001539128209337992,4.984537760321928e-06,1.567981423400422e-05,-0.000947079049354879,0.0001518945268098312,-1.9933356827185398e-05,0.0011599629183748482,-0.00014523631343247187,0.0002232656793305614,0.0013366582056682827,0.7084590792655945,34.28908920288086,4.048977375030518,-19.487642288208008,-0.2548118233680725,-1.822208046913147,0.08365194499492645,0
49,0.23994660377502441,-0.7084590792655945,-34.28908920288086,-4.048977375030518,19.487642288208008,0.2548118233680725,1.822208046913147,-0.08365194499492645,0.0,0.0,0.0,0.0,0.0,0.0,0.0,-0.6685149239012992,-0.2296746279547071,-0.49018714378277434,0.4095894780857625,0.2051748765783802,-0.093381413249197,-0.1128054059096028,1.0545816484128236,0.3238043577600844,-0.3922943387169773,-2.15362833472753,0.8646000025471051,2.4658731912374496,0.5444863387428216,1.0544104758940245,0.3238615046091247,-0.39250456234122666,-2.153291787532338,0.8647539153680389,2.46587817577521,0.5445020185570556,0.000947079049354879,-0.0001518945268098312,1.9933356827185398e-05,-0.0011599629183748482,0.00014523631343247187,-0.0002232656793305614,-0.0013366582056682827,0.0,0.0,0.0,0.0,0.0,0.0,0.0,-0.0001711725187991675,5.714684904029044e-05,-0.0002102236242493838,0.0003365471951921606,0.0001539128209337992,4.984537760321928e-06,1.567981423400422e-05,-0.000947079049354879,0.0001518945268098312,-1.9933356827185398e-05,0.0011599629183748482,-0.00014523631343247187,0.0002232656793305614,0.0013366582056682827,0.7084590792655945,34.28908920288086,4.048977375030518,-19.487642288208008,-0.2548118233680725,-1.822208046913147,0.08365194499492645,0
50,0.2450113296508789,-0.6806880831718445,-34.26528549194336,-4.048977375030518,19.459871292114258,0.2603049874305725,1.809390664100647,-0.13858358561992645,0.0,0.0,0.0,0.0,0.0,0.0,0.0,-0.6603221884292201,-0.2246716666970396,-0.4828092707176428,0.4078108263265829,0.20464793416849725,-0.0931586666634154,-0.1148754578084348,1.0545799496905952,0.3238048103068928,-0.39229637407052165,-2.153627021225384,0.8645993921955426,2.4658746153910953,0.5444923245089216,1.0544104758940245,0.3238615046091247,-0.39250456234122666,-2.153291787532338,0.8647539153680389,2.46587817577521,0.5445020185570556,0.0005188744125977882,-0.0007337252391294758,0.00026408117316532355,-0.0003731916506915737,-1.9480900772487216e-05,4.336743559194833e-05,0.001418737587820659,0.0,0.0,0.0,0.0,0.0,0.0,0.0,-0.00016947379657072936,5.669430223192995e-05,-0.000208188270705012,0.0003352336930459998,0.00015452317249631253,3.5603841146425452e-06,9.69404813400132e-06,-0.0005188744125977882,0.0007337252391294758,-0.00026408117316532355,0.0003731916506915737,1.9480900772487216e-05,-4.336743559194833e-05,-0.001418737587820659,0.6806880831718445,34.26528549194336,4.048977375030518,-19.459871292114258,-0.2603049874305725,-1.809390664100647,0.13858358561992645,0
51,0.24999737739562988,-0.6806880831718445,-34.26528549194336,-4.048977375030518,19.459871292114258,0.2603049874305725,1.809390664100647,-0.13858358561992645,0.0,0.0,0.0,0.0,0.0,0.0,0.0,-0.6603221884292201,-0.2246716666970396,-0.4828092707176428,0.4078108263265829,0.20464793416849725,-0.0931586666634154,-0.1148754578084348,1.0545799496905952,0.3238048103068928,-0.39229637407052165,-2.153627021225384,0.8645993921955426,2.4658746153910953,0.5444923245089216,1.0544104758940245,0.3238615046091247,-0.39250456234122666,-2.153291787532338,0.8647539153680389,2.46587817577521,0.5445020185570556,0.0005188744125977882,-0.0007337252391294758,0.00026408117316532355,-0.0003731916506915737,-1.9480900772487216e-05,4.336743559194833e-05,0.001418737587820659,0.0,0.0,0.0,0.0,0.0,0.0,0.0,-0.00016947379657072936,5.669430223192995e-05,-0.000208188270705012,0.0003352336930459998,0.00015452317249631253,3.5603841146425452e-06,9.69404813400132e-06,-0.0005188744125977882,0.0007337252391294758,-0.00026408117316532355,0.0003731916506915737,1.9480900772487216e-05,-4.336743559194833e-05,-0.001418737587820659,0.6806880831718445,34.26528549194336,4.048977375030518,-19.459871292114258,-0.2603049874305725,-1.809390664100647,0.13858358561992645,0
52,0.25499677658081055,-0.6568843722343445,-34.28908920288086,-4.048977375030518,19.459871292114258,0.2667136788368225,1.802981972694397,-0.11844198405742645,0.0,0.0,0.0,0.0,0.0,0.0,0.0,-0.6591640407714976,-0.22299741384795374,-0.48116200736519193,0.40686673593659234,0.20434195054286539,-0.09323104617331347,-0.11496649182916642,1.0545782708255609,0.323805063112908,-0.3922957469141982,-2.153626181294864,0.8645986801187198,2.4658753274679186,0.5444902042847725,1.0544104758940245,0.3238615046091247,-0.39250456234122666,-2.153291787532338,0.8647539153680389,2.46587817577521,0.5445020185570556,0.0002683271242103659,-7.786604522099431e-05,0.000283217655045619,-0.0006886248512086782,-0.0003786874963506696,0.00021627455326003799,0.0006030707244940082,0.0,0.0,0.0,0.0,0.0,0.0,0.0,-0.00016779493153640246,5.644149621669703e-05,-0.00020881542702844147,0.00033439376252619724,0.00015523524931915222,2.848307291358765e-06,1.181427228313936e-05,-0.0002683271242103659,7.786604522099431e-05,-0.000283217655045619,0.0006886248512086782,0.0003786874963506696,-0.00021627455326003799,-0.0006030707244940082,0.6568843722343445,34.28908920288086,4.048977375030518,-19.459871292114258,-0.2667136788368225,-1.802981972694397,0.11844198405742645,0
53,0.2600088119506836,-0.6568843722343445,-34.28908920288086,-4.048977375030518,19.459871292114258,0.2667136788368225,1.802981972694397,-0.11844198405742645,0.0,0.0,0.0,0.0,0.0,0.0,0.0,-0.6591640407714976,-0.22299741384795374,-0.48116200736519193,0.40686673593659234,0.20434195054286539,-0.09323104617331347,-0.11496649182916642,1.0545782708255609,0.323805063112908,-0.3922957469141982,-2.153626181294864,0.8645986801187198,2.4658753274679186,0.5444902042847725,1.0544104758940245,0.3238615046091247,-0.39250456234122666,-2.153291787532338,0.8647539153680389,2.46587817577521,0.5445020185570556,0.0002683271242103659,-7.786604522099431e-05,0.000283217655045619,-0.0006886248512086782,-0.0003786874963506696,0.00021627455326003799,0.0006030707244940082,0.0,0.0,0.0,0.0,0.0,0.0,0.0,-0.00016779493153640246,5.644149621669703e-05,-0.00020881542702844147,0.00033439376252619724,0.00015523524931915222,2.848307291358765e-06,1.181427228313936e-05,-0.0002683271242103659,7.786604522099431e-05,-0.000283217655045619,0.0006886248512086782,0.0003786874963506696,-0.00021627455326003799,-0.0006030707244940082,0.6568843722343445,34.28908920288086,4.048977375030518,-19.459871292114258,-0.2667136788368225,-1.802981972694397,0.11844198405742645,0
54,0.26499414443969727,-0.6053096652030945,-34.26528549194336,-4.025173664093018,19.436067581176758,0.2548118233680725,1.809390664100647,-0.09097616374492645,0.0,0.0,0.0,0.0,0.0,0.0,0.0,-0.6560310059970412,-0.22440933333530272,-0.47847719312072,0.4090887142933961,0.20343830181485825,-0.09412287752809974,-0.1143108772356007,1.0545744097497434,0.32380544299924846,-0.39229532676575896,-2.1536254213339157,0.8646000025471051,2.4658746153910953,0.5444870392045404,1.0544104758940245,0.3238615046091247,-0.39250456234122666,-2.153291787532338,0.8647539153680389,2.46587817577521,0.5445020185570556,-0.0010302517935192688,-0.0004684227187847379,-5.133014437336529e-05,6.393051683207133e-05,0.0001467412528267771,-4.1796679048622085e-05,-0.001345479371019589,0.0,0.0,0.0,0.0,0.0,0.0,0.0,-0.00016393385571888963,5.6061609876256746e-05,-0.00020923557546770333,0.000333633801577804,0.0001539128209337992,3.5603841146425452e-06,1.4979352515154254e-05,0.0010302517935192688,0.0004684227187847379,5.133014437336529e-05,-6.393051683207133e-05,-0.0001467412528267771,4.1796679048622085e-05,0.001345479371019589,0.6053096652030945,34.26528549194336,4.025173664093018,-19.436067581176758,-0.2548118233680725,-1.809390664100647,0.09097616374492645,0
55,0.26999521255493164,-0.6053096652030945,-34.26528549194336,-4.025173664093018,19.436067581176758,0.2548118233680725,1.809390664100647,-0.09097616374492645,0.0,0.0,0.0,0.0,0.0,0.0,0.0,-0.6560310059970412,-0.22440933333530272,-0.47847719312072,0.4090887142933961,0.20343830181485825,-0.09412287752809974,-0.1143108772356007,1.0545744097497434,0.32380544299924846,-0.39229532676575896,-2.1536254213339157,0.8646000025471051,2.4658746153910953,0.5444870392045404,1.0544104758940245,0.3238615046091247,-0.39250456234122666,-2.153291787532338,0.8647539153680389,2.46587817577521,0.5445020185570556,-0.0010302517935192688,-0.0004684227187847379,-5.133014437336529e-05,6.393051683207133e-05,0.0001467412528267771,-4.1796679048622085e-05,-0.001345479371019589,0.0,0.0,0.0,0.0,0.0,0.0,0.0,-0.00016393385571888963,5.6061609876256746e-05,-0.00020923557546770333,0.000333633801577804,0.0001539128209337992,3.5603841146425452e-06,1.4979352515154254e-05,0.0010302517935192688,0.0004684227187847379,5.133014437336529e-05,-6.393051683207133e-05,-0.0001467412528267771,4.1796679048622085e-05,0.001345479371019589,0.6053096652030945,34.26528549194336,4.025173664093018,-19.436067581176758,-0.2548118233680725,-1.809390664100647,0.09097616374492645,0
56,0.2749910354614258,-0.6291133761405945,-34.31289291381836,-4.048977375030518,19.459871292114258,0.2548118233680725,1.815799355506897,-0.13217489421367645,0.0,0.0,0.0,0.0,0.0,0.0,0.0,-0.6683612527689987,-0.2280687830987261,-0.4881721936633542,0.40809546562834537,0.20402214360586413,-0.0934860958815672,-0.11412917795149727,1.0545760805112827,0.3238066542032961,-0.39229381332407237,-2.1536263348789966,0.8646000025471051,2.4658739028297556,0.5444916516719903,1.0544104758940245,0.3238615046091247,-0.39250456234122666,-2.153291787532338,0.8647539153680389,2.46587817577521,0.5445020185570556,-0.000710420631913751,0.0003577678833815383,5.882587672635695e-05,-0.0011769593364432333,0.0001045432337347753,-0.00019078358961320692,0.0009270316648477667,0.0,0.0,0.0,0.0,0.0,0.0,0.0,-0.0001656046172582304,5.4850405828643645e-05,-0.00021074901715428807,0.0003345473466587201,0.0001539128209337992,4.272945454353305e-06,1.0366885065282716e-05,0.000710420631913751,-0.0003577678833815383,-5.882587672635695e-05,0.0011769593364432333,-0.0001045432337347753,0.00019078358961320692,-0.0009270316648477667,0.6291133761405945,34.31289291381836,4.048977375030518,-19.459871292114258,-0.2548118233680725,-1.815799355506897,0.13217489421367645,0
57,0.2799961566925049,-0.6291133761405945,-34.31289291381836,-4.048977375030518,19.459871292114258,0.2548118233680725,1.815799355506897,-0.13217489421367645,0.0,0.0,0.0,0.0,0.0,0.0,0.0,-0.6683612527689987,-0.2280687830987261,-0.4881721936633542,0.40809546562834537,0.20402214360586413,-0.0934860958815672,-0.11412917795149727,1.0545760805112827,0.3238066542032961,-0.39229381332407237,-2.1536263348789966,0.8646000025471051,2.4658739028297556,0.5444916516719903,1.0544104758940245,0.3238615046091247,-0.39250456234122666,-2.153291787532338,0.8647539153680389,2.46587817577521,0.5445020185570556,-0.000710420631913751,0.0003577678833815383,5.882587672635695e-05,-0.0011769593364432333,0.0001045432337347753,-0.00019078358961320692,0.0009270316648477667,0.0,0.0,0.0,0.0,0.0,0.0,0.0,-0.0001656046172582304,5.4850405828643645e-05,-0.00021074901715428807,0.0003345473466587201,0.0001539128209337992,4.272945454353305e-06,1.0366885065282716e-05,0.000710420631913751,-0.0003577678833815383,-5.882587672635695e-05,0.0011769593364432333,-0.0001045432337347753,0.00019078358961320692,-0.0009270316648477667,0.6291133761405945,34.31289291381836,4.048977375030518,-19.459871292114258,-0.2548118233680725,-1.815799355506897,0.13217489421367645,0
58,0.28501200675964355,-0.6806880831718445,-34.26528549194336,-4.048977375030518,19.436067581176758,0.2603049874305725,1.802981972694397,-0.09738485515117645,0.0,0.0,0.0,0.0,0.0,0.0,0.0,-0.6653637019793593,-0.2237969370495758,-0.4853007353116041,0.40545484556934885,0.2039744513757375,-0.09395442860687456,-0.11368397087669097,1.054579779043798,0.32380481321080834,-0.39229388464548753,-2.153622597269694,0.8645993921955426,2.4658753274679155,0.5444909257808225,1.0544104758940245,0.3238615046091247,-0.39250456234122666,-2.153291787532338,0.8647539153680389,2.46587817577521,0.5445020185570556,-2.38192732285609e-05,-0.0007549797006502204,0.00013658976656360808,-0.00019007349442231862,-0.0002056643771752105,0.00021462872793254176,-0.00026441917262967635,0.0,0.0,0.0,0.0,0.0,0.0,0.0,-0.00016930314977359195,5.6691398316377484e-05,-0.00021067769573912543,0.0003308097373562191,0.00015452317249631253,2.8483072944673893e-06,1.1092776233123658e-05,2.38192732285609e-05,0.0007549797006502204,-0.00013658976656360808,0.00019007349442231862,0.0002056643771752105,-0.00021462872793254176,0.00026441917262967635,0.6806880831718445,34.26528549194336,4.048977375030518,-19.436067581176758,-0.2603049874305725,-1.802981972694397,0.09738485515117645,0
59,0.28999972343444824,-0.6806880831718445,-34.26528549194336,-4.048977375030518,19.436067581176758,0.2603049874305725,1.802981972694397,-0.09738485515117645,0.0,0.0,0.0,0.0,0.0,0.0,0.0,-0.6653637019793593,-0.2237969370495758,-0.4853007353116041,0.40545484556934885,0.2039744513757375,-0.09395442860687456,-0.11368397087669097,1.054579779043798,0.32380481321080834,-0.39229388464548753,-2.153622597269694,0.8645993921955426,2.4658753274679155,0.5444909257808225,1.0544104758940245,0.3238615046091247,-0.39250456234122666,-2.153291787532338,0.8647539153680389,2.46587817577521,0.5445020185570556,-2.38192732285609e-05,-0.0007549797006502204,0.00013658976656360808,-0.00019007349442231862,-0.0002056643771752105,0.00021462872793254176,-0.00026441917262967635,0.0,0.0,0.0,0.0,0.0,0.0,0.0,-0.00016930314977359195,5.6691398316377484e-05,-0.00021067769573912543,0.0003308097373562191,0.00015452317249631253,2.8483072944673893e-06,1.1092776233123658e-05,2.38192732285609e-05,0.0007549797006502204,-0.00013658976656360808,0.00019007349442231862,0.0002056643771752105,-0.00021462872793254176,0.00026441917262967635,0.6806880831718445,34.26528549194336,4.048977375030518,-19.436067581176758,-0.2603049874305725,-1.802981972694397,0.09738485515117645,0
60,0.2949960231781006,-0.6568843722343445,-34.31289291381836,-4.048977375030518,19.388460159301758,0.2548118233680725,1.802981972694397,-0.13217489421367645,0.0,0.0,0.0,0.0,0.0,0.0,0.0,-0.6615925347445701,-0.22798754775484692,-0.47882269207223144,0.4069237907336587,0.2033988524300245,-0.09468816307842767,-0.11222344180265457,1.0545782766024598,0.32380862651298503,-0.39229381181326517,-2.153622012635209,0.8646000025471051,2.465875327467918,0.5444916124440538,1.0544104758940245,0.3238615046091247,-0.39250456234122666,-2.153291787532338,0.8647539153680389,2.46587817577521,0.5445020185570556,-0.0005063306140780057,-0.00010039405339037529,-8.340097255787174e-05,0.0008645202610491906,-0.0068869397222467805,0.00029168628773386656,0.0009954231012463417,0.0,0.0,0.0,0.0,0.0,0.0,0.0,-0.00016780070843536166,5.287809613968575e-05,-0.00021075052796148963,0.0003302251028709513,0.0001539128209337992,2.848307291802854e-06,1.040611300184846e-05,0.0005063306140780057,0.00010039405339037529,8.340097255787174e-05,-0.0008645202610491906,0.0068869397222467805,-0.00029168628773386656,-0.0009954231012463417,0.6568843722343445,34.31289291381836,4.048977375030518,-19.388460159301758,-0.2548118233680725,-1.802981972694397,0.13217489421367645,0
61,0.29999589920043945,-0.6568843722343445,-34.31289291381836,-4.048977375030518,19.388460159301758,0.2548118233680725,1.802981972694397,-0.13217489421367645,0.0,0.0,0.0,0.0,0.0,0.0,0.0,-0.6615925347445701,-0.22798754775484692,-0.47882269207223144,0.4069237907336587,0.2033988524300245,-0.09468816307842767,-0.11222344180265457,1.0545782766024598,0.32380862651298503,-0.39229381181326517,-2.153622012635209,0.8646000025471051,2.465875327467918,0.5444916124440538,1.0544104758940245,0.3238615046091247,-0.39250456234122666,-2.153291787532338,0.8647539153680389,2.46587817577521,0.5445020185570556,-0.0005063306140780057,-0.00010039405339037529,-8.340097255787174e-05,0.0008645202610491906,-0.0068869397222467805,0.00029168628773386656,0.0009954231012463417,0.0,0.0,0.0,0.0,0.0,0.0,0.0,-0.00016780070843536166,5.287809613968575e-05,-0.00021075052796148963,0.0003302251028709513,0.0001539128209337992,2.848307291802854e-06,1.040611300184846e-05,0.0005063306140780057,0.00010039405339037529,8.340097255787174e-05,-0.0008645202610491906,0.0068869397222467805,-0.00029168628773386656,-0.0009954231012463417,0.6568843722343445,34.31289291381836,4.048977375030518,-19.388460159301758,-0.2548118233680725,-1.802981972694397,0.13217489421367645,0
62,0.3049459457397461,-0.6806880831718445,-34.31289291381836,-4.072781085968018,19.459871292114258,0.2603049874305725,1.802981972694397,-0.12485067546367645,0.0,0.0,0.0,0.0,0.0,0.0,0.0,-0.6619708294748736,-0.22673100798391296,-0.47862794732803926,0.40551845934560027,0.2032862718795544,-0.09433762224034291,-0.11172228886187953,1.054579699466113,0.32380885397542913,-0.39229265722083306,-2.1536250228548446,0.8645993921955426,2.465875327467918,0.5444908117059779,1.0544104758940245,0.3238615046091247,-0.39250456234122666,-2.153291787532338,0.8647539153680389,2.46587817577521,0.5445020185570556,0.00043572416205073944,0.00024397707544825562,0.000604758206684871,-0.0007844544111233461,-0.0005974666651236142,0.0005920341769396303,0.000471824144688966,0.0,0.0,0.0,0.0,0.0,0.0,0.0,-0.00016922357208848382,5.2650633695583426e-05,-0.0002119051203935962,0.0003332353225067308,0.00015452317249631253,2.848307291802854e-06,1.1206851077694147e-05,-0.00043572416205073944,-0.00024397707544825562,-0.000604758206684871,0.0007844544111233461,0.0005974666651236142,-0.0005920341769396303,-0.000471824144688966,0.6806880831718445,34.31289291381836,4.072781085968018,-19.459871292114258,-0.2603049874305725,-1.802981972694397,0.12485067546367645,0
63,0.30998992919921875,-0.6806880831718445,-34.31289291381836,-4.072781085968018,19.459871292114258,0.2603049874305725,1.802981972694397,-0.12485067546367645,0.0,0.0,0.0,0.0,0.0,0.0,0.0,-0.6619708294748736,-0.22673100798391296,-0.47862794732803926,0.40551845934560027,0.2032862718795544,-0.09433762224034291,-0.11172228886187953,1.054579699466113,0.32380885397542913,-0.39229265722083306,-2.1536250228548446,0.8645993921955426,2.465875327467918,0.5444908117059779,1.0544104758940245,0.3238615046091247,-0.39250456234122666,-2.153291787532338,0.8647539153680389,2.46587817577521,0.5445020185570556,0.00043572416205073944,0.00024397707544825562,0.000604758206684871,-0.0007844544111233461,-0.0005974666651236142,0.0005920341769396303,0.000471824144688966,0.0,0.0,0.0,0.0,0.0,0.0,0.0,-0.00016922357208848382,5.2650633695583426e-05,-0.0002119051203935962,0.0003332353225067308,0.00015452317249631253,2.848307291802854e-06,1.1206851077694147e-05,-0.00043572416205073944,-0.00024397707544825562,-0.000604758206684871,0.0007844544111233461,0.0005974666651236142,-0.0005920341769396303,-0.000471824144688966,0.6806880831718445,34.31289291381836,4.072781085968018,-19.459871292114258,-0.2603049874305725,-1.802981972694397,0.12485067546367645,0
64,0.3150477409362793,-0.6806880831718445,-34.31289291381836,-4.072781085968018,19.459871292114258,0.2603049874305725,1.802981972694397,-0.12485067546367645,0.0,0.0,0.0,0.0,0.0,0.0,0.0,-0.6619708294748736,-0.22673100798391296,-0.47862794732803926,0.40551845934560027,0.2032862718795544,-0.09433762224034291,-0.11172228886187953,1.054579699466113,0.32380885397542913,-0.39229265722083306,-2.1536250228548446,0.8645993921955426,2.465875327467918,0.5444908117059779,1.0544104758940245,0.3238615046091247,-0.39250456234122666,-2.153291787532338,0.8647539153680389,2.46587817577521,0.5445020185570556,0.00043572416205073944,0.00024397707544825562,0.000604758206684871,-0.0007844544111233461,-0.0005974666651236142,0.0005920341769396303,0.000471824144688966,0.0,0.0,0.0,0.0,0.0,0.0,0.0,-0.00016922357208848382,5.2650633695583426e-05,-0.0002119051203935962,0.0003332353225067308,0.00015452317249631253,2.848307291802854e-06,1.1206851077694147e-05,-0.00043572416205073944,-0.00024397707544825562,-0.000604758206684871,0.0007844544111233461,0.0005974666651236142,-0.0005920341769396303,-0.000471824144688966,0.6806880831718445,34.31289291381836,4.072781085968018,-19.459871292114258,-0.2603049874305725,-1.802981972694397,0.12485067546367645,0
65,0.32002806663513184,-0.6806880831718445,-34.31289291381836,-4.072781085968018,19.459871292114258,0.2603049874305725,1.802981972694397,-0.12485067546367645,0.0,0.0,0.0,0.0,0.0,0.0,0.0,-0.6619708294748736,-0.22673100798391296,-0.47862794732803926,0.40551845934560027,0.2032862718795544,-0.09433762224034291,-0.11172228886187953,1.054579699466113,0.32380885397542913,-0.39229265722083306,-2.1536250228548446,0.8645993921955426,2.465875327467918,0.5444908117059779,1.0544104758940245,0.3238615046091247,-0.39250456234122666,-2.153291787532338,0.8647539153680389,2.46587817577521,0.5445020185570556,0.00043572416205073944,0.00024397707544825562,0.000604758206684871,-0.0007844544111233461,-0.0005974666651236142,0.0005920341769396303,0.000471824144688966,0.0,0.0,0.0,0.0,0.0,0.0,0.0,-0.00016922357208848382,5.2650633695583426e-05,-0.0002119051203935962,0.0003332353225067308,0.00015452317249631253,2.848307291802854e-06,1.1206851077694147e-05,-0.00043572416205073944,-0.00024397707544825562,-0.000604758206684871,0.0007844544111233461,0.0005974666651236142,-0.0005920341769396303,-0.000471824144688966,0.6806880831718445,34.31289291381836,4.072781085968018,-19.459871292114258,-0.2603049874305725,-1.802981972694397,0.12485067546367645,0
66,0.32506251335144043,-0.6806880831718445,-34.28908920288086,-4.025173664093018,19.412263870239258,0.2603049874305725,1.802981972694397,-0.08365194499492645,0.0,0.0,0.0,0.0,0.0,0.0,0.0,-0.6630934355244055,-0.23293800698113518,-0.48066664604301707,0.40402282644495485,0.2022537432960317,-0.09372281766809716,-0.11317394640534363,1.0545818482089102,0.32380718321953716,-0.39229616722815097,-2.153623756883122,0.8645993921955426,2.465875327467918,0.5444862209873312,1.0544104758940245,0.3238615046091247,-0.39250456234122666,-2.153291787532338,0.8647539153680389,2.46587817577521,0.5445020185570556,0.00029269165654274604,-0.0008346058009167839,-0.0005913436778814538,0.00012105317236618894,-4.559297144919506e-05,0.00021159469842949198,-0.0012923960706670635,0.0,0.0,0.0,0.0,0.0,0.0,0.0,-0.00017137231488573157,5.4321389587552726e-05,-0.0002083951130756878,0.000331969350784167,0.00015452317249631253,2.848307291802854e-06,1.579756972436286e-05,-0.00029269165654274604,0.0008346058009167839,0.0005913436778814538,-0.00012105317236618894,4.559297144919506e-05,-0.00021159469842949198,0.0012923960706670635,0.6806880831718445,34.28908920288086,4.025173664093018,-19.412263870239258,-0.2603049874305725,-1.802981972694397,0.08365194499492645,0
67,0.3300435543060303,-0.6806880831718445,-34.28908920288086,-4.025173664093018,19.412263870239258,0.2603049874305725,1.802981972694397,-0.08365194499492645,0.0,0.0,0.0,0.0,0.0,0.0,0.0,-0.6630934355244055,-0.23293800698113518,-0.48066664604301707,0.40402282644495485,0.2022537432960317,-0.09372281766809716,-0.11317394640534363,1.0545818482089102,0.32380718321953716,-0.39229616722815097,-2.153623756883122,0.8645993921955426,2.465875327467918,0.5444862209873312,1.0544104758940245,0.3238615046091247,-0.39250456234122666,-2.153291787532338,0.8647539153680389,2.46587817577521,0.5445020185570556,0.00029269165654274604,-0.0008346058009167839,-0.0005913436778814538,0.00012105317236618894,-4.559297144919506e-05,0.00021159469842949198,-0.0012923960706670635,0.0,0.0,0.0,0.0,0.0,0.0,0.0,-0.00017137231488573157,5.4321389587552726e-05,-0.0002083951130756878,0.000331969350784167,0.00015452317249631253,2.848307291802854e-06,1.579756972436286e-05,-0.00029269165654274604,0.0008346058009167839,0.0005913436778814538,-0.00012105317236618894,4.559297144919506e-05,-0.00021159469842949198,0.0012923960706670635,0.6806880831718445,34.28908920288086,4.025173664093018,-19.412263870239258,-0.2603049874305725,-1.802981972694397,0.08365194499492645,0
68,0.3349912166595459,-0.6053096652030945,-34.28908920288086,-4.025173664093018,19.412263870239258,0.2603049874305725,1.802981972694397,-0.13858358561992645,0.0,0.0,0.0,0.0,0.0,0.0,0.0,-0.6570082623203415,-0.22250810057944487,-0.47576442382170825,0.39778605580269466,0.20221801179113408,-0.09471771593644608,-0.11493391139298544,1.0545751279960236,0.32380719229207855,-0.39229838832111463,-2.1536216159528583,0.864600451833672,2.465875327467918,0.5444935542064397,1.0544104758940245,0.3238615046091247,-0.39250456234122666,-2.153291787532338,0.8647539153680389,2.46587817577521,0.5445020185570556,-0.0006956666901025702,0.0005272947653085695,-0.0005807827907695887,0.00041668169352456115,-7.636620007570834e-05,0.0002600001367063692,0.0012806365578424566,0.0,0.0,0.0,0.0,0.0,0.0,0.0,-0.00016465210199911873,5.43123170461679e-05,-0.00020617402011202657,0.00032982842052042827,0.00015346353436695992,2.848307291802854e-06,8.464350615855487e-06,0.0006956666901025702,-0.0005272947653085695,0.0005807827907695887,-0.00041668169352456115,7.636620007570834e-05,-0.0002600001367063692,-0.0012806365578424566,0.6053096652030945,34.28908920288086,4.025173664093018,-19.412263870239258,-0.2603049874305725,-1.802981972694397,0.13858358561992645,0
69,0.34000110626220703,-0.6053096652030945,-34.28908920288086,-4.025173664093018,19.412263870239258,0.2603049874305725,1.802981972694397,-0.13858358561992645,0.0,0.0,0.0,0.0,0.0,0.0,0.0,-0.6570082623203415,-0.22250810057944487,-0.47576442382170825,0.39778605580269466,0.20221801179113408,-0.09471771593644608,-0.11493391139298544,1.0545751279960236,0.32380719229207855,-0.39229838832111463,-2.1536216159528583,0.864600451833672,2.465875327467918,0.5444935542064397,1.0544104758940245,0.3238615046091247,-0.39250456234122666,-2.153291787532338,0.8647539153680389,2.46587817577521,0.5445020185570556,-0.0006956666901025702,0.0005272947653085695,-0.0005807827907695887,0.00041668169352456115,-7.636620007570834e-05,0.0002600001367063692,0.0012806365578424566,0.0,0.0,0.0,0.0,0.0,0.0,0.0,-0.00016465210199911873,5.43123170461679e-05,-0.00020617402011202657,0.00032982842052042827,0.00015346353436695992,2.848307291802854e-06,8.464350615855487e-06,0.0006956666901025702,-0.0005272947653085695,0.0005807827907695887,-0.00041668169352456115,7.636620007570834e-05,-0.0002600001367063692,-0.0012806365578424566,0.6053096652030945,34.28908920288086,4.025173664093018,-19.412263870239258,-0.2603049874305725,-1.802981972694397,0.13858358561992645,0
70,0.3450193405151367,-0.6291133761405945,-34.28908920288086,-4.048977375030518,19.436067581176758,0.2484031319618225,1.822208046913147,-0.10470907390117645,0.0,0.0,0.0,0.0,0.0,0.0,0.0,-0.6665192784057299,-0.23426590317102877,-0.4914035207489489,0.4030789690546124,0.20306930828835995,-0.0928941349218641,-0.11462269829110443,1.05457679676033,0.3238064825790622,-0.3922936271734183,-2.1536253535915844,0.8646007146418732,2.465873191237449,0.5444885606891214,1.0544104758940245,0.3238615046091247,-0.39250456234122666,-2.153291787532338,0.8647539153680389,2.46587817577521,0.5445020185570556,-0.0008567303709637762,-6.527995802465953e-06,0.0001495342002799904,-0.00013772682464054039,0.00013741036471114705,-0.0002237214145969197,0.00019728197175794424,0.0,0.0,0.0,0.0,0.0,0.0,0.0,-0.00016632086630541387,5.502203006252371e-05,-0.00021093516780834598,0.00033356605924650395,0.00015320072616575864,4.984537760766017e-06,1.3457867934163481e-05,0.0008567303709637762,6.527995802465953e-06,-0.0001495342002799904,0.00013772682464054039,-0.00013741036471114705,0.0002237214145969197,-0.00019728197175794424,0.6291133761405945,34.28908920288086,4.048977375030518,-19.436067581176758,-0.2484031319618225,-1.822208046913147,0.10470907390117645,0
71,0.34999608993530273,-0.6291133761405945,-34.28908920288086,-4.048977375030518,19.436067581176758,0.2484031319618225,1.822208046913147,-0.10470907390117645,0.0,0.0,0.0,0.0,0.0,0.0,0.0,-0.6665192784057299,-0.23426590317102877,-0.4914035207489489,0.4030789690546124,0.20306930828835995,-0.0928941349218641,-0.11462269829110443,1.05457679676033,0.3238064825790622,-0.3922936271734183,-2.1536253535915844,0.8646007146418732,2.465873191237449,0.5444885606891214,1.0544104758940245,0.3238615046091247,-0.39250456234122666,-2.153291787532338,0.8647539153680389,2.46587817577521,0.5445020185570556,-0.0008567303709637762,-6.527995802465953e-06,0.0001495342002799904,-0.00013772682464054039,0.00013741036471114705,-0.0002237214145969197,0.00019728197175794424,0.0,0.0,0.0,0.0,0.0,0.0,0.0,-0.00016632086630541387,5.502203006252371e-05,-0.00021093516780834598,0.00033356605924650395,0.00015320072616575864,4.984537760766017e-06,1.3457867934163481e-05,0.0008567303709637762,6.527995802465953e-06,-0.0001495342002799904,0.00013772682464054039,-0.00013741036471114705,0.0002237214145969197,-0.00019728197175794424,0.6291133761405945,34.28908920288086,4.048977375030518,-19.436067581176758,-0.2484031319618225,-1.822208046913147,0.10470907390117645,0
72,0.35500168800354004,-0.6291133761405945,-34.28908920288086,-4.048977375030518,19.436067581176758,0.2484031319618225,1.822208046913147,-0.10470907390117645,0.0,0.0,0.0,0.0,0.0,0.0,0.0,-0.6665192784057299,-0.23426590317102877,-0.4914035207489489,0.4030789690546124,0.20306930828835995,-0.0928941349218641,-0.11462269829110443,1.05457679676033,0.3238064825790622,-0.3922936271734183,-2.1536253535915844,0.8646007146418732,2.465873191237449,0.5444885606891214,1.0544104758940245,0.3238615046091247,-0.39250456234122666,-2.153291787532338,0.8647539153680389,2.46587817577521,0.5445020185570556,-0.0008567303709637762,-6.527995802465953e-06,0.0001495342002799904,-0.00013772682464054039,0.00013741036471114705,-0.0002237214145969197,0.00019728197175794424,0.0,0.0,0.0,0.0,0.0,0.0,0.0,-0.00016632086630541387,5.502203006252371e-05,-0.00021093516780834598,0.00033356605924650395,0.00015320072616575864,4.984537760766017e-06,1.3457867934163481e-05,0.0008567303709637762,6.527995802465953e-06,-0.0001495342002799904,0.00013772682464054039,-0.00013741036471114705,0.0002237214145969197,-0.00019728197175794424,0.6291133761405945,34.28908920288086,4.048977375030518,-19.436067581176758,-0.2484031319618225,-1.822208046913147,0.10470907390117645,0
73,0.3600037097930908,-0.6291133761405945,-34.28908920288086,-4.048977375030518,19.436067581176758,0.2484031319618225,1.822208046913147,-0.10470907390117645,0.0,0.0,0.0,0.0,0.0,0.0,0.0,-0.6665192784057299,-0.23426590317102877,-0.4914035207489489,0.4030789690546124,0.20306930828835995,-0.0928941349218641,-0.11462269829110443,1.05457679676033,0.3238064825790622,-0.3922936271734183,-2.1536253535915844,0.8646007146418732,2.465873191237449,0.5444885606891214,1.0544104758940245,0.3238615046091247,-0.39250456234122666,-2.153291787532338,0.8647539153680389,2.46587817577521,0.5445020185570556,-0.0008567303709637762,-6.527995802465953e-06,0.0001495342002799904,-0.00013772682464054039,0.00013741036471114705,-0.0002237214145969197,0.00019728197175794424,0.0,0.0,0.0,0.0,0.0,0.0,0.0,-0.00016632086630541387,5.502203006252371e-05,-0.00021093516780834598,0.00033356605924650395,0.00015320072616575864,4.984537760766017e-06,1.3457867934163481e-05,0.0008567303709637762,6.527995802465953e-06,-0.0001495342002799904,0.00013772682464054039,-0.00013741036471114705,0.0002237214145969197,-0.00019728197175794424,0.6291133761405945,34.28908920288086,4.048977375030518,-19.436067581176758,-0.2484031319618225,-1.822208046913147,0.10470907390117645,0
74,0.36495161056518555,-0.6291133761405945,-34.28908920288086,-4.048977375030518,19.436067581176758,0.2484031319618225,1.822208046913147,-0.10470907390117645,0.0,0.0,0.0,0.0,0.0,0.0,0.0,-0.6665192784057299,-0.23426590317102877,-0.4914035207489489,0.4030789690546124,0.20306930828835995,-0.0928941349218641,-0.11462269829110443,1.05457679676033,0.3238064825790622,-0.3922936271734183,-2.1536253535915844,0.8646007146418732,2.465873191237449,0.5444885606891214,1.0544104758940245,0.3238615046091247,-0.39250456234122666,-2.153291787532338,0.8647539153680389,2.46587817577521,0.5445020185570556,-0.0008567303709637762,-6.527995802465953e-06,0.0001495342002799904,-0.00013772682464054039,0.00013741036471114705,-0.0002237214145969197,0.00019728197175794424,0.0,0.0,0.0,0.0,0.0,0.0,0.0,-0.00016632086630541387,5.502203006252371e-05,-0.00021093516780834598,0.00033356605924650395,0.00015320072616575864,4.984537760766017e-06,1.3457867934163481e-05,0.0008567303709637762,6.527995802465953e-06,-0.0001495342002799904,0.00013772682464054039,-0.00013741036471114705,0.0002237214145969197,-0.00019728197175794424,0.6291133761405945,34.28908920288086,4.048977375030518,-19.436067581176758,-0.2484031319618225,-1.822208046913147,0.10470907390117645,0
75,0.37000179290771484,-0.6291133761405945,-34.26528549194336,-4.048977375030518,19.436067581176758,0.2603049874305725,1.815799355506897,-0.09097616374492645,0.0,0.0,0.0,0.0,0.0,0.0,0.0,-0.664511623536047,-0.22294747835568382,-0.49218421872590606,0.39720479949118265,0.20329820535853055,-0.09300768547051662,-0.11176888252706357,1.0545770340043594,0.323804813222831,-0.39229637677485957,-2.1536233638239275,0.8645993921955426,2.465873903314272,0.5444871569062203,1.0544104758940245,0.3238615046091247,-0.39250456234122666,-2.153291787532338,0.8647539153680389,2.46587817577521,0.5445020185570556,-0.0006824709150921052,-0.0003495555867468116,9.669426327318924e-05,-0.0002063237709916849,-0.0003932081607774811,-8.140613541761672e-05,-0.0008238959330886019,0.0,0.0,0.0,0.0,0.0,0.0,0.0,-0.00016655811033494672,5.669138629371684e-05,-0.00020818556636709173,0.0003315762915896414,0.00015452317249631253,4.272460937926326e-06,1.4861650835307216e-05,0.0006824709150921052,0.0003495555867468116,-9.669426327318924e-05,0.0002063237709916849,0.0003932081607774811,8.140613541761672e-05,0.0008238959330886019,0.6291133761405945,34.26528549194336,4.048977375030518,-19.436067581176758,-0.2603049874305725,-1.815799355506897,0.09097616374492645,0
76,0.37499237060546875,-0.6291133761405945,-34.26528549194336,-4.048977375030518,19.436067581176758,0.2603049874305725,1.815799355506897,-0.09097616374492645,0.0,0.0,0.0,0.0,0.0,0.0,0.0,-0.664511623536047,-0.22294747835568382,-0.49218421872590606,0.39720479949118265,0.20329820535853055,-0.09300768547051662,-0.11176888252706357,1.0545770340043594,0.323804813222831,-0.39229637677485957,-2.1536233638239275,0.8645993921955426,2.465873903314272,0.5444871569062203,1.0544104758940245,0.3238615046091247,-0.39250456234122666,-2.153291787532338,0.8647539153680389,2.46587817577521,0.5445020185570556,-0.0006824709150921052,-0.0003495555867468116,9.669426327318924e-05,-0.0002063237709916849,-0.0003932081607774811,-8.140613541761672e-05,-0.0008238959330886019,0.0,0.0,0.0,0.0,0.0,0.0,0.0,-0.00016655811033494672,5.669138629371684e-05,-0.00020818556636709173,0.0003315762915896414,0.00015452317249631253,4.272460937926326e-06,1.4861650835307216e-05,0.0006824709150921052,0.0003495555867468116,-9.669426327318924e-05,0.0002063237709916849,0.0003932081607774811,8.140613541761672e-05,0.0008238959330886019,0.6291133761405945,34.26528549194336,4.048977375030518,-19.436067581176758,-0.2603049874305725,-1.815799355506897,0.09097616374492645,0
77,0.38004541397094727,-0.7084590792655945,-34.33669662475586,-4.048977375030518,19.436067581176758,0.2548118233680725,1.822208046913147,-0.07724325358867645,0.0,0.0,0.0,0.0,0.0,0.0,0.0,-0.6531686343819046,-0.23050045506166864,-0.4841242475369985,0.4030239603712489,0.20274004104777751,-0.09267572119081911,-0.11184212829266657,1.054584748728221,0.32381053315050606,-0.39229381181665457,-2.1536246560060195,0.8646000025471051,2.465873191237449,0.5444855089107135,1.0544104758940245,0.3238615046091247,-0.39250456234122666,-2.153291787532338,0.8647539153680389,2.46587817577521,0.5445020185570556,0.0015102397028175904,0.0009366602239908758,-0.0002964650319186818,-0.00013052194037159608,4.242728360331611e-05,-0.0004569284069127495,-0.001743880421077441,0.0,0.0,0.0,0.0,0.0,0.0,0.0,-0.000174272834196465,5.097145861865382e-05,-0.00021075052457208976,0.00033286847368163563,0.0001539128209337992,4.984537760766017e-06,1.6509646342144357e-05,-0.0015102397028175904,-0.0009366602239908758,0.0002964650319186818,0.00013052194037159608,-4.242728360331611e-05,0.0004569284069127495,0.001743880421077441,0.7084590792655945,34.33669662475586,4.048977375030518,-19.436067581176758,-0.2548118233680725,-1.822208046913147,0.07724325358867645,0
78,0.38495826721191406,-0.7084590792655945,-34.33669662475586,-4.048977375030518,19.436067581176758,0.2548118233680725,1.822208046913147,-0.07724325358867645,0.0,0.0,0.0,0.0,0.0,0.0,0.0,-0.6531686343819046,-0.23050045506166864,-0.4841242475369985,0.4030239603712489,0.20274004104777751,-0.09267572119081911,-0.11184212829266657,1.054584748728221,0.32381053315050606,-0.39229381181665457,-2.1536246560060195,0.8646000025471051,2.465873191237449,0.5444855089107135,1.0544104758940245,0.3238615046091247,-0.39250456234122666,-2.153291787532338,0.8647539153680389,2.46587817577521,0.5445020185570556,0.0015102397028175904,0.0009366602239908758,-0.0002964650319186818,-0.00013052194037159608,4.242728360331611e-05,-0.0004569284069127495,-0.001743880421077441,0.0,0.0,0.0,0.0,0.0,0.0,0.0,-0.000174272834196465,5.097145861865382e-05,-0.00021075052457208976,0.00033286847368163563,0.0001539128209337992,4.984537760766017e-06,1.6509646342144357e-05,-0.0015102397028175904,-0.0009366602239908758,0.0002964650319186818,0.00013052194037159608,-4.242728360331611e-05,0.0004569284069127495,0.001743880421077441,0.7084590792655945,34.33669662475586,4.048977375030518,-19.436067581176758,-0.2548118233680725,-1.822208046913147,0.07724325358867645,0
79,0.38999390602111816,-0.6568843722343445,-34.33669662475586,-4.048977375030518,19.436067581176758,0.2484031319618225,1.802981972694397,-0.12485067546367645,0.0,0.0,0.0,0.0,0.0,0.0,0.0,-0.653662156750386,-0.22405316320521543,-0.4845358171199754,0.39856013349341374,0.20223363396059635,-0.09284124498899292,-0.11316681409387634,1.0545801840044842,0.3238105331638402,-0.3922945988588324,-2.1536252004597,0.8646007146239281,2.465875327467918,0.5444908378698821,1.0544104758940245,0.3238615046091247,-0.39250456234122666,-2.153291787532338,0.8647539153680389,2.46587817577521,0.5445020185570556,-0.00024071787375361326,0.0007280203445866049,0.0003542861364183297,-0.00038977518825800914,0.00025529976042977764,0.0003733043293727983,0.0003065315953786384,0.0,0.0,0.0,0.0,0.0,0.0,0.0,-0.0001697081104596876,5.097144528454223e-05,-0.00020996348239427087,0.0003334129273619979,0.0001532007441108485,2.848307291802854e-06,1.1180687173539816e-05,0.00024071787375361326,-0.0007280203445866049,-0.0003542861364183297,0.00038977518825800914,-0.00025529976042977764,-0.0003733043293727983,-0.0003065315953786384,0.6568843722343445,34.33669662475586,4.048977375030518,-19.436067581176758,-0.2484031319618225,-1.802981972694397,0.12485067546367645,0
80,0.3950185775756836,-0.6568843722343445,-34.33669662475586,-4.048977375030518,19.436067581176758,0.2484031319618225,1.802981972694397,-0.12485067546367645,0.0,0.0,0.0,0.0,0.0,0.0,0.0,-0.653662156750386,-0.22405316320521543,-0.4845358171199754,0.39856013349341374,0.20223363396059635,-0.09284124498899292,-0.11316681409387634,1.0545801840044842,0.3238105331638402,-0.3922945988588324,-2.1536252004597,0.8646007146239281,2.465875327467918,0.5444908378698821,1.0544104758940245,0.3238615046091247,-0.39250456234122666,-2.153291787532338,0.8647539153680389,2.46587817577521,0.5445020185570556,-0.00024071787375361326,0.0007280203445866049,0.0003542861364183297,-0.00038977518825800914,0.00025529976042977764,0.0003733043293727983,0.0003065315953786384,0.0,0.0,0.0,0.0,0.0,0.0,0.0,-0.0001697081104596876,5.097144528454223e-05,-0.00020996348239427087,0.0003334129273619979,0.0001532007441108485,2.848307291802854e-06,1.1180687173539816e-05,0.00024071787375361326,-0.0007280203445866049,-0.0003542861364183297,0.00038977518825800914,-0.00025529976042977764,-0.0003733043293727983,-0.0003065315953786384,0.6568843722343445,34.33669662475586,4.048977375030518,-19.436067581176758,-0.2484031319618225,-1.802981972694397,0.12485067546367645,0
