rezayati/contactInterpretation/dataset/franka_main/labeled_data/link7/a7_4.csv
index,time,tau_J0,tau_J1,tau_J2,tau_J3,tau_J4,tau_J5,tau_J6,tau_J_d0,tau_J_d1,tau_J_d2,tau_J_d3,tau_J_d4,tau_J_d5,tau_J_d6,tau_ext0,tau_ext1,tau_ext2,tau_ext3,tau_ext4,tau_ext5,tau_ext6,q0,q1,q2,q3,q4,q5,q6,q_d0,q_d1,q_d2,q_d3,q_d4,q_d5,q_d6,dq0,dq1,dq2,dq3,dq4,dq5,dq6,dq_d0,dq_d1,dq_d2,dq_d3,dq_d4,dq_d5,dq_d6,e0,e1,e2,e3,e4,e5,e6,de0,de1,de2,de3,de4,de5,de6,etau_J0,etau_J1,etau_J2,etau_J3,etau_J4,etau_J5,etau_J6,label
1,0.0,-0.4267818331718445,-19.693445205688477,-0.4704863727092743,20.007356643676758,0.5816550850868225,2.4823031425476074,-0.17978231608867645,0.0,0.0,0.0,0.0,0.0,0.0,0.0,-0.4485746061229531,0.005817957294897944,-0.24566624492766756,0.2706653821300614,-0.005762082619216068,0.1017539972394403,-0.1677466477423421,1.213645247873507,-0.220172789812088,-0.007370808688803089,-2.604048783487589,-0.1089676831466547,2.46813924968795,0.8264665090160228,1.2134413937687574,-0.2202432315892585,-0.0075118285948192216,-2.6038483821997875,-0.10888392708698907,2.4681821257803174,0.826474908251239,-0.0008251114979180584,-0.0008317343083855361,0.0010057281148340683,0.0004827364682805419,-0.00010093048757033066,-0.00035139881786728795,0.0007734062204661608,0.0,0.0,0.0,0.0,0.0,0.0,0.0,-0.00020385410474954568,-7.044177717049904e-05,-0.00014101990601613282,0.00020040128780163258,8.375605966562394e-05,4.2876092367194474e-05,8.399235216227652e-06,0.0008251114979180584,0.0008317343083855361,-0.0010057281148340683,-0.0004827364682805419,0.00010093048757033066,0.00035139881786728795,-0.0007734062204661608,0.4267818331718445,19.693445205688477,0.4704863727092743,-20.007356643676758,-0.5816550850868225,-2.4823031425476074,0.17978231608867645,0
2,0.004996776580810547,-0.4505855441093445,-19.768823623657227,-0.3990752398967743,20.054964065551758,0.5697532296180725,2.4758944511413574,-0.13858358561992645,0.0,0.0,0.0,0.0,0.0,0.0,0.0,-0.442110784647855,-0.001403615019859493,-0.2369625168150341,0.27377623996721895,-0.0059127759728519694,0.10351375088059252,-0.16683185473973008,1.213646918309362,-0.22016750009854633,-0.007373540750184504,-2.604052047830023,-0.10896779355137148,2.4681399680575504,0.826461931379305,1.2134413937687574,-0.2202432315892585,-0.0075118285948192216,-2.6038483821997875,-0.10888392708698907,2.4681821257803174,0.826474908251239,0.0008390723999365107,0.0008257187257240874,-0.0007951902802763126,-0.00012045539577544375,0.0003805404596697263,-8.97963738971515e-05,-0.0011681849528503313,0.0,0.0,0.0,0.0,0.0,0.0,0.0,-0.00020552454060474012,-7.57314907121609e-05,-0.00013828784463471716,0.0002036656302353279,8.386646438240941e-05,4.2157722766944516e-05,1.297687193402286e-05,-0.0008390723999365107,-0.0008257187257240874,0.0007951902802763126,0.00012045539577544375,-0.0003805404596697263,8.97963738971515e-05,0.0011681849528503313,0.4505855441093445,19.768823623657227,0.3990752398967743,-20.054964065551758,-0.5697532296180725,-2.4758944511413574,0.13858358561992645,0
3,0.009996891021728516,-0.4505855441093445,-19.768823623657227,-0.3990752398967743,20.054964065551758,0.5697532296180725,2.4758944511413574,-0.13858358561992645,0.0,0.0,0.0,0.0,0.0,0.0,0.0,-0.442110784647855,-0.001403615019859493,-0.2369625168150341,0.27377623996721895,-0.0059127759728519694,0.10351375088059252,-0.16683185473973008,1.213646918309362,-0.22016750009854633,-0.007373540750184504,-2.604052047830023,-0.10896779355137148,2.4681399680575504,0.826461931379305,1.2134413937687574,-0.2202432315892585,-0.0075118285948192216,-2.6038483821997875,-0.10888392708698907,2.4681821257803174,0.826474908251239,0.0008390723999365107,0.0008257187257240874,-0.0007951902802763126,-0.00012045539577544375,0.0003805404596697263,-8.97963738971515e-05,-0.0011681849528503313,0.0,0.0,0.0,0.0,0.0,0.0,0.0,-0.00020552454060474012,-7.57314907121609e-05,-0.00013828784463471716,0.0002036656302353279,8.386646438240941e-05,4.2157722766944516e-05,1.297687193402286e-05,-0.0008390723999365107,-0.0008257187257240874,0.0007951902802763126,0.00012045539577544375,-0.0003805404596697263,8.97963738971515e-05,0.0011681849528503313,0.4505855441093445,19.768823623657227,0.3990752398967743,-20.054964065551758,-0.5697532296180725,-2.4758944511413574,0.13858358561992645,0
4,0.014998435974121094,-0.4505855441093445,-19.768823623657227,-0.3990752398967743,20.054964065551758,0.5697532296180725,2.4758944511413574,-0.13858358561992645,0.0,0.0,0.0,0.0,0.0,0.0,0.0,-0.442110784647855,-0.001403615019859493,-0.2369625168150341,0.27377623996721895,-0.0059127759728519694,0.10351375088059252,-0.16683185473973008,1.213646918309362,-0.22016750009854633,-0.007373540750184504,-2.604052047830023,-0.10896779355137148,2.4681399680575504,0.826461931379305,1.2134413937687574,-0.2202432315892585,-0.0075118285948192216,-2.6038483821997875,-0.10888392708698907,2.4681821257803174,0.826474908251239,0.0008390723999365107,0.0008257187257240874,-0.0007951902802763126,-0.00012045539577544375,0.0003805404596697263,-8.97963738971515e-05,-0.0011681849528503313,0.0,0.0,0.0,0.0,0.0,0.0,0.0,-0.00020552454060474012,-7.57314907121609e-05,-0.00013828784463471716,0.0002036656302353279,8.386646438240941e-05,4.2157722766944516e-05,1.297687193402286e-05,-0.0008390723999365107,-0.0008257187257240874,0.0007951902802763126,0.00012045539577544375,-0.0003805404596697263,8.97963738971515e-05,0.0011681849528503313,0.4505855441093445,19.768823623657227,0.3990752398967743,-20.054964065551758,-0.5697532296180725,-2.4758944511413574,0.13858358561992645,0
5,0.01999521255493164,-0.4505855441093445,-19.768823623657227,-0.3990752398967743,20.054964065551758,0.5697532296180725,2.4758944511413574,-0.13858358561992645,0.0,0.0,0.0,0.0,0.0,0.0,0.0,-0.442110784647855,-0.001403615019859493,-0.2369625168150341,0.27377623996721895,-0.0059127759728519694,0.10351375088059252,-0.16683185473973008,1.213646918309362,-0.22016750009854633,-0.007373540750184504,-2.604052047830023,-0.10896779355137148,2.4681399680575504,0.826461931379305,1.2134413937687574,-0.2202432315892585,-0.0075118285948192216,-2.6038483821997875,-0.10888392708698907,2.4681821257803174,0.826474908251239,0.0008390723999365107,0.0008257187257240874,-0.0007951902802763126,-0.00012045539577544375,0.0003805404596697263,-8.97963738971515e-05,-0.0011681849528503313,0.0,0.0,0.0,0.0,0.0,0.0,0.0,-0.00020552454060474012,-7.57314907121609e-05,-0.00013828784463471716,0.0002036656302353279,8.386646438240941e-05,4.2157722766944516e-05,1.297687193402286e-05,-0.0008390723999365107,-0.0008257187257240874,0.0007951902802763126,0.00012045539577544375,-0.0003805404596697263,8.97963738971515e-05,0.0011681849528503313,0.4505855441093445,19.768823623657227,0.3990752398967743,-20.054964065551758,-0.5697532296180725,-2.4758944511413574,0.13858358561992645,0
6,0.024997472763061523,-0.4505855441093445,-19.717248916625977,-0.4466826617717743,20.031160354614258,0.5761619210243225,2.4758944511413574,-0.14590780436992645,0.0,0.0,0.0,0.0,0.0,0.0,0.0,-0.4428809566041074,0.012210159813033996,-0.23880967391723568,0.2642462040412858,-0.005952997890045558,0.10210072304426061,-0.1657770414850837,1.213646918309362,-0.2201710402713029,-0.007372348615024123,-2.6040503777089596,-0.10896710931219185,2.4681432714929263,0.8264627451813883,1.2134413937687574,-0.2202432315892585,-0.0075118285948192216,-2.6038483821997875,-0.10888392708698907,2.4681821257803174,0.826474908251239,0.0007420361626353965,-1.6607009400607726e-05,0.00039566921117330684,0.00039300291390523734,0.00011306211473820388,-0.0001003004738372399,-0.000895961577602245,0.0,0.0,0.0,0.0,0.0,0.0,0.0,-0.00020552454060474012,-7.219131795557776e-05,-0.00013947997979509887,0.00020199550917210374,8.318222520277418e-05,3.885428739103247e-05,1.2163069850745778e-05,-0.0007420361626353965,1.6607009400607726e-05,-0.00039566921117330684,-0.00039300291390523734,-0.00011306211473820388,0.0001003004738372399,0.000895961577602245,0.4505855441093445,19.717248916625977,0.4466826617717743,-20.031160354614258,-0.5761619210243225,-2.4758944511413574,0.14590780436992645,0
7,0.02999711036682129,-0.4505855441093445,-19.717248916625977,-0.4466826617717743,20.031160354614258,0.5761619210243225,2.4758944511413574,-0.14590780436992645,0.0,0.0,0.0,0.0,0.0,0.0,0.0,-0.4428809566041074,0.012210159813033996,-0.23880967391723568,0.2642462040412858,-0.005952997890045558,0.10210072304426061,-0.1657770414850837,1.213646918309362,-0.2201710402713029,-0.007372348615024123,-2.6040503777089596,-0.10896710931219185,2.4681432714929263,0.8264627451813883,1.2134413937687574,-0.2202432315892585,-0.0075118285948192216,-2.6038483821997875,-0.10888392708698907,2.4681821257803174,0.826474908251239,0.0007420361626353965,-1.6607009400607726e-05,0.00039566921117330684,0.00039300291390523734,0.00011306211473820388,-0.0001003004738372399,-0.000895961577602245,0.0,0.0,0.0,0.0,0.0,0.0,0.0,-0.00020552454060474012,-7.219131795557776e-05,-0.00013947997979509887,0.00020199550917210374,8.318222520277418e-05,3.885428739103247e-05,1.2163069850745778e-05,-0.0007420361626353965,1.6607009400607726e-05,-0.00039566921117330684,-0.00039300291390523734,-0.00011306211473820388,0.0001003004738372399,0.000895961577602245,0.4505855441093445,19.717248916625977,0.4466826617717743,-20.031160354614258,-0.5761619210243225,-2.4758944511413574,0.14590780436992645,0
8,0.03501462936401367,-0.4505855441093445,-19.717248916625977,-0.4228789508342743,20.031160354614258,0.5761619210243225,2.4758944511413574,-0.13217489421367645,0.0,0.0,0.0,0.0,0.0,0.0,0.0,-0.44261871664011604,0.01060417299967615,-0.24044903153526664,0.26510429935536217,-0.005765998627514271,0.10195305538828624,-0.1650775731703587,1.213646918309362,-0.22017111937578615,-0.007372028754815004,-2.6040503773940253,-0.10896826904948745,2.4681431014461954,0.8264612193024821,1.2134413937687574,-0.2202432315892585,-0.0075118285948192216,-2.6038483821997875,-0.10888392708698907,2.4681821257803174,0.826474908251239,0.00010134768302684352,0.0002280403364075332,-0.00027377977310950923,5.254048038719216e-05,6.287160595581454e-05,-2.6966014516439275e-05,-0.0014511390546894712,0.0,0.0,0.0,0.0,0.0,0.0,0.0,-0.00020552454060474012,-7.21122134723362e-05,-0.00013979984000421757,0.00020199519423780288,8.434196249837433e-05,3.902433412195094e-05,1.3688948756973573e-05,-0.00010134768302684352,-0.0002280403364075332,0.00027377977310950923,-5.254048038719216e-05,-6.287160595581454e-05,2.6966014516439275e-05,0.0014511390546894712,0.4505855441093445,19.717248916625977,0.4228789508342743,-20.031160354614258,-0.5761619210243225,-2.4758944511413574,0.13217489421367645,0
9,0.040337324142456055,-0.4505855441093445,-19.717248916625977,-0.4228789508342743,20.031160354614258,0.5761619210243225,2.4758944511413574,-0.13217489421367645,0.0,0.0,0.0,0.0,0.0,0.0,0.0,-0.44261871664011604,0.01060417299967615,-0.24044903153526664,0.26510429935536217,-0.005765998627514271,0.10195305538828624,-0.1650775731703587,1.213646918309362,-0.22017111937578615,-0.007372028754815004,-2.6040503773940253,-0.10896826904948745,2.4681431014461954,0.8264612193024821,1.2134413937687574,-0.2202432315892585,-0.0075118285948192216,-2.6038483821997875,-0.10888392708698907,2.4681821257803174,0.826474908251239,0.00010134768302684352,0.0002280403364075332,-0.00027377977310950923,5.254048038719216e-05,6.287160595581454e-05,-2.6966014516439275e-05,-0.0014511390546894712,0.0,0.0,0.0,0.0,0.0,0.0,0.0,-0.00020552454060474012,-7.21122134723362e-05,-0.00013979984000421757,0.00020199519423780288,8.434196249837433e-05,3.902433412195094e-05,1.3688948756973573e-05,-0.00010134768302684352,-0.0002280403364075332,0.00027377977310950923,-5.254048038719216e-05,-6.287160595581454e-05,2.6966014516439275e-05,0.0014511390546894712,0.4505855441093445,19.717248916625977,0.4228789508342743,-20.031160354614258,-0.5761619210243225,-2.4758944511413574,0.13217489421367645,0
10,0.04496908187866211,-0.4267818331718445,-19.717248916625977,-0.4704863727092743,20.054964065551758,0.5761619210243225,2.4630770683288574,-0.13217489421367645,0.0,0.0,0.0,0.0,0.0,0.0,0.0,-0.4427167427713098,0.007033484326312201,-0.23981172912584514,0.2696280772875057,-0.006559017286740816,0.10257676379920903,-0.16440143471497234,1.213645247873507,-0.2201710402713029,-0.007369186657636116,-2.604052047829879,-0.10897136648757506,2.4681413994968184,0.8264612193024821,1.2134413937687574,-0.2202432315892585,-0.0075118285948192216,-2.6038483821997875,-0.10888392708698907,2.4681821257803174,0.826474908251239,-0.0005285394283536775,-0.00015801672654437154,0.0004645742166296361,-0.00012995564106530247,-0.00011126010636183271,0.0003517652478895795,-0.0016239820130770964,0.0,0.0,0.0,0.0,0.0,0.0,0.0,-0.00020385410474954568,-7.219131795557776e-05,-0.0001426419371831052,0.000203665630091443,8.743940058598965e-05,4.072628349893748e-05,1.3688948756973573e-05,0.0005285394283536775,0.00015801672654437154,-0.0004645742166296361,0.00012995564106530247,0.00011126010636183271,-0.0003517652478895795,0.0016239820130770964,0.4267818331718445,19.717248916625977,0.4704863727092743,-20.054964065551758,-0.5761619210243225,-2.4630770683288574,0.13217489421367645,0
11,0.049993276596069336,-0.4267818331718445,-19.717248916625977,-0.4704863727092743,20.054964065551758,0.5761619210243225,2.4630770683288574,-0.13217489421367645,0.0,0.0,0.0,0.0,0.0,0.0,0.0,-0.4427167427713098,0.007033484326312201,-0.23981172912584514,0.2696280772875057,-0.006559017286740816,0.10257676379920903,-0.16440143471497234,1.213645247873507,-0.2201710402713029,-0.007369186657636116,-2.604052047829879,-0.10897136648757506,2.4681413994968184,0.8264612193024821,1.2134413937687574,-0.2202432315892585,-0.0075118285948192216,-2.6038483821997875,-0.10888392708698907,2.4681821257803174,0.826474908251239,-0.0005285394283536775,-0.00015801672654437154,0.0004645742166296361,-0.00012995564106530247,-0.00011126010636183271,0.0003517652478895795,-0.0016239820130770964,0.0,0.0,0.0,0.0,0.0,0.0,0.0,-0.00020385410474954568,-7.219131795557776e-05,-0.0001426419371831052,0.000203665630091443,8.743940058598965e-05,4.072628349893748e-05,1.3688948756973573e-05,0.0005285394283536775,0.00015801672654437154,-0.0004645742166296361,0.00012995564106530247,0.00011126010636183271,-0.0003517652478895795,0.0016239820130770964,0.4267818331718445,19.717248916625977,0.4704863727092743,-20.054964065551758,-0.5761619210243225,-2.4630770683288574,0.13217489421367645,0
12,0.054993391036987305,-0.4267818331718445,-19.717248916625977,-0.4466826617717743,20.054964065551758,0.5697532296180725,2.4823031425476074,-0.13217489421367645,0.0,0.0,0.0,0.0,0.0,0.0,0.0,-0.4416464600006671,0.010223623440673194,-0.24101125418233937,0.2672512122083148,-0.0073195064514591885,0.10171003662885848,-0.16330988997025325,1.213645247873507,-0.22017111937578615,-0.00737226880723843,-2.6040520479348577,-0.10896955217812167,2.4681393288199693,0.8264612193024821,1.2134413937687574,-0.2202432315892585,-0.0075118285948192216,-2.6038483821997875,-0.10888392708698907,2.4681821257803174,0.826474908251239,-0.00029830102103001627,-0.0002773567643190385,-0.0005058391676162964,-0.00040214035425636865,0.00047192651316382096,-0.0003130067377036518,-0.0014286488566582084,0.0,0.0,0.0,0.0,0.0,0.0,0.0,-0.00020385410474954568,-7.21122134723362e-05,-0.00013955978758079142,0.0002036657350701354,8.562509113259342e-05,4.279696034803493e-05,1.3688948756973573e-05,0.00029830102103001627,0.0002773567643190385,0.0005058391676162964,0.00040214035425636865,-0.00047192651316382096,0.0003130067377036518,0.0014286488566582084,0.4267818331718445,19.717248916625977,0.4466826617717743,-20.054964065551758,-0.5697532296180725,-2.4823031425476074,0.13217489421367645,0
13,0.05999493598937988,-0.4267818331718445,-19.717248916625977,-0.4466826617717743,20.054964065551758,0.5697532296180725,2.4823031425476074,-0.13217489421367645,0.0,0.0,0.0,0.0,0.0,0.0,0.0,-0.4416464600006671,0.010223623440673194,-0.24101125418233937,0.2672512122083148,-0.0073195064514591885,0.10171003662885848,-0.16330988997025325,1.213645247873507,-0.22017111937578615,-0.00737226880723843,-2.6040520479348577,-0.10896955217812167,2.4681393288199693,0.8264612193024821,1.2134413937687574,-0.2202432315892585,-0.0075118285948192216,-2.6038483821997875,-0.10888392708698907,2.4681821257803174,0.826474908251239,-0.00029830102103001627,-0.0002773567643190385,-0.0005058391676162964,-0.00040214035425636865,0.00047192651316382096,-0.0003130067377036518,-0.0014286488566582084,0.0,0.0,0.0,0.0,0.0,0.0,0.0,-0.00020385410474954568,-7.21122134723362e-05,-0.00013955978758079142,0.0002036657350701354,8.562509113259342e-05,4.279696034803493e-05,1.3688948756973573e-05,0.00029830102103001627,0.0002773567643190385,0.0005058391676162964,0.00040214035425636865,-0.00047192651316382096,0.0003130067377036518,0.0014286488566582084,0.4267818331718445,19.717248916625977,0.4466826617717743,-20.054964065551758,-0.5697532296180725,-2.4823031425476074,0.13217489421367645,0
14,0.06505012512207031,-0.4029781222343445,-19.745019912719727,-0.4466826617717743,20.031160354614258,0.5761619210243225,2.4758944511413574,-0.14590780436992645,0.0,0.0,0.0,0.0,0.0,0.0,0.0,-0.43903993863466656,0.008643673298641078,-0.24315879612742383,0.2671001490178436,-0.007105192428329667,0.10185683913770326,-0.1630553831718339,1.2136435774376515,-0.22016917053440158,-0.007370124837411298,-2.604050377394024,-0.10896814666717886,2.468139961759427,0.8264627451813883,1.2134413937687574,-0.2202432315892585,-0.0075118285948192216,-2.6038483821997875,-0.10888392708698907,2.4681821257803174,0.826474908251239,-0.0010633879455816291,0.0003680815928564063,1.9112291450622347e-05,0.0004059983651849096,-2.334343658914438e-05,-0.000212610633970095,-0.0006710595733557341,0.0,0.0,0.0,0.0,0.0,0.0,0.0,-0.0002021836688941292,-7.406105485691095e-05,-0.00014170375740792367,0.0002019951942364706,8.42195801897816e-05,4.216402089030069e-05,1.2163069850745778e-05,0.0010633879455816291,-0.0003680815928564063,-1.9112291450622347e-05,-0.0004059983651849096,2.334343658914438e-05,0.000212610633970095,0.0006710595733557341,0.4029781222343445,19.745019912719727,0.4466826617717743,-20.031160354614258,-0.5761619210243225,-2.4758944511413574,0.14590780436992645,0
15,0.06999993324279785,-0.4029781222343445,-19.745019912719727,-0.4466826617717743,20.031160354614258,0.5761619210243225,2.4758944511413574,-0.14590780436992645,0.0,0.0,0.0,0.0,0.0,0.0,0.0,-0.43903993863466656,0.008643673298641078,-0.24315879612742383,0.2671001490178436,-0.007105192428329667,0.10185683913770326,-0.1630553831718339,1.2136435774376515,-0.22016917053440158,-0.007370124837411298,-2.604050377394024,-0.10896814666717886,2.468139961759427,0.8264627451813883,1.2134413937687574,-0.2202432315892585,-0.0075118285948192216,-2.6038483821997875,-0.10888392708698907,2.4681821257803174,0.826474908251239,-0.0010633879455816291,0.0003680815928564063,1.9112291450622347e-05,0.0004059983651849096,-2.334343658914438e-05,-0.000212610633970095,-0.0006710595733557341,0.0,0.0,0.0,0.0,0.0,0.0,0.0,-0.0002021836688941292,-7.406105485691095e-05,-0.00014170375740792367,0.0002019951942364706,8.42195801897816e-05,4.216402089030069e-05,1.2163069850745778e-05,0.0010633879455816291,-0.0003680815928564063,-1.9112291450622347e-05,-0.0004059983651849096,2.334343658914438e-05,0.000212610633970095,0.0006710595733557341,0.4029781222343445,19.745019912719727,0.4466826617717743,-20.031160354614258,-0.5761619210243225,-2.4758944511413574,0.14590780436992645,0
16,0.07499885559082031,-0.4267818331718445,-19.768823623657227,-0.4704863727092743,20.031160354614258,0.5761619210243225,2.4694857597351074,-0.18710653483867645,0.0,0.0,0.0,0.0,0.0,0.0,0.0,-0.4439244577028901,0.010908941440094438,-0.24865779648482972,0.26237785432516547,-0.007253336838544382,0.10086319406062462,-0.16514238489924843,1.213645247873507,-0.2201674971687341,-0.007371308444160479,-2.6040503773940236,-0.1089686105600558,2.4681441725490427,0.8264673228181071,1.2134413937687574,-0.2202432315892585,-0.0075118285948192216,-2.6038483821997875,-0.10888392708698907,2.4681821257803174,0.826474908251239,-0.0005462931207700724,0.0008272547569421808,0.00041235543150924136,-0.00027226088638104487,-2.6612159525711965e-06,5.435836043246912e-05,0.0007835871063969699,0.0,0.0,0.0,0.0,0.0,0.0,0.0,-0.00020385410474954568,-7.573442052438706e-05,-0.0001405201506587423,0.00020199519423602652,8.468347306672674e-05,3.795323127464556e-05,7.585433131951369e-06,0.0005462931207700724,-0.0008272547569421808,-0.00041235543150924136,0.00027226088638104487,2.6612159525711965e-06,-5.435836043246912e-05,-0.0007835871063969699,0.4267818331718445,19.768823623657227,0.4704863727092743,-20.031160354614258,-0.5761619210243225,-2.4694857597351074,0.18710653483867645,0
17,0.07999253273010254,-0.4267818331718445,-19.768823623657227,-0.4704863727092743,20.031160354614258,0.5761619210243225,2.4694857597351074,-0.18710653483867645,0.0,0.0,0.0,0.0,0.0,0.0,0.0,-0.4439244577028901,0.010908941440094438,-0.24865779648482972,0.26237785432516547,-0.007253336838544382,0.10086319406062462,-0.16514238489924843,1.213645247873507,-0.2201674971687341,-0.007371308444160479,-2.6040503773940236,-0.1089686105600558,2.4681441725490427,0.8264673228181071,1.2134413937687574,-0.2202432315892585,-0.0075118285948192216,-2.6038483821997875,-0.10888392708698907,2.4681821257803174,0.826474908251239,-0.0005462931207700724,0.0008272547569421808,0.00041235543150924136,-0.00027226088638104487,-2.6612159525711965e-06,5.435836043246912e-05,0.0007835871063969699,0.0,0.0,0.0,0.0,0.0,0.0,0.0,-0.00020385410474954568,-7.573442052438706e-05,-0.0001405201506587423,0.00020199519423602652,8.468347306672674e-05,3.795323127464556e-05,7.585433131951369e-06,0.0005462931207700724,-0.0008272547569421808,-0.00041235543150924136,0.00027226088638104487,2.6612159525711965e-06,-5.435836043246912e-05,-0.0007835871063969699,0.4267818331718445,19.768823623657227,0.4704863727092743,-20.031160354614258,-0.5761619210243225,-2.4694857597351074,0.18710653483867645,0
18,0.08499479293823242,-0.4267818331718445,-19.717248916625977,-0.3990752398967743,20.031160354614258,0.5761619210243225,2.4758944511413574,-0.18710653483867645,0.0,0.0,0.0,0.0,0.0,0.0,0.0,-0.4424058403414172,0.0056440006724875385,-0.2460945160525844,0.26470066263287334,-0.007364156760500962,0.10099233322514418,-0.167010019081799,1.213645247873507,-0.22017111937621617,-0.007375595980090897,-2.6040503773940236,-0.10897149819267929,2.468143101931779,0.8264673228181071,1.2134413937687574,-0.2202432315892585,-0.0075118285948192216,-2.6038483821997875,-0.10888392708698907,2.4681821257803174,0.826474908251239,-0.0002650938457175337,-0.0002612056147138378,-0.0011259337671257151,-0.00011818945694546849,6.894948834595449e-05,-0.00020797360837662915,0.0006145927376765774,0.0,0.0,0.0,0.0,0.0,0.0,0.0,-0.00020385410474954568,-7.211221304231907e-05,-0.0001362326147283247,0.00020199519423602652,8.757110569021509e-05,3.902384853837759e-05,7.585433131951369e-06,0.0002650938457175337,0.0002612056147138378,0.0011259337671257151,0.00011818945694546849,-6.894948834595449e-05,0.00020797360837662915,-0.0006145927376765774,0.4267818331718445,19.717248916625977,0.3990752398967743,-20.031160354614258,-0.5761619210243225,-2.4758944511413574,0.18710653483867645,0
19,0.08999395370483398,-0.4267818331718445,-19.717248916625977,-0.3990752398967743,20.031160354614258,0.5761619210243225,2.4758944511413574,-0.18710653483867645,0.0,0.0,0.0,0.0,0.0,0.0,0.0,-0.4424058403414172,0.0056440006724875385,-0.2460945160525844,0.26470066263287334,-0.007364156760500962,0.10099233322514418,-0.167010019081799,1.213645247873507,-0.22017111937621617,-0.007375595980090897,-2.6040503773940236,-0.10897149819267929,2.468143101931779,0.8264673228181071,1.2134413937687574,-0.2202432315892585,-0.0075118285948192216,-2.6038483821997875,-0.10888392708698907,2.4681821257803174,0.826474908251239,-0.0002650938457175337,-0.0002612056147138378,-0.0011259337671257151,-0.00011818945694546849,6.894948834595449e-05,-0.00020797360837662915,0.0006145927376765774,0.0,0.0,0.0,0.0,0.0,0.0,0.0,-0.00020385410474954568,-7.211221304231907e-05,-0.0001362326147283247,0.00020199519423602652,8.757110569021509e-05,3.902384853837759e-05,7.585433131951369e-06,0.0002650938457175337,0.0002612056147138378,0.0011259337671257151,0.00011818945694546849,-6.894948834595449e-05,0.00020797360837662915,-0.0006145927376765774,0.4267818331718445,19.717248916625977,0.3990752398967743,-20.031160354614258,-0.5761619210243225,-2.4758944511413574,0.18710653483867645,0
20,0.09501218795776367,-0.3752071261405945,-19.693445205688477,-0.4466826617717743,20.106538772583008,0.5697532296180725,2.4758944511413574,-0.20083944499492645,0.0,0.0,0.0,0.0,0.0,0.0,0.0,-0.4434022784379806,0.007148740555618584,-0.2451344405177285,0.26345521941423466,-0.006800334378111035,0.10052687834879057,-0.16772823617587165,1.2136416285958205,-0.220172789812088,-0.007370848336480252,-2.6040556671075654,-0.1089711420282149,2.468144162590753,0.8264688486970133,1.2134413937687574,-0.2202432315892585,-0.0075118285948192216,-2.6038483821997875,-0.10888392708698907,2.4681821257803174,0.826474908251239,-0.002184597573989119,-0.0006083002038556722,0.0004467166665674638,-0.0017671502459009768,0.0003624622488155859,-0.00010222546073851046,0.0018438846256183727,0.0,0.0,0.0,0.0,0.0,0.0,0.0,-0.00020023482706310602,-7.044177717049904e-05,-0.00014098025833896976,0.00020728490777788267,8.721494122582163e-05,3.796318956439393e-05,6.0595542257235735e-06,0.002184597573989119,0.0006083002038556722,-0.0004467166665674638,0.0017671502459009768,-0.0003624622488155859,0.00010222546073851046,-0.0018438846256183727,0.3752071261405945,19.693445205688477,0.4466826617717743,-20.106538772583008,-0.5697532296180725,-2.4758944511413574,0.20083944499492645,0
21,0.10001635551452637,-0.3752071261405945,-19.693445205688477,-0.4466826617717743,20.106538772583008,0.5697532296180725,2.4758944511413574,-0.20083944499492645,0.0,0.0,0.0,0.0,0.0,0.0,0.0,-0.4434022784379806,0.007148740555618584,-0.2451344405177285,0.26345521941423466,-0.006800334378111035,0.10052687834879057,-0.16772823617587165,1.2136416285958205,-0.220172789812088,-0.007370848336480252,-2.6040556671075654,-0.1089711420282149,2.468144162590753,0.8264688486970133,1.2134413937687574,-0.2202432315892585,-0.0075118285948192216,-2.6038483821997875,-0.10888392708698907,2.4681821257803174,0.826474908251239,-0.002184597573989119,-0.0006083002038556722,0.0004467166665674638,-0.0017671502459009768,0.0003624622488155859,-0.00010222546073851046,0.0018438846256183727,0.0,0.0,0.0,0.0,0.0,0.0,0.0,-0.00020023482706310602,-7.044177717049904e-05,-0.00014098025833896976,0.00020728490777788267,8.721494122582163e-05,3.796318956439393e-05,6.0595542257235735e-06,0.002184597573989119,0.0006083002038556722,-0.0004467166665674638,0.0017671502459009768,-0.0003624622488155859,0.00010222546073851046,-0.0018438846256183727,0.3752071261405945,19.693445205688477,0.4466826617717743,-20.106538772583008,-0.5697532296180725,-2.4758944511413574,0.20083944499492645,0
22,0.10504794120788574,-0.4267818331718445,-19.693445205688477,-0.4228789508342743,20.054964065551758,0.5816550850868225,2.4630770683288574,-0.15231649577617645,0.0,0.0,0.0,0.0,0.0,0.0,0.0,-0.44253108079942627,0.005776917650019415,-0.24323403043555927,0.263519783323735,-0.006656327902288646,0.10091133247637855,-0.16753560328122927,1.213645247873507,-0.220172789812088,-0.0073742372344601185,-2.604052047829879,-0.1089691026471589,2.4681448933371266,0.8264634572582112,1.2134413937687574,-0.2202432315892585,-0.0075118285948192216,-2.6038483821997875,-0.10888392708698907,2.4681821257803174,0.826474908251239,-0.0004111847547562635,-0.0011669929001488146,-0.00021460844136048112,-0.0005907204270902789,-4.1676640972663827e-05,0.0003126504719568911,-0.001145940382028699,0.0,0.0,0.0,0.0,0.0,0.0,0.0,-0.00020385410474954568,-7.044177717049904e-05,-0.00013759136035910308,0.000203665630091443,8.517556016982009e-05,3.723244319076002e-05,1.1450993027795064e-05,0.0004111847547562635,0.0011669929001488146,0.00021460844136048112,0.0005907204270902789,4.1676640972663827e-05,-0.0003126504719568911,0.001145940382028699,0.4267818331718445,19.693445205688477,0.4228789508342743,-20.054964065551758,-0.5816550850868225,-2.4630770683288574,0.15231649577617645,0
23,0.10999131202697754,-0.4267818331718445,-19.693445205688477,-0.4228789508342743,20.054964065551758,0.5816550850868225,2.4630770683288574,-0.15231649577617645,0.0,0.0,0.0,0.0,0.0,0.0,0.0,-0.44253108079942627,0.005776917650019415,-0.24323403043555927,0.263519783323735,-0.006656327902288646,0.10091133247637855,-0.16753560328122927,1.213645247873507,-0.220172789812088,-0.0073742372344601185,-2.604052047829879,-0.1089691026471589,2.4681448933371266,0.8264634572582112,1.2134413937687574,-0.2202432315892585,-0.0075118285948192216,-2.6038483821997875,-0.10888392708698907,2.4681821257803174,0.826474908251239,-0.0004111847547562635,-0.0011669929001488146,-0.00021460844136048112,-0.0005907204270902789,-4.1676640972663827e-05,0.0003126504719568911,-0.001145940382028699,0.0,0.0,0.0,0.0,0.0,0.0,0.0,-0.00020385410474954568,-7.044177717049904e-05,-0.00013759136035910308,0.000203665630091443,8.517556016982009e-05,3.723244319076002e-05,1.1450993027795064e-05,0.0004111847547562635,0.0011669929001488146,0.00021460844136048112,0.0005907204270902789,4.1676640972663827e-05,-0.0003126504719568911,0.001145940382028699,0.4267818331718445,19.693445205688477,0.4228789508342743,-20.054964065551758,-0.5816550850868225,-2.4630770683288574,0.15231649577617645,0
24,0.11500048637390137,-0.4267818331718445,-19.693445205688477,-0.4228789508342743,20.054964065551758,0.5816550850868225,2.4630770683288574,-0.15231649577617645,0.0,0.0,0.0,0.0,0.0,0.0,0.0,-0.44253108079942627,0.005776917650019415,-0.24323403043555927,0.263519783323735,-0.006656327902288646,0.10091133247637855,-0.16753560328122927,1.213645247873507,-0.220172789812088,-0.0073742372344601185,-2.604052047829879,-0.1089691026471589,2.4681448933371266,0.8264634572582112,1.2134413937687574,-0.2202432315892585,-0.0075118285948192216,-2.6038483821997875,-0.10888392708698907,2.4681821257803174,0.826474908251239,-0.0004111847547562635,-0.0011669929001488146,-0.00021460844136048112,-0.0005907204270902789,-4.1676640972663827e-05,0.0003126504719568911,-0.001145940382028699,0.0,0.0,0.0,0.0,0.0,0.0,0.0,-0.00020385410474954568,-7.044177717049904e-05,-0.00013759136035910308,0.000203665630091443,8.517556016982009e-05,3.723244319076002e-05,1.1450993027795064e-05,0.0004111847547562635,0.0011669929001488146,0.00021460844136048112,0.0005907204270902789,4.1676640972663827e-05,-0.0003126504719568911,0.001145940382028699,0.4267818331718445,19.693445205688477,0.4228789508342743,-20.054964065551758,-0.5816550850868225,-2.4630770683288574,0.15231649577617645,0
25,0.11998891830444336,-0.4267818331718445,-19.693445205688477,-0.4228789508342743,20.054964065551758,0.5816550850868225,2.4630770683288574,-0.15231649577617645,0.0,0.0,0.0,0.0,0.0,0.0,0.0,-0.44253108079942627,0.005776917650019415,-0.24323403043555927,0.263519783323735,-0.006656327902288646,0.10091133247637855,-0.16753560328122927,1.213645247873507,-0.220172789812088,-0.0073742372344601185,-2.604052047829879,-0.1089691026471589,2.4681448933371266,0.8264634572582112,1.2134413937687574,-0.2202432315892585,-0.0075118285948192216,-2.6038483821997875,-0.10888392708698907,2.4681821257803174,0.826474908251239,-0.0004111847547562635,-0.0011669929001488146,-0.00021460844136048112,-0.0005907204270902789,-4.1676640972663827e-05,0.0003126504719568911,-0.001145940382028699,0.0,0.0,0.0,0.0,0.0,0.0,0.0,-0.00020385410474954568,-7.044177717049904e-05,-0.00013759136035910308,0.000203665630091443,8.517556016982009e-05,3.723244319076002e-05,1.1450993027795064e-05,0.0004111847547562635,0.0011669929001488146,0.00021460844136048112,0.0005907204270902789,4.1676640972663827e-05,-0.0003126504719568911,0.001145940382028699,0.4267818331718445,19.693445205688477,0.4228789508342743,-20.054964065551758,-0.5816550850868225,-2.4630770683288574,0.15231649577617645,0
26,0.1250159740447998,-0.4267818331718445,-19.745019912719727,-0.4466826617717743,20.007356643676758,0.5816550850868225,2.4758944511413574,-0.17978231608867645,0.0,0.0,0.0,0.0,0.0,0.0,0.0,-0.4412758240939133,0.01170404021870993,-0.24149581351938962,0.2574455266545871,-0.0069728611060918076,0.10060792280629972,-0.16682626729805067,1.213645247873507,-0.22016917053440158,-0.007372252175116831,-2.6040487069581686,-0.10896888115573414,2.468144165486134,0.8264665090160237,1.2134413937687574,-0.2202432315892585,-0.0075118285948192216,-2.6038483821997875,-0.10888392708698907,2.4681821257803174,0.826474908251239,-0.0004834603823907512,0.0006459066941693943,0.00031551947675136923,0.000497854335874293,-2.55454987840566e-05,-0.00014320636690145575,-7.927102338021922e-05,0.0,0.0,0.0,0.0,0.0,0.0,0.0,-0.00020385410474954568,-7.406105485691095e-05,-0.00013957641970239066,0.00020032475838105412,8.49540687450634e-05,3.796029418356994e-05,8.399235215339473e-06,0.0004834603823907512,-0.0006459066941693943,-0.00031551947675136923,-0.000497854335874293,2.55454987840566e-05,0.00014320636690145575,7.927102338021922e-05,0.4267818331718445,19.745019912719727,0.4466826617717743,-20.007356643676758,-0.5816550850868225,-2.4758944511413574,0.17978231608867645,0
27,0.13000726699829102,-0.4267818331718445,-19.745019912719727,-0.4466826617717743,20.007356643676758,0.5816550850868225,2.4758944511413574,-0.17978231608867645,0.0,0.0,0.0,0.0,0.0,0.0,0.0,-0.4412758240939133,0.01170404021870993,-0.24149581351938962,0.2574455266545871,-0.0069728611060918076,0.10060792280629972,-0.16682626729805067,1.213645247873507,-0.22016917053440158,-0.007372252175116831,-2.6040487069581686,-0.10896888115573414,2.468144165486134,0.8264665090160237,1.2134413937687574,-0.2202432315892585,-0.0075118285948192216,-2.6038483821997875,-0.10888392708698907,2.4681821257803174,0.826474908251239,-0.0004834603823907512,0.0006459066941693943,0.00031551947675136923,0.000497854335874293,-2.55454987840566e-05,-0.00014320636690145575,-7.927102338021922e-05,0.0,0.0,0.0,0.0,0.0,0.0,0.0,-0.00020385410474954568,-7.406105485691095e-05,-0.00013957641970239066,0.00020032475838105412,8.49540687450634e-05,3.796029418356994e-05,8.399235215339473e-06,0.0004834603823907512,-0.0006459066941693943,-0.00031551947675136923,-0.000497854335874293,2.55454987840566e-05,0.00014320636690145575,7.927102338021922e-05,0.4267818331718445,19.745019912719727,0.4466826617717743,-20.007356643676758,-0.5816550850868225,-2.4758944511413574,0.17978231608867645,0
28,0.13503503799438477,-0.4505855441093445,-19.745019912719727,-0.4466826617717743,20.054964065551758,0.5697532296180725,2.4694857597351074,-0.15231649577617645,0.0,0.0,0.0,0.0,0.0,0.0,0.0,-0.4417944812860115,0.006545441916203884,-0.24034789135647494,0.2605626406949059,-0.0064814045090949655,0.10188386456012714,-0.1682590069801896,1.213646918309362,-0.2201691702088669,-0.007370191082302078,-2.604052047829879,-0.10896743852749377,2.4681406346136767,0.8264634572582112,1.2134413937687574,-0.2202432315892585,-0.0075118285948192216,-2.6038483821997875,-0.10888392708698907,2.4681821257803174,0.826474908251239,7.232483641806783e-05,0.0002865553947394352,0.00030442556951975334,-0.00023764266183554946,0.00046445657875533605,0.00024849801692569353,-0.001003195560024561,0.0,0.0,0.0,0.0,0.0,0.0,0.0,-0.00020552454060474012,-7.406138039159349e-05,-0.00014163751251714332,0.000203665630091443,8.351144050469661e-05,4.1491166640650334e-05,1.1450993027795064e-05,-7.232483641806783e-05,-0.0002865553947394352,-0.00030442556951975334,0.00023764266183554946,-0.00046445657875533605,-0.00024849801692569353,0.001003195560024561,0.4505855441093445,19.745019912719727,0.4466826617717743,-20.054964065551758,-0.5697532296180725,-2.4694857597351074,0.15231649577617645,0
29,0.14000797271728516,-0.4505855441093445,-19.745019912719727,-0.4466826617717743,20.054964065551758,0.5697532296180725,2.4694857597351074,-0.15231649577617645,0.0,0.0,0.0,0.0,0.0,0.0,0.0,-0.4417944812860115,0.006545441916203884,-0.24034789135647494,0.2605626406949059,-0.0064814045090949655,0.10188386456012714,-0.1682590069801896,1.213646918309362,-0.2201691702088669,-0.007370191082302078,-2.604052047829879,-0.10896743852749377,2.4681406346136767,0.8264634572582112,1.2134413937687574,-0.2202432315892585,-0.0075118285948192216,-2.6038483821997875,-0.10888392708698907,2.4681821257803174,0.826474908251239,7.232483641806783e-05,0.0002865553947394352,0.00030442556951975334,-0.00023764266183554946,0.00046445657875533605,0.00024849801692569353,-0.001003195560024561,0.0,0.0,0.0,0.0,0.0,0.0,0.0,-0.00020552454060474012,-7.406138039159349e-05,-0.00014163751251714332,0.000203665630091443,8.351144050469661e-05,4.1491166640650334e-05,1.1450993027795064e-05,-7.232483641806783e-05,-0.0002865553947394352,-0.00030442556951975334,0.00023764266183554946,-0.00046445657875533605,-0.00024849801692569353,0.001003195560024561,0.4505855441093445,19.745019912719727,0.4466826617717743,-20.054964065551758,-0.5697532296180725,-2.4694857597351074,0.15231649577617645,0
30,0.14499616622924805,-0.4029781222343445,-19.717248916625977,-0.4466826617717743,20.007356643676758,0.5761619210243225,2.4694857597351074,-0.13217489421367645,0.0,0.0,0.0,0.0,0.0,0.0,0.0,-0.4438194266037038,0.00828807555185751,-0.2397890148826495,0.2584584209485888,-0.006041052970477718,0.10152244163662599,-0.16867109069680117,1.2136435774376515,-0.22017111937623088,-0.00737082602668033,-2.6040487069581686,-0.10897181898332271,2.4681439488457917,0.8264612193024821,1.2134413937687574,-0.2202432315892585,-0.0075118285948192216,-2.6038483821997875,-0.10888392708698907,2.4681821257803174,0.826474908251239,-0.0010241615301315719,-0.000538010863727515,0.00044293687843266873,0.0010692068475278798,0.00010870789816837201,-9.744260559899136e-05,-0.0012924455096839423,0.0,0.0,0.0,0.0,0.0,0.0,0.0,-0.0002021836688941292,-7.211221302760862e-05,-0.00014100256813889128,0.00020032475838105412,8.789189633363892e-05,3.817693452567994e-05,1.3688948756973573e-05,0.0010241615301315719,0.000538010863727515,-0.00044293687843266873,-0.0010692068475278798,-0.00010870789816837201,9.744260559899136e-05,0.0012924455096839423,0.4029781222343445,19.717248916625977,0.4466826617717743,-20.007356643676758,-0.5761619210243225,-2.4694857597351074,0.13217489421367645,0
31,0.15000319480895996,-0.4029781222343445,-19.717248916625977,-0.4466826617717743,20.007356643676758,0.5761619210243225,2.4694857597351074,-0.13217489421367645,0.0,0.0,0.0,0.0,0.0,0.0,0.0,-0.4438194266037038,0.00828807555185751,-0.2397890148826495,0.2584584209485888,-0.006041052970477718,0.10152244163662599,-0.16867109069680117,1.2136435774376515,-0.22017111937623088,-0.00737082602668033,-2.6040487069581686,-0.10897181898332271,2.4681439488457917,0.8264612193024821,1.2134413937687574,-0.2202432315892585,-0.0075118285948192216,-2.6038483821997875,-0.10888392708698907,2.4681821257803174,0.826474908251239,-0.0010241615301315719,-0.000538010863727515,0.00044293687843266873,0.0010692068475278798,0.00010870789816837201,-9.744260559899136e-05,-0.0012924455096839423,0.0,0.0,0.0,0.0,0.0,0.0,0.0,-0.0002021836688941292,-7.211221302760862e-05,-0.00014100256813889128,0.00020032475838105412,8.789189633363892e-05,3.817693452567994e-05,1.3688948756973573e-05,0.0010241615301315719,0.000538010863727515,-0.00044293687843266873,-0.0010692068475278798,-0.00010870789816837201,9.744260559899136e-05,0.0012924455096839423,0.4029781222343445,19.717248916625977,0.4466826617717743,-20.007356643676758,-0.5761619210243225,-2.4694857597351074,0.13217489421367645,0
32,0.15499377250671387,-0.4505855441093445,-19.745019912719727,-0.4228789508342743,20.054964065551758,0.5880637764930725,2.4694857597351074,-0.15964071452617645,0.0,0.0,0.0,0.0,0.0,0.0,0.0,-0.44250014067446525,0.010696485090973002,-0.24064536307942933,0.2575928932574881,-0.0062027065726576736,0.10028080834804841,-0.16742632917523445,1.213646918309362,-0.22016917053440158,-0.007371782597951908,-2.604052047829879,-0.10896852396067043,2.4681409878086713,0.8264610921459065,1.2134413937687574,-0.2202432315892585,-0.0075118285948192216,-2.6038483821997875,-0.10888392708698907,2.4681821257803174,0.826474908251239,0.00013329200588845034,0.0006137836522626955,-0.00045562508967961945,-0.0004390519976815756,-0.00012126266818049149,-0.00022438672786149303,-0.0002655633088867526,0.0,0.0,0.0,0.0,0.0,0.0,0.0,-0.00020552454060474012,-7.406105485691095e-05,-0.00014004599686731362,0.000203665630091443,8.459687368135571e-05,4.113797164606581e-05,1.3816105332575823e-05,-0.00013329200588845034,-0.0006137836522626955,0.00045562508967961945,0.0004390519976815756,0.00012126266818049149,0.00022438672786149303,0.0002655633088867526,0.4505855441093445,19.745019912719727,0.4228789508342743,-20.054964065551758,-0.5880637764930725,-2.4694857597351074,0.15964071452617645,0
33,0.15999579429626465,-0.4505855441093445,-19.745019912719727,-0.4228789508342743,20.054964065551758,0.5880637764930725,2.4694857597351074,-0.15964071452617645,0.0,0.0,0.0,0.0,0.0,0.0,0.0,-0.44250014067446525,0.010696485090973002,-0.24064536307942933,0.2575928932574881,-0.0062027065726576736,0.10028080834804841,-0.16742632917523445,1.213646918309362,-0.22016917053440158,-0.007371782597951908,-2.604052047829879,-0.10896852396067043,2.4681409878086713,0.8264610921459065,1.2134413937687574,-0.2202432315892585,-0.0075118285948192216,-2.6038483821997875,-0.10888392708698907,2.4681821257803174,0.826474908251239,0.00013329200588845034,0.0006137836522626955,-0.00045562508967961945,-0.0004390519976815756,-0.00012126266818049149,-0.00022438672786149303,-0.0002655633088867526,0.0,0.0,0.0,0.0,0.0,0.0,0.0,-0.00020552454060474012,-7.406105485691095e-05,-0.00014004599686731362,0.000203665630091443,8.459687368135571e-05,4.113797164606581e-05,1.3816105332575823e-05,-0.00013329200588845034,-0.0006137836522626955,0.00045562508967961945,0.0004390519976815756,0.00012126266818049149,0.00022438672786149303,0.0002655633088867526,0.4505855441093445,19.745019912719727,0.4228789508342743,-20.054964065551758,-0.5880637764930725,-2.4694857597351074,0.15964071452617645,0
34,0.16518712043762207,-0.4783565402030945,-19.745019912719727,-0.4228789508342743,20.082735061645508,0.5697532296180725,2.4694857597351074,-0.14590780436992645,0.0,0.0,0.0,0.0,0.0,0.0,0.0,-0.44459623178108637,0.010323925557885857,-0.24477248462110984,0.26283721102340263,-0.005336124778263422,0.10014742827545225,-0.16656643340738425,1.2136488671511931,-0.22016917053440158,-0.007371793962170968,-2.60405399667171,-0.10896671315336796,2.4681406347532246,0.8264627451634432,1.2134413937687574,-0.2202432315892585,-0.0075118285948192216,-2.6038483821997875,-0.10888392708698907,2.4681821257803174,0.826474908251239,0.0007925621060508642,0.0009963096586354152,-0.0004433317429918041,-0.0006755765279551237,0.0003529921491584537,5.746813589482461e-05,-0.0009279192656680955,0.0,0.0,0.0,0.0,0.0,0.0,0.0,-0.0002074733824357633,-7.406105485691095e-05,-0.00014003463264825391,0.00020561447192246618,8.278606637888986e-05,4.1491027092721566e-05,1.2163087795835636e-05,-0.0007925621060508642,-0.0009963096586354152,0.0004433317429918041,0.0006755765279551237,-0.0003529921491584537,-5.746813589482461e-05,0.0009279192656680955,0.4783565402030945,19.745019912719727,0.4228789508342743,-20.082735061645508,-0.5697532296180725,-2.4694857597351074,0.14590780436992645,0
35,0.1699991226196289,-0.4783565402030945,-19.745019912719727,-0.4228789508342743,20.082735061645508,0.5697532296180725,2.4694857597351074,-0.14590780436992645,0.0,0.0,0.0,0.0,0.0,0.0,0.0,-0.44459623178108637,0.010323925557885857,-0.24477248462110984,0.26283721102340263,-0.005336124778263422,0.10014742827545225,-0.16656643340738425,1.2136488671511931,-0.22016917053440158,-0.007371793962170968,-2.60405399667171,-0.10896671315336796,2.4681406347532246,0.8264627451634432,1.2134413937687574,-0.2202432315892585,-0.0075118285948192216,-2.6038483821997875,-0.10888392708698907,2.4681821257803174,0.826474908251239,0.0007925621060508642,0.0009963096586354152,-0.0004433317429918041,-0.0006755765279551237,0.0003529921491584537,5.746813589482461e-05,-0.0009279192656680955,0.0,0.0,0.0,0.0,0.0,0.0,0.0,-0.0002074733824357633,-7.406105485691095e-05,-0.00014003463264825391,0.00020561447192246618,8.278606637888986e-05,4.1491027092721566e-05,1.2163087795835636e-05,-0.0007925621060508642,-0.0009963096586354152,0.0004433317429918041,0.0006755765279551237,-0.0003529921491584537,-5.746813589482461e-05,0.0009279192656680955,0.4783565402030945,19.745019912719727,0.4228789508342743,-20.082735061645508,-0.5697532296180725,-2.4694857597351074,0.14590780436992645,0
36,0.1750016212463379,-0.4783565402030945,-19.717248916625977,-0.4982573688030243,20.054964065551758,0.5816550850868225,2.4758944511413574,-0.15964071452617645,0.0,0.0,0.0,0.0,0.0,0.0,0.0,-0.44265823452173947,0.012112395234562595,-0.2423932691644273,0.26264939126023423,-0.005464921347072846,0.09975825844337913,-0.16673187653147606,1.2136488671511931,-0.2201710402713029,-0.007366505223016388,-2.604052047829879,-0.10897091266591996,2.468143454640003,0.8264642710602942,1.2134413937687574,-0.2202432315892585,-0.0075118285948192216,-2.6038483821997875,-0.10888392708698907,2.4681821257803174,0.826474908251239,0.0010417704107238922,9.794826902574885e-05,0.0014958569795337022,-0.0001270826972237476,-0.00013632736155726733,-0.00019140609220273192,-0.000509545795620798,0.0,0.0,0.0,0.0,0.0,0.0,0.0,-0.0002074733824357633,-7.219131795557776e-05,-0.00014532337180283347,0.000203665630091443,8.69855789308871e-05,3.8671140314416874e-05,1.063719094485105e-05,-0.0010417704107238922,-9.794826902574885e-05,-0.0014958569795337022,0.0001270826972237476,0.00013632736155726733,0.00019140609220273192,0.000509545795620798,0.4783565402030945,19.717248916625977,0.4982573688030243,-20.054964065551758,-0.5816550850868225,-2.4758944511413574,0.15964071452617645,0
37,0.18001770973205566,-0.4783565402030945,-19.717248916625977,-0.4982573688030243,20.054964065551758,0.5816550850868225,2.4758944511413574,-0.15964071452617645,0.0,0.0,0.0,0.0,0.0,0.0,0.0,-0.44265823452173947,0.012112395234562595,-0.2423932691644273,0.26264939126023423,-0.005464921347072846,0.09975825844337913,-0.16673187653147606,1.2136488671511931,-0.2201710402713029,-0.007366505223016388,-2.604052047829879,-0.10897091266591996,2.468143454640003,0.8264642710602942,1.2134413937687574,-0.2202432315892585,-0.0075118285948192216,-2.6038483821997875,-0.10888392708698907,2.4681821257803174,0.826474908251239,0.0010417704107238922,9.794826902574885e-05,0.0014958569795337022,-0.0001270826972237476,-0.00013632736155726733,-0.00019140609220273192,-0.000509545795620798,0.0,0.0,0.0,0.0,0.0,0.0,0.0,-0.0002074733824357633,-7.219131795557776e-05,-0.00014532337180283347,0.000203665630091443,8.69855789308871e-05,3.8671140314416874e-05,1.063719094485105e-05,-0.0010417704107238922,-9.794826902574885e-05,-0.0014958569795337022,0.0001270826972237476,0.00013632736155726733,0.00019140609220273192,0.000509545795620798,0.4783565402030945,19.717248916625977,0.4982573688030243,-20.054964065551758,-0.5816550850868225,-2.4758944511413574,0.15964071452617645,0
38,0.18500542640686035,-0.4267818331718445,-19.717248916625977,-0.4466826617717743,20.054964065551758,0.5816550850868225,2.4758944511413574,-0.13217489421367645,0.0,0.0,0.0,0.0,0.0,0.0,0.0,-0.44066862652666156,0.009264894319248183,-0.2434876596647302,0.2666594747235734,-0.005873432911658119,0.10055086762823606,-0.16698572056231936,1.213645247873507,-0.22017111937578615,-0.007372505892315482,-2.604052047829879,-0.10896804895888143,2.46814133538368,0.8264612193024821,1.2134413937687574,-0.2202432315892585,-0.0075118285948192216,-2.6038483821997875,-0.10888392708698907,2.4681821257803174,0.826474908251239,-0.0003065151082730217,-0.0005011525649850704,7.631701312542061e-05,-0.0004542908746380483,-0.0002712648529996775,-0.00016498233934074966,-0.00160091770891821,0.0,0.0,0.0,0.0,0.0,0.0,0.0,-0.00020385410474954568,-7.21122134723362e-05,-0.00013932270250373996,0.000203665630091443,8.412187189235643e-05,4.079039663729134e-05,1.3688948756973573e-05,0.0003065151082730217,0.0005011525649850704,-7.631701312542061e-05,0.0004542908746380483,0.0002712648529996775,0.00016498233934074966,0.00160091770891821,0.4267818331718445,19.717248916625977,0.4466826617717743,-20.054964065551758,-0.5816550850868225,-2.4758944511413574,0.13217489421367645,0
39,0.18999505043029785,-0.4267818331718445,-19.717248916625977,-0.4466826617717743,20.054964065551758,0.5816550850868225,2.4758944511413574,-0.13217489421367645,0.0,0.0,0.0,0.0,0.0,0.0,0.0,-0.44066862652666156,0.009264894319248183,-0.2434876596647302,0.2666594747235734,-0.005873432911658119,0.10055086762823606,-0.16698572056231936,1.213645247873507,-0.22017111937578615,-0.007372505892315482,-2.604052047829879,-0.10896804895888143,2.46814133538368,0.8264612193024821,1.2134413937687574,-0.2202432315892585,-0.0075118285948192216,-2.6038483821997875,-0.10888392708698907,2.4681821257803174,0.826474908251239,-0.0003065151082730217,-0.0005011525649850704,7.631701312542061e-05,-0.0004542908746380483,-0.0002712648529996775,-0.00016498233934074966,-0.00160091770891821,0.0,0.0,0.0,0.0,0.0,0.0,0.0,-0.00020385410474954568,-7.21122134723362e-05,-0.00013932270250373996,0.000203665630091443,8.412187189235643e-05,4.079039663729134e-05,1.3688948756973573e-05,0.0003065151082730217,0.0005011525649850704,-7.631701312542061e-05,0.0004542908746380483,0.0002712648529996775,0.00016498233934074966,0.00160091770891821,0.4267818331718445,19.717248916625977,0.4466826617717743,-20.054964065551758,-0.5816550850868225,-2.4758944511413574,0.13217489421367645,0
40,0.19495701789855957,-0.4267818331718445,-19.717248916625977,-0.4704863727092743,20.054964065551758,0.5761619210243225,2.4630770683288574,-0.16604940593242645,0.0,0.0,0.0,0.0,0.0,0.0,0.0,-0.4386030309530839,0.016557378454019073,-0.2426167421062643,0.26516580106418286,-0.005962645236411267,0.10080409054456023,-0.16696844739195313,1.213645247873507,-0.2201711193762327,-0.007368467743908852,-2.604052047829879,-0.10897172751586871,2.4681417129818133,0.8264649831371175,1.2134413937687574,-0.2202432315892585,-0.0075118285948192216,-2.6038483821997875,-0.10888392708698907,2.4681821257803174,0.826474908251239,-0.00029247426833950234,0.00010118175254226229,0.0008944004605593167,7.657686110799587e-05,0.0001635991612077054,0.00043303497708556757,0.00039585980962362485,0.0,0.0,0.0,0.0,0.0,0.0,0.0,-0.00020385410474954568,-7.211221302577675e-05,-0.00014336085091036944,0.000203665630091443,8.780042887963913e-05,4.0412798504085856e-05,9.925114121567269e-06,0.00029247426833950234,-0.00010118175254226229,-0.0008944004605593167,-7.657686110799587e-05,-0.0001635991612077054,-0.00043303497708556757,-0.00039585980962362485,0.4267818331718445,19.717248916625977,0.4704863727092743,-20.054964065551758,-0.5761619210243225,-2.4630770683288574,0.16604940593242645,0
41,0.2003326416015625,-0.4267818331718445,-19.717248916625977,-0.4704863727092743,20.054964065551758,0.5761619210243225,2.4630770683288574,-0.16604940593242645,0.0,0.0,0.0,0.0,0.0,0.0,0.0,-0.4386030309530839,0.016557378454019073,-0.2426167421062643,0.26516580106418286,-0.005962645236411267,0.10080409054456023,-0.16696844739195313,1.213645247873507,-0.2201711193762327,-0.007368467743908852,-2.604052047829879,-0.10897172751586871,2.4681417129818133,0.8264649831371175,1.2134413937687574,-0.2202432315892585,-0.0075118285948192216,-2.6038483821997875,-0.10888392708698907,2.4681821257803174,0.826474908251239,-0.00029247426833950234,0.00010118175254226229,0.0008944004605593167,7.657686110799587e-05,0.0001635991612077054,0.00043303497708556757,0.00039585980962362485,0.0,0.0,0.0,0.0,0.0,0.0,0.0,-0.00020385410474954568,-7.211221302577675e-05,-0.00014336085091036944,0.000203665630091443,8.780042887963913e-05,4.0412798504085856e-05,9.925114121567269e-06,0.00029247426833950234,-0.00010118175254226229,-0.0008944004605593167,-7.657686110799587e-05,-0.0001635991612077054,-0.00043303497708556757,-0.00039585980962362485,0.4267818331718445,19.717248916625977,0.4704863727092743,-20.054964065551758,-0.5761619210243225,-2.4630770683288574,0.16604940593242645,0
42,0.20499920845031738,-0.4267818331718445,-19.717248916625977,-0.3990752398967743,20.054964065551758,0.5816550850868225,2.4694857597351074,-0.19351522624492645,0.0,0.0,0.0,0.0,0.0,0.0,0.0,-0.44068931602441846,0.014042486124182975,-0.24425675547965395,0.2628774770247435,-0.0056904518470867055,0.10022023652138279,-0.16567365751088303,1.213645247873507,-0.2201711193400622,-0.007373777438198694,-2.604052047829879,-0.10897197734544863,2.4681406781983,0.82646803489493,1.2134413937687574,-0.2202432315892585,-0.0075118285948192216,-2.6038483821997875,-0.10888392708698907,2.4681821257803174,0.826474908251239,-0.0006509914419624518,-0.0003436068685711882,-0.000907109089957765,-0.0008395707967518548,-1.9020226146533402e-05,0.00025228587302317186,0.001078410367207791,0.0,0.0,0.0,0.0,0.0,0.0,0.0,-0.00020385410474954568,-7.211224919628778e-05,-0.00013805115662052746,0.000203665630091443,8.805025845955161e-05,4.144758201718446e-05,6.8733563090006555e-06,0.0006509914419624518,0.0003436068685711882,0.000907109089957765,0.0008395707967518548,1.9020226146533402e-05,-0.00025228587302317186,-0.001078410367207791,0.4267818331718445,19.717248916625977,0.3990752398967743,-20.054964065551758,-0.5816550850868225,-2.4694857597351074,0.19351522624492645,0
43,0.21004414558410645,-0.4267818331718445,-19.717248916625977,-0.3990752398967743,20.054964065551758,0.5816550850868225,2.4694857597351074,-0.19351522624492645,0.0,0.0,0.0,0.0,0.0,0.0,0.0,-0.44068931602441846,0.014042486124182975,-0.24425675547965395,0.2628774770247435,-0.0056904518470867055,0.10022023652138279,-0.16567365751088303,1.213645247873507,-0.2201711193400622,-0.007373777438198694,-2.604052047829879,-0.10897197734544863,2.4681406781983,0.82646803489493,1.2134413937687574,-0.2202432315892585,-0.0075118285948192216,-2.6038483821997875,-0.10888392708698907,2.4681821257803174,0.826474908251239,-0.0006509914419624518,-0.0003436068685711882,-0.000907109089957765,-0.0008395707967518548,-1.9020226146533402e-05,0.00025228587302317186,0.001078410367207791,0.0,0.0,0.0,0.0,0.0,0.0,0.0,-0.00020385410474954568,-7.211224919628778e-05,-0.00013805115662052746,0.000203665630091443,8.805025845955161e-05,4.144758201718446e-05,6.8733563090006555e-06,0.0006509914419624518,0.0003436068685711882,0.000907109089957765,0.0008395707967518548,1.9020226146533402e-05,-0.00025228587302317186,-0.001078410367207791,0.4267818331718445,19.717248916625977,0.3990752398967743,-20.054964065551758,-0.5816550850868225,-2.4694857597351074,0.19351522624492645,0
44,0.21504616737365723,-0.3752071261405945,-19.717248916625977,-0.4466826617717743,20.007356643676758,0.5761619210243225,2.4630770683288574,-0.13858358561992645,0.0,0.0,0.0,0.0,0.0,0.0,0.0,-0.4435489258408747,0.014248484355312592,-0.24157996121858838,0.26258140646065903,-0.00529897066428754,0.10009433387233162,-0.16573530869690858,1.2136416285958205,-0.22017104027130285,-0.007370361337760388,-2.6040487069581686,-0.10897146265654413,2.468144526065535,0.826461931379305,1.2134413937687574,-0.2202432315892585,-0.0075118285948192216,-2.6038483821997875,-0.10888392708698907,2.4681821257803174,0.826474908251239,-0.0017388787319920999,-0.00025480681646776194,5.7023409552184456e-05,0.0005760934881406931,-0.00012397634740320492,0.00025135309988053473,-0.0011549647468593132,0.0,0.0,0.0,0.0,0.0,0.0,0.0,-0.00020023482706310602,-7.219131795563327e-05,-0.00014146725705883358,0.00020032475838105412,8.753556955505559e-05,3.759971478256574e-05,1.297687193402286e-05,0.0017388787319920999,0.00025480681646776194,-5.7023409552184456e-05,-0.0005760934881406931,0.00012397634740320492,-0.00025135309988053473,0.0011549647468593132,0.3752071261405945,19.717248916625977,0.4466826617717743,-20.007356643676758,-0.5761619210243225,-2.4630770683288574,0.13858358561992645,0
45,0.21999359130859375,-0.3752071261405945,-19.717248916625977,-0.4466826617717743,20.007356643676758,0.5761619210243225,2.4630770683288574,-0.13858358561992645,0.0,0.0,0.0,0.0,0.0,0.0,0.0,-0.4435489258408747,0.014248484355312592,-0.24157996121858838,0.26258140646065903,-0.00529897066428754,0.10009433387233162,-0.16573530869690858,1.2136416285958205,-0.22017104027130285,-0.007370361337760388,-2.6040487069581686,-0.10897146265654413,2.468144526065535,0.826461931379305,1.2134413937687574,-0.2202432315892585,-0.0075118285948192216,-2.6038483821997875,-0.10888392708698907,2.4681821257803174,0.826474908251239,-0.0017388787319920999,-0.00025480681646776194,5.7023409552184456e-05,0.0005760934881406931,-0.00012397634740320492,0.00025135309988053473,-0.0011549647468593132,0.0,0.0,0.0,0.0,0.0,0.0,0.0,-0.00020023482706310602,-7.219131795563327e-05,-0.00014146725705883358,0.00020032475838105412,8.753556955505559e-05,3.759971478256574e-05,1.297687193402286e-05,0.0017388787319920999,0.00025480681646776194,-5.7023409552184456e-05,-0.0005760934881406931,0.00012397634740320492,-0.00025135309988053473,0.0011549647468593132,0.3752071261405945,19.717248916625977,0.4466826617717743,-20.007356643676758,-0.5761619210243225,-2.4630770683288574,0.13858358561992645,0
46,0.22500038146972656,-0.3752071261405945,-19.717248916625977,-0.4466826617717743,20.007356643676758,0.5761619210243225,2.4630770683288574,-0.13858358561992645,0.0,0.0,0.0,0.0,0.0,0.0,0.0,-0.4435489258408747,0.014248484355312592,-0.24157996121858838,0.26258140646065903,-0.00529897066428754,0.10009433387233162,-0.16573530869690858,1.2136416285958205,-0.22017104027130285,-0.007370361337760388,-2.6040487069581686,-0.10897146265654413,2.468144526065535,0.826461931379305,1.2134413937687574,-0.2202432315892585,-0.0075118285948192216,-2.6038483821997875,-0.10888392708698907,2.4681821257803174,0.826474908251239,-0.0017388787319920999,-0.00025480681646776194,5.7023409552184456e-05,0.0005760934881406931,-0.00012397634740320492,0.00025135309988053473,-0.0011549647468593132,0.0,0.0,0.0,0.0,0.0,0.0,0.0,-0.00020023482706310602,-7.219131795563327e-05,-0.00014146725705883358,0.00020032475838105412,8.753556955505559e-05,3.759971478256574e-05,1.297687193402286e-05,0.0017388787319920999,0.00025480681646776194,-5.7023409552184456e-05,-0.0005760934881406931,0.00012397634740320492,-0.00025135309988053473,0.0011549647468593132,0.3752071261405945,19.717248916625977,0.4466826617717743,-20.007356643676758,-0.5761619210243225,-2.4630770683288574,0.13858358561992645,0
47,0.22995519638061523,-0.3752071261405945,-19.717248916625977,-0.4466826617717743,20.007356643676758,0.5761619210243225,2.4630770683288574,-0.13858358561992645,0.0,0.0,0.0,0.0,0.0,0.0,0.0,-0.4435489258408747,0.014248484355312592,-0.24157996121858838,0.26258140646065903,-0.00529897066428754,0.10009433387233162,-0.16573530869690858,1.2136416285958205,-0.22017104027130285,-0.007370361337760388,-2.6040487069581686,-0.10897146265654413,2.468144526065535,0.826461931379305,1.2134413937687574,-0.2202432315892585,-0.0075118285948192216,-2.6038483821997875,-0.10888392708698907,2.4681821257803174,0.826474908251239,-0.0017388787319920999,-0.00025480681646776194,5.7023409552184456e-05,0.0005760934881406931,-0.00012397634740320492,0.00025135309988053473,-0.0011549647468593132,0.0,0.0,0.0,0.0,0.0,0.0,0.0,-0.00020023482706310602,-7.219131795563327e-05,-0.00014146725705883358,0.00020032475838105412,8.753556955505559e-05,3.759971478256574e-05,1.297687193402286e-05,0.0017388787319920999,0.00025480681646776194,-5.7023409552184456e-05,-0.0005760934881406931,0.00012397634740320492,-0.00025135309988053473,0.0011549647468593132,0.3752071261405945,19.717248916625977,0.4466826617717743,-20.007356643676758,-0.5761619210243225,-2.4630770683288574,0.13858358561992645,0
48,0.23499584197998047,-0.4505855441093445,-19.717248916625977,-0.3990752398967743,20.054964065551758,0.5761619210243225,2.4630770683288574,-0.13217489421367645,0.0,0.0,0.0,0.0,0.0,0.0,0.0,-0.4404438968960912,0.007484579184761006,-0.2405231357160541,0.2671742801360156,-0.005612577787841141,0.10081688688827864,-0.16607097589725547,1.213646918309362,-0.22017109300747623,-0.007373701127833932,-2.604052047829879,-0.10896755490209466,2.4681445663521258,0.8264612193024821,1.2134413937687574,-0.2202432315892585,-0.0075118285948192216,-2.6038483821997875,-0.10888392708698907,2.4681821257803174,0.826474908251239,0.00015983983342035294,-0.0005651091100917432,-0.0005638237308163721,-0.0003181255268173709,0.00017964705363223237,0.0003087242563298015,-0.001616616912654728,0.0,0.0,0.0,0.0,0.0,0.0,0.0,-0.00020552454060474012,-7.213858178226062e-05,-0.0001381274669852899,0.000203665630091443,8.362781510558304e-05,3.755942819161362e-05,1.3688948756973573e-05,-0.00015983983342035294,0.0005651091100917432,0.0005638237308163721,0.0003181255268173709,-0.00017964705363223237,-0.0003087242563298015,0.001616616912654728,0.4505855441093445,19.717248916625977,0.3990752398967743,-20.054964065551758,-0.5761619210243225,-2.4630770683288574,0.13217489421367645,0
49,0.24001026153564453,-0.4505855441093445,-19.717248916625977,-0.3990752398967743,20.054964065551758,0.5761619210243225,2.4630770683288574,-0.13217489421367645,0.0,0.0,0.0,0.0,0.0,0.0,0.0,-0.4404438968960912,0.007484579184761006,-0.2405231357160541,0.2671742801360156,-0.005612577787841141,0.10081688688827864,-0.16607097589725547,1.213646918309362,-0.22017109300747623,-0.007373701127833932,-2.604052047829879,-0.10896755490209466,2.4681445663521258,0.8264612193024821,1.2134413937687574,-0.2202432315892585,-0.0075118285948192216,-2.6038483821997875,-0.10888392708698907,2.4681821257803174,0.826474908251239,0.00015983983342035294,-0.0005651091100917432,-0.0005638237308163721,-0.0003181255268173709,0.00017964705363223237,0.0003087242563298015,-0.001616616912654728,0.0,0.0,0.0,0.0,0.0,0.0,0.0,-0.00020552454060474012,-7.213858178226062e-05,-0.0001381274669852899,0.000203665630091443,8.362781510558304e-05,3.755942819161362e-05,1.3688948756973573e-05,-0.00015983983342035294,0.0005651091100917432,0.0005638237308163721,0.0003181255268173709,-0.00017964705363223237,-0.0003087242563298015,0.001616616912654728,0.4505855441093445,19.717248916625977,0.3990752398967743,-20.054964065551758,-0.5761619210243225,-2.4630770683288574,0.13217489421367645,0
50,0.2449934482574463,-0.4505855441093445,-19.745019912719727,-0.4228789508342743,20.007356643676758,0.5697532296180725,2.4694857597351074,-0.13858358561992645,0.0,0.0,0.0,0.0,0.0,0.0,0.0,-0.43992556363176744,0.013212605355391182,-0.23990968770186683,0.26028559974516147,-0.0053070302840983455,0.09993739067080556,-0.16666376149043716,1.213646918309362,-0.22016917053425272,-0.007371785195852907,-2.6040487069581686,-0.1089707335368017,2.46814075234547,0.8264619706251617,1.2134413937687574,-0.2202432315892585,-0.0075118285948192216,-2.6038483821997875,-0.10888392708698907,2.4681821257803174,0.826474908251239,0.000444683571348729,0.0003532428398578066,-0.00033988512247924235,0.00046632465271757124,0.0004501114787316187,-1.1862439929627108e-05,-0.0011640540281834097,0.0,0.0,0.0,0.0,0.0,0.0,0.0,-0.00020552454060474012,-7.40610550057641e-05,-0.00014004339896631426,0.00020032475838105412,8.680644981262642e-05,4.1373434847447044e-05,1.2937626077347275e-05,-0.000444683571348729,-0.0003532428398578066,0.00033988512247924235,-0.00046632465271757124,-0.0004501114787316187,1.1862439929627108e-05,0.0011640540281834097,0.4505855441093445,19.745019912719727,0.4228789508342743,-20.007356643676758,-0.5697532296180725,-2.4694857597351074,0.13858358561992645,0
51,0.2500181198120117,-0.4505855441093445,-19.745019912719727,-0.4228789508342743,20.007356643676758,0.5697532296180725,2.4694857597351074,-0.13858358561992645,0.0,0.0,0.0,0.0,0.0,0.0,0.0,-0.43992556363176744,0.013212605355391182,-0.23990968770186683,0.26028559974516147,-0.0053070302840983455,0.09993739067080556,-0.16666376149043716,1.213646918309362,-0.22016917053425272,-0.007371785195852907,-2.6040487069581686,-0.1089707335368017,2.46814075234547,0.8264619706251617,1.2134413937687574,-0.2202432315892585,-0.0075118285948192216,-2.6038483821997875,-0.10888392708698907,2.4681821257803174,0.826474908251239,0.000444683571348729,0.0003532428398578066,-0.00033988512247924235,0.00046632465271757124,0.0004501114787316187,-1.1862439929627108e-05,-0.0011640540281834097,0.0,0.0,0.0,0.0,0.0,0.0,0.0,-0.00020552454060474012,-7.40610550057641e-05,-0.00014004339896631426,0.00020032475838105412,8.680644981262642e-05,4.1373434847447044e-05,1.2937626077347275e-05,-0.000444683571348729,-0.0003532428398578066,0.00033988512247924235,-0.00046632465271757124,-0.0004501114787316187,1.1862439929627108e-05,0.0011640540281834097,0.4505855441093445,19.745019912719727,0.4228789508342743,-20.007356643676758,-0.5697532296180725,-2.4694857597351074,0.13858358561992645,0
52,0.2550203800201416,-0.4783565402030945,-19.745019912719727,-0.4228789508342743,20.031160354614258,0.5761619210243225,2.4566683769226074,-0.20724813640117645,0.0,0.0,0.0,0.0,0.0,0.0,0.0,-0.4424493196361106,0.00879386684271001,-0.24126726247406172,0.26150217103607515,-0.004892335243389464,0.10023756474485826,-0.1663812276210475,1.2136488671511931,-0.22016917053440158,-0.007371782704900989,-2.6040503773940236,-0.10896708601238679,2.4681420589068703,0.8264695602899842,1.2134413937687574,-0.2202432315892585,-0.0075118285948192216,-2.6038483821997875,-0.10888392708698907,2.4681821257803174,0.826474908251239,0.0009610641927442825,0.0002747154718252713,-0.0003951504637477315,0.0001379049024400993,0.00015658370326890116,0.0005038639783811534,0.006378187138459198,0.0,0.0,0.0,0.0,0.0,0.0,0.0,-0.0002074733824357633,-7.406105485691095e-05,-0.00014004588991823295,0.00020199519423602652,8.315892539771663e-05,4.0066873447042184e-05,5.347961254842382e-06,-0.0009610641927442825,-0.0002747154718252713,0.0003951504637477315,-0.0001379049024400993,-0.00015658370326890116,-0.0005038639783811534,-0.006378187138459198,0.4783565402030945,19.745019912719727,0.4228789508342743,-20.031160354614258,-0.5761619210243225,-2.4566683769226074,0.20724813640117645,0
53,0.2599513530731201,-0.4783565402030945,-19.745019912719727,-0.4228789508342743,20.031160354614258,0.5761619210243225,2.4566683769226074,-0.20724813640117645,0.0,0.0,0.0,0.0,0.0,0.0,0.0,-0.4424493196361106,0.00879386684271001,-0.24126726247406172,0.26150217103607515,-0.004892335243389464,0.10023756474485826,-0.1663812276210475,1.2136488671511931,-0.22016917053440158,-0.007371782704900989,-2.6040503773940236,-0.10896708601238679,2.4681420589068703,0.8264695602899842,1.2134413937687574,-0.2202432315892585,-0.0075118285948192216,-2.6038483821997875,-0.10888392708698907,2.4681821257803174,0.826474908251239,0.0009610641927442825,0.0002747154718252713,-0.0003951504637477315,0.0001379049024400993,0.00015658370326890116,0.0005038639783811534,0.006378187138459198,0.0,0.0,0.0,0.0,0.0,0.0,0.0,-0.0002074733824357633,-7.406105485691095e-05,-0.00014004588991823295,0.00020199519423602652,8.315892539771663e-05,4.0066873447042184e-05,5.347961254842382e-06,-0.0009610641927442825,-0.0002747154718252713,0.0003951504637477315,-0.0001379049024400993,-0.00015658370326890116,-0.0005038639783811534,-0.006378187138459198,0.4783565402030945,19.745019912719727,0.4228789508342743,-20.031160354614258,-0.5761619210243225,-2.4566683769226074,0.20724813640117645,0
54,0.26494598388671875,-0.4505855441093445,-19.768823623657227,-0.4466826617717743,20.031160354614258,0.5697532296180725,2.4758944511413574,-0.20083944499492645,0.0,0.0,0.0,0.0,0.0,0.0,0.0,-0.4418677909657046,0.009168759935033691,-0.23924836458326673,0.26049454605912925,-0.005294932075247716,0.09995223205043056,-0.16625984322908005,1.213646918309362,-0.22016750009854633,-0.007372252277868853,-2.6040503773940236,-0.10896995029239002,2.4681434677757883,0.8264688486970105,1.2134413937687574,-0.2202432315892585,-0.0075118285948192216,-2.6038483821997875,-0.10888392708698907,2.4681821257803174,0.826474908251239,0.00021467208073666413,0.0011332436487593333,-1.56010437682447e-05,0.00019454400983698317,0.0004925403152103369,-3.0126966171835048e-05,0.0013217058670227809,0.0,0.0,0.0,0.0,0.0,0.0,0.0,-0.00020552454060474012,-7.57314907121609e-05,-0.0001395763169503685,0.00020199519423602652,8.602320540095076e-05,3.8658004529068535e-05,6.059554228499131e-06,-0.00021467208073666413,-0.0011332436487593333,1.56010437682447e-05,-0.00019454400983698317,-0.0004925403152103369,3.0126966171835048e-05,-0.0013217058670227809,0.4505855441093445,19.768823623657227,0.4466826617717743,-20.031160354614258,-0.5697532296180725,-2.4758944511413574,0.20083944499492645,0
55,0.2699923515319824,-0.4505855441093445,-19.768823623657227,-0.4466826617717743,20.031160354614258,0.5697532296180725,2.4758944511413574,-0.20083944499492645,0.0,0.0,0.0,0.0,0.0,0.0,0.0,-0.4418677909657046,0.009168759935033691,-0.23924836458326673,0.26049454605912925,-0.005294932075247716,0.09995223205043056,-0.16625984322908005,1.213646918309362,-0.22016750009854633,-0.007372252277868853,-2.6040503773940236,-0.10896995029239002,2.4681434677757883,0.8264688486970105,1.2134413937687574,-0.2202432315892585,-0.0075118285948192216,-2.6038483821997875,-0.10888392708698907,2.4681821257803174,0.826474908251239,0.00021467208073666413,0.0011332436487593333,-1.56010437682447e-05,0.00019454400983698317,0.0004925403152103369,-3.0126966171835048e-05,0.0013217058670227809,0.0,0.0,0.0,0.0,0.0,0.0,0.0,-0.00020552454060474012,-7.57314907121609e-05,-0.0001395763169503685,0.00020199519423602652,8.602320540095076e-05,3.8658004529068535e-05,6.059554228499131e-06,-0.00021467208073666413,-0.0011332436487593333,1.56010437682447e-05,-0.00019454400983698317,-0.0004925403152103369,3.0126966171835048e-05,-0.0013217058670227809,0.4505855441093445,19.768823623657227,0.4466826617717743,-20.031160354614258,-0.5697532296180725,-2.4758944511413574,0.20083944499492645,0
56,0.274991512298584,-0.4505855441093445,-19.745019912719727,-0.4228789508342743,20.054964065551758,0.5642600655555725,2.4694857597351074,-0.17978231608867645,0.0,0.0,0.0,0.0,0.0,0.0,0.0,-0.44149643291588925,0.010305921491331232,-0.23901039111861833,0.25598341031849436,-0.005451807849062465,0.09983776584524647,-0.167312319340187,1.213646918309362,-0.22016917053440158,-0.007373939134670873,-2.604052047829879,-0.10896683006897054,2.4681406491857336,0.8264665090160237,1.2134413937687574,-0.2202432315892585,-0.0075118285948192216,-2.6038483821997875,-0.10888392708698907,2.4681821257803174,0.826474908251239,0.0002738018535924851,9.169015766081916e-05,-0.0003279266319698131,-0.0008758235098784989,0.00048323222516431633,4.7492294017973744e-05,0.00023187860840301897,0.0,0.0,0.0,0.0,0.0,0.0,0.0,-0.00020552454060474012,-7.406105485691095e-05,-0.00013788946014834866,0.000203665630091443,8.290298198146417e-05,4.1476594583755855e-05,8.399235215339473e-06,-0.0002738018535924851,-9.169015766081916e-05,0.0003279266319698131,0.0008758235098784989,-0.00048323222516431633,-4.7492294017973744e-05,-0.00023187860840301897,0.4505855441093445,19.745019912719727,0.4228789508342743,-20.054964065551758,-0.5642600655555725,-2.4694857597351074,0.17978231608867645,0
57,0.28014159202575684,-0.4505855441093445,-19.745019912719727,-0.4228789508342743,20.054964065551758,0.5642600655555725,2.4694857597351074,-0.17978231608867645,0.0,0.0,0.0,0.0,0.0,0.0,0.0,-0.44149643291588925,0.010305921491331232,-0.23901039111861833,0.25598341031849436,-0.005451807849062465,0.09983776584524647,-0.167312319340187,1.213646918309362,-0.22016917053440158,-0.007373939134670873,-2.604052047829879,-0.10896683006897054,2.4681406491857336,0.8264665090160237,1.2134413937687574,-0.2202432315892585,-0.0075118285948192216,-2.6038483821997875,-0.10888392708698907,2.4681821257803174,0.826474908251239,0.0002738018535924851,9.169015766081916e-05,-0.0003279266319698131,-0.0008758235098784989,0.00048323222516431633,4.7492294017973744e-05,0.00023187860840301897,0.0,0.0,0.0,0.0,0.0,0.0,0.0,-0.00020552454060474012,-7.406105485691095e-05,-0.00013788946014834866,0.000203665630091443,8.290298198146417e-05,4.1476594583755855e-05,8.399235215339473e-06,-0.0002738018535924851,-9.169015766081916e-05,0.0003279266319698131,0.0008758235098784989,-0.00048323222516431633,-4.7492294017973744e-05,-0.00023187860840301897,0.4505855441093445,19.745019912719727,0.4228789508342743,-20.054964065551758,-0.5642600655555725,-2.4694857597351074,0.17978231608867645,0
58,0.2850065231323242,-0.4505855441093445,-19.745019912719727,-0.3713042438030243,20.031160354614258,0.5816550850868225,2.4694857597351074,-0.17978231608867645,0.0,0.0,0.0,0.0,0.0,0.0,0.0,-0.4442009306286685,0.007162626736905798,-0.24023912531076055,0.26013548813839954,-0.005623816751222772,0.10018103028899004,-0.16859384591500207,1.213646918309362,-0.22016917053440158,-0.00737611174694296,-2.6040503773940236,-0.10897122815865723,2.4681407524888828,0.8264665090160237,1.2134413937687574,-0.2202432315892585,-0.0075118285948192216,-2.6038483821997875,-0.10888392708698907,2.4681821257803174,0.826474908251239,5.121897246116762e-05,0.00027816314302587267,-0.0016129106620249177,0.00012251217458890306,-0.00013945540527869594,-0.0001340469657722303,0.0009156577529110172,0.0,0.0,0.0,0.0,0.0,0.0,0.0,-0.00020552454060474012,-7.406105485691095e-05,-0.00013571684787626152,0.00020199519423602652,8.730107166815548e-05,4.137329143460988e-05,8.399235215339473e-06,-5.121897246116762e-05,-0.00027816314302587267,0.0016129106620249177,-0.00012251217458890306,0.00013945540527869594,0.0001340469657722303,-0.0009156577529110172,0.4505855441093445,19.745019912719727,0.3713042438030243,-20.031160354614258,-0.5816550850868225,-2.4694857597351074,0.17978231608867645,0
59,0.2900218963623047,-0.4505855441093445,-19.745019912719727,-0.3713042438030243,20.031160354614258,0.5816550850868225,2.4694857597351074,-0.17978231608867645,0.0,0.0,0.0,0.0,0.0,0.0,0.0,-0.4442009306286685,0.007162626736905798,-0.24023912531076055,0.26013548813839954,-0.005623816751222772,0.10018103028899004,-0.16859384591500207,1.213646918309362,-0.22016917053440158,-0.00737611174694296,-2.6040503773940236,-0.10897122815865723,2.4681407524888828,0.8264665090160237,1.2134413937687574,-0.2202432315892585,-0.0075118285948192216,-2.6038483821997875,-0.10888392708698907,2.4681821257803174,0.826474908251239,5.121897246116762e-05,0.00027816314302587267,-0.0016129106620249177,0.00012251217458890306,-0.00013945540527869594,-0.0001340469657722303,0.0009156577529110172,0.0,0.0,0.0,0.0,0.0,0.0,0.0,-0.00020552454060474012,-7.406105485691095e-05,-0.00013571684787626152,0.00020199519423602652,8.730107166815548e-05,4.137329143460988e-05,8.399235215339473e-06,-5.121897246116762e-05,-0.00027816314302587267,0.0016129106620249177,-0.00012251217458890306,0.00013945540527869594,0.0001340469657722303,-0.0009156577529110172,0.4505855441093445,19.745019912719727,0.3713042438030243,-20.031160354614258,-0.5816550850868225,-2.4694857597351074,0.17978231608867645,0
60,0.2950174808502197,-0.4267818331718445,-19.768823623657227,-0.4466826617717743,20.054964065551758,0.5761619210243225,2.4694857597351074,-0.20083944499492645,0.0,0.0,0.0,0.0,0.0,0.0,0.0,-0.446759520718883,0.004277940751438343,-0.24007173243803856,0.2613976478057072,-0.005630639499496446,0.10002345260571764,-0.16743195783756523,1.213645247873507,-0.22016750009854633,-0.007370120715993535,-2.604052047829879,-0.1089671211692879,2.4681406404045916,0.8264688486970133,1.2134413937687574,-0.2202432315892585,-0.0075118285948192216,-2.6038483821997875,-0.10888392708698907,2.4681821257803174,0.826474908251239,-0.001217290787950036,0.00033243668785625126,0.00037842348773333746,-0.0003815598169435543,0.0001844731938393071,0.0002376502414119379,0.0017325151789318043,0.0,0.0,0.0,0.0,0.0,0.0,0.0,-0.00020385410474954568,-7.57314907121609e-05,-0.0001417078788256863,0.000203665630091443,8.319408229882919e-05,4.1485375725791585e-05,6.0595542257235735e-06,0.001217290787950036,-0.00033243668785625126,-0.00037842348773333746,0.0003815598169435543,-0.0001844731938393071,-0.0002376502414119379,-0.0017325151789318043,0.4267818331718445,19.768823623657227,0.4466826617717743,-20.054964065551758,-0.5761619210243225,-2.4694857597351074,0.20083944499492645,0
61,0.3000302314758301,-0.4267818331718445,-19.768823623657227,-0.4466826617717743,20.054964065551758,0.5761619210243225,2.4694857597351074,-0.20083944499492645,0.0,0.0,0.0,0.0,0.0,0.0,0.0,-0.446759520718883,0.004277940751438343,-0.24007173243803856,0.2613976478057072,-0.005630639499496446,0.10002345260571764,-0.16743195783756523,1.213645247873507,-0.22016750009854633,-0.007370120715993535,-2.604052047829879,-0.1089671211692879,2.4681406404045916,0.8264688486970133,1.2134413937687574,-0.2202432315892585,-0.0075118285948192216,-2.6038483821997875,-0.10888392708698907,2.4681821257803174,0.826474908251239,-0.001217290787950036,0.00033243668785625126,0.00037842348773333746,-0.0003815598169435543,0.0001844731938393071,0.0002376502414119379,0.0017325151789318043,0.0,0.0,0.0,0.0,0.0,0.0,0.0,-0.00020385410474954568,-7.57314907121609e-05,-0.0001417078788256863,0.000203665630091443,8.319408229882919e-05,4.1485375725791585e-05,6.0595542257235735e-06,0.001217290787950036,-0.00033243668785625126,-0.00037842348773333746,0.0003815598169435543,-0.0001844731938393071,-0.0002376502414119379,-0.0017325151789318043,0.4267818331718445,19.768823623657227,0.4466826617717743,-20.054964065551758,-0.5761619210243225,-2.4694857597351074,0.20083944499492645,0
62,0.3050098419189453,-0.4505855441093445,-19.768823623657227,-0.4228789508342743,20.031160354614258,0.5816550850868225,2.4630770683288574,-0.17978231608867645,0.0,0.0,0.0,0.0,0.0,0.0,0.0,-0.43945029686974185,0.0058774497466860375,-0.2316474297998123,0.2630376859187269,-0.005746597010877803,0.10036624137198098,-0.16551893276338014,1.213646918309362,-0.22016750009854633,-0.0073739917730858825,-2.6040503773940236,-0.10896874385772468,2.468142447004117,0.8264665090160237,1.2134413937687574,-0.2202432315892585,-0.0075118285948192216,-2.6038483821997875,-0.10888392708698907,2.4681821257803174,0.826474908251239,0.0011408479733174804,0.0006808645556349163,-0.00026422888355034615,0.0006088089530080555,-7.310564654964295e-05,0.00022969139168397328,0.00088967478878005,0.0,0.0,0.0,0.0,0.0,0.0,0.0,-0.00020552454060474012,-7.57314907121609e-05,-0.00013783682173333905,0.00020199519423602652,8.481677073560179e-05,3.967877620025817e-05,8.399235215339473e-06,-0.0011408479733174804,-0.0006808645556349163,0.00026422888355034615,-0.0006088089530080555,7.310564654964295e-05,-0.00022969139168397328,-0.00088967478878005,0.4505855441093445,19.768823623657227,0.4228789508342743,-20.031160354614258,-0.5816550850868225,-2.4630770683288574,0.17978231608867645,0
63,0.3099701404571533,-0.4505855441093445,-19.768823623657227,-0.4228789508342743,20.031160354614258,0.5816550850868225,2.4630770683288574,-0.17978231608867645,0.0,0.0,0.0,0.0,0.0,0.0,0.0,-0.43945029686974185,0.0058774497466860375,-0.2316474297998123,0.2630376859187269,-0.005746597010877803,0.10036624137198098,-0.16551893276338014,1.213646918309362,-0.22016750009854633,-0.0073739917730858825,-2.6040503773940236,-0.10896874385772468,2.468142447004117,0.8264665090160237,1.2134413937687574,-0.2202432315892585,-0.0075118285948192216,-2.6038483821997875,-0.10888392708698907,2.4681821257803174,0.826474908251239,0.0011408479733174804,0.0006808645556349163,-0.00026422888355034615,0.0006088089530080555,-7.310564654964295e-05,0.00022969139168397328,0.00088967478878005,0.0,0.0,0.0,0.0,0.0,0.0,0.0,-0.00020552454060474012,-7.57314907121609e-05,-0.00013783682173333905,0.00020199519423602652,8.481677073560179e-05,3.967877620025817e-05,8.399235215339473e-06,-0.0011408479733174804,-0.0006808645556349163,0.00026422888355034615,-0.0006088089530080555,7.310564654964295e-05,-0.00022969139168397328,-0.00088967478878005,0.4505855441093445,19.768823623657227,0.4228789508342743,-20.031160354614258,-0.5816550850868225,-2.4630770683288574,0.17978231608867645,0
64,0.3149552345275879,-0.4267818331718445,-19.717248916625977,-0.4982573688030243,20.054964065551758,0.5697532296180725,2.4887118339538574,-0.18710653483867645,0.0,0.0,0.0,0.0,0.0,0.0,0.0,-0.4477253202953505,0.009130193996048908,-0.2427631259283598,0.261906575400276,-0.004952468538035327,0.09934647008204908,-0.16447053019405025,1.213645247873507,-0.2201711193762327,-0.007366492574520664,-2.604052047829879,-0.10896640182670146,2.4681384988996786,0.8264673228181071,1.2134413937687574,-0.2202432315892585,-0.0075118285948192216,-2.6038483821997875,-0.10888392708698907,2.4681821257803174,0.826474908251239,-0.0008426157418607257,-0.00047707574674972345,0.001475875569436851,-0.0002805297463063039,0.00041047270827220504,-0.000733904798298451,0.0009090625444003163,0.0,0.0,0.0,0.0,0.0,0.0,0.0,-0.00020385410474954568,-7.211221302577675e-05,-0.00014533602029855736,0.000203665630091443,8.247473971238761e-05,4.362688063874742e-05,7.585433131951369e-06,0.0008426157418607257,0.00047707574674972345,-0.001475875569436851,0.0002805297463063039,-0.00041047270827220504,0.000733904798298451,-0.0009090625444003163,0.4267818331718445,19.717248916625977,0.4982573688030243,-20.054964065551758,-0.5697532296180725,-2.4887118339538574,0.18710653483867645,0
65,0.3200204372406006,-0.4267818331718445,-19.717248916625977,-0.4982573688030243,20.054964065551758,0.5697532296180725,2.4887118339538574,-0.18710653483867645,0.0,0.0,0.0,0.0,0.0,0.0,0.0,-0.4477253202953505,0.009130193996048908,-0.2427631259283598,0.261906575400276,-0.004952468538035327,0.09934647008204908,-0.16447053019405025,1.213645247873507,-0.2201711193762327,-0.007366492574520664,-2.604052047829879,-0.10896640182670146,2.4681384988996786,0.8264673228181071,1.2134413937687574,-0.2202432315892585,-0.0075118285948192216,-2.6038483821997875,-0.10888392708698907,2.4681821257803174,0.826474908251239,-0.0008426157418607257,-0.00047707574674972345,0.001475875569436851,-0.0002805297463063039,0.00041047270827220504,-0.000733904798298451,0.0009090625444003163,0.0,0.0,0.0,0.0,0.0,0.0,0.0,-0.00020385410474954568,-7.211221302577675e-05,-0.00014533602029855736,0.000203665630091443,8.247473971238761e-05,4.362688063874742e-05,7.585433131951369e-06,0.0008426157418607257,0.00047707574674972345,-0.001475875569436851,0.0002805297463063039,-0.00041047270827220504,0.000733904798298451,-0.0009090625444003163,0.4267818331718445,19.717248916625977,0.4982573688030243,-20.054964065551758,-0.5697532296180725,-2.4887118339538574,0.18710653483867645,0
66,0.3249392509460449,-0.4267818331718445,-19.745019912719727,-0.4228789508342743,20.031160354614258,0.5816550850868225,2.4758944511413574,-0.15964071452617645,0.0,0.0,0.0,0.0,0.0,0.0,0.0,-0.4395838395445633,0.009793525665613268,-0.2327669529659505,0.26339868521084187,-0.005436696865517337,0.09954212077973865,-0.16445124161874253,1.213645247873507,-0.22016917053440158,-0.00737273015967314,-2.6040503773940236,-0.10897127126056912,2.468139926873556,0.8264642710602945,1.2134413937687574,-0.2202432315892585,-0.0075118285948192216,-2.6038483821997875,-0.10888392708698907,2.4681821257803174,0.826474908251239,-0.00011971961376294814,0.0006450225681015142,0.00010200814104878402,-6.572413248550072e-05,-0.00015789020812176344,-4.891081120356128e-06,-0.0005442064286741752,0.0,0.0,0.0,0.0,0.0,0.0,0.0,-0.00020385410474954568,-7.406105485691095e-05,-0.00013909843514608132,0.00020199519423602652,8.734417358004232e-05,4.2198906761381494e-05,1.0637190944517982e-05,0.00011971961376294814,-0.0006450225681015142,-0.00010200814104878402,6.572413248550072e-05,0.00015789020812176344,4.891081120356128e-06,0.0005442064286741752,0.4267818331718445,19.745019912719727,0.4228789508342743,-20.031160354614258,-0.5816550850868225,-2.4758944511413574,0.15964071452617645,0
67,0.32999086380004883,-0.4267818331718445,-19.745019912719727,-0.4228789508342743,20.031160354614258,0.5816550850868225,2.4758944511413574,-0.15964071452617645,0.0,0.0,0.0,0.0,0.0,0.0,0.0,-0.4395838395445633,0.009793525665613268,-0.2327669529659505,0.26339868521084187,-0.005436696865517337,0.09954212077973865,-0.16445124161874253,1.213645247873507,-0.22016917053440158,-0.00737273015967314,-2.6040503773940236,-0.10897127126056912,2.468139926873556,0.8264642710602945,1.2134413937687574,-0.2202432315892585,-0.0075118285948192216,-2.6038483821997875,-0.10888392708698907,2.4681821257803174,0.826474908251239,-0.00011971961376294814,0.0006450225681015142,0.00010200814104878402,-6.572413248550072e-05,-0.00015789020812176344,-4.891081120356128e-06,-0.0005442064286741752,0.0,0.0,0.0,0.0,0.0,0.0,0.0,-0.00020385410474954568,-7.406105485691095e-05,-0.00013909843514608132,0.00020199519423602652,8.734417358004232e-05,4.2198906761381494e-05,1.0637190944517982e-05,0.00011971961376294814,-0.0006450225681015142,-0.00010200814104878402,6.572413248550072e-05,0.00015789020812176344,4.891081120356128e-06,0.0005442064286741752,0.4267818331718445,19.745019912719727,0.4228789508342743,-20.031160354614258,-0.5816550850868225,-2.4758944511413574,0.15964071452617645,0
68,0.33495163917541504,-0.4267818331718445,-19.745019912719727,-0.4228789508342743,20.031160354614258,0.5816550850868225,2.4758944511413574,-0.15964071452617645,0.0,0.0,0.0,0.0,0.0,0.0,0.0,-0.4395838395445633,0.009793525665613268,-0.2327669529659505,0.26339868521084187,-0.005436696865517337,0.09954212077973865,-0.16445124161874253,1.213645247873507,-0.22016917053440158,-0.00737273015967314,-2.6040503773940236,-0.10897127126056912,2.468139926873556,0.8264642710602945,1.2134413937687574,-0.2202432315892585,-0.0075118285948192216,-2.6038483821997875,-0.10888392708698907,2.4681821257803174,0.826474908251239,-0.00011971961376294814,0.0006450225681015142,0.00010200814104878402,-6.572413248550072e-05,-0.00015789020812176344,-4.891081120356128e-06,-0.0005442064286741752,0.0,0.0,0.0,0.0,0.0,0.0,0.0,-0.00020385410474954568,-7.406105485691095e-05,-0.00013909843514608132,0.00020199519423602652,8.734417358004232e-05,4.2198906761381494e-05,1.0637190944517982e-05,0.00011971961376294814,-0.0006450225681015142,-0.00010200814104878402,6.572413248550072e-05,0.00015789020812176344,4.891081120356128e-06,0.0005442064286741752,0.4267818331718445,19.745019912719727,0.4228789508342743,-20.031160354614258,-0.5816550850868225,-2.4758944511413574,0.15964071452617645,0
69,0.3400275707244873,-0.4267818331718445,-19.745019912719727,-0.4228789508342743,20.031160354614258,0.5816550850868225,2.4758944511413574,-0.15964071452617645,0.0,0.0,0.0,0.0,0.0,0.0,0.0,-0.4395838395445633,0.009793525665613268,-0.2327669529659505,0.26339868521084187,-0.005436696865517337,0.09954212077973865,-0.16445124161874253,1.213645247873507,-0.22016917053440158,-0.00737273015967314,-2.6040503773940236,-0.10897127126056912,2.468139926873556,0.8264642710602945,1.2134413937687574,-0.2202432315892585,-0.0075118285948192216,-2.6038483821997875,-0.10888392708698907,2.4681821257803174,0.826474908251239,-0.00011971961376294814,0.0006450225681015142,0.00010200814104878402,-6.572413248550072e-05,-0.00015789020812176344,-4.891081120356128e-06,-0.0005442064286741752,0.0,0.0,0.0,0.0,0.0,0.0,0.0,-0.00020385410474954568,-7.406105485691095e-05,-0.00013909843514608132,0.00020199519423602652,8.734417358004232e-05,4.2198906761381494e-05,1.0637190944517982e-05,0.00011971961376294814,-0.0006450225681015142,-0.00010200814104878402,6.572413248550072e-05,0.00015789020812176344,4.891081120356128e-06,0.0005442064286741752,0.4267818331718445,19.745019912719727,0.4228789508342743,-20.031160354614258,-0.5816550850868225,-2.4758944511413574,0.15964071452617645,0
70,0.34499430656433105,-0.4267818331718445,-19.717248916625977,-0.4466826617717743,20.031160354614258,0.5880637764930725,2.4694857597351074,-0.16604940593242645,0.0,0.0,0.0,0.0,0.0,0.0,0.0,-0.4462858884479013,0.011675273969167423,-0.24121203789170856,0.2660356488537947,-0.0051316730747654055,0.10069892239728451,-0.1649846936951485,1.213645247873507,-0.2201711193762327,-0.007370151241985103,-2.6040503777089596,-0.10897268876719997,2.4681416987500353,0.8264649831371175,1.2134413937687574,-0.2202432315892585,-0.0075118285948192216,-2.6038483821997875,-0.10888392708698907,2.4681821257803174,0.826474908251239,-0.0005385163336465564,-8.680804198570754e-05,-1.2918022494033228e-05,8.825614574536335e-05,-0.00015710789339523366,0.00025336509433773513,-0.0001346019527625059,0.0,0.0,0.0,0.0,0.0,0.0,0.0,-0.00020385410474954568,-7.211221302577675e-05,-0.00014167735283411847,0.00020199550917210374,8.876168021089426e-05,4.042703028206418e-05,9.925114121567269e-06,0.0005385163336465564,8.680804198570754e-05,1.2918022494033228e-05,-8.825614574536335e-05,0.00015710789339523366,-0.00025336509433773513,0.0001346019527625059,0.4267818331718445,19.717248916625977,0.4466826617717743,-20.031160354614258,-0.5880637764930725,-2.4694857597351074,0.16604940593242645,0
71,0.3500065803527832,-0.4267818331718445,-19.717248916625977,-0.4466826617717743,20.031160354614258,0.5880637764930725,2.4694857597351074,-0.16604940593242645,0.0,0.0,0.0,0.0,0.0,0.0,0.0,-0.4462858884479013,0.011675273969167423,-0.24121203789170856,0.2660356488537947,-0.0051316730747654055,0.10069892239728451,-0.1649846936951485,1.213645247873507,-0.2201711193762327,-0.007370151241985103,-2.6040503777089596,-0.10897268876719997,2.4681416987500353,0.8264649831371175,1.2134413937687574,-0.2202432315892585,-0.0075118285948192216,-2.6038483821997875,-0.10888392708698907,2.4681821257803174,0.826474908251239,-0.0005385163336465564,-8.680804198570754e-05,-1.2918022494033228e-05,8.825614574536335e-05,-0.00015710789339523366,0.00025336509433773513,-0.0001346019527625059,0.0,0.0,0.0,0.0,0.0,0.0,0.0,-0.00020385410474954568,-7.211221302577675e-05,-0.00014167735283411847,0.00020199550917210374,8.876168021089426e-05,4.042703028206418e-05,9.925114121567269e-06,0.0005385163336465564,8.680804198570754e-05,1.2918022494033228e-05,-8.825614574536335e-05,0.00015710789339523366,-0.00025336509433773513,0.0001346019527625059,0.4267818331718445,19.717248916625977,0.4466826617717743,-20.031160354614258,-0.5880637764930725,-2.4694857597351074,0.16604940593242645,0
72,0.35501551628112793,-0.4783565402030945,-19.717248916625977,-0.4466826617717743,20.031160354614258,0.5816550850868225,2.4758944511413574,-0.15231649577617645,0.0,0.0,0.0,0.0,0.0,0.0,0.0,-0.44348537004226174,0.009110517685607685,-0.24168766922154136,0.2676714309080612,-0.004876635874825831,0.10152784635582575,-0.16486034318330153,1.2136488671511931,-0.2201711193762327,-0.00737234760447747,-2.6040503802284483,-0.10896874393577632,2.4681399356008615,0.8264634572582112,1.2134413937687574,-0.2202432315892585,-0.0075118285948192216,-2.6038483821997875,-0.10888392708698907,2.4681821257803174,0.826474908251239,0.0009342428433975103,-0.0004883692437656835,-0.00027691927550507045,0.00046806192632003617,-5.181960443572581e-05,-0.00011456651154493437,-0.00034838226886991066,0.0,0.0,0.0,0.0,0.0,0.0,0.0,-0.0002074733824357633,-7.211221302577675e-05,-0.0001394809903417513,0.00020199802866072147,8.481684878725027e-05,4.2190179455836585e-05,1.1450993027795064e-05,-0.0009342428433975103,0.0004883692437656835,0.00027691927550507045,-0.00046806192632003617,5.181960443572581e-05,0.00011456651154493437,0.00034838226886991066,0.4783565402030945,19.717248916625977,0.4466826617717743,-20.031160354614258,-0.5816550850868225,-2.4758944511413574,0.15231649577617645,0
73,0.35995960235595703,-0.4783565402030945,-19.717248916625977,-0.4466826617717743,20.031160354614258,0.5816550850868225,2.4758944511413574,-0.15231649577617645,0.0,0.0,0.0,0.0,0.0,0.0,0.0,-0.44348537004226174,0.009110517685607685,-0.24168766922154136,0.2676714309080612,-0.004876635874825831,0.10152784635582575,-0.16486034318330153,1.2136488671511931,-0.2201711193762327,-0.00737234760447747,-2.6040503802284483,-0.10896874393577632,2.4681399356008615,0.8264634572582112,1.2134413937687574,-0.2202432315892585,-0.0075118285948192216,-2.6038483821997875,-0.10888392708698907,2.4681821257803174,0.826474908251239,0.0009342428433975103,-0.0004883692437656835,-0.00027691927550507045,0.00046806192632003617,-5.181960443572581e-05,-0.00011456651154493437,-0.00034838226886991066,0.0,0.0,0.0,0.0,0.0,0.0,0.0,-0.0002074733824357633,-7.211221302577675e-05,-0.0001394809903417513,0.00020199802866072147,8.481684878725027e-05,4.2190179455836585e-05,1.1450993027795064e-05,-0.0009342428433975103,0.0004883692437656835,0.00027691927550507045,-0.00046806192632003617,5.181960443572581e-05,0.00011456651154493437,0.00034838226886991066,0.4783565402030945,19.717248916625977,0.4466826617717743,-20.031160354614258,-0.5816550850868225,-2.4758944511413574,0.15231649577617645,0
74,0.3650071620941162,-0.4783565402030945,-19.717248916625977,-0.4982573688030243,20.054964065551758,0.5761619210243225,2.4823031425476074,-0.17337362468242645,0.0,0.0,0.0,0.0,0.0,0.0,0.0,-0.4382618323027331,0.012126715760949557,-0.23883206802022885,0.2639429560634515,-0.005417328635380587,0.1009696976599735,-0.16487813644533872,1.2136488671511931,-0.2201711193762327,-0.0073695797820807814,-2.604052047829895,-0.10896817835045355,2.4681396028947193,0.8264657969392009,1.2134413937687574,-0.2202432315892585,-0.0075118285948192216,-2.6038483821997875,-0.10888392708698907,2.4681821257803174,0.826474908251239,0.0010284103410945777,-0.0004237461384712662,0.0015090848551176264,-0.000510193067366824,-2.4365818376881136e-05,-0.00035994959059876985,-0.0003310430101096848,0.0,0.0,0.0,0.0,0.0,0.0,0.0,-0.0002074733824357633,-7.211221302577675e-05,-0.00014224881273844012,0.00020366563010743022,8.425126346447986e-05,4.252288559802864e-05,9.111312038179165e-06,-0.0010284103410945777,0.0004237461384712662,-0.0015090848551176264,0.000510193067366824,2.4365818376881136e-05,0.00035994959059876985,0.0003310430101096848,0.4783565402030945,19.717248916625977,0.4982573688030243,-20.054964065551758,-0.5761619210243225,-2.4823031425476074,0.17337362468242645,0
75,0.3699955940246582,-0.4783565402030945,-19.717248916625977,-0.4982573688030243,20.054964065551758,0.5761619210243225,2.4823031425476074,-0.17337362468242645,0.0,0.0,0.0,0.0,0.0,0.0,0.0,-0.4382618323027331,0.012126715760949557,-0.23883206802022885,0.2639429560634515,-0.005417328635380587,0.1009696976599735,-0.16487813644533872,1.2136488671511931,-0.2201711193762327,-0.0073695797820807814,-2.604052047829895,-0.10896817835045355,2.4681396028947193,0.8264657969392009,1.2134413937687574,-0.2202432315892585,-0.0075118285948192216,-2.6038483821997875,-0.10888392708698907,2.4681821257803174,0.826474908251239,0.0010284103410945777,-0.0004237461384712662,0.0015090848551176264,-0.000510193067366824,-2.4365818376881136e-05,-0.00035994959059876985,-0.0003310430101096848,0.0,0.0,0.0,0.0,0.0,0.0,0.0,-0.0002074733824357633,-7.211221302577675e-05,-0.00014224881273844012,0.00020366563010743022,8.425126346447986e-05,4.252288559802864e-05,9.111312038179165e-06,-0.0010284103410945777,0.0004237461384712662,-0.0015090848551176264,0.000510193067366824,2.4365818376881136e-05,0.00035994959059876985,0.0003310430101096848,0.4783565402030945,19.717248916625977,0.4982573688030243,-20.054964065551758,-0.5761619210243225,-2.4823031425476074,0.17337362468242645,0
76,0.37500905990600586,-0.4267818331718445,-19.745019912719727,-0.4466826617717743,20.054964065551758,0.5761619210243225,2.4694857597351074,-0.13217489421367645,0.0,0.0,0.0,0.0,0.0,0.0,0.0,-0.44181102506540815,0.012233239956508334,-0.24306571455856404,0.26440801340855175,-0.00570600807680583,0.10128719455036125,-0.166694630022606,1.213645247873507,-0.22016917053440158,-0.007370357457813014,-2.604052047864872,-0.10896742480300467,2.4681407523295102,0.8264611015649121,1.2134413937687574,-0.2202432315892585,-0.0075118285948192216,-2.6038483821997875,-0.10888392708698907,2.4681821257803174,0.826474908251239,-0.0004334576199752661,0.000549956359892507,0.00011153884377973345,-1.7737289472868015e-05,2.4506613831283592e-05,1.099286389749503e-05,-0.0016949390892745868,0.0,0.0,0.0,0.0,0.0,0.0,0.0,-0.00020385410474954568,-7.406105485691095e-05,-0.00014147113700620738,0.00020366566508434047,8.349771601559586e-05,4.137345080712507e-05,1.3806686326889306e-05,0.0004334576199752661,-0.000549956359892507,-0.00011153884377973345,1.7737289472868015e-05,-2.4506613831283592e-05,-1.099286389749503e-05,0.0016949390892745868,0.4267818331718445,19.745019912719727,0.4466826617717743,-20.054964065551758,-0.5761619210243225,-2.4694857597351074,0.13217489421367645,0
77,0.3800013065338135,-0.4267818331718445,-19.745019912719727,-0.4466826617717743,20.054964065551758,0.5761619210243225,2.4694857597351074,-0.13217489421367645,0.0,0.0,0.0,0.0,0.0,0.0,0.0,-0.44181102506540815,0.012233239956508334,-0.24306571455856404,0.26440801340855175,-0.00570600807680583,0.10128719455036125,-0.166694630022606,1.213645247873507,-0.22016917053440158,-0.007370357457813014,-2.604052047864872,-0.10896742480300467,2.4681407523295102,0.8264611015649121,1.2134413937687574,-0.2202432315892585,-0.0075118285948192216,-2.6038483821997875,-0.10888392708698907,2.4681821257803174,0.826474908251239,-0.0004334576199752661,0.000549956359892507,0.00011153884377973345,-1.7737289472868015e-05,2.4506613831283592e-05,1.099286389749503e-05,-0.0016949390892745868,0.0,0.0,0.0,0.0,0.0,0.0,0.0,-0.00020385410474954568,-7.406105485691095e-05,-0.00014147113700620738,0.00020366566508434047,8.349771601559586e-05,4.137345080712507e-05,1.3806686326889306e-05,0.0004334576199752661,-0.000549956359892507,-0.00011153884377973345,1.7737289472868015e-05,-2.4506613831283592e-05,-1.099286389749503e-05,0.0016949390892745868,0.4267818331718445,19.745019912719727,0.4466826617717743,-20.054964065551758,-0.5761619210243225,-2.4694857597351074,0.13217489421367645,0
78,0.3849964141845703,-0.4029781222343445,-19.717248916625977,-0.4228789508342743,20.082735061645508,0.5761619210243225,2.4694857597351074,-0.21457235515117645,0.0,0.0,0.0,0.0,0.0,0.0,0.0,-0.44342506011318383,0.013930301124294149,-0.2445579695261216,0.2632513602369919,-0.0057395289981576865,0.10027026464395605,-0.1682738163647801,1.2136435774376515,-0.22017088206144333,-0.007373995141071593,-2.60405399667171,-0.10896723121807976,2.4681406352359687,0.826470374575698,1.2134413937687574,-0.2202432315892585,-0.0075118285948192216,-2.6038483821997875,-0.10888392708698907,2.4681821257803174,0.826474908251239,-0.0010173875094719583,-6.377218950393548e-05,-0.0007149174796304006,-0.0009142148757601166,2.805512601958014e-05,3.5155220492105386e-05,0.0020047913849507324,0.0,0.0,0.0,0.0,0.0,0.0,0.0,-0.0002021836688941292,-7.234952781515203e-05,-0.0001378334537476284,0.00020561447192246618,8.330413109068624e-05,4.149054434865462e-05,4.533675540985271e-06,0.0010173875094719583,6.377218950393548e-05,0.0007149174796304006,0.0009142148757601166,-2.805512601958014e-05,-3.5155220492105386e-05,-0.0020047913849507324,0.4029781222343445,19.717248916625977,0.4228789508342743,-20.082735061645508,-0.5761619210243225,-2.4694857597351074,0.21457235515117645,0
79,0.3899965286254883,-0.4029781222343445,-19.717248916625977,-0.4228789508342743,20.082735061645508,0.5761619210243225,2.4694857597351074,-0.21457235515117645,0.0,0.0,0.0,0.0,0.0,0.0,0.0,-0.44342506011318383,0.013930301124294149,-0.2445579695261216,0.2632513602369919,-0.0057395289981576865,0.10027026464395605,-0.1682738163647801,1.2136435774376515,-0.22017088206144333,-0.007373995141071593,-2.60405399667171,-0.10896723121807976,2.4681406352359687,0.826470374575698,1.2134413937687574,-0.2202432315892585,-0.0075118285948192216,-2.6038483821997875,-0.10888392708698907,2.4681821257803174,0.826474908251239,-0.0010173875094719583,-6.377218950393548e-05,-0.0007149174796304006,-0.0009142148757601166,2.805512601958014e-05,3.5155220492105386e-05,0.0020047913849507324,0.0,0.0,0.0,0.0,0.0,0.0,0.0,-0.0002021836688941292,-7.234952781515203e-05,-0.0001378334537476284,0.00020561447192246618,8.330413109068624e-05,4.149054434865462e-05,4.533675540985271e-06,0.0010173875094719583,6.377218950393548e-05,0.0007149174796304006,0.0009142148757601166,-2.805512601958014e-05,-3.5155220492105386e-05,-0.0020047913849507324,0.4029781222343445,19.717248916625977,0.4228789508342743,-20.082735061645508,-0.5761619210243225,-2.4694857597351074,0.21457235515117645,0
