rezayati/contactInterpretation/dataset/franka_main/labeled_data/link7/a7_5.csv
index,time,tau_J0,tau_J1,tau_J2,tau_J3,tau_J4,tau_J5,tau_J6,tau_J_d0,tau_J_d1,tau_J_d2,tau_J_d3,tau_J_d4,tau_J_d5,tau_J_d6,tau_ext0,tau_ext1,tau_ext2,tau_ext3,tau_ext4,tau_ext5,tau_ext6,q0,q1,q2,q3,q4,q5,q6,q_d0,q_d1,q_d2,q_d3,q_d4,q_d5,q_d6,dq0,dq1,dq2,dq3,dq4,dq5,dq6,dq_d0,dq_d1,dq_d2,dq_d3,dq_d4,dq_d5,dq_d6,e0,e1,e2,e3,e4,e5,e6,de0,de1,de2,de3,de4,de5,de6,etau_J0,etau_J1,etau_J2,etau_J3,etau_J4,etau_J5,etau_J6,label
1,0.0,-0.7322627902030945,-46.52419662475586,-5.687466144561768,19.658235549926758,0.6237693428993225,2.3980746269226074,-0.39218467473983765,0.0,0.0,0.0,0.0,0.0,0.0,0.0,-0.7257195966229408,-0.16368108130413028,-0.4979412887044805,0.42609482041708024,0.04827844005060164,0.1373682061097448,-0.376364790121812,0.878063686400129,0.7558934294048798,-0.28253405514480256,-1.6691936598720494,0.14136373756395887,2.403391580004698,1.027364756288899,0.878092876070424,0.7554597494309409,-0.2825552651693207,-1.6690993614607135,0.1414185955172306,2.4034451173676383,1.0273381002308042,-8.275344213776847e-05,0.0010998912963566076,0.0006676435871378498,-0.0008451322775795203,0.0006024776372422533,3.464761024746968e-05,0.0006851921787499406,0.0,0.0,0.0,0.0,0.0,0.0,0.0,2.9189670294971215e-05,-0.00043367997393894964,-2.121002451815901e-05,9.429841133590244e-05,5.485795327173082e-05,5.353736294022582e-05,-2.6656058094820523e-05,8.275344213776847e-05,-0.0010998912963566076,-0.0006676435871378498,0.0008451322775795203,-0.0006024776372422533,-3.464761024746968e-05,-0.0006851921787499406,0.7322627902030945,46.52419662475586,5.687466144561768,-19.658235549926758,-0.6237693428993225,-2.3980746269226074,0.39218467473983765,0
2,0.0050067901611328125,-0.7322627902030945,-46.52419662475586,-5.687466144561768,19.658235549926758,0.6237693428993225,2.3980746269226074,-0.39218467473983765,0.0,0.0,0.0,0.0,0.0,0.0,0.0,-0.7257195966229408,-0.16368108130413028,-0.4979412887044805,0.42609482041708024,0.04827844005060164,0.1373682061097448,-0.376364790121812,0.878063686400129,0.7558934294048798,-0.28253405514480256,-1.6691936598720494,0.14136373756395887,2.403391580004698,1.027364756288899,0.878092876070424,0.7554597494309409,-0.2825552651693207,-1.6690993614607135,0.1414185955172306,2.4034451173676383,1.0273381002308042,-8.275344213776847e-05,0.0010998912963566076,0.0006676435871378498,-0.0008451322775795203,0.0006024776372422533,3.464761024746968e-05,0.0006851921787499406,0.0,0.0,0.0,0.0,0.0,0.0,0.0,2.9189670294971215e-05,-0.00043367997393894964,-2.121002451815901e-05,9.429841133590244e-05,5.485795327173082e-05,5.353736294022582e-05,-2.6656058094820523e-05,8.275344213776847e-05,-0.0010998912963566076,-0.0006676435871378498,0.0008451322775795203,-0.0006024776372422533,-3.464761024746968e-05,-0.0006851921787499406,0.7322627902030945,46.52419662475586,5.687466144561768,-19.658235549926758,-0.6237693428993225,-2.3980746269226074,0.39218467473983765,0
3,0.010000467300415039,-0.7084590792655945,-46.47658920288086,-5.612087726593018,19.610628128051758,0.6301780343055725,2.3980746269226074,-0.34457725286483765,0.0,0.0,0.0,0.0,0.0,0.0,0.0,-0.7241457948207536,-0.17513324038205702,-0.496839789548883,0.4332351294832039,0.04851446668528925,0.13784380923383963,-0.3762992381561542,0.8780620159642737,0.7558900798664248,-0.2825422327234467,-1.6691876882184031,0.14136302548646926,2.403394745517448,1.0273596248525938,0.878092876070424,0.7554597494309409,-0.2825552651693207,-1.6690993614607135,0.1414185955172306,2.4034451173676383,1.0273381002308042,-0.0005997557955735488,-0.0007454947497795976,-0.001217667156265502,0.0004246726719571957,2.387323956251288e-05,2.1536115433412078e-05,-0.001250919891800979,0.0,0.0,0.0,0.0,0.0,0.0,0.0,3.086010615027668e-05,-0.0004303304354839055,-1.3032445874028298e-05,8.83267576896607e-05,5.5570030761342704e-05,5.0371850190522593e-05,-2.1524621789614784e-05,0.0005997557955735488,0.0007454947497795976,0.001217667156265502,-0.0004246726719571957,-2.387323956251288e-05,-2.1536115433412078e-05,0.001250919891800979,0.7084590792655945,46.47658920288086,5.612087726593018,-19.610628128051758,-0.6301780343055725,-2.3980746269226074,0.34457725286483765,0
4,0.015000104904174805,-0.7084590792655945,-46.47658920288086,-5.612087726593018,19.610628128051758,0.6301780343055725,2.3980746269226074,-0.34457725286483765,0.0,0.0,0.0,0.0,0.0,0.0,0.0,-0.7241457948207536,-0.17513324038205702,-0.496839789548883,0.4332351294832039,0.04851446668528925,0.13784380923383963,-0.3762992381561542,0.8780620159642737,0.7558900798664248,-0.2825422327234467,-1.6691876882184031,0.14136302548646926,2.403394745517448,1.0273596248525938,0.878092876070424,0.7554597494309409,-0.2825552651693207,-1.6690993614607135,0.1414185955172306,2.4034451173676383,1.0273381002308042,-0.0005997557955735488,-0.0007454947497795976,-0.001217667156265502,0.0004246726719571957,2.387323956251288e-05,2.1536115433412078e-05,-0.001250919891800979,0.0,0.0,0.0,0.0,0.0,0.0,0.0,3.086010615027668e-05,-0.0004303304354839055,-1.3032445874028298e-05,8.83267576896607e-05,5.5570030761342704e-05,5.0371850190522593e-05,-2.1524621789614784e-05,0.0005997557955735488,0.0007454947497795976,0.001217667156265502,-0.0004246726719571957,-2.387323956251288e-05,-2.1536115433412078e-05,0.001250919891800979,0.7084590792655945,46.47658920288086,5.612087726593018,-19.610628128051758,-0.6301780343055725,-2.3980746269226074,0.34457725286483765,0
5,0.01999664306640625,-0.7084590792655945,-46.52419662475586,-5.635891437530518,19.634431838989258,0.6356711983680725,2.3916659355163574,-0.34457725286483765,0.0,0.0,0.0,0.0,0.0,0.0,0.0,-0.7202028602610369,-0.18026203523408682,-0.49366557686936585,0.4357036450393853,0.04767428049205362,0.13807743365780117,-0.3753197608997564,0.8780620159642737,0.7558934207380864,-0.28253770124460553,-1.6691890998347865,0.14136241513490677,2.403392331510078,1.0273596245304761,0.878092876070424,0.7554597494309409,-0.2825552651693207,-1.6690993614607135,0.1414185955172306,2.4034451173676383,1.0273381002308042,9.662411646420938e-06,-2.659161028795405e-05,-0.0008221788449953878,-0.00013563942257294244,-0.00012680090043456688,0.00045428151346898885,-0.001697068704913987,0.0,0.0,0.0,0.0,0.0,0.0,0.0,3.086010615027668e-05,-0.0004336713071455556,-1.7563924715191526e-05,8.973837407300067e-05,5.618038232382827e-05,5.278585756052223e-05,-2.152429967194891e-05,-9.662411646420938e-06,2.659161028795405e-05,0.0008221788449953878,0.00013563942257294244,0.00012680090043456688,-0.00045428151346898885,0.001697068704913987,0.7084590792655945,46.52419662475586,5.635891437530518,-19.634431838989258,-0.6356711983680725,-2.3916659355163574,0.34457725286483765,0
6,0.024948835372924805,-0.7084590792655945,-46.52419662475586,-5.635891437530518,19.634431838989258,0.6356711983680725,2.3916659355163574,-0.34457725286483765,0.0,0.0,0.0,0.0,0.0,0.0,0.0,-0.7202028602610369,-0.18026203523408682,-0.49366557686936585,0.4357036450393853,0.04767428049205362,0.13807743365780117,-0.3753197608997564,0.8780620159642737,0.7558934207380864,-0.28253770124460553,-1.6691890998347865,0.14136241513490677,2.403392331510078,1.0273596245304761,0.878092876070424,0.7554597494309409,-0.2825552651693207,-1.6690993614607135,0.1414185955172306,2.4034451173676383,1.0273381002308042,9.662411646420938e-06,-2.659161028795405e-05,-0.0008221788449953878,-0.00013563942257294244,-0.00012680090043456688,0.00045428151346898885,-0.001697068704913987,0.0,0.0,0.0,0.0,0.0,0.0,0.0,3.086010615027668e-05,-0.0004336713071455556,-1.7563924715191526e-05,8.973837407300067e-05,5.618038232382827e-05,5.278585756052223e-05,-2.152429967194891e-05,-9.662411646420938e-06,2.659161028795405e-05,0.0008221788449953878,0.00013563942257294244,0.00012680090043456688,-0.00045428151346898885,0.001697068704913987,0.7084590792655945,46.52419662475586,5.635891437530518,-19.634431838989258,-0.6356711983680725,-2.3916659355163574,0.34457725286483765,0
7,0.029998779296875,-0.6806880831718445,-46.47658920288086,-5.687466144561768,19.634431838989258,0.6182761788368225,2.4044833183288574,-0.41324180364608765,0.0,0.0,0.0,0.0,0.0,0.0,0.0,-0.7176610445310633,-0.16444224432729648,-0.49218242975507476,0.4254199543679735,0.04688587026474863,0.1367737722387307,-0.37632363000011665,0.8780600671224426,0.7558901578675159,-0.2825340827138823,-1.6691899916954176,0.14136399249456547,2.403392978217204,1.027366192833326,0.878092876070424,0.7554597494309409,-0.2825552651693207,-1.6690993614607135,0.1414185955172306,2.4034451173676383,1.0273381002308042,-0.0006627791966681074,-0.0006358853219886145,0.0003289032435614597,-5.836296800780924e-05,0.00039160045391723635,6.408018675433344e-05,0.0018937294737659187,0.0,0.0,0.0,0.0,0.0,0.0,0.0,3.2808947981410874e-05,-0.0004304084365750471,-2.118245543841768e-05,9.063023470412546e-05,5.460302266513395e-05,5.213915043444928e-05,-2.80926025217898e-05,0.0006627791966681074,0.0006358853219886145,-0.0003289032435614597,5.836296800780924e-05,-0.00039160045391723635,-6.408018675433344e-05,-0.0018937294737659187,0.6806880831718445,46.47658920288086,5.687466144561768,-19.634431838989258,-0.6182761788368225,-2.4044833183288574,0.41324180364608765,0
8,0.03500080108642578,-0.6806880831718445,-46.47658920288086,-5.687466144561768,19.634431838989258,0.6182761788368225,2.4044833183288574,-0.41324180364608765,0.0,0.0,0.0,0.0,0.0,0.0,0.0,-0.7176610445310633,-0.16444224432729648,-0.49218242975507476,0.4254199543679735,0.04688587026474863,0.1367737722387307,-0.37632363000011665,0.8780600671224426,0.7558901578675159,-0.2825340827138823,-1.6691899916954176,0.14136399249456547,2.403392978217204,1.027366192833326,0.878092876070424,0.7554597494309409,-0.2825552651693207,-1.6690993614607135,0.1414185955172306,2.4034451173676383,1.0273381002308042,-0.0006627791966681074,-0.0006358853219886145,0.0003289032435614597,-5.836296800780924e-05,0.00039160045391723635,6.408018675433344e-05,0.0018937294737659187,0.0,0.0,0.0,0.0,0.0,0.0,0.0,3.2808947981410874e-05,-0.0004304084365750471,-2.118245543841768e-05,9.063023470412546e-05,5.460302266513395e-05,5.213915043444928e-05,-2.80926025217898e-05,0.0006627791966681074,0.0006358853219886145,-0.0003289032435614597,5.836296800780924e-05,-0.00039160045391723635,-6.408018675433344e-05,-0.0018937294737659187,0.6806880831718445,46.47658920288086,5.687466144561768,-19.634431838989258,-0.6182761788368225,-2.4044833183288574,0.41324180364608765,0
9,0.040292978286743164,-0.7322627902030945,-46.52419662475586,-5.687466144561768,19.634431838989258,0.6356711983680725,2.4108920097351074,-0.37204307317733765,0.0,0.0,0.0,0.0,0.0,0.0,0.0,-0.7208414606044931,-0.17739464943574604,-0.49860746883215323,0.43230038935781123,0.04687999405273262,0.13762917417129522,-0.3765162019502729,0.878063686400129,0.7558934207385267,-0.28253432004230294,-1.6691893579888837,0.1413624151329004,2.4033923856662027,1.027359144639716,0.878092876070424,0.7554597494309409,-0.2825552651693207,-1.6690993614607135,0.1414185955172306,2.4034451173676383,1.0273381002308042,0.0003458099467997711,0.00032742028142796625,0.0005705296954622843,9.433859327914729e-06,2.223441462914039e-06,-0.0004779565471897753,-0.0006349079852876915,0.0,0.0,0.0,0.0,0.0,0.0,0.0,2.9189670294971215e-05,-0.00043367130758587,-2.094512701777962e-05,8.999652817021087e-05,5.6180384330195565e-05,5.273170143560435e-05,-2.104440891170789e-05,-0.0003458099467997711,-0.00032742028142796625,-0.0005705296954622843,-9.433859327914729e-06,-2.223441462914039e-06,0.0004779565471897753,0.0006349079852876915,0.7322627902030945,46.52419662475586,5.687466144561768,-19.634431838989258,-0.6356711983680725,-2.4108920097351074,0.37204307317733765,0
10,0.045027732849121094,-0.7322627902030945,-46.52419662475586,-5.687466144561768,19.634431838989258,0.6356711983680725,2.4108920097351074,-0.37204307317733765,0.0,0.0,0.0,0.0,0.0,0.0,0.0,-0.7208414606044931,-0.17739464943574604,-0.49860746883215323,0.43230038935781123,0.04687999405273262,0.13762917417129522,-0.3765162019502729,0.878063686400129,0.7558934207385267,-0.28253432004230294,-1.6691893579888837,0.1413624151329004,2.4033923856662027,1.027359144639716,0.878092876070424,0.7554597494309409,-0.2825552651693207,-1.6690993614607135,0.1414185955172306,2.4034451173676383,1.0273381002308042,0.0003458099467997711,0.00032742028142796625,0.0005705296954622843,9.433859327914729e-06,2.223441462914039e-06,-0.0004779565471897753,-0.0006349079852876915,0.0,0.0,0.0,0.0,0.0,0.0,0.0,2.9189670294971215e-05,-0.00043367130758587,-2.094512701777962e-05,8.999652817021087e-05,5.6180384330195565e-05,5.273170143560435e-05,-2.104440891170789e-05,-0.0003458099467997711,-0.00032742028142796625,-0.0005705296954622843,-9.433859327914729e-06,-2.223441462914039e-06,0.0004779565471897753,0.0006349079852876915,0.7322627902030945,46.52419662475586,5.687466144561768,-19.634431838989258,-0.6356711983680725,-2.4108920097351074,0.37204307317733765,0
11,0.05000138282775879,-0.7322627902030945,-46.52419662475586,-5.687466144561768,19.634431838989258,0.6356711983680725,2.4108920097351074,-0.37204307317733765,0.0,0.0,0.0,0.0,0.0,0.0,0.0,-0.7208414606044931,-0.17739464943574604,-0.49860746883215323,0.43230038935781123,0.04687999405273262,0.13762917417129522,-0.3765162019502729,0.878063686400129,0.7558934207385267,-0.28253432004230294,-1.6691893579888837,0.1413624151329004,2.4033923856662027,1.027359144639716,0.878092876070424,0.7554597494309409,-0.2825552651693207,-1.6690993614607135,0.1414185955172306,2.4034451173676383,1.0273381002308042,0.0003458099467997711,0.00032742028142796625,0.0005705296954622843,9.433859327914729e-06,2.223441462914039e-06,-0.0004779565471897753,-0.0006349079852876915,0.0,0.0,0.0,0.0,0.0,0.0,0.0,2.9189670294971215e-05,-0.00043367130758587,-2.094512701777962e-05,8.999652817021087e-05,5.6180384330195565e-05,5.273170143560435e-05,-2.104440891170789e-05,-0.0003458099467997711,-0.00032742028142796625,-0.0005705296954622843,-9.433859327914729e-06,-2.223441462914039e-06,0.0004779565471897753,0.0006349079852876915,0.7322627902030945,46.52419662475586,5.687466144561768,-19.634431838989258,-0.6356711983680725,-2.4108920097351074,0.37204307317733765,0
12,0.05501842498779297,-0.7322627902030945,-46.52419662475586,-5.687466144561768,19.634431838989258,0.6356711983680725,2.4108920097351074,-0.37204307317733765,0.0,0.0,0.0,0.0,0.0,0.0,0.0,-0.7208414606044931,-0.17739464943574604,-0.49860746883215323,0.43230038935781123,0.04687999405273262,0.13762917417129522,-0.3765162019502729,0.878063686400129,0.7558934207385267,-0.28253432004230294,-1.6691893579888837,0.1413624151329004,2.4033923856662027,1.027359144639716,0.878092876070424,0.7554597494309409,-0.2825552651693207,-1.6690993614607135,0.1414185955172306,2.4034451173676383,1.0273381002308042,0.0003458099467997711,0.00032742028142796625,0.0005705296954622843,9.433859327914729e-06,2.223441462914039e-06,-0.0004779565471897753,-0.0006349079852876915,0.0,0.0,0.0,0.0,0.0,0.0,0.0,2.9189670294971215e-05,-0.00043367130758587,-2.094512701777962e-05,8.999652817021087e-05,5.6180384330195565e-05,5.273170143560435e-05,-2.104440891170789e-05,-0.0003458099467997711,-0.00032742028142796625,-0.0005705296954622843,-9.433859327914729e-06,-2.223441462914039e-06,0.0004779565471897753,0.0006349079852876915,0.7322627902030945,46.52419662475586,5.687466144561768,-19.634431838989258,-0.6356711983680725,-2.4108920097351074,0.37204307317733765,0
13,0.0599970817565918,-0.7322627902030945,-46.47658920288086,-5.663662433624268,19.634431838989258,0.6237693428993225,2.4108920097351074,-0.35098594427108765,0.0,0.0,0.0,0.0,0.0,0.0,0.0,-0.7303304585836666,-0.16475834956307076,-0.5018454780420047,0.4297768581460772,0.04726152623019456,0.13677757265763849,-0.3775924036706435,0.878063686400129,0.7558900798663758,-0.2825357348363484,-1.6691922273661695,0.14136373756329215,2.40339332708292,1.02736029201182,0.878092876070424,0.7554597494309409,-0.2825552651693207,-1.6690993614607135,0.1414185955172306,2.4034451173676383,1.0273381002308042,-0.00037499580750302943,-0.0003128972221648782,-0.00025098466813472235,0.00018313875196622841,0.0003405024436657915,-0.00019636066191701474,-0.0009014207347068186,0.0,0.0,0.0,0.0,0.0,0.0,0.0,2.9189670294971215e-05,-0.00043033043543494465,-1.953033297230622e-05,9.28659054559855e-05,5.48579539384475e-05,5.179028471813396e-05,-2.219178101592334e-05,0.00037499580750302943,0.0003128972221648782,0.00025098466813472235,-0.00018313875196622841,-0.0003405024436657915,0.00019636066191701474,0.0009014207347068186,0.7322627902030945,46.47658920288086,5.663662433624268,-19.634431838989258,-0.6237693428993225,-2.4108920097351074,0.35098594427108765,0
14,0.06499505043029785,-0.7322627902030945,-46.47658920288086,-5.663662433624268,19.634431838989258,0.6237693428993225,2.4108920097351074,-0.35098594427108765,0.0,0.0,0.0,0.0,0.0,0.0,0.0,-0.7303304585836666,-0.16475834956307076,-0.5018454780420047,0.4297768581460772,0.04726152623019456,0.13677757265763849,-0.3775924036706435,0.878063686400129,0.7558900798663758,-0.2825357348363484,-1.6691922273661695,0.14136373756329215,2.40339332708292,1.02736029201182,0.878092876070424,0.7554597494309409,-0.2825552651693207,-1.6690993614607135,0.1414185955172306,2.4034451173676383,1.0273381002308042,-0.00037499580750302943,-0.0003128972221648782,-0.00025098466813472235,0.00018313875196622841,0.0003405024436657915,-0.00019636066191701474,-0.0009014207347068186,0.0,0.0,0.0,0.0,0.0,0.0,0.0,2.9189670294971215e-05,-0.00043033043543494465,-1.953033297230622e-05,9.28659054559855e-05,5.48579539384475e-05,5.179028471813396e-05,-2.219178101592334e-05,0.00037499580750302943,0.0003128972221648782,0.00025098466813472235,-0.00018313875196622841,-0.0003405024436657915,0.00019636066191701474,0.0009014207347068186,0.7322627902030945,46.47658920288086,5.663662433624268,-19.634431838989258,-0.6237693428993225,-2.4108920097351074,0.35098594427108765,0
15,0.07000970840454102,-0.7322627902030945,-46.44881820678711,-5.687466144561768,19.658235549926758,0.6237693428993225,2.4044833183288574,-0.39950889348983765,0.0,0.0,0.0,0.0,0.0,0.0,0.0,-0.7235012369052338,-0.16348481775660026,-0.49679312935813835,0.4340556013460818,0.0468393158184154,0.1374021675050443,-0.37821818514347527,0.8780637128910822,0.7558881310245447,-0.2825364658094115,-1.669192942654017,0.14136373902138474,2.4033933288096683,1.0273657269153085,0.878092876070424,0.7554597494309409,-0.2825552651693207,-1.6690993614607135,0.1414185955172306,2.4034451173676383,1.0273381002308042,-0.00013392714171082647,-0.0004723752042765641,-1.2840499651629915e-05,-0.0007664376804763365,0.00017550228530008763,2.4806532673771617e-05,0.0008627901023358992,0.0,0.0,0.0,0.0,0.0,0.0,0.0,2.916317934176238e-05,-0.00042838159360381045,-1.879935990922732e-05,9.358119330360459e-05,5.485649584585639e-05,5.1788557970056104e-05,-2.76266845042894e-05,0.00013392714171082647,0.0004723752042765641,1.2840499651629915e-05,0.0007664376804763365,-0.00017550228530008763,-2.4806532673771617e-05,-0.0008627901023358992,0.7322627902030945,46.44881820678711,5.687466144561768,-19.658235549926758,-0.6237693428993225,-2.4044833183288574,0.39950889348983765,0
16,0.0750117301940918,-0.7322627902030945,-46.44881820678711,-5.687466144561768,19.658235549926758,0.6237693428993225,2.4044833183288574,-0.39950889348983765,0.0,0.0,0.0,0.0,0.0,0.0,0.0,-0.7235012369052338,-0.16348481775660026,-0.49679312935813835,0.4340556013460818,0.0468393158184154,0.1374021675050443,-0.37821818514347527,0.8780637128910822,0.7558881310245447,-0.2825364658094115,-1.669192942654017,0.14136373902138474,2.4033933288096683,1.0273657269153085,0.878092876070424,0.7554597494309409,-0.2825552651693207,-1.6690993614607135,0.1414185955172306,2.4034451173676383,1.0273381002308042,-0.00013392714171082647,-0.0004723752042765641,-1.2840499651629915e-05,-0.0007664376804763365,0.00017550228530008763,2.4806532673771617e-05,0.0008627901023358992,0.0,0.0,0.0,0.0,0.0,0.0,0.0,2.916317934176238e-05,-0.00042838159360381045,-1.879935990922732e-05,9.358119330360459e-05,5.485649584585639e-05,5.1788557970056104e-05,-2.76266845042894e-05,0.00013392714171082647,0.0004723752042765641,1.2840499651629915e-05,0.0007664376804763365,-0.00017550228530008763,-2.4806532673771617e-05,-0.0008627901023358992,0.7322627902030945,46.44881820678711,5.687466144561768,-19.658235549926758,-0.6237693428993225,-2.4044833183288574,0.39950889348983765,0
17,0.07999682426452637,-0.7322627902030945,-46.44881820678711,-5.663662433624268,19.634431838989258,0.6356711983680725,2.3852572441101074,-0.40591758489608765,0.0,0.0,0.0,0.0,0.0,0.0,0.0,-0.7254148975799946,-0.1654334796128561,-0.4973111062461422,0.4365017872875284,0.04644746264634041,0.13799001414284026,-0.37884626720607373,0.8780636864366173,0.7558881339134758,-0.28253584048522545,-1.6691900741966572,0.141362415134915,2.403391935869965,1.0273653412389299,0.878092876070424,0.7554597494309409,-0.2825552651693207,-1.6690993614607135,0.1414185955172306,2.4034451173676383,1.0273381002308042,-1.7955941530941326e-05,-0.0007573287366642549,-3.618074905148222e-05,-0.00026483833255200046,-3.7487482798344505e-05,0.0005033354776521479,0.0012538640307417157,0.0,0.0,0.0,0.0,0.0,0.0,0.0,2.9189633806714355e-05,-0.0004283844825349048,-1.942468409527054e-05,9.071273594374318e-05,5.618038231561262e-05,5.318149767319369e-05,-2.724100812567798e-05,1.7955941530941326e-05,0.0007573287366642549,3.618074905148222e-05,0.00026483833255200046,3.7487482798344505e-05,-0.0005033354776521479,-0.0012538640307417157,0.7322627902030945,46.44881820678711,5.663662433624268,-19.634431838989258,-0.6356711983680725,-2.3852572441101074,0.40591758489608765,0
18,0.08502054214477539,-0.7322627902030945,-46.44881820678711,-5.663662433624268,19.634431838989258,0.6356711983680725,2.3852572441101074,-0.40591758489608765,0.0,0.0,0.0,0.0,0.0,0.0,0.0,-0.7254148975799946,-0.1654334796128561,-0.4973111062461422,0.4365017872875284,0.04644746264634041,0.13799001414284026,-0.37884626720607373,0.8780636864366173,0.7558881339134758,-0.28253584048522545,-1.6691900741966572,0.141362415134915,2.403391935869965,1.0273653412389299,0.878092876070424,0.7554597494309409,-0.2825552651693207,-1.6690993614607135,0.1414185955172306,2.4034451173676383,1.0273381002308042,-1.7955941530941326e-05,-0.0007573287366642549,-3.618074905148222e-05,-0.00026483833255200046,-3.7487482798344505e-05,0.0005033354776521479,0.0012538640307417157,0.0,0.0,0.0,0.0,0.0,0.0,0.0,2.9189633806714355e-05,-0.0004283844825349048,-1.942468409527054e-05,9.071273594374318e-05,5.618038231561262e-05,5.318149767319369e-05,-2.724100812567798e-05,1.7955941530941326e-05,0.0007573287366642549,3.618074905148222e-05,0.00026483833255200046,3.7487482798344505e-05,-0.0005033354776521479,-0.0012538640307417157,0.7322627902030945,46.44881820678711,5.663662433624268,-19.634431838989258,-0.6356711983680725,-2.3852572441101074,0.40591758489608765,0
19,0.09001326560974121,-0.7560665011405945,-46.47658920288086,-5.663662433624268,19.634431838989258,0.6420798897743225,2.4108920097351074,-0.33725303411483765,0.0,0.0,0.0,0.0,0.0,0.0,0.0,-0.734130332566407,-0.15503234399804502,-0.5006413636413286,0.4336878977586232,0.04662753738388355,0.13728154069022336,-0.378445823335377,0.8780653568359843,0.7558900798663812,-0.2825359641083947,-1.6691900565373676,0.14136170305808385,2.4033894534784936,1.0273588110493364,0.878092876070424,0.7554597494309409,-0.2825552651693207,-1.6690993614607135,0.1414185955172306,2.4034451173676383,1.0273381002308042,0.0006042477618458632,0.00025462853011130903,-0.0003889128357890381,0.0003422922380136937,-0.00039754136397472927,-0.00018990339171772542,-0.0017242414060341534,0.0,0.0,0.0,0.0,0.0,0.0,0.0,2.7519234439665752e-05,-0.00043033043544038474,-1.930106092601358e-05,9.069507665415699e-05,5.689245914675123e-05,5.5663889144685896e-05,-2.071081853216583e-05,-0.0006042477618458632,-0.00025462853011130903,0.0003889128357890381,-0.0003422922380136937,0.00039754136397472927,0.00018990339171772542,0.0017242414060341534,0.7560665011405945,46.47658920288086,5.663662433624268,-19.634431838989258,-0.6420798897743225,-2.4108920097351074,0.33725303411483765,0
20,0.09496426582336426,-0.7560665011405945,-46.47658920288086,-5.663662433624268,19.634431838989258,0.6420798897743225,2.4108920097351074,-0.33725303411483765,0.0,0.0,0.0,0.0,0.0,0.0,0.0,-0.734130332566407,-0.15503234399804502,-0.5006413636413286,0.4336878977586232,0.04662753738388355,0.13728154069022336,-0.378445823335377,0.8780653568359843,0.7558900798663812,-0.2825359641083947,-1.6691900565373676,0.14136170305808385,2.4033894534784936,1.0273588110493364,0.878092876070424,0.7554597494309409,-0.2825552651693207,-1.6690993614607135,0.1414185955172306,2.4034451173676383,1.0273381002308042,0.0006042477618458632,0.00025462853011130903,-0.0003889128357890381,0.0003422922380136937,-0.00039754136397472927,-0.00018990339171772542,-0.0017242414060341534,0.0,0.0,0.0,0.0,0.0,0.0,0.0,2.7519234439665752e-05,-0.00043033043544038474,-1.930106092601358e-05,9.069507665415699e-05,5.689245914675123e-05,5.5663889144685896e-05,-2.071081853216583e-05,-0.0006042477618458632,-0.00025462853011130903,0.0003889128357890381,-0.0003422922380136937,0.00039754136397472927,0.00018990339171772542,0.0017242414060341534,0.7560665011405945,46.47658920288086,5.663662433624268,-19.634431838989258,-0.6420798897743225,-2.4108920097351074,0.33725303411483765,0
21,0.09995651245117188,-0.6806880831718445,-46.50039291381836,-5.687466144561768,19.634431838989258,0.6237693428993225,2.4044833183288574,-0.39218467473983765,0.0,0.0,0.0,0.0,0.0,0.0,0.0,-0.7234248880468195,-0.17263875540436774,-0.49738972532806186,0.4431351702840089,0.046785612893256515,0.13866802673365183,-0.378271396237814,0.8780600671224426,0.7558917503022311,-0.28253405840444956,-1.6691900025661064,0.14136409187979165,2.4033899693101723,1.0273649147285344,0.878092876070424,0.7554597494309409,-0.2825552651693207,-1.6690993614607135,0.1414185955172306,2.4034451173676383,1.0273381002308042,-0.0009450845451986882,-0.000499657074948254,4.631681147288889e-06,3.111466616205704e-05,0.00022309903749673392,-9.898168125017869e-05,0.0006811219797780608,0.0,0.0,0.0,0.0,0.0,0.0,0.0,3.2808947981410874e-05,-0.0004320008712902501,-2.1206764871162243e-05,9.064110539291903e-05,5.450363743894626e-05,5.514805746598128e-05,-2.6814497730232034e-05,0.0009450845451986882,0.000499657074948254,-4.631681147288889e-06,-3.111466616205704e-05,-0.00022309903749673392,9.898168125017869e-05,-0.0006811219797780608,0.6806880831718445,46.50039291381836,5.687466144561768,-19.634431838989258,-0.6237693428993225,-2.4044833183288574,0.39218467473983765,0
22,0.1049966812133789,-0.6806880831718445,-46.50039291381836,-5.687466144561768,19.634431838989258,0.6237693428993225,2.4044833183288574,-0.39218467473983765,0.0,0.0,0.0,0.0,0.0,0.0,0.0,-0.7234248880468195,-0.17263875540436774,-0.49738972532806186,0.4431351702840089,0.046785612893256515,0.13866802673365183,-0.378271396237814,0.8780600671224426,0.7558917503022311,-0.28253405840444956,-1.6691900025661064,0.14136409187979165,2.4033899693101723,1.0273649147285344,0.878092876070424,0.7554597494309409,-0.2825552651693207,-1.6690993614607135,0.1414185955172306,2.4034451173676383,1.0273381002308042,-0.0009450845451986882,-0.000499657074948254,4.631681147288889e-06,3.111466616205704e-05,0.00022309903749673392,-9.898168125017869e-05,0.0006811219797780608,0.0,0.0,0.0,0.0,0.0,0.0,0.0,3.2808947981410874e-05,-0.0004320008712902501,-2.1206764871162243e-05,9.064110539291903e-05,5.450363743894626e-05,5.514805746598128e-05,-2.6814497730232034e-05,0.0009450845451986882,0.000499657074948254,-4.631681147288889e-06,-3.111466616205704e-05,-0.00022309903749673392,9.898168125017869e-05,-0.0006811219797780608,0.6806880831718445,46.50039291381836,5.687466144561768,-19.634431838989258,-0.6237693428993225,-2.4044833183288574,0.39218467473983765,0
23,0.11006975173950195,-0.7084590792655945,-46.54800033569336,-5.663662433624268,19.658235549926758,0.6301780343055725,2.3980746269226074,-0.34457725286483765,0.0,0.0,0.0,0.0,0.0,0.0,0.0,-0.726458008769649,-0.16550006035737294,-0.5011467007574374,0.4383520725153745,0.046284522099019426,0.1374077121055345,-0.37869015597390965,0.8780620159642737,0.7558950911739416,-0.28253572589553744,-1.6691936604045694,0.14136302548846938,2.4033938094260168,1.027359624530477,0.878092876070424,0.7554597494309409,-0.2825552651693207,-1.6690993614607135,0.1414185955172306,2.4034451173676383,1.0273381002308042,-0.00026665221493674877,0.000761495972167514,-0.00010416304757844487,-3.4025535345883306e-05,-0.00012262561785497133,9.25266119168076e-05,-0.0010775791475985102,0.0,0.0,0.0,0.0,0.0,0.0,0.0,3.086010615027668e-05,-0.00043534174300075,-1.953927378328668e-05,9.429894385593052e-05,5.5570028761220414e-05,5.130794162155894e-05,-2.152429967283709e-05,0.00026665221493674877,-0.000761495972167514,0.00010416304757844487,3.4025535345883306e-05,0.00012262561785497133,-9.25266119168076e-05,0.0010775791475985102,0.7084590792655945,46.54800033569336,5.663662433624268,-19.658235549926758,-0.6301780343055725,-2.3980746269226074,0.34457725286483765,0
24,0.11501431465148926,-0.7084590792655945,-46.54800033569336,-5.663662433624268,19.658235549926758,0.6301780343055725,2.3980746269226074,-0.34457725286483765,0.0,0.0,0.0,0.0,0.0,0.0,0.0,-0.726458008769649,-0.16550006035737294,-0.5011467007574374,0.4383520725153745,0.046284522099019426,0.1374077121055345,-0.37869015597390965,0.8780620159642737,0.7558950911739416,-0.28253572589553744,-1.6691936604045694,0.14136302548846938,2.4033938094260168,1.027359624530477,0.878092876070424,0.7554597494309409,-0.2825552651693207,-1.6690993614607135,0.1414185955172306,2.4034451173676383,1.0273381002308042,-0.00026665221493674877,0.000761495972167514,-0.00010416304757844487,-3.4025535345883306e-05,-0.00012262561785497133,9.25266119168076e-05,-0.0010775791475985102,0.0,0.0,0.0,0.0,0.0,0.0,0.0,3.086010615027668e-05,-0.00043534174300075,-1.953927378328668e-05,9.429894385593052e-05,5.5570028761220414e-05,5.130794162155894e-05,-2.152429967283709e-05,0.00026665221493674877,-0.000761495972167514,0.00010416304757844487,3.4025535345883306e-05,0.00012262561785497133,-9.25266119168076e-05,0.0010775791475985102,0.7084590792655945,46.54800033569336,5.663662433624268,-19.658235549926758,-0.6301780343055725,-2.3980746269226074,0.34457725286483765,0
25,0.12001824378967285,-0.7084590792655945,-46.50039291381836,-5.687466144561768,19.658235549926758,0.6237693428993225,2.3980746269226074,-0.37845176458358765,0.0,0.0,0.0,0.0,0.0,0.0,0.0,-0.7199930646682251,-0.155280158448918,-0.4953097873090755,0.42991047065270555,0.045667204398190976,0.13582402126445822,-0.3777630628208508,0.8780620159642737,0.7558917503022311,-0.282534058076056,-1.6691914797270317,0.14136373756329218,2.4033938180573053,1.027362913538696,0.878092876070424,0.7554597494309409,-0.2825552651693207,-1.6690993614607135,0.1414185955172306,2.4034451173676383,1.0273381002308042,7.987937090898969e-05,0.0001247790497997745,0.000429731198745029,-0.0009689513947957818,0.00029882766160188584,0.00023159516231521584,-0.0002455668894101749,0.0,0.0,0.0,0.0,0.0,0.0,0.0,3.086010615027668e-05,-0.0004320008712902501,-2.120709326469683e-05,9.211826631827513e-05,5.4857953938419746e-05,5.129931033298618e-05,-2.4813307891724534e-05,-7.987937090898969e-05,-0.0001247790497997745,-0.000429731198745029,0.0009689513947957818,-0.00029882766160188584,-0.00023159516231521584,0.0002455668894101749,0.7084590792655945,46.50039291381836,5.687466144561768,-19.658235549926758,-0.6237693428993225,-2.3980746269226074,0.37845176458358765,0
26,0.12495255470275879,-0.7084590792655945,-46.50039291381836,-5.687466144561768,19.658235549926758,0.6237693428993225,2.3980746269226074,-0.37845176458358765,0.0,0.0,0.0,0.0,0.0,0.0,0.0,-0.7199930646682251,-0.155280158448918,-0.4953097873090755,0.42991047065270555,0.045667204398190976,0.13582402126445822,-0.3777630628208508,0.8780620159642737,0.7558917503022311,-0.282534058076056,-1.6691914797270317,0.14136373756329218,2.4033938180573053,1.027362913538696,0.878092876070424,0.7554597494309409,-0.2825552651693207,-1.6690993614607135,0.1414185955172306,2.4034451173676383,1.0273381002308042,7.987937090898969e-05,0.0001247790497997745,0.000429731198745029,-0.0009689513947957818,0.00029882766160188584,0.00023159516231521584,-0.0002455668894101749,0.0,0.0,0.0,0.0,0.0,0.0,0.0,3.086010615027668e-05,-0.0004320008712902501,-2.120709326469683e-05,9.211826631827513e-05,5.4857953938419746e-05,5.129931033298618e-05,-2.4813307891724534e-05,-7.987937090898969e-05,-0.0001247790497997745,-0.000429731198745029,0.0009689513947957818,-0.00029882766160188584,-0.00023159516231521584,0.0002455668894101749,0.7084590792655945,46.50039291381836,5.687466144561768,-19.658235549926758,-0.6237693428993225,-2.3980746269226074,0.37845176458358765,0
27,0.1300041675567627,-0.6806880831718445,-46.44881820678711,-5.663662433624268,19.658235549926758,0.6356711983680725,2.4044833183288574,-0.39950889348983765,0.0,0.0,0.0,0.0,0.0,0.0,0.0,-0.7247800448744908,-0.1644519578933178,-0.501628381529039,0.43396813121414035,0.04660135602199962,0.1370001894819012,-0.378623877348528,0.8780600671224426,0.7558881310245447,-0.2825358148891494,-1.6691928651298,0.14136241513490677,2.4033908994374227,1.0273657284741005,0.878092876070424,0.7554597494309409,-0.2825552651693207,-1.6690993614607135,0.1414185955172306,2.4034451173676383,1.0273381002308042,-0.000769201502512874,-0.0006831978400841765,-0.0005115131679872866,-0.000846459284278537,0.00015130543320349908,-0.00016583213715766016,0.0010392754109894047,0.0,0.0,0.0,0.0,0.0,0.0,0.0,3.2808947981410874e-05,-0.00042838159360381045,-1.945028017130701e-05,9.350366908655872e-05,5.618038232382827e-05,5.42179302156498e-05,-2.762824329627378e-05,0.000769201502512874,0.0006831978400841765,0.0005115131679872866,0.000846459284278537,-0.00015130543320349908,0.00016583213715766016,-0.0010392754109894047,0.6806880831718445,46.44881820678711,5.663662433624268,-19.658235549926758,-0.6356711983680725,-2.4044833183288574,0.39950889348983765,0
28,0.1349930763244629,-0.6806880831718445,-46.44881820678711,-5.663662433624268,19.658235549926758,0.6356711983680725,2.4044833183288574,-0.39950889348983765,0.0,0.0,0.0,0.0,0.0,0.0,0.0,-0.7247800448744908,-0.1644519578933178,-0.501628381529039,0.43396813121414035,0.04660135602199962,0.1370001894819012,-0.378623877348528,0.8780600671224426,0.7558881310245447,-0.2825358148891494,-1.6691928651298,0.14136241513490677,2.4033908994374227,1.0273657284741005,0.878092876070424,0.7554597494309409,-0.2825552651693207,-1.6690993614607135,0.1414185955172306,2.4034451173676383,1.0273381002308042,-0.000769201502512874,-0.0006831978400841765,-0.0005115131679872866,-0.000846459284278537,0.00015130543320349908,-0.00016583213715766016,0.0010392754109894047,0.0,0.0,0.0,0.0,0.0,0.0,0.0,3.2808947981410874e-05,-0.00042838159360381045,-1.945028017130701e-05,9.350366908655872e-05,5.618038232382827e-05,5.42179302156498e-05,-2.762824329627378e-05,0.000769201502512874,0.0006831978400841765,0.0005115131679872866,0.000846459284278537,-0.00015130543320349908,0.00016583213715766016,-0.0010392754109894047,0.6806880831718445,46.44881820678711,5.663662433624268,-19.658235549926758,-0.6356711983680725,-2.4044833183288574,0.39950889348983765,0
29,0.14000368118286133,-0.7322627902030945,-46.52419662475586,-5.663662433624268,19.658235549926758,0.6420798897743225,2.4044833183288574,-0.36471885442733765,0.0,0.0,0.0,0.0,0.0,0.0,0.0,-0.7300724168350261,-0.16555778660664872,-0.506662665709226,0.43583660501383376,0.04798906721282233,0.13765240946384197,-0.3782534289921256,0.878063686400129,0.7558934207380864,-0.28253575511238316,-1.669193659539169,0.14136170305808385,2.4033931044606898,1.0273618613556668,0.878092876070424,0.7554597494309409,-0.2825552651693207,-1.6690993614607135,0.1414185955172306,2.4034451173676383,1.0273381002308042,-0.00022055402968345478,0.0013935343574588692,-0.00034837055058019653,-0.00046775933890339655,-0.0002937206966097675,-0.00019868525448070044,-0.0008107882440660861,0.0,0.0,0.0,0.0,0.0,0.0,0.0,2.9189670294971215e-05,-0.0004336713071455556,-1.9510056937566134e-05,9.429807845551252e-05,5.689245914675123e-05,5.2012906948561977e-05,-2.3761124862575755e-05,0.00022055402968345478,-0.0013935343574588692,0.00034837055058019653,0.00046775933890339655,0.0002937206966097675,0.00019868525448070044,0.0008107882440660861,0.7322627902030945,46.52419662475586,5.663662433624268,-19.658235549926758,-0.6420798897743225,-2.4044833183288574,0.36471885442733765,0
30,0.1450023651123047,-0.7322627902030945,-46.52419662475586,-5.663662433624268,19.658235549926758,0.6420798897743225,2.4044833183288574,-0.36471885442733765,0.0,0.0,0.0,0.0,0.0,0.0,0.0,-0.7300724168350261,-0.16555778660664872,-0.506662665709226,0.43583660501383376,0.04798906721282233,0.13765240946384197,-0.3782534289921256,0.878063686400129,0.7558934207380864,-0.28253575511238316,-1.669193659539169,0.14136170305808385,2.4033931044606898,1.0273618613556668,0.878092876070424,0.7554597494309409,-0.2825552651693207,-1.6690993614607135,0.1414185955172306,2.4034451173676383,1.0273381002308042,-0.00022055402968345478,0.0013935343574588692,-0.00034837055058019653,-0.00046775933890339655,-0.0002937206966097675,-0.00019868525448070044,-0.0008107882440660861,0.0,0.0,0.0,0.0,0.0,0.0,0.0,2.9189670294971215e-05,-0.0004336713071455556,-1.9510056937566134e-05,9.429807845551252e-05,5.689245914675123e-05,5.2012906948561977e-05,-2.3761124862575755e-05,0.00022055402968345478,-0.0013935343574588692,0.00034837055058019653,0.00046775933890339655,0.0002937206966097675,0.00019868525448070044,0.0008107882440660861,0.7322627902030945,46.52419662475586,5.663662433624268,-19.658235549926758,-0.6420798897743225,-2.4044833183288574,0.36471885442733765,0
31,0.14999651908874512,-0.7322627902030945,-46.52419662475586,-5.663662433624268,19.658235549926758,0.6420798897743225,2.4044833183288574,-0.36471885442733765,0.0,0.0,0.0,0.0,0.0,0.0,0.0,-0.7300724168350261,-0.16555778660664872,-0.506662665709226,0.43583660501383376,0.04798906721282233,0.13765240946384197,-0.3782534289921256,0.878063686400129,0.7558934207380864,-0.28253575511238316,-1.669193659539169,0.14136170305808385,2.4033931044606898,1.0273618613556668,0.878092876070424,0.7554597494309409,-0.2825552651693207,-1.6690993614607135,0.1414185955172306,2.4034451173676383,1.0273381002308042,-0.00022055402968345478,0.0013935343574588692,-0.00034837055058019653,-0.00046775933890339655,-0.0002937206966097675,-0.00019868525448070044,-0.0008107882440660861,0.0,0.0,0.0,0.0,0.0,0.0,0.0,2.9189670294971215e-05,-0.0004336713071455556,-1.9510056937566134e-05,9.429807845551252e-05,5.689245914675123e-05,5.2012906948561977e-05,-2.3761124862575755e-05,0.00022055402968345478,-0.0013935343574588692,0.00034837055058019653,0.00046775933890339655,0.0002937206966097675,0.00019868525448070044,0.0008107882440660861,0.7322627902030945,46.52419662475586,5.663662433624268,-19.658235549926758,-0.6420798897743225,-2.4044833183288574,0.36471885442733765,0
32,0.15500092506408691,-0.7322627902030945,-46.52419662475586,-5.663662433624268,19.658235549926758,0.6420798897743225,2.4044833183288574,-0.36471885442733765,0.0,0.0,0.0,0.0,0.0,0.0,0.0,-0.7300724168350261,-0.16555778660664872,-0.506662665709226,0.43583660501383376,0.04798906721282233,0.13765240946384197,-0.3782534289921256,0.878063686400129,0.7558934207380864,-0.28253575511238316,-1.669193659539169,0.14136170305808385,2.4033931044606898,1.0273618613556668,0.878092876070424,0.7554597494309409,-0.2825552651693207,-1.6690993614607135,0.1414185955172306,2.4034451173676383,1.0273381002308042,-0.00022055402968345478,0.0013935343574588692,-0.00034837055058019653,-0.00046775933890339655,-0.0002937206966097675,-0.00019868525448070044,-0.0008107882440660861,0.0,0.0,0.0,0.0,0.0,0.0,0.0,2.9189670294971215e-05,-0.0004336713071455556,-1.9510056937566134e-05,9.429807845551252e-05,5.689245914675123e-05,5.2012906948561977e-05,-2.3761124862575755e-05,0.00022055402968345478,-0.0013935343574588692,0.00034837055058019653,0.00046775933890339655,0.0002937206966097675,0.00019868525448070044,0.0008107882440660861,0.7322627902030945,46.52419662475586,5.663662433624268,-19.658235549926758,-0.6420798897743225,-2.4044833183288574,0.36471885442733765,0
33,0.1600027084350586,-0.7084590792655945,-46.50039291381836,-5.663662433624268,19.658235549926758,0.6301780343055725,2.4108920097351074,-0.33084434270858765,0.0,0.0,0.0,0.0,0.0,0.0,0.0,-0.7133511188630204,-0.17194942066817515,-0.49447260387904074,0.4407431829902259,0.04791321196244092,0.13826581279455413,-0.37784391725562405,0.8780620159642737,0.7558917503022311,-0.2825358051505129,-1.669191671050578,0.14136302564847952,2.4033894403972704,1.027354907139738,0.878092876070424,0.7554597494309409,-0.2825552651693207,-1.6690993614607135,0.1414185955172306,2.4034451173676383,1.0273381002308042,-0.00044889332264062067,0.00021240318122893012,-0.00016965005475356814,-0.0006189485571235839,-6.035880169694599e-05,-0.000497929356656474,-0.001513884323550224,0.0,0.0,0.0,0.0,0.0,0.0,0.0,3.086010615027668e-05,-0.0004320008712902501,-1.9460018807815338e-05,9.230958986461424e-05,5.556986875107639e-05,5.5676970367901646e-05,-1.680690893390846e-05,0.00044889332264062067,-0.00021240318122893012,0.00016965005475356814,0.0006189485571235839,6.035880169694599e-05,0.000497929356656474,0.001513884323550224,0.7084590792655945,46.50039291381836,5.663662433624268,-19.658235549926758,-0.6301780343055725,-2.4108920097351074,0.33084434270858765,0
34,0.1650700569152832,-0.7084590792655945,-46.50039291381836,-5.663662433624268,19.658235549926758,0.6301780343055725,2.4108920097351074,-0.33084434270858765,0.0,0.0,0.0,0.0,0.0,0.0,0.0,-0.7133511188630204,-0.17194942066817515,-0.49447260387904074,0.4407431829902259,0.04791321196244092,0.13826581279455413,-0.37784391725562405,0.8780620159642737,0.7558917503022311,-0.2825358051505129,-1.669191671050578,0.14136302564847952,2.4033894403972704,1.027354907139738,0.878092876070424,0.7554597494309409,-0.2825552651693207,-1.6690993614607135,0.1414185955172306,2.4034451173676383,1.0273381002308042,-0.00044889332264062067,0.00021240318122893012,-0.00016965005475356814,-0.0006189485571235839,-6.035880169694599e-05,-0.000497929356656474,-0.001513884323550224,0.0,0.0,0.0,0.0,0.0,0.0,0.0,3.086010615027668e-05,-0.0004320008712902501,-1.9460018807815338e-05,9.230958986461424e-05,5.556986875107639e-05,5.5676970367901646e-05,-1.680690893390846e-05,0.00044889332264062067,-0.00021240318122893012,0.00016965005475356814,0.0006189485571235839,6.035880169694599e-05,0.000497929356656474,0.001513884323550224,0.7084590792655945,46.50039291381836,5.663662433624268,-19.658235549926758,-0.6301780343055725,-2.4108920097351074,0.33084434270858765,0
35,0.17000937461853027,-0.7322627902030945,-46.47658920288086,-5.635891437530518,19.658235549926758,0.6237693428993225,2.4044833183288574,-0.39950889348983765,0.0,0.0,0.0,0.0,0.0,0.0,0.0,-0.717773033101565,-0.16609109790072782,-0.4964511721897061,0.4386637459602114,0.048023215488460204,0.1377341735352862,-0.376164542458702,0.878063686400129,0.7558921858971578,-0.28253799375544014,-1.6691938109644107,0.14136373756329246,2.4033931320725817,1.0273646674329329,0.878092876070424,0.7554597494309409,-0.2825552651693207,-1.6690993614607135,0.1414185955172306,2.4034451173676383,1.0273381002308042,0.0004332748938452311,-0.0007172707301053362,-0.0007614088134593408,-0.00017724834925388408,0.0003896593533118551,3.639808797307636e-05,0.0008315195502570071,0.0,0.0,0.0,0.0,0.0,0.0,0.0,2.9189670294971215e-05,-0.00043243646621693443,-1.7271413880581843e-05,9.444950369719152e-05,5.485795393814219e-05,5.198529505667793e-05,-2.6567202128680023e-05,-0.0004332748938452311,0.0007172707301053362,0.0007614088134593408,0.00017724834925388408,-0.0003896593533118551,-3.639808797307636e-05,-0.0008315195502570071,0.7322627902030945,46.47658920288086,5.635891437530518,-19.658235549926758,-0.6237693428993225,-2.4044833183288574,0.39950889348983765,0
36,0.1750199794769287,-0.7322627902030945,-46.47658920288086,-5.635891437530518,19.658235549926758,0.6237693428993225,2.4044833183288574,-0.39950889348983765,0.0,0.0,0.0,0.0,0.0,0.0,0.0,-0.717773033101565,-0.16609109790072782,-0.4964511721897061,0.4386637459602114,0.048023215488460204,0.1377341735352862,-0.376164542458702,0.878063686400129,0.7558921858971578,-0.28253799375544014,-1.6691938109644107,0.14136373756329246,2.4033931320725817,1.0273646674329329,0.878092876070424,0.7554597494309409,-0.2825552651693207,-1.6690993614607135,0.1414185955172306,2.4034451173676383,1.0273381002308042,0.0004332748938452311,-0.0007172707301053362,-0.0007614088134593408,-0.00017724834925388408,0.0003896593533118551,3.639808797307636e-05,0.0008315195502570071,0.0,0.0,0.0,0.0,0.0,0.0,0.0,2.9189670294971215e-05,-0.00043243646621693443,-1.7271413880581843e-05,9.444950369719152e-05,5.485795393814219e-05,5.198529505667793e-05,-2.6567202128680023e-05,-0.0004332748938452311,0.0007172707301053362,0.0007614088134593408,0.00017724834925388408,-0.0003896593533118551,-3.639808797307636e-05,-0.0008315195502570071,0.7322627902030945,46.47658920288086,5.635891437530518,-19.658235549926758,-0.6237693428993225,-2.4044833183288574,0.39950889348983765,0
37,0.17999768257141113,-0.7084590792655945,-46.57577133178711,-5.663662433624268,19.634431838989258,0.6420798897743225,2.4044833183288574,-0.39218467473983765,0.0,0.0,0.0,0.0,0.0,0.0,0.0,-0.730410166559332,-0.17727384398827736,-0.5033993834126551,0.44309234508170814,0.04923698206517477,0.1380612262987978,-0.3765187145089657,0.8780620159642737,0.7558970515833858,-0.2825381107372103,-1.6691911956882513,0.1413617555494171,2.403393030396066,1.027364561025319,0.878092876070424,0.7554597494309409,-0.2825552651693207,-1.6690993614607135,0.1414185955172306,2.4034451173676383,1.0273381002308042,8.661808606394708e-05,0.001014778504075827,-0.0005711529674586089,-0.00020193908945192622,-0.0010746060579488903,-2.5128379268570584e-05,0.0005344785077557368,0.0,0.0,0.0,0.0,0.0,0.0,0.0,3.086010615027668e-05,-0.00043730215244497384,-1.7154432110422224e-05,9.183422753777926e-05,5.683996781349898e-05,5.208697157232933e-05,-2.646079451484873e-05,-8.661808606394708e-05,-0.001014778504075827,0.0005711529674586089,0.00020193908945192622,0.0010746060579488903,2.5128379268570584e-05,-0.0005344785077557368,0.7084590792655945,46.57577133178711,5.663662433624268,-19.634431838989258,-0.6420798897743225,-2.4044833183288574,0.39218467473983765,0
38,0.18503689765930176,-0.7084590792655945,-46.57577133178711,-5.663662433624268,19.634431838989258,0.6420798897743225,2.4044833183288574,-0.39218467473983765,0.0,0.0,0.0,0.0,0.0,0.0,0.0,-0.730410166559332,-0.17727384398827736,-0.5033993834126551,0.44309234508170814,0.04923698206517477,0.1380612262987978,-0.3765187145089657,0.8780620159642737,0.7558970515833858,-0.2825381107372103,-1.6691911956882513,0.1413617555494171,2.403393030396066,1.027364561025319,0.878092876070424,0.7554597494309409,-0.2825552651693207,-1.6690993614607135,0.1414185955172306,2.4034451173676383,1.0273381002308042,8.661808606394708e-05,0.001014778504075827,-0.0005711529674586089,-0.00020193908945192622,-0.0010746060579488903,-2.5128379268570584e-05,0.0005344785077557368,0.0,0.0,0.0,0.0,0.0,0.0,0.0,3.086010615027668e-05,-0.00043730215244497384,-1.7154432110422224e-05,9.183422753777926e-05,5.683996781349898e-05,5.208697157232933e-05,-2.646079451484873e-05,-8.661808606394708e-05,-0.001014778504075827,0.0005711529674586089,0.00020193908945192622,0.0010746060579488903,2.5128379268570584e-05,-0.0005344785077557368,0.7084590792655945,46.57577133178711,5.663662433624268,-19.634431838989258,-0.6420798897743225,-2.4044833183288574,0.39218467473983765,0
39,0.19003605842590332,-0.7084590792655945,-46.47658920288086,-5.663662433624268,19.610628128051758,0.6237693428993225,2.3980746269226074,-0.34457725286483765,0.0,0.0,0.0,0.0,0.0,0.0,0.0,-0.7251805472079011,-0.16534220098849828,-0.4981823173399257,0.4353829930903694,0.04852530643222835,0.13764202555466862,-0.37640840220538613,0.8780620159642737,0.7558900798664411,-0.28253810976772553,-1.6691905318669462,0.14136373756358847,2.4033936917057264,1.027359494193475,0.878092876070424,0.7554597494309409,-0.2825552651693207,-1.6690993614607135,0.1414185955172306,2.4034451173676383,1.0273381002308042,-0.0004711887958138928,-0.0008076835157375447,-0.0002629829742200177,0.0008012986619798801,0.00034614546300716485,0.00018933857869651597,-0.0016057051732443115,0.0,0.0,0.0,0.0,0.0,0.0,0.0,3.086010615027668e-05,-0.00043033043550022576,-1.7155401595192465e-05,9.117040623274342e-05,5.4857953642128976e-05,5.1425661911963516e-05,-2.1393962670757105e-05,0.0004711887958138928,0.0008076835157375447,0.0002629829742200177,-0.0008012986619798801,-0.00034614546300716485,-0.00018933857869651597,0.0016057051732443115,0.7084590792655945,46.47658920288086,5.663662433624268,-19.610628128051758,-0.6237693428993225,-2.3980746269226074,0.34457725286483765,0
40,0.19500994682312012,-0.7084590792655945,-46.47658920288086,-5.663662433624268,19.610628128051758,0.6237693428993225,2.3980746269226074,-0.34457725286483765,0.0,0.0,0.0,0.0,0.0,0.0,0.0,-0.7251805472079011,-0.16534220098849828,-0.4981823173399257,0.4353829930903694,0.04852530643222835,0.13764202555466862,-0.37640840220538613,0.8780620159642737,0.7558900798664411,-0.28253810976772553,-1.6691905318669462,0.14136373756358847,2.4033936917057264,1.027359494193475,0.878092876070424,0.7554597494309409,-0.2825552651693207,-1.6690993614607135,0.1414185955172306,2.4034451173676383,1.0273381002308042,-0.0004711887958138928,-0.0008076835157375447,-0.0002629829742200177,0.0008012986619798801,0.00034614546300716485,0.00018933857869651597,-0.0016057051732443115,0.0,0.0,0.0,0.0,0.0,0.0,0.0,3.086010615027668e-05,-0.00043033043550022576,-1.7155401595192465e-05,9.117040623274342e-05,5.4857953642128976e-05,5.1425661911963516e-05,-2.1393962670757105e-05,0.0004711887958138928,0.0008076835157375447,0.0002629829742200177,-0.0008012986619798801,-0.00034614546300716485,-0.00018933857869651597,0.0016057051732443115,0.7084590792655945,46.47658920288086,5.663662433624268,-19.610628128051758,-0.6237693428993225,-2.3980746269226074,0.34457725286483765,0
41,0.2000126838684082,-0.7084590792655945,-46.50039291381836,-5.635891437530518,19.658235549926758,0.6475730538368225,2.3916659355163574,-0.37845176458358765,0.0,0.0,0.0,0.0,0.0,0.0,0.0,-0.7284506031426089,-0.16779380972329863,-0.5001345503311558,0.4345189436974767,0.04875266570488828,0.13757328144775527,-0.37731593594370516,0.8780620159642737,0.7558917503022311,-0.28253770974503123,-1.669193899271631,0.14136109270652136,2.403394757371819,1.0273633888488907,0.878092876070424,0.7554597494309409,-0.2825552651693207,-1.6690993614607135,0.1414185955172306,2.4034451173676383,1.0273381002308042,-0.0005917553490972142,-0.00019162238907981843,-0.0011149307692180982,-0.0008613451807662281,-0.0004979131993636976,0.00044888553861725507,0.000643461145861781,0.0,0.0,0.0,0.0,0.0,0.0,0.0,3.086010615027668e-05,-0.0004320008712902501,-1.755542428949486e-05,9.453781091761648e-05,5.7502810709236796e-05,5.0359995819260206e-05,-2.5288618086483083e-05,0.0005917553490972142,0.00019162238907981843,0.0011149307692180982,0.0008613451807662281,0.0004979131993636976,-0.00044888553861725507,-0.000643461145861781,0.7084590792655945,46.50039291381836,5.635891437530518,-19.658235549926758,-0.6475730538368225,-2.3916659355163574,0.37845176458358765,0
42,0.20501279830932617,-0.7084590792655945,-46.50039291381836,-5.635891437530518,19.658235549926758,0.6475730538368225,2.3916659355163574,-0.37845176458358765,0.0,0.0,0.0,0.0,0.0,0.0,0.0,-0.7284506031426089,-0.16779380972329863,-0.5001345503311558,0.4345189436974767,0.04875266570488828,0.13757328144775527,-0.37731593594370516,0.8780620159642737,0.7558917503022311,-0.28253770974503123,-1.669193899271631,0.14136109270652136,2.403394757371819,1.0273633888488907,0.878092876070424,0.7554597494309409,-0.2825552651693207,-1.6690993614607135,0.1414185955172306,2.4034451173676383,1.0273381002308042,-0.0005917553490972142,-0.00019162238907981843,-0.0011149307692180982,-0.0008613451807662281,-0.0004979131993636976,0.00044888553861725507,0.000643461145861781,0.0,0.0,0.0,0.0,0.0,0.0,0.0,3.086010615027668e-05,-0.0004320008712902501,-1.755542428949486e-05,9.453781091761648e-05,5.7502810709236796e-05,5.0359995819260206e-05,-2.5288618086483083e-05,0.0005917553490972142,0.00019162238907981843,0.0011149307692180982,0.0008613451807662281,0.0004979131993636976,-0.00044888553861725507,-0.000643461145861781,0.7084590792655945,46.50039291381836,5.635891437530518,-19.658235549926758,-0.6475730538368225,-2.3916659355163574,0.37845176458358765,0
43,0.21001410484313965,-0.7322627902030945,-46.40121078491211,-5.663662433624268,19.610628128051758,0.6301780343055725,2.4108920097351074,-0.37845176458358765,0.0,0.0,0.0,0.0,0.0,0.0,0.0,-0.7245451448021657,-0.15874955611677763,-0.49611395118018986,0.43070968730045084,0.04903152205006846,0.13681201181659666,-0.3776848107939523,0.878063686400129,0.7558847901528342,-0.28253596500473394,-1.66918838483371,0.14136302548646926,2.4033922767596088,1.0273633757676768,0.878092876070424,0.7554597494309409,-0.2825552651693207,-1.6690993614607135,0.1414185955172306,2.4034451173676383,1.0273381002308042,0.00039068485153786315,-0.0017981929745588922,-0.0005234712123061038,0.0006252521103257908,0.00022398091507851793,-0.00018475706959201132,-0.0001446294215300009,0.0,0.0,0.0,0.0,0.0,0.0,0.0,2.9189670294971215e-05,-0.00042504072189331055,-1.9300164586788515e-05,8.902337299643293e-05,5.5570030761342704e-05,5.284060802956958e-05,-2.5275536872593207e-05,-0.00039068485153786315,0.0017981929745588922,0.0005234712123061038,-0.0006252521103257908,-0.00022398091507851793,0.00018475706959201132,0.0001446294215300009,0.7322627902030945,46.40121078491211,5.663662433624268,-19.610628128051758,-0.6301780343055725,-2.4108920097351074,0.37845176458358765,0
44,0.21500778198242188,-0.7322627902030945,-46.40121078491211,-5.663662433624268,19.610628128051758,0.6301780343055725,2.4108920097351074,-0.37845176458358765,0.0,0.0,0.0,0.0,0.0,0.0,0.0,-0.7245451448021657,-0.15874955611677763,-0.49611395118018986,0.43070968730045084,0.04903152205006846,0.13681201181659666,-0.3776848107939523,0.878063686400129,0.7558847901528342,-0.28253596500473394,-1.66918838483371,0.14136302548646926,2.4033922767596088,1.0273633757676768,0.878092876070424,0.7554597494309409,-0.2825552651693207,-1.6690993614607135,0.1414185955172306,2.4034451173676383,1.0273381002308042,0.00039068485153786315,-0.0017981929745588922,-0.0005234712123061038,0.0006252521103257908,0.00022398091507851793,-0.00018475706959201132,-0.0001446294215300009,0.0,0.0,0.0,0.0,0.0,0.0,0.0,2.9189670294971215e-05,-0.00042504072189331055,-1.9300164586788515e-05,8.902337299643293e-05,5.5570030761342704e-05,5.284060802956958e-05,-2.5275536872593207e-05,-0.00039068485153786315,0.0017981929745588922,0.0005234712123061038,-0.0006252521103257908,-0.00022398091507851793,0.00018475706959201132,0.0001446294215300009,0.7322627902030945,46.40121078491211,5.663662433624268,-19.610628128051758,-0.6301780343055725,-2.4108920097351074,0.37845176458358765,0
45,0.21999692916870117,-0.6806880831718445,-46.47658920288086,-5.663662433624268,19.634431838989258,0.6356711983680725,2.4044833183288574,-0.33725303411483765,0.0,0.0,0.0,0.0,0.0,0.0,0.0,-0.7211519458415976,-0.17845461848042682,-0.49769588545295756,0.44021741302122397,0.04946699720618666,0.1389214985942998,-0.3780892749754877,0.8780600671224426,0.7558900798663758,-0.28253652033475757,-1.6691919609706845,0.14136241513490677,2.4033912226632683,1.027358405672318,0.878092876070424,0.7554597494309409,-0.2825552651693207,-1.6690993614607135,0.1414185955172306,2.4034451173676383,1.0273381002308042,-0.0006635699309134081,-0.00042543762776056605,-0.00037646459436117184,-0.00012632371248818706,-0.00014563899904224717,-0.00013442010671300687,-0.0019592719024009234,0.0,0.0,0.0,0.0,0.0,0.0,0.0,3.2808947981410874e-05,-0.00043033043543494465,-1.8744834563155788e-05,9.259950997098088e-05,5.618038232382827e-05,5.389470437000554e-05,-2.030544151376823e-05,0.0006635699309134081,0.00042543762776056605,0.00037646459436117184,0.00012632371248818706,0.00014563899904224717,0.00013442010671300687,0.0019592719024009234,0.6806880831718445,46.47658920288086,5.663662433624268,-19.634431838989258,-0.6356711983680725,-2.4044833183288574,0.33725303411483765,0
46,0.22501230239868164,-0.6806880831718445,-46.47658920288086,-5.663662433624268,19.634431838989258,0.6356711983680725,2.4044833183288574,-0.33725303411483765,0.0,0.0,0.0,0.0,0.0,0.0,0.0,-0.7211519458415976,-0.17845461848042682,-0.49769588545295756,0.44021741302122397,0.04946699720618666,0.1389214985942998,-0.3780892749754877,0.8780600671224426,0.7558900798663758,-0.28253652033475757,-1.6691919609706845,0.14136241513490677,2.4033912226632683,1.027358405672318,0.878092876070424,0.7554597494309409,-0.2825552651693207,-1.6690993614607135,0.1414185955172306,2.4034451173676383,1.0273381002308042,-0.0006635699309134081,-0.00042543762776056605,-0.00037646459436117184,-0.00012632371248818706,-0.00014563899904224717,-0.00013442010671300687,-0.0019592719024009234,0.0,0.0,0.0,0.0,0.0,0.0,0.0,3.2808947981410874e-05,-0.00043033043543494465,-1.8744834563155788e-05,9.259950997098088e-05,5.618038232382827e-05,5.389470437000554e-05,-2.030544151376823e-05,0.0006635699309134081,0.00042543762776056605,0.00037646459436117184,0.00012632371248818706,0.00014563899904224717,0.00013442010671300687,0.0019592719024009234,0.6806880831718445,46.47658920288086,5.663662433624268,-19.634431838989258,-0.6356711983680725,-2.4044833183288574,0.33725303411483765,0
47,0.23000001907348633,-0.6806880831718445,-46.44881820678711,-5.663662433624268,19.610628128051758,0.6301780343055725,2.4044833183288574,-0.41965049505233765,0.0,0.0,0.0,0.0,0.0,0.0,0.0,-0.7197018274351462,-0.17464551462496863,-0.49787685416169686,0.4394675308695038,0.049126235627960625,0.13878738764969847,-0.3787570930965232,0.8780600671224426,0.7558881310245447,-0.28253811077324187,-1.6691904700963889,0.14136302548646926,2.4033912517189293,1.027364434358487,0.878092876070424,0.7554597494309409,-0.2825552651693207,-1.6690993614607135,0.1414185955172306,2.4034451173676383,1.0273381002308042,-0.0007229697037671307,-0.001306003714682019,-0.00014364863777065946,0.0010925792530581395,0.00018528217485736821,4.452319519140607e-05,0.0019388905138977978,0.0,0.0,0.0,0.0,0.0,0.0,0.0,3.2808947981410874e-05,-0.00042838159360381045,-1.7154396078855605e-05,9.110863567540761e-05,5.5570030761342704e-05,5.386564870901722e-05,-2.633412768271448e-05,0.0007229697037671307,0.001306003714682019,0.00014364863777065946,-0.0010925792530581395,-0.00018528217485736821,-4.452319519140607e-05,-0.0019388905138977978,0.6806880831718445,46.44881820678711,5.663662433624268,-19.610628128051758,-0.6301780343055725,-2.4044833183288574,0.41965049505233765,0
48,0.23500323295593262,-0.6806880831718445,-46.44881820678711,-5.663662433624268,19.610628128051758,0.6301780343055725,2.4044833183288574,-0.41965049505233765,0.0,0.0,0.0,0.0,0.0,0.0,0.0,-0.7197018274351462,-0.17464551462496863,-0.49787685416169686,0.4394675308695038,0.049126235627960625,0.13878738764969847,-0.3787570930965232,0.8780600671224426,0.7558881310245447,-0.28253811077324187,-1.6691904700963889,0.14136302548646926,2.4033912517189293,1.027364434358487,0.878092876070424,0.7554597494309409,-0.2825552651693207,-1.6690993614607135,0.1414185955172306,2.4034451173676383,1.0273381002308042,-0.0007229697037671307,-0.001306003714682019,-0.00014364863777065946,0.0010925792530581395,0.00018528217485736821,4.452319519140607e-05,0.0019388905138977978,0.0,0.0,0.0,0.0,0.0,0.0,0.0,3.2808947981410874e-05,-0.00042838159360381045,-1.7154396078855605e-05,9.110863567540761e-05,5.5570030761342704e-05,5.386564870901722e-05,-2.633412768271448e-05,0.0007229697037671307,0.001306003714682019,0.00014364863777065946,-0.0010925792530581395,-0.00018528217485736821,-4.452319519140607e-05,-0.0019388905138977978,0.6806880831718445,46.44881820678711,5.663662433624268,-19.610628128051758,-0.6301780343055725,-2.4044833183288574,0.41965049505233765,0
49,0.23999810218811035,-0.6806880831718445,-46.52419662475586,-5.635891437530518,19.634431838989258,0.6420798897743225,2.4108920097351074,-0.39950889348983765,0.0,0.0,0.0,0.0,0.0,0.0,0.0,-0.7226033882666704,-0.17453861119356479,-0.50076665781018,0.4366186605401675,0.049149727894518734,0.1380775162719461,-0.37836065567383637,0.8780600671224426,0.7558934207380864,-0.28253767773059274,-1.6691900565772622,0.14136170305808385,2.4033902997580183,1.0273655713657477,0.878092876070424,0.7554597494309409,-0.2825552651693207,-1.6690993614607135,0.1414185955172306,2.4034451173676383,1.0273381002308042,-0.0008163087633321313,0.00015771548770110338,-0.0009362955503527866,-0.0002843746483031641,-0.00035246563860688926,-0.0003014929541884593,0.001305941333873458,0.0,0.0,0.0,0.0,0.0,0.0,0.0,3.2808947981410874e-05,-0.0004336713071455556,-1.758743872798396e-05,9.069511654868911e-05,5.689245914675123e-05,5.4817609620005925e-05,-2.747113494350195e-05,0.0008163087633321313,-0.00015771548770110338,0.0009362955503527866,0.0002843746483031641,0.00035246563860688926,0.0003014929541884593,-0.001305941333873458,0.6806880831718445,46.52419662475586,5.635891437530518,-19.634431838989258,-0.6420798897743225,-2.4108920097351074,0.39950889348983765,0
50,0.2449963092803955,-0.6806880831718445,-46.52419662475586,-5.635891437530518,19.634431838989258,0.6420798897743225,2.4108920097351074,-0.39950889348983765,0.0,0.0,0.0,0.0,0.0,0.0,0.0,-0.7226033882666704,-0.17453861119356479,-0.50076665781018,0.4366186605401675,0.049149727894518734,0.1380775162719461,-0.37836065567383637,0.8780600671224426,0.7558934207380864,-0.28253767773059274,-1.6691900565772622,0.14136170305808385,2.4033902997580183,1.0273655713657477,0.878092876070424,0.7554597494309409,-0.2825552651693207,-1.6690993614607135,0.1414185955172306,2.4034451173676383,1.0273381002308042,-0.0008163087633321313,0.00015771548770110338,-0.0009362955503527866,-0.0002843746483031641,-0.00035246563860688926,-0.0003014929541884593,0.001305941333873458,0.0,0.0,0.0,0.0,0.0,0.0,0.0,3.2808947981410874e-05,-0.0004336713071455556,-1.758743872798396e-05,9.069511654868911e-05,5.689245914675123e-05,5.4817609620005925e-05,-2.747113494350195e-05,0.0008163087633321313,-0.00015771548770110338,0.0009362955503527866,0.0002843746483031641,0.00035246563860688926,0.0003014929541884593,-0.001305941333873458,0.6806880831718445,46.52419662475586,5.635891437530518,-19.634431838989258,-0.6420798897743225,-2.4108920097351074,0.39950889348983765,0
51,0.25000691413879395,-0.7322627902030945,-46.50039291381836,-5.635891437530518,19.610628128051758,0.6356711983680725,2.4044833183288574,-0.40591758489608765,0.0,0.0,0.0,0.0,0.0,0.0,0.0,-0.7203244466963359,-0.1690450215912093,-0.4989758149057687,0.43369376981828633,0.04884401029099927,0.13773547511220374,-0.37681470856014243,0.878063686400129,0.7558917503022311,-0.2825377539195186,-1.6691884122572085,0.14136241513490677,2.40339337067636,1.0273650258176485,0.878092876070424,0.7554597494309409,-0.2825552651693207,-1.6690993614607135,0.1414185955172306,2.4034451173676383,1.0273381002308042,0.0007488078285170499,-5.123163782425525e-06,-0.0013611281685333002,0.0005151078588029558,-0.00012718891726097592,-5.037932218058336e-05,0.0007556710253287286,0.0,0.0,0.0,0.0,0.0,0.0,0.0,2.9189670294971215e-05,-0.0004320008712902501,-1.751124980214902e-05,8.905079649501602e-05,5.618038232382827e-05,5.1746691278165e-05,-2.692558684436186e-05,-0.0007488078285170499,5.123163782425525e-06,0.0013611281685333002,-0.0005151078588029558,0.00012718891726097592,5.037932218058336e-05,-0.0007556710253287286,0.7322627902030945,46.50039291381836,5.635891437530518,-19.610628128051758,-0.6356711983680725,-2.4044833183288574,0.40591758489608765,0
52,0.25501322746276855,-0.7322627902030945,-46.50039291381836,-5.635891437530518,19.610628128051758,0.6356711983680725,2.4044833183288574,-0.40591758489608765,0.0,0.0,0.0,0.0,0.0,0.0,0.0,-0.7203244466963359,-0.1690450215912093,-0.4989758149057687,0.43369376981828633,0.04884401029099927,0.13773547511220374,-0.37681470856014243,0.878063686400129,0.7558917503022311,-0.2825377539195186,-1.6691884122572085,0.14136241513490677,2.40339337067636,1.0273650258176485,0.878092876070424,0.7554597494309409,-0.2825552651693207,-1.6690993614607135,0.1414185955172306,2.4034451173676383,1.0273381002308042,0.0007488078285170499,-5.123163782425525e-06,-0.0013611281685333002,0.0005151078588029558,-0.00012718891726097592,-5.037932218058336e-05,0.0007556710253287286,0.0,0.0,0.0,0.0,0.0,0.0,0.0,2.9189670294971215e-05,-0.0004320008712902501,-1.751124980214902e-05,8.905079649501602e-05,5.618038232382827e-05,5.1746691278165e-05,-2.692558684436186e-05,-0.0007488078285170499,5.123163782425525e-06,0.0013611281685333002,-0.0005151078588029558,0.00012718891726097592,5.037932218058336e-05,-0.0007556710253287286,0.7322627902030945,46.50039291381836,5.635891437530518,-19.610628128051758,-0.6356711983680725,-2.4044833183288574,0.40591758489608765,0
53,0.26001763343811035,-0.7322627902030945,-46.50039291381836,-5.635891437530518,19.610628128051758,0.6356711983680725,2.4044833183288574,-0.40591758489608765,0.0,0.0,0.0,0.0,0.0,0.0,0.0,-0.7203244466963359,-0.1690450215912093,-0.4989758149057687,0.43369376981828633,0.04884401029099927,0.13773547511220374,-0.37681470856014243,0.878063686400129,0.7558917503022311,-0.2825377539195186,-1.6691884122572085,0.14136241513490677,2.40339337067636,1.0273650258176485,0.878092876070424,0.7554597494309409,-0.2825552651693207,-1.6690993614607135,0.1414185955172306,2.4034451173676383,1.0273381002308042,0.0007488078285170499,-5.123163782425525e-06,-0.0013611281685333002,0.0005151078588029558,-0.00012718891726097592,-5.037932218058336e-05,0.0007556710253287286,0.0,0.0,0.0,0.0,0.0,0.0,0.0,2.9189670294971215e-05,-0.0004320008712902501,-1.751124980214902e-05,8.905079649501602e-05,5.618038232382827e-05,5.1746691278165e-05,-2.692558684436186e-05,-0.0007488078285170499,5.123163782425525e-06,0.0013611281685333002,-0.0005151078588029558,0.00012718891726097592,5.037932218058336e-05,-0.0007556710253287286,0.7322627902030945,46.50039291381836,5.635891437530518,-19.610628128051758,-0.6356711983680725,-2.4044833183288574,0.40591758489608765,0
54,0.26500487327575684,-0.7322627902030945,-46.50039291381836,-5.635891437530518,19.610628128051758,0.6356711983680725,2.4044833183288574,-0.40591758489608765,0.0,0.0,0.0,0.0,0.0,0.0,0.0,-0.7203244466963359,-0.1690450215912093,-0.4989758149057687,0.43369376981828633,0.04884401029099927,0.13773547511220374,-0.37681470856014243,0.878063686400129,0.7558917503022311,-0.2825377539195186,-1.6691884122572085,0.14136241513490677,2.40339337067636,1.0273650258176485,0.878092876070424,0.7554597494309409,-0.2825552651693207,-1.6690993614607135,0.1414185955172306,2.4034451173676383,1.0273381002308042,0.0007488078285170499,-5.123163782425525e-06,-0.0013611281685333002,0.0005151078588029558,-0.00012718891726097592,-5.037932218058336e-05,0.0007556710253287286,0.0,0.0,0.0,0.0,0.0,0.0,0.0,2.9189670294971215e-05,-0.0004320008712902501,-1.751124980214902e-05,8.905079649501602e-05,5.618038232382827e-05,5.1746691278165e-05,-2.692558684436186e-05,-0.0007488078285170499,5.123163782425525e-06,0.0013611281685333002,-0.0005151078588029558,0.00012718891726097592,5.037932218058336e-05,-0.0007556710253287286,0.7322627902030945,46.50039291381836,5.635891437530518,-19.610628128051758,-0.6356711983680725,-2.4044833183288574,0.40591758489608765,0
55,0.2700016498565674,-0.7084590792655945,-46.52419662475586,-5.663662433624268,19.634431838989258,0.6301780343055725,2.3916659355163574,-0.36471885442733765,0.0,0.0,0.0,0.0,0.0,0.0,0.0,-0.7192509908569666,-0.16735608988098918,-0.5015882601044318,0.4333714668144022,0.04899933150971171,0.13782775754087717,-0.3775732645011695,0.8780620159642737,0.7558936547415066,-0.28253572665908167,-1.6691915135317348,0.14136302548646926,2.4033916914597113,1.0273617437716163,0.878092876070424,0.7554597494309409,-0.2825552651693207,-1.6690993614607135,0.1414185955172306,2.4034451173676383,1.0273381002308042,-5.5414409455189686e-05,0.0011470666823780028,-0.000388235861062376,-0.00012157154008676686,0.00013141492438357985,0.0003284094606162608,-0.00010544998559501259,0.0,0.0,0.0,0.0,0.0,0.0,0.0,3.086010615027668e-05,-0.000433905310565752,-1.9538510239058837e-05,9.215207102131195e-05,5.5570030761342704e-05,5.342590792700719e-05,-2.3643540812079422e-05,5.5414409455189686e-05,-0.0011470666823780028,0.000388235861062376,0.00012157154008676686,-0.00013141492438357985,-0.0003284094606162608,0.00010544998559501259,0.7084590792655945,46.52419662475586,5.663662433624268,-19.634431838989258,-0.6301780343055725,-2.3916659355163574,0.36471885442733765,0
56,0.27499985694885254,-0.7084590792655945,-46.52419662475586,-5.663662433624268,19.634431838989258,0.6301780343055725,2.3916659355163574,-0.36471885442733765,0.0,0.0,0.0,0.0,0.0,0.0,0.0,-0.7192509908569666,-0.16735608988098918,-0.5015882601044318,0.4333714668144022,0.04899933150971171,0.13782775754087717,-0.3775732645011695,0.8780620159642737,0.7558936547415066,-0.28253572665908167,-1.6691915135317348,0.14136302548646926,2.4033916914597113,1.0273617437716163,0.878092876070424,0.7554597494309409,-0.2825552651693207,-1.6690993614607135,0.1414185955172306,2.4034451173676383,1.0273381002308042,-5.5414409455189686e-05,0.0011470666823780028,-0.000388235861062376,-0.00012157154008676686,0.00013141492438357985,0.0003284094606162608,-0.00010544998559501259,0.0,0.0,0.0,0.0,0.0,0.0,0.0,3.086010615027668e-05,-0.000433905310565752,-1.9538510239058837e-05,9.215207102131195e-05,5.5570030761342704e-05,5.342590792700719e-05,-2.3643540812079422e-05,5.5414409455189686e-05,-0.0011470666823780028,0.000388235861062376,0.00012157154008676686,-0.00013141492438357985,-0.0003284094606162608,0.00010544998559501259,0.7084590792655945,46.52419662475586,5.663662433624268,-19.634431838989258,-0.6301780343055725,-2.3916659355163574,0.36471885442733765,0
57,0.279996395111084,-0.7560665011405945,-46.50039291381836,-5.663662433624268,19.658235549926758,0.6420798897743225,2.4108920097351074,-0.41324180364608765,0.0,0.0,0.0,0.0,0.0,0.0,0.0,-0.7301846012557998,-0.16364431421456943,-0.5078432256458847,0.43356647171735985,0.04877014574470563,0.13712022227519688,-0.3768397714297691,0.8780653568359842,0.755893856334334,-0.2825357285119156,-1.6691914786705184,0.14136170305808385,2.4033892183649135,1.0273672539243355,0.878092876070424,0.7554597494309409,-0.2825552651693207,-1.6690993614607135,0.1414185955172306,2.4034451173676383,1.0273381002308042,3.853958728092593e-05,0.0006892955382421843,0.00010755795243912036,-0.0005043552288566486,-0.0005505059303928259,-0.00045860880934408513,0.0014440425265476399,0.0,0.0,0.0,0.0,0.0,0.0,0.0,2.7519234439776774e-05,-0.00043410690339318325,-1.953665740511701e-05,9.211720980495386e-05,5.689245914675123e-05,5.589900272484627e-05,-2.9153693531291935e-05,-3.853958728092593e-05,-0.0006892955382421843,-0.00010755795243912036,0.0005043552288566486,0.0005505059303928259,0.00045860880934408513,-0.0014440425265476399,0.7560665011405945,46.50039291381836,5.663662433624268,-19.658235549926758,-0.6420798897743225,-2.4108920097351074,0.41324180364608765,0
58,0.28499436378479004,-0.7560665011405945,-46.50039291381836,-5.663662433624268,19.658235549926758,0.6420798897743225,2.4108920097351074,-0.41324180364608765,0.0,0.0,0.0,0.0,0.0,0.0,0.0,-0.7301846012557998,-0.16364431421456943,-0.5078432256458847,0.43356647171735985,0.04877014574470563,0.13712022227519688,-0.3768397714297691,0.8780653568359842,0.755893856334334,-0.2825357285119156,-1.6691914786705184,0.14136170305808385,2.4033892183649135,1.0273672539243355,0.878092876070424,0.7554597494309409,-0.2825552651693207,-1.6690993614607135,0.1414185955172306,2.4034451173676383,1.0273381002308042,3.853958728092593e-05,0.0006892955382421843,0.00010755795243912036,-0.0005043552288566486,-0.0005505059303928259,-0.00045860880934408513,0.0014440425265476399,0.0,0.0,0.0,0.0,0.0,0.0,0.0,2.7519234439776774e-05,-0.00043410690339318325,-1.953665740511701e-05,9.211720980495386e-05,5.689245914675123e-05,5.589900272484627e-05,-2.9153693531291935e-05,-3.853958728092593e-05,-0.0006892955382421843,-0.00010755795243912036,0.0005043552288566486,0.0005505059303928259,0.00045860880934408513,-0.0014440425265476399,0.7560665011405945,46.50039291381836,5.663662433624268,-19.658235549926758,-0.6420798897743225,-2.4108920097351074,0.41324180364608765,0
59,0.29000401496887207,-0.7322627902030945,-46.44881820678711,-5.687466144561768,19.610628128051758,0.6420798897743225,2.4044833183288574,-0.41965049505233765,0.0,0.0,0.0,0.0,0.0,0.0,0.0,-0.7098436388537589,-0.163618085812412,-0.4907822460296285,0.4373014528334824,0.047509693677293706,0.1367958926114632,-0.3767415229850766,0.878063686400129,0.7558881397032267,-0.2825350088432867,-1.6691884027713912,0.14136170305808385,2.4033929780501837,1.0273674940286799,0.878092876070424,0.7554597494309409,-0.2825552651693207,-1.6690993614607135,0.1414185955172306,2.4034451173676383,1.0273381002308042,0.00048028319986041193,-0.0011533831645693287,5.340835485732801e-05,0.00040359865932205666,-0.00030975659541333084,-1.1327507657983297e-05,0.0019273277583559064,0.0,0.0,0.0,0.0,0.0,0.0,0.0,2.9189670294971215e-05,-0.00042839027228580573,-2.025632603402938e-05,8.904131067777321e-05,5.689245914675123e-05,5.2139317454624745e-05,-2.9393797875698624e-05,-0.00048028319986041193,0.0011533831645693287,-5.340835485732801e-05,-0.00040359865932205666,0.00030975659541333084,1.1327507657983297e-05,-0.0019273277583559064,0.7322627902030945,46.44881820678711,5.687466144561768,-19.610628128051758,-0.6420798897743225,-2.4044833183288574,0.41965049505233765,0
60,0.29501867294311523,-0.7322627902030945,-46.44881820678711,-5.687466144561768,19.610628128051758,0.6420798897743225,2.4044833183288574,-0.41965049505233765,0.0,0.0,0.0,0.0,0.0,0.0,0.0,-0.7098436388537589,-0.163618085812412,-0.4907822460296285,0.4373014528334824,0.047509693677293706,0.1367958926114632,-0.3767415229850766,0.878063686400129,0.7558881397032267,-0.2825350088432867,-1.6691884027713912,0.14136170305808385,2.4033929780501837,1.0273674940286799,0.878092876070424,0.7554597494309409,-0.2825552651693207,-1.6690993614607135,0.1414185955172306,2.4034451173676383,1.0273381002308042,0.00048028319986041193,-0.0011533831645693287,5.340835485732801e-05,0.00040359865932205666,-0.00030975659541333084,-1.1327507657983297e-05,0.0019273277583559064,0.0,0.0,0.0,0.0,0.0,0.0,0.0,2.9189670294971215e-05,-0.00042839027228580573,-2.025632603402938e-05,8.904131067777321e-05,5.689245914675123e-05,5.2139317454624745e-05,-2.9393797875698624e-05,-0.00048028319986041193,0.0011533831645693287,-5.340835485732801e-05,-0.00040359865932205666,0.00030975659541333084,1.1327507657983297e-05,-0.0019273277583559064,0.7322627902030945,46.44881820678711,5.687466144561768,-19.610628128051758,-0.6420798897743225,-2.4044833183288574,0.41965049505233765,0
61,0.3000171184539795,-0.6806880831718445,-46.50039291381836,-5.612087726593018,19.658235549926758,0.6237693428993225,2.3980746269226074,-0.33084434270858765,0.0,0.0,0.0,0.0,0.0,0.0,0.0,-0.7133999543623398,-0.17410077549611963,-0.4971817905242881,0.445181159493592,0.047671968610109645,0.13824449891171653,-0.3767080294257531,0.8780600671345554,0.7558919843175562,-0.2825422333793388,-1.6691931839998746,0.1413637375812933,2.4033905465875653,1.027358055510746,0.878092876070424,0.7554597494309409,-0.2825552651693207,-1.6690993614607135,0.1414185955172306,2.4034451173676383,1.0273381002308042,-0.000850709766156571,0.0002657236335147729,-0.0014251218221599591,3.7574507882561e-05,0.000361747344693934,0.00028708369028095624,-0.002070613269267452,0.0,0.0,0.0,0.0,0.0,0.0,0.0,3.280893586854461e-05,-0.000432234886615368,-1.3031789981909903e-05,9.382253916112582e-05,5.485793593729138e-05,5.457078007298222e-05,-1.9955279941807902e-05,0.000850709766156571,-0.0002657236335147729,0.0014251218221599591,-3.7574507882561e-05,-0.000361747344693934,-0.00028708369028095624,0.002070613269267452,0.6806880831718445,46.50039291381836,5.612087726593018,-19.658235549926758,-0.6237693428993225,-2.3980746269226074,0.33084434270858765,0
62,0.30500292778015137,-0.6806880831718445,-46.50039291381836,-5.612087726593018,19.658235549926758,0.6237693428993225,2.3980746269226074,-0.33084434270858765,0.0,0.0,0.0,0.0,0.0,0.0,0.0,-0.7133999543623398,-0.17410077549611963,-0.4971817905242881,0.445181159493592,0.047671968610109645,0.13824449891171653,-0.3767080294257531,0.8780600671345554,0.7558919843175562,-0.2825422333793388,-1.6691931839998746,0.1413637375812933,2.4033905465875653,1.027358055510746,0.878092876070424,0.7554597494309409,-0.2825552651693207,-1.6690993614607135,0.1414185955172306,2.4034451173676383,1.0273381002308042,-0.000850709766156571,0.0002657236335147729,-0.0014251218221599591,3.7574507882561e-05,0.000361747344693934,0.00028708369028095624,-0.002070613269267452,0.0,0.0,0.0,0.0,0.0,0.0,0.0,3.280893586854461e-05,-0.000432234886615368,-1.3031789981909903e-05,9.382253916112582e-05,5.485793593729138e-05,5.457078007298222e-05,-1.9955279941807902e-05,0.000850709766156571,-0.0002657236335147729,0.0014251218221599591,-3.7574507882561e-05,-0.000361747344693934,-0.00028708369028095624,0.002070613269267452,0.6806880831718445,46.50039291381836,5.612087726593018,-19.658235549926758,-0.6237693428993225,-2.3980746269226074,0.33084434270858765,0
63,0.3099546432495117,-0.6806880831718445,-46.47658920288086,-5.663662433624268,19.634431838989258,0.6420798897743225,2.4108920097351074,-0.37845176458358765,0.0,0.0,0.0,0.0,0.0,0.0,0.0,-0.7242307097972883,-0.1638744321222932,-0.5042950472194835,0.43701987464828745,0.04760975241029826,0.1374963276412837,-0.3768121274128381,0.878060068103589,0.7558900798676969,-0.2825359640033551,-1.6691919899409051,0.14136170305808393,2.4033924205336623,1.0273633888493827,0.878092876070424,0.7554597494309409,-0.2825552651693207,-1.6690993614607135,0.1414185955172306,2.4034451173676383,1.0273381002308042,-0.0009180605656919907,-0.0006036416725208364,-0.0005762895884386597,-8.018918734359887e-05,-0.0003136097113161089,-0.00013685178690145294,0.0002930501136212596,0.0,0.0,0.0,0.0,0.0,0.0,0.0,3.2807966834913493e-05,-0.000430330436755999,-1.930116596560172e-05,9.262848019164771e-05,5.689245914666796e-05,5.26968339760181e-05,-2.5288618578533928e-05,0.0009180605656919907,0.0006036416725208364,0.0005762895884386597,8.018918734359887e-05,0.0003136097113161089,0.00013685178690145294,-0.0002930501136212596,0.6806880831718445,46.47658920288086,5.663662433624268,-19.634431838989258,-0.6420798897743225,-2.4108920097351074,0.37845176458358765,0
64,0.31499528884887695,-0.6806880831718445,-46.47658920288086,-5.663662433624268,19.634431838989258,0.6420798897743225,2.4108920097351074,-0.37845176458358765,0.0,0.0,0.0,0.0,0.0,0.0,0.0,-0.7242307097972883,-0.1638744321222932,-0.5042950472194835,0.43701987464828745,0.04760975241029826,0.1374963276412837,-0.3768121274128381,0.878060068103589,0.7558900798676969,-0.2825359640033551,-1.6691919899409051,0.14136170305808393,2.4033924205336623,1.0273633888493827,0.878092876070424,0.7554597494309409,-0.2825552651693207,-1.6690993614607135,0.1414185955172306,2.4034451173676383,1.0273381002308042,-0.0009180605656919907,-0.0006036416725208364,-0.0005762895884386597,-8.018918734359887e-05,-0.0003136097113161089,-0.00013685178690145294,0.0002930501136212596,0.0,0.0,0.0,0.0,0.0,0.0,0.0,3.2807966834913493e-05,-0.000430330436755999,-1.930116596560172e-05,9.262848019164771e-05,5.689245914666796e-05,5.26968339760181e-05,-2.5288618578533928e-05,0.0009180605656919907,0.0006036416725208364,0.0005762895884386597,8.018918734359887e-05,0.0003136097113161089,0.00013685178690145294,-0.0002930501136212596,0.6806880831718445,46.47658920288086,5.663662433624268,-19.634431838989258,-0.6420798897743225,-2.4108920097351074,0.37845176458358765,0
65,0.31999874114990234,-0.7560665011405945,-46.44881820678711,-5.612087726593018,19.586824417114258,0.6356711983680725,2.3980746269226074,-0.37845176458358765,0.0,0.0,0.0,0.0,0.0,0.0,0.0,-0.719889303534502,-0.16458725558789963,-0.5017790305332119,0.43602960222769466,0.04885189576624239,0.13794406969766224,-0.3766586521377817,0.8780653568360008,0.7558881310245447,-0.2825401399058403,-1.6691860181069025,0.14136241513490677,2.403391023025737,1.0273623161295475,0.878092876070424,0.7554597494309409,-0.2825552651693207,-1.6690993614607135,0.1414185955172306,2.4034451173676383,1.0273381002308042,0.0010983068269392055,-0.0007659110801120479,-0.0017275731800503217,0.0010845101019880392,-0.0016783349828235873,0.00026138305544626066,0.00020191374401793156,0.0,0.0,0.0,0.0,0.0,0.0,0.0,2.751923442312343e-05,-0.00042838159360381045,-1.512526348040888e-05,8.665664618900948e-05,5.618038232382827e-05,5.409434190140061e-05,-2.4215898743351616e-05,-0.0010983068269392055,0.0007659110801120479,0.0017275731800503217,-0.0010845101019880392,0.0016783349828235873,-0.00026138305544626066,-0.00020191374401793156,0.7560665011405945,46.44881820678711,5.612087726593018,-19.586824417114258,-0.6356711983680725,-2.3980746269226074,0.37845176458358765,0
66,0.3249974250793457,-0.7560665011405945,-46.44881820678711,-5.612087726593018,19.586824417114258,0.6356711983680725,2.3980746269226074,-0.37845176458358765,0.0,0.0,0.0,0.0,0.0,0.0,0.0,-0.719889303534502,-0.16458725558789963,-0.5017790305332119,0.43602960222769466,0.04885189576624239,0.13794406969766224,-0.3766586521377817,0.8780653568360008,0.7558881310245447,-0.2825401399058403,-1.6691860181069025,0.14136241513490677,2.403391023025737,1.0273623161295475,0.878092876070424,0.7554597494309409,-0.2825552651693207,-1.6690993614607135,0.1414185955172306,2.4034451173676383,1.0273381002308042,0.0010983068269392055,-0.0007659110801120479,-0.0017275731800503217,0.0010845101019880392,-0.0016783349828235873,0.00026138305544626066,0.00020191374401793156,0.0,0.0,0.0,0.0,0.0,0.0,0.0,2.751923442312343e-05,-0.00042838159360381045,-1.512526348040888e-05,8.665664618900948e-05,5.618038232382827e-05,5.409434190140061e-05,-2.4215898743351616e-05,-0.0010983068269392055,0.0007659110801120479,0.0017275731800503217,-0.0010845101019880392,0.0016783349828235873,-0.00026138305544626066,-0.00020191374401793156,0.7560665011405945,46.44881820678711,5.612087726593018,-19.586824417114258,-0.6356711983680725,-2.3980746269226074,0.37845176458358765,0
67,0.3300135135650635,-0.7560665011405945,-46.50039291381836,-5.663662433624268,19.610628128051758,0.6237693428993225,2.3980746269226074,-0.34457725286483765,0.0,0.0,0.0,0.0,0.0,0.0,0.0,-0.7276036860459153,-0.1693463776410199,-0.5083809925504551,0.43559713460962607,0.048752802796084356,0.1388308301077163,-0.3779220630763932,0.8780653568359842,0.7558917503022311,-0.2825378714461944,-1.6691884112102469,0.14136373756329218,2.4033915855659065,1.0273581947195332,0.878092876070424,0.7554597494309409,-0.2825552651693207,-1.6690993614607135,0.1414185955172306,2.4034451173676383,1.0273381002308042,0.00030544900772019315,0.0003414236896182112,-0.0003687555350799107,0.0008389042267294925,0.00026176608617423786,0.0002338986868643728,-0.0015040948186179034,0.0,0.0,0.0,0.0,0.0,0.0,0.0,2.7519234439776774e-05,-0.0004320008712902501,-1.7393723126313265e-05,8.904974953338751e-05,5.4857953938419746e-05,5.353180173184313e-05,-2.0094488728972237e-05,-0.00030544900772019315,-0.0003414236896182112,0.0003687555350799107,-0.0008389042267294925,-0.00026176608617423786,-0.0002338986868643728,0.0015040948186179034,0.7560665011405945,46.50039291381836,5.663662433624268,-19.610628128051758,-0.6237693428993225,-2.3980746269226074,0.34457725286483765,0
68,0.33501529693603516,-0.7560665011405945,-46.50039291381836,-5.663662433624268,19.610628128051758,0.6237693428993225,2.3980746269226074,-0.34457725286483765,0.0,0.0,0.0,0.0,0.0,0.0,0.0,-0.7276036860459153,-0.1693463776410199,-0.5083809925504551,0.43559713460962607,0.048752802796084356,0.1388308301077163,-0.3779220630763932,0.8780653568359842,0.7558917503022311,-0.2825378714461944,-1.6691884112102469,0.14136373756329218,2.4033915855659065,1.0273581947195332,0.878092876070424,0.7554597494309409,-0.2825552651693207,-1.6690993614607135,0.1414185955172306,2.4034451173676383,1.0273381002308042,0.00030544900772019315,0.0003414236896182112,-0.0003687555350799107,0.0008389042267294925,0.00026176608617423786,0.0002338986868643728,-0.0015040948186179034,0.0,0.0,0.0,0.0,0.0,0.0,0.0,2.7519234439776774e-05,-0.0004320008712902501,-1.7393723126313265e-05,8.904974953338751e-05,5.4857953938419746e-05,5.353180173184313e-05,-2.0094488728972237e-05,-0.00030544900772019315,-0.0003414236896182112,0.0003687555350799107,-0.0008389042267294925,-0.00026176608617423786,-0.0002338986868643728,0.0015040948186179034,0.7560665011405945,46.50039291381836,5.663662433624268,-19.610628128051758,-0.6237693428993225,-2.3980746269226074,0.34457725286483765,0
69,0.3400108814239502,-0.7322627902030945,-46.50039291381836,-5.663662433624268,19.634431838989258,0.6420798897743225,2.3980746269226074,-0.33084434270858765,0.0,0.0,0.0,0.0,0.0,0.0,0.0,-0.718889821148185,-0.1672812543257347,-0.4990293884550053,0.43493939529194353,0.048165404610099084,0.13881908032654516,-0.3771564221838729,0.878063686400129,0.7558917503022311,-0.28253675970890624,-1.6691922288238048,0.14136170305808385,2.4033919343513035,1.0273580598821568,0.878092876070424,0.7554597494309409,-0.2825552651693207,-1.6690993614607135,0.1414185955172306,2.4034451173676383,1.0273381002308042,-5.374444849225482e-05,7.228709022101388e-05,-0.0001260818153174292,8.541875264105603e-05,-0.0003035037624188412,-6.702955293208525e-05,-0.002049415075501904,0.0,0.0,0.0,0.0,0.0,0.0,0.0,2.9189670294971215e-05,-0.0004320008712902501,-1.8505460414486308e-05,9.286736309133126e-05,5.689245914675123e-05,5.3183016334834576e-05,-1.9959651352596808e-05,5.374444849225482e-05,-7.228709022101388e-05,0.0001260818153174292,-8.541875264105603e-05,0.0003035037624188412,6.702955293208525e-05,0.002049415075501904,0.7322627902030945,46.50039291381836,5.663662433624268,-19.634431838989258,-0.6420798897743225,-2.3980746269226074,0.33084434270858765,0
70,0.3449983596801758,-0.7322627902030945,-46.50039291381836,-5.663662433624268,19.634431838989258,0.6420798897743225,2.3980746269226074,-0.33084434270858765,0.0,0.0,0.0,0.0,0.0,0.0,0.0,-0.718889821148185,-0.1672812543257347,-0.4990293884550053,0.43493939529194353,0.048165404610099084,0.13881908032654516,-0.3771564221838729,0.878063686400129,0.7558917503022311,-0.28253675970890624,-1.6691922288238048,0.14136170305808385,2.4033919343513035,1.0273580598821568,0.878092876070424,0.7554597494309409,-0.2825552651693207,-1.6690993614607135,0.1414185955172306,2.4034451173676383,1.0273381002308042,-5.374444849225482e-05,7.228709022101388e-05,-0.0001260818153174292,8.541875264105603e-05,-0.0003035037624188412,-6.702955293208525e-05,-0.002049415075501904,0.0,0.0,0.0,0.0,0.0,0.0,0.0,2.9189670294971215e-05,-0.0004320008712902501,-1.8505460414486308e-05,9.286736309133126e-05,5.689245914675123e-05,5.3183016334834576e-05,-1.9959651352596808e-05,5.374444849225482e-05,-7.228709022101388e-05,0.0001260818153174292,-8.541875264105603e-05,0.0003035037624188412,6.702955293208525e-05,0.002049415075501904,0.7322627902030945,46.50039291381836,5.663662433624268,-19.634431838989258,-0.6420798897743225,-2.3980746269226074,0.33084434270858765,0
71,0.34999632835388184,-0.6806880831718445,-46.52419662475586,-5.635891437530518,19.634431838989258,0.6356711983680725,2.4108920097351074,-0.37204307317733765,0.0,0.0,0.0,0.0,0.0,0.0,0.0,-0.7191201626035473,-0.16936007997696034,-0.4991950980057313,0.43674074694034964,0.04845434805894904,0.13871080658668558,-0.377734907490204,0.8780600671224426,0.7558934236270175,-0.2825377893192861,-1.6691897382502567,0.14136241513490677,2.4033890890043326,1.0273626767187494,0.878092876070424,0.7554597494309409,-0.2825552651693207,-1.6690993614607135,0.1414185955172306,2.4034451173676383,1.0273381002308042,-0.000959924154945166,0.0005578928353878061,-0.0012261393502458428,0.00014569507945535237,2.2477312177921925e-05,-0.00027502662716015697,-0.0001807812671873076,0.0,0.0,0.0,0.0,0.0,0.0,0.0,3.2808947981410874e-05,-0.0004336741960766499,-1.7475850034642804e-05,9.037678954326722e-05,5.618038232382827e-05,5.602836330576011e-05,-2.4576487945182635e-05,0.000959924154945166,-0.0005578928353878061,0.0012261393502458428,-0.00014569507945535237,-2.2477312177921925e-05,0.00027502662716015697,0.0001807812671873076,0.6806880831718445,46.52419662475586,5.635891437530518,-19.634431838989258,-0.6356711983680725,-2.4108920097351074,0.37204307317733765,0
72,0.35501933097839355,-0.6806880831718445,-46.52419662475586,-5.635891437530518,19.634431838989258,0.6356711983680725,2.4108920097351074,-0.37204307317733765,0.0,0.0,0.0,0.0,0.0,0.0,0.0,-0.7191201626035473,-0.16936007997696034,-0.4991950980057313,0.43674074694034964,0.04845434805894904,0.13871080658668558,-0.377734907490204,0.8780600671224426,0.7558934236270175,-0.2825377893192861,-1.6691897382502567,0.14136241513490677,2.4033890890043326,1.0273626767187494,0.878092876070424,0.7554597494309409,-0.2825552651693207,-1.6690993614607135,0.1414185955172306,2.4034451173676383,1.0273381002308042,-0.000959924154945166,0.0005578928353878061,-0.0012261393502458428,0.00014569507945535237,2.2477312177921925e-05,-0.00027502662716015697,-0.0001807812671873076,0.0,0.0,0.0,0.0,0.0,0.0,0.0,3.2808947981410874e-05,-0.0004336741960766499,-1.7475850034642804e-05,9.037678954326722e-05,5.618038232382827e-05,5.602836330576011e-05,-2.4576487945182635e-05,0.000959924154945166,-0.0005578928353878061,0.0012261393502458428,-0.00014569507945535237,-2.2477312177921925e-05,0.00027502662716015697,0.0001807812671873076,0.6806880831718445,46.52419662475586,5.635891437530518,-19.634431838989258,-0.6356711983680725,-2.4108920097351074,0.37204307317733765,0
73,0.36002087593078613,-0.6806880831718445,-46.52419662475586,-5.635891437530518,19.634431838989258,0.6356711983680725,2.4108920097351074,-0.37204307317733765,0.0,0.0,0.0,0.0,0.0,0.0,0.0,-0.7191201626035473,-0.16936007997696034,-0.4991950980057313,0.43674074694034964,0.04845434805894904,0.13871080658668558,-0.377734907490204,0.8780600671224426,0.7558934236270175,-0.2825377893192861,-1.6691897382502567,0.14136241513490677,2.4033890890043326,1.0273626767187494,0.878092876070424,0.7554597494309409,-0.2825552651693207,-1.6690993614607135,0.1414185955172306,2.4034451173676383,1.0273381002308042,-0.000959924154945166,0.0005578928353878061,-0.0012261393502458428,0.00014569507945535237,2.2477312177921925e-05,-0.00027502662716015697,-0.0001807812671873076,0.0,0.0,0.0,0.0,0.0,0.0,0.0,3.2808947981410874e-05,-0.0004336741960766499,-1.7475850034642804e-05,9.037678954326722e-05,5.618038232382827e-05,5.602836330576011e-05,-2.4576487945182635e-05,0.000959924154945166,-0.0005578928353878061,0.0012261393502458428,-0.00014569507945535237,-2.2477312177921925e-05,0.00027502662716015697,0.0001807812671873076,0.6806880831718445,46.52419662475586,5.635891437530518,-19.634431838989258,-0.6356711983680725,-2.4108920097351074,0.37204307317733765,0
74,0.3650398254394531,-0.6806880831718445,-46.52419662475586,-5.635891437530518,19.634431838989258,0.6356711983680725,2.4108920097351074,-0.37204307317733765,0.0,0.0,0.0,0.0,0.0,0.0,0.0,-0.7191201626035473,-0.16936007997696034,-0.4991950980057313,0.43674074694034964,0.04845434805894904,0.13871080658668558,-0.377734907490204,0.8780600671224426,0.7558934236270175,-0.2825377893192861,-1.6691897382502567,0.14136241513490677,2.4033890890043326,1.0273626767187494,0.878092876070424,0.7554597494309409,-0.2825552651693207,-1.6690993614607135,0.1414185955172306,2.4034451173676383,1.0273381002308042,-0.000959924154945166,0.0005578928353878061,-0.0012261393502458428,0.00014569507945535237,2.2477312177921925e-05,-0.00027502662716015697,-0.0001807812671873076,0.0,0.0,0.0,0.0,0.0,0.0,0.0,3.2808947981410874e-05,-0.0004336741960766499,-1.7475850034642804e-05,9.037678954326722e-05,5.618038232382827e-05,5.602836330576011e-05,-2.4576487945182635e-05,0.000959924154945166,-0.0005578928353878061,0.0012261393502458428,-0.00014569507945535237,-2.2477312177921925e-05,0.00027502662716015697,0.0001807812671873076,0.6806880831718445,46.52419662475586,5.635891437530518,-19.634431838989258,-0.6356711983680725,-2.4108920097351074,0.37204307317733765,0
75,0.37001585960388184,-0.6806880831718445,-46.52419662475586,-5.635891437530518,19.634431838989258,0.6356711983680725,2.4108920097351074,-0.37204307317733765,0.0,0.0,0.0,0.0,0.0,0.0,0.0,-0.7191201626035473,-0.16936007997696034,-0.4991950980057313,0.43674074694034964,0.04845434805894904,0.13871080658668558,-0.377734907490204,0.8780600671224426,0.7558934236270175,-0.2825377893192861,-1.6691897382502567,0.14136241513490677,2.4033890890043326,1.0273626767187494,0.878092876070424,0.7554597494309409,-0.2825552651693207,-1.6690993614607135,0.1414185955172306,2.4034451173676383,1.0273381002308042,-0.000959924154945166,0.0005578928353878061,-0.0012261393502458428,0.00014569507945535237,2.2477312177921925e-05,-0.00027502662716015697,-0.0001807812671873076,0.0,0.0,0.0,0.0,0.0,0.0,0.0,3.2808947981410874e-05,-0.0004336741960766499,-1.7475850034642804e-05,9.037678954326722e-05,5.618038232382827e-05,5.602836330576011e-05,-2.4576487945182635e-05,0.000959924154945166,-0.0005578928353878061,0.0012261393502458428,-0.00014569507945535237,-2.2477312177921925e-05,0.00027502662716015697,0.0001807812671873076,0.6806880831718445,46.52419662475586,5.635891437530518,-19.634431838989258,-0.6356711983680725,-2.4108920097351074,0.37204307317733765,0
76,0.3750007152557373,-0.6806880831718445,-46.50039291381836,-5.687466144561768,19.634431838989258,0.6301780343055725,2.3916659355163574,-0.39218467473983765,0.0,0.0,0.0,0.0,0.0,0.0,0.0,-0.7237729581499935,-0.15641239577087976,-0.5007611675236104,0.42753881386032955,0.04854245825104933,0.13745163884569717,-0.37840054428624387,0.8780607823781799,0.7558917503022474,-0.28253692829335736,-1.669191513566129,0.14136302548646926,2.403391585168887,1.0273613821169205,0.878092876070424,0.7554597494309409,-0.2825552651693207,-1.6690993614607135,0.1414185955172306,2.4034451173676383,1.0273381002308042,-0.0008588460755256811,8.249058275735022e-05,0.00024852231361818756,-0.0004512504412331606,-2.7663275701310783e-05,0.0002433362167385641,0.0003923229834806356,0.0,0.0,0.0,0.0,0.0,0.0,0.0,3.209369224410619e-05,-0.0004320008713065704,-1.8336875963365085e-05,9.215210541557717e-05,5.5570030761342704e-05,5.353219875114945e-05,-2.3281886116333084e-05,0.0008588460755256811,-8.249058275735022e-05,-0.00024852231361818756,0.0004512504412331606,2.7663275701310783e-05,-0.0002433362167385641,-0.0003923229834806356,0.6806880831718445,46.50039291381836,5.687466144561768,-19.634431838989258,-0.6301780343055725,-2.3916659355163574,0.39218467473983765,0
77,0.379946231842041,-0.6806880831718445,-46.50039291381836,-5.687466144561768,19.634431838989258,0.6301780343055725,2.3916659355163574,-0.39218467473983765,0.0,0.0,0.0,0.0,0.0,0.0,0.0,-0.7237729581499935,-0.15641239577087976,-0.5007611675236104,0.42753881386032955,0.04854245825104933,0.13745163884569717,-0.37840054428624387,0.8780607823781799,0.7558917503022474,-0.28253692829335736,-1.669191513566129,0.14136302548646926,2.403391585168887,1.0273613821169205,0.878092876070424,0.7554597494309409,-0.2825552651693207,-1.6690993614607135,0.1414185955172306,2.4034451173676383,1.0273381002308042,-0.0008588460755256811,8.249058275735022e-05,0.00024852231361818756,-0.0004512504412331606,-2.7663275701310783e-05,0.0002433362167385641,0.0003923229834806356,0.0,0.0,0.0,0.0,0.0,0.0,0.0,3.209369224410619e-05,-0.0004320008713065704,-1.8336875963365085e-05,9.215210541557717e-05,5.5570030761342704e-05,5.353219875114945e-05,-2.3281886116333084e-05,0.0008588460755256811,-8.249058275735022e-05,-0.00024852231361818756,0.0004512504412331606,2.7663275701310783e-05,-0.0002433362167385641,-0.0003923229834806356,0.6806880831718445,46.50039291381836,5.687466144561768,-19.634431838989258,-0.6301780343055725,-2.3916659355163574,0.39218467473983765,0
78,0.3849937915802002,-0.7560665011405945,-46.50039291381836,-5.612087726593018,19.658235549926758,0.6420798897743225,2.4044833183288574,-0.35831016302108765,0.0,0.0,0.0,0.0,0.0,0.0,0.0,-0.7223092881999924,-0.1756062492330935,-0.5044470602345067,0.43699694836308756,0.04853725305865008,0.13814481003057555,-0.37985450657086195,0.8780653568400218,0.7558917503022311,-0.28254180855736516,-1.6691938109645659,0.14136170305808385,2.4033929756289014,1.0273611492589025,0.878092876070424,0.7554597494309409,-0.2825552651693207,-1.6690993614607135,0.1414185955172306,2.4034451173676383,1.0273381002308042,0.0010477768872771275,-0.00031729732595891846,-0.001735753265036089,-0.0006228501695627195,-0.00043091880220847307,1.2693623954172228e-05,-0.0012305315623649803,0.0,0.0,0.0,0.0,0.0,0.0,0.0,2.7519230402117678e-05,-0.0004320008712902501,-1.3456611955564579e-05,9.44495038524007e-05,5.689245914675123e-05,5.2141738736910526e-05,-2.3049028098354185e-05,-0.0010477768872771275,0.00031729732595891846,0.001735753265036089,0.0006228501695627195,0.00043091880220847307,-1.2693623954172228e-05,0.0012305315623649803,0.7560665011405945,46.50039291381836,5.612087726593018,-19.658235549926758,-0.6420798897743225,-2.4044833183288574,0.35831016302108765,0
79,0.3899979591369629,-0.7560665011405945,-46.50039291381836,-5.612087726593018,19.658235549926758,0.6420798897743225,2.4044833183288574,-0.35831016302108765,0.0,0.0,0.0,0.0,0.0,0.0,0.0,-0.7223092881999924,-0.1756062492330935,-0.5044470602345067,0.43699694836308756,0.04853725305865008,0.13814481003057555,-0.37985450657086195,0.8780653568400218,0.7558917503022311,-0.28254180855736516,-1.6691938109645659,0.14136170305808385,2.4033929756289014,1.0273611492589025,0.878092876070424,0.7554597494309409,-0.2825552651693207,-1.6690993614607135,0.1414185955172306,2.4034451173676383,1.0273381002308042,0.0010477768872771275,-0.00031729732595891846,-0.001735753265036089,-0.0006228501695627195,-0.00043091880220847307,1.2693623954172228e-05,-0.0012305315623649803,0.0,0.0,0.0,0.0,0.0,0.0,0.0,2.7519230402117678e-05,-0.0004320008712902501,-1.3456611955564579e-05,9.44495038524007e-05,5.689245914675123e-05,5.2141738736910526e-05,-2.3049028098354185e-05,-0.0010477768872771275,0.00031729732595891846,0.001735753265036089,0.0006228501695627195,0.00043091880220847307,-1.2693623954172228e-05,0.0012305315623649803,0.7560665011405945,46.50039291381836,5.612087726593018,-19.658235549926758,-0.6420798897743225,-2.4044833183288574,0.35831016302108765,0
80,0.39499688148498535,-0.7084590792655945,-46.47658920288086,-5.687466144561768,19.658235549926758,0.6420798897743225,2.4044833183288574,-0.35831016302108765,0.0,0.0,0.0,0.0,0.0,0.0,0.0,-0.7190654214360587,-0.16745840305233659,-0.5001318539854764,0.4323922466268702,0.048588548956729705,0.13727305822669,-0.37992909734210095,0.8780620159642737,0.7558900798663758,-0.2825363101843743,-1.6691937928714045,0.14136170305808385,2.4033944393160525,1.0273611492249999,0.878092876070424,0.7554597494309409,-0.2825552651693207,-1.6690993614607135,0.1414185955172306,2.4034451173676383,1.0273381002308042,-0.0003811128528012633,-0.0008309134314105808,0.0005636068297534437,-0.00017658103833216994,-0.00037507686209190954,-0.00011301970822940706,-0.0009477589038672364,0.0,0.0,0.0,0.0,0.0,0.0,0.0,3.086010615027668e-05,-0.00043033043543494465,-1.8954984946417675e-05,9.443141069098715e-05,5.689245914675123e-05,5.067805158587291e-05,-2.3048994195695727e-05,0.0003811128528012633,0.0008309134314105808,-0.0005636068297534437,0.00017658103833216994,0.00037507686209190954,0.00011301970822940706,0.0009477589038672364,0.7084590792655945,46.47658920288086,5.687466144561768,-19.658235549926758,-0.6420798897743225,-2.4044833183288574,0.35831016302108765,0
