rezayati/contactInterpretation/dataset/franka_main/labeled_data/link7/a7_6.csv
index,time,tau_J0,tau_J1,tau_J2,tau_J3,tau_J4,tau_J5,tau_J6,tau_J_d0,tau_J_d1,tau_J_d2,tau_J_d3,tau_J_d4,tau_J_d5,tau_J_d6,tau_ext0,tau_ext1,tau_ext2,tau_ext3,tau_ext4,tau_ext5,tau_ext6,q0,q1,q2,q3,q4,q5,q6,q_d0,q_d1,q_d2,q_d3,q_d4,q_d5,q_d6,dq0,dq1,dq2,dq3,dq4,dq5,dq6,dq_d0,dq_d1,dq_d2,dq_d3,dq_d4,dq_d5,dq_d6,e0,e1,e2,e3,e4,e5,e6,de0,de1,de2,de3,de4,de5,de6,etau_J0,etau_J1,etau_J2,etau_J3,etau_J4,etau_J5,etau_J6,label
1,0.0,-0.04592245817184448,-18.229516983032227,0.9418671131134033,18.099092483520508,0.4269309639930725,2.2818026542663574,-0.25485557317733765,0.0,0.0,0.0,0.0,0.0,0.0,0.0,-0.05604629344252201,0.4545413762571441,0.10898243055475001,0.4706113248426006,0.005145241592870748,0.08233667574191227,-0.2748929293098604,-0.608955260113666,-0.05764063660959665,-0.666507268667058,-2.5946405493753,-0.05574377817391246,2.507992186029873,0.8763244798911942,-0.6090851748156966,-0.05753196718556838,-0.666603097082616,-2.5945565370258534,-0.05562143941554,2.507976027223799,0.8763108487046415,-0.0006728477587283972,-0.0009422468040748548,-0.0005914310231783102,0.0002204708038600192,0.00022621525152218948,-0.0003918860719339386,-0.0009193567383395571,0.0,0.0,0.0,0.0,0.0,0.0,0.0,-0.00012991470203060906,0.00010866942402826957,-9.582841555799693e-05,8.401234944654945e-05,0.00012233875837246166,-1.615880607408471e-05,-1.3631186552731656e-05,0.0006728477587283972,0.0009422468040748548,0.0005914310231783102,-0.0002204708038600192,-0.00022621525152218948,0.0003918860719339386,0.0009193567383395571,0.04592245817184448,18.229516983032227,-0.9418671131134033,-18.099092483520508,-0.4269309639930725,-2.2818026542663574,0.25485557317733765,0
2,0.00499725341796875,-0.06972616910934448,-18.229516983032227,0.8942596912384033,18.099092483520508,0.4269309639930725,2.2689852714538574,-0.24112264811992645,0.0,0.0,0.0,0.0,0.0,0.0,0.0,-0.006478411018999273,0.4626268735560489,0.1568375309100693,0.4637786119831188,0.0031432225731427817,0.08355512856938359,-0.27406703302828483,-0.6089535896778107,-0.05764150574667029,-0.6665039571205656,-2.5946405493753,-0.055744793964474244,2.5079935970836953,0.8763229540106323,-0.6090851748156966,-0.05753196718556838,-0.666603097082616,-2.5945565370258534,-0.05562143941554,2.507976027223799,0.8763108487046415,-0.0009589841706293348,0.00036656649785536097,0.0009448932520353927,0.00014092440269586565,1.172964920913578e-05,0.0001459024445545938,-0.004348885383726496,0.0,0.0,0.0,0.0,0.0,0.0,0.0,-0.00013158513788591453,0.0001095385611019073,-9.913996205035414e-05,8.401234944654945e-05,0.0001233545489342444,-1.7569859896315876e-05,-1.2105305990828263e-05,0.0009589841706293348,-0.00036656649785536097,-0.0009448932520353927,-0.00014092440269586565,-1.172964920913578e-05,-0.0001459024445545938,0.004348885383726496,0.06972616910934448,18.229516983032227,-0.8942596912384033,-18.099092483520508,-0.4269309639930725,-2.2689852714538574,0.24112264811992645,0
3,0.009999990463256836,-0.06972616910934448,-18.229516983032227,0.8942596912384033,18.099092483520508,0.4269309639930725,2.2689852714538574,-0.24112264811992645,0.0,0.0,0.0,0.0,0.0,0.0,0.0,-0.006478411018999273,0.4626268735560489,0.1568375309100693,0.4637786119831188,0.0031432225731427817,0.08355512856938359,-0.27406703302828483,-0.6089535896778107,-0.05764150574667029,-0.6665039571205656,-2.5946405493753,-0.055744793964474244,2.5079935970836953,0.8763229540106323,-0.6090851748156966,-0.05753196718556838,-0.666603097082616,-2.5945565370258534,-0.05562143941554,2.507976027223799,0.8763108487046415,-0.0009589841706293348,0.00036656649785536097,0.0009448932520353927,0.00014092440269586565,1.172964920913578e-05,0.0001459024445545938,-0.004348885383726496,0.0,0.0,0.0,0.0,0.0,0.0,0.0,-0.00013158513788591453,0.0001095385611019073,-9.913996205035414e-05,8.401234944654945e-05,0.0001233545489342444,-1.7569859896315876e-05,-1.2105305990828263e-05,0.0009589841706293348,-0.00036656649785536097,-0.0009448932520353927,-0.00014092440269586565,-1.172964920913578e-05,-0.0001459024445545938,0.004348885383726496,0.06972616910934448,18.229516983032227,-0.8942596912384033,-18.099092483520508,-0.4269309639930725,-2.2689852714538574,0.24112264811992645,0
4,0.014997720718383789,-0.018151462078094482,-18.154138565063477,0.9418671131134033,18.047517776489258,0.4269309639930725,2.2488436698913574,-0.28964561223983765,0.0,0.0,0.0,0.0,0.0,0.0,0.0,-0.04616482589959432,0.4617069084747591,0.11740173965787723,0.4616319211345494,0.004085694460607377,0.08330804742995024,-0.27330451231675557,-0.6089572089554971,-0.057646874478065574,-0.6665070498714146,-2.5946369300976135,-0.05574377835984685,2.5080000750454183,0.8763294050892194,-0.6090851748156966,-0.05753196718556838,-0.666603097082616,-2.5945565370258534,-0.05562143941554,2.507976027223799,0.8763108487046415,-0.0006498511074192968,-0.00021704478888099138,-0.00032678988828614794,0.000944368847581447,-9.179315226722299e-08,0.00024003571537656513,0.0006104828393702357,0.0,0.0,0.0,0.0,0.0,0.0,0.0,-0.00012796586019947487,0.00011490729249719056,-9.604721120137771e-05,8.039307176010979e-05,0.0001223389443068476,-2.4047821619355148e-05,-1.8556384577927965e-05,0.0006498511074192968,0.00021704478888099138,0.00032678988828614794,-0.000944368847581447,9.179315226722299e-08,-0.00024003571537656513,-0.0006104828393702357,0.018151462078094482,18.154138565063477,-0.9418671131134033,-18.047517776489258,-0.4269309639930725,-2.2488436698913574,0.28964561223983765,0
5,0.020000696182250977,-0.018151462078094482,-18.154138565063477,0.9418671131134033,18.047517776489258,0.4269309639930725,2.2488436698913574,-0.28964561223983765,0.0,0.0,0.0,0.0,0.0,0.0,0.0,-0.04616482589959432,0.4617069084747591,0.11740173965787723,0.4616319211345494,0.004085694460607377,0.08330804742995024,-0.27330451231675557,-0.6089572089554971,-0.057646874478065574,-0.6665070498714146,-2.5946369300976135,-0.05574377835984685,2.5080000750454183,0.8763294050892194,-0.6090851748156966,-0.05753196718556838,-0.666603097082616,-2.5945565370258534,-0.05562143941554,2.507976027223799,0.8763108487046415,-0.0006498511074192968,-0.00021704478888099138,-0.00032678988828614794,0.000944368847581447,-9.179315226722299e-08,0.00024003571537656513,0.0006104828393702357,0.0,0.0,0.0,0.0,0.0,0.0,0.0,-0.00012796586019947487,0.00011490729249719056,-9.604721120137771e-05,8.039307176010979e-05,0.0001223389443068476,-2.4047821619355148e-05,-1.8556384577927965e-05,0.0006498511074192968,0.00021704478888099138,0.00032678988828614794,-0.000944368847581447,9.179315226722299e-08,-0.00024003571537656513,-0.0006104828393702357,0.018151462078094482,18.154138565063477,-0.9418671131134033,-18.047517776489258,-0.4269309639930725,-2.2488436698913574,0.28964561223983765,0
6,0.025001049041748047,-0.018151462078094482,-18.177942276000977,0.9418671131134033,18.071321487426758,0.4269309639930725,2.2488436698913574,-0.29605430364608765,0.0,0.0,0.0,0.0,0.0,0.0,0.0,-0.05911110484488992,0.45420375259079876,0.1033790080126058,0.4710015805252574,0.004662966932081424,0.08194076284898255,-0.27305862347957305,-0.6089572089554971,-0.05764520404265637,-0.6665072980637186,-2.5946386005334685,-0.055740567707916314,2.507995848145238,0.8763290575338947,-0.6090851748156966,-0.05753196718556838,-0.666603097082616,-2.5945565370258534,-0.05562143941554,2.507976027223799,0.8763108487046415,-0.0005425261998398236,0.00019240179851005786,7.810442207865562e-05,0.0004902698825507731,6.873686333959925e-05,0.0001051388752939976,0.0010188448066054275,0.0,0.0,0.0,0.0,0.0,0.0,0.0,-0.00012796586019947487,0.00011323685708798659,-9.579901889744669e-05,8.206350761508219e-05,0.00011912829237631373,-1.9820921438817862e-05,-1.8208829253185677e-05,0.0005425261998398236,-0.00019240179851005786,-7.810442207865562e-05,-0.0004902698825507731,-6.873686333959925e-05,-0.0001051388752939976,-0.0010188448066054275,0.018151462078094482,18.177942276000977,-0.9418671131134033,-18.071321487426758,-0.4269309639930725,-2.2488436698913574,0.29605430364608765,0
7,0.03000164031982422,-0.018151462078094482,-18.177942276000977,0.9418671131134033,18.071321487426758,0.4269309639930725,2.2488436698913574,-0.29605430364608765,0.0,0.0,0.0,0.0,0.0,0.0,0.0,-0.05911110484488992,0.45420375259079876,0.1033790080126058,0.4710015805252574,0.004662966932081424,0.08194076284898255,-0.27305862347957305,-0.6089572089554971,-0.05764520404265637,-0.6665072980637186,-2.5946386005334685,-0.055740567707916314,2.507995848145238,0.8763290575338947,-0.6090851748156966,-0.05753196718556838,-0.666603097082616,-2.5945565370258534,-0.05562143941554,2.507976027223799,0.8763108487046415,-0.0005425261998398236,0.00019240179851005786,7.810442207865562e-05,0.0004902698825507731,6.873686333959925e-05,0.0001051388752939976,0.0010188448066054275,0.0,0.0,0.0,0.0,0.0,0.0,0.0,-0.00012796586019947487,0.00011323685708798659,-9.579901889744669e-05,8.206350761508219e-05,0.00011912829237631373,-1.9820921438817862e-05,-1.8208829253185677e-05,0.0005425261998398236,-0.00019240179851005786,-7.810442207865562e-05,-0.0004902698825507731,-6.873686333959925e-05,-0.0001051388752939976,-0.0010188448066054275,0.018151462078094482,18.177942276000977,-0.9418671131134033,-18.071321487426758,-0.4269309639930725,-2.2488436698913574,0.29605430364608765,0
8,0.03500175476074219,-0.06972616910934448,-18.177942276000977,0.9180634021759033,18.047517776489258,0.4333396553993225,2.2753939628601074,-0.28232139348983765,0.0,0.0,0.0,0.0,0.0,0.0,0.0,-0.05897735968452996,0.46792737078821117,0.10399533759986937,0.4693024098044275,0.004477637578265242,0.07939004042377766,-0.273815516587766,-0.6089535896778107,-0.05764520111625092,-0.6665056000844872,-2.5946369300976135,-0.055744832506872226,2.507992898088825,0.8763275316490068,-0.6090851748156966,-0.05753196718556838,-0.666603097082616,-2.5945565370258534,-0.05562143941554,2.507976027223799,0.8763108487046415,0.0008122855132209433,0.0007942780232351256,0.00012668519212728597,0.001427800514967802,1.0286889706328663e-05,-0.00039000240379054296,7.368653050272539e-05,0.0,0.0,0.0,0.0,0.0,0.0,0.0,-0.00013158513788591453,0.00011323393068253529,-9.749699812877655e-05,8.039307176010979e-05,0.00012339309133222592,-1.6870865025886417e-05,-1.668294436529827e-05,-0.0008122855132209433,-0.0007942780232351256,-0.00012668519212728597,-0.001427800514967802,-1.0286889706328663e-05,0.00039000240379054296,-7.368653050272539e-05,0.06972616910934448,18.177942276000977,-0.9180634021759033,-18.047517776489258,-0.4333396553993225,-2.2753939628601074,0.28232139348983765,0
9,0.04010820388793945,-0.06972616910934448,-18.177942276000977,0.9180634021759033,18.047517776489258,0.4333396553993225,2.2753939628601074,-0.28232139348983765,0.0,0.0,0.0,0.0,0.0,0.0,0.0,-0.05897735968452996,0.46792737078821117,0.10399533759986937,0.4693024098044275,0.004477637578265242,0.07939004042377766,-0.273815516587766,-0.6089535896778107,-0.05764520111625092,-0.6665056000844872,-2.5946369300976135,-0.055744832506872226,2.507992898088825,0.8763275316490068,-0.6090851748156966,-0.05753196718556838,-0.666603097082616,-2.5945565370258534,-0.05562143941554,2.507976027223799,0.8763108487046415,0.0008122855132209433,0.0007942780232351256,0.00012668519212728597,0.001427800514967802,1.0286889706328663e-05,-0.00039000240379054296,7.368653050272539e-05,0.0,0.0,0.0,0.0,0.0,0.0,0.0,-0.00013158513788591453,0.00011323393068253529,-9.749699812877655e-05,8.039307176010979e-05,0.00012339309133222592,-1.6870865025886417e-05,-1.668294436529827e-05,-0.0008122855132209433,-0.0007942780232351256,-0.00012668519212728597,-0.001427800514967802,-1.0286889706328663e-05,0.00039000240379054296,-7.368653050272539e-05,0.06972616910934448,18.177942276000977,-0.9180634021759033,-18.047517776489258,-0.4333396553993225,-2.2753939628601074,0.28232139348983765,0
10,0.04511094093322754,-0.04592245817184448,-18.205713272094727,0.9180634021759033,18.122896194458008,0.4269309639930725,2.2689852714538574,-0.24844686686992645,0.0,0.0,0.0,0.0,0.0,0.0,0.0,-0.058415725901590256,0.4639241325668554,0.10532911227590334,0.47563248972885297,0.004848905085726267,0.08121528583878491,-0.2748208327440834,-0.608955260113666,-0.05764325520080872,-0.6665053889198197,-2.594642219811155,-0.05574479326217465,2.5079936101656473,0.8763237678127156,-0.6090851748156966,-0.05753196718556838,-0.666603097082616,-2.5945565370258534,-0.05562143941554,2.507976027223799,0.8763108487046415,-2.0816494052677165e-05,-4.435736980373804e-05,0.00015463999563284403,-0.00014781126943843237,5.372557288881679e-05,-6.911737538712267e-05,-0.0012816447540824336,0.0,0.0,0.0,0.0,0.0,0.0,0.0,-0.00012991470203060906,0.00011128801524033782,-9.770816279630612e-05,8.568278530152185e-05,0.00012335384663465093,-1.758294184828202e-05,-1.2919108074105345e-05,2.0816494052677165e-05,4.435736980373804e-05,-0.00015463999563284403,0.00014781126943843237,-5.372557288881679e-05,6.911737538712267e-05,0.0012816447540824336,0.04592245817184448,18.205713272094727,-0.9180634021759033,-18.122896194458008,-0.4269309639930725,-2.2689852714538574,0.24844686686992645,0
11,0.05000114440917969,-0.04592245817184448,-18.205713272094727,0.9180634021759033,18.122896194458008,0.4269309639930725,2.2689852714538574,-0.24844686686992645,0.0,0.0,0.0,0.0,0.0,0.0,0.0,-0.058415725901590256,0.4639241325668554,0.10532911227590334,0.47563248972885297,0.004848905085726267,0.08121528583878491,-0.2748208327440834,-0.608955260113666,-0.05764325520080872,-0.6665053889198197,-2.594642219811155,-0.05574479326217465,2.5079936101656473,0.8763237678127156,-0.6090851748156966,-0.05753196718556838,-0.666603097082616,-2.5945565370258534,-0.05562143941554,2.507976027223799,0.8763108487046415,-2.0816494052677165e-05,-4.435736980373804e-05,0.00015463999563284403,-0.00014781126943843237,5.372557288881679e-05,-6.911737538712267e-05,-0.0012816447540824336,0.0,0.0,0.0,0.0,0.0,0.0,0.0,-0.00012991470203060906,0.00011128801524033782,-9.770816279630612e-05,8.568278530152185e-05,0.00012335384663465093,-1.758294184828202e-05,-1.2919108074105345e-05,2.0816494052677165e-05,4.435736980373804e-05,-0.00015463999563284403,0.00014781126943843237,-5.372557288881679e-05,6.911737538712267e-05,0.0012816447540824336,0.04592245817184448,18.205713272094727,-0.9180634021759033,-18.122896194458008,-0.4269309639930725,-2.2689852714538574,0.24844686686992645,0
12,0.054997920989990234,-0.06972616910934448,-18.253320693969727,0.9418671131134033,18.170503616333008,0.4214377999305725,2.2689852714538574,-0.28964561223983765,0.0,0.0,0.0,0.0,0.0,0.0,0.0,-0.05451965430680058,0.4672077957118139,0.11156017749901763,0.47000876262999064,0.0043392991639218505,0.0810361667031094,-0.2755272981713136,-0.6089535896778107,-0.05763967729027276,-0.666507297773062,-2.594645560682866,-0.05574348426245634,2.5079935972452008,0.8763283454510901,-0.6090851748156966,-0.05753196718556838,-0.666603097082616,-2.5945565370258534,-0.05562143941554,2.507976027223799,0.8763108487046415,0.0007049987353362416,0.0006009485720827742,-0.00019180310926798967,-0.0017584166571938287,0.0002502579331439499,2.000629717332736e-05,0.000700336944862002,0.0,0.0,0.0,0.0,0.0,0.0,0.0,-0.00013158513788591453,0.00010771010470437409,-9.579930955405658e-05,8.902365701235482e-05,0.00012204484691633738,-1.7570021401791536e-05,-1.749674644857535e-05,-0.0007049987353362416,-0.0006009485720827742,0.00019180310926798967,0.0017584166571938287,-0.0002502579331439499,-2.000629717332736e-05,-0.000700336944862002,0.06972616910934448,18.253320693969727,-0.9418671131134033,-18.170503616333008,-0.4214377999305725,-2.2689852714538574,0.28964561223983765,0
13,0.06000852584838867,-0.06972616910934448,-18.253320693969727,0.9418671131134033,18.170503616333008,0.4214377999305725,2.2689852714538574,-0.28964561223983765,0.0,0.0,0.0,0.0,0.0,0.0,0.0,-0.05451965430680058,0.4672077957118139,0.11156017749901763,0.47000876262999064,0.0043392991639218505,0.0810361667031094,-0.2755272981713136,-0.6089535896778107,-0.05763967729027276,-0.666507297773062,-2.594645560682866,-0.05574348426245634,2.5079935972452008,0.8763283454510901,-0.6090851748156966,-0.05753196718556838,-0.666603097082616,-2.5945565370258534,-0.05562143941554,2.507976027223799,0.8763108487046415,0.0007049987353362416,0.0006009485720827742,-0.00019180310926798967,-0.0017584166571938287,0.0002502579331439499,2.000629717332736e-05,0.000700336944862002,0.0,0.0,0.0,0.0,0.0,0.0,0.0,-0.00013158513788591453,0.00010771010470437409,-9.579930955405658e-05,8.902365701235482e-05,0.00012204484691633738,-1.7570021401791536e-05,-1.749674644857535e-05,-0.0007049987353362416,-0.0006009485720827742,0.00019180310926798967,0.0017584166571938287,-0.0002502579331439499,-2.000629717332736e-05,-0.000700336944862002,0.06972616910934448,18.253320693969727,-0.9418671131134033,-18.170503616333008,-0.4214377999305725,-2.2689852714538574,0.28964561223983765,0
14,0.06499910354614258,-0.04592245817184448,-18.229516983032227,0.9418671131134033,18.099092483520508,0.4388328194618225,2.2689852714538574,-0.28964561223983765,0.0,0.0,0.0,0.0,0.0,0.0,0.0,-0.05281770466109322,0.4640571018951579,0.1142449825950385,0.47117401607137477,0.0037812568949098747,0.0820627527623304,-0.27614111894161536,-0.608955260113666,-0.05764158476363188,-0.6665072981014567,-2.5946405493753,-0.05574291549934813,2.5079946567217517,0.8763283454510901,-0.6090851748156966,-0.05753196718556838,-0.666603097082616,-2.5945565370258534,-0.05562143941554,2.507976027223799,0.8763108487046415,-3.856403230074282e-05,0.0004012393522193387,0.00039916386640120833,0.000243830242247723,-0.00029845292391232246,-9.228197588904193e-05,0.0008614492129673622,0.0,0.0,0.0,0.0,0.0,0.0,0.0,-0.00012991470203060906,0.0001096175780634992,-9.579898115930074e-05,8.401234944654945e-05,0.00012147608380812941,-1.8629497952726837e-05,-1.749674644857535e-05,3.856403230074282e-05,-0.0004012393522193387,-0.00039916386640120833,-0.000243830242247723,0.00029845292391232246,9.228197588904193e-05,-0.0008614492129673622,0.04592245817184448,18.229516983032227,-0.9418671131134033,-18.099092483520508,-0.4388328194618225,-2.2689852714538574,0.28964561223983765,0
15,0.06999945640563965,-0.04592245817184448,-18.229516983032227,0.9418671131134033,18.099092483520508,0.4388328194618225,2.2689852714538574,-0.28964561223983765,0.0,0.0,0.0,0.0,0.0,0.0,0.0,-0.05281770466109322,0.4640571018951579,0.1142449825950385,0.47117401607137477,0.0037812568949098747,0.0820627527623304,-0.27614111894161536,-0.608955260113666,-0.05764158476363188,-0.6665072981014567,-2.5946405493753,-0.05574291549934813,2.5079946567217517,0.8763283454510901,-0.6090851748156966,-0.05753196718556838,-0.666603097082616,-2.5945565370258534,-0.05562143941554,2.507976027223799,0.8763108487046415,-3.856403230074282e-05,0.0004012393522193387,0.00039916386640120833,0.000243830242247723,-0.00029845292391232246,-9.228197588904193e-05,0.0008614492129673622,0.0,0.0,0.0,0.0,0.0,0.0,0.0,-0.00012991470203060906,0.0001096175780634992,-9.579898115930074e-05,8.401234944654945e-05,0.00012147608380812941,-1.8629497952726837e-05,-1.749674644857535e-05,3.856403230074282e-05,-0.0004012393522193387,-0.00039916386640120833,-0.000243830242247723,0.00029845292391232246,9.228197588904193e-05,-0.0008614492129673622,0.04592245817184448,18.229516983032227,-0.9418671131134033,-18.099092483520508,-0.4388328194618225,-2.2689852714538574,0.28964561223983765,0
16,0.07499837875366211,-0.06972616910934448,-18.205713272094727,0.9180634021759033,18.099092483520508,0.4269309639930725,2.2424349784851074,-0.29605430364608765,0.0,0.0,0.0,0.0,0.0,0.0,0.0,-0.053005422533258004,0.4611228353039949,0.11468202698762836,0.468694103305207,0.004099678002194154,0.08117293587260578,-0.27735150245154094,-0.6089535896778107,-0.057643255164696774,-0.6665055481806307,-2.5946405493753,-0.05574053258832885,2.5079965486434976,0.876329057527913,-0.6090851748156966,-0.05753196718556838,-0.666603097082616,-2.5945565370258534,-0.05562143941554,2.507976027223799,0.8763108487046415,0.0007160603695628642,0.00013856211943127694,0.00041326981686485735,-0.0005144935736688885,7.2179490907855e-05,0.0005153796256079151,0.0005116987202568591,0.0,0.0,0.0,0.0,0.0,0.0,0.0,-0.00013158513788591453,0.00011128797912839106,-9.754890198532262e-05,8.401234944654945e-05,0.00011909317278885334,-2.052141969866028e-05,-1.8208823271526065e-05,-0.0007160603695628642,-0.00013856211943127694,-0.00041326981686485735,0.0005144935736688885,-7.2179490907855e-05,-0.0005153796256079151,-0.0005116987202568591,0.06972616910934448,18.205713272094727,-0.9180634021759033,-18.099092483520508,-0.4269309639930725,-2.2424349784851074,0.29605430364608765,0
17,0.07999825477600098,-0.06972616910934448,-18.205713272094727,0.9180634021759033,18.099092483520508,0.4269309639930725,2.2424349784851074,-0.29605430364608765,0.0,0.0,0.0,0.0,0.0,0.0,0.0,-0.053005422533258004,0.4611228353039949,0.11468202698762836,0.468694103305207,0.004099678002194154,0.08117293587260578,-0.27735150245154094,-0.6089535896778107,-0.057643255164696774,-0.6665055481806307,-2.5946405493753,-0.05574053258832885,2.5079965486434976,0.876329057527913,-0.6090851748156966,-0.05753196718556838,-0.666603097082616,-2.5945565370258534,-0.05562143941554,2.507976027223799,0.8763108487046415,0.0007160603695628642,0.00013856211943127694,0.00041326981686485735,-0.0005144935736688885,7.2179490907855e-05,0.0005153796256079151,0.0005116987202568591,0.0,0.0,0.0,0.0,0.0,0.0,0.0,-0.00013158513788591453,0.00011128797912839106,-9.754890198532262e-05,8.401234944654945e-05,0.00011909317278885334,-2.052141969866028e-05,-1.8208823271526065e-05,-0.0007160603695628642,-0.00013856211943127694,-0.00041326981686485735,0.0005144935736688885,-7.2179490907855e-05,-0.0005153796256079151,-0.0005116987202568591,0.06972616910934448,18.205713272094727,-0.9180634021759033,-18.099092483520508,-0.4269309639930725,-2.2424349784851074,0.29605430364608765,0
18,0.08499908447265625,-0.09352988004684448,-18.177942276000977,0.9180634021759033,18.122896194458008,0.4214377999305725,2.2689852714538574,-0.28964561223983765,0.0,0.0,0.0,0.0,0.0,0.0,0.0,-0.05352058182515372,0.45952568178468095,0.11550155990168229,0.4722570347302895,0.003949878804350261,0.07999037623648192,-0.2780729463286574,-0.6089519192419554,-0.05764520404265617,-0.6665034818979427,-2.594642219811155,-0.05573997348118729,2.5079937676335256,0.8763283454510901,-0.6090851748156966,-0.05753196718556838,-0.666603097082616,-2.5945565370258534,-0.05562143941554,2.507976027223799,0.8763108487046415,0.00043229244809982805,-9.503951547610231e-05,0.0004854169845583478,-0.000490484826938462,0.00023550710509100562,-9.073371452090159e-05,0.00017351464076547645,0.0,0.0,0.0,0.0,0.0,0.0,0.0,-0.00013325557374122,0.00011323685708778536,-9.961518467327402e-05,8.568278530152185e-05,0.00011853406564728969,-1.7740409726574313e-05,-1.749674644857535e-05,-0.00043229244809982805,9.503951547610231e-05,-0.0004854169845583478,0.000490484826938462,-0.00023550710509100562,9.073371452090159e-05,-0.00017351464076547645,0.09352988004684448,18.177942276000977,-0.9180634021759033,-18.122896194458008,-0.4214377999305725,-2.2689852714538574,0.28964561223983765,0
19,0.09000968933105469,-0.09352988004684448,-18.177942276000977,0.9180634021759033,18.122896194458008,0.4214377999305725,2.2689852714538574,-0.28964561223983765,0.0,0.0,0.0,0.0,0.0,0.0,0.0,-0.05352058182515372,0.45952568178468095,0.11550155990168229,0.4722570347302895,0.003949878804350261,0.07999037623648192,-0.2780729463286574,-0.6089519192419554,-0.05764520404265617,-0.6665034818979427,-2.594642219811155,-0.05573997348118729,2.5079937676335256,0.8763283454510901,-0.6090851748156966,-0.05753196718556838,-0.666603097082616,-2.5945565370258534,-0.05562143941554,2.507976027223799,0.8763108487046415,0.00043229244809982805,-9.503951547610231e-05,0.0004854169845583478,-0.000490484826938462,0.00023550710509100562,-9.073371452090159e-05,0.00017351464076547645,0.0,0.0,0.0,0.0,0.0,0.0,0.0,-0.00013325557374122,0.00011323685708778536,-9.961518467327402e-05,8.568278530152185e-05,0.00011853406564728969,-1.7740409726574313e-05,-1.749674644857535e-05,-0.00043229244809982805,9.503951547610231e-05,-0.0004854169845583478,0.000490484826938462,-0.00023550710509100562,9.073371452090159e-05,-0.00017351464076547645,0.09352988004684448,18.177942276000977,-0.9180634021759033,-18.122896194458008,-0.4214377999305725,-2.2689852714538574,0.28964561223983765,0
20,0.09502077102661133,-0.09352988004684448,-18.177942276000977,0.9180634021759033,18.122896194458008,0.4214377999305725,2.2689852714538574,-0.28964561223983765,0.0,0.0,0.0,0.0,0.0,0.0,0.0,-0.05352058182515372,0.45952568178468095,0.11550155990168229,0.4722570347302895,0.003949878804350261,0.07999037623648192,-0.2780729463286574,-0.6089519192419554,-0.05764520404265617,-0.6665034818979427,-2.594642219811155,-0.05573997348118729,2.5079937676335256,0.8763283454510901,-0.6090851748156966,-0.05753196718556838,-0.666603097082616,-2.5945565370258534,-0.05562143941554,2.507976027223799,0.8763108487046415,0.00043229244809982805,-9.503951547610231e-05,0.0004854169845583478,-0.000490484826938462,0.00023550710509100562,-9.073371452090159e-05,0.00017351464076547645,0.0,0.0,0.0,0.0,0.0,0.0,0.0,-0.00013325557374122,0.00011323685708778536,-9.961518467327402e-05,8.568278530152185e-05,0.00011853406564728969,-1.7740409726574313e-05,-1.749674644857535e-05,-0.00043229244809982805,9.503951547610231e-05,-0.0004854169845583478,0.000490484826938462,-0.00023550710509100562,9.073371452090159e-05,-0.00017351464076547645,0.09352988004684448,18.177942276000977,-0.9180634021759033,-18.122896194458008,-0.4214377999305725,-2.2689852714538574,0.28964561223983765,0
21,0.10001826286315918,-0.09352988004684448,-18.177942276000977,0.9180634021759033,18.122896194458008,0.4214377999305725,2.2689852714538574,-0.28964561223983765,0.0,0.0,0.0,0.0,0.0,0.0,0.0,-0.05352058182515372,0.45952568178468095,0.11550155990168229,0.4722570347302895,0.003949878804350261,0.07999037623648192,-0.2780729463286574,-0.6089519192419554,-0.05764520404265617,-0.6665034818979427,-2.594642219811155,-0.05573997348118729,2.5079937676335256,0.8763283454510901,-0.6090851748156966,-0.05753196718556838,-0.666603097082616,-2.5945565370258534,-0.05562143941554,2.507976027223799,0.8763108487046415,0.00043229244809982805,-9.503951547610231e-05,0.0004854169845583478,-0.000490484826938462,0.00023550710509100562,-9.073371452090159e-05,0.00017351464076547645,0.0,0.0,0.0,0.0,0.0,0.0,0.0,-0.00013325557374122,0.00011323685708778536,-9.961518467327402e-05,8.568278530152185e-05,0.00011853406564728969,-1.7740409726574313e-05,-1.749674644857535e-05,-0.00043229244809982805,9.503951547610231e-05,-0.0004854169845583478,0.000490484826938462,-0.00023550710509100562,9.073371452090159e-05,-0.00017351464076547645,0.09352988004684448,18.177942276000977,-0.9180634021759033,-18.122896194458008,-0.4214377999305725,-2.2689852714538574,0.28964561223983765,0
22,0.10500335693359375,-0.06972616910934448,-18.177942276000977,0.8942596912384033,18.099092483520508,0.4269309639930725,2.2753939628601074,-0.26858848333358765,0.0,0.0,0.0,0.0,0.0,0.0,0.0,-0.06015662395896052,0.46040845017078297,0.1123111193828827,0.4715057772601498,0.003561932445772427,0.0802644945831279,-0.2780446285836691,-0.6089535896778107,-0.05764520404265637,-0.6665039572176351,-2.5946405493753,-0.05574065106007441,2.507992885007761,0.8763260057701004,-0.6090851748156966,-0.05753196718556838,-0.666603097082616,-2.5945565370258534,-0.05562143941554,2.507976027223799,0.8763108487046415,-0.0005701407529818491,-0.0005008361209908896,0.00046711201425235233,0.00010737225077096854,-2.3038945517486177e-05,-3.821736666761487e-05,-0.0004376319808199965,0.0,0.0,0.0,0.0,0.0,0.0,0.0,-0.00013158513788591453,0.00011323685708798659,-9.913986498089056e-05,8.401234944654945e-05,0.00011921164453441296,-1.6857783962098694e-05,-1.5157065458959451e-05,0.0005701407529818491,0.0005008361209908896,-0.00046711201425235233,-0.00010737225077096854,2.3038945517486177e-05,3.821736666761487e-05,0.0004376319808199965,0.06972616910934448,18.177942276000977,-0.8942596912384033,-18.099092483520508,-0.4269309639930725,-2.2753939628601074,0.26858848333358765,0
23,0.11071944236755371,-0.06972616910934448,-18.177942276000977,0.8942596912384033,18.099092483520508,0.4269309639930725,2.2753939628601074,-0.26858848333358765,0.0,0.0,0.0,0.0,0.0,0.0,0.0,-0.06015662395896052,0.46040845017078297,0.1123111193828827,0.4715057772601498,0.003561932445772427,0.0802644945831279,-0.2780446285836691,-0.6089535896778107,-0.05764520404265637,-0.6665039572176351,-2.5946405493753,-0.05574065106007441,2.507992885007761,0.8763260057701004,-0.6090851748156966,-0.05753196718556838,-0.666603097082616,-2.5945565370258534,-0.05562143941554,2.507976027223799,0.8763108487046415,-0.0005701407529818491,-0.0005008361209908896,0.00046711201425235233,0.00010737225077096854,-2.3038945517486177e-05,-3.821736666761487e-05,-0.0004376319808199965,0.0,0.0,0.0,0.0,0.0,0.0,0.0,-0.00013158513788591453,0.00011323685708798659,-9.913986498089056e-05,8.401234944654945e-05,0.00011921164453441296,-1.6857783962098694e-05,-1.5157065458959451e-05,0.0005701407529818491,0.0005008361209908896,-0.00046711201425235233,-0.00010737225077096854,2.3038945517486177e-05,3.821736666761487e-05,0.0004376319808199965,0.06972616910934448,18.177942276000977,-0.8942596912384033,-18.099092483520508,-0.4269309639930725,-2.2753939628601074,0.26858848333358765,0
24,0.11500263214111328,-0.018151462078094482,-18.253320693969727,0.9180634021759033,18.099092483520508,0.4333396553993225,2.2625765800476074,-0.24844686686992645,0.0,0.0,0.0,0.0,0.0,0.0,0.0,-0.05904669015540107,0.45949096842988846,0.11266669004356973,0.4697094934699925,0.003459038548398142,0.08201597410500011,-0.27706072206918214,-0.6089572089554971,-0.05763991432911471,-0.6665053892470242,-2.5946405493753,-0.05574230967876646,2.507994793192676,0.8763237678127156,-0.6090851748156966,-0.05753196718556838,-0.666603097082616,-2.5945565370258534,-0.05562143941554,2.507976027223799,0.8763108487046415,-0.0013705586219378884,0.0008323053689432681,-0.00025514119502860466,-0.000210228206633771,-0.0001407874085431933,8.953041618061866e-05,-0.0009928022148482007,0.0,0.0,0.0,0.0,0.0,0.0,0.0,-0.00012796586019947487,0.00010794714354632473,-9.770783559182039e-05,8.401234944654945e-05,0.00012087026322645661,-1.876596887706583e-05,-1.2919108074105345e-05,0.0013705586219378884,-0.0008323053689432681,0.00025514119502860466,0.000210228206633771,0.0001407874085431933,-8.953041618061866e-05,0.0009928022148482007,0.018151462078094482,18.253320693969727,-0.9180634021759033,-18.099092483520508,-0.4333396553993225,-2.2625765800476074,0.24844686686992645,0
25,0.11995887756347656,-0.018151462078094482,-18.253320693969727,0.9180634021759033,18.099092483520508,0.4333396553993225,2.2625765800476074,-0.24844686686992645,0.0,0.0,0.0,0.0,0.0,0.0,0.0,-0.05904669015540107,0.45949096842988846,0.11266669004356973,0.4697094934699925,0.003459038548398142,0.08201597410500011,-0.27706072206918214,-0.6089572089554971,-0.05763991432911471,-0.6665053892470242,-2.5946405493753,-0.05574230967876646,2.507994793192676,0.8763237678127156,-0.6090851748156966,-0.05753196718556838,-0.666603097082616,-2.5945565370258534,-0.05562143941554,2.507976027223799,0.8763108487046415,-0.0013705586219378884,0.0008323053689432681,-0.00025514119502860466,-0.000210228206633771,-0.0001407874085431933,8.953041618061866e-05,-0.0009928022148482007,0.0,0.0,0.0,0.0,0.0,0.0,0.0,-0.00012796586019947487,0.00010794714354632473,-9.770783559182039e-05,8.401234944654945e-05,0.00012087026322645661,-1.876596887706583e-05,-1.2919108074105345e-05,0.0013705586219378884,-0.0008323053689432681,0.00025514119502860466,0.000210228206633771,0.0001407874085431933,-8.953041618061866e-05,0.0009928022148482007,0.018151462078094482,18.253320693969727,-0.9180634021759033,-18.099092483520508,-0.4333396553993225,-2.2625765800476074,0.24844686686992645,0
26,0.125,0.005652248859405518,-18.205713272094727,0.9180634021759033,18.099092483520508,0.4333396553993225,2.2625765800476074,-0.23471395671367645,0.0,0.0,0.0,0.0,0.0,0.0,0.0,-0.04919174203063074,0.4583769294447947,0.11883614244412329,0.47121307333606577,0.0032742354140477097,0.08220890543341125,-0.2771729170405499,-0.6089588793913523,-0.057643255200825236,-0.6665056246844795,-2.5946405493753,-0.055741244669190344,2.5079943091631764,0.8763222419338094,-0.6090851748156966,-0.05753196718556838,-0.666603097082616,-2.5945565370258534,-0.05562143941554,2.507976027223799,0.8763108487046415,-0.0009208456052023419,-0.0002098435914793867,0.0008810761517021164,-1.925296467326818e-05,-0.0001349746946608878,0.00012268824598558683,-0.001335478902753481,0.0,0.0,0.0,0.0,0.0,0.0,0.0,-0.00012629542434428043,0.00011128801525685239,-9.74723981365111e-05,8.401234944654945e-05,0.00011980525365034439,-1.8281939377473577e-05,-1.139322916787755e-05,0.0009208456052023419,0.0002098435914793867,-0.0008810761517021164,1.925296467326818e-05,0.0001349746946608878,-0.00012268824598558683,0.001335478902753481,-0.005652248859405518,18.205713272094727,-0.9180634021759033,-18.099092483520508,-0.4333396553993225,-2.2625765800476074,0.23471395671367645,0
27,0.12999224662780762,0.005652248859405518,-18.205713272094727,0.9180634021759033,18.099092483520508,0.4333396553993225,2.2625765800476074,-0.23471395671367645,0.0,0.0,0.0,0.0,0.0,0.0,0.0,-0.04919174203063074,0.4583769294447947,0.11883614244412329,0.47121307333606577,0.0032742354140477097,0.08220890543341125,-0.2771729170405499,-0.6089588793913523,-0.057643255200825236,-0.6665056246844795,-2.5946405493753,-0.055741244669190344,2.5079943091631764,0.8763222419338094,-0.6090851748156966,-0.05753196718556838,-0.666603097082616,-2.5945565370258534,-0.05562143941554,2.507976027223799,0.8763108487046415,-0.0009208456052023419,-0.0002098435914793867,0.0008810761517021164,-1.925296467326818e-05,-0.0001349746946608878,0.00012268824598558683,-0.001335478902753481,0.0,0.0,0.0,0.0,0.0,0.0,0.0,-0.00012629542434428043,0.00011128801525685239,-9.74723981365111e-05,8.401234944654945e-05,0.00011980525365034439,-1.8281939377473577e-05,-1.139322916787755e-05,0.0009208456052023419,0.0002098435914793867,-0.0008810761517021164,1.925296467326818e-05,0.0001349746946608878,-0.00012268824598558683,0.001335478902753481,-0.005652248859405518,18.205713272094727,-0.9180634021759033,-18.099092483520508,-0.4333396553993225,-2.2625765800476074,0.23471395671367645,0
28,0.13499879837036133,-0.018151462078094482,-18.177942276000977,0.9418671131134033,18.099092483520508,0.4333396553993225,2.2689852714538574,-0.23471395671367645,0.0,0.0,0.0,0.0,0.0,0.0,0.0,-0.05730755200691272,0.46003354342595554,0.10879950743991863,0.470691387813664,0.004021251237560702,0.08159605036925166,-0.2761705376117444,-0.6089572089554971,-0.05764520404265637,-0.6665072981014417,-2.5946405493753,-0.055741357936128305,2.507996815243866,0.8763222419338094,-0.6090851748156966,-0.05753196718556838,-0.666603097082616,-2.5945565370258534,-0.05562143941554,2.507976027223799,0.8763108487046415,-0.0006245151629500365,-0.00015150891941190258,-0.0003182300349902585,0.00010823735731108061,-0.00017044101896382242,-0.0001639363262430746,-0.001190894972036499,0.0,0.0,0.0,0.0,0.0,0.0,0.0,-0.00012796586019947487,0.00011323685708798659,-9.579898117428876e-05,8.401234944654945e-05,0.00011991852058830521,-2.0788020067108448e-05,-1.139322916787755e-05,0.0006245151629500365,0.00015150891941190258,0.0003182300349902585,-0.00010823735731108061,0.00017044101896382242,0.0001639363262430746,0.001190894972036499,0.018151462078094482,18.177942276000977,-0.9418671131134033,-18.099092483520508,-0.4333396553993225,-2.2689852714538574,0.23471395671367645,0
29,0.14039230346679688,-0.018151462078094482,-18.177942276000977,0.9418671131134033,18.099092483520508,0.4333396553993225,2.2689852714538574,-0.23471395671367645,0.0,0.0,0.0,0.0,0.0,0.0,0.0,-0.05730755200691272,0.46003354342595554,0.10879950743991863,0.470691387813664,0.004021251237560702,0.08159605036925166,-0.2761705376117444,-0.6089572089554971,-0.05764520404265637,-0.6665072981014417,-2.5946405493753,-0.055741357936128305,2.507996815243866,0.8763222419338094,-0.6090851748156966,-0.05753196718556838,-0.666603097082616,-2.5945565370258534,-0.05562143941554,2.507976027223799,0.8763108487046415,-0.0006245151629500365,-0.00015150891941190258,-0.0003182300349902585,0.00010823735731108061,-0.00017044101896382242,-0.0001639363262430746,-0.001190894972036499,0.0,0.0,0.0,0.0,0.0,0.0,0.0,-0.00012796586019947487,0.00011323685708798659,-9.579898117428876e-05,8.401234944654945e-05,0.00011991852058830521,-2.0788020067108448e-05,-1.139322916787755e-05,0.0006245151629500365,0.00015150891941190258,0.0003182300349902585,-0.00010823735731108061,0.00017044101896382242,0.0001639363262430746,0.001190894972036499,0.018151462078094482,18.177942276000977,-0.9418671131134033,-18.099092483520508,-0.4333396553993225,-2.2689852714538574,0.23471395671367645,0
30,0.14499783515930176,-0.018151462078094482,-18.205713272094727,0.9418671131134033,18.071321487426758,0.4333396553993225,2.2552523612976074,-0.28964561223983765,0.0,0.0,0.0,0.0,0.0,0.0,0.0,-0.0508785826763208,0.46193118806400996,0.11423848044198838,0.4701135647706479,0.004140628739574387,0.08131039969019337,-0.275510887970056,-0.6089572089554971,-0.057643255200825236,-0.6665072716105053,-2.5946386005334685,-0.05574128030877281,2.5079951229806943,0.8763283454510901,-0.6090851748156966,-0.05753196718556838,-0.666603097082616,-2.5945565370258534,-0.05562143941554,2.507976027223799,0.8763108487046415,-0.0007849956186757978,0.0005657363000480528,0.0002306338252290275,0.0005787378140068517,-0.0001558822777426398,0.00023064520460467394,0.0005844867506919862,0.0,0.0,0.0,0.0,0.0,0.0,0.0,-0.00012796586019947487,0.00011128801525685239,-9.582547211073322e-05,8.206350761508219e-05,0.00011984089323281016,-1.9095756895293192e-05,-1.749674644857535e-05,0.0007849956186757978,-0.0005657363000480528,-0.0002306338252290275,-0.0005787378140068517,0.0001558822777426398,-0.00023064520460467394,-0.0005844867506919862,0.018151462078094482,18.205713272094727,-0.9418671131134033,-18.071321487426758,-0.4333396553993225,-2.2552523612976074,0.28964561223983765,0
31,0.14999818801879883,-0.018151462078094482,-18.205713272094727,0.9418671131134033,18.071321487426758,0.4333396553993225,2.2552523612976074,-0.28964561223983765,0.0,0.0,0.0,0.0,0.0,0.0,0.0,-0.0508785826763208,0.46193118806400996,0.11423848044198838,0.4701135647706479,0.004140628739574387,0.08131039969019337,-0.275510887970056,-0.6089572089554971,-0.057643255200825236,-0.6665072716105053,-2.5946386005334685,-0.05574128030877281,2.5079951229806943,0.8763283454510901,-0.6090851748156966,-0.05753196718556838,-0.666603097082616,-2.5945565370258534,-0.05562143941554,2.507976027223799,0.8763108487046415,-0.0007849956186757978,0.0005657363000480528,0.0002306338252290275,0.0005787378140068517,-0.0001558822777426398,0.00023064520460467394,0.0005844867506919862,0.0,0.0,0.0,0.0,0.0,0.0,0.0,-0.00012796586019947487,0.00011128801525685239,-9.582547211073322e-05,8.206350761508219e-05,0.00011984089323281016,-1.9095756895293192e-05,-1.749674644857535e-05,0.0007849956186757978,-0.0005657363000480528,-0.0002306338252290275,-0.0005787378140068517,0.0001558822777426398,-0.00023064520460467394,-0.0005844867506919862,0.018151462078094482,18.205713272094727,-0.9418671131134033,-18.071321487426758,-0.4333396553993225,-2.2552523612976074,0.28964561223983765,0
32,0.15502429008483887,-0.04592245817184448,-18.229516983032227,0.8704559803009033,18.099092483520508,0.4269309639930725,2.2689852714538574,-0.28964561223983765,0.0,0.0,0.0,0.0,0.0,0.0,0.0,-0.05236220974161607,0.4539222890191351,0.1127181812436596,0.4743183142882602,0.004541061898565427,0.08086310228947924,-0.27585796065603535,-0.608955260113666,-0.05764158476496997,-0.6665022854855481,-2.5946405493753,-0.055740939415755204,2.5079946568832563,0.8763283454510901,-0.6090851748156966,-0.05753196718556838,-0.666603097082616,-2.5945565370258534,-0.05562143941554,2.507976027223799,0.8763108487046415,0.000272390550315286,-9.593161891901265e-05,0.0013078632240143143,0.00016994020435770054,-3.5579076826168446e-05,-0.00018352231032366976,0.0005372767030610368,0.0,0.0,0.0,0.0,0.0,0.0,0.0,-0.00012991470203060906,0.00010961757940158856,-0.00010081159706787357,8.401234944654945e-05,0.0001195000002152044,-1.8629659457314318e-05,-1.749674644857535e-05,-0.000272390550315286,9.593161891901265e-05,-0.0013078632240143143,-0.00016994020435770054,3.5579076826168446e-05,0.00018352231032366976,-0.0005372767030610368,0.04592245817184448,18.229516983032227,-0.8704559803009033,-18.099092483520508,-0.4269309639930725,-2.2689852714538574,0.28964561223983765,0
33,0.16001057624816895,-0.04592245817184448,-18.229516983032227,0.8704559803009033,18.099092483520508,0.4269309639930725,2.2689852714538574,-0.28964561223983765,0.0,0.0,0.0,0.0,0.0,0.0,0.0,-0.05236220974161607,0.4539222890191351,0.1127181812436596,0.4743183142882602,0.004541061898565427,0.08086310228947924,-0.27585796065603535,-0.608955260113666,-0.05764158476496997,-0.6665022854855481,-2.5946405493753,-0.055740939415755204,2.5079946568832563,0.8763283454510901,-0.6090851748156966,-0.05753196718556838,-0.666603097082616,-2.5945565370258534,-0.05562143941554,2.507976027223799,0.8763108487046415,0.000272390550315286,-9.593161891901265e-05,0.0013078632240143143,0.00016994020435770054,-3.5579076826168446e-05,-0.00018352231032366976,0.0005372767030610368,0.0,0.0,0.0,0.0,0.0,0.0,0.0,-0.00012991470203060906,0.00010961757940158856,-0.00010081159706787357,8.401234944654945e-05,0.0001195000002152044,-1.8629659457314318e-05,-1.749674644857535e-05,-0.000272390550315286,9.593161891901265e-05,-0.0013078632240143143,-0.00016994020435770054,3.5579076826168446e-05,0.00018352231032366976,-0.0005372767030610368,0.04592245817184448,18.229516983032227,-0.8704559803009033,-18.099092483520508,-0.4269309639930725,-2.2689852714538574,0.28964561223983765,0
34,0.16500401496887207,-0.04592245817184448,-18.253320693969727,0.8704559803009033,18.146699905395508,0.4269309639930725,2.2882113456726074,-0.26217979192733765,0.0,0.0,0.0,0.0,0.0,0.0,0.0,-0.053616014320918184,0.4578120612985022,0.10989373050655402,0.4697211874991424,0.004040109865198058,0.08069545929768542,-0.2758318149296538,-0.608955260113666,-0.05763770164143365,-0.6665000350628606,-2.5946438902470104,-0.05574057229648185,2.507991460859135,0.8763252936932776,-0.6090851748156966,-0.05753196718556838,-0.666603097082616,-2.5945565370258534,-0.05562143941554,2.507976027223799,0.8763108487046415,-0.0007244245393562917,0.0008059849014224502,0.0011289515888299859,-0.0011232765616692806,0.00010626504514896532,-0.0004899598699066616,-0.0006581106730505578,0.0,0.0,0.0,0.0,0.0,0.0,0.0,-0.00012991470203060906,0.00010573445586526536,-0.00010306201975540663,8.735322115693833e-05,0.00011913288094184821,-1.543363533595965e-05,-1.444498863611976e-05,0.0007244245393562917,-0.0008059849014224502,-0.0011289515888299859,0.0011232765616692806,-0.00010626504514896532,0.0004899598699066616,0.0006581106730505578,0.04592245817184448,18.253320693969727,-0.8704559803009033,-18.146699905395508,-0.4269309639930725,-2.2882113456726074,0.26217979192733765,0
35,0.17000317573547363,-0.04592245817184448,-18.253320693969727,0.8704559803009033,18.146699905395508,0.4269309639930725,2.2882113456726074,-0.26217979192733765,0.0,0.0,0.0,0.0,0.0,0.0,0.0,-0.053616014320918184,0.4578120612985022,0.10989373050655402,0.4697211874991424,0.004040109865198058,0.08069545929768542,-0.2758318149296538,-0.608955260113666,-0.05763770164143365,-0.6665000350628606,-2.5946438902470104,-0.05574057229648185,2.507991460859135,0.8763252936932776,-0.6090851748156966,-0.05753196718556838,-0.666603097082616,-2.5945565370258534,-0.05562143941554,2.507976027223799,0.8763108487046415,-0.0007244245393562917,0.0008059849014224502,0.0011289515888299859,-0.0011232765616692806,0.00010626504514896532,-0.0004899598699066616,-0.0006581106730505578,0.0,0.0,0.0,0.0,0.0,0.0,0.0,-0.00012991470203060906,0.00010573445586526536,-0.00010306201975540663,8.735322115693833e-05,0.00011913288094184821,-1.543363533595965e-05,-1.444498863611976e-05,0.0007244245393562917,-0.0008059849014224502,-0.0011289515888299859,0.0011232765616692806,-0.00010626504514896532,0.0004899598699066616,0.0006581106730505578,0.04592245817184448,18.253320693969727,-0.8704559803009033,-18.146699905395508,-0.4269309639930725,-2.2882113456726074,0.26217979192733765,0
36,0.17500710487365723,-0.06972616910934448,-18.177942276000977,0.9180634021759033,18.099092483520508,0.4150291085243225,2.2625765800476074,-0.26858848333358765,0.0,0.0,0.0,0.0,0.0,0.0,0.0,-0.0502708692780722,0.4585926323416078,0.1118270318527211,0.4684941834062905,0.003614481272098261,0.08250064496207611,-0.27555389615304526,-0.6089535896778107,-0.05764520403016569,-0.6665056276528922,-2.5946405493753,-0.05574275851054655,2.5079943091604444,0.8763260057701004,-0.6090851748156966,-0.05753196718556838,-0.666603097082616,-2.5945565370258534,-0.05562143941554,2.507976027223799,0.8763108487046415,0.00038100383475181567,-0.0005432443111119527,-0.0002288755070574594,0.00013643615846839808,0.0005064415395107152,0.0002734671704662648,-0.0005785531841974647,0.0,0.0,0.0,0.0,0.0,0.0,0.0,-0.00013158513788591453,0.00011323684459730449,-9.746942972377326e-05,8.401234944654945e-05,0.00012131909500655291,-1.8281936645436758e-05,-1.5157065458959451e-05,-0.00038100383475181567,0.0005432443111119527,0.0002288755070574594,-0.00013643615846839808,-0.0005064415395107152,-0.0002734671704662648,0.0005785531841974647,0.06972616910934448,18.177942276000977,-0.9180634021759033,-18.099092483520508,-0.4150291085243225,-2.2625765800476074,0.26858848333358765,0
37,0.1799609661102295,-0.06972616910934448,-18.177942276000977,0.9180634021759033,18.099092483520508,0.4150291085243225,2.2625765800476074,-0.26858848333358765,0.0,0.0,0.0,0.0,0.0,0.0,0.0,-0.0502708692780722,0.4585926323416078,0.1118270318527211,0.4684941834062905,0.003614481272098261,0.08250064496207611,-0.27555389615304526,-0.6089535896778107,-0.05764520403016569,-0.6665056276528922,-2.5946405493753,-0.05574275851054655,2.5079943091604444,0.8763260057701004,-0.6090851748156966,-0.05753196718556838,-0.666603097082616,-2.5945565370258534,-0.05562143941554,2.507976027223799,0.8763108487046415,0.00038100383475181567,-0.0005432443111119527,-0.0002288755070574594,0.00013643615846839808,0.0005064415395107152,0.0002734671704662648,-0.0005785531841974647,0.0,0.0,0.0,0.0,0.0,0.0,0.0,-0.00013158513788591453,0.00011323684459730449,-9.746942972377326e-05,8.401234944654945e-05,0.00012131909500655291,-1.8281936645436758e-05,-1.5157065458959451e-05,-0.00038100383475181567,0.0005432443111119527,0.0002288755070574594,-0.00013643615846839808,-0.0005064415395107152,-0.0002734671704662648,0.0005785531841974647,0.06972616910934448,18.177942276000977,-0.9180634021759033,-18.099092483520508,-0.4150291085243225,-2.2625765800476074,0.26858848333358765,0
38,0.1849510669708252,-0.018151462078094482,-18.130334854125977,0.8942596912384033,18.099092483520508,0.4333396553993225,2.2625765800476074,-0.29605430364608765,0.0,0.0,0.0,0.0,0.0,0.0,0.0,-0.04852007302561434,0.4596689660138263,0.11183526140245101,0.4698152919718251,0.0029913007317850415,0.08290923142225638,-0.27606879709164583,-0.6089572089554971,-0.05764854491436683,-0.6665018114625361,-2.5946405493753,-0.055741243220573916,2.507994662373154,0.876329057527913,-0.6090851748156966,-0.05753196718556838,-0.666603097082616,-2.5945565370258534,-0.05562143941554,2.507976027223799,0.8763108487046415,-0.0005480239388594839,-0.0011474012483303304,0.0009765675056054783,-0.0003606237304498185,-0.00019690472688142226,-0.0001158397737559866,0.0011244950808348949,0.0,0.0,0.0,0.0,0.0,0.0,0.0,-0.00012796586019947487,0.00011657772879844486,-0.00010128562007993835,8.401234944654945e-05,0.00011980380503391619,-1.8635149355183955e-05,-1.8208823271526065e-05,0.0005480239388594839,0.0011474012483303304,-0.0009765675056054783,0.0003606237304498185,0.00019690472688142226,0.0001158397737559866,-0.0011244950808348949,0.018151462078094482,18.130334854125977,-0.8942596912384033,-18.099092483520508,-0.4333396553993225,-2.2625765800476074,0.29605430364608765,0
39,0.18999958038330078,-0.018151462078094482,-18.130334854125977,0.8942596912384033,18.099092483520508,0.4333396553993225,2.2625765800476074,-0.29605430364608765,0.0,0.0,0.0,0.0,0.0,0.0,0.0,-0.04852007302561434,0.4596689660138263,0.11183526140245101,0.4698152919718251,0.0029913007317850415,0.08290923142225638,-0.27606879709164583,-0.6089572089554971,-0.05764854491436683,-0.6665018114625361,-2.5946405493753,-0.055741243220573916,2.507994662373154,0.876329057527913,-0.6090851748156966,-0.05753196718556838,-0.666603097082616,-2.5945565370258534,-0.05562143941554,2.507976027223799,0.8763108487046415,-0.0005480239388594839,-0.0011474012483303304,0.0009765675056054783,-0.0003606237304498185,-0.00019690472688142226,-0.0001158397737559866,0.0011244950808348949,0.0,0.0,0.0,0.0,0.0,0.0,0.0,-0.00012796586019947487,0.00011657772879844486,-0.00010128562007993835,8.401234944654945e-05,0.00011980380503391619,-1.8635149355183955e-05,-1.8208823271526065e-05,0.0005480239388594839,0.0011474012483303304,-0.0009765675056054783,0.0003606237304498185,0.00019690472688142226,0.0001158397737559866,-0.0011244950808348949,0.018151462078094482,18.130334854125977,-0.8942596912384033,-18.099092483520508,-0.4333396553993225,-2.2625765800476074,0.29605430364608765,0
40,0.19500136375427246,-0.04592245817184448,-18.177942276000977,0.9180634021759033,18.122896194458008,0.4333396553993225,2.2689852714538574,-0.29605430364608765,0.0,0.0,0.0,0.0,0.0,0.0,0.0,-0.05483568141040295,0.4592995788736537,0.10559632771410937,0.47584015867534907,0.0037550683550945448,0.08286227518105004,-0.275326462069719,-0.608955260113666,-0.05764520404265637,-0.6665056276534904,-2.594642219811155,-0.055741295855392885,2.5079967760000033,0.876329057527913,-0.6090851748156966,-0.05753196718556838,-0.666603097082616,-2.5945565370258534,-0.05562143941554,2.507976027223799,0.8763108487046415,-0.00017312124287047174,1.8710460639621732e-06,0.00012209804279314577,-0.0003361340472071059,-0.00019801199806385509,-0.000254593187473634,0.0007864613842133596,0.0,0.0,0.0,0.0,0.0,0.0,0.0,-0.00012991470203060906,0.00011323685708798659,-9.74694291255851e-05,8.568278530152185e-05,0.0001198564398528848,-2.0748776204282393e-05,-1.8208823271526065e-05,0.00017312124287047174,-1.8710460639621732e-06,-0.00012209804279314577,0.0003361340472071059,0.00019801199806385509,0.000254593187473634,-0.0007864613842133596,0.04592245817184448,18.177942276000977,-0.9180634021759033,-18.122896194458008,-0.4333396553993225,-2.2689852714538574,0.29605430364608765,0
41,0.1999974250793457,-0.04592245817184448,-18.177942276000977,0.9180634021759033,18.122896194458008,0.4333396553993225,2.2689852714538574,-0.29605430364608765,0.0,0.0,0.0,0.0,0.0,0.0,0.0,-0.05483568141040295,0.4592995788736537,0.10559632771410937,0.47584015867534907,0.0037550683550945448,0.08286227518105004,-0.275326462069719,-0.608955260113666,-0.05764520404265637,-0.6665056276534904,-2.594642219811155,-0.055741295855392885,2.5079967760000033,0.876329057527913,-0.6090851748156966,-0.05753196718556838,-0.666603097082616,-2.5945565370258534,-0.05562143941554,2.507976027223799,0.8763108487046415,-0.00017312124287047174,1.8710460639621732e-06,0.00012209804279314577,-0.0003361340472071059,-0.00019801199806385509,-0.000254593187473634,0.0007864613842133596,0.0,0.0,0.0,0.0,0.0,0.0,0.0,-0.00012991470203060906,0.00011323685708798659,-9.74694291255851e-05,8.568278530152185e-05,0.0001198564398528848,-2.0748776204282393e-05,-1.8208823271526065e-05,0.00017312124287047174,-1.8710460639621732e-06,-0.00012209804279314577,0.0003361340472071059,0.00019801199806385509,0.000254593187473634,-0.0007864613842133596,0.04592245817184448,18.177942276000977,-0.9180634021759033,-18.122896194458008,-0.4333396553993225,-2.2689852714538574,0.29605430364608765,0
42,0.20499777793884277,-0.04592245817184448,-18.229516983032227,0.9696381092071533,18.122896194458008,0.4269309639930725,2.2689852714538574,-0.29605430364608765,0.0,0.0,0.0,0.0,0.0,0.0,0.0,-0.04982208702368457,0.46571943845200536,0.108760341738905,0.46803021577040455,0.0035712896394462924,0.08166930544390552,-0.2751478288546915,-0.608955260113666,-0.05764158476496997,-0.6665090046001249,-2.594642219811155,-0.05574194841726149,2.5079935971015663,0.876329057527913,-0.6090851748156966,-0.05753196718556838,-0.666603097082616,-2.5945565370258534,-0.05562143941554,2.507976027223799,0.8763108487046415,0.00016972678212290516,0.0010922732119158292,-0.0009369196741226979,-0.0010073416747702936,-7.076758780404003e-05,-5.7961489883920325e-05,0.0006559065313511827,0.0,0.0,0.0,0.0,0.0,0.0,0.0,-0.00012991470203060906,0.00010961757940158856,-9.409248249114821e-05,8.568278530152185e-05,0.00012050900172148882,-1.756987776735386e-05,-1.8208823271526065e-05,-0.00016972678212290516,-0.0010922732119158292,0.0009369196741226979,0.0010073416747702936,7.076758780404003e-05,5.7961489883920325e-05,-0.0006559065313511827,0.04592245817184448,18.229516983032227,-0.9696381092071533,-18.122896194458008,-0.4269309639930725,-2.2689852714538574,0.29605430364608765,0
43,0.21003293991088867,-0.04592245817184448,-18.229516983032227,0.9696381092071533,18.122896194458008,0.4269309639930725,2.2689852714538574,-0.29605430364608765,0.0,0.0,0.0,0.0,0.0,0.0,0.0,-0.04982208702368457,0.46571943845200536,0.108760341738905,0.46803021577040455,0.0035712896394462924,0.08166930544390552,-0.2751478288546915,-0.608955260113666,-0.05764158476496997,-0.6665090046001249,-2.594642219811155,-0.05574194841726149,2.5079935971015663,0.876329057527913,-0.6090851748156966,-0.05753196718556838,-0.666603097082616,-2.5945565370258534,-0.05562143941554,2.507976027223799,0.8763108487046415,0.00016972678212290516,0.0010922732119158292,-0.0009369196741226979,-0.0010073416747702936,-7.076758780404003e-05,-5.7961489883920325e-05,0.0006559065313511827,0.0,0.0,0.0,0.0,0.0,0.0,0.0,-0.00012991470203060906,0.00010961757940158856,-9.409248249114821e-05,8.568278530152185e-05,0.00012050900172148882,-1.756987776735386e-05,-1.8208823271526065e-05,-0.00016972678212290516,-0.0010922732119158292,0.0009369196741226979,0.0010073416747702936,7.076758780404003e-05,5.7961489883920325e-05,-0.0006559065313511827,0.04592245817184448,18.229516983032227,-0.9696381092071533,-18.122896194458008,-0.4269309639930725,-2.2689852714538574,0.29605430364608765,0
44,0.21500420570373535,-0.04592245817184448,-18.229516983032227,0.9696381092071533,18.122896194458008,0.4269309639930725,2.2689852714538574,-0.29605430364608765,0.0,0.0,0.0,0.0,0.0,0.0,0.0,-0.04982208702368457,0.46571943845200536,0.108760341738905,0.46803021577040455,0.0035712896394462924,0.08166930544390552,-0.2751478288546915,-0.608955260113666,-0.05764158476496997,-0.6665090046001249,-2.594642219811155,-0.05574194841726149,2.5079935971015663,0.876329057527913,-0.6090851748156966,-0.05753196718556838,-0.666603097082616,-2.5945565370258534,-0.05562143941554,2.507976027223799,0.8763108487046415,0.00016972678212290516,0.0010922732119158292,-0.0009369196741226979,-0.0010073416747702936,-7.076758780404003e-05,-5.7961489883920325e-05,0.0006559065313511827,0.0,0.0,0.0,0.0,0.0,0.0,0.0,-0.00012991470203060906,0.00010961757940158856,-9.409248249114821e-05,8.568278530152185e-05,0.00012050900172148882,-1.756987776735386e-05,-1.8208823271526065e-05,-0.00016972678212290516,-0.0010922732119158292,0.0009369196741226979,0.0010073416747702936,7.076758780404003e-05,5.7961489883920325e-05,-0.0006559065313511827,0.04592245817184448,18.229516983032227,-0.9696381092071533,-18.122896194458008,-0.4269309639930725,-2.2689852714538574,0.29605430364608765,0
45,0.22001004219055176,-0.04592245817184448,-18.229516983032227,0.9696381092071533,18.122896194458008,0.4269309639930725,2.2689852714538574,-0.29605430364608765,0.0,0.0,0.0,0.0,0.0,0.0,0.0,-0.04982208702368457,0.46571943845200536,0.108760341738905,0.46803021577040455,0.0035712896394462924,0.08166930544390552,-0.2751478288546915,-0.608955260113666,-0.05764158476496997,-0.6665090046001249,-2.594642219811155,-0.05574194841726149,2.5079935971015663,0.876329057527913,-0.6090851748156966,-0.05753196718556838,-0.666603097082616,-2.5945565370258534,-0.05562143941554,2.507976027223799,0.8763108487046415,0.00016972678212290516,0.0010922732119158292,-0.0009369196741226979,-0.0010073416747702936,-7.076758780404003e-05,-5.7961489883920325e-05,0.0006559065313511827,0.0,0.0,0.0,0.0,0.0,0.0,0.0,-0.00012991470203060906,0.00010961757940158856,-9.409248249114821e-05,8.568278530152185e-05,0.00012050900172148882,-1.756987776735386e-05,-1.8208823271526065e-05,-0.00016972678212290516,-0.0010922732119158292,0.0009369196741226979,0.0010073416747702936,7.076758780404003e-05,5.7961489883920325e-05,-0.0006559065313511827,0.04592245817184448,18.229516983032227,-0.9696381092071533,-18.122896194458008,-0.4269309639930725,-2.2689852714538574,0.29605430364608765,0
46,0.225006103515625,-0.12130087614059448,-18.253320693969727,0.9696381092071533,18.099092483520508,0.4214377999305725,2.2689852714538574,-0.29605430364608765,0.0,0.0,0.0,0.0,0.0,0.0,0.0,-0.053789653623865695,0.46181719861619674,0.10607557418839891,0.46652292275181645,0.003741424536802034,0.08141575033351203,-0.27574825815367954,-0.6089499704001242,-0.05763991140270926,-0.666509167469062,-2.5946405493753,-0.05573991639224555,2.507993597245127,0.876329057527913,-0.6090851748156966,-0.05753196718556838,-0.666603097082616,-2.5945565370258534,-0.05562143941554,2.507976027223799,0.8763108487046415,0.0015082795647635165,0.0006323544309627236,-0.0008951247648647496,-0.0006314149692347498,0.0002876230732793024,-3.71000110197497e-05,0.0005909602792456092,0.0,0.0,0.0,0.0,0.0,0.0,0.0,-0.00013520441557235419,0.00010794421714087343,-9.392961355403351e-05,8.401234944654945e-05,0.00011847697670554908,-1.7570021328072727e-05,-1.8208823271526065e-05,-0.0015082795647635165,-0.0006323544309627236,0.0008951247648647496,0.0006314149692347498,-0.0002876230732793024,3.71000110197497e-05,-0.0005909602792456092,0.12130087614059448,18.253320693969727,-0.9696381092071533,-18.099092483520508,-0.4214377999305725,-2.2689852714538574,0.29605430364608765,0
47,0.23000383377075195,-0.12130087614059448,-18.253320693969727,0.9696381092071533,18.099092483520508,0.4214377999305725,2.2689852714538574,-0.29605430364608765,0.0,0.0,0.0,0.0,0.0,0.0,0.0,-0.053789653623865695,0.46181719861619674,0.10607557418839891,0.46652292275181645,0.003741424536802034,0.08141575033351203,-0.27574825815367954,-0.6089499704001242,-0.05763991140270926,-0.666509167469062,-2.5946405493753,-0.05573991639224555,2.507993597245127,0.876329057527913,-0.6090851748156966,-0.05753196718556838,-0.666603097082616,-2.5945565370258534,-0.05562143941554,2.507976027223799,0.8763108487046415,0.0015082795647635165,0.0006323544309627236,-0.0008951247648647496,-0.0006314149692347498,0.0002876230732793024,-3.71000110197497e-05,0.0005909602792456092,0.0,0.0,0.0,0.0,0.0,0.0,0.0,-0.00013520441557235419,0.00010794421714087343,-9.392961355403351e-05,8.401234944654945e-05,0.00011847697670554908,-1.7570021328072727e-05,-1.8208823271526065e-05,-0.0015082795647635165,-0.0006323544309627236,0.0008951247648647496,0.0006314149692347498,-0.0002876230732793024,3.71000110197497e-05,-0.0005909602792456092,0.12130087614059448,18.253320693969727,-0.9696381092071533,-18.099092483520508,-0.4214377999305725,-2.2689852714538574,0.29605430364608765,0
48,0.2350008487701416,-0.06972616910934448,-18.229516983032227,0.9180634021759033,18.071321487426758,0.4269309639930725,2.2753939628601074,-0.26858848333358765,0.0,0.0,0.0,0.0,0.0,0.0,0.0,-0.05340843851472901,0.4570604285035651,0.11219092798635896,0.4682198252021377,0.003884002391450924,0.08267548727262945,-0.2762156186768302,-0.6089535896778107,-0.05764158443979729,-0.6665032169884104,-2.5946386005334685,-0.05574054428740188,2.5079928850067996,0.8763260057701004,-0.6090851748156966,-0.05753196718556838,-0.666603097082616,-2.5945565370258534,-0.05562143941554,2.507976027223799,0.8763108487046415,0.0004923133206529742,0.00011355463347311366,0.0004927206249493059,0.0009212686103874864,0.00019051836960536878,-0.00015757083134825713,-0.0005896945738521991,0.0,0.0,0.0,0.0,0.0,0.0,0.0,-0.00013158513788591453,0.00010961725422890811,-9.988009420558441e-05,8.206350761508219e-05,0.00011910487186188312,-1.6857783000645554e-05,-1.5157065458959451e-05,-0.0004923133206529742,-0.00011355463347311366,-0.0004927206249493059,-0.0009212686103874864,-0.00019051836960536878,0.00015757083134825713,0.0005896945738521991,0.06972616910934448,18.229516983032227,-0.9180634021759033,-18.071321487426758,-0.4269309639930725,-2.2753939628601074,0.26858848333358765,0
49,0.23999428749084473,-0.06972616910934448,-18.229516983032227,0.9180634021759033,18.071321487426758,0.4269309639930725,2.2753939628601074,-0.26858848333358765,0.0,0.0,0.0,0.0,0.0,0.0,0.0,-0.05340843851472901,0.4570604285035651,0.11219092798635896,0.4682198252021377,0.003884002391450924,0.08267548727262945,-0.2762156186768302,-0.6089535896778107,-0.05764158443979729,-0.6665032169884104,-2.5946386005334685,-0.05574054428740188,2.5079928850067996,0.8763260057701004,-0.6090851748156966,-0.05753196718556838,-0.666603097082616,-2.5945565370258534,-0.05562143941554,2.507976027223799,0.8763108487046415,0.0004923133206529742,0.00011355463347311366,0.0004927206249493059,0.0009212686103874864,0.00019051836960536878,-0.00015757083134825713,-0.0005896945738521991,0.0,0.0,0.0,0.0,0.0,0.0,0.0,-0.00013158513788591453,0.00010961725422890811,-9.988009420558441e-05,8.206350761508219e-05,0.00011910487186188312,-1.6857783000645554e-05,-1.5157065458959451e-05,-0.0004923133206529742,-0.00011355463347311366,-0.0004927206249493059,-0.0009212686103874864,-0.00019051836960536878,0.00015757083134825713,0.0005896945738521991,0.06972616910934448,18.229516983032227,-0.9180634021759033,-18.071321487426758,-0.4269309639930725,-2.2753939628601074,0.26858848333358765,0
50,0.24499845504760742,-0.06972616910934448,-18.177942276000977,0.9418671131134033,18.071321487426758,0.4214377999305725,2.2625765800476074,-0.26217979192733765,0.0,0.0,0.0,0.0,0.0,0.0,0.0,-0.05007214221833739,0.4583157994699471,0.11707088705304221,0.4648912852246785,0.0040307936878193375,0.08316452699748376,-0.2759956227889723,-0.6089535896778107,-0.05764520111624908,-0.6665051255026362,-2.5946386005334685,-0.055741351229190474,2.507994313521095,0.8763252936932776,-0.6090851748156966,-0.05753196718556838,-0.666603097082616,-2.5945565370258534,-0.05562143941554,2.507976027223799,0.8763108487046415,0.0008099189964748272,-0.0008086210604576204,-0.0002665347676765593,0.0008662870880049978,0.00014947787676197665,8.637156645447717e-05,-0.0008084232024588353,0.0,0.0,0.0,0.0,0.0,0.0,0.0,-0.00013158513788591453,0.00011323393068069648,-9.797157997981643e-05,8.206350761508219e-05,0.00011991181365047371,-1.828629729594411e-05,-1.444498863611976e-05,-0.0008099189964748272,0.0008086210604576204,0.0002665347676765593,-0.0008662870880049978,-0.00014947787676197665,-8.637156645447717e-05,0.0008084232024588353,0.06972616910934448,18.177942276000977,-0.9418671131134033,-18.071321487426758,-0.4214377999305725,-2.2625765800476074,0.26217979192733765,0
51,0.24999761581420898,-0.06972616910934448,-18.177942276000977,0.9418671131134033,18.071321487426758,0.4214377999305725,2.2625765800476074,-0.26217979192733765,0.0,0.0,0.0,0.0,0.0,0.0,0.0,-0.05007214221833739,0.4583157994699471,0.11707088705304221,0.4648912852246785,0.0040307936878193375,0.08316452699748376,-0.2759956227889723,-0.6089535896778107,-0.05764520111624908,-0.6665051255026362,-2.5946386005334685,-0.055741351229190474,2.507994313521095,0.8763252936932776,-0.6090851748156966,-0.05753196718556838,-0.666603097082616,-2.5945565370258534,-0.05562143941554,2.507976027223799,0.8763108487046415,0.0008099189964748272,-0.0008086210604576204,-0.0002665347676765593,0.0008662870880049978,0.00014947787676197665,8.637156645447717e-05,-0.0008084232024588353,0.0,0.0,0.0,0.0,0.0,0.0,0.0,-0.00013158513788591453,0.00011323393068069648,-9.797157997981643e-05,8.206350761508219e-05,0.00011991181365047371,-1.828629729594411e-05,-1.444498863611976e-05,-0.0008099189964748272,0.0008086210604576204,0.0002665347676765593,-0.0008662870880049978,-0.00014947787676197665,-8.637156645447717e-05,0.0008084232024588353,0.06972616910934448,18.177942276000977,-0.9418671131134033,-18.071321487426758,-0.4214377999305725,-2.2625765800476074,0.26217979192733765,0
52,0.25499796867370605,-0.04592245817184448,-18.177942276000977,0.9180634021759033,18.071321487426758,0.4333396553993225,2.2689852714538574,-0.26217979192733765,0.0,0.0,0.0,0.0,0.0,0.0,0.0,-0.04916403953189093,0.4619968652401827,0.11462886634276849,0.4655967924251544,0.003839159486743778,0.08258779244951596,-0.27615516688719155,-0.608955260113666,-0.057645204042639855,-0.6665034553951739,-2.5946386005334685,-0.0557412540971146,2.5079939502963557,0.8763252980539283,-0.6090851748156966,-0.05753196718556838,-0.666603097082616,-2.5945565370258534,-0.05562143941554,2.507976027223799,0.8763108487046415,0.00014955737764077044,0.0002314001472726407,0.0005000946359153459,0.00035162657282824096,-0.00021245671118010875,-0.00042367127071358336,-0.0007069273907085919,0.0,0.0,0.0,0.0,0.0,0.0,0.0,-0.00012991470203060906,0.00011323685707147202,-9.964168744214241e-05,8.206350761508219e-05,0.00011981468157459818,-1.792307255676917e-05,-1.4449349286849156e-05,-0.00014955737764077044,-0.0002314001472726407,-0.0005000946359153459,-0.00035162657282824096,0.00021245671118010875,0.00042367127071358336,0.0007069273907085919,0.04592245817184448,18.177942276000977,-0.9180634021759033,-18.071321487426758,-0.4333396553993225,-2.2689852714538574,0.26217979192733765,0
53,0.25999999046325684,-0.04592245817184448,-18.177942276000977,0.9180634021759033,18.071321487426758,0.4333396553993225,2.2689852714538574,-0.26217979192733765,0.0,0.0,0.0,0.0,0.0,0.0,0.0,-0.04916403953189093,0.4619968652401827,0.11462886634276849,0.4655967924251544,0.003839159486743778,0.08258779244951596,-0.27615516688719155,-0.608955260113666,-0.057645204042639855,-0.6665034553951739,-2.5946386005334685,-0.0557412540971146,2.5079939502963557,0.8763252980539283,-0.6090851748156966,-0.05753196718556838,-0.666603097082616,-2.5945565370258534,-0.05562143941554,2.507976027223799,0.8763108487046415,0.00014955737764077044,0.0002314001472726407,0.0005000946359153459,0.00035162657282824096,-0.00021245671118010875,-0.00042367127071358336,-0.0007069273907085919,0.0,0.0,0.0,0.0,0.0,0.0,0.0,-0.00012991470203060906,0.00011323685707147202,-9.964168744214241e-05,8.206350761508219e-05,0.00011981468157459818,-1.792307255676917e-05,-1.4449349286849156e-05,-0.00014955737764077044,-0.0002314001472726407,-0.0005000946359153459,-0.00035162657282824096,0.00021245671118010875,0.00042367127071358336,0.0007069273907085919,0.04592245817184448,18.177942276000977,-0.9180634021759033,-18.071321487426758,-0.4333396553993225,-2.2689852714538574,0.26217979192733765,0
54,0.2649972438812256,-0.09352988004684448,-18.177942276000977,0.9418671131134033,18.099092483520508,0.4452415108680725,2.2689852714538574,-0.26217979192733765,0.0,0.0,0.0,0.0,0.0,0.0,0.0,-0.050587253213991275,0.4680902651431509,0.11242395832213568,0.46832019666263885,0.004184037944338156,0.08196020788334972,-0.2759417842077756,-0.6089519192419554,-0.05764520404265637,-0.6665072715982427,-2.5946405493753,-0.05574256140359223,2.507993714823185,0.8763252936933021,-0.6090851748156966,-0.05753196718556838,-0.666603097082616,-2.5945565370258534,-0.05562143941554,2.507976027223799,0.8763108487046415,0.0006161750651956337,0.000567602966905894,-1.3440756414725032e-05,5.645006242889146e-05,-0.0005685388831642823,7.513021902510339e-06,-0.0007677123211873024,0.0,0.0,0.0,0.0,0.0,0.0,0.0,-0.00013325557374122,0.00011323685708798659,-9.582548437325755e-05,8.401234944654945e-05,0.00012112198805223212,-1.7687599386029262e-05,-1.4444988660655689e-05,-0.0006161750651956337,-0.000567602966905894,1.3440756414725032e-05,-5.645006242889146e-05,0.0005685388831642823,-7.513021902510339e-06,0.0007677123211873024,0.09352988004684448,18.177942276000977,-0.9418671131134033,-18.099092483520508,-0.4452415108680725,-2.2689852714538574,0.26217979192733765,0
55,0.2700047492980957,-0.09352988004684448,-18.177942276000977,0.9418671131134033,18.099092483520508,0.4452415108680725,2.2689852714538574,-0.26217979192733765,0.0,0.0,0.0,0.0,0.0,0.0,0.0,-0.050587253213991275,0.4680902651431509,0.11242395832213568,0.46832019666263885,0.004184037944338156,0.08196020788334972,-0.2759417842077756,-0.6089519192419554,-0.05764520404265637,-0.6665072715982427,-2.5946405493753,-0.05574256140359223,2.507993714823185,0.8763252936933021,-0.6090851748156966,-0.05753196718556838,-0.666603097082616,-2.5945565370258534,-0.05562143941554,2.507976027223799,0.8763108487046415,0.0006161750651956337,0.000567602966905894,-1.3440756414725032e-05,5.645006242889146e-05,-0.0005685388831642823,7.513021902510339e-06,-0.0007677123211873024,0.0,0.0,0.0,0.0,0.0,0.0,0.0,-0.00013325557374122,0.00011323685708798659,-9.582548437325755e-05,8.401234944654945e-05,0.00012112198805223212,-1.7687599386029262e-05,-1.4444988660655689e-05,-0.0006161750651956337,-0.000567602966905894,1.3440756414725032e-05,-5.645006242889146e-05,0.0005685388831642823,-7.513021902510339e-06,0.0007677123211873024,0.09352988004684448,18.177942276000977,-0.9418671131134033,-18.099092483520508,-0.4452415108680725,-2.2689852714538574,0.26217979192733765,0
56,0.27499914169311523,-0.09352988004684448,-18.229516983032227,0.9180634021759033,18.122896194458008,0.4333396553993225,2.2689852714538574,-0.30978721380233765,0.0,0.0,0.0,0.0,0.0,0.0,0.0,-0.053941864269694474,0.4672152147322754,0.11235434952530358,0.4709585130538484,0.00448099476172347,0.08281507677556059,-0.2765175447448494,-0.6089519192419554,-0.05764158476496997,-0.6665056266843074,-2.594642219811155,-0.05574140186931588,2.507993597084286,0.8763305834068192,-0.6090851748156966,-0.05753196718556838,-0.666603097082616,-2.5945565370258534,-0.05562143941554,2.507976027223799,0.8763108487046415,0.0006544225745739985,0.0009537147675223169,-0.0002016012003879501,-0.0005312398851579257,-0.0002159059459911333,-0.00035204699429033465,0.0010341186631998797,0.0,0.0,0.0,0.0,0.0,0.0,0.0,-0.00013325557374122,0.00010961757940158856,-9.747039830865223e-05,8.568278530152185e-05,0.00011996245377587922,-1.7569860486954525e-05,-1.973470217775386e-05,-0.0006544225745739985,-0.0009537147675223169,0.0002016012003879501,0.0005312398851579257,0.0002159059459911333,0.00035204699429033465,-0.0010341186631998797,0.09352988004684448,18.229516983032227,-0.9180634021759033,-18.122896194458008,-0.4333396553993225,-2.2689852714538574,0.30978721380233765,0
57,0.2800023555755615,-0.09352988004684448,-18.229516983032227,0.9180634021759033,18.122896194458008,0.4333396553993225,2.2689852714538574,-0.30978721380233765,0.0,0.0,0.0,0.0,0.0,0.0,0.0,-0.053941864269694474,0.4672152147322754,0.11235434952530358,0.4709585130538484,0.00448099476172347,0.08281507677556059,-0.2765175447448494,-0.6089519192419554,-0.05764158476496997,-0.6665056266843074,-2.594642219811155,-0.05574140186931588,2.507993597084286,0.8763305834068192,-0.6090851748156966,-0.05753196718556838,-0.666603097082616,-2.5945565370258534,-0.05562143941554,2.507976027223799,0.8763108487046415,0.0006544225745739985,0.0009537147675223169,-0.0002016012003879501,-0.0005312398851579257,-0.0002159059459911333,-0.00035204699429033465,0.0010341186631998797,0.0,0.0,0.0,0.0,0.0,0.0,0.0,-0.00013325557374122,0.00010961757940158856,-9.747039830865223e-05,8.568278530152185e-05,0.00011996245377587922,-1.7569860486954525e-05,-1.973470217775386e-05,-0.0006544225745739985,-0.0009537147675223169,0.0002016012003879501,0.0005312398851579257,0.0002159059459911333,0.00035204699429033465,-0.0010341186631998797,0.09352988004684448,18.229516983032227,-0.9180634021759033,-18.122896194458008,-0.4333396553993225,-2.2689852714538574,0.30978721380233765,0
58,0.28500843048095703,-0.06972616910934448,-18.205713272094727,0.9180634021759033,18.071321487426758,0.4388328194618225,2.2625765800476074,-0.25485557317733765,0.0,0.0,0.0,0.0,0.0,0.0,0.0,-0.054787152074261714,0.4624159595093084,0.11113695438603259,0.47238945508970137,0.0037725144352323214,0.08297622317269411,-0.27693200075682584,-0.6089535896778107,-0.05764325422535675,-0.6665056187868321,-2.5946386005334685,-0.055742206589115655,2.5079958412024035,0.8763244798911942,-0.6090851748156966,-0.05753196718556838,-0.666603097082616,-2.5945565370258534,-0.05562143941554,2.507976027223799,0.8763108487046415,0.00021921342676895625,-0.0005829471093547569,0.00010818856455160375,0.0007096160312281874,-0.0004997365604120027,0.0003160346444186877,-0.001339790458871726,0.0,0.0,0.0,0.0,0.0,0.0,0.0,-0.00013158513788591453,0.00011128703978836862,-9.747829578388156e-05,8.206350761508219e-05,0.00012076717357565464,-1.9813978604510396e-05,-1.3631186552731656e-05,-0.00021921342676895625,0.0005829471093547569,-0.00010818856455160375,-0.0007096160312281874,0.0004997365604120027,-0.0003160346444186877,0.001339790458871726,0.06972616910934448,18.205713272094727,-0.9180634021759033,-18.071321487426758,-0.4388328194618225,-2.2625765800476074,0.25485557317733765,0
59,0.29001808166503906,-0.06972616910934448,-18.205713272094727,0.9180634021759033,18.071321487426758,0.4388328194618225,2.2625765800476074,-0.25485557317733765,0.0,0.0,0.0,0.0,0.0,0.0,0.0,-0.054787152074261714,0.4624159595093084,0.11113695438603259,0.47238945508970137,0.0037725144352323214,0.08297622317269411,-0.27693200075682584,-0.6089535896778107,-0.05764325422535675,-0.6665056187868321,-2.5946386005334685,-0.055742206589115655,2.5079958412024035,0.8763244798911942,-0.6090851748156966,-0.05753196718556838,-0.666603097082616,-2.5945565370258534,-0.05562143941554,2.507976027223799,0.8763108487046415,0.00021921342676895625,-0.0005829471093547569,0.00010818856455160375,0.0007096160312281874,-0.0004997365604120027,0.0003160346444186877,-0.001339790458871726,0.0,0.0,0.0,0.0,0.0,0.0,0.0,-0.00013158513788591453,0.00011128703978836862,-9.747829578388156e-05,8.206350761508219e-05,0.00012076717357565464,-1.9813978604510396e-05,-1.3631186552731656e-05,-0.00021921342676895625,0.0005829471093547569,-0.00010818856455160375,-0.0007096160312281874,0.0004997365604120027,-0.0003160346444186877,0.001339790458871726,0.06972616910934448,18.205713272094727,-0.9180634021759033,-18.071321487426758,-0.4388328194618225,-2.2625765800476074,0.25485557317733765,0
60,0.295001745223999,-0.04592245817184448,-18.253320693969727,0.9418671131134033,18.099092483520508,0.4333396553993225,2.2625765800476074,-0.28964561223983765,0.0,0.0,0.0,0.0,0.0,0.0,0.0,-0.052514515927525374,0.4626309741965501,0.11399071985129554,0.4679104452909467,0.003918354780112136,0.08286835372524844,-0.27716123470740606,-0.608955260113666,-0.057639914329109206,-0.666504410587506,-2.5946405493753,-0.055741358750687885,2.5079943091690926,0.8763283454510901,-0.6090851748156966,-0.05753196718556838,-0.666603097082616,-2.5945565370258534,-0.05562143941554,2.507976027223799,0.8763108487046415,8.048460936711167e-05,0.0009292249443898251,0.00019606281637290444,7.616658285372412e-05,-0.00023009192239498857,0.00044671245083061133,0.0006482679340188741,0.0,0.0,0.0,0.0,0.0,0.0,0.0,-0.00012991470203060906,0.00010794714354082219,-9.868649511002303e-05,8.401234944654945e-05,0.00011991933514788472,-1.828194529363003e-05,-1.749674644857535e-05,-8.048460936711167e-05,-0.0009292249443898251,-0.00019606281637290444,-7.616658285372412e-05,0.00023009192239498857,-0.00044671245083061133,-0.0006482679340188741,0.04592245817184448,18.253320693969727,-0.9418671131134033,-18.099092483520508,-0.4333396553993225,-2.2625765800476074,0.28964561223983765,0
61,0.29999732971191406,-0.04592245817184448,-18.253320693969727,0.9418671131134033,18.099092483520508,0.4333396553993225,2.2625765800476074,-0.28964561223983765,0.0,0.0,0.0,0.0,0.0,0.0,0.0,-0.052514515927525374,0.4626309741965501,0.11399071985129554,0.4679104452909467,0.003918354780112136,0.08286835372524844,-0.27716123470740606,-0.608955260113666,-0.057639914329109206,-0.666504410587506,-2.5946405493753,-0.055741358750687885,2.5079943091690926,0.8763283454510901,-0.6090851748156966,-0.05753196718556838,-0.666603097082616,-2.5945565370258534,-0.05562143941554,2.507976027223799,0.8763108487046415,8.048460936711167e-05,0.0009292249443898251,0.00019606281637290444,7.616658285372412e-05,-0.00023009192239498857,0.00044671245083061133,0.0006482679340188741,0.0,0.0,0.0,0.0,0.0,0.0,0.0,-0.00012991470203060906,0.00010794714354082219,-9.868649511002303e-05,8.401234944654945e-05,0.00011991933514788472,-1.828194529363003e-05,-1.749674644857535e-05,-8.048460936711167e-05,-0.0009292249443898251,-0.00019606281637290444,-7.616658285372412e-05,0.00023009192239498857,-0.00044671245083061133,-0.0006482679340188741,0.04592245817184448,18.253320693969727,-0.9418671131134033,-18.099092483520508,-0.4333396553993225,-2.2625765800476074,0.28964561223983765,0
62,0.3050074577331543,-0.018151462078094482,-18.177942276000977,0.9418671131134033,18.071321487426758,0.4269309639930725,2.2689852714538574,-0.25485557317733765,0.0,0.0,0.0,0.0,0.0,0.0,0.0,-0.05638512766831046,0.46025225596868885,0.11123116234026495,0.46386753400533753,0.004016168478766739,0.0831451562417988,-0.27699749360717746,-0.6089572089554971,-0.05764446658848141,-0.6665072980525583,-2.5946386005334685,-0.05574424036791386,2.5079935970836216,0.8763244798911942,-0.6090851748156966,-0.05753196718556838,-0.666603097082616,-2.5945565370258534,-0.05562143941554,2.507976027223799,0.8763108487046415,-0.0004406714163530215,-0.0008380290716664628,-0.00022423666103339423,0.0004297432706883284,-0.0001467042312650505,1.993841077104263e-05,-0.0004837987413959775,0.0,0.0,0.0,0.0,0.0,0.0,0.0,-0.00012796586019947487,0.0001124994029130244,-9.57990300577416e-05,8.206350761508219e-05,0.00012280095237385963,-1.7569859822597067e-05,-1.3631186552731656e-05,0.0004406714163530215,0.0008380290716664628,0.00022423666103339423,-0.0004297432706883284,0.0001467042312650505,-1.993841077104263e-05,0.0004837987413959775,0.018151462078094482,18.177942276000977,-0.9418671131134033,-18.071321487426758,-0.4269309639930725,-2.2689852714538574,0.25485557317733765,0
63,0.3100137710571289,-0.018151462078094482,-18.177942276000977,0.9418671131134033,18.071321487426758,0.4269309639930725,2.2689852714538574,-0.25485557317733765,0.0,0.0,0.0,0.0,0.0,0.0,0.0,-0.05638512766831046,0.46025225596868885,0.11123116234026495,0.46386753400533753,0.004016168478766739,0.0831451562417988,-0.27699749360717746,-0.6089572089554971,-0.05764446658848141,-0.6665072980525583,-2.5946386005334685,-0.05574424036791386,2.5079935970836216,0.8763244798911942,-0.6090851748156966,-0.05753196718556838,-0.666603097082616,-2.5945565370258534,-0.05562143941554,2.507976027223799,0.8763108487046415,-0.0004406714163530215,-0.0008380290716664628,-0.00022423666103339423,0.0004297432706883284,-0.0001467042312650505,1.993841077104263e-05,-0.0004837987413959775,0.0,0.0,0.0,0.0,0.0,0.0,0.0,-0.00012796586019947487,0.0001124994029130244,-9.57990300577416e-05,8.206350761508219e-05,0.00012280095237385963,-1.7569859822597067e-05,-1.3631186552731656e-05,0.0004406714163530215,0.0008380290716664628,0.00022423666103339423,-0.0004297432706883284,0.0001467042312650505,-1.993841077104263e-05,0.0004837987413959775,0.018151462078094482,18.177942276000977,-0.9418671131134033,-18.071321487426758,-0.4269309639930725,-2.2689852714538574,0.25485557317733765,0
64,0.31500864028930664,-0.04592245817184448,-18.205713272094727,0.9180634021759033,18.099092483520508,0.4269309639930725,2.2689852714538574,-0.24112264811992645,0.0,0.0,0.0,0.0,0.0,0.0,0.0,-0.05330510284614616,0.45811941176567916,0.11137181087588056,0.46454400952824837,0.003026845682180769,0.08291993190627249,-0.2759108769289238,-0.608955260113666,-0.05764325519666229,-0.6665056276656031,-2.5946405493753,-0.055745307297773876,2.507993654310433,0.8763229540106323,-0.6090851748156966,-0.05753196718556838,-0.666603097082616,-2.5945565370258534,-0.05562143941554,2.507976027223799,0.8763108487046415,-0.00039049735932927614,0.00028162828025185484,0.0005954790214925557,-0.00033753738602671564,-0.0001319238162285747,-0.000317806572583147,-0.0015851286886349363,0.0,0.0,0.0,0.0,0.0,0.0,0.0,-0.00012991470203060906,0.00011128801109390463,-9.746941701294087e-05,8.401234944654945e-05,0.00012386788223387596,-1.762708663388679e-05,-1.2105305990828263e-05,0.00039049735932927614,-0.00028162828025185484,-0.0005954790214925557,0.00033753738602671564,0.0001319238162285747,0.000317806572583147,0.0015851286886349363,0.04592245817184448,18.205713272094727,-0.9180634021759033,-18.099092483520508,-0.4269309639930725,-2.2689852714538574,0.24112264811992645,0
65,0.32001399993896484,-0.04592245817184448,-18.205713272094727,0.9180634021759033,18.099092483520508,0.4269309639930725,2.2689852714538574,-0.24112264811992645,0.0,0.0,0.0,0.0,0.0,0.0,0.0,-0.05330510284614616,0.45811941176567916,0.11137181087588056,0.46454400952824837,0.003026845682180769,0.08291993190627249,-0.2759108769289238,-0.608955260113666,-0.05764325519666229,-0.6665056276656031,-2.5946405493753,-0.055745307297773876,2.507993654310433,0.8763229540106323,-0.6090851748156966,-0.05753196718556838,-0.666603097082616,-2.5945565370258534,-0.05562143941554,2.507976027223799,0.8763108487046415,-0.00039049735932927614,0.00028162828025185484,0.0005954790214925557,-0.00033753738602671564,-0.0001319238162285747,-0.000317806572583147,-0.0015851286886349363,0.0,0.0,0.0,0.0,0.0,0.0,0.0,-0.00012991470203060906,0.00011128801109390463,-9.746941701294087e-05,8.401234944654945e-05,0.00012386788223387596,-1.762708663388679e-05,-1.2105305990828263e-05,0.00039049735932927614,-0.00028162828025185484,-0.0005954790214925557,0.00033753738602671564,0.0001319238162285747,0.000317806572583147,0.0015851286886349363,0.04592245817184448,18.205713272094727,-0.9180634021759033,-18.099092483520508,-0.4269309639930725,-2.2689852714538574,0.24112264811992645,0
66,0.3249998092651367,-0.04592245817184448,-18.205713272094727,0.9180634021759033,18.099092483520508,0.4269309639930725,2.2689852714538574,-0.24112264811992645,0.0,0.0,0.0,0.0,0.0,0.0,0.0,-0.05330510284614616,0.45811941176567916,0.11137181087588056,0.46454400952824837,0.003026845682180769,0.08291993190627249,-0.2759108769289238,-0.608955260113666,-0.05764325519666229,-0.6665056276656031,-2.5946405493753,-0.055745307297773876,2.507993654310433,0.8763229540106323,-0.6090851748156966,-0.05753196718556838,-0.666603097082616,-2.5945565370258534,-0.05562143941554,2.507976027223799,0.8763108487046415,-0.00039049735932927614,0.00028162828025185484,0.0005954790214925557,-0.00033753738602671564,-0.0001319238162285747,-0.000317806572583147,-0.0015851286886349363,0.0,0.0,0.0,0.0,0.0,0.0,0.0,-0.00012991470203060906,0.00011128801109390463,-9.746941701294087e-05,8.401234944654945e-05,0.00012386788223387596,-1.762708663388679e-05,-1.2105305990828263e-05,0.00039049735932927614,-0.00028162828025185484,-0.0005954790214925557,0.00033753738602671564,0.0001319238162285747,0.000317806572583147,0.0015851286886349363,0.04592245817184448,18.205713272094727,-0.9180634021759033,-18.099092483520508,-0.4269309639930725,-2.2689852714538574,0.24112264811992645,0
67,0.32999753952026367,-0.04592245817184448,-18.205713272094727,0.9180634021759033,18.099092483520508,0.4269309639930725,2.2689852714538574,-0.24112264811992645,0.0,0.0,0.0,0.0,0.0,0.0,0.0,-0.05330510284614616,0.45811941176567916,0.11137181087588056,0.46454400952824837,0.003026845682180769,0.08291993190627249,-0.2759108769289238,-0.608955260113666,-0.05764325519666229,-0.6665056276656031,-2.5946405493753,-0.055745307297773876,2.507993654310433,0.8763229540106323,-0.6090851748156966,-0.05753196718556838,-0.666603097082616,-2.5945565370258534,-0.05562143941554,2.507976027223799,0.8763108487046415,-0.00039049735932927614,0.00028162828025185484,0.0005954790214925557,-0.00033753738602671564,-0.0001319238162285747,-0.000317806572583147,-0.0015851286886349363,0.0,0.0,0.0,0.0,0.0,0.0,0.0,-0.00012991470203060906,0.00011128801109390463,-9.746941701294087e-05,8.401234944654945e-05,0.00012386788223387596,-1.762708663388679e-05,-1.2105305990828263e-05,0.00039049735932927614,-0.00028162828025185484,-0.0005954790214925557,0.00033753738602671564,0.0001319238162285747,0.000317806572583147,0.0015851286886349363,0.04592245817184448,18.205713272094727,-0.9180634021759033,-18.099092483520508,-0.4269309639930725,-2.2689852714538574,0.24112264811992645,0
68,0.3350234031677246,-0.09352988004684448,-18.205713272094727,0.9418671131134033,18.099092483520508,0.4269309639930725,2.2689852714538574,-0.28964561223983765,0.0,0.0,0.0,0.0,0.0,0.0,0.0,-0.05573104999771284,0.45959577942864244,0.11030497768481745,0.46821343449611813,0.0031892746562354746,0.0827969484192866,-0.2760307916348028,-0.6089519192419554,-0.05764325520082523,-0.6665072948309705,-2.5946405493753,-0.055741752432853654,2.5079937540671557,0.8763283454510901,-0.6090851748156966,-0.05753196718556838,-0.666603097082616,-2.5945565370258534,-0.05562143941554,2.507976027223799,0.8763108487046415,0.0009957064723045183,0.0004915940222438157,-0.0006571975467651997,0.0001981559287719474,5.5018524510048005e-05,4.01914739193992e-05,0.0010568220113468744,0.0,0.0,0.0,0.0,0.0,0.0,0.0,-0.00013325557374122,0.00011128801525684545,-9.580225164551592e-05,8.401234944654945e-05,0.00012031301731365435,-1.7726843356768995e-05,-1.749674644857535e-05,-0.0009957064723045183,-0.0004915940222438157,0.0006571975467651997,-0.0001981559287719474,-5.5018524510048005e-05,-4.01914739193992e-05,-0.0010568220113468744,0.09352988004684448,18.205713272094727,-0.9418671131134033,-18.099092483520508,-0.4269309639930725,-2.2689852714538574,0.28964561223983765,0
69,0.3399956226348877,-0.09352988004684448,-18.205713272094727,0.9418671131134033,18.099092483520508,0.4269309639930725,2.2689852714538574,-0.28964561223983765,0.0,0.0,0.0,0.0,0.0,0.0,0.0,-0.05573104999771284,0.45959577942864244,0.11030497768481745,0.46821343449611813,0.0031892746562354746,0.0827969484192866,-0.2760307916348028,-0.6089519192419554,-0.05764325520082523,-0.6665072948309705,-2.5946405493753,-0.055741752432853654,2.5079937540671557,0.8763283454510901,-0.6090851748156966,-0.05753196718556838,-0.666603097082616,-2.5945565370258534,-0.05562143941554,2.507976027223799,0.8763108487046415,0.0009957064723045183,0.0004915940222438157,-0.0006571975467651997,0.0001981559287719474,5.5018524510048005e-05,4.01914739193992e-05,0.0010568220113468744,0.0,0.0,0.0,0.0,0.0,0.0,0.0,-0.00013325557374122,0.00011128801525684545,-9.580225164551592e-05,8.401234944654945e-05,0.00012031301731365435,-1.7726843356768995e-05,-1.749674644857535e-05,-0.0009957064723045183,-0.0004915940222438157,0.0006571975467651997,-0.0001981559287719474,-5.5018524510048005e-05,-4.01914739193992e-05,-0.0010568220113468744,0.09352988004684448,18.205713272094727,-0.9418671131134033,-18.099092483520508,-0.4269309639930725,-2.2689852714538574,0.28964561223983765,0
70,0.3450498580932617,-0.018151462078094482,-18.205713272094727,0.9696381092071533,18.071321487426758,0.4333396553993225,2.2689852714538574,-0.26858848333358765,0.0,0.0,0.0,0.0,0.0,0.0,0.0,-0.05391371240902926,0.45768032335702424,0.11272095207459122,0.4683630407487319,0.0032927857706226346,0.08342935703180428,-0.275362330464743,-0.6089572089554971,-0.057643255200825236,-0.6665092204159915,-2.5946386005334685,-0.05574445531164906,2.5079936363297732,0.8763260057701004,-0.6090851748156966,-0.05753196718556838,-0.666603097082616,-2.5945565370258534,-0.05562143941554,2.507976027223799,0.8763108487046415,-0.0010190663394446218,-0.000539423402039775,-0.001203922271569937,0.00036750019174692486,-0.00023736366154692419,-2.860121317493204e-05,-0.00019202189174289853,0.0,0.0,0.0,0.0,0.0,0.0,0.0,-0.00012796586019947487,0.00011128801525685239,-9.38766666245261e-05,8.206350761508219e-05,0.0001230158961090591,-1.760910597425891e-05,-1.5157065458959451e-05,0.0010190663394446218,0.000539423402039775,0.001203922271569937,-0.00036750019174692486,0.00023736366154692419,2.860121317493204e-05,0.00019202189174289853,0.018151462078094482,18.205713272094727,-0.9696381092071533,-18.071321487426758,-0.4333396553993225,-2.2689852714538574,0.26858848333358765,0
71,0.35004615783691406,-0.018151462078094482,-18.205713272094727,0.9696381092071533,18.071321487426758,0.4333396553993225,2.2689852714538574,-0.26858848333358765,0.0,0.0,0.0,0.0,0.0,0.0,0.0,-0.05391371240902926,0.45768032335702424,0.11272095207459122,0.4683630407487319,0.0032927857706226346,0.08342935703180428,-0.275362330464743,-0.6089572089554971,-0.057643255200825236,-0.6665092204159915,-2.5946386005334685,-0.05574445531164906,2.5079936363297732,0.8763260057701004,-0.6090851748156966,-0.05753196718556838,-0.666603097082616,-2.5945565370258534,-0.05562143941554,2.507976027223799,0.8763108487046415,-0.0010190663394446218,-0.000539423402039775,-0.001203922271569937,0.00036750019174692486,-0.00023736366154692419,-2.860121317493204e-05,-0.00019202189174289853,0.0,0.0,0.0,0.0,0.0,0.0,0.0,-0.00012796586019947487,0.00011128801525685239,-9.38766666245261e-05,8.206350761508219e-05,0.0001230158961090591,-1.760910597425891e-05,-1.5157065458959451e-05,0.0010190663394446218,0.000539423402039775,0.001203922271569937,-0.00036750019174692486,0.00023736366154692419,2.860121317493204e-05,0.00019202189174289853,0.018151462078094482,18.205713272094727,-0.9696381092071533,-18.071321487426758,-0.4333396553993225,-2.2689852714538574,0.26858848333358765,0
72,0.3550279140472412,-0.018151462078094482,-18.229516983032227,0.9180634021759033,18.099092483520508,0.4269309639930725,2.2689852714538574,-0.28964561223983765,0.0,0.0,0.0,0.0,0.0,0.0,0.0,-0.055835152430206966,0.4602431456715761,0.11028725798730116,0.465901586474618,0.0032351614873668256,0.0835143114972467,-0.27518478198676266,-0.6089572089554971,-0.05764158476496997,-0.6665056011745003,-2.5946405493753,-0.055741716580373676,2.5079935970838427,0.8763283454510901,-0.6090851748156966,-0.05753196718556838,-0.666603097082616,-2.5945565370258534,-0.05562143941554,2.507976027223799,0.8763108487046415,-0.0008756686813848704,0.00032567829284171017,-1.4355476939881044e-05,-0.0002206361242782637,6.16157369762461e-05,-6.956185769827324e-05,0.00044943016215870797,0.0,0.0,0.0,0.0,0.0,0.0,0.0,-0.00012796586019947487,0.00010961757940158856,-9.749590811569675e-05,8.401234944654945e-05,0.00012027716483367645,-1.7569860043753494e-05,-1.749674644857535e-05,0.0008756686813848704,-0.00032567829284171017,1.4355476939881044e-05,0.0002206361242782637,-6.16157369762461e-05,6.956185769827324e-05,-0.00044943016215870797,0.018151462078094482,18.229516983032227,-0.9180634021759033,-18.099092483520508,-0.4269309639930725,-2.2689852714538574,0.28964561223983765,0
73,0.36003899574279785,-0.018151462078094482,-18.229516983032227,0.9180634021759033,18.099092483520508,0.4269309639930725,2.2689852714538574,-0.28964561223983765,0.0,0.0,0.0,0.0,0.0,0.0,0.0,-0.055835152430206966,0.4602431456715761,0.11028725798730116,0.465901586474618,0.0032351614873668256,0.0835143114972467,-0.27518478198676266,-0.6089572089554971,-0.05764158476496997,-0.6665056011745003,-2.5946405493753,-0.055741716580373676,2.5079935970838427,0.8763283454510901,-0.6090851748156966,-0.05753196718556838,-0.666603097082616,-2.5945565370258534,-0.05562143941554,2.507976027223799,0.8763108487046415,-0.0008756686813848704,0.00032567829284171017,-1.4355476939881044e-05,-0.0002206361242782637,6.16157369762461e-05,-6.956185769827324e-05,0.00044943016215870797,0.0,0.0,0.0,0.0,0.0,0.0,0.0,-0.00012796586019947487,0.00010961757940158856,-9.749590811569675e-05,8.401234944654945e-05,0.00012027716483367645,-1.7569860043753494e-05,-1.749674644857535e-05,0.0008756686813848704,-0.00032567829284171017,1.4355476939881044e-05,0.0002206361242782637,-6.16157369762461e-05,6.956185769827324e-05,-0.00044943016215870797,0.018151462078094482,18.229516983032227,-0.9180634021759033,-18.099092483520508,-0.4269309639930725,-2.2689852714538574,0.28964561223983765,0
74,0.36504650115966797,-0.018151462078094482,-18.205713272094727,0.9180634021759033,18.071321487426758,0.4333396553993225,2.2753939628601074,-0.27591270208358765,0.0,0.0,0.0,0.0,0.0,0.0,0.0,-0.053147823226107976,0.46011584974037684,0.11114947174551718,0.46343694780254985,0.0033556733647628133,0.08300897432505021,-0.2753692417909556,-0.6089572089554971,-0.057643255200825236,-0.6665056276654538,-2.5946386005334685,-0.0557444777431284,2.507992885060634,0.8763268195721838,-0.6090851748156966,-0.05753196718556838,-0.666603097082616,-2.5945565370258534,-0.05562143941554,2.507976027223799,0.8763108487046415,-0.000647708464761575,6.616122879877248e-05,0.00021098296699509288,0.0002496124554240143,-3.0378273525105194e-05,-0.0002606734362382973,-0.0004230066593419407,0.0,0.0,0.0,0.0,0.0,0.0,0.0,-0.00012796586019947487,0.00011128801525685239,-9.746941716215485e-05,8.206350761508219e-05,0.00012303832758839978,-1.685783683491593e-05,-1.5970867542347555e-05,0.000647708464761575,-6.616122879877248e-05,-0.00021098296699509288,-0.0002496124554240143,3.0378273525105194e-05,0.0002606734362382973,0.0004230066593419407,0.018151462078094482,18.205713272094727,-0.9180634021759033,-18.071321487426758,-0.4333396553993225,-2.2753939628601074,0.27591270208358765,0
75,0.3699989318847656,-0.018151462078094482,-18.205713272094727,0.9180634021759033,18.071321487426758,0.4333396553993225,2.2753939628601074,-0.27591270208358765,0.0,0.0,0.0,0.0,0.0,0.0,0.0,-0.053147823226107976,0.46011584974037684,0.11114947174551718,0.46343694780254985,0.0033556733647628133,0.08300897432505021,-0.2753692417909556,-0.6089572089554971,-0.057643255200825236,-0.6665056276654538,-2.5946386005334685,-0.0557444777431284,2.507992885060634,0.8763268195721838,-0.6090851748156966,-0.05753196718556838,-0.666603097082616,-2.5945565370258534,-0.05562143941554,2.507976027223799,0.8763108487046415,-0.000647708464761575,6.616122879877248e-05,0.00021098296699509288,0.0002496124554240143,-3.0378273525105194e-05,-0.0002606734362382973,-0.0004230066593419407,0.0,0.0,0.0,0.0,0.0,0.0,0.0,-0.00012796586019947487,0.00011128801525685239,-9.746941716215485e-05,8.206350761508219e-05,0.00012303832758839978,-1.685783683491593e-05,-1.5970867542347555e-05,0.000647708464761575,-6.616122879877248e-05,-0.00021098296699509288,-0.0002496124554240143,3.0378273525105194e-05,0.0002606734362382973,0.0004230066593419407,0.018151462078094482,18.205713272094727,-0.9180634021759033,-18.071321487426758,-0.4333396553993225,-2.2753939628601074,0.27591270208358765,0
76,0.3750331401824951,-0.04592245817184448,-18.205713272094727,0.9180634021759033,18.122896194458008,0.4150291085243225,2.2488436698913574,-0.30337852239608765,0.0,0.0,0.0,0.0,0.0,0.0,0.0,-0.057609119248415934,0.45571766293396276,0.1042457565252316,0.4683285685615027,0.004670238467332644,0.08337023628332965,-0.2752560782572845,-0.608955260113666,-0.057643255200825236,-0.666505627556587,-2.594642219811155,-0.055742534916419124,2.5079958394000013,0.8763298713299963,-0.6090851748156966,-0.05753196718556838,-0.666603097082616,-2.5945565370258534,-0.05562143941554,2.507976027223799,0.8763108487046415,-0.00021876024909093942,-3.180778082138324e-05,-0.00014173405387636433,-0.0005946762526595422,0.0005056386319528122,0.0005343539123654146,0.0012569004234775803,0.0,0.0,0.0,0.0,0.0,0.0,0.0,-0.00012991470203060906,0.00011128801525685239,-9.746952602895931e-05,8.568278530152185e-05,0.00012109550087912452,-1.9812176202282927e-05,-1.9022625354803147e-05,0.00021876024909093942,3.180778082138324e-05,0.00014173405387636433,0.0005946762526595422,-0.0005056386319528122,-0.0005343539123654146,-0.0012569004234775803,0.04592245817184448,18.205713272094727,-0.9180634021759033,-18.122896194458008,-0.4150291085243225,-2.2488436698913574,0.30337852239608765,0
77,0.37999844551086426,-0.04592245817184448,-18.205713272094727,0.9180634021759033,18.122896194458008,0.4150291085243225,2.2488436698913574,-0.30337852239608765,0.0,0.0,0.0,0.0,0.0,0.0,0.0,-0.057609119248415934,0.45571766293396276,0.1042457565252316,0.4683285685615027,0.004670238467332644,0.08337023628332965,-0.2752560782572845,-0.608955260113666,-0.057643255200825236,-0.666505627556587,-2.594642219811155,-0.055742534916419124,2.5079958394000013,0.8763298713299963,-0.6090851748156966,-0.05753196718556838,-0.666603097082616,-2.5945565370258534,-0.05562143941554,2.507976027223799,0.8763108487046415,-0.00021876024909093942,-3.180778082138324e-05,-0.00014173405387636433,-0.0005946762526595422,0.0005056386319528122,0.0005343539123654146,0.0012569004234775803,0.0,0.0,0.0,0.0,0.0,0.0,0.0,-0.00012991470203060906,0.00011128801525685239,-9.746952602895931e-05,8.568278530152185e-05,0.00012109550087912452,-1.9812176202282927e-05,-1.9022625354803147e-05,0.00021876024909093942,3.180778082138324e-05,0.00014173405387636433,0.0005946762526595422,-0.0005056386319528122,-0.0005343539123654146,-0.0012569004234775803,0.04592245817184448,18.205713272094727,-0.9180634021759033,-18.122896194458008,-0.4150291085243225,-2.2488436698913574,0.30337852239608765,0
78,0.385012149810791,-0.04592245817184448,-18.205713272094727,0.9418671131134033,18.099092483520508,0.4214377999305725,2.2689852714538574,-0.26217979192733765,0.0,0.0,0.0,0.0,0.0,0.0,0.0,-0.04915629909319514,0.46007771737765873,0.10837316202659975,0.4641859821161888,0.0038881937117130655,0.08191604436017623,-0.2767063783426329,-0.608955260113666,-0.057643255200825236,-0.6665072186285982,-2.5946405493753,-0.055740982718060814,2.5079939507808726,0.8763252936932776,-0.6090851748156966,-0.05753196718556838,-0.666603097082616,-2.5945565370258534,-0.05562143941554,2.507976027223799,0.8763108487046415,-3.9527931459404504e-05,4.512094605422203e-05,-0.00047759121351697415,-0.00037105164923855133,0.00032862888998531697,-0.00022385508437335123,-0.00033184009846061956,0.0,0.0,0.0,0.0,0.0,0.0,0.0,-0.00012991470203060906,0.00011128801525685239,-9.587845401781703e-05,8.401234944654945e-05,0.00011954330252081369,-1.792355707364024e-05,-1.444498863611976e-05,3.9527931459404504e-05,-4.512094605422203e-05,0.00047759121351697415,0.00037105164923855133,-0.00032862888998531697,0.00022385508437335123,0.00033184009846061956,0.04592245817184448,18.205713272094727,-0.9418671131134033,-18.099092483520508,-0.4214377999305725,-2.2689852714538574,0.26217979192733765,0
79,0.39000630378723145,-0.04592245817184448,-18.205713272094727,0.9418671131134033,18.099092483520508,0.4214377999305725,2.2689852714538574,-0.26217979192733765,0.0,0.0,0.0,0.0,0.0,0.0,0.0,-0.04915629909319514,0.46007771737765873,0.10837316202659975,0.4641859821161888,0.0038881937117130655,0.08191604436017623,-0.2767063783426329,-0.608955260113666,-0.057643255200825236,-0.6665072186285982,-2.5946405493753,-0.055740982718060814,2.5079939507808726,0.8763252936932776,-0.6090851748156966,-0.05753196718556838,-0.666603097082616,-2.5945565370258534,-0.05562143941554,2.507976027223799,0.8763108487046415,-3.9527931459404504e-05,4.512094605422203e-05,-0.00047759121351697415,-0.00037105164923855133,0.00032862888998531697,-0.00022385508437335123,-0.00033184009846061956,0.0,0.0,0.0,0.0,0.0,0.0,0.0,-0.00012991470203060906,0.00011128801525685239,-9.587845401781703e-05,8.401234944654945e-05,0.00011954330252081369,-1.792355707364024e-05,-1.444498863611976e-05,3.9527931459404504e-05,-4.512094605422203e-05,0.00047759121351697415,0.00037105164923855133,-0.00032862888998531697,0.00022385508437335123,0.00033184009846061956,0.04592245817184448,18.205713272094727,-0.9418671131134033,-18.099092483520508,-0.4214377999305725,-2.2689852714538574,0.26217979192733765,0
