rezayati/contactInterpretation/dataset/franka_main/labeled_data/link7/a7_7.csv
index,time,tau_J0,tau_J1,tau_J2,tau_J3,tau_J4,tau_J5,tau_J6,tau_J_d0,tau_J_d1,tau_J_d2,tau_J_d3,tau_J_d4,tau_J_d5,tau_J_d6,tau_ext0,tau_ext1,tau_ext2,tau_ext3,tau_ext4,tau_ext5,tau_ext6,q0,q1,q2,q3,q4,q5,q6,q_d0,q_d1,q_d2,q_d3,q_d4,q_d5,q_d6,dq0,dq1,dq2,dq3,dq4,dq5,dq6,dq_d0,dq_d1,dq_d2,dq_d3,dq_d4,dq_d5,dq_d6,e0,e1,e2,e3,e4,e5,e6,de0,de1,de2,de3,de4,de5,de6,etau_J0,etau_J1,etau_J2,etau_J3,etau_J4,etau_J5,etau_J6,label
1,0.0,-0.3514034152030945,-11.699365615844727,0.9696381092071533,21.618074417114258,0.3619285225868225,2.4823031425476074,-0.37845176458358765,0.0,0.0,0.0,0.0,0.0,0.0,0.0,-0.2822131446813473,0.641580259201069,-0.20552134754870507,0.33344041111681905,-0.17881734790854065,0.0905872815783633,-0.357610606240555,0.17283814400786005,-0.48759211813673825,-0.11150181447977772,-1.94624376340498,0.13346565661827722,2.5955746562216016,0.9452715209258926,0.1728802376190821,-0.48752024683155326,-0.11147110072896137,-1.9463801863486305,0.1336059019074957,2.595550359778934,0.9452445589611904,0.00038454304121266034,-3.8065194359011153e-05,-0.00024205874557237336,0.00041770767240550185,-0.00029935255383895713,0.00022779163929280847,0.001086244607441163,0.0,0.0,0.0,0.0,0.0,0.0,0.0,4.209361122206601e-05,7.187130518498952e-05,3.071375081635519e-05,-0.00013642294365046048,0.0001402452892184658,-2.429644266754849e-05,-2.6961964702199026e-05,-0.00038454304121266034,3.8065194359011153e-05,0.00024205874557237336,-0.00041770767240550185,0.00029935255383895713,-0.00022779163929280847,-0.001086244607441163,0.3514034152030945,11.699365615844727,-0.9696381092071533,-21.618074417114258,-0.3619285225868225,-2.4823031425476074,0.37845176458358765,0
2,0.0038101673126220703,-0.3514034152030945,-11.699365615844727,0.9696381092071533,21.618074417114258,0.3619285225868225,2.4823031425476074,-0.37845176458358765,0.0,0.0,0.0,0.0,0.0,0.0,0.0,-0.2822131446813473,0.641580259201069,-0.20552134754870507,0.33344041111681905,-0.17881734790854065,0.0905872815783633,-0.357610606240555,0.17283814400786005,-0.48759211813673825,-0.11150181447977772,-1.94624376340498,0.13346565661827722,2.5955746562216016,0.9452715209258926,0.1728802376190821,-0.48752024683155326,-0.11147110072896137,-1.9463801863486305,0.1336059019074957,2.595550359778934,0.9452445589611904,0.00038454304121266034,-3.8065194359011153e-05,-0.00024205874557237336,0.00041770767240550185,-0.00029935255383895713,0.00022779163929280847,0.001086244607441163,0.0,0.0,0.0,0.0,0.0,0.0,0.0,4.209361122206601e-05,7.187130518498952e-05,3.071375081635519e-05,-0.00013642294365046048,0.0001402452892184658,-2.429644266754849e-05,-2.6961964702199026e-05,-0.00038454304121266034,3.8065194359011153e-05,0.00024205874557237336,-0.00041770767240550185,0.00029935255383895713,-0.00022779163929280847,-0.001086244607441163,0.3514034152030945,11.699365615844727,-0.9696381092071533,-21.618074417114258,-0.3619285225868225,-2.4823031425476074,0.37845176458358765,0
3,0.008807182312011719,-0.22445029020309448,-11.750940322875977,0.9934418201446533,21.669649124145508,0.3619285225868225,2.4823031425476074,-0.33084434270858765,0.0,0.0,0.0,0.0,0.0,0.0,0.0,-0.272643571457774,0.6394554626529135,-0.18081435009712218,0.3352663392982761,-0.17995544218328177,0.08951067750664436,-0.3572279015644559,0.1728311219017444,-0.4875885242391655,-0.11150064334256596,-1.9462473826826665,0.13346885538282297,2.5955746562216016,0.945266231212351,0.1728802376190821,-0.48752024683155326,-0.11147110072896137,-1.9463801863486305,0.1336059019074957,2.595550359778934,0.9452445589611904,-0.0012212795550577157,0.0011764945635492443,0.0003004688266252671,-0.0009015167209679803,-0.00020019213518822937,0.00010121249178636953,-0.0007775530568198194,0.0,0.0,0.0,0.0,0.0,0.0,0.0,4.911571733770548e-05,6.827740761222723e-05,2.9542613604591206e-05,-0.00013280366596402082,0.0001370465246727237,-2.429644266754849e-05,-2.1672251160564926e-05,0.0012212795550577157,-0.0011764945635492443,-0.0003004688266252671,0.0009015167209679803,0.00020019213518822937,-0.00010121249178636953,0.0007775530568198194,0.22445029020309448,11.750940322875977,-0.9934418201446533,-21.669649124145508,-0.3619285225868225,-2.4823031425476074,0.33084434270858765,0
4,0.013814210891723633,-0.22445029020309448,-11.750940322875977,0.9934418201446533,21.669649124145508,0.3619285225868225,2.4823031425476074,-0.33084434270858765,0.0,0.0,0.0,0.0,0.0,0.0,0.0,-0.272643571457774,0.6394554626529135,-0.18081435009712218,0.3352663392982761,-0.17995544218328177,0.08951067750664436,-0.3572279015644559,0.1728311219017444,-0.4875885242391655,-0.11150064334256596,-1.9462473826826665,0.13346885538282297,2.5955746562216016,0.945266231212351,0.1728802376190821,-0.48752024683155326,-0.11147110072896137,-1.9463801863486305,0.1336059019074957,2.595550359778934,0.9452445589611904,-0.0012212795550577157,0.0011764945635492443,0.0003004688266252671,-0.0009015167209679803,-0.00020019213518822937,0.00010121249178636953,-0.0007775530568198194,0.0,0.0,0.0,0.0,0.0,0.0,0.0,4.911571733770548e-05,6.827740761222723e-05,2.9542613604591206e-05,-0.00013280366596402082,0.0001370465246727237,-2.429644266754849e-05,-2.1672251160564926e-05,0.0012212795550577157,-0.0011764945635492443,-0.0003004688266252671,0.0009015167209679803,0.00020019213518822937,-0.00010121249178636953,0.0007775530568198194,0.22445029020309448,11.750940322875977,-0.9934418201446533,-21.669649124145508,-0.3619285225868225,-2.4823031425476074,0.33084434270858765,0
5,0.013814210891723633,-0.22445029020309448,-11.750940322875977,0.9934418201446533,21.669649124145508,0.3619285225868225,2.4823031425476074,-0.33084434270858765,0.0,0.0,0.0,0.0,0.0,0.0,0.0,-0.272643571457774,0.6394554626529135,-0.18081435009712218,0.3352663392982761,-0.17995544218328177,0.08951067750664436,-0.3572279015644559,0.1728311219017444,-0.4875885242391655,-0.11150064334256596,-1.9462473826826665,0.13346885538282297,2.5955746562216016,0.945266231212351,0.1728802376190821,-0.48752024683155326,-0.11147110072896137,-1.9463801863486305,0.1336059019074957,2.595550359778934,0.9452445589611904,-0.0012212795550577157,0.0011764945635492443,0.0003004688266252671,-0.0009015167209679803,-0.00020019213518822937,0.00010121249178636953,-0.0007775530568198194,0.0,0.0,0.0,0.0,0.0,0.0,0.0,4.911571733770548e-05,6.827740761222723e-05,2.9542613604591206e-05,-0.00013280366596402082,0.0001370465246727237,-2.429644266754849e-05,-2.1672251160564926e-05,0.0012212795550577157,-0.0011764945635492443,-0.0003004688266252671,0.0009015167209679803,0.00020019213518822937,-0.00010121249178636953,0.0007775530568198194,0.22445029020309448,11.750940322875977,-0.9934418201446533,-21.669649124145508,-0.3619285225868225,-2.4823031425476074,0.33084434270858765,0
6,0.02460789680480957,-0.22445029020309448,-11.750940322875977,0.9934418201446533,21.669649124145508,0.3619285225868225,2.4823031425476074,-0.33084434270858765,0.0,0.0,0.0,0.0,0.0,0.0,0.0,-0.272643571457774,0.6394554626529135,-0.18081435009712218,0.3352663392982761,-0.17995544218328177,0.08951067750664436,-0.3572279015644559,0.1728311219017444,-0.4875885242391655,-0.11150064334256596,-1.9462473826826665,0.13346885538282297,2.5955746562216016,0.945266231212351,0.1728802376190821,-0.48752024683155326,-0.11147110072896137,-1.9463801863486305,0.1336059019074957,2.595550359778934,0.9452445589611904,-0.0012212795550577157,0.0011764945635492443,0.0003004688266252671,-0.0009015167209679803,-0.00020019213518822937,0.00010121249178636953,-0.0007775530568198194,0.0,0.0,0.0,0.0,0.0,0.0,0.0,4.911571733770548e-05,6.827740761222723e-05,2.9542613604591206e-05,-0.00013280366596402082,0.0001370465246727237,-2.429644266754849e-05,-2.1672251160564926e-05,0.0012212795550577157,-0.0011764945635492443,-0.0003004688266252671,0.0009015167209679803,0.00020019213518822937,-0.00010121249178636953,0.0007775530568198194,0.22445029020309448,11.750940322875977,-0.9934418201446533,-21.669649124145508,-0.3619285225868225,-2.4823031425476074,0.33084434270858765,0
7,0.028836965560913086,-0.22445029020309448,-11.750940322875977,0.9934418201446533,21.669649124145508,0.3619285225868225,2.4823031425476074,-0.33084434270858765,0.0,0.0,0.0,0.0,0.0,0.0,0.0,-0.272643571457774,0.6394554626529135,-0.18081435009712218,0.3352663392982761,-0.17995544218328177,0.08951067750664436,-0.3572279015644559,0.1728311219017444,-0.4875885242391655,-0.11150064334256596,-1.9462473826826665,0.13346885538282297,2.5955746562216016,0.945266231212351,0.1728802376190821,-0.48752024683155326,-0.11147110072896137,-1.9463801863486305,0.1336059019074957,2.595550359778934,0.9452445589611904,-0.0012212795550577157,0.0011764945635492443,0.0003004688266252671,-0.0009015167209679803,-0.00020019213518822937,0.00010121249178636953,-0.0007775530568198194,0.0,0.0,0.0,0.0,0.0,0.0,0.0,4.911571733770548e-05,6.827740761222723e-05,2.9542613604591206e-05,-0.00013280366596402082,0.0001370465246727237,-2.429644266754849e-05,-2.1672251160564926e-05,0.0012212795550577157,-0.0011764945635492443,-0.0003004688266252671,0.0009015167209679803,0.00020019213518822937,-0.00010121249178636953,0.0007775530568198194,0.22445029020309448,11.750940322875977,-0.9934418201446533,-21.669649124145508,-0.3619285225868225,-2.4823031425476074,0.33084434270858765,0
8,0.03385758399963379,-0.22445029020309448,-11.675561904907227,1.0410492420196533,21.641878128051758,0.3500266671180725,2.4823031425476074,-0.34457725286483765,0.0,0.0,0.0,0.0,0.0,0.0,0.0,-0.2735192979677144,0.6302055121733414,-0.18710514687346497,0.34175581256800547,-0.17931817863025695,0.09003792879155008,-0.3574574404431533,0.17282860330046124,-0.4875959261709787,-0.1115039841982357,-1.946245433945814,0.13347017782926549,2.5955746562216016,0.9452677570912572,0.1728802376190821,-0.48752024683155326,-0.11147110072896137,-1.9463801863486305,0.1336059019074957,2.595550359778934,0.9452445589611904,-0.0004227535228741505,-0.0007700707895882079,2.8061562710783946e-05,-4.890386004023287e-06,-9.90552644949115e-05,0.00026903452222560545,0.0005976549492826327,0.0,0.0,0.0,0.0,0.0,0.0,0.0,5.163431862087453e-05,7.567933942542737e-05,3.288346927433905e-05,-0.00013475240281657364,0.00013572407823020383,-2.429644266754849e-05,-2.319813006679272e-05,0.0004227535228741505,0.0007700707895882079,-2.8061562710783946e-05,4.890386004023287e-06,9.90552644949115e-05,-0.00026903452222560545,-0.0005976549492826327,0.22445029020309448,11.675561904907227,-1.0410492420196533,-21.641878128051758,-0.3500266671180725,-2.4823031425476074,0.34457725286483765,0
9,0.03960752487182617,-0.24825400114059448,-11.651758193969727,1.0172455310821533,21.618074417114258,0.3500266671180725,2.4887118339538574,-0.33084434270858765,0.0,0.0,0.0,0.0,0.0,0.0,0.0,-0.26962670012742745,0.645653559753305,-0.19295058049752808,0.3345335741844065,-0.1797240841927092,0.08815634940459056,-0.3573767897196621,0.17283098170705674,-0.48759577313896446,-0.11150445469653769,-1.9462437634049807,0.13347017620411566,2.5955739441447787,0.945266231212351,0.1728802376190821,-0.48752024683155326,-0.11147110072896137,-1.9463801863486305,0.1336059019074957,2.595550359778934,0.9452445589611904,0.00016649030935131904,5.890587623905978e-05,0.0005557266379758282,0.000268188980135903,8.238809167158163e-05,-7.271720371206942e-05,-0.0004857522974376177,0.0,0.0,0.0,0.0,0.0,0.0,0.0,4.925591202536994e-05,7.552630741120003e-05,3.335396757632447e-05,-0.00013642294364979435,0.0001357257033800241,-2.35843658447088e-05,-2.1672251160564926e-05,-0.00016649030935131904,-5.890587623905978e-05,-0.0005557266379758282,-0.000268188980135903,-8.238809167158163e-05,7.271720371206942e-05,0.0004857522974376177,0.24825400114059448,11.651758193969727,-1.0172455310821533,-21.618074417114258,-0.3500266671180725,-2.4887118339538574,0.33084434270858765,0
10,0.04381132125854492,-0.24825400114059448,-11.651758193969727,1.0172455310821533,21.618074417114258,0.3500266671180725,2.4887118339538574,-0.33084434270858765,0.0,0.0,0.0,0.0,0.0,0.0,0.0,-0.26962670012742745,0.645653559753305,-0.19295058049752808,0.3345335741844065,-0.1797240841927092,0.08815634940459056,-0.3573767897196621,0.17283098170705674,-0.48759577313896446,-0.11150445469653769,-1.9462437634049807,0.13347017620411566,2.5955739441447787,0.945266231212351,0.1728802376190821,-0.48752024683155326,-0.11147110072896137,-1.9463801863486305,0.1336059019074957,2.595550359778934,0.9452445589611904,0.00016649030935131904,5.890587623905978e-05,0.0005557266379758282,0.000268188980135903,8.238809167158163e-05,-7.271720371206942e-05,-0.0004857522974376177,0.0,0.0,0.0,0.0,0.0,0.0,0.0,4.925591202536994e-05,7.552630741120003e-05,3.335396757632447e-05,-0.00013642294364979435,0.0001357257033800241,-2.35843658447088e-05,-2.1672251160564926e-05,-0.00016649030935131904,-5.890587623905978e-05,-0.0005557266379758282,-0.000268188980135903,-8.238809167158163e-05,7.271720371206942e-05,0.0004857522974376177,0.24825400114059448,11.651758193969727,-1.0172455310821533,-21.618074417114258,-0.3500266671180725,-2.4887118339538574,0.33084434270858765,0
11,0.04881167411804199,-0.24825400114059448,-11.651758193969727,1.0172455310821533,21.618074417114258,0.3500266671180725,2.4887118339538574,-0.33084434270858765,0.0,0.0,0.0,0.0,0.0,0.0,0.0,-0.26962670012742745,0.645653559753305,-0.19295058049752808,0.3345335741844065,-0.1797240841927092,0.08815634940459056,-0.3573767897196621,0.17283098170705674,-0.48759577313896446,-0.11150445469653769,-1.9462437634049807,0.13347017620411566,2.5955739441447787,0.945266231212351,0.1728802376190821,-0.48752024683155326,-0.11147110072896137,-1.9463801863486305,0.1336059019074957,2.595550359778934,0.9452445589611904,0.00016649030935131904,5.890587623905978e-05,0.0005557266379758282,0.000268188980135903,8.238809167158163e-05,-7.271720371206942e-05,-0.0004857522974376177,0.0,0.0,0.0,0.0,0.0,0.0,0.0,4.925591202536994e-05,7.552630741120003e-05,3.335396757632447e-05,-0.00013642294364979435,0.0001357257033800241,-2.35843658447088e-05,-2.1672251160564926e-05,-0.00016649030935131904,-5.890587623905978e-05,-0.0005557266379758282,-0.000268188980135903,-8.238809167158163e-05,7.271720371206942e-05,0.0004857522974376177,0.24825400114059448,11.651758193969727,-1.0172455310821533,-21.618074417114258,-0.3500266671180725,-2.4887118339538574,0.33084434270858765,0
12,0.0538172721862793,-0.2720577120780945,-11.627954483032227,1.0172455310821533,21.594270706176758,0.3555198311805725,2.4887118339538574,-0.37204307317733765,0.0,0.0,0.0,0.0,0.0,0.0,0.0,-0.26543042705457687,0.6490229191192108,-0.18944680071946243,0.33728052611577897,-0.18001194672524976,0.08834992929653257,-0.35677219906743546,0.17283170687088245,-0.4876000517861512,-0.11150547938205574,-1.9462420929691249,0.1334695674776939,2.5955739441447787,0.9452708088490697,0.1728802376190821,-0.48752024683155326,-0.11147110072896137,-1.9463801863486305,0.1336059019074957,2.595550359778934,0.9452445589611904,0.0004515026640300602,0.00010717958409614443,-3.221774714557489e-06,0.0008503931445078614,4.374788082381007e-05,-7.226663674580188e-05,0.0011176453442036242,0.0,0.0,0.0,0.0,0.0,0.0,0.0,4.853074819965997e-05,7.980495459791737e-05,3.4378653094371825e-05,-0.00013809337950565492,0.00013633442980179322,-2.35843658447088e-05,-2.6249887879248313e-05,-0.0004515026640300602,-0.00010717958409614443,3.221774714557489e-06,-0.0008503931445078614,-4.374788082381007e-05,7.226663674580188e-05,-0.0011176453442036242,0.2720577120780945,11.627954483032227,-1.0172455310821533,-21.594270706176758,-0.3555198311805725,-2.4887118339538574,0.37204307317733765,0
13,0.05881381034851074,-0.2720577120780945,-11.627954483032227,1.0172455310821533,21.594270706176758,0.3555198311805725,2.4887118339538574,-0.37204307317733765,0.0,0.0,0.0,0.0,0.0,0.0,0.0,-0.26543042705457687,0.6490229191192108,-0.18944680071946243,0.33728052611577897,-0.18001194672524976,0.08834992929653257,-0.35677219906743546,0.17283170687088245,-0.4876000517861512,-0.11150547938205574,-1.9462420929691249,0.1334695674776939,2.5955739441447787,0.9452708088490697,0.1728802376190821,-0.48752024683155326,-0.11147110072896137,-1.9463801863486305,0.1336059019074957,2.595550359778934,0.9452445589611904,0.0004515026640300602,0.00010717958409614443,-3.221774714557489e-06,0.0008503931445078614,4.374788082381007e-05,-7.226663674580188e-05,0.0011176453442036242,0.0,0.0,0.0,0.0,0.0,0.0,0.0,4.853074819965997e-05,7.980495459791737e-05,3.4378653094371825e-05,-0.00013809337950565492,0.00013633442980179322,-2.35843658447088e-05,-2.6249887879248313e-05,-0.0004515026640300602,-0.00010717958409614443,3.221774714557489e-06,-0.0008503931445078614,-4.374788082381007e-05,7.226663674580188e-05,-0.0011176453442036242,0.2720577120780945,11.627954483032227,-1.0172455310821533,-21.594270706176758,-0.3555198311805725,-2.4887118339538574,0.37204307317733765,0
14,0.063812255859375,-0.2998287081718445,-11.600183486938477,0.9934418201446533,21.641878128051758,0.3500266671180725,2.5079379081726074,-0.36471885442733765,0.0,0.0,0.0,0.0,0.0,0.0,0.0,-0.26596165069949135,0.6409478476302348,-0.1893321356031846,0.3449552088116065,-0.1796013085910203,0.08996322103194047,-0.35642797279047683,0.17283664771426224,-0.48760217769895137,-0.11150064348839436,-1.9462454338408353,0.13347017782926557,2.59557180791431,0.9452699950469864,0.1728802376190821,-0.48752024683155326,-0.11147110072896137,-1.9463801863486305,0.1336059019074957,2.595550359778934,0.9452445589611904,0.0009908858730256081,-0.0012904808633473896,0.0004001482996680754,-0.0006999456191873253,0.00013440775513706552,-0.0006528657921781874,0.0009705539520879188,0.0,0.0,0.0,0.0,0.0,0.0,0.0,4.3589904819868464e-05,8.193086739810562e-05,2.9542759432996113e-05,-0.00013475250779526604,0.00013572407823012056,-2.1448135376189725e-05,-2.543608579597123e-05,-0.0009908858730256081,0.0012904808633473896,-0.0004001482996680754,0.0006999456191873253,-0.00013440775513706552,0.0006528657921781874,-0.0009705539520879188,0.2998287081718445,11.600183486938477,-0.9934418201446533,-21.641878128051758,-0.3500266671180725,-2.5079379081726074,0.36471885442733765,0
15,0.06880879402160645,-0.2998287081718445,-11.600183486938477,0.9934418201446533,21.641878128051758,0.3500266671180725,2.5079379081726074,-0.36471885442733765,0.0,0.0,0.0,0.0,0.0,0.0,0.0,-0.26596165069949135,0.6409478476302348,-0.1893321356031846,0.3449552088116065,-0.1796013085910203,0.08996322103194047,-0.35642797279047683,0.17283664771426224,-0.48760217769895137,-0.11150064348839436,-1.9462454338408353,0.13347017782926557,2.59557180791431,0.9452699950469864,0.1728802376190821,-0.48752024683155326,-0.11147110072896137,-1.9463801863486305,0.1336059019074957,2.595550359778934,0.9452445589611904,0.0009908858730256081,-0.0012904808633473896,0.0004001482996680754,-0.0006999456191873253,0.00013440775513706552,-0.0006528657921781874,0.0009705539520879188,0.0,0.0,0.0,0.0,0.0,0.0,0.0,4.3589904819868464e-05,8.193086739810562e-05,2.9542759432996113e-05,-0.00013475250779526604,0.00013572407823012056,-2.1448135376189725e-05,-2.543608579597123e-05,-0.0009908858730256081,0.0012904808633473896,-0.0004001482996680754,0.0006999456191873253,-0.00013440775513706552,0.0006528657921781874,-0.0009705539520879188,0.2998287081718445,11.600183486938477,-0.9934418201446533,-21.641878128051758,-0.3500266671180725,-2.5079379081726074,0.36471885442733765,0
16,0.0738067626953125,-0.2720577120780945,-11.675561904907227,0.9934418201446533,21.641878128051758,0.3555198311805725,2.4758944511413574,-0.32352012395858765,0.0,0.0,0.0,0.0,0.0,0.0,0.0,-0.26213099796940853,0.6565727969068789,-0.18438636802224936,0.3385251724107593,-0.1796196453135889,0.08906318155019802,-0.35742430128869795,0.17283375435689766,-0.4875962401165994,-0.11150064722385701,-1.9462454338408353,0.13346909358398412,2.595575368298425,0.9452654174102676,0.1728802376190821,-0.48752024683155326,-0.11147110072896137,-1.9463801863486305,0.1336059019074957,2.595550359778934,0.9452445589611904,6.587310509407633e-05,0.00032096046841392556,0.000246774766828562,-0.0007766968488238516,0.00011004506543674761,0.0005445849867396276,-0.0006490342955628893,0.0,0.0,0.0,0.0,0.0,0.0,0.0,4.6483262184454643e-05,7.599328504614977e-05,2.954649489564365e-05,-0.00013475250779526604,0.0001368083235115669,-2.500851949083227e-05,-2.085844907717682e-05,-6.587310509407633e-05,-0.00032096046841392556,-0.000246774766828562,0.0007766968488238516,-0.00011004506543674761,-0.0005445849867396276,0.0006490342955628893,0.2720577120780945,11.675561904907227,-0.9934418201446533,-21.641878128051758,-0.3555198311805725,-2.4758944511413574,0.32352012395858765,0
17,0.0788109302520752,-0.2720577120780945,-11.675561904907227,0.9934418201446533,21.641878128051758,0.3555198311805725,2.4758944511413574,-0.32352012395858765,0.0,0.0,0.0,0.0,0.0,0.0,0.0,-0.26213099796940853,0.6565727969068789,-0.18438636802224936,0.3385251724107593,-0.1796196453135889,0.08906318155019802,-0.35742430128869795,0.17283375435689766,-0.4875962401165994,-0.11150064722385701,-1.9462454338408353,0.13346909358398412,2.595575368298425,0.9452654174102676,0.1728802376190821,-0.48752024683155326,-0.11147110072896137,-1.9463801863486305,0.1336059019074957,2.595550359778934,0.9452445589611904,6.587310509407633e-05,0.00032096046841392556,0.000246774766828562,-0.0007766968488238516,0.00011004506543674761,0.0005445849867396276,-0.0006490342955628893,0.0,0.0,0.0,0.0,0.0,0.0,0.0,4.6483262184454643e-05,7.599328504614977e-05,2.954649489564365e-05,-0.00013475250779526604,0.0001368083235115669,-2.500851949083227e-05,-2.085844907717682e-05,-6.587310509407633e-05,-0.00032096046841392556,-0.000246774766828562,0.0007766968488238516,-0.00011004506543674761,-0.0005445849867396276,0.0006490342955628893,0.2720577120780945,11.675561904907227,-0.9934418201446533,-21.641878128051758,-0.3555198311805725,-2.4758944511413574,0.32352012395858765,0
18,0.08380937576293945,-0.2998287081718445,-11.600183486938477,1.0172455310821533,21.669649124145508,0.3619285225868225,2.4951205253601074,-0.33725303411483765,0.0,0.0,0.0,0.0,0.0,0.0,0.0,-0.2614389256166923,0.6611834910966824,-0.1828025658187102,0.33634783066484647,-0.1791199830685227,0.0881278535625459,-0.35763465330579924,0.17283664869699308,-0.4876000495321505,-0.11150231376240236,-1.9462473826826665,0.13346884223449063,2.595573232067956,0.9452669432891738,0.1728802376190821,-0.48752024683155326,-0.11147110072896137,-1.9463801863486305,0.1336059019074957,2.595550359778934,0.9452445589611904,0.0007603316178231139,-0.0014634736335965108,6.628628608342318e-05,-0.0013385472239705644,-0.00021326805054115909,-0.0002873708637401715,-0.0004484685798424724,0.0,0.0,0.0,0.0,0.0,0.0,0.0,4.3588922089027315e-05,7.980270059726458e-05,3.121303344098825e-05,-0.00013280366596402082,0.00013705967300506328,-2.2872289021869108e-05,-2.2384327983404617e-05,-0.0007603316178231139,0.0014634736335965108,-6.628628608342318e-05,0.0013385472239705644,0.00021326805054115909,0.0002873708637401715,0.0004484685798424724,0.2998287081718445,11.600183486938477,-1.0172455310821533,-21.669649124145508,-0.3619285225868225,-2.4951205253601074,0.33725303411483765,0
19,0.0888218879699707,-0.2998287081718445,-11.600183486938477,1.0172455310821533,21.669649124145508,0.3619285225868225,2.4951205253601074,-0.33725303411483765,0.0,0.0,0.0,0.0,0.0,0.0,0.0,-0.2614389256166923,0.6611834910966824,-0.1828025658187102,0.33634783066484647,-0.1791199830685227,0.0881278535625459,-0.35763465330579924,0.17283664869699308,-0.4876000495321505,-0.11150231376240236,-1.9462473826826665,0.13346884223449063,2.595573232067956,0.9452669432891738,0.1728802376190821,-0.48752024683155326,-0.11147110072896137,-1.9463801863486305,0.1336059019074957,2.595550359778934,0.9452445589611904,0.0007603316178231139,-0.0014634736335965108,6.628628608342318e-05,-0.0013385472239705644,-0.00021326805054115909,-0.0002873708637401715,-0.0004484685798424724,0.0,0.0,0.0,0.0,0.0,0.0,0.0,4.3588922089027315e-05,7.980270059726458e-05,3.121303344098825e-05,-0.00013280366596402082,0.00013705967300506328,-2.2872289021869108e-05,-2.2384327983404617e-05,-0.0007603316178231139,0.0014634736335965108,-6.628628608342318e-05,0.0013385472239705644,0.00021326805054115909,0.0002873708637401715,0.0004484685798424724,0.2998287081718445,11.600183486938477,-1.0172455310821533,-21.669649124145508,-0.3619285225868225,-2.4951205253601074,0.33725303411483765,0
20,0.09393191337585449,-0.24825400114059448,-11.699365615844727,0.9934418201446533,21.641878128051758,0.3500266671180725,2.4887118339538574,-0.35831016302108765,0.0,0.0,0.0,0.0,0.0,0.0,0.0,-0.2655322101091745,0.6480405519819248,-0.18574198973657843,0.34174355920686333,-0.17862050901579765,0.0893636863517596,-0.3564418878990401,0.1728301940285932,-0.48759432580091183,-0.11150066963351338,-1.9462454347856428,0.13347017782919127,2.5955739441447787,0.9452692829701634,0.1728802376190821,-0.48752024683155326,-0.11147110072896137,-1.9463801863486305,0.1336059019074957,2.595550359778934,0.9452445589611904,-8.40039249120292e-05,0.00020521209294471144,5.075691373571756e-06,-0.00041717217071132295,0.0001164668279333456,-7.024619414203717e-05,0.0003067108077865965,0.0,0.0,0.0,0.0,0.0,0.0,0.0,5.0043590488907386e-05,7.407896935857083e-05,2.9568904552010333e-05,-0.00013475156298770052,0.00013572407830442224,-2.35843658447088e-05,-2.4724008973020517e-05,8.40039249120292e-05,-0.00020521209294471144,-5.075691373571756e-06,0.00041717217071132295,-0.0001164668279333456,7.024619414203717e-05,-0.0003067108077865965,0.24825400114059448,11.699365615844727,-0.9934418201446533,-21.641878128051758,-0.3500266671180725,-2.4887118339538574,0.35831016302108765,0
21,0.09881424903869629,-0.24825400114059448,-11.699365615844727,0.9934418201446533,21.641878128051758,0.3500266671180725,2.4887118339538574,-0.35831016302108765,0.0,0.0,0.0,0.0,0.0,0.0,0.0,-0.2655322101091745,0.6480405519819248,-0.18574198973657843,0.34174355920686333,-0.17862050901579765,0.0893636863517596,-0.3564418878990401,0.1728301940285932,-0.48759432580091183,-0.11150066963351338,-1.9462454347856428,0.13347017782919127,2.5955739441447787,0.9452692829701634,0.1728802376190821,-0.48752024683155326,-0.11147110072896137,-1.9463801863486305,0.1336059019074957,2.595550359778934,0.9452445589611904,-8.40039249120292e-05,0.00020521209294471144,5.075691373571756e-06,-0.00041717217071132295,0.0001164668279333456,-7.024619414203717e-05,0.0003067108077865965,0.0,0.0,0.0,0.0,0.0,0.0,0.0,5.0043590488907386e-05,7.407896935857083e-05,2.9568904552010333e-05,-0.00013475156298770052,0.00013572407830442224,-2.35843658447088e-05,-2.4724008973020517e-05,8.40039249120292e-05,-0.00020521209294471144,-5.075691373571756e-06,0.00041717217071132295,-0.0001164668279333456,7.024619414203717e-05,-0.0003067108077865965,0.24825400114059448,11.699365615844727,-0.9934418201446533,-21.641878128051758,-0.3500266671180725,-2.4887118339538574,0.35831016302108765,0
22,0.10381507873535156,-0.24825400114059448,-11.727136611938477,0.9934418201446533,21.594270706176758,0.3619285225868225,2.4823031425476074,-0.37845176458358765,0.0,0.0,0.0,0.0,0.0,0.0,0.0,-0.2653239021325435,0.6503538018630866,-0.18932800510155548,0.33570237179900964,-0.17907281481321607,0.08920684904582843,-0.35672965271736884,0.17283090253757946,-0.4875924021316583,-0.11150278299780682,-1.9462420929691302,0.13346885540088016,2.5955746562216016,0.9452715209258926,0.1728802376190821,-0.48752024683155326,-0.11147110072896137,-1.9463801863486305,0.1336059019074957,2.595550359778934,0.9452445589611904,-0.0003898220314298671,0.0007583152430315201,0.00017532775749919209,0.0006948955025957572,-0.00021768208445549934,0.00019304568936080879,0.0012754438440131,0.0,0.0,0.0,0.0,0.0,0.0,0.0,4.9335081502649425e-05,7.215530010501459e-05,3.1682268845451e-05,-0.00013809337950032585,0.00013704650661552908,-2.429644266754849e-05,-2.6961964702199026e-05,0.0003898220314298671,-0.0007583152430315201,-0.00017532775749919209,-0.0006948955025957572,0.00021768208445549934,-0.00019304568936080879,-0.0012754438440131,0.24825400114059448,11.727136611938477,-0.9934418201446533,-21.594270706176758,-0.3619285225868225,-2.4823031425476074,0.37845176458358765,0
23,0.10881567001342773,-0.24825400114059448,-11.727136611938477,0.9934418201446533,21.594270706176758,0.3619285225868225,2.4823031425476074,-0.37845176458358765,0.0,0.0,0.0,0.0,0.0,0.0,0.0,-0.2653239021325435,0.6503538018630866,-0.18932800510155548,0.33570237179900964,-0.17907281481321607,0.08920684904582843,-0.35672965271736884,0.17283090253757946,-0.4875924021316583,-0.11150278299780682,-1.9462420929691302,0.13346885540088016,2.5955746562216016,0.9452715209258926,0.1728802376190821,-0.48752024683155326,-0.11147110072896137,-1.9463801863486305,0.1336059019074957,2.595550359778934,0.9452445589611904,-0.0003898220314298671,0.0007583152430315201,0.00017532775749919209,0.0006948955025957572,-0.00021768208445549934,0.00019304568936080879,0.0012754438440131,0.0,0.0,0.0,0.0,0.0,0.0,0.0,4.9335081502649425e-05,7.215530010501459e-05,3.1682268845451e-05,-0.00013809337950032585,0.00013704650661552908,-2.429644266754849e-05,-2.6961964702199026e-05,0.0003898220314298671,-0.0007583152430315201,-0.00017532775749919209,-0.0006948955025957572,0.00021768208445549934,-0.00019304568936080879,-0.0012754438440131,0.24825400114059448,11.727136611938477,-0.9934418201446533,-21.594270706176758,-0.3619285225868225,-2.4823031425476074,0.37845176458358765,0
24,0.11382031440734863,-0.2998287081718445,-11.699365615844727,0.9696381092071533,21.618074417114258,0.3555198311805725,2.5015292167663574,-0.33084434270858765,0.0,0.0,0.0,0.0,0.0,0.0,0.0,-0.26785575255412697,0.6495072769454943,-0.1945044260050398,0.33162006948976036,-0.17939086458132747,0.08933324977634452,-0.3573161008516472,0.17283368228195387,-0.48759309226170194,-0.11149897402142686,-1.94624376340498,0.13346956747770305,2.595572519991133,0.9452662178033501,0.1728802376190821,-0.48752024683155326,-0.11147110072896137,-1.9463801863486305,0.1336059019074957,2.595550359778934,0.9452445589611904,0.0003636695920927479,0.0002984397447741664,0.000625883797048291,0.00031156500383513076,5.9243682219332284e-05,-0.0004965037515618591,-0.0004564443069330763,0.0,0.0,0.0,0.0,0.0,0.0,0.0,4.6555337128245666e-05,7.28454301486825e-05,2.787329246549397e-05,-0.00013642294365046048,0.00013633442979263388,-2.2160212199029417e-05,-2.16588421596553e-05,-0.0003636695920927479,-0.0002984397447741664,-0.000625883797048291,-0.00031156500383513076,-5.9243682219332284e-05,0.0004965037515618591,0.0004564443069330763,0.2998287081718445,11.699365615844727,-0.9696381092071533,-21.618074417114258,-0.3555198311805725,-2.5015292167663574,0.33084434270858765,0
25,0.11881542205810547,-0.2998287081718445,-11.699365615844727,0.9696381092071533,21.618074417114258,0.3555198311805725,2.5015292167663574,-0.33084434270858765,0.0,0.0,0.0,0.0,0.0,0.0,0.0,-0.26785575255412697,0.6495072769454943,-0.1945044260050398,0.33162006948976036,-0.17939086458132747,0.08933324977634452,-0.3573161008516472,0.17283368228195387,-0.48759309226170194,-0.11149897402142686,-1.94624376340498,0.13346956747770305,2.595572519991133,0.9452662178033501,0.1728802376190821,-0.48752024683155326,-0.11147110072896137,-1.9463801863486305,0.1336059019074957,2.595550359778934,0.9452445589611904,0.0003636695920927479,0.0002984397447741664,0.000625883797048291,0.00031156500383513076,5.9243682219332284e-05,-0.0004965037515618591,-0.0004564443069330763,0.0,0.0,0.0,0.0,0.0,0.0,0.0,4.6555337128245666e-05,7.28454301486825e-05,2.787329246549397e-05,-0.00013642294365046048,0.00013633442979263388,-2.2160212199029417e-05,-2.16588421596553e-05,-0.0003636695920927479,-0.0002984397447741664,-0.000625883797048291,-0.00031156500383513076,-5.9243682219332284e-05,0.0004965037515618591,0.0004564443069330763,0.2998287081718445,11.699365615844727,-0.9696381092071533,-21.618074417114258,-0.3555198311805725,-2.5015292167663574,0.33084434270858765,0
26,0.12381148338317871,-0.24825400114059448,-11.675561904907227,1.0172455310821533,21.618074417114258,0.3500266671180725,2.4951205253601074,-0.37204307317733765,0.0,0.0,0.0,0.0,0.0,0.0,0.0,-0.2639865747027055,0.638195647117815,-0.181892001374151,0.33570592215656764,-0.1797285448685824,0.09040539545071348,-0.35645751499862366,0.17283022014950747,-0.48759405006119894,-0.11150234039415265,-1.94624376340498,0.13347017782926557,2.595573232067956,0.9452708088489941,0.1728802376190821,-0.48752024683155326,-0.11147110072896137,-1.9463801863486305,0.1336059019074957,2.595550359778934,0.9452445589611904,-0.00035044509470576077,-0.0003884746614676236,-5.416065661435706e-05,0.0003272844942088633,0.00019175937307856013,-8.894374638436313e-05,0.0010738238106071808,0.0,0.0,0.0,0.0,0.0,0.0,0.0,5.001746957464248e-05,7.380322964567476e-05,3.123966519127941e-05,-0.00013642294365046048,0.00013572407823012056,-2.2872289021869108e-05,-2.6249887803642125e-05,0.00035044509470576077,0.0003884746614676236,5.416065661435706e-05,-0.0003272844942088633,-0.00019175937307856013,8.894374638436313e-05,-0.0010738238106071808,0.24825400114059448,11.675561904907227,-1.0172455310821533,-21.618074417114258,-0.3500266671180725,-2.4951205253601074,0.37204307317733765,0
27,0.12881016731262207,-0.24825400114059448,-11.675561904907227,1.0172455310821533,21.618074417114258,0.3500266671180725,2.4951205253601074,-0.37204307317733765,0.0,0.0,0.0,0.0,0.0,0.0,0.0,-0.2639865747027055,0.638195647117815,-0.181892001374151,0.33570592215656764,-0.1797285448685824,0.09040539545071348,-0.35645751499862366,0.17283022014950747,-0.48759405006119894,-0.11150234039415265,-1.94624376340498,0.13347017782926557,2.595573232067956,0.9452708088489941,0.1728802376190821,-0.48752024683155326,-0.11147110072896137,-1.9463801863486305,0.1336059019074957,2.595550359778934,0.9452445589611904,-0.00035044509470576077,-0.0003884746614676236,-5.416065661435706e-05,0.0003272844942088633,0.00019175937307856013,-8.894374638436313e-05,0.0010738238106071808,0.0,0.0,0.0,0.0,0.0,0.0,0.0,5.001746957464248e-05,7.380322964567476e-05,3.123966519127941e-05,-0.00013642294365046048,0.00013572407823012056,-2.2872289021869108e-05,-2.6249887803642125e-05,0.00035044509470576077,0.0003884746614676236,5.416065661435706e-05,-0.0003272844942088633,-0.00019175937307856013,8.894374638436313e-05,-0.0010738238106071808,0.24825400114059448,11.675561904907227,-1.0172455310821533,-21.618074417114258,-0.3500266671180725,-2.4951205253601074,0.37204307317733765,0
28,0.13460445404052734,-0.24825400114059448,-11.675561904907227,1.0172455310821533,21.618074417114258,0.3555198311805725,2.4887118339538574,-0.29605430364608765,0.0,0.0,0.0,0.0,0.0,0.0,0.0,-0.2634701924099295,0.6411928570815765,-0.1822316620629621,0.33415277872925475,-0.17972647831519478,0.09055927337903284,-0.35475472888992254,0.17283003643072814,-0.4875960013090828,-0.11150231376253068,-1.94624376340498,0.13346636869510012,2.5955739441447787,0.9452623656524551,0.1728802376190821,-0.48752024683155326,-0.11147110072896137,-1.9463801863486305,0.1336059019074957,2.595550359778934,0.9452445589611904,0.00038953304661592646,6.55240569619765e-05,-5.730783445800972e-05,0.0003220441734555289,-0.0001086301618016964,0.00011151110670010072,-0.0018762820340045478,0.0,0.0,0.0,0.0,0.0,0.0,0.0,5.020118835397103e-05,7.575447752955489e-05,3.121303356931615e-05,-0.00013642294365046048,0.0001395332123955706,-2.35843658447088e-05,-1.780669126472123e-05,-0.00038953304661592646,-6.55240569619765e-05,5.730783445800972e-05,-0.0003220441734555289,0.0001086301618016964,-0.00011151110670010072,0.0018762820340045478,0.24825400114059448,11.675561904907227,-1.0172455310821533,-21.618074417114258,-0.3555198311805725,-2.4887118339538574,0.29605430364608765,0
29,0.1388106346130371,-0.24825400114059448,-11.675561904907227,1.0172455310821533,21.618074417114258,0.3555198311805725,2.4887118339538574,-0.29605430364608765,0.0,0.0,0.0,0.0,0.0,0.0,0.0,-0.2634701924099295,0.6411928570815765,-0.1822316620629621,0.33415277872925475,-0.17972647831519478,0.09055927337903284,-0.35475472888992254,0.17283003643072814,-0.4875960013090828,-0.11150231376253068,-1.94624376340498,0.13346636869510012,2.5955739441447787,0.9452623656524551,0.1728802376190821,-0.48752024683155326,-0.11147110072896137,-1.9463801863486305,0.1336059019074957,2.595550359778934,0.9452445589611904,0.00038953304661592646,6.55240569619765e-05,-5.730783445800972e-05,0.0003220441734555289,-0.0001086301618016964,0.00011151110670010072,-0.0018762820340045478,0.0,0.0,0.0,0.0,0.0,0.0,0.0,5.020118835397103e-05,7.575447752955489e-05,3.121303356931615e-05,-0.00013642294365046048,0.0001395332123955706,-2.35843658447088e-05,-1.780669126472123e-05,-0.00038953304661592646,-6.55240569619765e-05,5.730783445800972e-05,-0.0003220441734555289,0.0001086301618016964,-0.00011151110670010072,0.0018762820340045478,0.24825400114059448,11.675561904907227,-1.0172455310821533,-21.618074417114258,-0.3555198311805725,-2.4887118339538574,0.29605430364608765,0
30,0.14380693435668945,-0.22445029020309448,-11.651758193969727,1.0410492420196533,21.669649124145508,0.3500266671180725,2.5015292167663574,-0.35098594427108765,0.0,0.0,0.0,0.0,0.0,0.0,0.0,-0.2586308126755312,0.6519624800265053,-0.18376841478692876,0.3283427918188415,-0.1797524402843399,0.08960930250285647,-0.35402626106611257,0.17283041423590148,-0.4875964116399341,-0.11150398452301324,-1.9462473826826665,0.13347017781120837,2.595572519991133,0.9452684691680802,0.1728802376190821,-0.48752024683155326,-0.11147110072896137,-1.9463801863486305,0.1336059019074957,2.595550359778934,0.9452445589611904,-0.0002218241398759514,-5.799231500965416e-06,-4.685858316627529e-06,-0.0013533415436052137,9.549242890723594e-05,-0.0004469992084292346,0.00035809531971407895,0.0,0.0,0.0,0.0,0.0,0.0,0.0,4.982338318063051e-05,7.616480838085193e-05,3.2883794051877246e-05,-0.00013280366596402082,0.0001357240962873152,-2.2160212199029417e-05,-2.3910206889743435e-05,0.0002218241398759514,5.799231500965416e-06,4.685858316627529e-06,0.0013533415436052137,-9.549242890723594e-05,0.0004469992084292346,-0.00035809531971407895,0.22445029020309448,11.651758193969727,-1.0410492420196533,-21.669649124145508,-0.3500266671180725,-2.5015292167663574,0.35098594427108765,0
31,0.14881587028503418,-0.22445029020309448,-11.651758193969727,1.0410492420196533,21.669649124145508,0.3500266671180725,2.5015292167663574,-0.35098594427108765,0.0,0.0,0.0,0.0,0.0,0.0,0.0,-0.2586308126755312,0.6519624800265053,-0.18376841478692876,0.3283427918188415,-0.1797524402843399,0.08960930250285647,-0.35402626106611257,0.17283041423590148,-0.4875964116399341,-0.11150398452301324,-1.9462473826826665,0.13347017781120837,2.595572519991133,0.9452684691680802,0.1728802376190821,-0.48752024683155326,-0.11147110072896137,-1.9463801863486305,0.1336059019074957,2.595550359778934,0.9452445589611904,-0.0002218241398759514,-5.799231500965416e-06,-4.685858316627529e-06,-0.0013533415436052137,9.549242890723594e-05,-0.0004469992084292346,0.00035809531971407895,0.0,0.0,0.0,0.0,0.0,0.0,0.0,4.982338318063051e-05,7.616480838085193e-05,3.2883794051877246e-05,-0.00013280366596402082,0.0001357240962873152,-2.2160212199029417e-05,-2.3910206889743435e-05,0.0002218241398759514,5.799231500965416e-06,4.685858316627529e-06,0.0013533415436052137,-9.549242890723594e-05,0.0004469992084292346,-0.00035809531971407895,0.22445029020309448,11.651758193969727,-1.0410492420196533,-21.669649124145508,-0.3500266671180725,-2.5015292167663574,0.35098594427108765,0
32,0.1546180248260498,-0.2720577120780945,-11.675561904907227,1.0172455310821533,21.618074417114258,0.3555198311805725,2.4694857597351074,-0.37845176458358765,0.0,0.0,0.0,0.0,0.0,0.0,0.0,-0.2604880764000518,0.6482476392972618,-0.18726028401560396,0.33276739376955233,-0.17952669155030074,0.09067129204876938,-0.3549387304088547,0.17283162816412254,-0.48759474228780036,-0.11150240177712442,-1.94624376340498,0.13346921189489855,2.5955760803752477,0.9452715164562256,0.1728802376190821,-0.48752024683155326,-0.11147110072896137,-1.9463801863486305,0.1336059019074957,2.595550359778934,0.9452445589611904,9.120419574338658e-05,0.0007182980258996919,0.00041338101118830684,2.335867519789566e-05,-0.00020065064581228852,0.0007871590174869904,0.001038812015464059,0.0,0.0,0.0,0.0,0.0,0.0,0.0,4.860945495957503e-05,7.449545624710341e-05,3.1301048163054346e-05,-0.00013642294365046048,0.00013669001259714042,-2.5720596313671962e-05,-2.695749503522915e-05,-9.120419574338658e-05,-0.0007182980258996919,-0.00041338101118830684,-2.335867519789566e-05,0.00020065064581228852,-0.0007871590174869904,-0.001038812015464059,0.2720577120780945,11.675561904907227,-1.0172455310821533,-21.618074417114258,-0.3555198311805725,-2.4694857597351074,0.37845176458358765,0
33,0.15883851051330566,-0.2720577120780945,-11.675561904907227,1.0172455310821533,21.618074417114258,0.3555198311805725,2.4694857597351074,-0.37845176458358765,0.0,0.0,0.0,0.0,0.0,0.0,0.0,-0.2604880764000518,0.6482476392972618,-0.18726028401560396,0.33276739376955233,-0.17952669155030074,0.09067129204876938,-0.3549387304088547,0.17283162816412254,-0.48759474228780036,-0.11150240177712442,-1.94624376340498,0.13346921189489855,2.5955760803752477,0.9452715164562256,0.1728802376190821,-0.48752024683155326,-0.11147110072896137,-1.9463801863486305,0.1336059019074957,2.595550359778934,0.9452445589611904,9.120419574338658e-05,0.0007182980258996919,0.00041338101118830684,2.335867519789566e-05,-0.00020065064581228852,0.0007871590174869904,0.001038812015464059,0.0,0.0,0.0,0.0,0.0,0.0,0.0,4.860945495957503e-05,7.449545624710341e-05,3.1301048163054346e-05,-0.00013642294365046048,0.00013669001259714042,-2.5720596313671962e-05,-2.695749503522915e-05,-9.120419574338658e-05,-0.0007182980258996919,-0.00041338101118830684,-2.335867519789566e-05,0.00020065064581228852,-0.0007871590174869904,-0.001038812015464059,0.2720577120780945,11.675561904907227,-1.0172455310821533,-21.618074417114258,-0.3555198311805725,-2.4694857597351074,0.37845176458358765,0
34,0.16381359100341797,-0.2720577120780945,-11.675561904907227,1.0172455310821533,21.618074417114258,0.3555198311805725,2.4694857597351074,-0.37845176458358765,0.0,0.0,0.0,0.0,0.0,0.0,0.0,-0.2604880764000518,0.6482476392972618,-0.18726028401560396,0.33276739376955233,-0.17952669155030074,0.09067129204876938,-0.3549387304088547,0.17283162816412254,-0.48759474228780036,-0.11150240177712442,-1.94624376340498,0.13346921189489855,2.5955760803752477,0.9452715164562256,0.1728802376190821,-0.48752024683155326,-0.11147110072896137,-1.9463801863486305,0.1336059019074957,2.595550359778934,0.9452445589611904,9.120419574338658e-05,0.0007182980258996919,0.00041338101118830684,2.335867519789566e-05,-0.00020065064581228852,0.0007871590174869904,0.001038812015464059,0.0,0.0,0.0,0.0,0.0,0.0,0.0,4.860945495957503e-05,7.449545624710341e-05,3.1301048163054346e-05,-0.00013642294365046048,0.00013669001259714042,-2.5720596313671962e-05,-2.695749503522915e-05,-9.120419574338658e-05,-0.0007182980258996919,-0.00041338101118830684,-2.335867519789566e-05,0.00020065064581228852,-0.0007871590174869904,-0.001038812015464059,0.2720577120780945,11.675561904907227,-1.0172455310821533,-21.618074417114258,-0.3555198311805725,-2.4694857597351074,0.37845176458358765,0
35,0.16881251335144043,-0.2720577120780945,-11.675561904907227,1.0172455310821533,21.618074417114258,0.3555198311805725,2.4694857597351074,-0.37845176458358765,0.0,0.0,0.0,0.0,0.0,0.0,0.0,-0.2604880764000518,0.6482476392972618,-0.18726028401560396,0.33276739376955233,-0.17952669155030074,0.09067129204876938,-0.3549387304088547,0.17283162816412254,-0.48759474228780036,-0.11150240177712442,-1.94624376340498,0.13346921189489855,2.5955760803752477,0.9452715164562256,0.1728802376190821,-0.48752024683155326,-0.11147110072896137,-1.9463801863486305,0.1336059019074957,2.595550359778934,0.9452445589611904,9.120419574338658e-05,0.0007182980258996919,0.00041338101118830684,2.335867519789566e-05,-0.00020065064581228852,0.0007871590174869904,0.001038812015464059,0.0,0.0,0.0,0.0,0.0,0.0,0.0,4.860945495957503e-05,7.449545624710341e-05,3.1301048163054346e-05,-0.00013642294365046048,0.00013669001259714042,-2.5720596313671962e-05,-2.695749503522915e-05,-9.120419574338658e-05,-0.0007182980258996919,-0.00041338101118830684,-2.335867519789566e-05,0.00020065064581228852,-0.0007871590174869904,-0.001038812015464059,0.2720577120780945,11.675561904907227,-1.0172455310821533,-21.618074417114258,-0.3555198311805725,-2.4694857597351074,0.37845176458358765,0
36,0.17380928993225098,-0.2720577120780945,-11.651758193969727,1.0172455310821533,21.641878128051758,0.3500266671180725,2.4887118339538574,-0.32352012395858765,0.0,0.0,0.0,0.0,0.0,0.0,0.0,-0.2575018059695565,0.6472779354200036,-0.17741854826842202,0.3372613452637464,-0.18059339736877109,0.09132184785240267,-0.35596516510533827,0.17283162812810215,-0.48759651189919395,-0.11150444787670424,-1.9462454338408353,0.13347017636462338,2.5955739395660955,0.9452653771832393,0.1728802376190821,-0.48752024683155326,-0.11147110072896137,-1.9463801863486305,0.1336059019074957,2.595550359778934,0.9452445589611904,0.00025601354156428114,-2.707582387454938e-05,-2.6810252525969525e-05,-0.000277188245008145,-4.79470945045302e-06,-6.289638722330643e-05,-0.0008101630835953946,0.0,0.0,0.0,0.0,0.0,0.0,0.0,4.860949097995615e-05,7.626506764069063e-05,3.3347147742876504e-05,-0.00013475250779526604,0.00013572554287230587,-2.3579787161498444e-05,-2.0818222048912816e-05,-0.00025601354156428114,2.707582387454938e-05,2.6810252525969525e-05,0.000277188245008145,4.79470945045302e-06,6.289638722330643e-05,0.0008101630835953946,0.2720577120780945,11.651758193969727,-1.0172455310821533,-21.641878128051758,-0.3500266671180725,-2.4887118339538574,0.32352012395858765,0
37,0.17881202697753906,-0.2720577120780945,-11.651758193969727,1.0172455310821533,21.641878128051758,0.3500266671180725,2.4887118339538574,-0.32352012395858765,0.0,0.0,0.0,0.0,0.0,0.0,0.0,-0.2575018059695565,0.6472779354200036,-0.17741854826842202,0.3372613452637464,-0.18059339736877109,0.09132184785240267,-0.35596516510533827,0.17283162812810215,-0.48759651189919395,-0.11150444787670424,-1.9462454338408353,0.13347017636462338,2.5955739395660955,0.9452653771832393,0.1728802376190821,-0.48752024683155326,-0.11147110072896137,-1.9463801863486305,0.1336059019074957,2.595550359778934,0.9452445589611904,0.00025601354156428114,-2.707582387454938e-05,-2.6810252525969525e-05,-0.000277188245008145,-4.79470945045302e-06,-6.289638722330643e-05,-0.0008101630835953946,0.0,0.0,0.0,0.0,0.0,0.0,0.0,4.860949097995615e-05,7.626506764069063e-05,3.3347147742876504e-05,-0.00013475250779526604,0.00013572554287230587,-2.3579787161498444e-05,-2.0818222048912816e-05,-0.00025601354156428114,2.707582387454938e-05,2.6810252525969525e-05,0.000277188245008145,4.79470945045302e-06,6.289638722330643e-05,0.0008101630835953946,0.2720577120780945,11.651758193969727,-1.0172455310821533,-21.641878128051758,-0.3500266671180725,-2.4887118339538574,0.32352012395858765,0
38,0.18381285667419434,-0.24825400114059448,-11.699365615844727,0.9934418201446533,21.669649124145508,0.3555198311805725,2.4887118339538574,-0.35831016302108765,0.0,0.0,0.0,0.0,0.0,0.0,0.0,-0.25954354263584994,0.6493895493182043,-0.1780013961649441,0.3370625161624391,-0.18116936237502088,0.09106330721769919,-0.35606705230506686,0.17283019422726692,-0.4875928554320026,-0.11150162059447022,-1.9462473826826665,0.13346636869509187,2.595573944144753,0.9452660245826887,0.1728802376190821,-0.48752024683155326,-0.11147110072896137,-1.9463801863486305,0.1336059019074957,2.595550359778934,0.9452445589611904,-0.00042423207741515905,0.0005382525368773105,0.00039790770141487987,-0.0013205892752296059,-0.00011045806410575413,0.0001431095821740913,0.0009169240513475671,0.0,0.0,0.0,0.0,0.0,0.0,0.0,5.004339181519102e-05,7.260860044933093e-05,3.0519865508851773e-05,-0.00013280366596402082,0.000139533212403814,-2.3584365818951625e-05,-2.1465621498295562e-05,0.00042423207741515905,-0.0005382525368773105,-0.00039790770141487987,0.0013205892752296059,0.00011045806410575413,-0.0001431095821740913,-0.0009169240513475671,0.24825400114059448,11.699365615844727,-0.9934418201446533,-21.669649124145508,-0.3555198311805725,-2.4887118339538574,0.35831016302108765,0
39,0.18880963325500488,-0.24825400114059448,-11.699365615844727,0.9934418201446533,21.669649124145508,0.3555198311805725,2.4887118339538574,-0.35831016302108765,0.0,0.0,0.0,0.0,0.0,0.0,0.0,-0.25954354263584994,0.6493895493182043,-0.1780013961649441,0.3370625161624391,-0.18116936237502088,0.09106330721769919,-0.35606705230506686,0.17283019422726692,-0.4875928554320026,-0.11150162059447022,-1.9462473826826665,0.13346636869509187,2.595573944144753,0.9452660245826887,0.1728802376190821,-0.48752024683155326,-0.11147110072896137,-1.9463801863486305,0.1336059019074957,2.595550359778934,0.9452445589611904,-0.00042423207741515905,0.0005382525368773105,0.00039790770141487987,-0.0013205892752296059,-0.00011045806410575413,0.0001431095821740913,0.0009169240513475671,0.0,0.0,0.0,0.0,0.0,0.0,0.0,5.004339181519102e-05,7.260860044933093e-05,3.0519865508851773e-05,-0.00013280366596402082,0.000139533212403814,-2.3584365818951625e-05,-2.1465621498295562e-05,0.00042423207741515905,-0.0005382525368773105,-0.00039790770141487987,0.0013205892752296059,0.00011045806410575413,-0.0001431095821740913,-0.0009169240513475671,0.24825400114059448,11.699365615844727,-0.9934418201446533,-21.669649124145508,-0.3555198311805725,-2.4887118339538574,0.35831016302108765,0
40,0.19438552856445312,-0.2720577120780945,-11.699365615844727,0.9418671131134033,21.570466995239258,0.3619285225868225,2.4823031425476074,-0.31711143255233765,0.0,0.0,0.0,0.0,0.0,0.0,0.0,-0.2628273026390514,0.6631765108217991,-0.18229121967319212,0.3284287372321793,-0.18105439576197005,0.08932990498015275,-0.3553815769790765,0.17283194307743677,-0.48759282616036237,-0.11149703610721423,-1.9462404310365384,0.13346885489527796,2.5955746562216016,0.945264705315051,0.1728802376190821,-0.48752024683155326,-0.11147110072896137,-1.9463801863486305,0.1336059019074957,2.595550359778934,0.9452445589611904,-0.0005646852783304966,0.0009509237351985014,0.0012856335786876466,0.001153818657317958,-0.00024220026939830247,0.00025231862252565924,-0.0009360748050017345,0.0,0.0,0.0,0.0,0.0,0.0,0.0,4.829454164534397e-05,7.257932880910811e-05,2.5935378252864294e-05,-0.00013975531209209358,0.00013704701221772808,-2.429644266754849e-05,-2.0146353860606148e-05,0.0005646852783304966,-0.0009509237351985014,-0.0012856335786876466,-0.001153818657317958,0.00024220026939830247,-0.00025231862252565924,0.0009360748050017345,0.2720577120780945,11.699365615844727,-0.9418671131134033,-21.570466995239258,-0.3619285225868225,-2.4823031425476074,0.31711143255233765,0
41,0.19880914688110352,-0.2720577120780945,-11.699365615844727,0.9418671131134033,21.570466995239258,0.3619285225868225,2.4823031425476074,-0.31711143255233765,0.0,0.0,0.0,0.0,0.0,0.0,0.0,-0.2628273026390514,0.6631765108217991,-0.18229121967319212,0.3284287372321793,-0.18105439576197005,0.08932990498015275,-0.3553815769790765,0.17283194307743677,-0.48759282616036237,-0.11149703610721423,-1.9462404310365384,0.13346885489527796,2.5955746562216016,0.945264705315051,0.1728802376190821,-0.48752024683155326,-0.11147110072896137,-1.9463801863486305,0.1336059019074957,2.595550359778934,0.9452445589611904,-0.0005646852783304966,0.0009509237351985014,0.0012856335786876466,0.001153818657317958,-0.00024220026939830247,0.00025231862252565924,-0.0009360748050017345,0.0,0.0,0.0,0.0,0.0,0.0,0.0,4.829454164534397e-05,7.257932880910811e-05,2.5935378252864294e-05,-0.00013975531209209358,0.00013704701221772808,-2.429644266754849e-05,-2.0146353860606148e-05,0.0005646852783304966,-0.0009509237351985014,-0.0012856335786876466,-0.001153818657317958,0.00024220026939830247,-0.00025231862252565924,0.0009360748050017345,0.2720577120780945,11.699365615844727,-0.9418671131134033,-21.570466995239258,-0.3619285225868225,-2.4823031425476074,0.31711143255233765,0
42,0.20380949974060059,-0.22445029020309448,-11.675561904907227,1.0172455310821533,21.641878128051758,0.3500266671180725,2.4823031425476074,-0.35098594427108765,0.0,0.0,0.0,0.0,0.0,0.0,0.0,-0.2609720959638952,0.6511385273584243,-0.1768462976590086,0.3341749124009856,-0.18067818578450676,0.08939207871053914,-0.3546667344951005,0.1728306503402277,-0.4875959439959639,-0.11150444498936318,-1.9462454338408832,0.13347017338718625,2.5955746562216016,0.9452684691680802,0.1728802376190821,-0.48752024683155326,-0.11147110072896137,-1.9463801863486305,0.1336059019074957,2.595550359778934,0.9452445589611904,-0.0009135766950817075,-3.785208429204454e-07,-0.0005314032139982385,-0.0001363282318331649,0.0002582480670440215,0.0003153558556101786,0.0006143369890918172,0.0,0.0,0.0,0.0,0.0,0.0,0.0,4.958727885440162e-05,7.569716441063745e-05,3.334426040181582e-05,-0.0001347525077473044,0.00013572852030943605,-2.429644266754849e-05,-2.3910206889743435e-05,0.0009135766950817075,3.785208429204454e-07,0.0005314032139982385,0.0001363282318331649,-0.0002582480670440215,-0.0003153558556101786,-0.0006143369890918172,0.22445029020309448,11.675561904907227,-1.0172455310821533,-21.641878128051758,-0.3500266671180725,-2.4823031425476074,0.35098594427108765,0
43,0.20880913734436035,-0.22445029020309448,-11.675561904907227,1.0172455310821533,21.641878128051758,0.3500266671180725,2.4823031425476074,-0.35098594427108765,0.0,0.0,0.0,0.0,0.0,0.0,0.0,-0.2609720959638952,0.6511385273584243,-0.1768462976590086,0.3341749124009856,-0.18067818578450676,0.08939207871053914,-0.3546667344951005,0.1728306503402277,-0.4875959439959639,-0.11150444498936318,-1.9462454338408832,0.13347017338718625,2.5955746562216016,0.9452684691680802,0.1728802376190821,-0.48752024683155326,-0.11147110072896137,-1.9463801863486305,0.1336059019074957,2.595550359778934,0.9452445589611904,-0.0009135766950817075,-3.785208429204454e-07,-0.0005314032139982385,-0.0001363282318331649,0.0002582480670440215,0.0003153558556101786,0.0006143369890918172,0.0,0.0,0.0,0.0,0.0,0.0,0.0,4.958727885440162e-05,7.569716441063745e-05,3.334426040181582e-05,-0.0001347525077473044,0.00013572852030943605,-2.429644266754849e-05,-2.3910206889743435e-05,0.0009135766950817075,3.785208429204454e-07,0.0005314032139982385,0.0001363282318331649,-0.0002582480670440215,-0.0003153558556101786,-0.0006143369890918172,0.22445029020309448,11.675561904907227,-1.0172455310821533,-21.641878128051758,-0.3500266671180725,-2.4823031425476074,0.35098594427108765,0
44,0.21382617950439453,-0.24825400114059448,-11.675561904907227,1.0172455310821533,21.641878128051758,0.3555198311805725,2.4887118339538574,-0.31711143255233765,0.0,0.0,0.0,0.0,0.0,0.0,0.0,-0.2572001740752883,0.6601263209023337,-0.1751249969936001,0.3266330728688395,-0.18045258115314905,0.0880990576018619,-0.3534490585232922,0.17283019683587886,-0.4875938167649376,-0.11150468236966878,-1.9462454338408353,0.13346956745963748,2.5955739441447787,0.9452647052782637,0.1728802376190821,-0.48752024683155326,-0.11147110072896137,-1.9463801863486305,0.1336059019074957,2.595550359778934,0.9452445589611904,0.00028031661350721174,0.00039788784303210466,0.0007277291479033248,-0.00017342647247417455,-0.00020292845044366436,0.00017566867097781495,-0.0007459172002566348,0.0,0.0,0.0,0.0,0.0,0.0,0.0,5.004078320325345e-05,7.356993338436535e-05,3.3581640707408544e-05,-0.00013475250779526604,0.0001363344478582107,-2.35843658447088e-05,-2.0146317073255204e-05,-0.00028031661350721174,-0.00039788784303210466,-0.0007277291479033248,0.00017342647247417455,0.00020292845044366436,-0.00017566867097781495,0.0007459172002566348,0.24825400114059448,11.675561904907227,-1.0172455310821533,-21.641878128051758,-0.3555198311805725,-2.4887118339538574,0.31711143255233765,0
45,0.21882295608520508,-0.24825400114059448,-11.675561904907227,1.0172455310821533,21.641878128051758,0.3555198311805725,2.4887118339538574,-0.31711143255233765,0.0,0.0,0.0,0.0,0.0,0.0,0.0,-0.2572001740752883,0.6601263209023337,-0.1751249969936001,0.3266330728688395,-0.18045258115314905,0.0880990576018619,-0.3534490585232922,0.17283019683587886,-0.4875938167649376,-0.11150468236966878,-1.9462454338408353,0.13346956745963748,2.5955739441447787,0.9452647052782637,0.1728802376190821,-0.48752024683155326,-0.11147110072896137,-1.9463801863486305,0.1336059019074957,2.595550359778934,0.9452445589611904,0.00028031661350721174,0.00039788784303210466,0.0007277291479033248,-0.00017342647247417455,-0.00020292845044366436,0.00017566867097781495,-0.0007459172002566348,0.0,0.0,0.0,0.0,0.0,0.0,0.0,5.004078320325345e-05,7.356993338436535e-05,3.3581640707408544e-05,-0.00013475250779526604,0.0001363344478582107,-2.35843658447088e-05,-2.0146317073255204e-05,-0.00028031661350721174,-0.00039788784303210466,-0.0007277291479033248,0.00017342647247417455,0.00020292845044366436,-0.00017566867097781495,0.0007459172002566348,0.24825400114059448,11.675561904907227,-1.0172455310821533,-21.641878128051758,-0.3555198311805725,-2.4887118339538574,0.31711143255233765,0
46,0.22382760047912598,-0.24825400114059448,-11.651758193969727,1.0172455310821533,21.618074417114258,0.3500266671180725,2.4887118339538574,-0.36471885442733765,0.0,0.0,0.0,0.0,0.0,0.0,0.0,-0.2574441816423858,0.6449591318361432,-0.18155139636223774,0.33309302378118344,-0.18043511265028936,0.08902244452245428,-0.3533256325091918,0.17282996158184358,-0.487595537780112,-0.11150334855337665,-1.94624376340498,0.13347017782926549,2.5955739441447787,0.945269874365977,0.1728802376190821,-0.48752024683155326,-0.11147110072896137,-1.9463801863486305,0.1336059019074957,2.595550359778934,0.9452445589611904,0.0007658974453101891,-0.0009738214592376699,-0.00011304072053652311,-0.00013416166193692397,-1.5200468655612048e-05,5.389300754420563e-05,0.0006271158151385187,0.0,0.0,0.0,0.0,0.0,0.0,0.0,5.027603723853358e-05,7.529094855873719e-05,3.2247824415285176e-05,-0.00013642294365046048,0.00013572407823020383,-2.35843658447088e-05,-2.5315404786563356e-05,-0.0007658974453101891,0.0009738214592376699,0.00011304072053652311,0.00013416166193692397,1.5200468655612048e-05,-5.389300754420563e-05,-0.0006271158151385187,0.24825400114059448,11.651758193969727,-1.0172455310821533,-21.618074417114258,-0.3500266671180725,-2.4887118339538574,0.36471885442733765,0
47,0.22882366180419922,-0.24825400114059448,-11.651758193969727,1.0172455310821533,21.618074417114258,0.3500266671180725,2.4887118339538574,-0.36471885442733765,0.0,0.0,0.0,0.0,0.0,0.0,0.0,-0.2574441816423858,0.6449591318361432,-0.18155139636223774,0.33309302378118344,-0.18043511265028936,0.08902244452245428,-0.3533256325091918,0.17282996158184358,-0.487595537780112,-0.11150334855337665,-1.94624376340498,0.13347017782926549,2.5955739441447787,0.945269874365977,0.1728802376190821,-0.48752024683155326,-0.11147110072896137,-1.9463801863486305,0.1336059019074957,2.595550359778934,0.9452445589611904,0.0007658974453101891,-0.0009738214592376699,-0.00011304072053652311,-0.00013416166193692397,-1.5200468655612048e-05,5.389300754420563e-05,0.0006271158151385187,0.0,0.0,0.0,0.0,0.0,0.0,0.0,5.027603723853358e-05,7.529094855873719e-05,3.2247824415285176e-05,-0.00013642294365046048,0.00013572407823020383,-2.35843658447088e-05,-2.5315404786563356e-05,-0.0007658974453101891,0.0009738214592376699,0.00011304072053652311,0.00013416166193692397,1.5200468655612048e-05,-5.389300754420563e-05,-0.0006271158151385187,0.24825400114059448,11.651758193969727,-1.0172455310821533,-21.618074417114258,-0.3500266671180725,-2.4887118339538574,0.36471885442733765,0
48,0.2338097095489502,-0.2998287081718445,-11.651758193969727,1.0172455310821533,21.669649124145508,0.3500266671180725,2.4887118339538574,-0.33725303411483765,0.0,0.0,0.0,0.0,0.0,0.0,0.0,-0.26521894527529777,0.6461056093773327,-0.1974370965367832,0.3322162995205164,-0.1803466770665093,0.0892484774357399,-0.3544415899470786,0.1728336654275722,-0.48759548438900707,-0.11150326377888498,-1.9462473827176594,0.13347017782926557,2.5955706062846713,0.9452669432884926,0.1728802376190821,-0.48752024683155326,-0.11147110072896137,-1.9463801863486305,0.1336059019074957,2.595550359778934,0.9452445589611904,-8.885557398229486e-05,-0.0007580402372384773,-0.0005926408004606989,-0.0011505314566875218,0.00012385710928568256,0.00019865330804608668,-0.0003174062708714518,0.0,0.0,0.0,0.0,0.0,0.0,0.0,4.657219150991376e-05,7.523755745381111e-05,3.216304992360863e-05,-0.00013280363097112335,0.00013572407823012056,-2.0246505737286924e-05,-2.238432730217177e-05,8.885557398229486e-05,0.0007580402372384773,0.0005926408004606989,0.0011505314566875218,-0.00012385710928568256,-0.00019865330804608668,0.0003174062708714518,0.2998287081718445,11.651758193969727,-1.0172455310821533,-21.669649124145508,-0.3500266671180725,-2.4887118339538574,0.33725303411483765,0
49,0.23881769180297852,-0.2998287081718445,-11.651758193969727,1.0172455310821533,21.669649124145508,0.3500266671180725,2.4887118339538574,-0.33725303411483765,0.0,0.0,0.0,0.0,0.0,0.0,0.0,-0.26521894527529777,0.6461056093773327,-0.1974370965367832,0.3322162995205164,-0.1803466770665093,0.0892484774357399,-0.3544415899470786,0.1728336654275722,-0.48759548438900707,-0.11150326377888498,-1.9462473827176594,0.13347017782926557,2.5955706062846713,0.9452669432884926,0.1728802376190821,-0.48752024683155326,-0.11147110072896137,-1.9463801863486305,0.1336059019074957,2.595550359778934,0.9452445589611904,-8.885557398229486e-05,-0.0007580402372384773,-0.0005926408004606989,-0.0011505314566875218,0.00012385710928568256,0.00019865330804608668,-0.0003174062708714518,0.0,0.0,0.0,0.0,0.0,0.0,0.0,4.657219150991376e-05,7.523755745381111e-05,3.216304992360863e-05,-0.00013280363097112335,0.00013572407823012056,-2.0246505737286924e-05,-2.238432730217177e-05,8.885557398229486e-05,0.0007580402372384773,0.0005926408004606989,0.0011505314566875218,-0.00012385710928568256,-0.00019865330804608668,0.0003174062708714518,0.2998287081718445,11.651758193969727,-1.0172455310821533,-21.669649124145508,-0.3500266671180725,-2.4887118339538574,0.33725303411483765,0
50,0.24382638931274414,-0.3236324191093445,-11.675561904907227,0.9696381092071533,21.594270706176758,0.3619285225868225,2.4951205253601074,-0.36471885442733765,0.0,0.0,0.0,0.0,0.0,0.0,0.0,-0.2738109267301212,0.6468108696813002,-0.19850736219900364,0.3317189840475012,-0.18047757526585365,0.08927924484221227,-0.35469375244479034,0.17283596576090265,-0.4875937888955568,-0.11149968611844072,-1.9462420929691255,0.13346885540088016,2.595573232011429,0.9452699950469864,0.1728802376190821,-0.48752024683155326,-0.11147110072896137,-1.9463801863486305,0.1336059019074957,2.595550359778934,0.9452445589611904,0.0001936954892943287,0.0001051306390950407,7.532514891623159e-05,0.00015810828080628029,-0.0003472468460346104,-0.00019879793747051134,0.0007737347168900075,0.0,0.0,0.0,0.0,0.0,0.0,0.0,4.427185817945656e-05,7.354206400356222e-05,2.8585389479349188e-05,-0.0001380933795049888,0.00013704650661552908,-2.2872232495085854e-05,-2.543608579597123e-05,-0.0001936954892943287,-0.0001051306390950407,-7.532514891623159e-05,-0.00015810828080628029,0.0003472468460346104,0.00019879793747051134,-0.0007737347168900075,0.3236324191093445,11.675561904907227,-0.9696381092071533,-21.594270706176758,-0.3619285225868225,-2.4951205253601074,0.36471885442733765,0
51,0.24880719184875488,-0.3236324191093445,-11.675561904907227,0.9696381092071533,21.594270706176758,0.3619285225868225,2.4951205253601074,-0.36471885442733765,0.0,0.0,0.0,0.0,0.0,0.0,0.0,-0.2738109267301212,0.6468108696813002,-0.19850736219900364,0.3317189840475012,-0.18047757526585365,0.08927924484221227,-0.35469375244479034,0.17283596576090265,-0.4875937888955568,-0.11149968611844072,-1.9462420929691255,0.13346885540088016,2.595573232011429,0.9452699950469864,0.1728802376190821,-0.48752024683155326,-0.11147110072896137,-1.9463801863486305,0.1336059019074957,2.595550359778934,0.9452445589611904,0.0001936954892943287,0.0001051306390950407,7.532514891623159e-05,0.00015810828080628029,-0.0003472468460346104,-0.00019879793747051134,0.0007737347168900075,0.0,0.0,0.0,0.0,0.0,0.0,0.0,4.427185817945656e-05,7.354206400356222e-05,2.8585389479349188e-05,-0.0001380933795049888,0.00013704650661552908,-2.2872232495085854e-05,-2.543608579597123e-05,-0.0001936954892943287,-0.0001051306390950407,-7.532514891623159e-05,-0.00015810828080628029,0.0003472468460346104,0.00019879793747051134,-0.0007737347168900075,0.3236324191093445,11.675561904907227,-0.9696381092071533,-21.594270706176758,-0.3619285225868225,-2.4951205253601074,0.36471885442733765,0
52,0.2538111209869385,-0.24825400114059448,-11.699365615844727,1.0410492420196533,21.618074417114258,0.3555198311805725,2.4887118339538574,-0.33725303411483765,0.0,0.0,0.0,0.0,0.0,0.0,0.0,-0.2677386789468816,0.6542986664717092,-0.18131883946574265,0.3302390092368818,-0.18116593613208437,0.08867156286038826,-0.35596026713939355,0.1728299842632856,-0.4875949618478161,-0.11150398755561322,-1.9462458296993321,0.13346956745964586,2.5955739441447787,0.9452669432891738,0.1728802376190821,-0.48752024683155326,-0.11147110072896137,-1.9463801863486305,0.1336059019074957,2.595550359778934,0.9452445589611904,8.197082940600322e-05,0.0012840344622690014,-0.0009191192598394337,0.0002119683373652428,-6.394874659985668e-05,4.156561999777093e-05,-9.866231546268723e-05,0.0,0.0,0.0,0.0,0.0,0.0,0.0,5.0253355796503474e-05,7.47150162628274e-05,3.288682665185394e-05,-0.00013435664929839497,0.0001363344478498285,-2.35843658447088e-05,-2.2384327983404617e-05,-8.197082940600322e-05,-0.0012840344622690014,0.0009191192598394337,-0.0002119683373652428,6.394874659985668e-05,-4.156561999777093e-05,9.866231546268723e-05,0.24825400114059448,11.699365615844727,-1.0410492420196533,-21.618074417114258,-0.3555198311805725,-2.4887118339538574,0.33725303411483765,0
53,0.25881052017211914,-0.24825400114059448,-11.699365615844727,1.0410492420196533,21.618074417114258,0.3555198311805725,2.4887118339538574,-0.33725303411483765,0.0,0.0,0.0,0.0,0.0,0.0,0.0,-0.2677386789468816,0.6542986664717092,-0.18131883946574265,0.3302390092368818,-0.18116593613208437,0.08867156286038826,-0.35596026713939355,0.1728299842632856,-0.4875949618478161,-0.11150398755561322,-1.9462458296993321,0.13346956745964586,2.5955739441447787,0.9452669432891738,0.1728802376190821,-0.48752024683155326,-0.11147110072896137,-1.9463801863486305,0.1336059019074957,2.595550359778934,0.9452445589611904,8.197082940600322e-05,0.0012840344622690014,-0.0009191192598394337,0.0002119683373652428,-6.394874659985668e-05,4.156561999777093e-05,-9.866231546268723e-05,0.0,0.0,0.0,0.0,0.0,0.0,0.0,5.0253355796503474e-05,7.47150162628274e-05,3.288682665185394e-05,-0.00013435664929839497,0.0001363344478498285,-2.35843658447088e-05,-2.2384327983404617e-05,-8.197082940600322e-05,-0.0012840344622690014,0.0009191192598394337,-0.0002119683373652428,6.394874659985668e-05,-4.156561999777093e-05,9.866231546268723e-05,0.24825400114059448,11.699365615844727,-1.0410492420196533,-21.618074417114258,-0.3555198311805725,-2.4887118339538574,0.33725303411483765,0
54,0.2638225555419922,-0.2720577120780945,-11.675561904907227,0.9934418201446533,21.618074417114258,0.3555198311805725,2.4887118339538574,-0.34457725286483765,0.0,0.0,0.0,0.0,0.0,0.0,0.0,-0.26488757114852,0.6622798033531007,-0.1867755901885926,0.3290837058543556,-0.18064070897529835,0.08857998883155287,-0.3559456301944713,0.1728324156062577,-0.4875941065593398,-0.11150372431151719,-1.9462437634166443,0.1334695674235313,2.5955739441447787,0.9452677570912572,0.1728802376190821,-0.48752024683155326,-0.11147110072896137,-1.9463801863486305,0.1336059019074957,2.595550359778934,0.9452445589611904,0.0014126572447297622,0.0014082136390328923,0.0008332342542823126,0.00010191461642725985,-0.0001495633336956445,-0.0001313252419385147,-0.00010399485732797057,0.0,0.0,0.0,0.0,0.0,0.0,0.0,4.782201282441112e-05,7.385972778656269e-05,3.262358255581854e-05,-0.00013642293198623534,0.0001363344839643843,-2.35843658447088e-05,-2.319813006679272e-05,-0.0014126572447297622,-0.0014082136390328923,-0.0008332342542823126,-0.00010191461642725985,0.0001495633336956445,0.0001313252419385147,0.00010399485732797057,0.2720577120780945,11.675561904907227,-0.9934418201446533,-21.618074417114258,-0.3555198311805725,-2.4887118339538574,0.34457725286483765,0
55,0.26880693435668945,-0.2720577120780945,-11.675561904907227,0.9934418201446533,21.618074417114258,0.3555198311805725,2.4887118339538574,-0.34457725286483765,0.0,0.0,0.0,0.0,0.0,0.0,0.0,-0.26488757114852,0.6622798033531007,-0.1867755901885926,0.3290837058543556,-0.18064070897529835,0.08857998883155287,-0.3559456301944713,0.1728324156062577,-0.4875941065593398,-0.11150372431151719,-1.9462437634166443,0.1334695674235313,2.5955739441447787,0.9452677570912572,0.1728802376190821,-0.48752024683155326,-0.11147110072896137,-1.9463801863486305,0.1336059019074957,2.595550359778934,0.9452445589611904,0.0014126572447297622,0.0014082136390328923,0.0008332342542823126,0.00010191461642725985,-0.0001495633336956445,-0.0001313252419385147,-0.00010399485732797057,0.0,0.0,0.0,0.0,0.0,0.0,0.0,4.782201282441112e-05,7.385972778656269e-05,3.262358255581854e-05,-0.00013642293198623534,0.0001363344839643843,-2.35843658447088e-05,-2.319813006679272e-05,-0.0014126572447297622,-0.0014082136390328923,-0.0008332342542823126,-0.00010191461642725985,0.0001495633336956445,0.0001313252419385147,0.00010399485732797057,0.2720577120780945,11.675561904907227,-0.9934418201446533,-21.618074417114258,-0.3555198311805725,-2.4887118339538574,0.34457725286483765,0
56,0.27381372451782227,-0.2720577120780945,-11.675561904907227,0.9934418201446533,21.618074417114258,0.3555198311805725,2.4887118339538574,-0.34457725286483765,0.0,0.0,0.0,0.0,0.0,0.0,0.0,-0.26488757114852,0.6622798033531007,-0.1867755901885926,0.3290837058543556,-0.18064070897529835,0.08857998883155287,-0.3559456301944713,0.1728324156062577,-0.4875941065593398,-0.11150372431151719,-1.9462437634166443,0.1334695674235313,2.5955739441447787,0.9452677570912572,0.1728802376190821,-0.48752024683155326,-0.11147110072896137,-1.9463801863486305,0.1336059019074957,2.595550359778934,0.9452445589611904,0.0014126572447297622,0.0014082136390328923,0.0008332342542823126,0.00010191461642725985,-0.0001495633336956445,-0.0001313252419385147,-0.00010399485732797057,0.0,0.0,0.0,0.0,0.0,0.0,0.0,4.782201282441112e-05,7.385972778656269e-05,3.262358255581854e-05,-0.00013642293198623534,0.0001363344839643843,-2.35843658447088e-05,-2.319813006679272e-05,-0.0014126572447297622,-0.0014082136390328923,-0.0008332342542823126,-0.00010191461642725985,0.0001495633336956445,0.0001313252419385147,0.00010399485732797057,0.2720577120780945,11.675561904907227,-0.9934418201446533,-21.618074417114258,-0.3555198311805725,-2.4887118339538574,0.34457725286483765,0
57,0.27881741523742676,-0.2720577120780945,-11.675561904907227,0.9934418201446533,21.618074417114258,0.3555198311805725,2.4887118339538574,-0.34457725286483765,0.0,0.0,0.0,0.0,0.0,0.0,0.0,-0.26488757114852,0.6622798033531007,-0.1867755901885926,0.3290837058543556,-0.18064070897529835,0.08857998883155287,-0.3559456301944713,0.1728324156062577,-0.4875941065593398,-0.11150372431151719,-1.9462437634166443,0.1334695674235313,2.5955739441447787,0.9452677570912572,0.1728802376190821,-0.48752024683155326,-0.11147110072896137,-1.9463801863486305,0.1336059019074957,2.595550359778934,0.9452445589611904,0.0014126572447297622,0.0014082136390328923,0.0008332342542823126,0.00010191461642725985,-0.0001495633336956445,-0.0001313252419385147,-0.00010399485732797057,0.0,0.0,0.0,0.0,0.0,0.0,0.0,4.782201282441112e-05,7.385972778656269e-05,3.262358255581854e-05,-0.00013642293198623534,0.0001363344839643843,-2.35843658447088e-05,-2.319813006679272e-05,-0.0014126572447297622,-0.0014082136390328923,-0.0008332342542823126,-0.00010191461642725985,0.0001495633336956445,0.0001313252419385147,0.00010399485732797057,0.2720577120780945,11.675561904907227,-0.9934418201446533,-21.618074417114258,-0.3555198311805725,-2.4887118339538574,0.34457725286483765,0
58,0.2838425636291504,-0.3236324191093445,-11.651758193969727,0.9934418201446533,21.641878128051758,0.3500266671180725,2.5079379081726074,-0.32352012395858765,0.0,0.0,0.0,0.0,0.0,0.0,0.0,-0.262843308334761,0.6464629718428323,-0.1901004451484998,0.34010656481751583,-0.18038056826842425,0.0902723781301104,-0.3553568443787871,0.17283595928343842,-0.4875957822012688,-0.11150066979525125,-1.9462454338408353,0.13347017782926526,2.59557180791431,0.9452654174102676,0.1728802376190821,-0.48752024683155326,-0.11147110072896137,-1.9463801863486305,0.1336059019074957,2.595550359778934,0.9452445589611904,0.0018164018550115972,-0.0002496454358331609,0.0008473639696655836,-0.00048745727813306774,9.49646466937162e-05,-0.000784028163817929,-0.0011013249127525175,0.0,0.0,0.0,0.0,0.0,0.0,0.0,4.4278335643688216e-05,7.553536971555141e-05,2.9569066289883428e-05,-0.00013475250779526604,0.00013572407823042587,-2.1448135376189725e-05,-2.085844907717682e-05,-0.0018164018550115972,0.0002496454358331609,-0.0008473639696655836,0.00048745727813306774,-9.49646466937162e-05,0.000784028163817929,0.0011013249127525175,0.3236324191093445,11.651758193969727,-0.9934418201446533,-21.641878128051758,-0.3500266671180725,-2.5079379081726074,0.32352012395858765,0
59,0.2888298034667969,-0.3236324191093445,-11.651758193969727,0.9934418201446533,21.641878128051758,0.3500266671180725,2.5079379081726074,-0.32352012395858765,0.0,0.0,0.0,0.0,0.0,0.0,0.0,-0.262843308334761,0.6464629718428323,-0.1901004451484998,0.34010656481751583,-0.18038056826842425,0.0902723781301104,-0.3553568443787871,0.17283595928343842,-0.4875957822012688,-0.11150066979525125,-1.9462454338408353,0.13347017782926526,2.59557180791431,0.9452654174102676,0.1728802376190821,-0.48752024683155326,-0.11147110072896137,-1.9463801863486305,0.1336059019074957,2.595550359778934,0.9452445589611904,0.0018164018550115972,-0.0002496454358331609,0.0008473639696655836,-0.00048745727813306774,9.49646466937162e-05,-0.000784028163817929,-0.0011013249127525175,0.0,0.0,0.0,0.0,0.0,0.0,0.0,4.4278335643688216e-05,7.553536971555141e-05,2.9569066289883428e-05,-0.00013475250779526604,0.00013572407823042587,-2.1448135376189725e-05,-2.085844907717682e-05,-0.0018164018550115972,0.0002496454358331609,-0.0008473639696655836,0.00048745727813306774,-9.49646466937162e-05,0.000784028163817929,0.0011013249127525175,0.3236324191093445,11.651758193969727,-0.9934418201446533,-21.641878128051758,-0.3500266671180725,-2.5079379081726074,0.32352012395858765,0
60,0.29385995864868164,-0.2998287081718445,-11.727136611938477,0.9696381092071533,21.618074417114258,0.3619285225868225,2.4951205253601074,-0.32352012395858765,0.0,0.0,0.0,0.0,0.0,0.0,0.0,-0.26323778952738336,0.6468500260452933,-0.1913267705806304,0.3392014209696694,-0.180084261546381,0.09079154216998715,-0.35492075376590637,0.172835794246751,-0.4875932391021696,-0.11150110375686997,-1.94624376340498,0.1334688417496208,2.595573232067956,0.9452654172447245,0.1728802376190821,-0.48752024683155326,-0.11147110072896137,-1.9463801863486305,0.1336059019074957,2.595550359778934,0.9452445589611904,0.0007318841846693342,0.0011906588250072817,0.001152114748498757,-7.30198486416764e-05,-0.0003799708738609885,2.8783471432555884e-06,-0.00034237782372428495,0.0,0.0,0.0,0.0,0.0,0.0,0.0,4.4443372331115505e-05,7.29922706163566e-05,3.000302790860665e-05,-0.00013642294365046048,0.000137060157874902,-2.2872289021869108e-05,-2.0858283534042066e-05,-0.0007318841846693342,-0.0011906588250072817,-0.001152114748498757,7.30198486416764e-05,0.0003799708738609885,-2.8783471432555884e-06,0.00034237782372428495,0.2998287081718445,11.727136611938477,-0.9696381092071533,-21.618074417114258,-0.3619285225868225,-2.4951205253601074,0.32352012395858765,0
61,0.2988297939300537,-0.2998287081718445,-11.727136611938477,0.9696381092071533,21.618074417114258,0.3619285225868225,2.4951205253601074,-0.32352012395858765,0.0,0.0,0.0,0.0,0.0,0.0,0.0,-0.26323778952738336,0.6468500260452933,-0.1913267705806304,0.3392014209696694,-0.180084261546381,0.09079154216998715,-0.35492075376590637,0.172835794246751,-0.4875932391021696,-0.11150110375686997,-1.94624376340498,0.1334688417496208,2.595573232067956,0.9452654172447245,0.1728802376190821,-0.48752024683155326,-0.11147110072896137,-1.9463801863486305,0.1336059019074957,2.595550359778934,0.9452445589611904,0.0007318841846693342,0.0011906588250072817,0.001152114748498757,-7.30198486416764e-05,-0.0003799708738609885,2.8783471432555884e-06,-0.00034237782372428495,0.0,0.0,0.0,0.0,0.0,0.0,0.0,4.4443372331115505e-05,7.29922706163566e-05,3.000302790860665e-05,-0.00013642294365046048,0.000137060157874902,-2.2872289021869108e-05,-2.0858283534042066e-05,-0.0007318841846693342,-0.0011906588250072817,-0.001152114748498757,7.30198486416764e-05,0.0003799708738609885,-2.8783471432555884e-06,0.00034237782372428495,0.2998287081718445,11.727136611938477,-0.9696381092071533,-21.618074417114258,-0.3619285225868225,-2.4951205253601074,0.32352012395858765,0
62,0.3038597106933594,-0.2998287081718445,-11.675561904907227,1.0172455310821533,21.618074417114258,0.3500266671180725,2.4951205253601074,-0.35831016302108765,0.0,0.0,0.0,0.0,0.0,0.0,0.0,-0.262036013432341,0.6517713893286712,-0.1875643087103152,0.3356309396613442,-0.180161844322173,0.09051739369536753,-0.3540126968141105,0.1728338164336551,-0.48759622943542114,-0.11150239605140953,-1.946243771908249,0.13347017327876873,2.595573232067956,0.9452692829701625,0.1728802376190821,-0.48752024683155326,-0.11147110072896137,-1.9463801863486305,0.1336059019074957,2.595550359778934,0.9452445589611904,0.00023167393606489934,-0.0003527389090352878,-0.00040602675695598816,0.00034940165129537234,0.0002442849756124115,-0.00018997768273987955,6.905549418545609e-05,0.0,0.0,0.0,0.0,0.0,0.0,0.0,4.6421185426998024e-05,7.598260386787459e-05,3.129532244816602e-05,-0.00013641444038148265,0.000135728628726961,-2.2872289021869108e-05,-2.472400897213234e-05,-0.00023167393606489934,0.0003527389090352878,0.00040602675695598816,-0.00034940165129537234,-0.0002442849756124115,0.00018997768273987955,-6.905549418545609e-05,0.2998287081718445,11.675561904907227,-1.0172455310821533,-21.618074417114258,-0.3500266671180725,-2.4951205253601074,0.35831016302108765,0
63,0.3088090419769287,-0.2998287081718445,-11.675561904907227,1.0172455310821533,21.618074417114258,0.3500266671180725,2.4951205253601074,-0.35831016302108765,0.0,0.0,0.0,0.0,0.0,0.0,0.0,-0.262036013432341,0.6517713893286712,-0.1875643087103152,0.3356309396613442,-0.180161844322173,0.09051739369536753,-0.3540126968141105,0.1728338164336551,-0.48759622943542114,-0.11150239605140953,-1.946243771908249,0.13347017327876873,2.595573232067956,0.9452692829701625,0.1728802376190821,-0.48752024683155326,-0.11147110072896137,-1.9463801863486305,0.1336059019074957,2.595550359778934,0.9452445589611904,0.00023167393606489934,-0.0003527389090352878,-0.00040602675695598816,0.00034940165129537234,0.0002442849756124115,-0.00018997768273987955,6.905549418545609e-05,0.0,0.0,0.0,0.0,0.0,0.0,0.0,4.6421185426998024e-05,7.598260386787459e-05,3.129532244816602e-05,-0.00013641444038148265,0.000135728628726961,-2.2872289021869108e-05,-2.472400897213234e-05,-0.00023167393606489934,0.0003527389090352878,0.00040602675695598816,-0.00034940165129537234,-0.0002442849756124115,0.00018997768273987955,-6.905549418545609e-05,0.2998287081718445,11.675561904907227,-1.0172455310821533,-21.618074417114258,-0.3500266671180725,-2.4951205253601074,0.35831016302108765,0
64,0.31380724906921387,-0.2720577120780945,-11.675561904907227,1.0172455310821533,21.618074417114258,0.3555198311805725,2.4887118339538574,-0.35831016302108765,0.0,0.0,0.0,0.0,0.0,0.0,0.0,-0.26206391344309193,0.6585527939999951,-0.18293098369972374,0.330233606782239,-0.18051220187539438,0.08974065542341576,-0.35437666285626995,0.17283173311212024,-0.48759594087354696,-0.11150258560172377,-1.9462438399344486,0.13346956162713763,2.5955739441447787,0.9452692829701634,0.1728802376190821,-0.48752024683155326,-0.11147110072896137,-1.9463801863486305,0.1336059019074957,2.595550359778934,0.9452445589611904,0.00026564329577573765,7.092548847600517e-05,-0.00041131042192669645,0.00037549729326664776,-0.000183417450929689,-3.6836227468172817e-06,0.00027052100188160665,0.0,0.0,0.0,0.0,0.0,0.0,0.0,4.8504506961866145e-05,7.569404199370133e-05,3.1484872762402305e-05,-0.0001363464141819204,0.0001363402803580549,-2.35843658447088e-05,-2.4724008973020517e-05,-0.00026564329577573765,-7.092548847600517e-05,0.00041131042192669645,-0.00037549729326664776,0.000183417450929689,3.6836227468172817e-06,-0.00027052100188160665,0.2720577120780945,11.675561904907227,-1.0172455310821533,-21.618074417114258,-0.3555198311805725,-2.4887118339538574,0.35831016302108765,0
65,0.31883764266967773,-0.2720577120780945,-11.675561904907227,1.0172455310821533,21.618074417114258,0.3555198311805725,2.4887118339538574,-0.35831016302108765,0.0,0.0,0.0,0.0,0.0,0.0,0.0,-0.26206391344309193,0.6585527939999951,-0.18293098369972374,0.330233606782239,-0.18051220187539438,0.08974065542341576,-0.35437666285626995,0.17283173311212024,-0.48759594087354696,-0.11150258560172377,-1.9462438399344486,0.13346956162713763,2.5955739441447787,0.9452692829701634,0.1728802376190821,-0.48752024683155326,-0.11147110072896137,-1.9463801863486305,0.1336059019074957,2.595550359778934,0.9452445589611904,0.00026564329577573765,7.092548847600517e-05,-0.00041131042192669645,0.00037549729326664776,-0.000183417450929689,-3.6836227468172817e-06,0.00027052100188160665,0.0,0.0,0.0,0.0,0.0,0.0,0.0,4.8504506961866145e-05,7.569404199370133e-05,3.1484872762402305e-05,-0.0001363464141819204,0.0001363402803580549,-2.35843658447088e-05,-2.4724008973020517e-05,-0.00026564329577573765,-7.092548847600517e-05,0.00041131042192669645,-0.00037549729326664776,0.000183417450929689,3.6836227468172817e-06,-0.00027052100188160665,0.2720577120780945,11.675561904907227,-1.0172455310821533,-21.618074417114258,-0.3555198311805725,-2.4887118339538574,0.35831016302108765,0
66,0.323777437210083,-0.2720577120780945,-11.699365615844727,0.9696381092071533,21.641878128051758,0.3500266671180725,2.4823031425476074,-0.38577598333358765,0.0,0.0,0.0,0.0,0.0,0.0,0.0,-0.26292280330975126,0.6614456917644322,-0.18596182942086154,0.3291608773518057,-0.18062533706822215,0.08940199784589799,-0.3557366404419477,0.17283186444770113,-0.48759449138209304,-0.11149905192142844,-1.9462454338412674,0.13347016466551814,2.5955746562216016,0.9452723347279759,0.1728802376190821,-0.48752024683155326,-0.11147110072896137,-1.9463801863486305,0.1336059019074957,2.595550359778934,0.9452445589611904,0.0003572302512699757,0.0009838148042716317,0.0010895190746428815,-6.157690161056633e-05,0.00023573459331460456,0.00019387953568834507,0.0020605139566520518,0.0,0.0,0.0,0.0,0.0,0.0,0.0,4.837317138098318e-05,7.424455053978152e-05,2.7951192467068342e-05,-0.00013475250736316724,0.000135737241977546,-2.429644266754849e-05,-2.7775766785476108e-05,-0.0003572302512699757,-0.0009838148042716317,-0.0010895190746428815,6.157690161056633e-05,-0.00023573459331460456,-0.00019387953568834507,-0.0020605139566520518,0.2720577120780945,11.699365615844727,-0.9696381092071533,-21.641878128051758,-0.3500266671180725,-2.4823031425476074,0.38577598333358765,0
67,0.32883691787719727,-0.2720577120780945,-11.699365615844727,0.9696381092071533,21.641878128051758,0.3500266671180725,2.4823031425476074,-0.38577598333358765,0.0,0.0,0.0,0.0,0.0,0.0,0.0,-0.26292280330975126,0.6614456917644322,-0.18596182942086154,0.3291608773518057,-0.18062533706822215,0.08940199784589799,-0.3557366404419477,0.17283186444770113,-0.48759449138209304,-0.11149905192142844,-1.9462454338412674,0.13347016466551814,2.5955746562216016,0.9452723347279759,0.1728802376190821,-0.48752024683155326,-0.11147110072896137,-1.9463801863486305,0.1336059019074957,2.595550359778934,0.9452445589611904,0.0003572302512699757,0.0009838148042716317,0.0010895190746428815,-6.157690161056633e-05,0.00023573459331460456,0.00019387953568834507,0.0020605139566520518,0.0,0.0,0.0,0.0,0.0,0.0,0.0,4.837317138098318e-05,7.424455053978152e-05,2.7951192467068342e-05,-0.00013475250736316724,0.000135737241977546,-2.429644266754849e-05,-2.7775766785476108e-05,-0.0003572302512699757,-0.0009838148042716317,-0.0010895190746428815,6.157690161056633e-05,-0.00023573459331460456,-0.00019387953568834507,-0.0020605139566520518,0.2720577120780945,11.699365615844727,-0.9696381092071533,-21.641878128051758,-0.3500266671180725,-2.4823031425476074,0.38577598333358765,0
68,0.33387184143066406,-0.2998287081718445,-11.627954483032227,1.0688202381134033,21.641878128051758,0.3555198311805725,2.4887118339538574,-0.32352012395858765,0.0,0.0,0.0,0.0,0.0,0.0,0.0,-0.26543575187986346,0.6552110525498058,-0.18834019816327469,0.3324068566109081,-0.18022605676806042,0.08905200282261634,-0.3545599260061019,0.17283381321826907,-0.4875978468737598,-0.11150601520925407,-1.9462454338408353,0.13346954987183787,2.5955739441447787,0.9452654174102676,0.1728802376190821,-0.48752024683155326,-0.11147110072896137,-1.9463801863486305,0.1336059019074957,2.595550359778934,0.9452445589611904,0.0008807315051203263,-0.0009383908113533518,-0.0016567224888854187,-0.001032957835574104,-8.967366258246462e-05,-9.495074831756876e-05,-0.001120356260745287,0.0,0.0,0.0,0.0,0.0,0.0,0.0,4.642440081303878e-05,7.760004220652705e-05,3.4914480292705385e-05,-0.00013475250779526604,0.00013635203565781628,-2.35843658447088e-05,-2.085844907717682e-05,-0.0008807315051203263,0.0009383908113533518,0.0016567224888854187,0.001032957835574104,8.967366258246462e-05,9.495074831756876e-05,0.001120356260745287,0.2998287081718445,11.627954483032227,-1.0688202381134033,-21.641878128051758,-0.3555198311805725,-2.4887118339538574,0.32352012395858765,0
69,0.338853120803833,-0.2998287081718445,-11.627954483032227,1.0688202381134033,21.641878128051758,0.3555198311805725,2.4887118339538574,-0.32352012395858765,0.0,0.0,0.0,0.0,0.0,0.0,0.0,-0.26543575187986346,0.6552110525498058,-0.18834019816327469,0.3324068566109081,-0.18022605676806042,0.08905200282261634,-0.3545599260061019,0.17283381321826907,-0.4875978468737598,-0.11150601520925407,-1.9462454338408353,0.13346954987183787,2.5955739441447787,0.9452654174102676,0.1728802376190821,-0.48752024683155326,-0.11147110072896137,-1.9463801863486305,0.1336059019074957,2.595550359778934,0.9452445589611904,0.0008807315051203263,-0.0009383908113533518,-0.0016567224888854187,-0.001032957835574104,-8.967366258246462e-05,-9.495074831756876e-05,-0.001120356260745287,0.0,0.0,0.0,0.0,0.0,0.0,0.0,4.642440081303878e-05,7.760004220652705e-05,3.4914480292705385e-05,-0.00013475250779526604,0.00013635203565781628,-2.35843658447088e-05,-2.085844907717682e-05,-0.0008807315051203263,0.0009383908113533518,0.0016567224888854187,0.001032957835574104,8.967366258246462e-05,9.495074831756876e-05,0.001120356260745287,0.2998287081718445,11.627954483032227,-1.0688202381134033,-21.641878128051758,-0.3555198311805725,-2.4887118339538574,0.32352012395858765,0
70,0.34383702278137207,-0.19667929410934448,-11.675561904907227,0.9934418201446533,21.594270706176758,0.3555198311805725,2.4951205253601074,-0.36471885442733765,0.0,0.0,0.0,0.0,0.0,0.0,0.0,-0.2585944313012731,0.6496274514726438,-0.18024004552751055,0.33559447065089804,-0.18040316013909835,0.08920128562117827,-0.35487382797310346,0.17282704708489519,-0.48759600433584865,-0.11150277527563178,-1.9462420929691249,0.13346955431388927,2.595573232067956,0.9452699950469864,0.1728802376190821,-0.48752024683155326,-0.11147110072896137,-1.9463801863486305,0.1336059019074957,2.595550359778934,0.9452445589611904,-0.0006640353419300218,-8.91253150982498e-06,0.00028637384588614247,7.841294923355067e-05,2.1936983592839234e-05,-0.00023790195062517642,0.0006489602971147898,0.0,0.0,0.0,0.0,0.0,0.0,0.0,5.319053418692543e-05,7.575750429539285e-05,3.1674546670412695e-05,-0.00013809337950565492,0.0001363475936064229,-2.2872289021869108e-05,-2.543608579597123e-05,0.0006640353419300218,8.91253150982498e-06,-0.00028637384588614247,-7.841294923355067e-05,-2.1936983592839234e-05,0.00023790195062517642,-0.0006489602971147898,0.19667929410934448,11.675561904907227,-0.9934418201446533,-21.594270706176758,-0.3555198311805725,-2.4951205253601074,0.36471885442733765,0
71,0.348813533782959,-0.19667929410934448,-11.675561904907227,0.9934418201446533,21.594270706176758,0.3555198311805725,2.4951205253601074,-0.36471885442733765,0.0,0.0,0.0,0.0,0.0,0.0,0.0,-0.2585944313012731,0.6496274514726438,-0.18024004552751055,0.33559447065089804,-0.18040316013909835,0.08920128562117827,-0.35487382797310346,0.17282704708489519,-0.48759600433584865,-0.11150277527563178,-1.9462420929691249,0.13346955431388927,2.595573232067956,0.9452699950469864,0.1728802376190821,-0.48752024683155326,-0.11147110072896137,-1.9463801863486305,0.1336059019074957,2.595550359778934,0.9452445589611904,-0.0006640353419300218,-8.91253150982498e-06,0.00028637384588614247,7.841294923355067e-05,2.1936983592839234e-05,-0.00023790195062517642,0.0006489602971147898,0.0,0.0,0.0,0.0,0.0,0.0,0.0,5.319053418692543e-05,7.575750429539285e-05,3.1674546670412695e-05,-0.00013809337950565492,0.0001363475936064229,-2.2872289021869108e-05,-2.543608579597123e-05,0.0006640353419300218,8.91253150982498e-06,-0.00028637384588614247,-7.841294923355067e-05,-2.1936983592839234e-05,0.00023790195062517642,-0.0006489602971147898,0.19667929410934448,11.675561904907227,-0.9934418201446533,-21.594270706176758,-0.3555198311805725,-2.4951205253601074,0.36471885442733765,0
72,0.35381364822387695,-0.2998287081718445,-11.727136611938477,1.0410492420196533,21.618074417114258,0.3500266671180725,2.4887118339538574,-0.31711143255233765,0.0,0.0,0.0,0.0,0.0,0.0,0.0,-0.26142941559683147,0.6459447885603066,-0.19454438529393855,0.33590520172528116,-0.17945734165227184,0.09067808544002348,-0.3556507046801174,0.17283358024614304,-0.4875924002876889,-0.11150614245392175,-1.94624376340498,0.13346981802040278,2.5955739441447787,0.9452647053334446,0.1728802376190821,-0.48752024683155326,-0.11147110072896137,-1.9463801863486305,0.1336059019074957,2.595550359778934,0.9452445589611904,0.0007155528890478684,0.0011337742766788172,-0.0008076976568972679,0.0002076722810196723,0.00021096718422811735,0.00020378438660205472,-0.0009461109498844255,0.0,0.0,0.0,0.0,0.0,0.0,0.0,4.6657372939074016e-05,7.21534561356485e-05,3.5041724960382936e-05,-0.00013642294365046048,0.0001360838870929082,-2.35843658447088e-05,-2.0146372254226108e-05,-0.0007155528890478684,-0.0011337742766788172,0.0008076976568972679,-0.0002076722810196723,-0.00021096718422811735,-0.00020378438660205472,0.0009461109498844255,0.2998287081718445,11.727136611938477,-1.0410492420196533,-21.618074417114258,-0.3500266671180725,-2.4887118339538574,0.31711143255233765,0
73,0.3588097095489502,-0.2998287081718445,-11.727136611938477,1.0410492420196533,21.618074417114258,0.3500266671180725,2.4887118339538574,-0.31711143255233765,0.0,0.0,0.0,0.0,0.0,0.0,0.0,-0.26142941559683147,0.6459447885603066,-0.19454438529393855,0.33590520172528116,-0.17945734165227184,0.09067808544002348,-0.3556507046801174,0.17283358024614304,-0.4875924002876889,-0.11150614245392175,-1.94624376340498,0.13346981802040278,2.5955739441447787,0.9452647053334446,0.1728802376190821,-0.48752024683155326,-0.11147110072896137,-1.9463801863486305,0.1336059019074957,2.595550359778934,0.9452445589611904,0.0007155528890478684,0.0011337742766788172,-0.0008076976568972679,0.0002076722810196723,0.00021096718422811735,0.00020378438660205472,-0.0009461109498844255,0.0,0.0,0.0,0.0,0.0,0.0,0.0,4.6657372939074016e-05,7.21534561356485e-05,3.5041724960382936e-05,-0.00013642294365046048,0.0001360838870929082,-2.35843658447088e-05,-2.0146372254226108e-05,-0.0007155528890478684,-0.0011337742766788172,0.0008076976568972679,-0.0002076722810196723,-0.00021096718422811735,-0.00020378438660205472,0.0009461109498844255,0.2998287081718445,11.727136611938477,-1.0410492420196533,-21.618074417114258,-0.3500266671180725,-2.4887118339538574,0.31711143255233765,0
74,0.36381959915161133,-0.2720577120780945,-11.699365615844727,0.9696381092071533,21.641878128051758,0.3500266671180725,2.4887118339538574,-0.30978721380233765,0.0,0.0,0.0,0.0,0.0,0.0,0.0,-0.27489298705083487,0.6493176394603899,-0.2044184746262369,0.3309872440740721,-0.17968891493776398,0.0905253815105002,-0.3546371128855265,0.1728316545177839,-0.48759219897656775,-0.11149905181569582,-1.9462454338408353,0.13347017782858853,2.5955739441447787,0.9452638915313614,0.1728802376190821,-0.48752024683155326,-0.11147110072896137,-1.9463801863486305,0.1336059019074957,2.595550359778934,0.9452445589611904,-0.0016170951807775672,0.0005881773344541854,-1.3039706264405075e-05,-0.0003139063681211901,5.1570127229618845e-05,-1.1492030345969848e-05,-0.0017528571696535686,0.0,0.0,0.0,0.0,0.0,0.0,0.0,4.858310129821075e-05,7.195214501448666e-05,2.7951086734451236e-05,-0.00013475250779526604,0.00013572407890716232,-2.35843658447088e-05,-1.9332570170949026e-05,0.0016170951807775672,-0.0005881773344541854,1.3039706264405075e-05,0.0003139063681211901,-5.1570127229618845e-05,1.1492030345969848e-05,0.0017528571696535686,0.2720577120780945,11.699365615844727,-0.9696381092071533,-21.641878128051758,-0.3500266671180725,-2.4887118339538574,0.30978721380233765,0
75,0.368804931640625,-0.2720577120780945,-11.699365615844727,0.9696381092071533,21.641878128051758,0.3500266671180725,2.4887118339538574,-0.30978721380233765,0.0,0.0,0.0,0.0,0.0,0.0,0.0,-0.27489298705083487,0.6493176394603899,-0.2044184746262369,0.3309872440740721,-0.17968891493776398,0.0905253815105002,-0.3546371128855265,0.1728316545177839,-0.48759219897656775,-0.11149905181569582,-1.9462454338408353,0.13347017782858853,2.5955739441447787,0.9452638915313614,0.1728802376190821,-0.48752024683155326,-0.11147110072896137,-1.9463801863486305,0.1336059019074957,2.595550359778934,0.9452445589611904,-0.0016170951807775672,0.0005881773344541854,-1.3039706264405075e-05,-0.0003139063681211901,5.1570127229618845e-05,-1.1492030345969848e-05,-0.0017528571696535686,0.0,0.0,0.0,0.0,0.0,0.0,0.0,4.858310129821075e-05,7.195214501448666e-05,2.7951086734451236e-05,-0.00013475250779526604,0.00013572407890716232,-2.35843658447088e-05,-1.9332570170949026e-05,0.0016170951807775672,-0.0005881773344541854,1.3039706264405075e-05,0.0003139063681211901,-5.1570127229618845e-05,1.1492030345969848e-05,0.0017528571696535686,0.2720577120780945,11.699365615844727,-0.9696381092071533,-21.641878128051758,-0.3500266671180725,-2.4887118339538574,0.30978721380233765,0
76,0.373856782913208,-0.17287558317184448,-11.675561904907227,1.0410492420196533,21.669649124145508,0.3500266671180725,2.4823031425476074,-0.35831016302108765,0.0,0.0,0.0,0.0,0.0,0.0,0.0,-0.25809830491228203,0.6572973736535468,-0.1728974722380842,0.3281407712183888,-0.18126640382429868,0.08897786264223707,-0.3545619767890777,0.17282468061565645,-0.48759594082422225,-0.11150636059662249,-1.9462473826826665,0.13347005935583584,2.5955746562216016,0.9452692829701634,0.1728802376190821,-0.48752024683155326,-0.11147110072896137,-1.9463801863486305,0.1336059019074957,2.595550359778934,0.9452445589611904,-0.0013880405319763051,0.000538010356660609,-0.0002728172088900353,-0.0010546353287377464,0.00010027429069762454,0.00028678891465743254,0.0005277964112307829,0.0,0.0,0.0,0.0,0.0,0.0,0.0,5.555700342566028e-05,7.569399266899035e-05,3.5259867661119326e-05,-0.00013280366596402082,0.00013584255165985382,-2.429644266754849e-05,-2.4724008973020517e-05,0.0013880405319763051,-0.000538010356660609,0.0002728172088900353,0.0010546353287377464,-0.00010027429069762454,-0.00028678891465743254,-0.0005277964112307829,0.17287558317184448,11.675561904907227,-1.0410492420196533,-21.669649124145508,-0.3500266671180725,-2.4823031425476074,0.35831016302108765,0
77,0.3788285255432129,-0.17287558317184448,-11.675561904907227,1.0410492420196533,21.669649124145508,0.3500266671180725,2.4823031425476074,-0.35831016302108765,0.0,0.0,0.0,0.0,0.0,0.0,0.0,-0.25809830491228203,0.6572973736535468,-0.1728974722380842,0.3281407712183888,-0.18126640382429868,0.08897786264223707,-0.3545619767890777,0.17282468061565645,-0.48759594082422225,-0.11150636059662249,-1.9462473826826665,0.13347005935583584,2.5955746562216016,0.9452692829701634,0.1728802376190821,-0.48752024683155326,-0.11147110072896137,-1.9463801863486305,0.1336059019074957,2.595550359778934,0.9452445589611904,-0.0013880405319763051,0.000538010356660609,-0.0002728172088900353,-0.0010546353287377464,0.00010027429069762454,0.00028678891465743254,0.0005277964112307829,0.0,0.0,0.0,0.0,0.0,0.0,0.0,5.555700342566028e-05,7.569399266899035e-05,3.5259867661119326e-05,-0.00013280366596402082,0.00013584255165985382,-2.429644266754849e-05,-2.4724008973020517e-05,0.0013880405319763051,-0.000538010356660609,0.0002728172088900353,0.0010546353287377464,-0.00010027429069762454,-0.00028678891465743254,-0.0005277964112307829,0.17287558317184448,11.675561904907227,-1.0410492420196533,-21.669649124145508,-0.3500266671180725,-2.4823031425476074,0.35831016302108765,0
78,0.383861780166626,-0.2720577120780945,-11.675561904907227,1.0172455310821533,21.618074417114258,0.3619285225868225,2.4887118339538574,-0.31711143255233765,0.0,0.0,0.0,0.0,0.0,0.0,0.0,-0.2627388441621564,0.6513364960033216,-0.19388738456179555,0.3336322546158162,-0.18045915491524506,0.09017460846255905,-0.3552619788091309,0.17283171896194136,-0.48759452346191057,-0.11150469407106813,-1.94624376340498,0.13346885534603972,2.5955739441447787,0.9452609642221603,0.1728802376190821,-0.48752024683155326,-0.11147110072896137,-1.9463801863486305,0.1336059019074957,2.595550359778934,0.9452445589611904,0.00111769020251349,0.0005302638341650475,0.0004914221552094621,-2.483154674512856e-05,-0.0003894889952141631,4.343212354669712e-05,-0.001365394357190858,0.0,0.0,0.0,0.0,0.0,0.0,0.0,4.851865714075587e-05,7.427663035730614e-05,3.359334210675802e-05,-0.00013642294365046048,0.00013704656145596683,-2.35843658447088e-05,-1.6405260969909463e-05,-0.00111769020251349,-0.0005302638341650475,-0.0004914221552094621,2.483154674512856e-05,0.0003894889952141631,-4.343212354669712e-05,0.001365394357190858,0.2720577120780945,11.675561904907227,-1.0172455310821533,-21.618074417114258,-0.3619285225868225,-2.4887118339538574,0.31711143255233765,0
79,0.3888239860534668,-0.2720577120780945,-11.675561904907227,1.0172455310821533,21.618074417114258,0.3619285225868225,2.4887118339538574,-0.31711143255233765,0.0,0.0,0.0,0.0,0.0,0.0,0.0,-0.2627388441621564,0.6513364960033216,-0.19388738456179555,0.3336322546158162,-0.18045915491524506,0.09017460846255905,-0.3552619788091309,0.17283171896194136,-0.48759452346191057,-0.11150469407106813,-1.94624376340498,0.13346885534603972,2.5955739441447787,0.9452609642221603,0.1728802376190821,-0.48752024683155326,-0.11147110072896137,-1.9463801863486305,0.1336059019074957,2.595550359778934,0.9452445589611904,0.00111769020251349,0.0005302638341650475,0.0004914221552094621,-2.483154674512856e-05,-0.0003894889952141631,4.343212354669712e-05,-0.001365394357190858,0.0,0.0,0.0,0.0,0.0,0.0,0.0,4.851865714075587e-05,7.427663035730614e-05,3.359334210675802e-05,-0.00013642294365046048,0.00013704656145596683,-2.35843658447088e-05,-1.6405260969909463e-05,-0.00111769020251349,-0.0005302638341650475,-0.0004914221552094621,2.483154674512856e-05,0.0003894889952141631,-4.343212354669712e-05,0.001365394357190858,0.2720577120780945,11.675561904907227,-1.0172455310821533,-21.618074417114258,-0.3619285225868225,-2.4887118339538574,0.31711143255233765,0
