rezayati/contactInterpretation/dataset/franka_main/labeled_data/link7/a8_4.csv
index,time,tau_J0,tau_J1,tau_J2,tau_J3,tau_J4,tau_J5,tau_J6,tau_J_d0,tau_J_d1,tau_J_d2,tau_J_d3,tau_J_d4,tau_J_d5,tau_J_d6,tau_ext0,tau_ext1,tau_ext2,tau_ext3,tau_ext4,tau_ext5,tau_ext6,q0,q1,q2,q3,q4,q5,q6,q_d0,q_d1,q_d2,q_d3,q_d4,q_d5,q_d6,dq0,dq1,dq2,dq3,dq4,dq5,dq6,dq_d0,dq_d1,dq_d2,dq_d3,dq_d4,dq_d5,dq_d6,e0,e1,e2,e3,e4,e5,e6,de0,de1,de2,de3,de4,de5,de6,etau_J0,etau_J1,etau_J2,etau_J3,etau_J4,etau_J5,etau_J6,label
1,0.0,-0.22445029020309448,-19.717248916625977,-0.2483184039592743,20.229524612426758,0.4269309639930725,2.5015292167663574,-0.20724813640117645,0.0,0.0,0.0,0.0,0.0,0.0,0.0,-0.2137636056818679,-0.015314379668331891,-0.0555166774779184,0.38358537921006813,-0.15532276305660064,0.12122105227124952,-0.232191127520431,1.2133052501803947,-0.22031803182984802,-0.007553408989528286,-2.603783202188057,-0.10873956921622933,2.468184757921431,0.8264738168416257,1.2134413937687574,-0.2202432315892585,-0.0075118285948192216,-2.6038483821997875,-0.10888392708698907,2.4681821257803174,0.826474908251239,0.0007823773377744434,-0.000894760949713167,-0.00019109833377381493,-0.001285953664121206,0.00017822114850364742,-0.00019581827638521452,-0.0007883171186155352,0.0,0.0,0.0,0.0,0.0,0.0,0.0,0.00013614358836266938,7.480024058953427e-05,4.158039470906431e-05,-6.51800117306145e-05,-0.00014435787075973983,-2.6321411135121764e-06,1.091409613351857e-06,-0.0007823773377744434,0.000894760949713167,0.00019109833377381493,0.001285953664121206,-0.00017822114850364742,0.00019581827638521452,0.0007883171186155352,0.22445029020309448,19.717248916625977,0.2483184039592743,-20.229524612426758,-0.4269309639930725,-2.5015292167663574,0.20724813640117645,0
2,0.005013942718505859,-0.22445029020309448,-19.717248916625977,-0.2483184039592743,20.229524612426758,0.4269309639930725,2.5015292167663574,-0.20724813640117645,0.0,0.0,0.0,0.0,0.0,0.0,0.0,-0.2137636056818679,-0.015314379668331891,-0.0555166774779184,0.38358537921006813,-0.15532276305660064,0.12122105227124952,-0.232191127520431,1.2133052501803947,-0.22031803182984802,-0.007553408989528286,-2.603783202188057,-0.10873956921622933,2.468184757921431,0.8264738168416257,1.2134413937687574,-0.2202432315892585,-0.0075118285948192216,-2.6038483821997875,-0.10888392708698907,2.4681821257803174,0.826474908251239,0.0007823773377744434,-0.000894760949713167,-0.00019109833377381493,-0.001285953664121206,0.00017822114850364742,-0.00019581827638521452,-0.0007883171186155352,0.0,0.0,0.0,0.0,0.0,0.0,0.0,0.00013614358836266938,7.480024058953427e-05,4.158039470906431e-05,-6.51800117306145e-05,-0.00014435787075973983,-2.6321411135121764e-06,1.091409613351857e-06,-0.0007823773377744434,0.000894760949713167,0.00019109833377381493,0.001285953664121206,-0.00017822114850364742,0.00019581827638521452,0.0007883171186155352,0.22445029020309448,19.717248916625977,0.2483184039592743,-20.229524612426758,-0.4269309639930725,-2.5015292167663574,0.20724813640117645,0
3,0.010000467300415039,-0.19667929410934448,-19.745019912719727,-0.2483184039592743,20.130342483520508,0.4333396553993225,2.4951205253601074,-0.20083944499492645,0.0,0.0,0.0,0.0,0.0,0.0,0.0,-0.21613377626312882,-0.011327088980803984,-0.06021845575113255,0.38250396461133257,-0.1553714919522007,0.12089722293500135,-0.22976113635413,1.2133033013385637,-0.22031616033644025,-0.0075555395331038345,-2.60377624203866,-0.1087406773237353,2.4681854699982537,0.8264720674196355,1.2134413937687574,-0.2202432315892585,-0.0075118285948192216,-2.6038483821997875,-0.10888392708698907,2.4681821257803174,0.826474908251239,-0.000819477789525944,0.0001332709334994169,-0.0005086432886148766,0.0008977967834697024,-0.00010972900872697974,-8.31963882122818e-05,-0.000777102280985989,0.0,0.0,0.0,0.0,0.0,0.0,0.0,0.00013809243019369255,7.292874718176079e-05,4.3710938284612956e-05,-7.214016112744304e-05,-0.0001432497632537777,-3.3442179363518676e-06,2.8408316035122283e-06,0.000819477789525944,-0.0001332709334994169,0.0005086432886148766,-0.0008977967834697024,0.00010972900872697974,8.31963882122818e-05,0.000777102280985989,0.19667929410934448,19.745019912719727,0.2483184039592743,-20.130342483520508,-0.4333396553993225,-2.4951205253601074,0.20083944499492645,0
4,0.014993667602539062,-0.19667929410934448,-19.745019912719727,-0.2483184039592743,20.130342483520508,0.4333396553993225,2.4951205253601074,-0.20083944499492645,0.0,0.0,0.0,0.0,0.0,0.0,0.0,-0.21613377626312882,-0.011327088980803984,-0.06021845575113255,0.38250396461133257,-0.1553714919522007,0.12089722293500135,-0.22976113635413,1.2133033013385637,-0.22031616033644025,-0.0075555395331038345,-2.60377624203866,-0.1087406773237353,2.4681854699982537,0.8264720674196355,1.2134413937687574,-0.2202432315892585,-0.0075118285948192216,-2.6038483821997875,-0.10888392708698907,2.4681821257803174,0.826474908251239,-0.000819477789525944,0.0001332709334994169,-0.0005086432886148766,0.0008977967834697024,-0.00010972900872697974,-8.31963882122818e-05,-0.000777102280985989,0.0,0.0,0.0,0.0,0.0,0.0,0.0,0.00013809243019369255,7.292874718176079e-05,4.3710938284612956e-05,-7.214016112744304e-05,-0.0001432497632537777,-3.3442179363518676e-06,2.8408316035122283e-06,0.000819477789525944,-0.0001332709334994169,0.0005086432886148766,-0.0008977967834697024,0.00010972900872697974,8.31963882122818e-05,0.000777102280985989,0.19667929410934448,19.745019912719727,0.2483184039592743,-20.130342483520508,-0.4333396553993225,-2.4951205253601074,0.20083944499492645,0
5,0.019945859909057617,-0.24825400114059448,-19.745019912719727,-0.2245146930217743,20.130342483520508,0.4269309639930725,2.5015292167663574,-0.19351522624492645,0.0,0.0,0.0,0.0,0.0,0.0,0.0,-0.21228539887971776,-0.015322093649182635,-0.05795021281253128,0.38488239394871376,-0.15597382374600577,0.12080406843288741,-0.22834885508965824,1.213306920507234,-0.22031617038151474,-0.007555079425376216,-2.60377624203866,-0.10874063562349322,2.468184757921431,0.8264680407273008,1.2134413937687574,-0.2202432315892585,-0.0075118285948192216,-2.6038483821997875,-0.10888392708698907,2.4681821257803174,0.826474908251239,0.0006806356164907396,-0.0004154387861376712,-0.0009069032402309298,0.0007165414854193963,0.00015412821646430453,-0.0004848406008303745,-0.0014510055193422723,0.0,0.0,0.0,0.0,0.0,0.0,0.0,0.00013447326152338235,7.293879225625521e-05,4.325083055699459e-05,-7.214016112744304e-05,-0.00014329146349585653,-2.6321411135121764e-06,6.867523938192122e-06,-0.0006806356164907396,0.0004154387861376712,0.0009069032402309298,-0.0007165414854193963,-0.00015412821646430453,0.0004848406008303745,0.0014510055193422723,0.24825400114059448,19.745019912719727,0.2245146930217743,-20.130342483520508,-0.4269309639930725,-2.5015292167663574,0.19351522624492645,0
6,0.02499222755432129,-0.24825400114059448,-19.745019912719727,-0.2245146930217743,20.130342483520508,0.4269309639930725,2.5015292167663574,-0.19351522624492645,0.0,0.0,0.0,0.0,0.0,0.0,0.0,-0.21228539887971776,-0.015322093649182635,-0.05795021281253128,0.38488239394871376,-0.15597382374600577,0.12080406843288741,-0.22834885508965824,1.213306920507234,-0.22031617038151474,-0.007555079425376216,-2.60377624203866,-0.10874063562349322,2.468184757921431,0.8264680407273008,1.2134413937687574,-0.2202432315892585,-0.0075118285948192216,-2.6038483821997875,-0.10888392708698907,2.4681821257803174,0.826474908251239,0.0006806356164907396,-0.0004154387861376712,-0.0009069032402309298,0.0007165414854193963,0.00015412821646430453,-0.0004848406008303745,-0.0014510055193422723,0.0,0.0,0.0,0.0,0.0,0.0,0.0,0.00013447326152338235,7.293879225625521e-05,4.325083055699459e-05,-7.214016112744304e-05,-0.00014329146349585653,-2.6321411135121764e-06,6.867523938192122e-06,-0.0006806356164907396,0.0004154387861376712,0.0009069032402309298,-0.0007165414854193963,-0.00015412821646430453,0.0004848406008303745,0.0014510055193422723,0.24825400114059448,19.745019912719727,0.2245146930217743,-20.130342483520508,-0.4269309639930725,-2.5015292167663574,0.19351522624492645,0
7,0.029992341995239258,-0.24825400114059448,-19.792627334594727,-0.2483184039592743,20.154146194458008,0.4214377999305725,2.4951205253601074,-0.22830526530742645,0.0,0.0,0.0,0.0,0.0,0.0,0.0,-0.21318344406978856,-0.013104900729360568,-0.05596666914740746,0.38220241523786874,-0.15646932478259423,0.11967474922397921,-0.22747052585997204,1.2133069206162497,-0.2203117797912026,-0.007553484964388151,-2.603777912474515,-0.10874231559950831,2.4681854699982537,0.8264730778843932,1.2134413937687574,-0.2202432315892585,-0.0075118285948192216,-2.6038483821997875,-0.10888392708698907,2.4681821257803174,0.826474908251239,0.0009613064081590913,0.0008069493243821175,-0.0005205067087763911,-0.00013724083828789448,0.00026147883697682427,-8.109913440080005e-05,0.00028805830179833095,0.0,0.0,0.0,0.0,0.0,0.0,0.0,0.00013447315250769698,6.854820194410194e-05,4.165636956892944e-05,-7.046972527247064e-05,-0.0001416114874807639,-3.3442179363518676e-06,1.8303668458674593e-06,-0.0009613064081590913,-0.0008069493243821175,0.0005205067087763911,0.00013724083828789448,-0.00026147883697682427,8.109913440080005e-05,-0.00028805830179833095,0.24825400114059448,19.792627334594727,0.2483184039592743,-20.154146194458008,-0.4214377999305725,-2.4951205253601074,0.22830526530742645,0
8,0.03502535820007324,-0.24825400114059448,-19.792627334594727,-0.2483184039592743,20.154146194458008,0.4214377999305725,2.4951205253601074,-0.22830526530742645,0.0,0.0,0.0,0.0,0.0,0.0,0.0,-0.21318344406978856,-0.013104900729360568,-0.05596666914740746,0.38220241523786874,-0.15646932478259423,0.11967474922397921,-0.22747052585997204,1.2133069206162497,-0.2203117797912026,-0.007553484964388151,-2.603777912474515,-0.10874231559950831,2.4681854699982537,0.8264730778843932,1.2134413937687574,-0.2202432315892585,-0.0075118285948192216,-2.6038483821997875,-0.10888392708698907,2.4681821257803174,0.826474908251239,0.0009613064081590913,0.0008069493243821175,-0.0005205067087763911,-0.00013724083828789448,0.00026147883697682427,-8.109913440080005e-05,0.00028805830179833095,0.0,0.0,0.0,0.0,0.0,0.0,0.0,0.00013447315250769698,6.854820194410194e-05,4.165636956892944e-05,-7.046972527247064e-05,-0.0001416114874807639,-3.3442179363518676e-06,1.8303668458674593e-06,-0.0009613064081590913,-0.0008069493243821175,0.0005205067087763911,0.00013724083828789448,-0.00026147883697682427,8.109913440080005e-05,-0.00028805830179833095,0.24825400114059448,19.792627334594727,0.2483184039592743,-20.154146194458008,-0.4214377999305725,-2.4951205253601074,0.22830526530742645,0
9,0.040032148361206055,-0.24825400114059448,-19.792627334594727,-0.2483184039592743,20.154146194458008,0.4214377999305725,2.4951205253601074,-0.22830526530742645,0.0,0.0,0.0,0.0,0.0,0.0,0.0,-0.21318344406978856,-0.013104900729360568,-0.05596666914740746,0.38220241523786874,-0.15646932478259423,0.11967474922397921,-0.22747052585997204,1.2133069206162497,-0.2203117797912026,-0.007553484964388151,-2.603777912474515,-0.10874231559950831,2.4681854699982537,0.8264730778843932,1.2134413937687574,-0.2202432315892585,-0.0075118285948192216,-2.6038483821997875,-0.10888392708698907,2.4681821257803174,0.826474908251239,0.0009613064081590913,0.0008069493243821175,-0.0005205067087763911,-0.00013724083828789448,0.00026147883697682427,-8.109913440080005e-05,0.00028805830179833095,0.0,0.0,0.0,0.0,0.0,0.0,0.0,0.00013447315250769698,6.854820194410194e-05,4.165636956892944e-05,-7.046972527247064e-05,-0.0001416114874807639,-3.3442179363518676e-06,1.8303668458674593e-06,-0.0009613064081590913,-0.0008069493243821175,0.0005205067087763911,0.00013724083828789448,-0.00026147883697682427,8.109913440080005e-05,-0.00028805830179833095,0.24825400114059448,19.792627334594727,0.2483184039592743,-20.154146194458008,-0.4214377999305725,-2.4951205253601074,0.22830526530742645,0
10,0.04494762420654297,-0.24825400114059448,-19.792627334594727,-0.2483184039592743,20.154146194458008,0.4214377999305725,2.4951205253601074,-0.22830526530742645,0.0,0.0,0.0,0.0,0.0,0.0,0.0,-0.21318344406978856,-0.013104900729360568,-0.05596666914740746,0.38220241523786874,-0.15646932478259423,0.11967474922397921,-0.22747052585997204,1.2133069206162497,-0.2203117797912026,-0.007553484964388151,-2.603777912474515,-0.10874231559950831,2.4681854699982537,0.8264730778843932,1.2134413937687574,-0.2202432315892585,-0.0075118285948192216,-2.6038483821997875,-0.10888392708698907,2.4681821257803174,0.826474908251239,0.0009613064081590913,0.0008069493243821175,-0.0005205067087763911,-0.00013724083828789448,0.00026147883697682427,-8.109913440080005e-05,0.00028805830179833095,0.0,0.0,0.0,0.0,0.0,0.0,0.0,0.00013447315250769698,6.854820194410194e-05,4.165636956892944e-05,-7.046972527247064e-05,-0.0001416114874807639,-3.3442179363518676e-06,1.8303668458674593e-06,-0.0009613064081590913,-0.0008069493243821175,0.0005205067087763911,0.00013724083828789448,-0.00026147883697682427,8.109913440080005e-05,-0.00028805830179833095,0.24825400114059448,19.792627334594727,0.2483184039592743,-20.154146194458008,-0.4214377999305725,-2.4951205253601074,0.22830526530742645,0
11,0.04999589920043945,-0.19667929410934448,-19.745019912719727,-0.2721221148967743,20.181917190551758,0.4214377999305725,2.4887118339538574,-0.26217979192733765,0.0,0.0,0.0,0.0,0.0,0.0,0.0,-0.21141707486379477,-0.01916396058401276,-0.055092226772560204,0.38720862467755857,-0.1564521245217572,0.12041283549363939,-0.22759064415652033,1.2133033013385637,-0.22031593380462322,-0.007551738542067589,-2.603779861316346,-0.10873895843188802,2.4681861820750766,0.8264800338851438,1.2134413937687574,-0.2202432315892585,-0.0075118285948192216,-2.6038483821997875,-0.10888392708698907,2.4681821257803174,0.826474908251239,-7.702534288040394e-05,-0.0006487730514566136,0.00035236289953318866,-0.0003147597737691633,0.00032414601989451435,0.0002907153659745231,0.0017032268541464586,0.0,0.0,0.0,0.0,0.0,0.0,0.0,0.00013809243019369255,7.270221536473387e-05,3.9909947248367716e-05,-6.852088344144747e-05,-0.00014496865510105206,-4.056294759191559e-06,-5.125633904756732e-06,7.702534288040394e-05,0.0006487730514566136,-0.00035236289953318866,0.0003147597737691633,-0.00032414601989451435,-0.0002907153659745231,-0.0017032268541464586,0.19667929410934448,19.745019912719727,0.2721221148967743,-20.181917190551758,-0.4214377999305725,-2.4887118339538574,0.26217979192733765,0
12,0.054939985275268555,-0.19667929410934448,-19.745019912719727,-0.2721221148967743,20.181917190551758,0.4214377999305725,2.4887118339538574,-0.26217979192733765,0.0,0.0,0.0,0.0,0.0,0.0,0.0,-0.21141707486379477,-0.01916396058401276,-0.055092226772560204,0.38720862467755857,-0.1564521245217572,0.12041283549363939,-0.22759064415652033,1.2133033013385637,-0.22031593380462322,-0.007551738542067589,-2.603779861316346,-0.10873895843188802,2.4681861820750766,0.8264800338851438,1.2134413937687574,-0.2202432315892585,-0.0075118285948192216,-2.6038483821997875,-0.10888392708698907,2.4681821257803174,0.826474908251239,-7.702534288040394e-05,-0.0006487730514566136,0.00035236289953318866,-0.0003147597737691633,0.00032414601989451435,0.0002907153659745231,0.0017032268541464586,0.0,0.0,0.0,0.0,0.0,0.0,0.0,0.00013809243019369255,7.270221536473387e-05,3.9909947248367716e-05,-6.852088344144747e-05,-0.00014496865510105206,-4.056294759191559e-06,-5.125633904756732e-06,7.702534288040394e-05,0.0006487730514566136,-0.00035236289953318866,0.0003147597737691633,-0.00032414601989451435,-0.0002907153659745231,-0.0017032268541464586,0.19667929410934448,19.745019912719727,0.2721221148967743,-20.181917190551758,-0.4214377999305725,-2.4887118339538574,0.26217979192733765,0
13,0.059996843338012695,-0.19667929410934448,-19.745019912719727,-0.2483184039592743,20.154146194458008,0.4269309639930725,2.4951205253601074,-0.22098104655742645,0.0,0.0,0.0,0.0,0.0,0.0,0.0,-0.2160066403527208,-0.012330872020489957,-0.06187915511801422,0.3822987594155823,-0.15613316820169995,0.11902836868075814,-0.22847552017751802,1.2133033013385637,-0.2203159331980653,-0.0075534089774939054,-2.6037779094220594,-0.10873956871032728,2.4681854699803085,0.8264710925290009,1.2134413937687574,-0.2202432315892585,-0.0075118285948192216,-2.6038483821997875,-0.10888392708698907,2.4681821257803174,0.826474908251239,-0.0004785438004710132,-0.00016666554097729812,-0.00036168711403850235,0.0002476061683749133,0.00022571481294458216,-0.0003671625816506043,-0.0004084430066159957,0.0,0.0,0.0,0.0,0.0,0.0,0.0,0.00013809243019369255,7.270160880681886e-05,4.158038267468387e-05,-7.047277772809224e-05,-0.00014435837666179618,-3.3441999911509868e-06,3.815722238176278e-06,0.0004785438004710132,0.00016666554097729812,0.00036168711403850235,-0.0002476061683749133,-0.00022571481294458216,0.0003671625816506043,0.0004084430066159957,0.19667929410934448,19.745019912719727,0.2483184039592743,-20.154146194458008,-0.4269309639930725,-2.4951205253601074,0.22098104655742645,0
14,0.06499314308166504,-0.19667929410934448,-19.745019912719727,-0.2483184039592743,20.154146194458008,0.4269309639930725,2.4951205253601074,-0.22098104655742645,0.0,0.0,0.0,0.0,0.0,0.0,0.0,-0.2160066403527208,-0.012330872020489957,-0.06187915511801422,0.3822987594155823,-0.15613316820169995,0.11902836868075814,-0.22847552017751802,1.2133033013385637,-0.2203159331980653,-0.0075534089774939054,-2.6037779094220594,-0.10873956871032728,2.4681854699803085,0.8264710925290009,1.2134413937687574,-0.2202432315892585,-0.0075118285948192216,-2.6038483821997875,-0.10888392708698907,2.4681821257803174,0.826474908251239,-0.0004785438004710132,-0.00016666554097729812,-0.00036168711403850235,0.0002476061683749133,0.00022571481294458216,-0.0003671625816506043,-0.0004084430066159957,0.0,0.0,0.0,0.0,0.0,0.0,0.0,0.00013809243019369255,7.270160880681886e-05,4.158038267468387e-05,-7.047277772809224e-05,-0.00014435837666179618,-3.3441999911509868e-06,3.815722238176278e-06,0.0004785438004710132,0.00016666554097729812,0.00036168711403850235,-0.0002476061683749133,-0.00022571481294458216,0.0003671625816506043,0.0004084430066159957,0.19667929410934448,19.745019912719727,0.2483184039592743,-20.154146194458008,-0.4269309639930725,-2.4951205253601074,0.22098104655742645,0
15,0.07001614570617676,-0.22445029020309448,-19.768823623657227,-0.2721221148967743,20.130342483520508,0.4214377999305725,2.4951205253601074,-0.20724813640117645,0.0,0.0,0.0,0.0,0.0,0.0,0.0,-0.21747035352160304,-0.011381828581792775,-0.06309576056654964,0.384130432403151,-0.1555029603097797,0.11847059121824112,-0.22901138154430037,1.2133052501803947,-0.22031439506971762,-0.0075518174511056725,-2.6037762420386428,-0.108742170305082,2.4681854699982537,0.8264738576837373,1.2134413937687574,-0.2202432315892585,-0.0075118285948192216,-2.6038483821997875,-0.10888392708698907,2.4681821257803174,0.826474908251239,0.00030094561717935325,0.0005730089332776083,0.0001045990776968559,0.0007496287316784299,0.00023116702618114054,-0.0002857922166220687,-0.000851006923802754,0.0,0.0,0.0,0.0,0.0,0.0,0.0,0.00013614358836266938,7.11634804591299e-05,3.998885628645095e-05,-7.214016114476252e-05,-0.00014175678190707364,-3.3442179363518676e-06,1.0505675017702387e-06,-0.00030094561717935325,-0.0005730089332776083,-0.0001045990776968559,-0.0007496287316784299,-0.00023116702618114054,0.0002857922166220687,0.000851006923802754,0.22445029020309448,19.768823623657227,0.2721221148967743,-20.130342483520508,-0.4214377999305725,-2.4951205253601074,0.20724813640117645,0
16,0.07500290870666504,-0.22445029020309448,-19.768823623657227,-0.2721221148967743,20.130342483520508,0.4214377999305725,2.4951205253601074,-0.20724813640117645,0.0,0.0,0.0,0.0,0.0,0.0,0.0,-0.21747035352160304,-0.011381828581792775,-0.06309576056654964,0.384130432403151,-0.1555029603097797,0.11847059121824112,-0.22901138154430037,1.2133052501803947,-0.22031439506971762,-0.0075518174511056725,-2.6037762420386428,-0.108742170305082,2.4681854699982537,0.8264738576837373,1.2134413937687574,-0.2202432315892585,-0.0075118285948192216,-2.6038483821997875,-0.10888392708698907,2.4681821257803174,0.826474908251239,0.00030094561717935325,0.0005730089332776083,0.0001045990776968559,0.0007496287316784299,0.00023116702618114054,-0.0002857922166220687,-0.000851006923802754,0.0,0.0,0.0,0.0,0.0,0.0,0.0,0.00013614358836266938,7.11634804591299e-05,3.998885628645095e-05,-7.214016114476252e-05,-0.00014175678190707364,-3.3442179363518676e-06,1.0505675017702387e-06,-0.00030094561717935325,-0.0005730089332776083,-0.0001045990776968559,-0.0007496287316784299,-0.00023116702618114054,0.0002857922166220687,0.000851006923802754,0.22445029020309448,19.768823623657227,0.2721221148967743,-20.130342483520508,-0.4214377999305725,-2.4951205253601074,0.20724813640117645,0
17,0.07999253273010254,-0.17287558317184448,-19.745019912719727,-0.2721221148967743,20.106538772583008,0.4269309639930725,2.4951205253601074,-0.20083944499492645,0.0,0.0,0.0,0.0,0.0,0.0,0.0,-0.21470492886473666,-0.006587870479297544,-0.0621384638687771,0.38190592010405244,-0.15595466247047646,0.11739735100545716,-0.22819632710423565,1.2133016309027085,-0.220316170452984,-0.00755174146465694,-2.6037745716028047,-0.10873992414874789,2.4681854699982537,0.8264692078020155,1.2134413937687574,-0.2202432315892585,-0.0075118285948192216,-2.6038483821997875,-0.10888392708698907,2.4681821257803174,0.826474908251239,-0.0009803784088281548,0.00042954950194941377,0.0001371723861889328,0.0014536753212466657,0.00019058233422539038,-0.0003435752092689165,-0.0012415878152111876,0.0,0.0,0.0,0.0,0.0,0.0,0.0,0.000139762866048887,7.29388637255024e-05,3.99128698377188e-05,-7.381059698285952e-05,-0.00014400293824118338,-3.3442179363518676e-06,5.700449223544624e-06,0.0009803784088281548,-0.00042954950194941377,-0.0001371723861889328,-0.0014536753212466657,-0.00019058233422539038,0.0003435752092689165,0.0012415878152111876,0.17287558317184448,19.745019912719727,0.2721221148967743,-20.106538772583008,-0.4269309639930725,-2.4951205253601074,0.20083944499492645,0
18,0.08499264717102051,-0.17287558317184448,-19.745019912719727,-0.2721221148967743,20.106538772583008,0.4269309639930725,2.4951205253601074,-0.20083944499492645,0.0,0.0,0.0,0.0,0.0,0.0,0.0,-0.21470492886473666,-0.006587870479297544,-0.0621384638687771,0.38190592010405244,-0.15595466247047646,0.11739735100545716,-0.22819632710423565,1.2133016309027085,-0.220316170452984,-0.00755174146465694,-2.6037745716028047,-0.10873992414874789,2.4681854699982537,0.8264692078020155,1.2134413937687574,-0.2202432315892585,-0.0075118285948192216,-2.6038483821997875,-0.10888392708698907,2.4681821257803174,0.826474908251239,-0.0009803784088281548,0.00042954950194941377,0.0001371723861889328,0.0014536753212466657,0.00019058233422539038,-0.0003435752092689165,-0.0012415878152111876,0.0,0.0,0.0,0.0,0.0,0.0,0.0,0.000139762866048887,7.29388637255024e-05,3.99128698377188e-05,-7.381059698285952e-05,-0.00014400293824118338,-3.3442179363518676e-06,5.700449223544624e-06,0.0009803784088281548,-0.00042954950194941377,-0.0001371723861889328,-0.0014536753212466657,-0.00019058233422539038,0.0003435752092689165,0.0012415878152111876,0.17287558317184448,19.745019912719727,0.2721221148967743,-20.106538772583008,-0.4269309639930725,-2.4951205253601074,0.20083944499492645,0
19,0.08999514579772949,-0.22445029020309448,-19.717248916625977,-0.2721221148967743,20.154146194458008,0.4452415108680725,2.4951205253601074,-0.22098104655742645,0.0,0.0,0.0,0.0,0.0,0.0,0.0,-0.21494392081839994,-0.008828224772125495,-0.06319908980802766,0.38460145711714283,-0.15551487121571236,0.11801558352195937,-0.22785384595369074,1.2133052501803947,-0.22031811918740069,-0.007551738541655141,-2.603777912474515,-0.10874160955562664,2.4681854699982537,0.8264721467774158,1.2134413937687574,-0.2202432315892585,-0.0075118285948192216,-2.6038483821997875,-0.10888392708698907,2.4681821257803174,0.826474908251239,0.0002518240424589551,-0.000347410907863732,0.0005406700449708683,0.00032541042915268414,-0.00033347389700583033,-0.00015062661425750598,-0.0001369353185352991,0.0,0.0,0.0,0.0,0.0,0.0,0.0,0.00013614358836266938,7.488759814219814e-05,3.990994683591986e-05,-7.046972527247064e-05,-0.0001423175313624292,-3.3442179363518676e-06,2.7614738232761837e-06,-0.0002518240424589551,0.000347410907863732,-0.0005406700449708683,-0.00032541042915268414,0.00033347389700583033,0.00015062661425750598,0.0001369353185352991,0.22445029020309448,19.717248916625977,0.2721221148967743,-20.154146194458008,-0.4452415108680725,-2.4951205253601074,0.22098104655742645,0
20,0.09499478340148926,-0.22445029020309448,-19.717248916625977,-0.2721221148967743,20.154146194458008,0.4452415108680725,2.4951205253601074,-0.22098104655742645,0.0,0.0,0.0,0.0,0.0,0.0,0.0,-0.21494392081839994,-0.008828224772125495,-0.06319908980802766,0.38460145711714283,-0.15551487121571236,0.11801558352195937,-0.22785384595369074,1.2133052501803947,-0.22031811918740069,-0.007551738541655141,-2.603777912474515,-0.10874160955562664,2.4681854699982537,0.8264721467774158,1.2134413937687574,-0.2202432315892585,-0.0075118285948192216,-2.6038483821997875,-0.10888392708698907,2.4681821257803174,0.826474908251239,0.0002518240424589551,-0.000347410907863732,0.0005406700449708683,0.00032541042915268414,-0.00033347389700583033,-0.00015062661425750598,-0.0001369353185352991,0.0,0.0,0.0,0.0,0.0,0.0,0.0,0.00013614358836266938,7.488759814219814e-05,3.990994683591986e-05,-7.046972527247064e-05,-0.0001423175313624292,-3.3442179363518676e-06,2.7614738232761837e-06,-0.0002518240424589551,0.000347410907863732,-0.0005406700449708683,-0.00032541042915268414,0.00033347389700583033,0.00015062661425750598,0.0001369353185352991,0.22445029020309448,19.717248916625977,0.2721221148967743,-20.154146194458008,-0.4452415108680725,-2.4951205253601074,0.22098104655742645,0
21,0.09999680519104004,-0.19667929410934448,-19.745019912719727,-0.2483184039592743,20.154146194458008,0.4333396553993225,2.4951205253601074,-0.25485557317733765,0.0,0.0,0.0,0.0,0.0,0.0,0.0,-0.21380799036372408,-0.007525072865908641,-0.061842023748754506,0.3844727958343948,-0.15480596533409136,0.11860138636953453,-0.2282918255573993,1.2133033013385637,-0.22031614424391147,-0.007553408977493905,-2.603777912474515,-0.10874138800183167,2.4681854699982537,0.8264748637384758,1.2134413937687574,-0.2202432315892585,-0.0075118285948192216,-2.6038483821997875,-0.10888392708698907,2.4681821257803174,0.826474908251239,-0.0005184466616350526,-0.00020128804012126621,-0.00010637715345539471,0.000423295476578446,-0.0001429217980389946,-0.0001301023019988896,0.001133660645957894,0.0,0.0,0.0,0.0,0.0,0.0,0.0,0.00013809243019369255,7.291265465297903e-05,4.1580382674683e-05,-7.046972527247064e-05,-0.000142539085157406,-3.3442179363518676e-06,4.451276325312392e-08,0.0005184466616350526,0.00020128804012126621,0.00010637715345539471,-0.000423295476578446,0.0001429217980389946,0.0001301023019988896,-0.001133660645957894,0.19667929410934448,19.745019912719727,0.2483184039592743,-20.154146194458008,-0.4333396553993225,-2.4951205253601074,0.25485557317733765,0
22,0.10502362251281738,-0.19667929410934448,-19.745019912719727,-0.2483184039592743,20.154146194458008,0.4333396553993225,2.4951205253601074,-0.25485557317733765,0.0,0.0,0.0,0.0,0.0,0.0,0.0,-0.21380799036372408,-0.007525072865908641,-0.061842023748754506,0.3844727958343948,-0.15480596533409136,0.11860138636953453,-0.2282918255573993,1.2133033013385637,-0.22031614424391147,-0.007553408977493905,-2.603777912474515,-0.10874138800183167,2.4681854699982537,0.8264748637384758,1.2134413937687574,-0.2202432315892585,-0.0075118285948192216,-2.6038483821997875,-0.10888392708698907,2.4681821257803174,0.826474908251239,-0.0005184466616350526,-0.00020128804012126621,-0.00010637715345539471,0.000423295476578446,-0.0001429217980389946,-0.0001301023019988896,0.001133660645957894,0.0,0.0,0.0,0.0,0.0,0.0,0.0,0.00013809243019369255,7.291265465297903e-05,4.1580382674683e-05,-7.046972527247064e-05,-0.000142539085157406,-3.3442179363518676e-06,4.451276325312392e-08,0.0005184466616350526,0.00020128804012126621,0.00010637715345539471,-0.000423295476578446,0.0001429217980389946,0.0001301023019988896,-0.001133660645957894,0.19667929410934448,19.745019912719727,0.2483184039592743,-20.154146194458008,-0.4333396553993225,-2.4951205253601074,0.25485557317733765,0
23,0.10999798774719238,-0.19667929410934448,-19.745019912719727,-0.2245146930217743,20.181917190551758,0.4269309639930725,2.4951205253601074,-0.22830526530742645,0.0,0.0,0.0,0.0,0.0,0.0,0.0,-0.21329209348472097,-0.011127119455610523,-0.06205109181377343,0.3839278931058948,-0.15516725457109157,0.11890714525477536,-0.22895121483834222,1.2133033013385637,-0.2203151469084322,-0.0075550794133491675,-2.603779861316346,-0.10874064001540983,2.4681854699982537,0.8264730036995372,1.2134413937687574,-0.2202432315892585,-0.0075118285948192216,-2.6038483821997875,-0.10888392708698907,2.4681821257803174,0.826474908251239,-0.000601569481704312,-0.0007793310210156116,-0.0006491165728451182,-0.0006135834812720225,-4.141399134139835e-05,-0.0001941962109132527,0.00010238928778834785,0.0,0.0,0.0,0.0,0.0,0.0,0.0,0.00013809243019369255,7.191531917372096e-05,4.3250818529945965e-05,-6.852088344144747e-05,-0.00014328707157924836,-3.3442179363518676e-06,1.9045517017923785e-06,0.000601569481704312,0.0007793310210156116,0.0006491165728451182,0.0006135834812720225,4.141399134139835e-05,0.0001941962109132527,-0.00010238928778834785,0.19667929410934448,19.745019912719727,0.2245146930217743,-20.181917190551758,-0.4269309639930725,-2.4951205253601074,0.22830526530742645,0
24,0.11499166488647461,-0.19667929410934448,-19.745019912719727,-0.2245146930217743,20.181917190551758,0.4269309639930725,2.4951205253601074,-0.22830526530742645,0.0,0.0,0.0,0.0,0.0,0.0,0.0,-0.21329209348472097,-0.011127119455610523,-0.06205109181377343,0.3839278931058948,-0.15516725457109157,0.11890714525477536,-0.22895121483834222,1.2133033013385637,-0.2203151469084322,-0.0075550794133491675,-2.603779861316346,-0.10874064001540983,2.4681854699982537,0.8264730036995372,1.2134413937687574,-0.2202432315892585,-0.0075118285948192216,-2.6038483821997875,-0.10888392708698907,2.4681821257803174,0.826474908251239,-0.000601569481704312,-0.0007793310210156116,-0.0006491165728451182,-0.0006135834812720225,-4.141399134139835e-05,-0.0001941962109132527,0.00010238928778834785,0.0,0.0,0.0,0.0,0.0,0.0,0.0,0.00013809243019369255,7.191531917372096e-05,4.3250818529945965e-05,-6.852088344144747e-05,-0.00014328707157924836,-3.3442179363518676e-06,1.9045517017923785e-06,0.000601569481704312,0.0007793310210156116,0.0006491165728451182,0.0006135834812720225,4.141399134139835e-05,0.0001941962109132527,-0.00010238928778834785,0.19667929410934448,19.745019912719727,0.2245146930217743,-20.181917190551758,-0.4269309639930725,-2.4951205253601074,0.22830526530742645,0
25,0.1199486255645752,-0.22445029020309448,-19.745019912719727,-0.2998931109905243,20.130342483520508,0.4388328194618225,2.5015292167663574,-0.19351522624492645,0.0,0.0,0.0,0.0,0.0,0.0,0.0,-0.21497757609985846,-0.00958575280057552,-0.06202689703239698,0.38285102168097157,-0.15557251434116764,0.11913475970442534,-0.22922247922225805,1.2133052501803947,-0.22031617047224447,-0.00754978980805094,-2.603776267548467,-0.10874124657714442,2.468184757921431,0.8264683886108402,1.2134413937687574,-0.2202432315892585,-0.0075118285948192216,-2.6038483821997875,-0.10888392708698907,2.4681821257803174,0.826474908251239,0.0004215075533670691,-0.00022698341935233068,0.0006756845755687963,0.0008217014052500373,-0.00041098198521299136,-0.00031987036553110136,-0.0015357301373884694,0.0,0.0,0.0,0.0,0.0,0.0,0.0,0.00013614358836266938,7.29388829859845e-05,3.796121323171829e-05,-7.211465132073158e-05,-0.00014268050984465874,-2.6321411135121764e-06,6.5196403988831975e-06,-0.0004215075533670691,0.00022698341935233068,-0.0006756845755687963,-0.0008217014052500373,0.00041098198521299136,0.00031987036553110136,0.0015357301373884694,0.22445029020309448,19.745019912719727,0.2998931109905243,-20.130342483520508,-0.4388328194618225,-2.5015292167663574,0.19351522624492645,0
26,0.12501740455627441,-0.22445029020309448,-19.745019912719727,-0.2998931109905243,20.130342483520508,0.4388328194618225,2.5015292167663574,-0.19351522624492645,0.0,0.0,0.0,0.0,0.0,0.0,0.0,-0.21497757609985846,-0.00958575280057552,-0.06202689703239698,0.38285102168097157,-0.15557251434116764,0.11913475970442534,-0.22922247922225805,1.2133052501803947,-0.22031617047224447,-0.00754978980805094,-2.603776267548467,-0.10874124657714442,2.468184757921431,0.8264683886108402,1.2134413937687574,-0.2202432315892585,-0.0075118285948192216,-2.6038483821997875,-0.10888392708698907,2.4681821257803174,0.826474908251239,0.0004215075533670691,-0.00022698341935233068,0.0006756845755687963,0.0008217014052500373,-0.00041098198521299136,-0.00031987036553110136,-0.0015357301373884694,0.0,0.0,0.0,0.0,0.0,0.0,0.0,0.00013614358836266938,7.29388829859845e-05,3.796121323171829e-05,-7.211465132073158e-05,-0.00014268050984465874,-2.6321411135121764e-06,6.5196403988831975e-06,-0.0004215075533670691,0.00022698341935233068,-0.0006756845755687963,-0.0008217014052500373,0.00041098198521299136,0.00031987036553110136,0.0015357301373884694,0.22445029020309448,19.745019912719727,0.2998931109905243,-20.130342483520508,-0.4388328194618225,-2.5015292167663574,0.19351522624492645,0
27,0.13001799583435059,-0.24825400114059448,-19.745019912719727,-0.2721221148967743,20.154146194458008,0.4269309639930725,2.4887118339538574,-0.26217979192733765,0.0,0.0,0.0,0.0,0.0,0.0,0.0,-0.21623902270949708,-0.016727199422232098,-0.0629576848603772,0.38372241529853074,-0.15542743507691129,0.12012863223647809,-0.22874731307582458,1.2133069206162501,-0.22031616951751715,-0.007551738866369161,-2.603777912474563,-0.10874288614760086,2.4681861820750766,0.8264760320579398,1.2134413937687574,-0.2202432315892585,-0.0075118285948192216,-2.6038483821997875,-0.10888392708698907,2.4681821257803174,0.826474908251239,0.0007075379086106682,-0.0006571516228031973,0.00021479343822300147,7.197613913345023e-05,0.00014673429271247672,9.067632954742626e-05,0.0013565685575768515,0.0,0.0,0.0,0.0,0.0,0.0,0.0,0.0001344731525072529,7.293792825865952e-05,3.9910271549939424e-05,-7.0469725224509e-05,-0.00014104093938821505,-4.056294759191559e-06,-1.1238067008090269e-06,-0.0007075379086106682,0.0006571516228031973,-0.00021479343822300147,-7.197613913345023e-05,-0.00014673429271247672,-9.067632954742626e-05,-0.0013565685575768515,0.24825400114059448,19.745019912719727,0.2721221148967743,-20.154146194458008,-0.4269309639930725,-2.4887118339538574,0.26217979192733765,0
28,0.13501691818237305,-0.24825400114059448,-19.745019912719727,-0.2721221148967743,20.154146194458008,0.4269309639930725,2.4887118339538574,-0.26217979192733765,0.0,0.0,0.0,0.0,0.0,0.0,0.0,-0.21623902270949708,-0.016727199422232098,-0.0629576848603772,0.38372241529853074,-0.15542743507691129,0.12012863223647809,-0.22874731307582458,1.2133069206162501,-0.22031616951751715,-0.007551738866369161,-2.603777912474563,-0.10874288614760086,2.4681861820750766,0.8264760320579398,1.2134413937687574,-0.2202432315892585,-0.0075118285948192216,-2.6038483821997875,-0.10888392708698907,2.4681821257803174,0.826474908251239,0.0007075379086106682,-0.0006571516228031973,0.00021479343822300147,7.197613913345023e-05,0.00014673429271247672,9.067632954742626e-05,0.0013565685575768515,0.0,0.0,0.0,0.0,0.0,0.0,0.0,0.0001344731525072529,7.293792825865952e-05,3.9910271549939424e-05,-7.0469725224509e-05,-0.00014104093938821505,-4.056294759191559e-06,-1.1238067008090269e-06,-0.0007075379086106682,0.0006571516228031973,-0.00021479343822300147,-7.197613913345023e-05,-0.00014673429271247672,-9.067632954742626e-05,-0.0013565685575768515,0.24825400114059448,19.745019912719727,0.2721221148967743,-20.154146194458008,-0.4269309639930725,-2.4887118339538574,0.26217979192733765,0
29,0.1400308609008789,-0.24825400114059448,-19.745019912719727,-0.2721221148967743,20.154146194458008,0.4269309639930725,2.4887118339538574,-0.26217979192733765,0.0,0.0,0.0,0.0,0.0,0.0,0.0,-0.21623902270949708,-0.016727199422232098,-0.0629576848603772,0.38372241529853074,-0.15542743507691129,0.12012863223647809,-0.22874731307582458,1.2133069206162501,-0.22031616951751715,-0.007551738866369161,-2.603777912474563,-0.10874288614760086,2.4681861820750766,0.8264760320579398,1.2134413937687574,-0.2202432315892585,-0.0075118285948192216,-2.6038483821997875,-0.10888392708698907,2.4681821257803174,0.826474908251239,0.0007075379086106682,-0.0006571516228031973,0.00021479343822300147,7.197613913345023e-05,0.00014673429271247672,9.067632954742626e-05,0.0013565685575768515,0.0,0.0,0.0,0.0,0.0,0.0,0.0,0.0001344731525072529,7.293792825865952e-05,3.9910271549939424e-05,-7.0469725224509e-05,-0.00014104093938821505,-4.056294759191559e-06,-1.1238067008090269e-06,-0.0007075379086106682,0.0006571516228031973,-0.00021479343822300147,-7.197613913345023e-05,-0.00014673429271247672,-9.067632954742626e-05,-0.0013565685575768515,0.24825400114059448,19.745019912719727,0.2721221148967743,-20.154146194458008,-0.4269309639930725,-2.4887118339538574,0.26217979192733765,0
30,0.1450212001800537,-0.24825400114059448,-19.745019912719727,-0.2721221148967743,20.154146194458008,0.4269309639930725,2.4887118339538574,-0.26217979192733765,0.0,0.0,0.0,0.0,0.0,0.0,0.0,-0.21623902270949708,-0.016727199422232098,-0.0629576848603772,0.38372241529853074,-0.15542743507691129,0.12012863223647809,-0.22874731307582458,1.2133069206162501,-0.22031616951751715,-0.007551738866369161,-2.603777912474563,-0.10874288614760086,2.4681861820750766,0.8264760320579398,1.2134413937687574,-0.2202432315892585,-0.0075118285948192216,-2.6038483821997875,-0.10888392708698907,2.4681821257803174,0.826474908251239,0.0007075379086106682,-0.0006571516228031973,0.00021479343822300147,7.197613913345023e-05,0.00014673429271247672,9.067632954742626e-05,0.0013565685575768515,0.0,0.0,0.0,0.0,0.0,0.0,0.0,0.0001344731525072529,7.293792825865952e-05,3.9910271549939424e-05,-7.0469725224509e-05,-0.00014104093938821505,-4.056294759191559e-06,-1.1238067008090269e-06,-0.0007075379086106682,0.0006571516228031973,-0.00021479343822300147,-7.197613913345023e-05,-0.00014673429271247672,-9.067632954742626e-05,-0.0013565685575768515,0.24825400114059448,19.745019912719727,0.2721221148967743,-20.154146194458008,-0.4269309639930725,-2.4887118339538574,0.26217979192733765,0
31,0.15003347396850586,-0.22445029020309448,-19.717248916625977,-0.2721221148967743,20.154146194458008,0.4214377999305725,2.4951205253601074,-0.21457235515117645,0.0,0.0,0.0,0.0,0.0,0.0,0.0,-0.2177861498292973,-0.014292224583424655,-0.06485839350635687,0.38088025173334755,-0.1552251497468142,0.120554151509653,-0.22898665406330002,1.2133052501803947,-0.22031809308574157,-0.007551738974613008,-2.603777912474515,-0.10874006557965281,2.4681854699982537,0.8264707338368081,1.2134413937687574,-0.2202432315892585,-0.0075118285948192216,-2.6038483821997875,-0.10888392708698907,2.4681821257803174,0.826474908251239,0.0001906994206498547,-0.0008015153981318561,-7.223689436925755e-05,0.00014810533888349109,0.00022960424261275848,3.523608911116428e-05,-0.0007865762017064481,0.0,0.0,0.0,0.0,0.0,0.0,0.0,0.00013614358836266938,7.486149648308627e-05,3.991037979378647e-05,-7.046972527247064e-05,-0.00014386150733626535,-3.3442179363518676e-06,4.17441443090194e-06,-0.0001906994206498547,0.0008015153981318561,7.223689436925755e-05,-0.00014810533888349109,-0.00022960424261275848,-3.523608911116428e-05,0.0007865762017064481,0.22445029020309448,19.717248916625977,0.2721221148967743,-20.154146194458008,-0.4214377999305725,-2.4951205253601074,0.21457235515117645,0
32,0.15706348419189453,-0.17287558317184448,-19.792627334594727,-0.2998931109905243,20.181917190551758,0.4214377999305725,2.4823031425476074,-0.22830526530742645,0.0,0.0,0.0,0.0,0.0,0.0,0.0,-0.21894493814998647,-0.01406767629338061,-0.06815424313863046,0.38072074113833687,-0.1551173902214718,0.12150670912838905,-0.23038269804237424,1.2133016309027085,-0.22030999411366248,-0.007549789699809945,-2.603779861203292,-0.10874219663876113,2.4681868941518994,0.826472266805351,1.2134413937687574,-0.2202432315892585,-0.0075118285948192216,-2.6038483821997875,-0.10888392708698907,2.4681821257803174,0.826474908251239,-0.0013214287374887475,0.0012616647159871194,0.00022977661556022695,-0.0003186887147741603,0.0004335582452830259,0.00040240897343307914,-0.00011441042481648098,0.0,0.0,0.0,0.0,0.0,0.0,0.0,0.000139762866048887,6.676252440399044e-05,3.796110499072313e-05,-6.852099649545806e-05,-0.00014173044822794745,-4.76837158203125e-06,2.641445888018623e-06,0.0013214287374887475,-0.0012616647159871194,-0.00022977661556022695,0.0003186887147741603,-0.0004335582452830259,-0.00040240897343307914,0.00011441042481648098,0.17287558317184448,19.792627334594727,0.2998931109905243,-20.181917190551758,-0.4214377999305725,-2.4823031425476074,0.22830526530742645,0
33,0.16003155708312988,-0.17287558317184448,-19.792627334594727,-0.2998931109905243,20.181917190551758,0.4214377999305725,2.4823031425476074,-0.22830526530742645,0.0,0.0,0.0,0.0,0.0,0.0,0.0,-0.21894493814998647,-0.01406767629338061,-0.06815424313863046,0.38072074113833687,-0.1551173902214718,0.12150670912838905,-0.23038269804237424,1.2133016309027085,-0.22030999411366248,-0.007549789699809945,-2.603779861203292,-0.10874219663876113,2.4681868941518994,0.826472266805351,1.2134413937687574,-0.2202432315892585,-0.0075118285948192216,-2.6038483821997875,-0.10888392708698907,2.4681821257803174,0.826474908251239,-0.0013214287374887475,0.0012616647159871194,0.00022977661556022695,-0.0003186887147741603,0.0004335582452830259,0.00040240897343307914,-0.00011441042481648098,0.0,0.0,0.0,0.0,0.0,0.0,0.0,0.000139762866048887,6.676252440399044e-05,3.796110499072313e-05,-6.852099649545806e-05,-0.00014173044822794745,-4.76837158203125e-06,2.641445888018623e-06,0.0013214287374887475,-0.0012616647159871194,-0.00022977661556022695,0.0003186887147741603,-0.0004335582452830259,-0.00040240897343307914,0.00011441042481648098,0.17287558317184448,19.792627334594727,0.2998931109905243,-20.181917190551758,-0.4214377999305725,-2.4823031425476074,0.22830526530742645,0
34,0.16502976417541504,-0.17287558317184448,-19.792627334594727,-0.2998931109905243,20.181917190551758,0.4214377999305725,2.4823031425476074,-0.22830526530742645,0.0,0.0,0.0,0.0,0.0,0.0,0.0,-0.21894493814998647,-0.01406767629338061,-0.06815424313863046,0.38072074113833687,-0.1551173902214718,0.12150670912838905,-0.23038269804237424,1.2133016309027085,-0.22030999411366248,-0.007549789699809945,-2.603779861203292,-0.10874219663876113,2.4681868941518994,0.826472266805351,1.2134413937687574,-0.2202432315892585,-0.0075118285948192216,-2.6038483821997875,-0.10888392708698907,2.4681821257803174,0.826474908251239,-0.0013214287374887475,0.0012616647159871194,0.00022977661556022695,-0.0003186887147741603,0.0004335582452830259,0.00040240897343307914,-0.00011441042481648098,0.0,0.0,0.0,0.0,0.0,0.0,0.0,0.000139762866048887,6.676252440399044e-05,3.796110499072313e-05,-6.852099649545806e-05,-0.00014173044822794745,-4.76837158203125e-06,2.641445888018623e-06,0.0013214287374887475,-0.0012616647159871194,-0.00022977661556022695,0.0003186887147741603,-0.0004335582452830259,-0.00040240897343307914,0.00011441042481648098,0.17287558317184448,19.792627334594727,0.2998931109905243,-20.181917190551758,-0.4214377999305725,-2.4823031425476074,0.22830526530742645,0
35,0.17002129554748535,-0.22445029020309448,-19.768823623657227,-0.2721221148967743,20.130342483520508,0.4333396553993225,2.4951205253601074,-0.22830526530742645,0.0,0.0,0.0,0.0,0.0,0.0,0.0,-0.2104326626458376,-0.008635959910517235,-0.06344357990062366,0.3728618770079531,-0.1559453777956059,0.12055970025621833,-0.23110125652697144,1.2133052501803947,-0.22031447087586534,-0.007551738541638641,-2.6037762420386596,-0.1087402808596019,2.4681854699982537,0.826472977537626,1.2134413937687574,-0.2202432315892585,-0.0075118285948192216,-2.6038483821997875,-0.10888392708698907,2.4681821257803174,0.826474908251239,0.0003257339915629851,0.00044724718841064804,0.0003213537904731554,-5.04680495733474e-05,-0.00011700143155951195,-0.0003319248023329066,-0.0003937575291086488,0.0,0.0,0.0,0.0,0.0,0.0,0.0,0.00013614358836266938,7.123928660685008e-05,3.990994681941917e-05,-7.214016112788713e-05,-0.0001436462273871758,-3.3442179363518676e-06,1.9307136129853575e-06,-0.0003257339915629851,-0.00044724718841064804,-0.0003213537904731554,5.04680495733474e-05,0.00011700143155951195,0.0003319248023329066,0.0003937575291086488,0.22445029020309448,19.768823623657227,0.2721221148967743,-20.130342483520508,-0.4333396553993225,-2.4951205253601074,0.22830526530742645,0
36,0.17503094673156738,-0.22445029020309448,-19.768823623657227,-0.2721221148967743,20.130342483520508,0.4333396553993225,2.4951205253601074,-0.22830526530742645,0.0,0.0,0.0,0.0,0.0,0.0,0.0,-0.2104326626458376,-0.008635959910517235,-0.06344357990062366,0.3728618770079531,-0.1559453777956059,0.12055970025621833,-0.23110125652697144,1.2133052501803947,-0.22031447087586534,-0.007551738541638641,-2.6037762420386596,-0.1087402808596019,2.4681854699982537,0.826472977537626,1.2134413937687574,-0.2202432315892585,-0.0075118285948192216,-2.6038483821997875,-0.10888392708698907,2.4681821257803174,0.826474908251239,0.0003257339915629851,0.00044724718841064804,0.0003213537904731554,-5.04680495733474e-05,-0.00011700143155951195,-0.0003319248023329066,-0.0003937575291086488,0.0,0.0,0.0,0.0,0.0,0.0,0.0,0.00013614358836266938,7.123928660685008e-05,3.990994681941917e-05,-7.214016112788713e-05,-0.0001436462273871758,-3.3442179363518676e-06,1.9307136129853575e-06,-0.0003257339915629851,-0.00044724718841064804,-0.0003213537904731554,5.04680495733474e-05,0.00011700143155951195,0.0003319248023329066,0.0003937575291086488,0.22445029020309448,19.768823623657227,0.2721221148967743,-20.130342483520508,-0.4333396553993225,-2.4951205253601074,0.22830526530742645,0
37,0.18003058433532715,-0.24825400114059448,-19.745019912719727,-0.2483184039592743,20.181917190551758,0.4214377999305725,2.4951205253601074,-0.20083944499492645,0.0,0.0,0.0,0.0,0.0,0.0,0.0,-0.21454238413504376,-0.011098469640642613,-0.06701224425734846,0.3783246495329195,-0.15544477128658907,0.12120999634718176,-0.22977101495636645,1.2133069206162501,-0.22031616141683807,-0.007553408977493905,-2.603779861316346,-0.10873895835876504,2.4681854699982537,0.8264730888706666,1.2134413937687574,-0.2202432315892585,-0.0075118285948192216,-2.6038483821997875,-0.10888392708698907,2.4681821257803174,0.826474908251239,0.0005071053142808492,-0.00021732217741801568,-1.2071045716740258e-06,-0.0006462463785961801,0.0002611994332930977,-0.00025020446562312823,-0.0008757212231238453,0.0,0.0,0.0,0.0,0.0,0.0,0.0,0.0001344731525072529,7.292982757958755e-05,4.1580382674683e-05,-6.852088344144747e-05,-0.00014496872822403195,-3.3442179363518676e-06,1.8193805724209255e-06,-0.0005071053142808492,0.00021732217741801568,1.2071045716740258e-06,0.0006462463785961801,-0.0002611994332930977,0.00025020446562312823,0.0008757212231238453,0.24825400114059448,19.745019912719727,0.2483184039592743,-20.181917190551758,-0.4214377999305725,-2.4951205253601074,0.20083944499492645,0
38,0.18503117561340332,-0.24825400114059448,-19.745019912719727,-0.2483184039592743,20.181917190551758,0.4214377999305725,2.4951205253601074,-0.20083944499492645,0.0,0.0,0.0,0.0,0.0,0.0,0.0,-0.21454238413504376,-0.011098469640642613,-0.06701224425734846,0.3783246495329195,-0.15544477128658907,0.12120999634718176,-0.22977101495636645,1.2133069206162501,-0.22031616141683807,-0.007553408977493905,-2.603779861316346,-0.10873895835876504,2.4681854699982537,0.8264730888706666,1.2134413937687574,-0.2202432315892585,-0.0075118285948192216,-2.6038483821997875,-0.10888392708698907,2.4681821257803174,0.826474908251239,0.0005071053142808492,-0.00021732217741801568,-1.2071045716740258e-06,-0.0006462463785961801,0.0002611994332930977,-0.00025020446562312823,-0.0008757212231238453,0.0,0.0,0.0,0.0,0.0,0.0,0.0,0.0001344731525072529,7.292982757958755e-05,4.1580382674683e-05,-6.852088344144747e-05,-0.00014496872822403195,-3.3442179363518676e-06,1.8193805724209255e-06,-0.0005071053142808492,0.00021732217741801568,1.2071045716740258e-06,0.0006462463785961801,-0.0002611994332930977,0.00025020446562312823,0.0008757212231238453,0.24825400114059448,19.745019912719727,0.2483184039592743,-20.181917190551758,-0.4214377999305725,-2.4951205253601074,0.20083944499492645,0
39,0.1900324821472168,-0.19667929410934448,-19.745019912719727,-0.2721221148967743,20.106538772583008,0.4333396553993225,2.4951205253601074,-0.22098104655742645,0.0,0.0,0.0,0.0,0.0,0.0,0.0,-0.2106684709562034,-0.01683387734807508,-0.05949106342615948,0.38013501147073503,-0.15657880111998002,0.12067749301536031,-0.22909732556349025,1.2133033013385637,-0.2203140095963085,-0.007551738541638641,-2.6037745716028047,-0.10874043875172304,2.4681854699982537,0.8264743881738038,1.2134413937687574,-0.2202432315892585,-0.0075118285948192216,-2.6038483821997875,-0.10888392708698907,2.4681821257803174,0.826474908251239,0.0003225200434624311,-0.0006260109683212662,0.0004230288496249344,0.0013985443684598198,-0.00021396624886653166,-0.00012583095563390575,-0.0003616724611890479,0.0,0.0,0.0,0.0,0.0,0.0,0.0,0.00013809243019369255,7.07780070500208e-05,3.990994681941917e-05,-7.381059698285952e-05,-0.00014348833526603433,-3.3442179363518676e-06,5.200774352287496e-07,-0.0003225200434624311,0.0006260109683212662,-0.0004230288496249344,-0.0013985443684598198,0.00021396624886653166,0.00012583095563390575,0.0003616724611890479,0.19667929410934448,19.745019912719727,0.2721221148967743,-20.106538772583008,-0.4333396553993225,-2.4951205253601074,0.22098104655742645,0
40,0.1950085163116455,-0.19667929410934448,-19.745019912719727,-0.2721221148967743,20.106538772583008,0.4333396553993225,2.4951205253601074,-0.22098104655742645,0.0,0.0,0.0,0.0,0.0,0.0,0.0,-0.2106684709562034,-0.01683387734807508,-0.05949106342615948,0.38013501147073503,-0.15657880111998002,0.12067749301536031,-0.22909732556349025,1.2133033013385637,-0.2203140095963085,-0.007551738541638641,-2.6037745716028047,-0.10874043875172304,2.4681854699982537,0.8264743881738038,1.2134413937687574,-0.2202432315892585,-0.0075118285948192216,-2.6038483821997875,-0.10888392708698907,2.4681821257803174,0.826474908251239,0.0003225200434624311,-0.0006260109683212662,0.0004230288496249344,0.0013985443684598198,-0.00021396624886653166,-0.00012583095563390575,-0.0003616724611890479,0.0,0.0,0.0,0.0,0.0,0.0,0.0,0.00013809243019369255,7.07780070500208e-05,3.990994681941917e-05,-7.381059698285952e-05,-0.00014348833526603433,-3.3442179363518676e-06,5.200774352287496e-07,-0.0003225200434624311,0.0006260109683212662,-0.0004230288496249344,-0.0013985443684598198,0.00021396624886653166,0.00012583095563390575,0.0003616724611890479,0.19667929410934448,19.745019912719727,0.2721221148967743,-20.106538772583008,-0.4333396553993225,-2.4951205253601074,0.22098104655742645,0
41,0.20002985000610352,-0.17287558317184448,-19.745019912719727,-0.2721221148967743,20.181917190551758,0.4333396553993225,2.4823031425476074,-0.22830526530742645,0.0,0.0,0.0,0.0,0.0,0.0,0.0,-0.21174484543896202,-0.021653243595129677,-0.06273286195695667,0.38364983608764774,-0.15630577996329056,0.12037258019246845,-0.22934111690313908,1.2133016309027085,-0.22031609076831898,-0.007551738541638641,-2.603779861316346,-0.10874029400592784,2.4681868941518994,0.826471900473463,1.2134413937687574,-0.2202432315892585,-0.0075118285948192216,-2.6038483821997875,-0.10888392708698907,2.4681821257803174,0.826474908251239,-0.0006583685803563596,-0.0009002072012782179,0.0006998659647229808,-0.00010556830217187788,-0.00022527901795731743,0.0002153072921282495,-0.0003989666491890966,0.0,0.0,0.0,0.0,0.0,0.0,0.0,0.000139762866048887,7.28591790604971e-05,3.990994681941917e-05,-6.852088344144747e-05,-0.0001436330810612313,-4.76837158203125e-06,3.0077777760650903e-06,0.0006583685803563596,0.0009002072012782179,-0.0006998659647229808,0.00010556830217187788,0.00022527901795731743,-0.0002153072921282495,0.0003989666491890966,0.17287558317184448,19.745019912719727,0.2721221148967743,-20.181917190551758,-0.4333396553993225,-2.4823031425476074,0.22830526530742645,0
42,0.2050313949584961,-0.17287558317184448,-19.745019912719727,-0.2721221148967743,20.181917190551758,0.4333396553993225,2.4823031425476074,-0.22830526530742645,0.0,0.0,0.0,0.0,0.0,0.0,0.0,-0.21174484543896202,-0.021653243595129677,-0.06273286195695667,0.38364983608764774,-0.15630577996329056,0.12037258019246845,-0.22934111690313908,1.2133016309027085,-0.22031609076831898,-0.007551738541638641,-2.603779861316346,-0.10874029400592784,2.4681868941518994,0.826471900473463,1.2134413937687574,-0.2202432315892585,-0.0075118285948192216,-2.6038483821997875,-0.10888392708698907,2.4681821257803174,0.826474908251239,-0.0006583685803563596,-0.0009002072012782179,0.0006998659647229808,-0.00010556830217187788,-0.00022527901795731743,0.0002153072921282495,-0.0003989666491890966,0.0,0.0,0.0,0.0,0.0,0.0,0.0,0.000139762866048887,7.28591790604971e-05,3.990994681941917e-05,-6.852088344144747e-05,-0.0001436330810612313,-4.76837158203125e-06,3.0077777760650903e-06,0.0006583685803563596,0.0009002072012782179,-0.0006998659647229808,0.00010556830217187788,0.00022527901795731743,-0.0002153072921282495,0.0003989666491890966,0.17287558317184448,19.745019912719727,0.2721221148967743,-20.181917190551758,-0.4333396553993225,-2.4823031425476074,0.22830526530742645,0
43,0.21002459526062012,-0.22445029020309448,-19.768823623657227,-0.2483184039592743,20.181917190551758,0.4214377999305725,2.4887118339538574,-0.22830526530742645,0.0,0.0,0.0,0.0,0.0,0.0,0.0,-0.20685694480512085,-0.015113133557905202,-0.05926042353476329,0.3822036419908717,-0.15622594802287182,0.1187915007373175,-0.2301953593983205,1.2133052472369557,-0.22031355520927495,-0.007553409302224222,-2.603779861316346,-0.10873895835883926,2.4681861820750766,0.8264729620310222,1.2134413937687574,-0.2202432315892585,-0.0075118285948192216,-2.6038483821997875,-0.10888392708698907,2.4681821257803174,0.826474908251239,0.00042142865600912566,0.00047036386578589714,0.0003868617189676551,0.00012998380219413015,0.00034108689031699,3.164803585562359e-05,0.00013015506882001389,0.0,0.0,0.0,0.0,0.0,0.0,0.0,0.00013614653180171743,7.032362001646586e-05,4.158070740500029e-05,-6.852088344144747e-05,-0.00014496872814981354,-4.056294759191559e-06,1.946220216875183e-06,-0.00042142865600912566,-0.00047036386578589714,-0.0003868617189676551,-0.00012998380219413015,-0.00034108689031699,-3.164803585562359e-05,-0.00013015506882001389,0.22445029020309448,19.768823623657227,0.2483184039592743,-20.181917190551758,-0.4214377999305725,-2.4887118339538574,0.22830526530742645,0
44,0.21501898765563965,-0.22445029020309448,-19.768823623657227,-0.2483184039592743,20.181917190551758,0.4214377999305725,2.4887118339538574,-0.22830526530742645,0.0,0.0,0.0,0.0,0.0,0.0,0.0,-0.20685694480512085,-0.015113133557905202,-0.05926042353476329,0.3822036419908717,-0.15622594802287182,0.1187915007373175,-0.2301953593983205,1.2133052472369557,-0.22031355520927495,-0.007553409302224222,-2.603779861316346,-0.10873895835883926,2.4681861820750766,0.8264729620310222,1.2134413937687574,-0.2202432315892585,-0.0075118285948192216,-2.6038483821997875,-0.10888392708698907,2.4681821257803174,0.826474908251239,0.00042142865600912566,0.00047036386578589714,0.0003868617189676551,0.00012998380219413015,0.00034108689031699,3.164803585562359e-05,0.00013015506882001389,0.0,0.0,0.0,0.0,0.0,0.0,0.0,0.00013614653180171743,7.032362001646586e-05,4.158070740500029e-05,-6.852088344144747e-05,-0.00014496872814981354,-4.056294759191559e-06,1.946220216875183e-06,-0.00042142865600912566,-0.00047036386578589714,-0.0003868617189676551,-0.00012998380219413015,-0.00034108689031699,-3.164803585562359e-05,-0.00013015506882001389,0.22445029020309448,19.768823623657227,0.2483184039592743,-20.181917190551758,-0.4214377999305725,-2.4887118339538574,0.22830526530742645,0
45,0.2200324535369873,-0.19667929410934448,-19.792627334594727,-0.2483184039592743,20.181917190551758,0.4333396553993225,2.4823031425476074,-0.24844686686992645,0.0,0.0,0.0,0.0,0.0,0.0,0.0,-0.21468092068625835,-0.010493716732501246,-0.06412219140880401,0.3800776583489107,-0.15592815000140028,0.11781367096713248,-0.23146928982931658,1.2133033013385472,-0.22031272362180418,-0.007553408977495737,-2.603779861316346,-0.10874029395086446,2.4681868936673825,0.826478507788587,1.2134413937687574,-0.2202432315892585,-0.0075118285948192216,-2.6038483821997875,-0.10888392708698907,2.4681821257803174,0.826474908251239,-0.0010743067846142541,0.0013563780250379956,-3.3453573638970255e-05,-0.0006561955596201193,-0.00019355518941034595,0.000496786096164044,0.0008236486826785602,0.0,0.0,0.0,0.0,0.0,0.0,0.0,0.00013809243021012385,6.94920325456927e-05,4.158038267651574e-05,-6.852088344144747e-05,-0.0001436331361246157,-4.767887065160181e-06,-3.5995373479646986e-06,0.0010743067846142541,-0.0013563780250379956,3.3453573638970255e-05,0.0006561955596201193,0.00019355518941034595,-0.000496786096164044,-0.0008236486826785602,0.19667929410934448,19.792627334594727,0.2483184039592743,-20.181917190551758,-0.4333396553993225,-2.4823031425476074,0.24844686686992645,0
46,0.2250204086303711,-0.19667929410934448,-19.792627334594727,-0.2483184039592743,20.181917190551758,0.4333396553993225,2.4823031425476074,-0.24844686686992645,0.0,0.0,0.0,0.0,0.0,0.0,0.0,-0.21468092068625835,-0.010493716732501246,-0.06412219140880401,0.3800776583489107,-0.15592815000140028,0.11781367096713248,-0.23146928982931658,1.2133033013385472,-0.22031272362180418,-0.007553408977495737,-2.603779861316346,-0.10874029395086446,2.4681868936673825,0.826478507788587,1.2134413937687574,-0.2202432315892585,-0.0075118285948192216,-2.6038483821997875,-0.10888392708698907,2.4681821257803174,0.826474908251239,-0.0010743067846142541,0.0013563780250379956,-3.3453573638970255e-05,-0.0006561955596201193,-0.00019355518941034595,0.000496786096164044,0.0008236486826785602,0.0,0.0,0.0,0.0,0.0,0.0,0.0,0.00013809243021012385,6.94920325456927e-05,4.158038267651574e-05,-6.852088344144747e-05,-0.0001436331361246157,-4.767887065160181e-06,-3.5995373479646986e-06,0.0010743067846142541,-0.0013563780250379956,3.3453573638970255e-05,0.0006561955596201193,0.00019355518941034595,-0.000496786096164044,-0.0008236486826785602,0.19667929410934448,19.792627334594727,0.2483184039592743,-20.181917190551758,-0.4333396553993225,-2.4823031425476074,0.24844686686992645,0
47,0.23003506660461426,-0.19667929410934448,-19.768823623657227,-0.2007109820842743,20.154146194458008,0.4333396553993225,2.4823031425476074,-0.25485557317733765,0.0,0.0,0.0,0.0,0.0,0.0,0.0,-0.20876360942511588,-0.013881558692086425,-0.05506019504540337,0.38401291695049794,-0.15602235141492726,0.11847275479329249,-0.23135096518472456,1.2133033013385637,-0.22031449908106357,-0.007556785028322106,-2.603777912474515,-0.10874028517512917,2.4681868941518967,0.8264752039417493,1.2134413937687574,-0.2202432315892585,-0.0075118285948192216,-2.6038483821997875,-0.10888392708698907,2.4681821257803174,0.826474908251239,-0.00012859662790611098,0.0007380103031616133,-0.0010475598518836986,2.794466627450395e-05,-0.00013750730648660843,0.00015047245470743817,0.001267884666630594,0.0,0.0,0.0,0.0,0.0,0.0,0.0,0.00013809243019369255,7.126749180508263e-05,4.495643350288427e-05,-7.046972527247064e-05,-0.00014364191185990693,-4.768371579366715e-06,-2.956905102990959e-07,0.00012859662790611098,-0.0007380103031616133,0.0010475598518836986,-2.794466627450395e-05,0.00013750730648660843,-0.00015047245470743817,-0.001267884666630594,0.19667929410934448,19.768823623657227,0.2007109820842743,-20.154146194458008,-0.4333396553993225,-2.4823031425476074,0.25485557317733765,0
48,0.23500919342041016,-0.19667929410934448,-19.768823623657227,-0.2007109820842743,20.154146194458008,0.4333396553993225,2.4823031425476074,-0.25485557317733765,0.0,0.0,0.0,0.0,0.0,0.0,0.0,-0.20876360942511588,-0.013881558692086425,-0.05506019504540337,0.38401291695049794,-0.15602235141492726,0.11847275479329249,-0.23135096518472456,1.2133033013385637,-0.22031449908106357,-0.007556785028322106,-2.603777912474515,-0.10874028517512917,2.4681868941518967,0.8264752039417493,1.2134413937687574,-0.2202432315892585,-0.0075118285948192216,-2.6038483821997875,-0.10888392708698907,2.4681821257803174,0.826474908251239,-0.00012859662790611098,0.0007380103031616133,-0.0010475598518836986,2.794466627450395e-05,-0.00013750730648660843,0.00015047245470743817,0.001267884666630594,0.0,0.0,0.0,0.0,0.0,0.0,0.0,0.00013809243019369255,7.126749180508263e-05,4.495643350288427e-05,-7.046972527247064e-05,-0.00014364191185990693,-4.768371579366715e-06,-2.956905102990959e-07,0.00012859662790611098,-0.0007380103031616133,0.0010475598518836986,-2.794466627450395e-05,0.00013750730648660843,-0.00015047245470743817,-0.001267884666630594,0.19667929410934448,19.768823623657227,0.2007109820842743,-20.154146194458008,-0.4333396553993225,-2.4823031425476074,0.25485557317733765,0
49,0.24002861976623535,-0.19667929410934448,-19.768823623657227,-0.2483184039592743,20.181917190551758,0.4269309639930725,2.5015292167663574,-0.24844686686992645,0.0,0.0,0.0,0.0,0.0,0.0,0.0,-0.212975378305183,-0.011096206393473938,-0.05836740886410269,0.3849580722887227,-0.15601335970982336,0.11735019665815356,-0.23090731562526293,1.2133033013385637,-0.22031447380805155,-0.007553409085935931,-2.603779861316346,-0.10874076666253538,2.468184757921431,0.8264773189419939,1.2134413937687574,-0.2202432315892585,-0.0075118285948192216,-2.6038483821997875,-0.10888392708698907,2.4681821257803174,0.826474908251239,-0.000542662713212099,0.0007216627089533456,7.493432461896841e-05,-0.0005509835334914292,-4.961014378323035e-05,-0.0003265850126266298,0.001038161741185397,0.0,0.0,0.0,0.0,0.0,0.0,0.0,0.00013809243019369255,7.124221879306614e-05,4.1580491116709195e-05,-6.852088344144747e-05,-0.0001431604244536977,-2.6321411135121764e-06,-2.410690754905964e-06,0.000542662713212099,-0.0007216627089533456,-7.493432461896841e-05,0.0005509835334914292,4.961014378323035e-05,0.0003265850126266298,-0.001038161741185397,0.19667929410934448,19.768823623657227,0.2483184039592743,-20.181917190551758,-0.4269309639930725,-2.5015292167663574,0.24844686686992645,0
50,0.24509167671203613,-0.19667929410934448,-19.768823623657227,-0.2483184039592743,20.181917190551758,0.4269309639930725,2.5015292167663574,-0.24844686686992645,0.0,0.0,0.0,0.0,0.0,0.0,0.0,-0.212975378305183,-0.011096206393473938,-0.05836740886410269,0.3849580722887227,-0.15601335970982336,0.11735019665815356,-0.23090731562526293,1.2133033013385637,-0.22031447380805155,-0.007553409085935931,-2.603779861316346,-0.10874076666253538,2.468184757921431,0.8264773189419939,1.2134413937687574,-0.2202432315892585,-0.0075118285948192216,-2.6038483821997875,-0.10888392708698907,2.4681821257803174,0.826474908251239,-0.000542662713212099,0.0007216627089533456,7.493432461896841e-05,-0.0005509835334914292,-4.961014378323035e-05,-0.0003265850126266298,0.001038161741185397,0.0,0.0,0.0,0.0,0.0,0.0,0.0,0.00013809243019369255,7.124221879306614e-05,4.1580491116709195e-05,-6.852088344144747e-05,-0.0001431604244536977,-2.6321411135121764e-06,-2.410690754905964e-06,0.000542662713212099,-0.0007216627089533456,-7.493432461896841e-05,0.0005509835334914292,4.961014378323035e-05,0.0003265850126266298,-0.001038161741185397,0.19667929410934448,19.768823623657227,0.2483184039592743,-20.181917190551758,-0.4269309639930725,-2.5015292167663574,0.24844686686992645,0
51,0.25003767013549805,-0.22445029020309448,-19.717248916625977,-0.2998931109905243,20.154146194458008,0.4269309639930725,2.5015292167663574,-0.20724813640117645,0.0,0.0,0.0,0.0,0.0,0.0,0.0,-0.21488077068446937,-0.015039774786892942,-0.05962044815007898,0.3914461954241213,-0.15599107169141696,0.11868173935172405,-0.23021869732535435,1.2133052501803947,-0.22031599343226488,-0.007549789699808113,-2.603777912474515,-0.1087395688796046,2.468184757921431,0.8264742838610564,1.2134413937687574,-0.2202432315892585,-0.0075118285948192216,-2.6038483821997875,-0.10888392708698907,2.4681821257803174,0.826474908251239,-5.227161249488881e-05,-0.0009010579003402264,0.0007803078101186549,0.0008593780895919841,-0.00016877249234857055,-0.0002459260726694906,-0.0009360915829744998,0.0,0.0,0.0,0.0,0.0,0.0,0.0,0.00013614358836266938,7.276184300639144e-05,3.796110498889126e-05,-7.046972527247064e-05,-0.00014435820738446792,-2.6321411135121764e-06,6.243901826685772e-07,5.227161249488881e-05,0.0009010579003402264,-0.0007803078101186549,-0.0008593780895919841,0.00016877249234857055,0.0002459260726694906,0.0009360915829744998,0.22445029020309448,19.717248916625977,0.2998931109905243,-20.154146194458008,-0.4269309639930725,-2.5015292167663574,0.20724813640117645,0
52,0.25503110885620117,-0.22445029020309448,-19.717248916625977,-0.2998931109905243,20.154146194458008,0.4269309639930725,2.5015292167663574,-0.20724813640117645,0.0,0.0,0.0,0.0,0.0,0.0,0.0,-0.21488077068446937,-0.015039774786892942,-0.05962044815007898,0.3914461954241213,-0.15599107169141696,0.11868173935172405,-0.23021869732535435,1.2133052501803947,-0.22031599343226488,-0.007549789699808113,-2.603777912474515,-0.1087395688796046,2.468184757921431,0.8264742838610564,1.2134413937687574,-0.2202432315892585,-0.0075118285948192216,-2.6038483821997875,-0.10888392708698907,2.4681821257803174,0.826474908251239,-5.227161249488881e-05,-0.0009010579003402264,0.0007803078101186549,0.0008593780895919841,-0.00016877249234857055,-0.0002459260726694906,-0.0009360915829744998,0.0,0.0,0.0,0.0,0.0,0.0,0.0,0.00013614358836266938,7.276184300639144e-05,3.796110498889126e-05,-7.046972527247064e-05,-0.00014435820738446792,-2.6321411135121764e-06,6.243901826685772e-07,5.227161249488881e-05,0.0009010579003402264,-0.0007803078101186549,-0.0008593780895919841,0.00016877249234857055,0.0002459260726694906,0.0009360915829744998,0.22445029020309448,19.717248916625977,0.2998931109905243,-20.154146194458008,-0.4269309639930725,-2.5015292167663574,0.20724813640117645,0
53,0.26001930236816406,-0.22445029020309448,-19.816431045532227,-0.2007109820842743,20.154146194458008,0.4269309639930725,2.4823031425476074,-0.20083944499492645,0.0,0.0,0.0,0.0,0.0,0.0,0.0,-0.2134406090431047,-0.015556465061242428,-0.056889159963232065,0.3890586497040073,-0.15683240787648903,0.11928523805035696,-0.22998751188956662,1.2133052500713786,-0.22031115038545454,-0.0075567498492044305,-2.603777912474515,-0.10873960966410627,2.4681868941518994,0.8264689061119924,1.2134413937687574,-0.2202432315892585,-0.0075118285948192216,-2.6038483821997875,-0.10888392708698907,2.4681821257803174,0.826474908251239,-0.00013055444790920033,0.0009430879970908423,-0.00149659054305793,0.0005786804728262636,-2.3225702451898934e-05,0.000342725960882746,-0.0011605697570020654,0.0,0.0,0.0,0.0,0.0,0.0,0.0,0.00013614369737879883,6.791879619605368e-05,4.492125438520893e-05,-7.046972527247064e-05,-0.00014431742288280314,-4.76837158203125e-06,6.002139246619187e-06,0.00013055444790920033,-0.0009430879970908423,0.00149659054305793,-0.0005786804728262636,2.3225702451898934e-05,-0.000342725960882746,0.0011605697570020654,0.22445029020309448,19.816431045532227,0.2007109820842743,-20.154146194458008,-0.4269309639930725,-2.4823031425476074,0.20083944499492645,0
54,0.2650313377380371,-0.22445029020309448,-19.816431045532227,-0.2007109820842743,20.154146194458008,0.4269309639930725,2.4823031425476074,-0.20083944499492645,0.0,0.0,0.0,0.0,0.0,0.0,0.0,-0.2134406090431047,-0.015556465061242428,-0.056889159963232065,0.3890586497040073,-0.15683240787648903,0.11928523805035696,-0.22998751188956662,1.2133052500713786,-0.22031115038545454,-0.0075567498492044305,-2.603777912474515,-0.10873960966410627,2.4681868941518994,0.8264689061119924,1.2134413937687574,-0.2202432315892585,-0.0075118285948192216,-2.6038483821997875,-0.10888392708698907,2.4681821257803174,0.826474908251239,-0.00013055444790920033,0.0009430879970908423,-0.00149659054305793,0.0005786804728262636,-2.3225702451898934e-05,0.000342725960882746,-0.0011605697570020654,0.0,0.0,0.0,0.0,0.0,0.0,0.0,0.00013614369737879883,6.791879619605368e-05,4.492125438520893e-05,-7.046972527247064e-05,-0.00014431742288280314,-4.76837158203125e-06,6.002139246619187e-06,0.00013055444790920033,-0.0009430879970908423,0.00149659054305793,-0.0005786804728262636,2.3225702451898934e-05,-0.000342725960882746,0.0011605697570020654,0.22445029020309448,19.816431045532227,0.2007109820842743,-20.154146194458008,-0.4269309639930725,-2.4823031425476074,0.20083944499492645,0
55,0.2700316905975342,-0.22445029020309448,-19.816431045532227,-0.2007109820842743,20.154146194458008,0.4269309639930725,2.4823031425476074,-0.20083944499492645,0.0,0.0,0.0,0.0,0.0,0.0,0.0,-0.2134406090431047,-0.015556465061242428,-0.056889159963232065,0.3890586497040073,-0.15683240787648903,0.11928523805035696,-0.22998751188956662,1.2133052500713786,-0.22031115038545454,-0.0075567498492044305,-2.603777912474515,-0.10873960966410627,2.4681868941518994,0.8264689061119924,1.2134413937687574,-0.2202432315892585,-0.0075118285948192216,-2.6038483821997875,-0.10888392708698907,2.4681821257803174,0.826474908251239,-0.00013055444790920033,0.0009430879970908423,-0.00149659054305793,0.0005786804728262636,-2.3225702451898934e-05,0.000342725960882746,-0.0011605697570020654,0.0,0.0,0.0,0.0,0.0,0.0,0.0,0.00013614369737879883,6.791879619605368e-05,4.492125438520893e-05,-7.046972527247064e-05,-0.00014431742288280314,-4.76837158203125e-06,6.002139246619187e-06,0.00013055444790920033,-0.0009430879970908423,0.00149659054305793,-0.0005786804728262636,2.3225702451898934e-05,-0.000342725960882746,0.0011605697570020654,0.22445029020309448,19.816431045532227,0.2007109820842743,-20.154146194458008,-0.4269309639930725,-2.4823031425476074,0.20083944499492645,0
56,0.27501893043518066,-0.22445029020309448,-19.816431045532227,-0.2007109820842743,20.154146194458008,0.4269309639930725,2.4823031425476074,-0.20083944499492645,0.0,0.0,0.0,0.0,0.0,0.0,0.0,-0.2134406090431047,-0.015556465061242428,-0.056889159963232065,0.3890586497040073,-0.15683240787648903,0.11928523805035696,-0.22998751188956662,1.2133052500713786,-0.22031115038545454,-0.0075567498492044305,-2.603777912474515,-0.10873960966410627,2.4681868941518994,0.8264689061119924,1.2134413937687574,-0.2202432315892585,-0.0075118285948192216,-2.6038483821997875,-0.10888392708698907,2.4681821257803174,0.826474908251239,-0.00013055444790920033,0.0009430879970908423,-0.00149659054305793,0.0005786804728262636,-2.3225702451898934e-05,0.000342725960882746,-0.0011605697570020654,0.0,0.0,0.0,0.0,0.0,0.0,0.0,0.00013614369737879883,6.791879619605368e-05,4.492125438520893e-05,-7.046972527247064e-05,-0.00014431742288280314,-4.76837158203125e-06,6.002139246619187e-06,0.00013055444790920033,-0.0009430879970908423,0.00149659054305793,-0.0005786804728262636,2.3225702451898934e-05,-0.000342725960882746,0.0011605697570020654,0.22445029020309448,19.816431045532227,0.2007109820842743,-20.154146194458008,-0.4269309639930725,-2.4823031425476074,0.20083944499492645,0
57,0.27999210357666016,-0.24825400114059448,-19.792627334594727,-0.2721221148967743,20.130342483520508,0.4333396553993225,2.4823031425476074,-0.22830526530742645,0.0,0.0,0.0,0.0,0.0,0.0,0.0,-0.21908554006108985,-0.013451593759496512,-0.06161900142884385,0.3836772119638606,-0.15710849049453085,0.1187392405145485,-0.23001129662618006,1.2133069206162497,-0.22030999497781587,-0.007553869097248503,-2.60377624203866,-0.10874064937138486,2.4681868941518994,0.8264723074492187,1.2134413937687574,-0.2202432315892585,-0.0075118285948192216,-2.6038483821997875,-0.10888392708698907,2.4681821257803174,0.826474908251239,0.0005844968343579676,0.0007251620321586322,-1.750956562063394e-05,0.0008128741431474663,-0.00042509164955856243,0.0005685042370776599,-0.00020778995263984472,0.0,0.0,0.0,0.0,0.0,0.0,0.0,0.00013447315250769698,6.676338855737818e-05,4.204050242928147e-05,-7.214016112744304e-05,-0.00014327771560421199,-4.76837158203125e-06,2.6008020203027726e-06,-0.0005844968343579676,-0.0007251620321586322,1.750956562063394e-05,-0.0008128741431474663,0.00042509164955856243,-0.0005685042370776599,0.00020778995263984472,0.24825400114059448,19.792627334594727,0.2721221148967743,-20.130342483520508,-0.4333396553993225,-2.4823031425476074,0.22830526530742645,0
58,0.28504300117492676,-0.24825400114059448,-19.792627334594727,-0.2721221148967743,20.130342483520508,0.4333396553993225,2.4823031425476074,-0.22830526530742645,0.0,0.0,0.0,0.0,0.0,0.0,0.0,-0.21908554006108985,-0.013451593759496512,-0.06161900142884385,0.3836772119638606,-0.15710849049453085,0.1187392405145485,-0.23001129662618006,1.2133069206162497,-0.22030999497781587,-0.007553869097248503,-2.60377624203866,-0.10874064937138486,2.4681868941518994,0.8264723074492187,1.2134413937687574,-0.2202432315892585,-0.0075118285948192216,-2.6038483821997875,-0.10888392708698907,2.4681821257803174,0.826474908251239,0.0005844968343579676,0.0007251620321586322,-1.750956562063394e-05,0.0008128741431474663,-0.00042509164955856243,0.0005685042370776599,-0.00020778995263984472,0.0,0.0,0.0,0.0,0.0,0.0,0.0,0.00013447315250769698,6.676338855737818e-05,4.204050242928147e-05,-7.214016112744304e-05,-0.00014327771560421199,-4.76837158203125e-06,2.6008020203027726e-06,-0.0005844968343579676,-0.0007251620321586322,1.750956562063394e-05,-0.0008128741431474663,0.00042509164955856243,-0.0005685042370776599,0.00020778995263984472,0.24825400114059448,19.792627334594727,0.2721221148967743,-20.130342483520508,-0.4333396553993225,-2.4823031425476074,0.22830526530742645,0
59,0.29001832008361816,-0.19667929410934448,-19.745019912719727,-0.2721221148967743,20.181917190551758,0.4269309639930725,2.4951205253601074,-0.20083944499492645,0.0,0.0,0.0,0.0,0.0,0.0,0.0,-0.2505623489341584,-0.01789359841259138,-0.09623337144407977,0.38689540519308624,-0.15584399843558908,0.11908960169895208,-0.23016754740601533,1.2133033013385637,-0.22031309681439643,-0.007551738553665689,-2.603779861316346,-0.1087395702292144,2.4681854699982537,0.8264688501528611,1.2134413937687574,-0.2202432315892585,-0.0075118285948192216,-2.6038483821997875,-0.10888392708698907,2.4681821257803174,0.826474908251239,-0.000491950583224742,-0.00027933415171540354,0.0011949947125565559,-0.00038774344832863677,1.8802853039753605e-05,-0.00021897658968620434,-0.0013885573221807139,0.0,0.0,0.0,0.0,0.0,0.0,0.0,0.00013809243019369255,6.986522513793836e-05,3.99099588464678e-05,-6.852088344144747e-05,-0.000144356857774669,-3.3442179363518676e-06,6.058098377947907e-06,0.000491950583224742,0.00027933415171540354,-0.0011949947125565559,0.00038774344832863677,-1.8802853039753605e-05,0.00021897658968620434,0.0013885573221807139,0.19667929410934448,19.745019912719727,0.2721221148967743,-20.181917190551758,-0.4269309639930725,-2.4951205253601074,0.20083944499492645,0
60,0.29502415657043457,-0.19667929410934448,-19.745019912719727,-0.2721221148967743,20.181917190551758,0.4269309639930725,2.4951205253601074,-0.20083944499492645,0.0,0.0,0.0,0.0,0.0,0.0,0.0,-0.2505623489341584,-0.01789359841259138,-0.09623337144407977,0.38689540519308624,-0.15584399843558908,0.11908960169895208,-0.23016754740601533,1.2133033013385637,-0.22031309681439643,-0.007551738553665689,-2.603779861316346,-0.1087395702292144,2.4681854699982537,0.8264688501528611,1.2134413937687574,-0.2202432315892585,-0.0075118285948192216,-2.6038483821997875,-0.10888392708698907,2.4681821257803174,0.826474908251239,-0.000491950583224742,-0.00027933415171540354,0.0011949947125565559,-0.00038774344832863677,1.8802853039753605e-05,-0.00021897658968620434,-0.0013885573221807139,0.0,0.0,0.0,0.0,0.0,0.0,0.0,0.00013809243019369255,6.986522513793836e-05,3.99099588464678e-05,-6.852088344144747e-05,-0.000144356857774669,-3.3442179363518676e-06,6.058098377947907e-06,0.000491950583224742,0.00027933415171540354,-0.0011949947125565559,0.00038774344832863677,-1.8802853039753605e-05,0.00021897658968620434,0.0013885573221807139,0.19667929410934448,19.745019912719727,0.2721221148967743,-20.181917190551758,-0.4269309639930725,-2.4951205253601074,0.20083944499492645,0
61,0.3000309467315674,-0.22445029020309448,-19.717248916625977,-0.2483184039592743,20.181917190551758,0.4333396553993225,2.4887118339538574,-0.25485557317733765,0.0,0.0,0.0,0.0,0.0,0.0,0.0,-0.21848080807725964,-0.021903878425014102,-0.06252863635669396,0.38592069954668284,-0.15728910303797114,0.11970269433087295,-0.23025373582557426,1.2133052501803947,-0.2203180405410569,-0.007553411900066825,-2.603779861316346,-0.10874028094967361,2.4681861820750766,0.8264795614992242,1.2134413937687574,-0.2202432315892585,-0.0075118285948192216,-2.6038483821997875,-0.10888392708698907,2.4681821257803174,0.826474908251239,3.878910917419017e-05,-0.0009548753186551206,-0.00011465262309842739,-0.0006017463282624843,-0.00012225696906321447,0.000129205855373055,0.0013268823819348942,0.0,0.0,0.0,0.0,0.0,0.0,0.0,0.00013614358836266938,7.480895179839964e-05,4.1583305247603654e-05,-6.852088344144747e-05,-0.00014364613731546183,-4.056294759191559e-06,-4.653247985153541e-06,-3.878910917419017e-05,0.0009548753186551206,0.00011465262309842739,0.0006017463282624843,0.00012225696906321447,-0.000129205855373055,-0.0013268823819348942,0.22445029020309448,19.717248916625977,0.2483184039592743,-20.181917190551758,-0.4333396553993225,-2.4887118339538574,0.25485557317733765,0
62,0.30503416061401367,-0.22445029020309448,-19.717248916625977,-0.2483184039592743,20.181917190551758,0.4333396553993225,2.4887118339538574,-0.25485557317733765,0.0,0.0,0.0,0.0,0.0,0.0,0.0,-0.21848080807725964,-0.021903878425014102,-0.06252863635669396,0.38592069954668284,-0.15728910303797114,0.11970269433087295,-0.23025373582557426,1.2133052501803947,-0.2203180405410569,-0.007553411900066825,-2.603779861316346,-0.10874028094967361,2.4681861820750766,0.8264795614992242,1.2134413937687574,-0.2202432315892585,-0.0075118285948192216,-2.6038483821997875,-0.10888392708698907,2.4681821257803174,0.826474908251239,3.878910917419017e-05,-0.0009548753186551206,-0.00011465262309842739,-0.0006017463282624843,-0.00012225696906321447,0.000129205855373055,0.0013268823819348942,0.0,0.0,0.0,0.0,0.0,0.0,0.0,0.00013614358836266938,7.480895179839964e-05,4.1583305247603654e-05,-6.852088344144747e-05,-0.00014364613731546183,-4.056294759191559e-06,-4.653247985153541e-06,-3.878910917419017e-05,0.0009548753186551206,0.00011465262309842739,0.0006017463282624843,0.00012225696906321447,-0.000129205855373055,-0.0013268823819348942,0.22445029020309448,19.717248916625977,0.2483184039592743,-20.181917190551758,-0.4333396553993225,-2.4887118339538574,0.25485557317733765,0
63,0.31003236770629883,-0.19667929410934448,-19.792627334594727,-0.2721221148967743,20.181917190551758,0.4214377999305725,2.4823031425476074,-0.26858848333358765,0.0,0.0,0.0,0.0,0.0,0.0,0.0,-0.21130278125714375,-0.02189106330156236,-0.054615055531578915,0.38652598778582475,-0.15661569224512378,0.11950713753697846,-0.23030007667973626,1.2133033013385637,-0.22031282670123842,-0.007553869097265001,-2.603779861316346,-0.10874002461963321,2.4681868941518994,0.8264809688057829,1.2134413937687574,-0.2202432315892585,-0.0075118285948192216,-2.6038483821997875,-0.10888392708698907,2.4681821257803174,0.826474908251239,-0.0011694375240320597,0.0007571855805620672,0.000344570132328771,-0.00020791541377356929,0.0003537897611062669,0.00015438283206285983,0.0016815901656664866,0.0,0.0,0.0,0.0,0.0,0.0,0.0,0.00013809243019369255,6.959511197993096e-05,4.204050244577956e-05,-6.852088344144747e-05,-0.00014390246735586365,-4.76837158203125e-06,-6.06055454388521e-06,0.0011694375240320597,-0.0007571855805620672,-0.000344570132328771,0.00020791541377356929,-0.0003537897611062669,-0.00015438283206285983,-0.0016815901656664866,0.19667929410934448,19.792627334594727,0.2721221148967743,-20.181917190551758,-0.4214377999305725,-2.4823031425476074,0.26858848333358765,0
64,0.3150334358215332,-0.19667929410934448,-19.792627334594727,-0.2721221148967743,20.181917190551758,0.4214377999305725,2.4823031425476074,-0.26858848333358765,0.0,0.0,0.0,0.0,0.0,0.0,0.0,-0.21130278125714375,-0.02189106330156236,-0.054615055531578915,0.38652598778582475,-0.15661569224512378,0.11950713753697846,-0.23030007667973626,1.2133033013385637,-0.22031282670123842,-0.007553869097265001,-2.603779861316346,-0.10874002461963321,2.4681868941518994,0.8264809688057829,1.2134413937687574,-0.2202432315892585,-0.0075118285948192216,-2.6038483821997875,-0.10888392708698907,2.4681821257803174,0.826474908251239,-0.0011694375240320597,0.0007571855805620672,0.000344570132328771,-0.00020791541377356929,0.0003537897611062669,0.00015438283206285983,0.0016815901656664866,0.0,0.0,0.0,0.0,0.0,0.0,0.0,0.00013809243019369255,6.959511197993096e-05,4.204050244577956e-05,-6.852088344144747e-05,-0.00014390246735586365,-4.76837158203125e-06,-6.06055454388521e-06,0.0011694375240320597,-0.0007571855805620672,-0.000344570132328771,0.00020791541377356929,-0.0003537897611062669,-0.00015438283206285983,-0.0016815901656664866,0.19667929410934448,19.792627334594727,0.2721221148967743,-20.181917190551758,-0.4214377999305725,-2.4823031425476074,0.26858848333358765,0
65,0.3200080394744873,-0.22445029020309448,-19.745019912719727,-0.2998931109905243,20.154146194458008,0.4214377999305725,2.4951205253601074,-0.24844686686992645,0.0,0.0,0.0,0.0,0.0,0.0,0.0,-0.21190063142203852,-0.02034228260177203,-0.051474361847991396,0.3837908912141725,-0.15671011837101134,0.11845691677340922,-0.23010768527753053,1.2133052501803947,-0.22031614132771063,-0.007549789747915696,-2.603777912474515,-0.1087391208797765,2.4681854699982537,0.8264742954737412,1.2134413937687574,-0.2202432315892585,-0.0075118285948192216,-2.6038483821997875,-0.10888392708698907,2.4681821257803174,0.826474908251239,-0.00013769278736458813,-0.0006183750835246461,0.001148576261141205,-9.526071255023429e-05,0.00030942099709366737,-0.00025060777542972696,0.001042689106411831,0.0,0.0,0.0,0.0,0.0,0.0,0.0,0.00013614358836266938,7.290973845214266e-05,3.7961153096474284e-05,-7.046972527247064e-05,-0.00014480620721257775,-3.3442179363518676e-06,6.127774978548217e-07,0.00013769278736458813,0.0006183750835246461,-0.001148576261141205,9.526071255023429e-05,-0.00030942099709366737,0.00025060777542972696,-0.001042689106411831,0.22445029020309448,19.745019912719727,0.2998931109905243,-20.154146194458008,-0.4214377999305725,-2.4951205253601074,0.24844686686992645,0
66,0.32501745223999023,-0.22445029020309448,-19.745019912719727,-0.2998931109905243,20.154146194458008,0.4214377999305725,2.4951205253601074,-0.24844686686992645,0.0,0.0,0.0,0.0,0.0,0.0,0.0,-0.21190063142203852,-0.02034228260177203,-0.051474361847991396,0.3837908912141725,-0.15671011837101134,0.11845691677340922,-0.23010768527753053,1.2133052501803947,-0.22031614132771063,-0.007549789747915696,-2.603777912474515,-0.1087391208797765,2.4681854699982537,0.8264742954737412,1.2134413937687574,-0.2202432315892585,-0.0075118285948192216,-2.6038483821997875,-0.10888392708698907,2.4681821257803174,0.826474908251239,-0.00013769278736458813,-0.0006183750835246461,0.001148576261141205,-9.526071255023429e-05,0.00030942099709366737,-0.00025060777542972696,0.001042689106411831,0.0,0.0,0.0,0.0,0.0,0.0,0.0,0.00013614358836266938,7.290973845214266e-05,3.7961153096474284e-05,-7.046972527247064e-05,-0.00014480620721257775,-3.3442179363518676e-06,6.127774978548217e-07,0.00013769278736458813,0.0006183750835246461,-0.001148576261141205,9.526071255023429e-05,-0.00030942099709366737,0.00025060777542972696,-0.001042689106411831,0.22445029020309448,19.745019912719727,0.2998931109905243,-20.154146194458008,-0.4214377999305725,-2.4951205253601074,0.24844686686992645,0
67,0.3300340175628662,-0.19667929410934448,-19.768823623657227,-0.2721221148967743,20.130342483520508,0.4333396553993225,2.5015292167663574,-0.21457235515117645,0.0,0.0,0.0,0.0,0.0,0.0,0.0,-0.2153078321451102,-0.024050376205625834,-0.05538157214065794,0.3855783080788517,-0.15655366498391926,0.11821563814353088,-0.22932023776558136,1.2133033013385637,-0.2203141821893743,-0.00755387790104848,-2.60377624203866,-0.10874039926149723,2.468184757921431,0.8264735666269816,1.2134413937687574,-0.2202432315892585,-0.0075118285948192216,-2.6038483821997875,-0.10888392708698907,2.4681821257803174,0.826474908251239,-0.00042328151793687423,-0.00018514329553989532,2.3024561456850845e-05,0.0007265572078770129,-5.605666842623452e-05,-0.0007692319408684764,-0.0007428707948057207,0.0,0.0,0.0,0.0,0.0,0.0,0.0,0.00013809243019369255,7.095060011580445e-05,4.20493062292587e-05,-7.214016112744304e-05,-0.00014352782549184595,-2.6321411135121764e-06,1.341624257467089e-06,0.00042328151793687423,0.00018514329553989532,-2.3024561456850845e-05,-0.0007265572078770129,5.605666842623452e-05,0.0007692319408684764,0.0007428707948057207,0.19667929410934448,19.768823623657227,0.2721221148967743,-20.130342483520508,-0.4333396553993225,-2.5015292167663574,0.21457235515117645,0
68,0.33501648902893066,-0.19667929410934448,-19.768823623657227,-0.2721221148967743,20.130342483520508,0.4333396553993225,2.5015292167663574,-0.21457235515117645,0.0,0.0,0.0,0.0,0.0,0.0,0.0,-0.2153078321451102,-0.024050376205625834,-0.05538157214065794,0.3855783080788517,-0.15655366498391926,0.11821563814353088,-0.22932023776558136,1.2133033013385637,-0.2203141821893743,-0.00755387790104848,-2.60377624203866,-0.10874039926149723,2.468184757921431,0.8264735666269816,1.2134413937687574,-0.2202432315892585,-0.0075118285948192216,-2.6038483821997875,-0.10888392708698907,2.4681821257803174,0.826474908251239,-0.00042328151793687423,-0.00018514329553989532,2.3024561456850845e-05,0.0007265572078770129,-5.605666842623452e-05,-0.0007692319408684764,-0.0007428707948057207,0.0,0.0,0.0,0.0,0.0,0.0,0.0,0.00013809243019369255,7.095060011580445e-05,4.20493062292587e-05,-7.214016112744304e-05,-0.00014352782549184595,-2.6321411135121764e-06,1.341624257467089e-06,0.00042328151793687423,0.00018514329553989532,-2.3024561456850845e-05,-0.0007265572078770129,5.605666842623452e-05,0.0007692319408684764,0.0007428707948057207,0.19667929410934448,19.768823623657227,0.2721221148967743,-20.130342483520508,-0.4333396553993225,-2.5015292167663574,0.21457235515117645,0
69,0.3400306701660156,-0.17287558317184448,-19.768823623657227,-0.2483184039592743,20.154146194458008,0.4333396553993225,2.4951205253601074,-0.22830526530742645,0.0,0.0,0.0,0.0,0.0,0.0,0.0,-0.21581840338478644,-0.0259931388185177,-0.058309175422387484,0.3813049578541446,-0.15623050116310866,0.11753892744056306,-0.22939034732215932,1.2133016309027085,-0.22031166152367954,-0.007553412020386943,-2.603777912474515,-0.10874347962459345,2.4681854699982537,0.8264719067715627,1.2134413937687574,-0.2202432315892585,-0.0075118285948192216,-2.6038483821997875,-0.10888392708698907,2.4681821257803174,0.826474908251239,-0.0008286025945318708,-0.0005074475980132463,-0.00040095630710223763,-0.0001773456864369228,-7.792267947347078e-05,-7.716761701941451e-05,-0.0002802172005802107,0.0,0.0,0.0,0.0,0.0,0.0,0.0,0.000139762866048887,6.842993442104928e-05,4.158342556772124e-05,-7.046972527247064e-05,-0.00014044746239562367,-3.3442179363518676e-06,3.0014796763566665e-06,0.0008286025945318708,0.0005074475980132463,0.00040095630710223763,0.0001773456864369228,7.792267947347078e-05,7.716761701941451e-05,0.0002802172005802107,0.17287558317184448,19.768823623657227,0.2483184039592743,-20.154146194458008,-0.4333396553993225,-2.4951205253601074,0.22830526530742645,0
70,0.3450300693511963,-0.17287558317184448,-19.768823623657227,-0.2483184039592743,20.154146194458008,0.4333396553993225,2.4951205253601074,-0.22830526530742645,0.0,0.0,0.0,0.0,0.0,0.0,0.0,-0.21581840338478644,-0.0259931388185177,-0.058309175422387484,0.3813049578541446,-0.15623050116310866,0.11753892744056306,-0.22939034732215932,1.2133016309027085,-0.22031166152367954,-0.007553412020386943,-2.603777912474515,-0.10874347962459345,2.4681854699982537,0.8264719067715627,1.2134413937687574,-0.2202432315892585,-0.0075118285948192216,-2.6038483821997875,-0.10888392708698907,2.4681821257803174,0.826474908251239,-0.0008286025945318708,-0.0005074475980132463,-0.00040095630710223763,-0.0001773456864369228,-7.792267947347078e-05,-7.716761701941451e-05,-0.0002802172005802107,0.0,0.0,0.0,0.0,0.0,0.0,0.0,0.000139762866048887,6.842993442104928e-05,4.158342556772124e-05,-7.046972527247064e-05,-0.00014044746239562367,-3.3442179363518676e-06,3.0014796763566665e-06,0.0008286025945318708,0.0005074475980132463,0.00040095630710223763,0.0001773456864369228,7.792267947347078e-05,7.716761701941451e-05,0.0002802172005802107,0.17287558317184448,19.768823623657227,0.2483184039592743,-20.154146194458008,-0.4333396553993225,-2.4951205253601074,0.22830526530742645,0
71,0.35003185272216797,-0.22445029020309448,-19.792627334594727,-0.2483184039592743,20.205720901489258,0.4333396553993225,2.4887118339538574,-0.21457235515117645,0.0,0.0,0.0,0.0,0.0,0.0,0.0,-0.21869138717981387,-0.025664700798295432,-0.06140835321452915,0.38063346752336824,-0.15619056004343462,0.11851162245701116,-0.22936805969052113,1.2133052501803947,-0.22031275075683804,-0.007555542455693797,-2.603781504280102,-0.10874033351423691,2.4681861820750766,0.8264736849558876,1.2134413937687574,-0.2202432315892585,-0.0075118285948192216,-2.6038483821997875,-0.10888392708698907,2.4681821257803174,0.826474908251239,0.0004105699800701104,0.0006115591899063188,-0.00045757028548492154,-0.0009218239795543748,-0.00029848401821891564,0.0002710040198211118,-0.0006613315392266369,0.0,0.0,0.0,0.0,0.0,0.0,0.0,0.00013614358836266938,6.951916757955146e-05,4.371386087457553e-05,-6.68779196857372e-05,-0.00014359357275216256,-4.056294759191559e-06,1.2232953514601519e-06,-0.0004105699800701104,-0.0006115591899063188,0.00045757028548492154,0.0009218239795543748,0.00029848401821891564,-0.0002710040198211118,0.0006613315392266369,0.22445029020309448,19.792627334594727,0.2483184039592743,-20.205720901489258,-0.4333396553993225,-2.4887118339538574,0.21457235515117645,0
72,0.3550221920013428,-0.22445029020309448,-19.792627334594727,-0.2483184039592743,20.205720901489258,0.4333396553993225,2.4887118339538574,-0.21457235515117645,0.0,0.0,0.0,0.0,0.0,0.0,0.0,-0.21869138717981387,-0.025664700798295432,-0.06140835321452915,0.38063346752336824,-0.15619056004343462,0.11851162245701116,-0.22936805969052113,1.2133052501803947,-0.22031275075683804,-0.007555542455693797,-2.603781504280102,-0.10874033351423691,2.4681861820750766,0.8264736849558876,1.2134413937687574,-0.2202432315892585,-0.0075118285948192216,-2.6038483821997875,-0.10888392708698907,2.4681821257803174,0.826474908251239,0.0004105699800701104,0.0006115591899063188,-0.00045757028548492154,-0.0009218239795543748,-0.00029848401821891564,0.0002710040198211118,-0.0006613315392266369,0.0,0.0,0.0,0.0,0.0,0.0,0.0,0.00013614358836266938,6.951916757955146e-05,4.371386087457553e-05,-6.68779196857372e-05,-0.00014359357275216256,-4.056294759191559e-06,1.2232953514601519e-06,-0.0004105699800701104,-0.0006115591899063188,0.00045757028548492154,0.0009218239795543748,0.00029848401821891564,-0.0002710040198211118,0.0006613315392266369,0.22445029020309448,19.792627334594727,0.2483184039592743,-20.205720901489258,-0.4333396553993225,-2.4887118339538574,0.21457235515117645,0
73,0.3600327968597412,-0.24825400114059448,-19.745019912719727,-0.2721221148967743,20.154146194458008,0.4333396553993225,2.4951205253601074,-0.23471395671367645,0.0,0.0,0.0,0.0,0.0,0.0,0.0,-0.2183457388613651,-0.02779030708452977,-0.06153093302812412,0.37948356857325743,-0.1563703570601839,0.11900347398294593,-0.22893798507011598,1.2133069206162501,-0.22031371794139418,-0.00755386910929205,-2.60377791247436,-0.10874032027859094,2.4681854699982537,0.8264726517961926,1.2134413937687574,-0.2202432315892585,-0.0075118285948192216,-2.6038483821997875,-0.10888392708698907,2.4681821257803174,0.826474908251239,0.0007131309030021269,-0.0005313067198398312,0.00016699618271721873,0.0003436496497461361,-9.309915507753828e-05,-0.00015771499283881058,2.9346425775651467e-05,0.0,0.0,0.0,0.0,0.0,0.0,0.0,0.0001344731525072529,7.048635213569021e-05,4.204051447282819e-05,-7.046972542745777e-05,-0.00014360680839813067,-3.3442179363518676e-06,2.256455046478756e-06,-0.0007131309030021269,0.0005313067198398312,-0.00016699618271721873,-0.0003436496497461361,9.309915507753828e-05,0.00015771499283881058,-2.9346425775651467e-05,0.24825400114059448,19.745019912719727,0.2721221148967743,-20.154146194458008,-0.4333396553993225,-2.4951205253601074,0.23471395671367645,0
74,0.3650240898132324,-0.24825400114059448,-19.745019912719727,-0.2721221148967743,20.154146194458008,0.4333396553993225,2.4951205253601074,-0.23471395671367645,0.0,0.0,0.0,0.0,0.0,0.0,0.0,-0.2183457388613651,-0.02779030708452977,-0.06153093302812412,0.37948356857325743,-0.1563703570601839,0.11900347398294593,-0.22893798507011598,1.2133069206162501,-0.22031371794139418,-0.00755386910929205,-2.60377791247436,-0.10874032027859094,2.4681854699982537,0.8264726517961926,1.2134413937687574,-0.2202432315892585,-0.0075118285948192216,-2.6038483821997875,-0.10888392708698907,2.4681821257803174,0.826474908251239,0.0007131309030021269,-0.0005313067198398312,0.00016699618271721873,0.0003436496497461361,-9.309915507753828e-05,-0.00015771499283881058,2.9346425775651467e-05,0.0,0.0,0.0,0.0,0.0,0.0,0.0,0.0001344731525072529,7.048635213569021e-05,4.204051447282819e-05,-7.046972542745777e-05,-0.00014360680839813067,-3.3442179363518676e-06,2.256455046478756e-06,-0.0007131309030021269,0.0005313067198398312,-0.00016699618271721873,-0.0003436496497461361,9.309915507753828e-05,0.00015771499283881058,-2.9346425775651467e-05,0.24825400114059448,19.745019912719727,0.2721221148967743,-20.154146194458008,-0.4333396553993225,-2.4951205253601074,0.23471395671367645,0
75,0.369992733001709,-0.24825400114059448,-19.768823623657227,-0.2483184039592743,20.181917190551758,0.4214377999305725,2.4951205253601074,-0.20724813640117645,0.0,0.0,0.0,0.0,0.0,0.0,0.0,-0.21931309100765642,-0.021333210695996876,-0.06313361886947468,0.3758863929276192,-0.1562737505190686,0.11873222614089253,-0.23013715907402202,1.2133069206162501,-0.2203122952958752,-0.00755340909776446,-2.603779861316346,-0.10873895835898757,2.4681854699982537,0.8264738125700329,1.2134413937687574,-0.2202432315892585,-0.0075118285948192216,-2.6038483821997875,-0.10888392708698907,2.4681821257803174,0.826474908251239,0.0007379917090008932,0.00056561551415375,-0.00034478221000079157,-0.000893207278409487,0.0003706862738198782,-0.0002556348967690001,-0.001170829790898875,0.0,0.0,0.0,0.0,0.0,0.0,0.0,0.0001344731525072529,6.906370661671768e-05,4.158050294523867e-05,-6.852088344144747e-05,-0.00014496872800150162,-3.3442179363518676e-06,1.0956812060980425e-06,-0.0007379917090008932,-0.00056561551415375,0.00034478221000079157,0.000893207278409487,-0.0003706862738198782,0.0002556348967690001,0.001170829790898875,0.24825400114059448,19.768823623657227,0.2483184039592743,-20.181917190551758,-0.4214377999305725,-2.4951205253601074,0.20724813640117645,0
76,0.3750271797180176,-0.24825400114059448,-19.768823623657227,-0.2483184039592743,20.181917190551758,0.4214377999305725,2.4951205253601074,-0.20724813640117645,0.0,0.0,0.0,0.0,0.0,0.0,0.0,-0.21931309100765642,-0.021333210695996876,-0.06313361886947468,0.3758863929276192,-0.1562737505190686,0.11873222614089253,-0.23013715907402202,1.2133069206162501,-0.2203122952958752,-0.00755340909776446,-2.603779861316346,-0.10873895835898757,2.4681854699982537,0.8264738125700329,1.2134413937687574,-0.2202432315892585,-0.0075118285948192216,-2.6038483821997875,-0.10888392708698907,2.4681821257803174,0.826474908251239,0.0007379917090008932,0.00056561551415375,-0.00034478221000079157,-0.000893207278409487,0.0003706862738198782,-0.0002556348967690001,-0.001170829790898875,0.0,0.0,0.0,0.0,0.0,0.0,0.0,0.0001344731525072529,6.906370661671768e-05,4.158050294523867e-05,-6.852088344144747e-05,-0.00014496872800150162,-3.3442179363518676e-06,1.0956812060980425e-06,-0.0007379917090008932,-0.00056561551415375,0.00034478221000079157,0.000893207278409487,-0.0003706862738198782,0.0002556348967690001,0.001170829790898875,0.24825400114059448,19.768823623657227,0.2483184039592743,-20.181917190551758,-0.4214377999305725,-2.4951205253601074,0.20724813640117645,0
77,0.3800201416015625,-0.22445029020309448,-19.792627334594727,-0.2245146930217743,20.154146194458008,0.4214377999305725,2.4951205253601074,-0.20724813640117645,0.0,0.0,0.0,0.0,0.0,0.0,0.0,-0.22070855714799295,-0.023209300826129858,-0.06394616492915113,0.3837922199568783,-0.15597281753029993,0.12004237000985311,-0.23110394997559844,1.2133052501803947,-0.22031070370642544,-0.007555079413349847,-2.603777912474515,-0.10873895835876464,2.4681854699982537,0.8264709736486768,1.2134413937687574,-0.2202432315892585,-0.0075118285948192216,-2.6038483821997875,-0.10888392708698907,2.4681821257803174,0.826474908251239,-9.14601703058855e-05,0.0011059242102119027,-0.0007685710986826748,0.0005750149987939409,0.00019661870571434427,-0.00011806739175062236,-0.0007217659618364884,0.0,0.0,0.0,0.0,0.0,0.0,0.0,0.00013614358836266938,6.747211716695567e-05,4.325081853062511e-05,-7.046972527247064e-05,-0.0001449687282244344,-3.3442179363518676e-06,3.934602562205569e-06,9.14601703058855e-05,-0.0011059242102119027,0.0007685710986826748,-0.0005750149987939409,-0.00019661870571434427,0.00011806739175062236,0.0007217659618364884,0.22445029020309448,19.792627334594727,0.2245146930217743,-20.154146194458008,-0.4214377999305725,-2.4951205253601074,0.20724813640117645,0
78,0.3850212097167969,-0.22445029020309448,-19.792627334594727,-0.2245146930217743,20.154146194458008,0.4214377999305725,2.4951205253601074,-0.20724813640117645,0.0,0.0,0.0,0.0,0.0,0.0,0.0,-0.22070855714799295,-0.023209300826129858,-0.06394616492915113,0.3837922199568783,-0.15597281753029993,0.12004237000985311,-0.23110394997559844,1.2133052501803947,-0.22031070370642544,-0.007555079413349847,-2.603777912474515,-0.10873895835876464,2.4681854699982537,0.8264709736486768,1.2134413937687574,-0.2202432315892585,-0.0075118285948192216,-2.6038483821997875,-0.10888392708698907,2.4681821257803174,0.826474908251239,-9.14601703058855e-05,0.0011059242102119027,-0.0007685710986826748,0.0005750149987939409,0.00019661870571434427,-0.00011806739175062236,-0.0007217659618364884,0.0,0.0,0.0,0.0,0.0,0.0,0.0,0.00013614358836266938,6.747211716695567e-05,4.325081853062511e-05,-7.046972527247064e-05,-0.0001449687282244344,-3.3442179363518676e-06,3.934602562205569e-06,9.14601703058855e-05,-0.0011059242102119027,0.0007685710986826748,-0.0005750149987939409,-0.00019661870571434427,0.00011806739175062236,0.0007217659618364884,0.22445029020309448,19.792627334594727,0.2245146930217743,-20.154146194458008,-0.4214377999305725,-2.4951205253601074,0.20724813640117645,0
79,0.39002156257629395,-0.22445029020309448,-19.792627334594727,-0.2245146930217743,20.154146194458008,0.4214377999305725,2.4951205253601074,-0.20724813640117645,0.0,0.0,0.0,0.0,0.0,0.0,0.0,-0.22070855714799295,-0.023209300826129858,-0.06394616492915113,0.3837922199568783,-0.15597281753029993,0.12004237000985311,-0.23110394997559844,1.2133052501803947,-0.22031070370642544,-0.007555079413349847,-2.603777912474515,-0.10873895835876464,2.4681854699982537,0.8264709736486768,1.2134413937687574,-0.2202432315892585,-0.0075118285948192216,-2.6038483821997875,-0.10888392708698907,2.4681821257803174,0.826474908251239,-9.14601703058855e-05,0.0011059242102119027,-0.0007685710986826748,0.0005750149987939409,0.00019661870571434427,-0.00011806739175062236,-0.0007217659618364884,0.0,0.0,0.0,0.0,0.0,0.0,0.0,0.00013614358836266938,6.747211716695567e-05,4.325081853062511e-05,-7.046972527247064e-05,-0.0001449687282244344,-3.3442179363518676e-06,3.934602562205569e-06,9.14601703058855e-05,-0.0011059242102119027,0.0007685710986826748,-0.0005750149987939409,-0.00019661870571434427,0.00011806739175062236,0.0007217659618364884,0.22445029020309448,19.792627334594727,0.2245146930217743,-20.154146194458008,-0.4214377999305725,-2.4951205253601074,0.20724813640117645,0
