rezayati/contactInterpretation/dataset/franka_main/labeled_data/link7/a8_5.csv
index,time,tau_J0,tau_J1,tau_J2,tau_J3,tau_J4,tau_J5,tau_J6,tau_J_d0,tau_J_d1,tau_J_d2,tau_J_d3,tau_J_d4,tau_J_d5,tau_J_d6,tau_ext0,tau_ext1,tau_ext2,tau_ext3,tau_ext4,tau_ext5,tau_ext6,q0,q1,q2,q3,q4,q5,q6,q_d0,q_d1,q_d2,q_d3,q_d4,q_d5,q_d6,dq0,dq1,dq2,dq3,dq4,dq5,dq6,dq_d0,dq_d1,dq_d2,dq_d3,dq_d4,dq_d5,dq_d6,e0,e1,e2,e3,e4,e5,e6,de0,de1,de2,de3,de4,de5,de6,etau_J0,etau_J1,etau_J2,etau_J3,etau_J4,etau_J5,etau_J6,label
1,0.0,-0.6053096652030945,-46.57577133178711,-5.588284015655518,19.487642288208008,0.8380027413368225,2.3458895683288574,-0.22098104655742645,0.0,0.0,0.0,0.0,0.0,0.0,0.0,-0.6435059514542845,-0.2710221914706459,-0.398126423554151,0.32199458972491085,0.2546001377888308,0.08119818685392015,-0.18569356889833535,0.8780867851071081,0.7554152869661883,-0.28250587834391677,-1.6688844918030319,0.14139757044006288,2.4035784569316436,1.0273539188620116,0.878092876070424,0.7554597494309409,-0.2825552651693207,-1.6690993614607135,0.1414185955172306,2.4034451173676383,1.0273381002308042,-0.0009028935161951049,-0.00047031542546272285,0.00028147962036320347,0.001178157037688072,0.00018507002352436002,2.228381171710606e-05,0.0015714646818602855,0.0,0.0,0.0,0.0,0.0,0.0,0.0,6.090963315830145e-06,4.446246475253712e-05,-4.9386825403952006e-05,-0.00021486965768158228,2.1025077167724504e-05,-0.000133339564005297,-1.581863120736493e-05,0.0009028935161951049,0.00047031542546272285,-0.00028147962036320347,-0.001178157037688072,-0.00018507002352436002,-2.228381171710606e-05,-0.0015714646818602855,0.6053096652030945,46.57577133178711,5.588284015655518,-19.487642288208008,-0.8380027413368225,-2.3458895683288574,0.22098104655742645,0
2,0.004998683929443359,-0.6053096652030945,-46.57577133178711,-5.588284015655518,19.487642288208008,0.8380027413368225,2.3458895683288574,-0.22098104655742645,0.0,0.0,0.0,0.0,0.0,0.0,0.0,-0.6435059514542845,-0.2710221914706459,-0.398126423554151,0.32199458972491085,0.2546001377888308,0.08119818685392015,-0.18569356889833535,0.8780867851071081,0.7554152869661883,-0.28250587834391677,-1.6688844918030319,0.14139757044006288,2.4035784569316436,1.0273539188620116,0.878092876070424,0.7554597494309409,-0.2825552651693207,-1.6690993614607135,0.1414185955172306,2.4034451173676383,1.0273381002308042,-0.0009028935161951049,-0.00047031542546272285,0.00028147962036320347,0.001178157037688072,0.00018507002352436002,2.228381171710606e-05,0.0015714646818602855,0.0,0.0,0.0,0.0,0.0,0.0,0.0,6.090963315830145e-06,4.446246475253712e-05,-4.9386825403952006e-05,-0.00021486965768158228,2.1025077167724504e-05,-0.000133339564005297,-1.581863120736493e-05,0.0009028935161951049,0.00047031542546272285,-0.00028147962036320347,-0.001178157037688072,-0.00018507002352436002,-2.228381171710606e-05,-0.0015714646818602855,0.6053096652030945,46.57577133178711,5.588284015655518,-19.487642288208008,-0.8380027413368225,-2.3458895683288574,0.22098104655742645,0
3,0.009998321533203125,-0.6053096652030945,-46.62337875366211,-5.588284015655518,19.559053421020508,0.8444114327430725,2.3522982597351074,-0.18710653483867645,0.0,0.0,0.0,0.0,0.0,0.0,0.0,-0.6286311003294539,-0.2706994018028011,-0.3890900838747993,0.32289979444775685,0.2546480866776863,0.08093733531268318,-0.18626631962622656,0.8780867851031453,0.7554187610542001,-0.28250587834391677,-1.6688896433081626,0.141396740420417,2.403577744854821,1.0273468966585222,0.878092876070424,0.7554597494309409,-0.2825552651693207,-1.6690993614607135,0.1414185955172306,2.4034451173676383,1.0273381002308042,-0.00023043232131764597,0.000605381427747184,0.0009737908732500872,-0.0005067456215665911,-0.00013042418420300433,-0.00013608237471303983,-0.00016135867886983023,0.0,0.0,0.0,0.0,0.0,0.0,0.0,6.090967278660209e-06,4.098837674071376e-05,-4.9386825403952006e-05,-0.00020971815255088622,2.1855096813599983e-05,-0.00013262748718245732,-8.796427718005262e-06,0.00023043232131764597,-0.000605381427747184,-0.0009737908732500872,0.0005067456215665911,0.00013042418420300433,0.00013608237471303983,0.00016135867886983023,0.6053096652030945,46.62337875366211,5.588284015655518,-19.559053421020508,-0.8444114327430725,-2.3522982597351074,0.18710653483867645,0
4,0.014944076538085938,-0.6053096652030945,-46.62337875366211,-5.588284015655518,19.559053421020508,0.8444114327430725,2.3522982597351074,-0.18710653483867645,0.0,0.0,0.0,0.0,0.0,0.0,0.0,-0.6286311003294539,-0.2706994018028011,-0.3890900838747993,0.32289979444775685,0.2546480866776863,0.08093733531268318,-0.18626631962622656,0.8780867851031453,0.7554187610542001,-0.28250587834391677,-1.6688896433081626,0.141396740420417,2.403577744854821,1.0273468966585222,0.878092876070424,0.7554597494309409,-0.2825552651693207,-1.6690993614607135,0.1414185955172306,2.4034451173676383,1.0273381002308042,-0.00023043232131764597,0.000605381427747184,0.0009737908732500872,-0.0005067456215665911,-0.00013042418420300433,-0.00013608237471303983,-0.00016135867886983023,0.0,0.0,0.0,0.0,0.0,0.0,0.0,6.090967278660209e-06,4.098837674071376e-05,-4.9386825403952006e-05,-0.00020971815255088622,2.1855096813599983e-05,-0.00013262748718245732,-8.796427718005262e-06,0.00023043232131764597,-0.000605381427747184,-0.0009737908732500872,0.0005067456215665911,0.00013042418420300433,0.00013608237471303983,0.00016135867886983023,0.6053096652030945,46.62337875366211,5.588284015655518,-19.559053421020508,-0.8444114327430725,-2.3522982597351074,0.18710653483867645,0
5,0.019949913024902344,-0.6291133761405945,-46.59957504272461,-5.512905597686768,19.511445999145508,0.8325095772743225,2.3458895683288574,-0.22098104655742645,0.0,0.0,0.0,0.0,0.0,0.0,0.0,-0.62344619140334,-0.2688241930105251,-0.3856102405627228,0.32125346183158576,0.25496032292125126,0.08077442163541532,-0.18604263419350675,0.8780884555390005,0.7554185176194584,-0.28251116805745846,-1.6688856941831407,0.14139808018323652,2.4035784569316436,1.027350660474764,0.878092876070424,0.7554597494309409,-0.2825552651693207,-1.6690993614607135,0.1414185955172306,2.4034451173676383,1.0273381002308042,0.0007153922091566767,-4.115007071177759e-06,-0.0007347013908330961,0.0004622530112809934,0.00013978395791994198,-6.9427794967032084e-06,0.0014464459214744998,0.0,0.0,0.0,0.0,0.0,0.0,0.0,4.420531423465768e-06,4.123181148241173e-05,-4.4097111862262395e-05,-0.00021366727757277104,2.051533399408112e-05,-0.000133339564005297,-1.2560243959791606e-05,-0.0007153922091566767,4.115007071177759e-06,0.0007347013908330961,-0.0004622530112809934,-0.00013978395791994198,6.9427794967032084e-06,-0.0014464459214744998,0.6291133761405945,46.59957504272461,5.512905597686768,-19.511445999145508,-0.8325095772743225,-2.3458895683288574,0.22098104655742645,0
6,0.024997472763061523,-0.6291133761405945,-46.59957504272461,-5.512905597686768,19.511445999145508,0.8325095772743225,2.3458895683288574,-0.22098104655742645,0.0,0.0,0.0,0.0,0.0,0.0,0.0,-0.62344619140334,-0.2688241930105251,-0.3856102405627228,0.32125346183158576,0.25496032292125126,0.08077442163541532,-0.18604263419350675,0.8780884555390005,0.7554185176194584,-0.28251116805745846,-1.6688856941831407,0.14139808018323652,2.4035784569316436,1.027350660474764,0.878092876070424,0.7554597494309409,-0.2825552651693207,-1.6690993614607135,0.1414185955172306,2.4034451173676383,1.0273381002308042,0.0007153922091566767,-4.115007071177759e-06,-0.0007347013908330961,0.0004622530112809934,0.00013978395791994198,-6.9427794967032084e-06,0.0014464459214744998,0.0,0.0,0.0,0.0,0.0,0.0,0.0,4.420531423465768e-06,4.123181148241173e-05,-4.4097111862262395e-05,-0.00021366727757277104,2.051533399408112e-05,-0.000133339564005297,-1.2560243959791606e-05,-0.0007153922091566767,4.115007071177759e-06,0.0007347013908330961,-0.0004622530112809934,-0.00013978395791994198,6.9427794967032084e-06,-0.0014464459214744998,0.6291133761405945,46.59957504272461,5.512905597686768,-19.511445999145508,-0.8325095772743225,-2.3458895683288574,0.22098104655742645,0
7,0.024997472763061523,-0.6291133761405945,-46.59957504272461,-5.512905597686768,19.511445999145508,0.8325095772743225,2.3458895683288574,-0.22098104655742645,0.0,0.0,0.0,0.0,0.0,0.0,0.0,-0.62344619140334,-0.2688241930105251,-0.3856102405627228,0.32125346183158576,0.25496032292125126,0.08077442163541532,-0.18604263419350675,0.8780884555390005,0.7554185176194584,-0.28251116805745846,-1.6688856941831407,0.14139808018323652,2.4035784569316436,1.027350660474764,0.878092876070424,0.7554597494309409,-0.2825552651693207,-1.6690993614607135,0.1414185955172306,2.4034451173676383,1.0273381002308042,0.0007153922091566767,-4.115007071177759e-06,-0.0007347013908330961,0.0004622530112809934,0.00013978395791994198,-6.9427794967032084e-06,0.0014464459214744998,0.0,0.0,0.0,0.0,0.0,0.0,0.0,4.420531423465768e-06,4.123181148241173e-05,-4.4097111862262395e-05,-0.00021366727757277104,2.051533399408112e-05,-0.000133339564005297,-1.2560243959791606e-05,-0.0007153922091566767,4.115007071177759e-06,0.0007347013908330961,-0.0004622530112809934,-0.00013978395791994198,6.9427794967032084e-06,-0.0014464459214744998,0.6291133761405945,46.59957504272461,5.512905597686768,-19.511445999145508,-0.8325095772743225,-2.3458895683288574,0.22098104655742645,0
8,0.035025835037231445,-0.6053096652030945,-46.57577133178711,-5.588284015655518,19.535249710083008,0.8444114327430725,2.3522982597351074,-0.20724813640117645,0.0,0.0,0.0,0.0,0.0,0.0,0.0,-0.6385025119005736,-0.2697533578481055,-0.3981861392423862,0.32061056555834266,0.25465184519384454,0.08077398730690913,-0.18504026910857502,0.8780867851031453,0.7554168251391297,-0.28250587834391677,-1.6688856653223108,0.14139674463211654,2.403577744854821,1.0273491345958576,0.878092876070424,0.7554597494309409,-0.2825552651693207,-1.6690993614607135,0.1414185955172306,2.4034451173676383,1.0273381002308042,-0.00042476758024068774,-0.000505222711129711,0.0009723525451430594,0.00031374112354984877,-0.00015709355311350858,-0.00033012532253793745,0.0007977168770331863,0.0,0.0,0.0,0.0,0.0,0.0,0.0,6.090967278660209e-06,4.2924291811186066e-05,-4.9386825403952006e-05,-0.00021369613840271917,2.1850885114055307e-05,-0.00013262748718245732,-1.1034365053452788e-05,0.00042476758024068774,0.000505222711129711,-0.0009723525451430594,-0.00031374112354984877,0.00015709355311350858,0.00033012532253793745,-0.0007977168770331863,0.6053096652030945,46.57577133178711,5.588284015655518,-19.535249710083008,-0.8444114327430725,-2.3522982597351074,0.20724813640117645,0
9,0.03999805450439453,-0.6053096652030945,-46.57577133178711,-5.588284015655518,19.535249710083008,0.8444114327430725,2.3522982597351074,-0.20724813640117645,0.0,0.0,0.0,0.0,0.0,0.0,0.0,-0.6385025119005736,-0.2697533578481055,-0.3981861392423862,0.32061056555834266,0.25465184519384454,0.08077398730690913,-0.18504026910857502,0.8780867851031453,0.7554168251391297,-0.28250587834391677,-1.6688856653223108,0.14139674463211654,2.403577744854821,1.0273491345958576,0.878092876070424,0.7554597494309409,-0.2825552651693207,-1.6690993614607135,0.1414185955172306,2.4034451173676383,1.0273381002308042,-0.00042476758024068774,-0.000505222711129711,0.0009723525451430594,0.00031374112354984877,-0.00015709355311350858,-0.00033012532253793745,0.0007977168770331863,0.0,0.0,0.0,0.0,0.0,0.0,0.0,6.090967278660209e-06,4.2924291811186066e-05,-4.9386825403952006e-05,-0.00021369613840271917,2.1850885114055307e-05,-0.00013262748718245732,-1.1034365053452788e-05,0.00042476758024068774,0.000505222711129711,-0.0009723525451430594,-0.00031374112354984877,0.00015709355311350858,0.00033012532253793745,-0.0007977168770331863,0.6053096652030945,46.57577133178711,5.588284015655518,-19.535249710083008,-0.8444114327430725,-2.3522982597351074,0.20724813640117645,0
10,0.04496002197265625,-0.6291133761405945,-46.54800033569336,-5.536709308624268,19.586824417114258,0.8325095772743225,2.3458895683288574,-0.15964071452617645,0.0,0.0,0.0,0.0,0.0,0.0,0.0,-0.6177567615311866,-0.2654893798874792,-0.3820460454717604,0.32042580199995624,0.2544171568919215,0.0798976964805238,-0.18534242668741022,0.8780886895424207,0.7554132700514746,-0.28250949762160316,-1.6688916991917346,0.14139807580898342,2.4035784569316436,1.0273438450478591,0.878092876070424,0.7554597494309409,-0.2825552651693207,-1.6690993614607135,0.1414185955172306,2.4034451173676383,1.0273381002308042,0.00038475106461134846,-0.0009589358451073848,-0.0002732341460769973,-0.0015948179539832226,0.0002480560882734078,0.00021435577940810116,-0.0012516495114190378,0.0,0.0,0.0,0.0,0.0,0.0,0.0,4.186528003269352e-06,4.647937946622438e-05,-4.576754771756786e-05,-0.00020766226897883655,2.0519708247179747e-05,-0.000133339564005297,-5.744817054953444e-06,-0.00038475106461134846,0.0009589358451073848,0.0002732341460769973,0.0015948179539832226,-0.0002480560882734078,-0.00021435577940810116,0.0012516495114190378,0.6291133761405945,46.54800033569336,5.536709308624268,-19.586824417114258,-0.8325095772743225,-2.3458895683288574,0.15964071452617645,0
11,0.04995584487915039,-0.6291133761405945,-46.54800033569336,-5.536709308624268,19.586824417114258,0.8325095772743225,2.3458895683288574,-0.15964071452617645,0.0,0.0,0.0,0.0,0.0,0.0,0.0,-0.6177567615311866,-0.2654893798874792,-0.3820460454717604,0.32042580199995624,0.2544171568919215,0.0798976964805238,-0.18534242668741022,0.8780886895424207,0.7554132700514746,-0.28250949762160316,-1.6688916991917346,0.14139807580898342,2.4035784569316436,1.0273438450478591,0.878092876070424,0.7554597494309409,-0.2825552651693207,-1.6690993614607135,0.1414185955172306,2.4034451173676383,1.0273381002308042,0.00038475106461134846,-0.0009589358451073848,-0.0002732341460769973,-0.0015948179539832226,0.0002480560882734078,0.00021435577940810116,-0.0012516495114190378,0.0,0.0,0.0,0.0,0.0,0.0,0.0,4.186528003269352e-06,4.647937946622438e-05,-4.576754771756786e-05,-0.00020766226897883655,2.0519708247179747e-05,-0.000133339564005297,-5.744817054953444e-06,-0.00038475106461134846,0.0009589358451073848,0.0002732341460769973,0.0015948179539832226,-0.0002480560882734078,-0.00021435577940810116,0.0012516495114190378,0.6291133761405945,46.54800033569336,5.536709308624268,-19.586824417114258,-0.8325095772743225,-2.3458895683288574,0.15964071452617645,0
12,0.054995059967041016,-0.6568843722343445,-46.54800033569336,-5.612087726593018,19.535249710083008,0.8325095772743225,2.3596224784851074,-0.21457235515117645,0.0,0.0,0.0,0.0,0.0,0.0,0.0,-0.645975691270057,-0.2668364566561792,-0.401807980380035,0.32333248767810624,0.25487777089221086,0.08048062833164386,-0.1858902922525059,0.8780904043821527,0.7554128739378524,-0.2825042079080615,-1.6688880786194833,0.14139806268619948,2.4035769310527373,1.027349948397942,0.878092876070424,0.7554597494309409,-0.2825552651693207,-1.6690993614607135,0.1414185955172306,2.4034451173676383,1.0273381002308042,8.011170092045374e-05,-0.0007289505225163583,0.0009635855216863509,0.00023318016325499564,4.4428551380718754e-05,-0.0005747149310669677,0.0012322252732081661,0.0,0.0,0.0,0.0,0.0,0.0,0.0,2.471688271277195e-06,4.687549308846073e-05,-5.105726125920196e-05,-0.00021128284123017593,2.0532831031122578e-05,-0.0001318136850989582,-1.1848167137840093e-05,-8.011170092045374e-05,0.0007289505225163583,-0.0009635855216863509,-0.00023318016325499564,-4.4428551380718754e-05,0.0005747149310669677,-0.0012322252732081661,0.6568843722343445,46.54800033569336,5.612087726593018,-19.535249710083008,-0.8325095772743225,-2.3596224784851074,0.21457235515117645,0
13,0.059996843338012695,-0.6568843722343445,-46.54800033569336,-5.612087726593018,19.535249710083008,0.8325095772743225,2.3596224784851074,-0.21457235515117645,0.0,0.0,0.0,0.0,0.0,0.0,0.0,-0.645975691270057,-0.2668364566561792,-0.401807980380035,0.32333248767810624,0.25487777089221086,0.08048062833164386,-0.1858902922525059,0.8780904043821527,0.7554128739378524,-0.2825042079080615,-1.6688880786194833,0.14139806268619948,2.4035769310527373,1.027349948397942,0.878092876070424,0.7554597494309409,-0.2825552651693207,-1.6690993614607135,0.1414185955172306,2.4034451173676383,1.0273381002308042,8.011170092045374e-05,-0.0007289505225163583,0.0009635855216863509,0.00023318016325499564,4.4428551380718754e-05,-0.0005747149310669677,0.0012322252732081661,0.0,0.0,0.0,0.0,0.0,0.0,0.0,2.471688271277195e-06,4.687549308846073e-05,-5.105726125920196e-05,-0.00021128284123017593,2.0532831031122578e-05,-0.0001318136850989582,-1.1848167137840093e-05,-8.011170092045374e-05,0.0007289505225163583,-0.0009635855216863509,-0.00023318016325499564,-4.4428551380718754e-05,0.0005747149310669677,-0.0012322252732081661,0.6568843722343445,46.54800033569336,5.612087726593018,-19.535249710083008,-0.8325095772743225,-2.3596224784851074,0.21457235515117645,0
14,0.06522822380065918,-0.6806880831718445,-46.59957504272461,-5.564480304718018,19.535249710083008,0.8380027413368225,2.3458895683288574,-0.17978231608867645,0.0,0.0,0.0,0.0,0.0,0.0,0.0,-0.643327368004291,-0.25719885890894256,-0.3978749559972439,0.3213910032736851,0.25433103744682606,0.07988656394969536,-0.1867459892058521,0.878092100817067,0.7554183617454147,-0.282507548779772,-1.6688880799276713,0.14139745233456294,2.4035784569316436,1.0273460843279343,0.878092876070424,0.7554597494309409,-0.2825552651693207,-1.6690993614607135,0.1414185955172306,2.4034451173676383,1.0273381002308042,-0.00013764424198876025,0.0003988867217507415,-0.00033344800821051405,-0.00026845405253120785,6.843843715599783e-05,-1.8017729267995795e-05,-0.00046220114386568713,0.0,0.0,0.0,0.0,0.0,0.0,0.0,7.752533569549414e-07,4.1387685526195206e-05,-4.7716389548702054e-05,-0.00021128153304217356,2.114318266766002e-05,-0.000133339564005297,-7.984097130098178e-06,0.00013764424198876025,-0.0003988867217507415,0.00033344800821051405,0.00026845405253120785,-6.843843715599783e-05,1.8017729267995795e-05,0.00046220114386568713,0.6806880831718445,46.59957504272461,5.564480304718018,-19.535249710083008,-0.8380027413368225,-2.3458895683288574,0.17978231608867645,0
15,0.07000160217285156,-0.6806880831718445,-46.59957504272461,-5.564480304718018,19.535249710083008,0.8380027413368225,2.3458895683288574,-0.17978231608867645,0.0,0.0,0.0,0.0,0.0,0.0,0.0,-0.643327368004291,-0.25719885890894256,-0.3978749559972439,0.3213910032736851,0.25433103744682606,0.07988656394969536,-0.1867459892058521,0.878092100817067,0.7554183617454147,-0.282507548779772,-1.6688880799276713,0.14139745233456294,2.4035784569316436,1.0273460843279343,0.878092876070424,0.7554597494309409,-0.2825552651693207,-1.6690993614607135,0.1414185955172306,2.4034451173676383,1.0273381002308042,-0.00013764424198876025,0.0003988867217507415,-0.00033344800821051405,-0.00026845405253120785,6.843843715599783e-05,-1.8017729267995795e-05,-0.00046220114386568713,0.0,0.0,0.0,0.0,0.0,0.0,0.0,7.752533569549414e-07,4.1387685526195206e-05,-4.7716389548702054e-05,-0.00021128153304217356,2.114318266766002e-05,-0.000133339564005297,-7.984097130098178e-06,0.00013764424198876025,-0.0003988867217507415,0.00033344800821051405,0.00026845405253120785,-6.843843715599783e-05,1.8017729267995795e-05,0.00046220114386568713,0.6806880831718445,46.59957504272461,5.564480304718018,-19.535249710083008,-0.8380027413368225,-2.3458895683288574,0.17978231608867645,0
16,0.07500171661376953,-0.6806880831718445,-46.59957504272461,-5.564480304718018,19.535249710083008,0.8380027413368225,2.3458895683288574,-0.17978231608867645,0.0,0.0,0.0,0.0,0.0,0.0,0.0,-0.643327368004291,-0.25719885890894256,-0.3978749559972439,0.3213910032736851,0.25433103744682606,0.07988656394969536,-0.1867459892058521,0.878092100817067,0.7554183617454147,-0.282507548779772,-1.6688880799276713,0.14139745233456294,2.4035784569316436,1.0273460843279343,0.878092876070424,0.7554597494309409,-0.2825552651693207,-1.6690993614607135,0.1414185955172306,2.4034451173676383,1.0273381002308042,-0.00013764424198876025,0.0003988867217507415,-0.00033344800821051405,-0.00026845405253120785,6.843843715599783e-05,-1.8017729267995795e-05,-0.00046220114386568713,0.0,0.0,0.0,0.0,0.0,0.0,0.0,7.752533569549414e-07,4.1387685526195206e-05,-4.7716389548702054e-05,-0.00021128153304217356,2.114318266766002e-05,-0.000133339564005297,-7.984097130098178e-06,0.00013764424198876025,-0.0003988867217507415,0.00033344800821051405,0.00026845405253120785,-6.843843715599783e-05,1.8017729267995795e-05,0.00046220114386568713,0.6806880831718445,46.59957504272461,5.564480304718018,-19.535249710083008,-0.8380027413368225,-2.3458895683288574,0.17978231608867645,0
17,0.08000040054321289,-0.6806880831718445,-46.59957504272461,-5.564480304718018,19.535249710083008,0.8380027413368225,2.3458895683288574,-0.17978231608867645,0.0,0.0,0.0,0.0,0.0,0.0,0.0,-0.643327368004291,-0.25719885890894256,-0.3978749559972439,0.3213910032736851,0.25433103744682606,0.07988656394969536,-0.1867459892058521,0.878092100817067,0.7554183617454147,-0.282507548779772,-1.6688880799276713,0.14139745233456294,2.4035784569316436,1.0273460843279343,0.878092876070424,0.7554597494309409,-0.2825552651693207,-1.6690993614607135,0.1414185955172306,2.4034451173676383,1.0273381002308042,-0.00013764424198876025,0.0003988867217507415,-0.00033344800821051405,-0.00026845405253120785,6.843843715599783e-05,-1.8017729267995795e-05,-0.00046220114386568713,0.0,0.0,0.0,0.0,0.0,0.0,0.0,7.752533569549414e-07,4.1387685526195206e-05,-4.7716389548702054e-05,-0.00021128153304217356,2.114318266766002e-05,-0.000133339564005297,-7.984097130098178e-06,0.00013764424198876025,-0.0003988867217507415,0.00033344800821051405,0.00026845405253120785,-6.843843715599783e-05,1.8017729267995795e-05,0.00046220114386568713,0.6806880831718445,46.59957504272461,5.564480304718018,-19.535249710083008,-0.8380027413368225,-2.3458895683288574,0.17978231608867645,0
18,0.0849463939666748,-0.6291133761405945,-46.59957504272461,-5.588284015655518,19.559053421020508,0.8380027413368225,2.3394808769226074,-0.23471395671367645,0.0,0.0,0.0,0.0,0.0,0.0,0.0,-0.6283140382773525,-0.26166177013569397,-0.3849579834719693,0.32547860142129514,0.25369033081635206,0.08004400185950031,-0.18796170895440517,0.8780884555391473,0.75541829238595,-0.28250587834391677,-1.6688889281628374,0.14139745233456294,2.4035791690084665,1.0273521908233458,0.878092876070424,0.7554597494309409,-0.2825552651693207,-1.6690993614607135,0.1414185955172306,2.4034451173676383,1.0273381002308042,-0.0006544019060415008,0.0001890556731702647,0.00014658578533112776,-0.000843767158530202,-9.55317855707604e-06,9.488158994155028e-05,0.0013321897322493199,0.0,0.0,0.0,0.0,0.0,0.0,0.0,4.420531276694284e-06,4.1457044990811376e-05,-4.9386825403952006e-05,-0.00021043329787606702,2.114318266766002e-05,-0.0001340516408281367,-1.4090592541649016e-05,0.0006544019060415008,-0.0001890556731702647,-0.00014658578533112776,0.000843767158530202,9.55317855707604e-06,-9.488158994155028e-05,-0.0013321897322493199,0.6291133761405945,46.59957504272461,5.588284015655518,-19.559053421020508,-0.8380027413368225,-2.3394808769226074,0.23471395671367645,0
19,0.0899956226348877,-0.6291133761405945,-46.59957504272461,-5.588284015655518,19.559053421020508,0.8380027413368225,2.3394808769226074,-0.23471395671367645,0.0,0.0,0.0,0.0,0.0,0.0,0.0,-0.6283140382773525,-0.26166177013569397,-0.3849579834719693,0.32547860142129514,0.25369033081635206,0.08004400185950031,-0.18796170895440517,0.8780884555391473,0.75541829238595,-0.28250587834391677,-1.6688889281628374,0.14139745233456294,2.4035791690084665,1.0273521908233458,0.878092876070424,0.7554597494309409,-0.2825552651693207,-1.6690993614607135,0.1414185955172306,2.4034451173676383,1.0273381002308042,-0.0006544019060415008,0.0001890556731702647,0.00014658578533112776,-0.000843767158530202,-9.55317855707604e-06,9.488158994155028e-05,0.0013321897322493199,0.0,0.0,0.0,0.0,0.0,0.0,0.0,4.420531276694284e-06,4.1457044990811376e-05,-4.9386825403952006e-05,-0.00021043329787606702,2.114318266766002e-05,-0.0001340516408281367,-1.4090592541649016e-05,0.0006544019060415008,-0.0001890556731702647,-0.00014658578533112776,0.000843767158530202,9.55317855707604e-06,-9.488158994155028e-05,-0.0013321897322493199,0.6291133761405945,46.59957504272461,5.588284015655518,-19.559053421020508,-0.8380027413368225,-2.3394808769226074,0.23471395671367645,0
20,0.0950002670288086,-0.7084590792655945,-46.57577133178711,-5.588284015655518,19.511445999145508,0.8380027413368225,2.3458895683288574,-0.20083944499492645,0.0,0.0,0.0,0.0,0.0,0.0,0.0,-0.6381752268235579,-0.2578212119402232,-0.3913504308978068,0.32200828262375014,0.25357269328058935,0.07888132190556257,-0.19053522063779468,0.8780940323253115,0.7554169288540518,-0.28250587834391677,-1.6688864085060358,0.14139886960056092,2.4035784569316436,1.0273484225190601,0.878092876070424,0.7554597494309409,-0.2825552651693207,-1.6690993614607135,0.1414185955172306,2.4034451173676383,1.0273381002308042,0.0013383407190636512,-0.00028817239262652174,8.443051184856133e-05,0.00040150092191751623,-5.177155829796661e-05,1.2254451422243283e-05,0.00034814202127759,0.0,0.0,0.0,0.0,0.0,0.0,0.0,-1.1562548875021506e-06,4.282057688909102e-05,-4.9386825403952006e-05,-0.00021295295467771425,1.972591666968282e-05,-0.000133339564005297,-1.0322288255926182e-05,-0.0013383407190636512,0.00028817239262652174,-8.443051184856133e-05,-0.00040150092191751623,5.177155829796661e-05,-1.2254451422243283e-05,-0.00034814202127759,0.7084590792655945,46.57577133178711,5.588284015655518,-19.511445999145508,-0.8380027413368225,-2.3458895683288574,0.20083944499492645,0
21,0.09994745254516602,-0.7084590792655945,-46.57577133178711,-5.588284015655518,19.511445999145508,0.8380027413368225,2.3458895683288574,-0.20083944499492645,0.0,0.0,0.0,0.0,0.0,0.0,0.0,-0.6381752268235579,-0.2578212119402232,-0.3913504308978068,0.32200828262375014,0.25357269328058935,0.07888132190556257,-0.19053522063779468,0.8780940323253115,0.7554169288540518,-0.28250587834391677,-1.6688864085060358,0.14139886960056092,2.4035784569316436,1.0273484225190601,0.878092876070424,0.7554597494309409,-0.2825552651693207,-1.6690993614607135,0.1414185955172306,2.4034451173676383,1.0273381002308042,0.0013383407190636512,-0.00028817239262652174,8.443051184856133e-05,0.00040150092191751623,-5.177155829796661e-05,1.2254451422243283e-05,0.00034814202127759,0.0,0.0,0.0,0.0,0.0,0.0,0.0,-1.1562548875021506e-06,4.282057688909102e-05,-4.9386825403952006e-05,-0.00021295295467771425,1.972591666968282e-05,-0.000133339564005297,-1.0322288255926182e-05,-0.0013383407190636512,0.00028817239262652174,-8.443051184856133e-05,-0.00040150092191751623,5.177155829796661e-05,-1.2254451422243283e-05,-0.00034814202127759,0.7084590792655945,46.57577133178711,5.588284015655518,-19.511445999145508,-0.8380027413368225,-2.3458895683288574,0.20083944499492645,0
22,0.10501337051391602,-0.6291133761405945,-46.59957504272461,-5.536709308624268,19.559053421020508,0.8380027413368225,2.3522982597351074,-0.16604940593242645,0.0,0.0,0.0,0.0,0.0,0.0,0.0,-0.6480495042708289,-0.268536357244432,-0.4006895740868732,0.3270701296171477,0.25325498097005195,0.07970232571526997,-0.1907328149825341,0.8780884555390495,0.7554171224058556,-0.28250949762160316,-1.6688897412061618,0.14139745234256343,2.403577744854821,1.027344556959139,0.878092876070424,0.7554597494309409,-0.2825552651693207,-1.6690993614607135,0.1414185955172306,2.4034451173676383,1.0273381002308042,-0.0009330647028634865,0.00018100255635453518,-0.0006580533556888965,-0.0002430565302148247,2.8388059317506178e-05,-0.0003289868926207105,-0.0006369906380779837,0.0,0.0,0.0,0.0,0.0,0.0,0.0,4.420531374504932e-06,4.262702508528449e-05,-4.576754771756786e-05,-0.00020962025455162347,2.114317466717086e-05,-0.00013262748718245732,-6.456728334880424e-06,0.0009330647028634865,-0.00018100255635453518,0.0006580533556888965,0.0002430565302148247,-2.8388059317506178e-05,0.0003289868926207105,0.0006369906380779837,0.6291133761405945,46.59957504272461,5.536709308624268,-19.559053421020508,-0.8380027413368225,-2.3522982597351074,0.16604940593242645,0
23,0.10999751091003418,-0.6291133761405945,-46.59957504272461,-5.536709308624268,19.559053421020508,0.8380027413368225,2.3522982597351074,-0.16604940593242645,0.0,0.0,0.0,0.0,0.0,0.0,0.0,-0.6480495042708289,-0.268536357244432,-0.4006895740868732,0.3270701296171477,0.25325498097005195,0.07970232571526997,-0.1907328149825341,0.8780884555390495,0.7554171224058556,-0.28250949762160316,-1.6688897412061618,0.14139745234256343,2.403577744854821,1.027344556959139,0.878092876070424,0.7554597494309409,-0.2825552651693207,-1.6690993614607135,0.1414185955172306,2.4034451173676383,1.0273381002308042,-0.0009330647028634865,0.00018100255635453518,-0.0006580533556888965,-0.0002430565302148247,2.8388059317506178e-05,-0.0003289868926207105,-0.0006369906380779837,0.0,0.0,0.0,0.0,0.0,0.0,0.0,4.420531374504932e-06,4.262702508528449e-05,-4.576754771756786e-05,-0.00020962025455162347,2.114317466717086e-05,-0.00013262748718245732,-6.456728334880424e-06,0.0009330647028634865,-0.00018100255635453518,0.0006580533556888965,0.0002430565302148247,-2.8388059317506178e-05,0.0003289868926207105,0.0006369906380779837,0.6291133761405945,46.59957504272461,5.536709308624268,-19.559053421020508,-0.8380027413368225,-2.3522982597351074,0.16604940593242645,0
24,0.11501097679138184,-0.6053096652030945,-46.54800033569336,-5.564480304718018,19.535249710083008,0.8444114327430725,2.3394808769226074,-0.17337362468242645,0.0,0.0,0.0,0.0,0.0,0.0,0.0,-0.639549239762229,-0.2576485918227219,-0.3907860673785842,0.3210920940234793,0.25316909103615065,0.07843159469500526,-0.18895506141656374,0.8780867851031453,0.7554156617686576,-0.282507548779772,-1.6688880799275236,0.1413999295922665,2.4035791690084665,1.0273453707612223,0.878092876070424,0.7554597494309409,-0.2825552651693207,-1.6690993614607135,0.1414185955172306,2.4034451173676383,1.0273381002308042,-0.0008145994516880527,-0.001294207809151535,5.629330178954869e-05,-0.00027955159386638717,-0.0002203009132849152,0.00027410005620470104,-0.00044911155114742607,0.0,0.0,0.0,0.0,0.0,0.0,0.0,6.090967278660209e-06,4.4087662283254225e-05,-4.7716389548702054e-05,-0.00021128153318983323,1.866592496410635e-05,-0.0001340516408281367,-7.270530418157506e-06,0.0008145994516880527,0.001294207809151535,-5.629330178954869e-05,0.00027955159386638717,0.0002203009132849152,-0.00027410005620470104,0.00044911155114742607,0.6053096652030945,46.54800033569336,5.564480304718018,-19.535249710083008,-0.8444114327430725,-2.3394808769226074,0.17337362468242645,0
25,0.1200110912322998,-0.6053096652030945,-46.54800033569336,-5.564480304718018,19.535249710083008,0.8444114327430725,2.3394808769226074,-0.17337362468242645,0.0,0.0,0.0,0.0,0.0,0.0,0.0,-0.639549239762229,-0.2576485918227219,-0.3907860673785842,0.3210920940234793,0.25316909103615065,0.07843159469500526,-0.18895506141656374,0.8780867851031453,0.7554156617686576,-0.282507548779772,-1.6688880799275236,0.1413999295922665,2.4035791690084665,1.0273453707612223,0.878092876070424,0.7554597494309409,-0.2825552651693207,-1.6690993614607135,0.1414185955172306,2.4034451173676383,1.0273381002308042,-0.0008145994516880527,-0.001294207809151535,5.629330178954869e-05,-0.00027955159386638717,-0.0002203009132849152,0.00027410005620470104,-0.00044911155114742607,0.0,0.0,0.0,0.0,0.0,0.0,0.0,6.090967278660209e-06,4.4087662283254225e-05,-4.7716389548702054e-05,-0.00021128153318983323,1.866592496410635e-05,-0.0001340516408281367,-7.270530418157506e-06,0.0008145994516880527,0.001294207809151535,-5.629330178954869e-05,0.00027955159386638717,0.0002203009132849152,-0.00027410005620470104,0.00044911155114742607,0.6053096652030945,46.54800033569336,5.564480304718018,-19.535249710083008,-0.8444114327430725,-2.3394808769226074,0.17337362468242645,0
26,0.12511825561523438,-0.6053096652030945,-46.62337875366211,-5.564480304718018,19.586824417114258,0.8444114327430725,2.3458895683288574,-0.14590780436992645,0.0,0.0,0.0,0.0,0.0,0.0,0.0,-0.6407175817264976,-0.26426457498357364,-0.39250269501056767,0.32502316678304594,0.25426216242339345,0.07889024436623458,-0.18765005345950053,0.8780867851031453,0.7554207465834164,-0.282507548779772,-1.6688916990963487,0.1413967417218339,2.4035784569316436,1.0273423190034099,0.878092876070424,0.7554597494309409,-0.2825552651693207,-1.6690993614607135,0.1414185955172306,2.4034451173676383,1.0273381002308042,-0.0001795609627765205,0.0006454880436311912,0.0005357792043574223,-0.0012015365410086053,-0.00020153073127802994,-9.635643002927658e-06,-0.0014740454470049944,0.0,0.0,0.0,0.0,0.0,0.0,0.0,6.090967278660209e-06,3.900284752444971e-05,-4.7716389548702054e-05,-0.00020766236436475793,2.1853795396709064e-05,-0.000133339564005297,-4.218772605701915e-06,0.0001795609627765205,-0.0006454880436311912,-0.0005357792043574223,0.0012015365410086053,0.00020153073127802994,9.635643002927658e-06,0.0014740454470049944,0.6053096652030945,46.62337875366211,5.564480304718018,-19.586824417114258,-0.8444114327430725,-2.3458895683288574,0.14590780436992645,0
27,0.1302042007446289,-0.6053096652030945,-46.62337875366211,-5.564480304718018,19.586824417114258,0.8444114327430725,2.3458895683288574,-0.14590780436992645,0.0,0.0,0.0,0.0,0.0,0.0,0.0,-0.6407175817264976,-0.26426457498357364,-0.39250269501056767,0.32502316678304594,0.25426216242339345,0.07889024436623458,-0.18765005345950053,0.8780867851031453,0.7554207465834164,-0.282507548779772,-1.6688916990963487,0.1413967417218339,2.4035784569316436,1.0273423190034099,0.878092876070424,0.7554597494309409,-0.2825552651693207,-1.6690993614607135,0.1414185955172306,2.4034451173676383,1.0273381002308042,-0.0001795609627765205,0.0006454880436311912,0.0005357792043574223,-0.0012015365410086053,-0.00020153073127802994,-9.635643002927658e-06,-0.0014740454470049944,0.0,0.0,0.0,0.0,0.0,0.0,0.0,6.090967278660209e-06,3.900284752444971e-05,-4.7716389548702054e-05,-0.00020766236436475793,2.1853795396709064e-05,-0.000133339564005297,-4.218772605701915e-06,0.0001795609627765205,-0.0006454880436311912,-0.0005357792043574223,0.0012015365410086053,0.00020153073127802994,9.635643002927658e-06,0.0014740454470049944,0.6053096652030945,46.62337875366211,5.564480304718018,-19.586824417114258,-0.8444114327430725,-2.3458895683288574,0.14590780436992645,0
28,0.1349949836730957,-0.5537349581718445,-46.62337875366211,-5.564480304718018,19.535249710083008,0.8444114327430725,2.3522982597351074,-0.15964071452617645,0.0,0.0,0.0,0.0,0.0,0.0,0.0,-0.6354371775368484,-0.25716896127842975,-0.38869414053329393,0.31914789907866964,0.25422435662567905,0.07774847401387025,-0.18652305461099278,0.8780831658254589,0.7554185507091764,-0.282507548779772,-1.668887363581778,0.14139709457424776,2.403577744854821,1.027343844882316,0.878092876070424,0.7554597494309409,-0.2825552651693207,-1.6690993614607135,0.1414185955172306,2.4034451173676383,1.0273381002308042,-0.0015688750926450867,0.0008684045383363302,0.0008668721617971844,-0.0006037758980382365,-1.8566021161398383e-05,-0.0002274773782875545,-0.0014299543260752228,0.0,0.0,0.0,0.0,0.0,0.0,0.0,9.710244965099868e-06,4.1198721764446056e-05,-4.7716389548702054e-05,-0.00021199787893544375,2.1500942982838334e-05,-0.00013262748718245732,-5.744651511818688e-06,0.0015688750926450867,-0.0008684045383363302,-0.0008668721617971844,0.0006037758980382365,1.8566021161398383e-05,0.0002274773782875545,0.0014299543260752228,0.5537349581718445,46.62337875366211,5.564480304718018,-19.535249710083008,-0.8444114327430725,-2.3522982597351074,0.15964071452617645,0
29,0.13999557495117188,-0.5537349581718445,-46.62337875366211,-5.564480304718018,19.535249710083008,0.8444114327430725,2.3522982597351074,-0.15964071452617645,0.0,0.0,0.0,0.0,0.0,0.0,0.0,-0.6354371775368484,-0.25716896127842975,-0.38869414053329393,0.31914789907866964,0.25422435662567905,0.07774847401387025,-0.18652305461099278,0.8780831658254589,0.7554185507091764,-0.282507548779772,-1.668887363581778,0.14139709457424776,2.403577744854821,1.027343844882316,0.878092876070424,0.7554597494309409,-0.2825552651693207,-1.6690993614607135,0.1414185955172306,2.4034451173676383,1.0273381002308042,-0.0015688750926450867,0.0008684045383363302,0.0008668721617971844,-0.0006037758980382365,-1.8566021161398383e-05,-0.0002274773782875545,-0.0014299543260752228,0.0,0.0,0.0,0.0,0.0,0.0,0.0,9.710244965099868e-06,4.1198721764446056e-05,-4.7716389548702054e-05,-0.00021199787893544375,2.1500942982838334e-05,-0.00013262748718245732,-5.744651511818688e-06,0.0015688750926450867,-0.0008684045383363302,-0.0008668721617971844,0.0006037758980382365,1.8566021161398383e-05,0.0002274773782875545,0.0014299543260752228,0.5537349581718445,46.62337875366211,5.564480304718018,-19.535249710083008,-0.8444114327430725,-2.3522982597351074,0.15964071452617645,0
30,0.14500188827514648,-0.6053096652030945,-46.59957504272461,-5.564480304718018,19.535249710083008,0.8444114327430725,2.3522982597351074,-0.20724813640117645,0.0,0.0,0.0,0.0,0.0,0.0,0.0,-0.6379226190518723,-0.2736282288395692,-0.39557027414759954,0.32576001205753463,0.25542195399981626,0.0794800264905798,-0.1866611631026181,0.8780867851031453,0.7554171133013686,-0.282507548779772,-1.6688878405239094,0.141396740745771,2.403577744854821,1.0273491345958576,0.878092876070424,0.7554597494309409,-0.2825552651693207,-1.6690993614607135,0.1414185955172306,2.4034451173676383,1.0273381002308042,1.8380130997111538e-05,-0.00011079201202859381,0.0005792951728650505,-0.0003168860179534849,-5.229035872740931e-05,-0.00015253691201671255,0.00024012863503039395,0.0,0.0,0.0,0.0,0.0,0.0,0.0,6.090967278660209e-06,4.263612957222662e-05,-4.7716389548702054e-05,-0.00021152093680409934,2.1854771459606237e-05,-0.00013262748718245732,-1.1034365053452788e-05,-1.8380130997111538e-05,0.00011079201202859381,-0.0005792951728650505,0.0003168860179534849,5.229035872740931e-05,0.00015253691201671255,-0.00024012863503039395,0.6053096652030945,46.59957504272461,5.564480304718018,-19.535249710083008,-0.8444114327430725,-2.3522982597351074,0.20724813640117645,0
31,0.14999675750732422,-0.6053096652030945,-46.59957504272461,-5.564480304718018,19.535249710083008,0.8444114327430725,2.3522982597351074,-0.20724813640117645,0.0,0.0,0.0,0.0,0.0,0.0,0.0,-0.6379226190518723,-0.2736282288395692,-0.39557027414759954,0.32576001205753463,0.25542195399981626,0.0794800264905798,-0.1866611631026181,0.8780867851031453,0.7554171133013686,-0.282507548779772,-1.6688878405239094,0.141396740745771,2.403577744854821,1.0273491345958576,0.878092876070424,0.7554597494309409,-0.2825552651693207,-1.6690993614607135,0.1414185955172306,2.4034451173676383,1.0273381002308042,1.8380130997111538e-05,-0.00011079201202859381,0.0005792951728650505,-0.0003168860179534849,-5.229035872740931e-05,-0.00015253691201671255,0.00024012863503039395,0.0,0.0,0.0,0.0,0.0,0.0,0.0,6.090967278660209e-06,4.263612957222662e-05,-4.7716389548702054e-05,-0.00021152093680409934,2.1854771459606237e-05,-0.00013262748718245732,-1.1034365053452788e-05,-1.8380130997111538e-05,0.00011079201202859381,-0.0005792951728650505,0.0003168860179534849,5.229035872740931e-05,0.00015253691201671255,-0.00024012863503039395,0.6053096652030945,46.59957504272461,5.564480304718018,-19.535249710083008,-0.8444114327430725,-2.3522982597351074,0.20724813640117645,0
32,0.1550273895263672,-0.6291133761405945,-46.57577133178711,-5.536709308624268,19.511445999145508,0.8380027413368225,2.3522982597351074,-0.19351522624492645,0.0,0.0,0.0,0.0,0.0,0.0,0.0,-0.6298243719206342,-0.2463170783225931,-0.38702749960533633,0.3125644540463278,0.25548773293030863,0.07759436751239489,-0.18771488741438946,0.8780884555390005,0.7554147960636309,-0.28250949762160316,-1.6688863996799088,0.14139746545739715,2.403577744854821,1.0273476087353453,0.878092876070424,0.7554597494309409,-0.2825552651693207,-1.6690993614607135,0.1414185955172306,2.4034451173676383,1.0273381002308042,-0.0001880790523320117,0.0006211594185143502,1.5101484383526644e-05,0.0002966004348635956,-2.8691332895438968e-05,-0.0001849199104861155,0.0003842098385980702,0.0,0.0,0.0,0.0,0.0,0.0,0.0,4.420531423465768e-06,4.4953367309918946e-05,-4.576754771756786e-05,-0.00021296178080465467,2.1130059833451842e-05,-0.00013262748718245732,-9.508504541066998e-06,0.0001880790523320117,-0.0006211594185143502,-1.5101484383526644e-05,-0.0002966004348635956,2.8691332895438968e-05,0.0001849199104861155,-0.0003842098385980702,0.6291133761405945,46.57577133178711,5.536709308624268,-19.511445999145508,-0.8380027413368225,-2.3522982597351074,0.19351522624492645,0
33,0.15999412536621094,-0.6291133761405945,-46.57577133178711,-5.536709308624268,19.511445999145508,0.8380027413368225,2.3522982597351074,-0.19351522624492645,0.0,0.0,0.0,0.0,0.0,0.0,0.0,-0.6298243719206342,-0.2463170783225931,-0.38702749960533633,0.3125644540463278,0.25548773293030863,0.07759436751239489,-0.18771488741438946,0.8780884555390005,0.7554147960636309,-0.28250949762160316,-1.6688863996799088,0.14139746545739715,2.403577744854821,1.0273476087353453,0.878092876070424,0.7554597494309409,-0.2825552651693207,-1.6690993614607135,0.1414185955172306,2.4034451173676383,1.0273381002308042,-0.0001880790523320117,0.0006211594185143502,1.5101484383526644e-05,0.0002966004348635956,-2.8691332895438968e-05,-0.0001849199104861155,0.0003842098385980702,0.0,0.0,0.0,0.0,0.0,0.0,0.0,4.420531423465768e-06,4.4953367309918946e-05,-4.576754771756786e-05,-0.00021296178080465467,2.1130059833451842e-05,-0.00013262748718245732,-9.508504541066998e-06,0.0001880790523320117,-0.0006211594185143502,-1.5101484383526644e-05,-0.0002966004348635956,2.8691332895438968e-05,0.0001849199104861155,-0.0003842098385980702,0.6291133761405945,46.57577133178711,5.536709308624268,-19.511445999145508,-0.8380027413368225,-2.3522982597351074,0.19351522624492645,0
34,0.1649923324584961,-0.6568843722343445,-46.62337875366211,-5.588284015655518,19.535249710083008,0.8380027413368225,2.3458895683288574,-0.20083944499492645,0.0,0.0,0.0,0.0,0.0,0.0,0.0,-0.6331726384947179,-0.26948246269106474,-0.3876329441998954,0.32538760927297666,0.2556746556082971,0.08035448055932962,-0.18784278678986469,0.8780904043808317,0.7554179028962249,-0.28250587834391677,-1.668885933179265,0.141397452334637,2.4035784569316436,1.0273484225190348,0.878092876070424,0.7554597494309409,-0.2825552651693207,-1.6690993614607135,0.1414185955172306,2.4034451173676383,1.0273381002308042,0.00011653245197931765,0.0009468090666094825,0.0007577219841845588,-0.0001218723091790219,5.386296876217758e-05,7.34593833448907e-05,0.00010729033551714163,0.0,0.0,0.0,0.0,0.0,0.0,0.0,2.4716895922205495e-06,4.1846534715950234e-05,-4.9386825403952006e-05,-0.00021342828144854664,2.1143182593608145e-05,-0.000133339564005297,-1.0322288230613097e-05,-0.00011653245197931765,-0.0009468090666094825,-0.0007577219841845588,0.0001218723091790219,-5.386296876217758e-05,-7.34593833448907e-05,-0.00010729033551714163,0.6568843722343445,46.62337875366211,5.588284015655518,-19.535249710083008,-0.8380027413368225,-2.3458895683288574,0.20083944499492645,0
35,0.16996502876281738,-0.6568843722343445,-46.62337875366211,-5.588284015655518,19.535249710083008,0.8380027413368225,2.3458895683288574,-0.20083944499492645,0.0,0.0,0.0,0.0,0.0,0.0,0.0,-0.6331726384947179,-0.26948246269106474,-0.3876329441998954,0.32538760927297666,0.2556746556082971,0.08035448055932962,-0.18784278678986469,0.8780904043808317,0.7554179028962249,-0.28250587834391677,-1.668885933179265,0.141397452334637,2.4035784569316436,1.0273484225190348,0.878092876070424,0.7554597494309409,-0.2825552651693207,-1.6690993614607135,0.1414185955172306,2.4034451173676383,1.0273381002308042,0.00011653245197931765,0.0009468090666094825,0.0007577219841845588,-0.0001218723091790219,5.386296876217758e-05,7.34593833448907e-05,0.00010729033551714163,0.0,0.0,0.0,0.0,0.0,0.0,0.0,2.4716895922205495e-06,4.1846534715950234e-05,-4.9386825403952006e-05,-0.00021342828144854664,2.1143182593608145e-05,-0.000133339564005297,-1.0322288230613097e-05,-0.00011653245197931765,-0.0009468090666094825,-0.0007577219841845588,0.0001218723091790219,-5.386296876217758e-05,-7.34593833448907e-05,-0.00010729033551714163,0.6568843722343445,46.62337875366211,5.588284015655518,-19.535249710083008,-0.8380027413368225,-2.3458895683288574,0.20083944499492645,0
36,0.17502665519714355,-0.7084590792655945,-46.59957504272461,-5.612087726593018,19.535249710083008,0.8325095772743225,2.3394808769226074,-0.15231649577617645,0.0,0.0,0.0,0.0,0.0,0.0,0.0,-0.6467777649510797,-0.27725184821203375,-0.3971671536602833,0.3296575014518978,0.255724952174264,0.08130474622386796,-0.18868193530822766,0.8780940236585181,0.7554168632090082,-0.2825042079080615,-1.6688880788253975,0.14140125169663117,2.4035791690084665,1.0273430310802327,0.878092876070424,0.7554597494309409,-0.2825552651693207,-1.6690993614607135,0.1414185955172306,2.4034451173676383,1.0273381002308042,0.000680692893474374,-0.0003811108660370206,0.0008742518877716453,0.00020685448700877502,0.0001679941765165015,0.0003037751662058719,-0.0016022938502471729,0.0,0.0,0.0,0.0,0.0,0.0,0.0,-1.1475880941080874e-06,4.2886221932603164e-05,-5.105726125920196e-05,-0.00021128263531600133,1.7343820599424742e-05,-0.0001340516408281367,-4.930849428541606e-06,-0.000680692893474374,0.0003811108660370206,-0.0008742518877716453,-0.00020685448700877502,-0.0001679941765165015,-0.0003037751662058719,0.0016022938502471729,0.7084590792655945,46.59957504272461,5.612087726593018,-19.535249710083008,-0.8325095772743225,-2.3394808769226074,0.15231649577617645,0
37,0.18004345893859863,-0.7084590792655945,-46.59957504272461,-5.612087726593018,19.535249710083008,0.8325095772743225,2.3394808769226074,-0.15231649577617645,0.0,0.0,0.0,0.0,0.0,0.0,0.0,-0.6467777649510797,-0.27725184821203375,-0.3971671536602833,0.3296575014518978,0.255724952174264,0.08130474622386796,-0.18868193530822766,0.8780940236585181,0.7554168632090082,-0.2825042079080615,-1.6688880788253975,0.14140125169663117,2.4035791690084665,1.0273430310802327,0.878092876070424,0.7554597494309409,-0.2825552651693207,-1.6690993614607135,0.1414185955172306,2.4034451173676383,1.0273381002308042,0.000680692893474374,-0.0003811108660370206,0.0008742518877716453,0.00020685448700877502,0.0001679941765165015,0.0003037751662058719,-0.0016022938502471729,0.0,0.0,0.0,0.0,0.0,0.0,0.0,-1.1475880941080874e-06,4.2886221932603164e-05,-5.105726125920196e-05,-0.00021128263531600133,1.7343820599424742e-05,-0.0001340516408281367,-4.930849428541606e-06,-0.000680692893474374,0.0003811108660370206,-0.0008742518877716453,-0.00020685448700877502,-0.0001679941765165015,-0.0003037751662058719,0.0016022938502471729,0.7084590792655945,46.59957504272461,5.612087726593018,-19.535249710083008,-0.8325095772743225,-2.3394808769226074,0.15231649577617645,0
38,0.1850414276123047,-0.7084590792655945,-46.59957504272461,-5.612087726593018,19.535249710083008,0.8325095772743225,2.3394808769226074,-0.15231649577617645,0.0,0.0,0.0,0.0,0.0,0.0,0.0,-0.6467777649510797,-0.27725184821203375,-0.3971671536602833,0.3296575014518978,0.255724952174264,0.08130474622386796,-0.18868193530822766,0.8780940236585181,0.7554168632090082,-0.2825042079080615,-1.6688880788253975,0.14140125169663117,2.4035791690084665,1.0273430310802327,0.878092876070424,0.7554597494309409,-0.2825552651693207,-1.6690993614607135,0.1414185955172306,2.4034451173676383,1.0273381002308042,0.000680692893474374,-0.0003811108660370206,0.0008742518877716453,0.00020685448700877502,0.0001679941765165015,0.0003037751662058719,-0.0016022938502471729,0.0,0.0,0.0,0.0,0.0,0.0,0.0,-1.1475880941080874e-06,4.2886221932603164e-05,-5.105726125920196e-05,-0.00021128263531600133,1.7343820599424742e-05,-0.0001340516408281367,-4.930849428541606e-06,-0.000680692893474374,0.0003811108660370206,-0.0008742518877716453,-0.00020685448700877502,-0.0001679941765165015,-0.0003037751662058719,0.0016022938502471729,0.7084590792655945,46.59957504272461,5.612087726593018,-19.535249710083008,-0.8325095772743225,-2.3394808769226074,0.15231649577617645,0
39,0.1900622844696045,-0.7084590792655945,-46.59957504272461,-5.612087726593018,19.535249710083008,0.8325095772743225,2.3394808769226074,-0.15231649577617645,0.0,0.0,0.0,0.0,0.0,0.0,0.0,-0.6467777649510797,-0.27725184821203375,-0.3971671536602833,0.3296575014518978,0.255724952174264,0.08130474622386796,-0.18868193530822766,0.8780940236585181,0.7554168632090082,-0.2825042079080615,-1.6688880788253975,0.14140125169663117,2.4035791690084665,1.0273430310802327,0.878092876070424,0.7554597494309409,-0.2825552651693207,-1.6690993614607135,0.1414185955172306,2.4034451173676383,1.0273381002308042,0.000680692893474374,-0.0003811108660370206,0.0008742518877716453,0.00020685448700877502,0.0001679941765165015,0.0003037751662058719,-0.0016022938502471729,0.0,0.0,0.0,0.0,0.0,0.0,0.0,-1.1475880941080874e-06,4.2886221932603164e-05,-5.105726125920196e-05,-0.00021128263531600133,1.7343820599424742e-05,-0.0001340516408281367,-4.930849428541606e-06,-0.000680692893474374,0.0003811108660370206,-0.0008742518877716453,-0.00020685448700877502,-0.0001679941765165015,-0.0003037751662058719,0.0016022938502471729,0.7084590792655945,46.59957504272461,5.612087726593018,-19.535249710083008,-0.8325095772743225,-2.3394808769226074,0.15231649577617645,0
40,0.19504046440124512,-0.6806880831718445,-46.57577133178711,-5.588284015655518,19.535249710083008,0.8444114327430725,2.3458895683288574,-0.17978231608867645,0.0,0.0,0.0,0.0,0.0,0.0,0.0,-0.6440331898446198,-0.2532774136664735,-0.389359868517756,0.31598235946604925,0.2544816380830397,0.07896131663415139,-0.1891927745896506,0.8780920748166869,0.7554154948305112,-0.28250587834391677,-1.668888079818656,0.141396779644242,2.4035784569316436,1.0273460828380452,0.878092876070424,0.7554597494309409,-0.2825552651693207,-1.6690993614607135,0.1414185955172306,2.4034451173676383,1.0273381002308042,-1.7175670972375646e-05,-0.0004167273126887876,5.631257405965557e-05,-0.0006804290400736215,-0.00016343608740160265,9.690381021555097e-05,6.5877374414893e-05,0.0,0.0,0.0,0.0,0.0,0.0,0.0,8.012537370261086e-07,4.4254600429671775e-05,-4.9386825403952006e-05,-0.00021128164205741484,2.1815872988606433e-05,-0.000133339564005297,-7.982607240997197e-06,1.7175670972375646e-05,0.0004167273126887876,-5.631257405965557e-05,0.0006804290400736215,0.00016343608740160265,-9.690381021555097e-05,-6.5877374414893e-05,0.6806880831718445,46.57577133178711,5.588284015655518,-19.535249710083008,-0.8444114327430725,-2.3458895683288574,0.17978231608867645,0
41,0.2000114917755127,-0.6806880831718445,-46.57577133178711,-5.588284015655518,19.535249710083008,0.8444114327430725,2.3458895683288574,-0.17978231608867645,0.0,0.0,0.0,0.0,0.0,0.0,0.0,-0.6440331898446198,-0.2532774136664735,-0.389359868517756,0.31598235946604925,0.2544816380830397,0.07896131663415139,-0.1891927745896506,0.8780920748166869,0.7554154948305112,-0.28250587834391677,-1.668888079818656,0.141396779644242,2.4035784569316436,1.0273460828380452,0.878092876070424,0.7554597494309409,-0.2825552651693207,-1.6690993614607135,0.1414185955172306,2.4034451173676383,1.0273381002308042,-1.7175670972375646e-05,-0.0004167273126887876,5.631257405965557e-05,-0.0006804290400736215,-0.00016343608740160265,9.690381021555097e-05,6.5877374414893e-05,0.0,0.0,0.0,0.0,0.0,0.0,0.0,8.012537370261086e-07,4.4254600429671775e-05,-4.9386825403952006e-05,-0.00021128164205741484,2.1815872988606433e-05,-0.000133339564005297,-7.982607240997197e-06,1.7175670972375646e-05,0.0004167273126887876,-5.631257405965557e-05,0.0006804290400736215,0.00016343608740160265,-9.690381021555097e-05,-6.5877374414893e-05,0.6806880831718445,46.57577133178711,5.588284015655518,-19.535249710083008,-0.8444114327430725,-2.3458895683288574,0.17978231608867645,0
42,0.20499777793884277,-0.6053096652030945,-46.57577133178711,-5.564480304718018,19.559053421020508,0.8444114327430725,2.3458895683288574,-0.20724813640117645,0.0,0.0,0.0,0.0,0.0,0.0,0.0,-0.6350863378685525,-0.26245475852958067,-0.3848652848289822,0.32154817244314254,0.25438557484549434,0.07999690100179607,-0.18750072741966764,0.8780867851388111,0.7554144821013646,-0.282507548779772,-1.6688897238725802,0.14139674025796234,2.4035784569316436,1.0273491345958576,0.878092876070424,0.7554597494309409,-0.2825552651693207,-1.6690993614607135,0.1414185955172306,2.4034451173676383,1.0273381002308042,-0.00132009469726795,-0.00012528326188617002,-0.00047481439343797263,-0.0007402963801810137,8.668103515389917e-05,-5.274761921220682e-05,0.0009804105459307198,0.0,0.0,0.0,0.0,0.0,0.0,0.0,6.090931612856565e-06,4.5267329576215154e-05,-4.7716389548702054e-05,-0.00020963758813330458,2.1855259268260818e-05,-0.000133339564005297,-1.1034365053452788e-05,0.00132009469726795,0.00012528326188617002,0.00047481439343797263,0.0007402963801810137,-8.668103515389917e-05,5.274761921220682e-05,-0.0009804105459307198,0.6053096652030945,46.57577133178711,5.564480304718018,-19.559053421020508,-0.8444114327430725,-2.3458895683288574,0.20724813640117645,0
43,0.21000385284423828,-0.6053096652030945,-46.57577133178711,-5.564480304718018,19.559053421020508,0.8444114327430725,2.3458895683288574,-0.20724813640117645,0.0,0.0,0.0,0.0,0.0,0.0,0.0,-0.6350863378685525,-0.26245475852958067,-0.3848652848289822,0.32154817244314254,0.25438557484549434,0.07999690100179607,-0.18750072741966764,0.8780867851388111,0.7554144821013646,-0.282507548779772,-1.6688897238725802,0.14139674025796234,2.4035784569316436,1.0273491345958576,0.878092876070424,0.7554597494309409,-0.2825552651693207,-1.6690993614607135,0.1414185955172306,2.4034451173676383,1.0273381002308042,-0.00132009469726795,-0.00012528326188617002,-0.00047481439343797263,-0.0007402963801810137,8.668103515389917e-05,-5.274761921220682e-05,0.0009804105459307198,0.0,0.0,0.0,0.0,0.0,0.0,0.0,6.090931612856565e-06,4.5267329576215154e-05,-4.7716389548702054e-05,-0.00020963758813330458,2.1855259268260818e-05,-0.000133339564005297,-1.1034365053452788e-05,0.00132009469726795,0.00012528326188617002,0.00047481439343797263,0.0007402963801810137,-8.668103515389917e-05,5.274761921220682e-05,-0.0009804105459307198,0.6053096652030945,46.57577133178711,5.564480304718018,-19.559053421020508,-0.8444114327430725,-2.3458895683288574,0.20724813640117645,0
44,0.21499276161193848,-0.6806880831718445,-46.57577133178711,-5.588284015655518,19.559053421020508,0.8499045968055725,2.3330721855163574,-0.16604940593242645,0.0,0.0,0.0,0.0,0.0,0.0,0.0,-0.6416425364096601,-0.264850315150463,-0.39316777573601414,0.324016560486548,0.25528677373724146,0.08032053682918325,-0.18737125014415618,0.8780920748166872,0.7554174015210346,-0.2825065869769158,-1.668889747310929,0.14139932312895076,2.4035798810852893,1.027344556959139,0.878092876070424,0.7554597494309409,-0.2825552651693207,-1.6690993614607135,0.1414185955172306,2.4034451173676383,1.0273381002308042,0.001145204094937444,-0.00013387853743872979,0.0002845104033091285,-7.093106262735952e-05,-0.0004572447754028353,0.00048593400690774747,-0.0009003080502548527,0.0,0.0,0.0,0.0,0.0,0.0,0.0,8.01253736804064e-07,4.234790990620407e-05,-4.867819240494953e-05,-0.00020961414978448722,1.927238827983957e-05,-0.0001347637176509764,-6.456728334880424e-06,-0.001145204094937444,0.00013387853743872979,-0.0002845104033091285,7.093106262735952e-05,0.0004572447754028353,-0.00048593400690774747,0.0009003080502548527,0.6806880831718445,46.57577133178711,5.588284015655518,-19.559053421020508,-0.8499045968055725,-2.3330721855163574,0.16604940593242645,0
45,0.22000575065612793,-0.6806880831718445,-46.57577133178711,-5.588284015655518,19.559053421020508,0.8499045968055725,2.3330721855163574,-0.16604940593242645,0.0,0.0,0.0,0.0,0.0,0.0,0.0,-0.6416425364096601,-0.264850315150463,-0.39316777573601414,0.324016560486548,0.25528677373724146,0.08032053682918325,-0.18737125014415618,0.8780920748166872,0.7554174015210346,-0.2825065869769158,-1.668889747310929,0.14139932312895076,2.4035798810852893,1.027344556959139,0.878092876070424,0.7554597494309409,-0.2825552651693207,-1.6690993614607135,0.1414185955172306,2.4034451173676383,1.0273381002308042,0.001145204094937444,-0.00013387853743872979,0.0002845104033091285,-7.093106262735952e-05,-0.0004572447754028353,0.00048593400690774747,-0.0009003080502548527,0.0,0.0,0.0,0.0,0.0,0.0,0.0,8.01253736804064e-07,4.234790990620407e-05,-4.867819240494953e-05,-0.00020961414978448722,1.927238827983957e-05,-0.0001347637176509764,-6.456728334880424e-06,-0.001145204094937444,0.00013387853743872979,-0.0002845104033091285,7.093106262735952e-05,0.0004572447754028353,-0.00048593400690774747,0.0009003080502548527,0.6806880831718445,46.57577133178711,5.588284015655518,-19.559053421020508,-0.8499045968055725,-2.3330721855163574,0.16604940593242645,0
46,0.22501802444458008,-0.6053096652030945,-46.54800033569336,-5.564480304718018,19.559053421020508,0.8444114327430725,2.3458895683288574,-0.21457235515117645,0.0,0.0,0.0,0.0,0.0,0.0,0.0,-0.6351278340313777,-0.26149454049672755,-0.39112828767170593,0.3241537589148937,0.25536420307783303,0.0796845168323565,-0.18668795938909444,0.8780867851031453,0.7554156868390763,-0.2825075487917728,-1.6688897503634823,0.14139674517212614,2.4035784569316436,1.0273499886249442,0.878092876070424,0.7554597494309409,-0.2825552651693207,-1.6690993614607135,0.1414185955172306,2.4034451173676383,1.0273381002308042,-0.0003115835035140132,-0.001000832996318059,2.371772698747284e-05,-0.0005339115067610913,-0.00019952921113471447,5.0438963383880924e-05,0.0011632298816542101,0.0,0.0,0.0,0.0,0.0,0.0,0.0,6.090967278660209e-06,4.406259186451322e-05,-4.77163775479128e-05,-0.000209611097231166,2.185034510446271e-05,-0.000133339564005297,-1.1888394140013858e-05,0.0003115835035140132,0.001000832996318059,-2.371772698747284e-05,0.0005339115067610913,0.00019952921113471447,-5.0438963383880924e-05,-0.0011632298816542101,0.6053096652030945,46.54800033569336,5.564480304718018,-19.559053421020508,-0.8444114327430725,-2.3458895683288574,0.21457235515117645,0
47,0.23000311851501465,-0.6053096652030945,-46.54800033569336,-5.564480304718018,19.559053421020508,0.8444114327430725,2.3458895683288574,-0.21457235515117645,0.0,0.0,0.0,0.0,0.0,0.0,0.0,-0.6351278340313777,-0.26149454049672755,-0.39112828767170593,0.3241537589148937,0.25536420307783303,0.0796845168323565,-0.18668795938909444,0.8780867851031453,0.7554156868390763,-0.2825075487917728,-1.6688897503634823,0.14139674517212614,2.4035784569316436,1.0273499886249442,0.878092876070424,0.7554597494309409,-0.2825552651693207,-1.6690993614607135,0.1414185955172306,2.4034451173676383,1.0273381002308042,-0.0003115835035140132,-0.001000832996318059,2.371772698747284e-05,-0.0005339115067610913,-0.00019952921113471447,5.0438963383880924e-05,0.0011632298816542101,0.0,0.0,0.0,0.0,0.0,0.0,0.0,6.090967278660209e-06,4.406259186451322e-05,-4.77163775479128e-05,-0.000209611097231166,2.185034510446271e-05,-0.000133339564005297,-1.1888394140013858e-05,0.0003115835035140132,0.001000832996318059,-2.371772698747284e-05,0.0005339115067610913,0.00019952921113471447,-5.0438963383880924e-05,-0.0011632298816542101,0.6053096652030945,46.54800033569336,5.564480304718018,-19.559053421020508,-0.8444114327430725,-2.3458895683288574,0.21457235515117645,0
48,0.23495244979858398,-0.6053096652030945,-46.57577133178711,-5.512905597686768,19.511445999145508,0.8325095772743225,2.3458895683288574,-0.22830526530742645,0.0,0.0,0.0,0.0,0.0,0.0,0.0,-0.6337293512027066,-0.2628877669339514,-0.3947237851138518,0.3265809278913219,0.25527637781556745,0.07966957661935299,-0.1869885146341244,0.8780867851031453,0.755416825036599,-0.28251116806945925,-1.6688834689960146,0.141399243741133,2.4035784569316436,1.027351474276923,0.878092876070424,0.7554597494309409,-0.2825552651693207,-1.6690993614607135,0.1414185955172306,2.4034451173676383,1.0273381002308042,0.0002631550114113177,-0.0006571155431999192,-0.0006746979150532453,0.00033051842159587396,0.00028964232125219553,-0.00015402379423593986,0.0020198926275720665,0.0,0.0,0.0,0.0,0.0,0.0,0.0,6.090967278660209e-06,4.29243943418367e-05,-4.4097099861473144e-05,-0.0002158924646988858,1.9351776097603635e-05,-0.000133339564005297,-1.3374046118785898e-05,-0.0002631550114113177,0.0006571155431999192,0.0006746979150532453,-0.00033051842159587396,-0.00028964232125219553,0.00015402379423593986,-0.0020198926275720665,0.6053096652030945,46.57577133178711,5.512905597686768,-19.511445999145508,-0.8325095772743225,-2.3458895683288574,0.22830526530742645,0
49,0.24001693725585938,-0.6053096652030945,-46.57577133178711,-5.512905597686768,19.511445999145508,0.8325095772743225,2.3458895683288574,-0.22830526530742645,0.0,0.0,0.0,0.0,0.0,0.0,0.0,-0.6337293512027066,-0.2628877669339514,-0.3947237851138518,0.3265809278913219,0.25527637781556745,0.07966957661935299,-0.1869885146341244,0.8780867851031453,0.755416825036599,-0.28251116806945925,-1.6688834689960146,0.141399243741133,2.4035784569316436,1.027351474276923,0.878092876070424,0.7554597494309409,-0.2825552651693207,-1.6690993614607135,0.1414185955172306,2.4034451173676383,1.0273381002308042,0.0002631550114113177,-0.0006571155431999192,-0.0006746979150532453,0.00033051842159587396,0.00028964232125219553,-0.00015402379423593986,0.0020198926275720665,0.0,0.0,0.0,0.0,0.0,0.0,0.0,6.090967278660209e-06,4.29243943418367e-05,-4.4097099861473144e-05,-0.0002158924646988858,1.9351776097603635e-05,-0.000133339564005297,-1.3374046118785898e-05,-0.0002631550114113177,0.0006571155431999192,0.0006746979150532453,-0.00033051842159587396,-0.00028964232125219553,0.00015402379423593986,-0.0020198926275720665,0.6053096652030945,46.57577133178711,5.512905597686768,-19.511445999145508,-0.8325095772743225,-2.3458895683288574,0.22830526530742645,0
50,0.2450089454650879,-0.6053096652030945,-46.62337875366211,-5.564480304718018,19.559053421020508,0.8380027413368225,2.3522982597351074,-0.19351522624492645,0.0,0.0,0.0,0.0,0.0,0.0,0.0,-0.6318427599092263,-0.252227967544015,-0.39358269679159613,0.3187263989036597,0.2547662678507929,0.07796835948662731,-0.1864582815212413,0.8780867851031453,0.7554187923774692,-0.2825075487797721,-1.6688897503469349,0.14139745379932261,2.403577744854821,1.0273476087169515,0.878092876070424,0.7554597494309409,-0.2825552651693207,-1.6690993614607135,0.1414185955172306,2.4034451173676383,1.0273381002308042,0.00021460617629457223,0.0007164594631233277,0.0006796832593931275,-0.0013480431155518508,1.952003932277499e-06,-0.00028084796333883603,-4.948082582916733e-05,0.0,0.0,0.0,0.0,0.0,0.0,0.0,6.090967278660209e-06,4.095705347162415e-05,-4.771638954864654e-05,-0.0002096111137785961,2.1141717907985358e-05,-0.00013262748718245732,-9.508486147336015e-06,-0.00021460617629457223,-0.0007164594631233277,-0.0006796832593931275,0.0013480431155518508,-1.952003932277499e-06,0.00028084796333883603,4.948082582916733e-05,0.6053096652030945,46.62337875366211,5.564480304718018,-19.559053421020508,-0.8380027413368225,-2.3522982597351074,0.19351522624492645,0
51,0.24999260902404785,-0.6053096652030945,-46.62337875366211,-5.564480304718018,19.559053421020508,0.8380027413368225,2.3522982597351074,-0.19351522624492645,0.0,0.0,0.0,0.0,0.0,0.0,0.0,-0.6318427599092263,-0.252227967544015,-0.39358269679159613,0.3187263989036597,0.2547662678507929,0.07796835948662731,-0.1864582815212413,0.8780867851031453,0.7554187923774692,-0.2825075487797721,-1.6688897503469349,0.14139745379932261,2.403577744854821,1.0273476087169515,0.878092876070424,0.7554597494309409,-0.2825552651693207,-1.6690993614607135,0.1414185955172306,2.4034451173676383,1.0273381002308042,0.00021460617629457223,0.0007164594631233277,0.0006796832593931275,-0.0013480431155518508,1.952003932277499e-06,-0.00028084796333883603,-4.948082582916733e-05,0.0,0.0,0.0,0.0,0.0,0.0,0.0,6.090967278660209e-06,4.095705347162415e-05,-4.771638954864654e-05,-0.0002096111137785961,2.1141717907985358e-05,-0.00013262748718245732,-9.508486147336015e-06,-0.00021460617629457223,-0.0007164594631233277,-0.0006796832593931275,0.0013480431155518508,-1.952003932277499e-06,0.00028084796333883603,4.948082582916733e-05,0.6053096652030945,46.62337875366211,5.564480304718018,-19.559053421020508,-0.8380027413368225,-2.3522982597351074,0.19351522624492645,0
52,0.25499796867370605,-0.5815059542655945,-46.57577133178711,-5.536709308624268,19.535249710083008,0.8444114327430725,2.3458895683288574,-0.15964071452617645,0.0,0.0,0.0,0.0,0.0,0.0,0.0,-0.6307592847167056,-0.25674165138530575,-0.3938333330071496,0.3177258578629444,0.2548253535173133,0.07741643825799689,-0.1871823881935512,0.87808511466729,0.7554147507717137,-0.28250949762160316,-1.6688880799276786,0.14139674025774826,2.4035784569316436,1.027343844882316,0.878092876070424,0.7554597494309409,-0.2825552651693207,-1.6690993614607135,0.1414185955172306,2.4034451173676383,1.0273381002308042,-0.0004278225763584616,-0.0006311044760650596,-0.00013750665276605285,-0.0005558948013309504,-8.882186933208971e-05,-0.0001723916140856371,-0.0007464183252882624,0.0,0.0,0.0,0.0,0.0,0.0,0.0,7.761403133965672e-06,4.499865922713564e-05,-4.576754771756786e-05,-0.0002112815330348461,2.1855259482339573e-05,-0.000133339564005297,-5.744651511818688e-06,0.0004278225763584616,0.0006311044760650596,0.00013750665276605285,0.0005558948013309504,8.882186933208971e-05,0.0001723916140856371,0.0007464183252882624,0.5815059542655945,46.57577133178711,5.536709308624268,-19.535249710083008,-0.8444114327430725,-2.3458895683288574,0.15964071452617645,0
53,0.26000094413757324,-0.5815059542655945,-46.57577133178711,-5.536709308624268,19.535249710083008,0.8444114327430725,2.3458895683288574,-0.15964071452617645,0.0,0.0,0.0,0.0,0.0,0.0,0.0,-0.6307592847167056,-0.25674165138530575,-0.3938333330071496,0.3177258578629444,0.2548253535173133,0.07741643825799689,-0.1871823881935512,0.87808511466729,0.7554147507717137,-0.28250949762160316,-1.6688880799276786,0.14139674025774826,2.4035784569316436,1.027343844882316,0.878092876070424,0.7554597494309409,-0.2825552651693207,-1.6690993614607135,0.1414185955172306,2.4034451173676383,1.0273381002308042,-0.0004278225763584616,-0.0006311044760650596,-0.00013750665276605285,-0.0005558948013309504,-8.882186933208971e-05,-0.0001723916140856371,-0.0007464183252882624,0.0,0.0,0.0,0.0,0.0,0.0,0.0,7.761403133965672e-06,4.499865922713564e-05,-4.576754771756786e-05,-0.0002112815330348461,2.1855259482339573e-05,-0.000133339564005297,-5.744651511818688e-06,0.0004278225763584616,0.0006311044760650596,0.00013750665276605285,0.0005558948013309504,8.882186933208971e-05,0.0001723916140856371,0.0007464183252882624,0.5815059542655945,46.57577133178711,5.536709308624268,-19.535249710083008,-0.8444114327430725,-2.3458895683288574,0.15964071452617645,0
54,0.26498913764953613,-0.5815059542655945,-46.59957504272461,-5.564480304718018,19.511445999145508,0.8380027413368225,2.3394808769226074,-0.19351522624492645,0.0,0.0,0.0,0.0,0.0,0.0,0.0,-0.6216414248128316,-0.250571655381188,-0.38463087755440145,0.31521043055680864,0.2550285632198297,0.07622206064635001,-0.18758518023316575,0.87808511466729,0.7554162321381056,-0.282507548779772,-1.6688864065483842,0.14139745235256407,2.4035791690084665,1.0273476087169515,0.878092876070424,0.7554597494309409,-0.2825552651693207,-1.6690993614607135,0.1414185955172306,2.4034451173676383,1.0273381002308042,-0.0006658566712084414,0.0005734212404943283,0.00030666769002061166,0.0002774360271963863,4.574174214205482e-05,4.847935271645674e-05,-0.00019818678284992574,0.0,0.0,0.0,0.0,0.0,0.0,0.0,7.761403133965672e-06,4.3517292835248966e-05,-4.7716389548702054e-05,-0.00021295491232931063,2.1143164666531655e-05,-0.0001340516408281367,-9.508486147336015e-06,0.0006658566712084414,-0.0005734212404943283,-0.00030666769002061166,-0.0002774360271963863,-4.574174214205482e-05,-4.847935271645674e-05,0.00019818678284992574,0.5815059542655945,46.59957504272461,5.564480304718018,-19.511445999145508,-0.8380027413368225,-2.3394808769226074,0.19351522624492645,0
55,0.2700016498565674,-0.5815059542655945,-46.59957504272461,-5.564480304718018,19.511445999145508,0.8380027413368225,2.3394808769226074,-0.19351522624492645,0.0,0.0,0.0,0.0,0.0,0.0,0.0,-0.6216414248128316,-0.250571655381188,-0.38463087755440145,0.31521043055680864,0.2550285632198297,0.07622206064635001,-0.18758518023316575,0.87808511466729,0.7554162321381056,-0.282507548779772,-1.6688864065483842,0.14139745235256407,2.4035791690084665,1.0273476087169515,0.878092876070424,0.7554597494309409,-0.2825552651693207,-1.6690993614607135,0.1414185955172306,2.4034451173676383,1.0273381002308042,-0.0006658566712084414,0.0005734212404943283,0.00030666769002061166,0.0002774360271963863,4.574174214205482e-05,4.847935271645674e-05,-0.00019818678284992574,0.0,0.0,0.0,0.0,0.0,0.0,0.0,7.761403133965672e-06,4.3517292835248966e-05,-4.7716389548702054e-05,-0.00021295491232931063,2.1143164666531655e-05,-0.0001340516408281367,-9.508486147336015e-06,0.0006658566712084414,-0.0005734212404943283,-0.00030666769002061166,-0.0002774360271963863,-4.574174214205482e-05,-4.847935271645674e-05,0.00019818678284992574,0.5815059542655945,46.59957504272461,5.564480304718018,-19.511445999145508,-0.8380027413368225,-2.3394808769226074,0.19351522624492645,0
56,0.2750105857849121,-0.6568843722343445,-46.62337875366211,-5.588284015655518,19.535249710083008,0.8325095772743225,2.3458895683288574,-0.19351522624492645,0.0,0.0,0.0,0.0,0.0,0.0,0.0,-0.6423063956039378,-0.2778152143962231,-0.40347576937648766,0.32735622667715236,0.2555549010736237,0.07702890548053011,-0.18884010537843532,0.8780904043808317,0.7554181340103042,-0.28250587845192365,-1.6688859312169777,0.1413991256356242,2.4035784569316436,1.0273476087169515,0.878092876070424,0.7554597494309409,-0.2825552651693207,-1.6690993614607135,0.1414185955172306,2.4034451173676383,1.0273381002308042,0.0003189814442509998,8.802158056516631e-05,-6.624853715818908e-08,-2.596724277595244e-05,0.0003140675489881872,-0.0001962185004210065,8.820700456819061e-05,0.0,0.0,0.0,0.0,0.0,0.0,0.0,2.4716895922205495e-06,4.1615420636631484e-05,-4.938671739707079e-05,-0.00021343024373576824,1.946988160639318e-05,-0.000133339564005297,-9.508486147336015e-06,-0.0003189814442509998,-8.802158056516631e-05,6.624853715818908e-08,2.596724277595244e-05,-0.0003140675489881872,0.0001962185004210065,-8.820700456819061e-05,0.6568843722343445,46.62337875366211,5.588284015655518,-19.535249710083008,-0.8325095772743225,-2.3458895683288574,0.19351522624492645,0
57,0.28000473976135254,-0.6568843722343445,-46.62337875366211,-5.588284015655518,19.535249710083008,0.8325095772743225,2.3458895683288574,-0.19351522624492645,0.0,0.0,0.0,0.0,0.0,0.0,0.0,-0.6423063956039378,-0.2778152143962231,-0.40347576937648766,0.32735622667715236,0.2555549010736237,0.07702890548053011,-0.18884010537843532,0.8780904043808317,0.7554181340103042,-0.28250587845192365,-1.6688859312169777,0.1413991256356242,2.4035784569316436,1.0273476087169515,0.878092876070424,0.7554597494309409,-0.2825552651693207,-1.6690993614607135,0.1414185955172306,2.4034451173676383,1.0273381002308042,0.0003189814442509998,8.802158056516631e-05,-6.624853715818908e-08,-2.596724277595244e-05,0.0003140675489881872,-0.0001962185004210065,8.820700456819061e-05,0.0,0.0,0.0,0.0,0.0,0.0,0.0,2.4716895922205495e-06,4.1615420636631484e-05,-4.938671739707079e-05,-0.00021343024373576824,1.946988160639318e-05,-0.000133339564005297,-9.508486147336015e-06,-0.0003189814442509998,-8.802158056516631e-05,6.624853715818908e-08,2.596724277595244e-05,-0.0003140675489881872,0.0001962185004210065,-8.820700456819061e-05,0.6568843722343445,46.62337875366211,5.588284015655518,-19.535249710083008,-0.8325095772743225,-2.3458895683288574,0.19351522624492645,0
58,0.285006046295166,-0.6568843722343445,-46.57577133178711,-5.612087726593018,19.535249710083008,0.8261008858680725,2.3394808769226074,-0.15231649577617645,0.0,0.0,0.0,0.0,0.0,0.0,0.0,-0.6222182109831667,-0.24008705245685732,-0.3851770562756656,0.3067607838157928,0.2545397736339594,0.07288210155071204,-0.18971898069147394,0.8780911063910924,0.7554175257468284,-0.2825042166566177,-1.66888807697211,0.14139912908544822,2.4035791690084665,1.0273430310802327,0.878092876070424,0.7554597494309409,-0.2825552651693207,-1.6690993614607135,0.1414185955172306,2.4034451173676383,1.0273381002308042,-0.0001656610720634325,-8.155790720442346e-05,0.0007874795115462158,-0.0005938218232043378,0.00045331359150736333,-3.5748867116583327e-06,-0.001498317100478102,0.0,0.0,0.0,0.0,0.0,0.0,0.0,1.7696793315202797e-06,4.222368411244126e-05,-5.104851270304467e-05,-0.00021128448860352478,1.9466431782383387e-05,-0.0001340516408281367,-4.930849428541606e-06,0.0001656610720634325,8.155790720442346e-05,-0.0007874795115462158,0.0005938218232043378,-0.00045331359150736333,3.5748867116583327e-06,0.001498317100478102,0.6568843722343445,46.57577133178711,5.612087726593018,-19.535249710083008,-0.8261008858680725,-2.3394808769226074,0.15231649577617645,0
59,0.2900121212005615,-0.6568843722343445,-46.57577133178711,-5.612087726593018,19.535249710083008,0.8261008858680725,2.3394808769226074,-0.15231649577617645,0.0,0.0,0.0,0.0,0.0,0.0,0.0,-0.6222182109831667,-0.24008705245685732,-0.3851770562756656,0.3067607838157928,0.2545397736339594,0.07288210155071204,-0.18971898069147394,0.8780911063910924,0.7554175257468284,-0.2825042166566177,-1.66888807697211,0.14139912908544822,2.4035791690084665,1.0273430310802327,0.878092876070424,0.7554597494309409,-0.2825552651693207,-1.6690993614607135,0.1414185955172306,2.4034451173676383,1.0273381002308042,-0.0001656610720634325,-8.155790720442346e-05,0.0007874795115462158,-0.0005938218232043378,0.00045331359150736333,-3.5748867116583327e-06,-0.001498317100478102,0.0,0.0,0.0,0.0,0.0,0.0,0.0,1.7696793315202797e-06,4.222368411244126e-05,-5.104851270304467e-05,-0.00021128448860352478,1.9466431782383387e-05,-0.0001340516408281367,-4.930849428541606e-06,0.0001656610720634325,8.155790720442346e-05,-0.0007874795115462158,0.0005938218232043378,-0.00045331359150736333,3.5748867116583327e-06,0.001498317100478102,0.6568843722343445,46.57577133178711,5.612087726593018,-19.535249710083008,-0.8261008858680725,-2.3394808769226074,0.15231649577617645,0
60,0.2949948310852051,-0.6568843722343445,-46.57577133178711,-5.612087726593018,19.535249710083008,0.8261008858680725,2.3394808769226074,-0.15231649577617645,0.0,0.0,0.0,0.0,0.0,0.0,0.0,-0.6222182109831667,-0.24008705245685732,-0.3851770562756656,0.3067607838157928,0.2545397736339594,0.07288210155071204,-0.18971898069147394,0.8780911063910924,0.7554175257468284,-0.2825042166566177,-1.66888807697211,0.14139912908544822,2.4035791690084665,1.0273430310802327,0.878092876070424,0.7554597494309409,-0.2825552651693207,-1.6690993614607135,0.1414185955172306,2.4034451173676383,1.0273381002308042,-0.0001656610720634325,-8.155790720442346e-05,0.0007874795115462158,-0.0005938218232043378,0.00045331359150736333,-3.5748867116583327e-06,-0.001498317100478102,0.0,0.0,0.0,0.0,0.0,0.0,0.0,1.7696793315202797e-06,4.222368411244126e-05,-5.104851270304467e-05,-0.00021128448860352478,1.9466431782383387e-05,-0.0001340516408281367,-4.930849428541606e-06,0.0001656610720634325,8.155790720442346e-05,-0.0007874795115462158,0.0005938218232043378,-0.00045331359150736333,3.5748867116583327e-06,0.001498317100478102,0.6568843722343445,46.57577133178711,5.612087726593018,-19.535249710083008,-0.8261008858680725,-2.3394808769226074,0.15231649577617645,0
61,0.2999582290649414,-0.6568843722343445,-46.57577133178711,-5.612087726593018,19.535249710083008,0.8261008858680725,2.3394808769226074,-0.15231649577617645,0.0,0.0,0.0,0.0,0.0,0.0,0.0,-0.6222182109831667,-0.24008705245685732,-0.3851770562756656,0.3067607838157928,0.2545397736339594,0.07288210155071204,-0.18971898069147394,0.8780911063910924,0.7554175257468284,-0.2825042166566177,-1.66888807697211,0.14139912908544822,2.4035791690084665,1.0273430310802327,0.878092876070424,0.7554597494309409,-0.2825552651693207,-1.6690993614607135,0.1414185955172306,2.4034451173676383,1.0273381002308042,-0.0001656610720634325,-8.155790720442346e-05,0.0007874795115462158,-0.0005938218232043378,0.00045331359150736333,-3.5748867116583327e-06,-0.001498317100478102,0.0,0.0,0.0,0.0,0.0,0.0,0.0,1.7696793315202797e-06,4.222368411244126e-05,-5.104851270304467e-05,-0.00021128448860352478,1.9466431782383387e-05,-0.0001340516408281367,-4.930849428541606e-06,0.0001656610720634325,8.155790720442346e-05,-0.0007874795115462158,0.0005938218232043378,-0.00045331359150736333,3.5748867116583327e-06,0.001498317100478102,0.6568843722343445,46.57577133178711,5.612087726593018,-19.535249710083008,-0.8261008858680725,-2.3394808769226074,0.15231649577617645,0
62,0.3050045967102051,-0.6806880831718445,-46.57577133178711,-5.588284015655518,19.535249710083008,0.8444114327430725,2.3458895683288574,-0.17337362468242645,0.0,0.0,0.0,0.0,0.0,0.0,0.0,-0.6187226558340793,-0.26917732941946226,-0.3837161347206277,0.3226832432286811,0.2544624118779689,0.07531406403763427,-0.1900178600592606,0.878092077706939,0.7554152650373678,-0.28250587834393326,-1.6688880004548134,0.141396740420417,2.4035784569316436,1.0273453707612223,0.878092876070424,0.7554597494309409,-0.2825552651693207,-1.6690993614607135,0.1414185955172306,2.4034451173676383,1.0273381002308042,0.000424689192061275,-0.0005006865707342497,0.0008870153902052936,7.431173904073975e-05,-6.44948850899771e-05,-6.502601307700847e-05,-0.0009217025927596228,0.0,0.0,0.0,0.0,0.0,0.0,0.0,7.983634849884069e-07,4.448439357307432e-05,-4.9386825387465194e-05,-0.0002113610059000237,2.1855096813599983e-05,-0.000133339564005297,-7.270530418157506e-06,-0.000424689192061275,0.0005006865707342497,-0.0008870153902052936,-7.431173904073975e-05,6.44948850899771e-05,6.502601307700847e-05,0.0009217025927596228,0.6806880831718445,46.57577133178711,5.588284015655518,-19.535249710083008,-0.8444114327430725,-2.3458895683288574,0.17337362468242645,0
63,0.3100001811981201,-0.6806880831718445,-46.57577133178711,-5.588284015655518,19.535249710083008,0.8444114327430725,2.3458895683288574,-0.17337362468242645,0.0,0.0,0.0,0.0,0.0,0.0,0.0,-0.6187226558340793,-0.26917732941946226,-0.3837161347206277,0.3226832432286811,0.2544624118779689,0.07531406403763427,-0.1900178600592606,0.878092077706939,0.7554152650373678,-0.28250587834393326,-1.6688880004548134,0.141396740420417,2.4035784569316436,1.0273453707612223,0.878092876070424,0.7554597494309409,-0.2825552651693207,-1.6690993614607135,0.1414185955172306,2.4034451173676383,1.0273381002308042,0.000424689192061275,-0.0005006865707342497,0.0008870153902052936,7.431173904073975e-05,-6.44948850899771e-05,-6.502601307700847e-05,-0.0009217025927596228,0.0,0.0,0.0,0.0,0.0,0.0,0.0,7.983634849884069e-07,4.448439357307432e-05,-4.9386825387465194e-05,-0.0002113610059000237,2.1855096813599983e-05,-0.000133339564005297,-7.270530418157506e-06,-0.000424689192061275,0.0005006865707342497,-0.0008870153902052936,-7.431173904073975e-05,6.44948850899771e-05,6.502601307700847e-05,0.0009217025927596228,0.6806880831718445,46.57577133178711,5.588284015655518,-19.535249710083008,-0.8444114327430725,-2.3458895683288574,0.17337362468242645,0
64,0.315000057220459,-0.6806880831718445,-46.59957504272461,-5.588284015655518,19.535249710083008,0.8261008858680725,2.3522982597351074,-0.17978231608867645,0.0,0.0,0.0,0.0,0.0,0.0,0.0,-0.6351220422159757,-0.25810503564217996,-0.3908190004340801,0.31678527619951796,0.25472901493363875,0.07476497614218004,-0.18963816507595554,0.8780920748166887,0.7554191962884099,-0.28250587834391677,-1.6688880799276289,0.1413987747809496,2.403577744854821,1.0273460828380452,0.878092876070424,0.7554597494309409,-0.2825552651693207,-1.6690993614607135,0.1414185955172306,2.4034451173676383,1.0273381002308042,0.0002734954516855217,0.0003983937576615667,6.952594711969881e-05,-3.0479348507519773e-05,0.0006757971777034497,-0.00029648779131677405,-0.000523528796063172,0.0,0.0,0.0,0.0,0.0,0.0,0.0,8.012537352497517e-07,4.055314253093023e-05,-4.9386825403952006e-05,-0.00021128153308458408,1.9820736281012108e-05,-0.00013262748718245732,-7.982607240997197e-06,-0.0002734954516855217,-0.0003983937576615667,-6.952594711969881e-05,3.0479348507519773e-05,-0.0006757971777034497,0.00029648779131677405,0.000523528796063172,0.6806880831718445,46.59957504272461,5.588284015655518,-19.535249710083008,-0.8261008858680725,-2.3522982597351074,0.17978231608867645,0
65,0.3199949264526367,-0.6806880831718445,-46.59957504272461,-5.588284015655518,19.535249710083008,0.8261008858680725,2.3522982597351074,-0.17978231608867645,0.0,0.0,0.0,0.0,0.0,0.0,0.0,-0.6351220422159757,-0.25810503564217996,-0.3908190004340801,0.31678527619951796,0.25472901493363875,0.07476497614218004,-0.18963816507595554,0.8780920748166887,0.7554191962884099,-0.28250587834391677,-1.6688880799276289,0.1413987747809496,2.403577744854821,1.0273460828380452,0.878092876070424,0.7554597494309409,-0.2825552651693207,-1.6690993614607135,0.1414185955172306,2.4034451173676383,1.0273381002308042,0.0002734954516855217,0.0003983937576615667,6.952594711969881e-05,-3.0479348507519773e-05,0.0006757971777034497,-0.00029648779131677405,-0.000523528796063172,0.0,0.0,0.0,0.0,0.0,0.0,0.0,8.012537352497517e-07,4.055314253093023e-05,-4.9386825403952006e-05,-0.00021128153308458408,1.9820736281012108e-05,-0.00013262748718245732,-7.982607240997197e-06,-0.0002734954516855217,-0.0003983937576615667,-6.952594711969881e-05,3.0479348507519773e-05,-0.0006757971777034497,0.00029648779131677405,0.000523528796063172,0.6806880831718445,46.59957504272461,5.588284015655518,-19.535249710083008,-0.8261008858680725,-2.3522982597351074,0.17978231608867645,0
66,0.32502317428588867,-0.6568843722343445,-46.57577133178711,-5.588284015655518,19.487642288208008,0.8380027413368225,2.3522982597351074,-0.19351522624492645,0.0,0.0,0.0,0.0,0.0,0.0,0.0,-0.6376155268538,-0.25394956042400413,-0.38938069017423244,0.31683558788488975,0.2544877779359407,0.07529582631097692,-0.18931693818046555,0.8780911063910924,0.7554147152959363,-0.28250587834391677,-1.6688825932887563,0.14139745233456302,2.403577744854821,1.0273476087169515,0.878092876070424,0.7554597494309409,-0.2825552651693207,-1.6690993614607135,0.1414185955172306,2.4034451173676383,1.0273381002308042,8.076955398535466e-05,0.00031697744683830873,0.0004193863669993437,0.0008034789343097228,2.7690868231017146e-05,-0.00014626352589734845,0.00037565823781994447,0.0,0.0,0.0,0.0,0.0,0.0,0.0,1.7696793315202797e-06,4.503413500456244e-05,-4.9386825403952006e-05,-0.00021676817195714904,2.1143182667576754e-05,-0.00013262748718245732,-9.508486147336015e-06,-8.076955398535466e-05,-0.00031697744683830873,-0.0004193863669993437,-0.0008034789343097228,-2.7690868231017146e-05,0.00014626352589734845,-0.00037565823781994447,0.6568843722343445,46.57577133178711,5.588284015655518,-19.487642288208008,-0.8380027413368225,-2.3522982597351074,0.19351522624492645,0
67,0.3307678699493408,-0.6568843722343445,-46.57577133178711,-5.588284015655518,19.487642288208008,0.8380027413368225,2.3522982597351074,-0.19351522624492645,0.0,0.0,0.0,0.0,0.0,0.0,0.0,-0.6376155268538,-0.25394956042400413,-0.38938069017423244,0.31683558788488975,0.2544877779359407,0.07529582631097692,-0.18931693818046555,0.8780911063910924,0.7554147152959363,-0.28250587834391677,-1.6688825932887563,0.14139745233456302,2.403577744854821,1.0273476087169515,0.878092876070424,0.7554597494309409,-0.2825552651693207,-1.6690993614607135,0.1414185955172306,2.4034451173676383,1.0273381002308042,8.076955398535466e-05,0.00031697744683830873,0.0004193863669993437,0.0008034789343097228,2.7690868231017146e-05,-0.00014626352589734845,0.00037565823781994447,0.0,0.0,0.0,0.0,0.0,0.0,0.0,1.7696793315202797e-06,4.503413500456244e-05,-4.9386825403952006e-05,-0.00021676817195714904,2.1143182667576754e-05,-0.00013262748718245732,-9.508486147336015e-06,-8.076955398535466e-05,-0.00031697744683830873,-0.0004193863669993437,-0.0008034789343097228,-2.7690868231017146e-05,0.00014626352589734845,-0.00037565823781994447,0.6568843722343445,46.57577133178711,5.588284015655518,-19.487642288208008,-0.8380027413368225,-2.3522982597351074,0.19351522624492645,0
68,0.33499646186828613,-0.6568843722343445,-46.59957504272461,-5.588284015655518,19.511445999145508,0.8444114327430725,2.3522982597351074,-0.15231649577617645,0.0,0.0,0.0,0.0,0.0,0.0,0.0,-0.6406782721255283,-0.2723254173766137,-0.39332225888395844,0.3263237285160731,0.25494721537412673,0.07753747484150321,-0.18909905145129635,0.8780904043821527,0.7554183444222274,-0.28250587834391677,-1.6688863996763217,0.14139674025774002,2.403577744854821,1.0273430310802327,0.878092876070424,0.7554597494309409,-0.2825552651693207,-1.6690993614607135,0.1414185955172306,2.4034451173676383,1.0273381002308042,0.0005224394334476532,1.8055427630427172e-05,0.0003209458667535513,0.0003164976323208448,-0.00023970874304990415,-0.00021963387742544665,-0.001766154422984952,0.0,0.0,0.0,0.0,0.0,0.0,0.0,2.471688271277195e-06,4.140500871341324e-05,-4.9386825403952006e-05,-0.00021296178439178526,2.185525949058298e-05,-0.00013262748718245732,-4.930849428541606e-06,-0.0005224394334476532,-1.8055427630427172e-05,-0.0003209458667535513,-0.0003164976323208448,0.00023970874304990415,0.00021963387742544665,0.001766154422984952,0.6568843722343445,46.59957504272461,5.588284015655518,-19.511445999145508,-0.8444114327430725,-2.3522982597351074,0.15231649577617645,0
69,0.34000277519226074,-0.6568843722343445,-46.59957504272461,-5.588284015655518,19.511445999145508,0.8444114327430725,2.3522982597351074,-0.15231649577617645,0.0,0.0,0.0,0.0,0.0,0.0,0.0,-0.6406782721255283,-0.2723254173766137,-0.39332225888395844,0.3263237285160731,0.25494721537412673,0.07753747484150321,-0.18909905145129635,0.8780904043821527,0.7554183444222274,-0.28250587834391677,-1.6688863996763217,0.14139674025774002,2.403577744854821,1.0273430310802327,0.878092876070424,0.7554597494309409,-0.2825552651693207,-1.6690993614607135,0.1414185955172306,2.4034451173676383,1.0273381002308042,0.0005224394334476532,1.8055427630427172e-05,0.0003209458667535513,0.0003164976323208448,-0.00023970874304990415,-0.00021963387742544665,-0.001766154422984952,0.0,0.0,0.0,0.0,0.0,0.0,0.0,2.471688271277195e-06,4.140500871341324e-05,-4.9386825403952006e-05,-0.00021296178439178526,2.185525949058298e-05,-0.00013262748718245732,-4.930849428541606e-06,-0.0005224394334476532,-1.8055427630427172e-05,-0.0003209458667535513,-0.0003164976323208448,0.00023970874304990415,0.00021963387742544665,0.001766154422984952,0.6568843722343445,46.59957504272461,5.588284015655518,-19.511445999145508,-0.8444114327430725,-2.3522982597351074,0.15231649577617645,0
70,0.34500980377197266,-0.6053096652030945,-46.59957504272461,-5.564480304718018,19.535249710083008,0.8444114327430725,2.3522982597351074,-0.20724813640117645,0.0,0.0,0.0,0.0,0.0,0.0,0.0,-0.627795517604688,-0.261648181536018,-0.3876053341610436,0.3213946582519944,0.2546272753597723,0.0771000567070597,-0.1884320961391191,0.8780867851031453,0.755416229261047,-0.282507548779772,-1.6688880799276231,0.1413967533805733,2.403577744854821,1.0273491345958576,0.878092876070424,0.7554597494309409,-0.2825552651693207,-1.6690993614607135,0.1414185955172306,2.4034451173676383,1.0273381002308042,9.202011793401602e-06,0.0005555480924532981,1.321555813655625e-05,-0.0001530241834186271,-0.00022681699032257082,-0.00015171809419888932,0.001283781098559199,0.0,0.0,0.0,0.0,0.0,0.0,0.0,6.090967278660209e-06,4.352016989384033e-05,-4.7716389548702054e-05,-0.00021128153309035724,2.1842136657290734e-05,-0.00013262748718245732,-1.1034365053452788e-05,-9.202011793401602e-06,-0.0005555480924532981,-1.321555813655625e-05,0.0001530241834186271,0.00022681699032257082,0.00015171809419888932,-0.001283781098559199,0.6053096652030945,46.59957504272461,5.564480304718018,-19.535249710083008,-0.8444114327430725,-2.3522982597351074,0.20724813640117645,0
71,0.3499479293823242,-0.6053096652030945,-46.59957504272461,-5.564480304718018,19.535249710083008,0.8444114327430725,2.3522982597351074,-0.20724813640117645,0.0,0.0,0.0,0.0,0.0,0.0,0.0,-0.627795517604688,-0.261648181536018,-0.3876053341610436,0.3213946582519944,0.2546272753597723,0.0771000567070597,-0.1884320961391191,0.8780867851031453,0.755416229261047,-0.282507548779772,-1.6688880799276231,0.1413967533805733,2.403577744854821,1.0273491345958576,0.878092876070424,0.7554597494309409,-0.2825552651693207,-1.6690993614607135,0.1414185955172306,2.4034451173676383,1.0273381002308042,9.202011793401602e-06,0.0005555480924532981,1.321555813655625e-05,-0.0001530241834186271,-0.00022681699032257082,-0.00015171809419888932,0.001283781098559199,0.0,0.0,0.0,0.0,0.0,0.0,0.0,6.090967278660209e-06,4.352016989384033e-05,-4.7716389548702054e-05,-0.00021128153309035724,2.1842136657290734e-05,-0.00013262748718245732,-1.1034365053452788e-05,-9.202011793401602e-06,-0.0005555480924532981,-1.321555813655625e-05,0.0001530241834186271,0.00022681699032257082,0.00015171809419888932,-0.001283781098559199,0.6053096652030945,46.59957504272461,5.564480304718018,-19.535249710083008,-0.8444114327430725,-2.3522982597351074,0.20724813640117645,0
72,0.3550102710723877,-0.5537349581718445,-46.57577133178711,-5.536709308624268,19.511445999145508,0.8325095772743225,2.3458895683288574,-0.20724813640117645,0.0,0.0,0.0,0.0,0.0,0.0,0.0,-0.6336241698946262,-0.26342983646143553,-0.39582324481014614,0.3200896908545162,0.2552053755570726,0.07784538834189357,-0.18700168364417188,0.8780831658254589,0.7554152707751558,-0.28250949762160316,-1.6688863996803593,0.14139841700284714,2.4035784569316436,1.0273491345958576,0.878092876070424,0.7554597494309409,-0.2825552651693207,-1.6690993614607135,0.1414185955172306,2.4034451173676383,1.0273381002308042,-0.001081115880331921,-0.0007056810409915838,-0.0003854580316880926,5.799789513562524e-05,0.00015889528300178137,0.0001224578495089658,0.0010288895571832228,0.0,0.0,0.0,0.0,0.0,0.0,0.0,9.710244965099868e-06,4.4478655785051835e-05,-4.576754771756786e-05,-0.00021296178035412616,2.0178514383462076e-05,-0.000133339564005297,-1.1034365053452788e-05,0.001081115880331921,0.0007056810409915838,0.0003854580316880926,-5.799789513562524e-05,-0.00015889528300178137,-0.0001224578495089658,-0.0010288895571832228,0.5537349581718445,46.57577133178711,5.536709308624268,-19.511445999145508,-0.8325095772743225,-2.3458895683288574,0.20724813640117645,0
73,0.3599967956542969,-0.5537349581718445,-46.57577133178711,-5.536709308624268,19.511445999145508,0.8325095772743225,2.3458895683288574,-0.20724813640117645,0.0,0.0,0.0,0.0,0.0,0.0,0.0,-0.6336241698946262,-0.26342983646143553,-0.39582324481014614,0.3200896908545162,0.2552053755570726,0.07784538834189357,-0.18700168364417188,0.8780831658254589,0.7554152707751558,-0.28250949762160316,-1.6688863996803593,0.14139841700284714,2.4035784569316436,1.0273491345958576,0.878092876070424,0.7554597494309409,-0.2825552651693207,-1.6690993614607135,0.1414185955172306,2.4034451173676383,1.0273381002308042,-0.001081115880331921,-0.0007056810409915838,-0.0003854580316880926,5.799789513562524e-05,0.00015889528300178137,0.0001224578495089658,0.0010288895571832228,0.0,0.0,0.0,0.0,0.0,0.0,0.0,9.710244965099868e-06,4.4478655785051835e-05,-4.576754771756786e-05,-0.00021296178035412616,2.0178514383462076e-05,-0.000133339564005297,-1.1034365053452788e-05,0.001081115880331921,0.0007056810409915838,0.0003854580316880926,-5.799789513562524e-05,-0.00015889528300178137,-0.0001224578495089658,-0.0010288895571832228,0.5537349581718445,46.57577133178711,5.536709308624268,-19.511445999145508,-0.8325095772743225,-2.3458895683288574,0.20724813640117645,0
74,0.3650016784667969,-0.6291133761405945,-46.64718246459961,-5.564480304718018,19.559053421020508,0.8444114327430725,2.3394808769226074,-0.17978231608867645,0.0,0.0,0.0,0.0,0.0,0.0,0.0,-0.6303879758024072,-0.2758853633118929,-0.3956253971081053,0.32100237720180586,0.25500720512306974,0.0791913881382733,-0.18576390569830883,0.8780884555390005,0.7554218711138856,-0.2825076275167719,-1.6688875692750327,0.1413999291069022,2.4035791690084665,1.0273460828380452,0.878092876070424,0.7554597494309409,-0.2825552651693207,-1.6690993614607135,0.1414185955172306,2.4034451173676383,1.0273381002308042,0.0008337402312335094,0.0003582850331825834,0.0007591556842891717,-0.001042690190391508,-0.00035237733702789075,9.999311745246876e-05,-0.00014911294787000982,0.0,0.0,0.0,0.0,0.0,0.0,0.0,4.420531423465768e-06,3.787831705526212e-05,-4.763765254883756e-05,-0.0002117921856807925,1.8666410328410654e-05,-0.0001340516408281367,-7.982607240997197e-06,-0.0008337402312335094,-0.0003582850331825834,-0.0007591556842891717,0.001042690190391508,0.00035237733702789075,-9.999311745246876e-05,0.00014911294787000982,0.6291133761405945,46.64718246459961,5.564480304718018,-19.559053421020508,-0.8444114327430725,-2.3394808769226074,0.17978231608867645,0
75,0.3700110912322998,-0.6291133761405945,-46.64718246459961,-5.564480304718018,19.559053421020508,0.8444114327430725,2.3394808769226074,-0.17978231608867645,0.0,0.0,0.0,0.0,0.0,0.0,0.0,-0.6303879758024072,-0.2758853633118929,-0.3956253971081053,0.32100237720180586,0.25500720512306974,0.0791913881382733,-0.18576390569830883,0.8780884555390005,0.7554218711138856,-0.2825076275167719,-1.6688875692750327,0.1413999291069022,2.4035791690084665,1.0273460828380452,0.878092876070424,0.7554597494309409,-0.2825552651693207,-1.6690993614607135,0.1414185955172306,2.4034451173676383,1.0273381002308042,0.0008337402312335094,0.0003582850331825834,0.0007591556842891717,-0.001042690190391508,-0.00035237733702789075,9.999311745246876e-05,-0.00014911294787000982,0.0,0.0,0.0,0.0,0.0,0.0,0.0,4.420531423465768e-06,3.787831705526212e-05,-4.763765254883756e-05,-0.0002117921856807925,1.8666410328410654e-05,-0.0001340516408281367,-7.982607240997197e-06,-0.0008337402312335094,-0.0003582850331825834,-0.0007591556842891717,0.001042690190391508,0.00035237733702789075,-9.999311745246876e-05,0.00014911294787000982,0.6291133761405945,46.64718246459961,5.564480304718018,-19.559053421020508,-0.8444114327430725,-2.3394808769226074,0.17978231608867645,0
76,0.3750026226043701,-0.6291133761405945,-46.64718246459961,-5.564480304718018,19.559053421020508,0.8444114327430725,2.3394808769226074,-0.17978231608867645,0.0,0.0,0.0,0.0,0.0,0.0,0.0,-0.6303879758024072,-0.2758853633118929,-0.3956253971081053,0.32100237720180586,0.25500720512306974,0.0791913881382733,-0.18576390569830883,0.8780884555390005,0.7554218711138856,-0.2825076275167719,-1.6688875692750327,0.1413999291069022,2.4035791690084665,1.0273460828380452,0.878092876070424,0.7554597494309409,-0.2825552651693207,-1.6690993614607135,0.1414185955172306,2.4034451173676383,1.0273381002308042,0.0008337402312335094,0.0003582850331825834,0.0007591556842891717,-0.001042690190391508,-0.00035237733702789075,9.999311745246876e-05,-0.00014911294787000982,0.0,0.0,0.0,0.0,0.0,0.0,0.0,4.420531423465768e-06,3.787831705526212e-05,-4.763765254883756e-05,-0.0002117921856807925,1.8666410328410654e-05,-0.0001340516408281367,-7.982607240997197e-06,-0.0008337402312335094,-0.0003582850331825834,-0.0007591556842891717,0.001042690190391508,0.00035237733702789075,-9.999311745246876e-05,0.00014911294787000982,0.6291133761405945,46.64718246459961,5.564480304718018,-19.559053421020508,-0.8444114327430725,-2.3394808769226074,0.17978231608867645,0
77,0.37999653816223145,-0.6291133761405945,-46.64718246459961,-5.564480304718018,19.559053421020508,0.8444114327430725,2.3394808769226074,-0.17978231608867645,0.0,0.0,0.0,0.0,0.0,0.0,0.0,-0.6303879758024072,-0.2758853633118929,-0.3956253971081053,0.32100237720180586,0.25500720512306974,0.0791913881382733,-0.18576390569830883,0.8780884555390005,0.7554218711138856,-0.2825076275167719,-1.6688875692750327,0.1413999291069022,2.4035791690084665,1.0273460828380452,0.878092876070424,0.7554597494309409,-0.2825552651693207,-1.6690993614607135,0.1414185955172306,2.4034451173676383,1.0273381002308042,0.0008337402312335094,0.0003582850331825834,0.0007591556842891717,-0.001042690190391508,-0.00035237733702789075,9.999311745246876e-05,-0.00014911294787000982,0.0,0.0,0.0,0.0,0.0,0.0,0.0,4.420531423465768e-06,3.787831705526212e-05,-4.763765254883756e-05,-0.0002117921856807925,1.8666410328410654e-05,-0.0001340516408281367,-7.982607240997197e-06,-0.0008337402312335094,-0.0003582850331825834,-0.0007591556842891717,0.001042690190391508,0.00035237733702789075,-9.999311745246876e-05,0.00014911294787000982,0.6291133761405945,46.64718246459961,5.564480304718018,-19.559053421020508,-0.8444114327430725,-2.3394808769226074,0.17978231608867645,0
78,0.38494873046875,-0.5815059542655945,-46.62337875366211,-5.564480304718018,19.511445999145508,0.8444114327430725,2.3522982597351074,-0.19351522624492645,0.0,0.0,0.0,0.0,0.0,0.0,0.0,-0.6323478042421962,-0.253306737484213,-0.3927415326970515,0.3039523668037308,0.25430694101907997,0.07657399796033033,-0.18503497854452566,0.87808511466729,0.7554209013330445,-0.2825075487802165,-1.6688863270632122,0.14139674173383374,2.403577744854821,1.0273476087169515,0.878092876070424,0.7554597494309409,-0.2825552651693207,-1.6690993614607135,0.1414185955172306,2.4034451173676383,1.0273381002308042,-0.0005004019542061831,0.0007195892505009074,0.00048384127771628215,-0.00013199039866898063,-0.00024094467663175333,-0.0003149567733376627,0.00018022699987481992,0.0,0.0,0.0,0.0,0.0,0.0,0.0,7.761403133965672e-06,3.884809789633792e-05,-4.7716389104224266e-05,-0.00021303439750131048,2.1853783396863502e-05,-0.00013262748718245732,-9.508486147336015e-06,0.0005004019542061831,-0.0007195892505009074,-0.00048384127771628215,0.00013199039866898063,0.00024094467663175333,0.0003149567733376627,-0.00018022699987481992,0.5815059542655945,46.62337875366211,5.564480304718018,-19.511445999145508,-0.8444114327430725,-2.3522982597351074,0.19351522624492645,0
79,0.3899972438812256,-0.5815059542655945,-46.62337875366211,-5.564480304718018,19.511445999145508,0.8444114327430725,2.3522982597351074,-0.19351522624492645,0.0,0.0,0.0,0.0,0.0,0.0,0.0,-0.6323478042421962,-0.253306737484213,-0.3927415326970515,0.3039523668037308,0.25430694101907997,0.07657399796033033,-0.18503497854452566,0.87808511466729,0.7554209013330445,-0.2825075487802165,-1.6688863270632122,0.14139674173383374,2.403577744854821,1.0273476087169515,0.878092876070424,0.7554597494309409,-0.2825552651693207,-1.6690993614607135,0.1414185955172306,2.4034451173676383,1.0273381002308042,-0.0005004019542061831,0.0007195892505009074,0.00048384127771628215,-0.00013199039866898063,-0.00024094467663175333,-0.0003149567733376627,0.00018022699987481992,0.0,0.0,0.0,0.0,0.0,0.0,0.0,7.761403133965672e-06,3.884809789633792e-05,-4.7716389104224266e-05,-0.00021303439750131048,2.1853783396863502e-05,-0.00013262748718245732,-9.508486147336015e-06,0.0005004019542061831,-0.0007195892505009074,-0.00048384127771628215,0.00013199039866898063,0.00024094467663175333,0.0003149567733376627,-0.00018022699987481992,0.5815059542655945,46.62337875366211,5.564480304718018,-19.511445999145508,-0.8444114327430725,-2.3522982597351074,0.19351522624492645,0
80,0.3950073719024658,-0.7084590792655945,-46.62337875366211,-5.564480304718018,19.535249710083008,0.8444114327430725,2.3522982597351074,-0.13217489421367645,0.0,0.0,0.0,0.0,0.0,0.0,0.0,-0.6488193878725272,-0.2660458645922359,-0.4099754579559978,0.3083818151314,0.25490409176272266,0.07759357080070989,-0.18561622904498226,0.8780940236585181,0.7554188620726257,-0.282507548779772,-1.6688880004543536,0.14139674025774834,2.403577744854821,1.0273407931245035,0.878092876070424,0.7554597494309409,-0.2825552651693207,-1.6690993614607135,0.1414185955172306,2.4034451173676383,1.0273381002308042,0.0013416707229224444,0.0007225687290325759,-0.0005122549008830175,-0.00048499400538350314,-0.00015048981513136075,-0.00027595542594729304,-0.0017825625579870115,0.0,0.0,0.0,0.0,0.0,0.0,0.0,-1.1475880941080874e-06,4.0887358315200295e-05,-4.7716389548702054e-05,-0.0002113610063598781,2.1855259482256306e-05,-0.00013262748718245732,-2.692893699363097e-06,-0.0013416707229224444,-0.0007225687290325759,0.0005122549008830175,0.00048499400538350314,0.00015048981513136075,0.00027595542594729304,0.0017825625579870115,0.7084590792655945,46.62337875366211,5.564480304718018,-19.535249710083008,-0.8444114327430725,-2.3522982597351074,0.13217489421367645,0
