rezayati/contactInterpretation/dataset/franka_main/labeled_data/link7/a8_6.csv
index,time,tau_J0,tau_J1,tau_J2,tau_J3,tau_J4,tau_J5,tau_J6,tau_J_d0,tau_J_d1,tau_J_d2,tau_J_d3,tau_J_d4,tau_J_d5,tau_J_d6,tau_ext0,tau_ext1,tau_ext2,tau_ext3,tau_ext4,tau_ext5,tau_ext6,q0,q1,q2,q3,q4,q5,q6,q_d0,q_d1,q_d2,q_d3,q_d4,q_d5,q_d6,dq0,dq1,dq2,dq3,dq4,dq5,dq6,dq_d0,dq_d1,dq_d2,dq_d3,dq_d4,dq_d5,dq_d6,e0,e1,e2,e3,e4,e5,e6,de0,de1,de2,de3,de4,de5,de6,etau_J0,etau_J1,etau_J2,etau_J3,etau_J4,etau_J5,etau_J6,label
1,0.0,0.03342324495315552,-18.277124404907227,1.0410492420196533,18.297456741333008,0.4269309639930725,2.2818026542663574,-0.31711143255233765,0.0,0.0,0.0,0.0,0.0,0.0,0.0,0.009893215375242993,0.39930269738182445,0.19342113715062412,0.6641590076180691,0.005759046826397975,0.09230981464556084,-0.2756954385201031,-0.6092838258032213,-0.057519995728605666,-0.6666260765644487,-2.59478536147402,-0.05573609088085315,2.5078963286611766,0.8763313972089025,-0.6090851748156966,-0.05753196718556838,-0.666603097082616,-2.5945565370258534,-0.05562143941554,2.507976027223799,0.8763108487046415,0.00041059653075340005,-0.0004550875009480703,0.00015979621440771175,-0.0003691863369294418,5.753892069561088e-05,-0.00028810906112824086,0.0015262725084589533,0.0,0.0,0.0,0.0,0.0,0.0,0.0,0.00019865098752469557,-1.1971456962717175e-05,2.2979481832718918e-05,0.00022882444816652026,0.00011465146531314946,7.969856262235453e-05,-2.0548504261030942e-05,-0.00041059653075340005,0.0004550875009480703,-0.00015979621440771175,0.0003691863369294418,-5.753892069561088e-05,0.00028810906112824086,-0.0015262725084589533,-0.03342324495315552,18.277124404907227,-1.0410492420196533,-18.297456741333008,-0.4269309639930725,-2.2818026542663574,0.31711143255233765,0
2,0.004999876022338867,0.08103066682815552,-18.277124404907227,1.0688202381134033,18.245882034301758,0.4333396553993225,2.2818026542663574,-0.30337852239608765,0.0,0.0,0.0,0.0,0.0,0.0,0.0,0.02179170040152011,0.42042081581864377,0.20350345287816302,0.6227212042145711,0.0045713896287845075,0.08639868986536967,-0.2763046184209113,-0.6092869282576986,-0.057519995728605666,-0.6666280254062852,-2.5947817421963335,-0.05573644809128495,2.5078963286611766,0.8763298713299963,-0.6090851748156966,-0.05753196718556838,-0.666603097082616,-2.5945565370258534,-0.05562143941554,2.507976027223799,0.8763108487046415,-6.848224779993355e-05,-0.00026576504337889797,-0.0007412993270462092,0.001597045995281164,-9.385044258675219e-05,7.793934895052429e-05,0.0014480852287163657,0.0,0.0,0.0,0.0,0.0,0.0,0.0,0.00020175344200201728,-1.1971456962717175e-05,2.4928323669182184e-05,0.0002252051704800806,0.00011500867574495283,7.969856262235453e-05,-1.9022625354803147e-05,6.848224779993355e-05,0.00026576504337889797,0.0007412993270462092,-0.001597045995281164,9.385044258675219e-05,-7.793934895052429e-05,-0.0014480852287163657,-0.08103066682815552,18.277124404907227,-1.0688202381134033,-18.245882034301758,-0.4333396553993225,-2.2818026542663574,0.30337852239608765,0
3,0.009999275207519531,0.08103066682815552,-18.277124404907227,1.0688202381134033,18.245882034301758,0.4333396553993225,2.2818026542663574,-0.30337852239608765,0.0,0.0,0.0,0.0,0.0,0.0,0.0,0.02179170040152011,0.42042081581864377,0.20350345287816302,0.6227212042145711,0.0045713896287845075,0.08639868986536967,-0.2763046184209113,-0.6092869282576986,-0.057519995728605666,-0.6666280254062852,-2.5947817421963335,-0.05573644809128495,2.5078963286611766,0.8763298713299963,-0.6090851748156966,-0.05753196718556838,-0.666603097082616,-2.5945565370258534,-0.05562143941554,2.507976027223799,0.8763108487046415,-6.848224779993355e-05,-0.00026576504337889797,-0.0007412993270462092,0.001597045995281164,-9.385044258675219e-05,7.793934895052429e-05,0.0014480852287163657,0.0,0.0,0.0,0.0,0.0,0.0,0.0,0.00020175344200201728,-1.1971456962717175e-05,2.4928323669182184e-05,0.0002252051704800806,0.00011500867574495283,7.969856262235453e-05,-1.9022625354803147e-05,6.848224779993355e-05,0.00026576504337889797,0.0007412993270462092,-0.001597045995281164,9.385044258675219e-05,-7.793934895052429e-05,-0.0014480852287163657,-0.08103066682815552,18.277124404907227,-1.0688202381134033,-18.245882034301758,-0.4333396553993225,-2.2818026542663574,0.30337852239608765,0
4,0.016091346740722656,0.005652248859405518,-18.304895401000977,0.9934418201446533,18.297456741333008,0.4269309639930725,2.2689852714538574,-0.28964561223983765,0.0,0.0,0.0,0.0,0.0,0.0,0.0,0.02744354040426329,0.3900121127705281,0.20725582521918273,0.6679422799693456,0.005586719445335481,0.09512314882635672,-0.27658423210356087,-0.609281638542811,-0.057518046886774525,-0.6666227356927436,-2.59478536147402,-0.055735736012458806,2.5078977528148223,0.8763283454510901,-0.6090851748156966,-0.05753196718556838,-0.666603097082616,-2.5945565370258534,-0.05562143941554,2.507976027223799,0.8763108487046415,0.0011875480843059818,0.00047833516622907747,0.0016709574421297651,7.175184740030516e-05,-9.985349482386665e-05,0.0002764591562444411,0.00044360727325961946,0.0,0.0,0.0,0.0,0.0,0.0,0.0,0.0001964637271144598,-1.392029879385831e-05,1.9638610127548084e-05,0.00022882444816652026,0.00011429659691880589,7.827440897667515e-05,-1.749674644857535e-05,-0.0011875480843059818,-0.00047833516622907747,-0.0016709574421297651,-7.175184740030516e-05,9.985349482386665e-05,-0.0002764591562444411,-0.00044360727325961946,-0.005652248859405518,18.304895401000977,-0.9934418201446533,-18.297456741333008,-0.4269309639930725,-2.2689852714538574,0.28964561223983765,0
5,0.019997596740722656,0.005652248859405518,-18.304895401000977,0.9934418201446533,18.297456741333008,0.4269309639930725,2.2689852714538574,-0.28964561223983765,0.0,0.0,0.0,0.0,0.0,0.0,0.0,0.02744354040426329,0.3900121127705281,0.20725582521918273,0.6679422799693456,0.005586719445335481,0.09512314882635672,-0.27658423210356087,-0.609281638542811,-0.057518046886774525,-0.6666227356927436,-2.59478536147402,-0.055735736012458806,2.5078977528148223,0.8763283454510901,-0.6090851748156966,-0.05753196718556838,-0.666603097082616,-2.5945565370258534,-0.05562143941554,2.507976027223799,0.8763108487046415,0.0011875480843059818,0.00047833516622907747,0.0016709574421297651,7.175184740030516e-05,-9.985349482386665e-05,0.0002764591562444411,0.00044360727325961946,0.0,0.0,0.0,0.0,0.0,0.0,0.0,0.0001964637271144598,-1.392029879385831e-05,1.9638610127548084e-05,0.00022882444816652026,0.00011429659691880589,7.827440897667515e-05,-1.749674644857535e-05,-0.0011875480843059818,-0.00047833516622907747,-0.0016709574421297651,-7.175184740030516e-05,9.985349482386665e-05,-0.0002764591562444411,-0.00044360727325961946,-0.005652248859405518,18.304895401000977,-0.9934418201446533,-18.297456741333008,-0.4269309639930725,-2.2689852714538574,0.28964561223983765,0
6,0.02499842643737793,0.005652248859405518,-18.304895401000977,0.9934418201446533,18.297456741333008,0.4269309639930725,2.2689852714538574,-0.28964561223983765,0.0,0.0,0.0,0.0,0.0,0.0,0.0,0.02744354040426329,0.3900121127705281,0.20725582521918273,0.6679422799693456,0.005586719445335481,0.09512314882635672,-0.27658423210356087,-0.609281638542811,-0.057518046886774525,-0.6666227356927436,-2.59478536147402,-0.055735736012458806,2.5078977528148223,0.8763283454510901,-0.6090851748156966,-0.05753196718556838,-0.666603097082616,-2.5945565370258534,-0.05562143941554,2.507976027223799,0.8763108487046415,0.0011875480843059818,0.00047833516622907747,0.0016709574421297651,7.175184740030516e-05,-9.985349482386665e-05,0.0002764591562444411,0.00044360727325961946,0.0,0.0,0.0,0.0,0.0,0.0,0.0,0.0001964637271144598,-1.392029879385831e-05,1.9638610127548084e-05,0.00022882444816652026,0.00011429659691880589,7.827440897667515e-05,-1.749674644857535e-05,-0.0011875480843059818,-0.00047833516622907747,-0.0016709574421297651,-7.175184740030516e-05,9.985349482386665e-05,-0.0002764591562444411,-0.00044360727325961946,-0.005652248859405518,18.304895401000977,-0.9934418201446533,-18.297456741333008,-0.4269309639930725,-2.2689852714538574,0.28964561223983765,0
7,0.0299985408782959,0.005652248859405518,-18.304895401000977,0.9934418201446533,18.297456741333008,0.4269309639930725,2.2689852714538574,-0.28964561223983765,0.0,0.0,0.0,0.0,0.0,0.0,0.0,0.02744354040426329,0.3900121127705281,0.20725582521918273,0.6679422799693456,0.005586719445335481,0.09512314882635672,-0.27658423210356087,-0.609281638542811,-0.057518046886774525,-0.6666227356927436,-2.59478536147402,-0.055735736012458806,2.5078977528148223,0.8763283454510901,-0.6090851748156966,-0.05753196718556838,-0.666603097082616,-2.5945565370258534,-0.05562143941554,2.507976027223799,0.8763108487046415,0.0011875480843059818,0.00047833516622907747,0.0016709574421297651,7.175184740030516e-05,-9.985349482386665e-05,0.0002764591562444411,0.00044360727325961946,0.0,0.0,0.0,0.0,0.0,0.0,0.0,0.0001964637271144598,-1.392029879385831e-05,1.9638610127548084e-05,0.00022882444816652026,0.00011429659691880589,7.827440897667515e-05,-1.749674644857535e-05,-0.0011875480843059818,-0.00047833516622907747,-0.0016709574421297651,-7.175184740030516e-05,9.985349482386665e-05,-0.0002764591562444411,-0.00044360727325961946,-0.005652248859405518,18.304895401000977,-0.9934418201446533,-18.297456741333008,-0.4269309639930725,-2.2689852714538574,0.28964561223983765,0
8,0.035001516342163086,0.005652248859405518,-18.304895401000977,0.9934418201446533,18.297456741333008,0.4269309639930725,2.2689852714538574,-0.28964561223983765,0.0,0.0,0.0,0.0,0.0,0.0,0.0,0.02744354040426329,0.3900121127705281,0.20725582521918273,0.6679422799693456,0.005586719445335481,0.09512314882635672,-0.27658423210356087,-0.609281638542811,-0.057518046886774525,-0.6666227356927436,-2.59478536147402,-0.055735736012458806,2.5078977528148223,0.8763283454510901,-0.6090851748156966,-0.05753196718556838,-0.666603097082616,-2.5945565370258534,-0.05562143941554,2.507976027223799,0.8763108487046415,0.0011875480843059818,0.00047833516622907747,0.0016709574421297651,7.175184740030516e-05,-9.985349482386665e-05,0.0002764591562444411,0.00044360727325961946,0.0,0.0,0.0,0.0,0.0,0.0,0.0,0.0001964637271144598,-1.392029879385831e-05,1.9638610127548084e-05,0.00022882444816652026,0.00011429659691880589,7.827440897667515e-05,-1.749674644857535e-05,-0.0011875480843059818,-0.00047833516622907747,-0.0016709574421297651,-7.175184740030516e-05,9.985349482386665e-05,-0.0002764591562444411,-0.00044360727325961946,-0.005652248859405518,18.304895401000977,-0.9934418201446533,-18.297456741333008,-0.4269309639930725,-2.2689852714538574,0.28964561223983765,0
9,0.04002881050109863,-0.06972616910934448,-18.229516983032227,0.8942596912384033,18.297456741333008,0.4333396553993225,2.2818026542663574,-0.28232139348983765,0.0,0.0,0.0,0.0,0.0,0.0,0.0,0.012230278237311928,0.3907727230494819,0.1980451257313739,0.6666068320501075,0.005107747983991425,0.09338807753282213,-0.27750391223901116,-0.6092763488292694,-0.057523336600316194,-0.6666157755433466,-2.594785361474022,-0.05573644808928171,2.5078963286611766,0.8763275316490068,-0.6090851748156966,-0.05753196718556838,-0.666603097082616,-2.5945565370258534,-0.05562143941554,2.507976027223799,0.8763108487046415,0.0007838504287907789,-0.00036736988771457973,0.0021706771159646903,-0.0006711062868928424,-0.00013374703956449638,-0.0003884436420310538,0.0003242584605052107,0.0,0.0,0.0,0.0,0.0,0.0,0.0,0.0001911740135728257,-8.630585252189515e-06,1.267846073060852e-05,0.0002288244481687407,0.00011500867374170803,7.969856262235453e-05,-1.668294436529827e-05,-0.0007838504287907789,0.00036736988771457973,-0.0021706771159646903,0.0006711062868928424,0.00013374703956449638,0.0003884436420310538,-0.0003242584605052107,0.06972616910934448,18.229516983032227,-0.8942596912384033,-18.297456741333008,-0.4333396553993225,-2.2818026542663574,0.28232139348983765,0
10,0.04500913619995117,-0.06972616910934448,-18.229516983032227,0.8942596912384033,18.297456741333008,0.4333396553993225,2.2818026542663574,-0.28232139348983765,0.0,0.0,0.0,0.0,0.0,0.0,0.0,0.012230278237311928,0.3907727230494819,0.1980451257313739,0.6666068320501075,0.005107747983991425,0.09338807753282213,-0.27750391223901116,-0.6092763488292694,-0.057523336600316194,-0.6666157755433466,-2.594785361474022,-0.05573644808928171,2.5078963286611766,0.8763275316490068,-0.6090851748156966,-0.05753196718556838,-0.666603097082616,-2.5945565370258534,-0.05562143941554,2.507976027223799,0.8763108487046415,0.0007838504287907789,-0.00036736988771457973,0.0021706771159646903,-0.0006711062868928424,-0.00013374703956449638,-0.0003884436420310538,0.0003242584605052107,0.0,0.0,0.0,0.0,0.0,0.0,0.0,0.0001911740135728257,-8.630585252189515e-06,1.267846073060852e-05,0.0002288244481687407,0.00011500867374170803,7.969856262235453e-05,-1.668294436529827e-05,-0.0007838504287907789,0.00036736988771457973,-0.0021706771159646903,0.0006711062868928424,0.00013374703956449638,0.0003884436420310538,-0.0003242584605052107,0.06972616910934448,18.229516983032227,-0.8942596912384033,-18.297456741333008,-0.4333396553993225,-2.2818026542663574,0.28232139348983765,0
11,0.04996347427368164,-0.04592245817184448,-18.277124404907227,0.9934418201446533,18.269685745239258,0.4333396553993225,2.2753939628601074,-0.30337852239608765,0.0,0.0,0.0,0.0,0.0,0.0,0.0,0.01544754114866331,0.39022186946342896,0.2029024956865334,0.6681117444806365,0.004562859253351132,0.0931304964797452,-0.27811648656739585,-0.6092780192651247,-0.057519995728605666,-0.6666227356927436,-2.5947834126321894,-0.05573644808928171,2.5078970407379995,0.8763298713299963,-0.6090851748156966,-0.05753196718556838,-0.666603097082616,-2.5945565370258534,-0.05562143941554,2.507976027223799,0.8763108487046415,-4.475295516053523e-05,0.00017665141333090005,-0.00044245555543146343,0.000373145606854811,-0.00013645294228361524,-2.31959541648561e-06,0.0006237383999736598,0.0,0.0,0.0,0.0,0.0,0.0,0.0,0.00019284444942813117,-1.1971456962717175e-05,1.9638610127548084e-05,0.00022687560633594117,0.00011500867374170803,7.898648579951484e-05,-1.9022625354803147e-05,4.475295516053523e-05,-0.00017665141333090005,0.00044245555543146343,-0.000373145606854811,0.00013645294228361524,2.31959541648561e-06,-0.0006237383999736598,0.04592245817184448,18.277124404907227,-0.9934418201446533,-18.269685745239258,-0.4333396553993225,-2.2753939628601074,0.30337852239608765,0
12,0.055002689361572266,-0.04592245817184448,-18.277124404907227,0.9934418201446533,18.269685745239258,0.4333396553993225,2.2753939628601074,-0.30337852239608765,0.0,0.0,0.0,0.0,0.0,0.0,0.0,0.01544754114866331,0.39022186946342896,0.2029024956865334,0.6681117444806365,0.004562859253351132,0.0931304964797452,-0.27811648656739585,-0.6092780192651247,-0.057519995728605666,-0.6666227356927436,-2.5947834126321894,-0.05573644808928171,2.5078970407379995,0.8763298713299963,-0.6090851748156966,-0.05753196718556838,-0.666603097082616,-2.5945565370258534,-0.05562143941554,2.507976027223799,0.8763108487046415,-4.475295516053523e-05,0.00017665141333090005,-0.00044245555543146343,0.000373145606854811,-0.00013645294228361524,-2.31959541648561e-06,0.0006237383999736598,0.0,0.0,0.0,0.0,0.0,0.0,0.0,0.00019284444942813117,-1.1971456962717175e-05,1.9638610127548084e-05,0.00022687560633594117,0.00011500867374170803,7.898648579951484e-05,-1.9022625354803147e-05,4.475295516053523e-05,-0.00017665141333090005,0.00044245555543146343,-0.000373145606854811,0.00013645294228361524,2.31959541648561e-06,-0.0006237383999736598,0.04592245817184448,18.277124404907227,-0.9934418201446533,-18.269685745239258,-0.4333396553993225,-2.2753939628601074,0.30337852239608765,0
13,0.06005859375,-0.018151462078094482,-18.277124404907227,0.9934418201446533,18.269685745239258,0.4388328194618225,2.2818026542663574,-0.30978721380233765,0.0,0.0,0.0,0.0,0.0,0.0,0.0,0.005198613086500547,0.3887879332162052,0.19514944367415193,0.6629761344693476,0.0046027413701990325,0.09282228385458688,-0.27813638923790834,-0.6092799681069558,-0.057519995728605666,-0.6666227356927436,-2.5947834126321894,-0.055737058440844214,2.5078963286611766,0.8763305834068192,-0.6090851748156966,-0.05753196718556838,-0.666603097082616,-2.5945565370258534,-0.05562143941554,2.507976027223799,0.8763108487046415,-0.00025532092846710476,-0.0006401033830385865,-0.000451273280639223,5.023014251508617e-05,-0.0004257041163025092,-2.1122173664129954e-05,0.0008085217156538692,0.0,0.0,0.0,0.0,0.0,0.0,0.0,0.00019479329125926537,-1.1971456962717175e-05,1.9638610127548084e-05,0.00022687560633594117,0.00011561902530421442,7.969856262235453e-05,-1.973470217775386e-05,0.00025532092846710476,0.0006401033830385865,0.000451273280639223,-5.023014251508617e-05,0.0004257041163025092,2.1122173664129954e-05,-0.0008085217156538692,0.018151462078094482,18.277124404907227,-0.9934418201446533,-18.269685745239258,-0.4388328194618225,-2.2818026542663574,0.30978721380233765,0
14,0.06499814987182617,-0.018151462078094482,-18.277124404907227,0.9934418201446533,18.269685745239258,0.4388328194618225,2.2818026542663574,-0.30978721380233765,0.0,0.0,0.0,0.0,0.0,0.0,0.0,0.005198613086500547,0.3887879332162052,0.19514944367415193,0.6629761344693476,0.0046027413701990325,0.09282228385458688,-0.27813638923790834,-0.6092799681069558,-0.057519995728605666,-0.6666227356927436,-2.5947834126321894,-0.055737058440844214,2.5078963286611766,0.8763305834068192,-0.6090851748156966,-0.05753196718556838,-0.666603097082616,-2.5945565370258534,-0.05562143941554,2.507976027223799,0.8763108487046415,-0.00025532092846710476,-0.0006401033830385865,-0.000451273280639223,5.023014251508617e-05,-0.0004257041163025092,-2.1122173664129954e-05,0.0008085217156538692,0.0,0.0,0.0,0.0,0.0,0.0,0.0,0.00019479329125926537,-1.1971456962717175e-05,1.9638610127548084e-05,0.00022687560633594117,0.00011561902530421442,7.969856262235453e-05,-1.973470217775386e-05,0.00025532092846710476,0.0006401033830385865,0.000451273280639223,-5.023014251508617e-05,0.0004257041163025092,2.1122173664129954e-05,-0.0008085217156538692,0.018151462078094482,18.277124404907227,-0.9934418201446533,-18.269685745239258,-0.4388328194618225,-2.2818026542663574,0.30978721380233765,0
15,0.06999874114990234,-0.018151462078094482,-18.277124404907227,0.9934418201446533,18.269685745239258,0.4388328194618225,2.2818026542663574,-0.30978721380233765,0.0,0.0,0.0,0.0,0.0,0.0,0.0,0.005198613086500547,0.3887879332162052,0.19514944367415193,0.6629761344693476,0.0046027413701990325,0.09282228385458688,-0.27813638923790834,-0.6092799681069558,-0.057519995728605666,-0.6666227356927436,-2.5947834126321894,-0.055737058440844214,2.5078963286611766,0.8763305834068192,-0.6090851748156966,-0.05753196718556838,-0.666603097082616,-2.5945565370258534,-0.05562143941554,2.507976027223799,0.8763108487046415,-0.00025532092846710476,-0.0006401033830385865,-0.000451273280639223,5.023014251508617e-05,-0.0004257041163025092,-2.1122173664129954e-05,0.0008085217156538692,0.0,0.0,0.0,0.0,0.0,0.0,0.0,0.00019479329125926537,-1.1971456962717175e-05,1.9638610127548084e-05,0.00022687560633594117,0.00011561902530421442,7.969856262235453e-05,-1.973470217775386e-05,0.00025532092846710476,0.0006401033830385865,0.000451273280639223,-5.023014251508617e-05,0.0004257041163025092,2.1122173664129954e-05,-0.0008085217156538692,0.018151462078094482,18.277124404907227,-0.9934418201446533,-18.269685745239258,-0.4388328194618225,-2.2818026542663574,0.30978721380233765,0
16,0.0749979019165039,-0.018151462078094482,-18.277124404907227,0.9934418201446533,18.269685745239258,0.4388328194618225,2.2818026542663574,-0.30978721380233765,0.0,0.0,0.0,0.0,0.0,0.0,0.0,0.005198613086500547,0.3887879332162052,0.19514944367415193,0.6629761344693476,0.0046027413701990325,0.09282228385458688,-0.27813638923790834,-0.6092799681069558,-0.057519995728605666,-0.6666227356927436,-2.5947834126321894,-0.055737058440844214,2.5078963286611766,0.8763305834068192,-0.6090851748156966,-0.05753196718556838,-0.666603097082616,-2.5945565370258534,-0.05562143941554,2.507976027223799,0.8763108487046415,-0.00025532092846710476,-0.0006401033830385865,-0.000451273280639223,5.023014251508617e-05,-0.0004257041163025092,-2.1122173664129954e-05,0.0008085217156538692,0.0,0.0,0.0,0.0,0.0,0.0,0.0,0.00019479329125926537,-1.1971456962717175e-05,1.9638610127548084e-05,0.00022687560633594117,0.00011561902530421442,7.969856262235453e-05,-1.973470217775386e-05,0.00025532092846710476,0.0006401033830385865,0.000451273280639223,-5.023014251508617e-05,0.0004257041163025092,2.1122173664129954e-05,-0.0008085217156538692,0.018151462078094482,18.277124404907227,-0.9934418201446533,-18.269685745239258,-0.4388328194618225,-2.2818026542663574,0.30978721380233765,0
17,0.07999992370605469,0.05722695589065552,-18.253320693969727,1.0172455310821533,18.245882034301758,0.4269309639930725,2.2818026542663574,-0.31711143255233765,0.0,0.0,0.0,0.0,0.0,0.0,0.0,0.00890657753387387,0.3916751603048567,0.19621976658186066,0.6604861334642389,0.004603130730412315,0.09355347962367008,-0.2803348352037438,-0.6092852578204975,-0.05752166616446093,-0.6666244061285989,-2.594781742196334,-0.05573573601245879,2.5078963286611766,0.8763313972089025,-0.6090851748156966,-0.05753196718556838,-0.666603097082616,-2.5945565370258534,-0.05562143941554,2.507976027223799,0.8763108487046415,-0.00046634408745755063,-0.0005623765593889406,-0.0003951241616173316,0.001340156541497367,0.00021785161855202392,-0.00010486478281718699,0.001811327218868771,0.0,0.0,0.0,0.0,0.0,0.0,0.0,0.00020008300480089947,-1.0301021107453345e-05,2.1309045982853547e-05,0.00022520517048052469,0.00011429659691879201,7.969856262235453e-05,-2.0548504261030942e-05,0.00046634408745755063,0.0005623765593889406,0.0003951241616173316,-0.001340156541497367,-0.00021785161855202392,0.00010486478281718699,-0.001811327218868771,-0.05722695589065552,18.253320693969727,-1.0172455310821533,-18.245882034301758,-0.4269309639930725,-2.2818026542663574,0.31711143255233765,0
18,0.08499765396118164,0.05722695589065552,-18.253320693969727,1.0172455310821533,18.245882034301758,0.4269309639930725,2.2818026542663574,-0.31711143255233765,0.0,0.0,0.0,0.0,0.0,0.0,0.0,0.00890657753387387,0.3916751603048567,0.19621976658186066,0.6604861334642389,0.004603130730412315,0.09355347962367008,-0.2803348352037438,-0.6092852578204975,-0.05752166616446093,-0.6666244061285989,-2.594781742196334,-0.05573573601245879,2.5078963286611766,0.8763313972089025,-0.6090851748156966,-0.05753196718556838,-0.666603097082616,-2.5945565370258534,-0.05562143941554,2.507976027223799,0.8763108487046415,-0.00046634408745755063,-0.0005623765593889406,-0.0003951241616173316,0.001340156541497367,0.00021785161855202392,-0.00010486478281718699,0.001811327218868771,0.0,0.0,0.0,0.0,0.0,0.0,0.0,0.00020008300480089947,-1.0301021107453345e-05,2.1309045982853547e-05,0.00022520517048052469,0.00011429659691879201,7.969856262235453e-05,-2.0548504261030942e-05,0.00046634408745755063,0.0005623765593889406,0.0003951241616173316,-0.001340156541497367,-0.00021785161855202392,0.00010486478281718699,-0.001811327218868771,-0.05722695589065552,18.253320693969727,-1.0172455310821533,-18.245882034301758,-0.4269309639930725,-2.2818026542663574,0.31711143255233765,0
19,0.09000039100646973,0.05722695589065552,-18.277124404907227,1.0410492420196533,18.222078323364258,0.4269309639930725,2.2689852714538574,-0.30337852239608765,0.0,0.0,0.0,0.0,0.0,0.0,0.0,0.009959842668777636,0.38876420483494417,0.1945604685197073,0.6583275283015291,0.005460444969169349,0.093965026787587,-0.28125452408774504,-0.6092852578204975,-0.057519995728605666,-0.666626076564454,-2.594780071760479,-0.05573573601245879,2.5078977528148223,0.8763298713299963,-0.6090851748156966,-0.05753196718556838,-0.666603097082616,-2.5945565370258534,-0.05562143941554,2.507976027223799,0.8763108487046415,-0.0001612542517951633,0.00012169457150656834,0.00012760749603567313,0.0015156297849653732,-1.1427456065779394e-05,5.832335150473419e-05,0.0005516111040426327,0.0,0.0,0.0,0.0,0.0,0.0,0.0,0.00020008300480089947,-1.1971456962717175e-05,2.2979481838047988e-05,0.0002235347346255523,0.00011429659691879201,7.827440897667515e-05,-1.9022625354803147e-05,0.0001612542517951633,-0.00012169457150656834,-0.00012760749603567313,-0.0015156297849653732,1.1427456065779394e-05,-5.832335150473419e-05,-0.0005516111040426327,-0.05722695589065552,18.277124404907227,-1.0410492420196533,-18.222078323364258,-0.4269309639930725,-2.2689852714538574,0.30337852239608765,0
20,0.09499883651733398,0.05722695589065552,-18.277124404907227,1.0410492420196533,18.222078323364258,0.4269309639930725,2.2689852714538574,-0.30337852239608765,0.0,0.0,0.0,0.0,0.0,0.0,0.0,0.009959842668777636,0.38876420483494417,0.1945604685197073,0.6583275283015291,0.005460444969169349,0.093965026787587,-0.28125452408774504,-0.6092852578204975,-0.057519995728605666,-0.666626076564454,-2.594780071760479,-0.05573573601245879,2.5078977528148223,0.8763298713299963,-0.6090851748156966,-0.05753196718556838,-0.666603097082616,-2.5945565370258534,-0.05562143941554,2.507976027223799,0.8763108487046415,-0.0001612542517951633,0.00012169457150656834,0.00012760749603567313,0.0015156297849653732,-1.1427456065779394e-05,5.832335150473419e-05,0.0005516111040426327,0.0,0.0,0.0,0.0,0.0,0.0,0.0,0.00020008300480089947,-1.1971456962717175e-05,2.2979481838047988e-05,0.0002235347346255523,0.00011429659691879201,7.827440897667515e-05,-1.9022625354803147e-05,0.0001612542517951633,-0.00012169457150656834,-0.00012760749603567313,-0.0015156297849653732,1.1427456065779394e-05,-5.832335150473419e-05,-0.0005516111040426327,-0.05722695589065552,18.277124404907227,-1.0410492420196533,-18.222078323364258,-0.4269309639930725,-2.2689852714538574,0.30337852239608765,0
21,0.09999966621398926,0.03342324495315552,-18.205713272094727,1.0172455310821533,18.245882034301758,0.4333396553993225,2.2689852714538574,-0.25485557317733765,0.0,0.0,0.0,0.0,0.0,0.0,0.0,0.01769254029308736,0.39140479085635715,0.2023193741254513,0.6561376510767158,0.00552311579124536,0.09265793549057214,-0.28209840570420286,-0.6092836668575018,-0.05752500703617146,-0.6666244061285989,-2.594781742196334,-0.055736452470372996,2.5078977528148223,0.8763244800526997,-0.6090851748156966,-0.05753196718556838,-0.666603097082616,-2.5945565370258534,-0.05562143941554,2.507976027223799,0.8763108487046415,0.0008290018762455525,-0.0009018695802303606,0.0009223412242115968,0.0005190480854783186,-0.0001435318433914925,0.0001391676835065324,-0.0012679542991873704,0.0,0.0,0.0,0.0,0.0,0.0,0.0,0.0001984920418052205,-6.9601493969256856e-06,2.1309045982853547e-05,0.00022520517048052469,0.0001150130548329964,7.827440897667515e-05,-1.3631348058207315e-05,-0.0008290018762455525,0.0009018695802303606,-0.0009223412242115968,-0.0005190480854783186,0.0001435318433914925,-0.0001391676835065324,0.0012679542991873704,-0.03342324495315552,18.205713272094727,-1.0172455310821533,-18.245882034301758,-0.4333396553993225,-2.2689852714538574,0.25485557317733765,0
22,0.10500955581665039,0.03342324495315552,-18.205713272094727,1.0172455310821533,18.245882034301758,0.4333396553993225,2.2689852714538574,-0.25485557317733765,0.0,0.0,0.0,0.0,0.0,0.0,0.0,0.01769254029308736,0.39140479085635715,0.2023193741254513,0.6561376510767158,0.00552311579124536,0.09265793549057214,-0.28209840570420286,-0.6092836668575018,-0.05752500703617146,-0.6666244061285989,-2.594781742196334,-0.055736452470372996,2.5078977528148223,0.8763244800526997,-0.6090851748156966,-0.05753196718556838,-0.666603097082616,-2.5945565370258534,-0.05562143941554,2.507976027223799,0.8763108487046415,0.0008290018762455525,-0.0009018695802303606,0.0009223412242115968,0.0005190480854783186,-0.0001435318433914925,0.0001391676835065324,-0.0012679542991873704,0.0,0.0,0.0,0.0,0.0,0.0,0.0,0.0001984920418052205,-6.9601493969256856e-06,2.1309045982853547e-05,0.00022520517048052469,0.0001150130548329964,7.827440897667515e-05,-1.3631348058207315e-05,-0.0008290018762455525,0.0009018695802303606,-0.0009223412242115968,-0.0005190480854783186,0.0001435318433914925,-0.0001391676835065324,0.0012679542991873704,-0.03342324495315552,18.205713272094727,-1.0172455310821533,-18.245882034301758,-0.4333396553993225,-2.2689852714538574,0.25485557317733765,0
23,0.11000823974609375,0.005652248859405518,-18.253320693969727,1.0172455310821533,18.297456741333008,0.4333396553993225,2.2818026542663574,-0.26858848333358765,0.0,0.0,0.0,0.0,0.0,0.0,0.0,0.014522791242656225,0.4120622951965853,0.1976286487508202,0.615359785506391,0.0052987519790091385,0.08548862454003746,-0.2817924810651296,-0.6092816385432596,-0.05752166616446093,-0.6666244051656218,-2.5947853614740204,-0.05573644808930644,2.5078963286611766,0.8763260057701013,-0.6090851748156966,-0.05753196718556838,-0.666603097082616,-2.5945565370258534,-0.05562143941554,2.507976027223799,0.8763108487046415,0.00014988800788617024,-0.00010528890471901383,-0.00011201351892968321,0.0003097061100166246,-0.0002416207805488118,-0.0002868523968812594,-0.0003879958890688185,0.0,0.0,0.0,0.0,0.0,0.0,0.0,0.0001964637275629899,-1.0301021107453345e-05,2.1308083005822098e-05,0.00022882444816696434,0.00011500867376643825,7.969856262235453e-05,-1.515706545984763e-05,-0.00014988800788617024,0.00010528890471901383,0.00011201351892968321,-0.0003097061100166246,0.0002416207805488118,0.0002868523968812594,0.0003879958890688185,-0.005652248859405518,18.253320693969727,-1.0172455310821533,-18.297456741333008,-0.4333396553993225,-2.2818026542663574,0.26858848333358765,0
24,0.11500716209411621,0.005652248859405518,-18.253320693969727,1.0172455310821533,18.297456741333008,0.4333396553993225,2.2818026542663574,-0.26858848333358765,0.0,0.0,0.0,0.0,0.0,0.0,0.0,0.014522791242656225,0.4120622951965853,0.1976286487508202,0.615359785506391,0.0052987519790091385,0.08548862454003746,-0.2817924810651296,-0.6092816385432596,-0.05752166616446093,-0.6666244051656218,-2.5947853614740204,-0.05573644808930644,2.5078963286611766,0.8763260057701013,-0.6090851748156966,-0.05753196718556838,-0.666603097082616,-2.5945565370258534,-0.05562143941554,2.507976027223799,0.8763108487046415,0.00014988800788617024,-0.00010528890471901383,-0.00011201351892968321,0.0003097061100166246,-0.0002416207805488118,-0.0002868523968812594,-0.0003879958890688185,0.0,0.0,0.0,0.0,0.0,0.0,0.0,0.0001964637275629899,-1.0301021107453345e-05,2.1308083005822098e-05,0.00022882444816696434,0.00011500867376643825,7.969856262235453e-05,-1.515706545984763e-05,-0.00014988800788617024,0.00010528890471901383,0.00011201351892968321,-0.0003097061100166246,0.0002416207805488118,0.0002868523968812594,0.0003879958890688185,-0.005652248859405518,18.253320693969727,-1.0172455310821533,-18.297456741333008,-0.4333396553993225,-2.2818026542663574,0.26858848333358765,0
25,0.12000536918640137,-0.018151462078094482,-18.229516983032227,1.0172455310821533,18.297456741333008,0.4269309639930725,2.2818026542663574,-0.26858848333358765,0.0,0.0,0.0,0.0,0.0,0.0,0.0,0.02410541678503334,0.4000404791980857,0.2093734233037225,0.6576140374029664,0.005412178662842173,0.09227933430621113,-0.2802494423743612,-0.6092799681069558,-0.057523336600316194,-0.6666244061285935,-2.5947853614740204,-0.05573573747282255,2.5078963286611766,0.8763260057701004,-0.6090851748156966,-0.05753196718556838,-0.666603097082616,-2.5945565370258534,-0.05562143941554,2.507976027223799,0.8763108487046415,0.00046386474423410764,-0.00022484161732589503,0.0003872682652437429,-0.0002753692674497467,0.0003452329162790331,-0.00023052149892762266,-0.0008995969072194213,0.0,0.0,0.0,0.0,0.0,0.0,0.0,0.00019479329125926537,-8.630585252189515e-06,2.1309045977524477e-05,0.00022882444816696434,0.00011429805728255249,7.969856262235453e-05,-1.5157065458959451e-05,-0.00046386474423410764,0.00022484161732589503,-0.0003872682652437429,0.0002753692674497467,-0.0003452329162790331,0.00023052149892762266,0.0008995969072194213,0.018151462078094482,18.229516983032227,-1.0172455310821533,-18.297456741333008,-0.4269309639930725,-2.2818026542663574,0.26858848333358765,0
26,0.12500858306884766,-0.018151462078094482,-18.229516983032227,1.0172455310821533,18.297456741333008,0.4269309639930725,2.2818026542663574,-0.26858848333358765,0.0,0.0,0.0,0.0,0.0,0.0,0.0,0.02410541678503334,0.4000404791980857,0.2093734233037225,0.6576140374029664,0.005412178662842173,0.09227933430621113,-0.2802494423743612,-0.6092799681069558,-0.057523336600316194,-0.6666244061285935,-2.5947853614740204,-0.05573573747282255,2.5078963286611766,0.8763260057701004,-0.6090851748156966,-0.05753196718556838,-0.666603097082616,-2.5945565370258534,-0.05562143941554,2.507976027223799,0.8763108487046415,0.00046386474423410764,-0.00022484161732589503,0.0003872682652437429,-0.0002753692674497467,0.0003452329162790331,-0.00023052149892762266,-0.0008995969072194213,0.0,0.0,0.0,0.0,0.0,0.0,0.0,0.00019479329125926537,-8.630585252189515e-06,2.1309045977524477e-05,0.00022882444816696434,0.00011429805728255249,7.969856262235453e-05,-1.5157065458959451e-05,-0.00046386474423410764,0.00022484161732589503,-0.0003872682652437429,0.0002753692674497467,-0.0003452329162790331,0.00023052149892762266,0.0008995969072194213,0.018151462078094482,18.229516983032227,-1.0172455310821533,-18.297456741333008,-0.4269309639930725,-2.2818026542663574,0.26858848333358765,0
27,0.12999916076660156,0.03342324495315552,-18.277124404907227,0.9696381092071533,18.269685745239258,0.4269309639930725,2.2753939628601074,-0.29605430364608765,0.0,0.0,0.0,0.0,0.0,0.0,0.0,0.02391179848286871,0.39537515744652313,0.20998281172015926,0.6651640161758813,0.004936128192724788,0.09424721025805127,-0.2799826571229306,-0.6092835873846422,-0.057519995728605666,-0.6666210652568882,-2.5947834126321894,-0.0557357491557409,2.5078970407379995,0.876329057527913,-0.6090851748156966,-0.05753196718556838,-0.666603097082616,-2.5945565370258534,-0.05562143941554,2.507976027223799,0.8763108487046415,-0.00020900169521079052,0.00047127869982619693,0.0005225521275055876,4.607591437271812e-05,0.002991832812230288,6.566572328606548e-05,0.000345022980720481,0.0,0.0,0.0,0.0,0.0,0.0,0.0,0.000198412568945594,-1.1971456962717175e-05,1.796817427224262e-05,0.00022687560633594117,0.00011430974020090051,7.898648579951484e-05,-1.8208823271526065e-05,0.00020900169521079052,-0.00047127869982619693,-0.0005225521275055876,-4.607591437271812e-05,-0.002991832812230288,-6.566572328606548e-05,-0.000345022980720481,-0.03342324495315552,18.277124404907227,-0.9696381092071533,-18.269685745239258,-0.4269309639930725,-2.2753939628601074,0.29605430364608765,0
28,0.1351625919342041,0.03342324495315552,-18.277124404907227,0.9696381092071533,18.269685745239258,0.4269309639930725,2.2753939628601074,-0.29605430364608765,0.0,0.0,0.0,0.0,0.0,0.0,0.0,0.02391179848286871,0.39537515744652313,0.20998281172015926,0.6651640161758813,0.004936128192724788,0.09424721025805127,-0.2799826571229306,-0.6092835873846422,-0.057519995728605666,-0.6666210652568882,-2.5947834126321894,-0.0557357491557409,2.5078970407379995,0.876329057527913,-0.6090851748156966,-0.05753196718556838,-0.666603097082616,-2.5945565370258534,-0.05562143941554,2.507976027223799,0.8763108487046415,-0.00020900169521079052,0.00047127869982619693,0.0005225521275055876,4.607591437271812e-05,0.002991832812230288,6.566572328606548e-05,0.000345022980720481,0.0,0.0,0.0,0.0,0.0,0.0,0.0,0.000198412568945594,-1.1971456962717175e-05,1.796817427224262e-05,0.00022687560633594117,0.00011430974020090051,7.898648579951484e-05,-1.8208823271526065e-05,0.00020900169521079052,-0.00047127869982619693,-0.0005225521275055876,-4.607591437271812e-05,-0.002991832812230288,-6.566572328606548e-05,-0.000345022980720481,-0.03342324495315552,18.277124404907227,-0.9696381092071533,-18.269685745239258,-0.4269309639930725,-2.2753939628601074,0.29605430364608765,0
29,0.14009666442871094,0.05722695589065552,-18.253320693969727,0.9934418201446533,18.269685745239258,0.4214377999305725,2.2753939628601074,-0.30337852239608765,0.0,0.0,0.0,0.0,0.0,0.0,0.0,0.018852551620087508,0.39619149336644144,0.20354106768820612,0.6670731836158793,0.00541663308076723,0.09478906865957655,-0.2793821542303755,-0.6092852578204975,-0.05752166616446093,-0.6666227356927436,-2.5947834126321894,-0.05573512566097049,2.5078970407379995,0.8763298713299963,-0.6090851748156966,-0.05753196718556838,-0.666603097082616,-2.5945565370258534,-0.05562143941554,2.507976027223799,0.8763108487046415,-0.001494714862664014,-3.8823787945697436e-05,0.0004974962187433979,0.0006242673331677054,0.0005372170764949978,-0.0001010315612763913,0.0012678808639663424,0.0,0.0,0.0,0.0,0.0,0.0,0.0,0.00020008300480089947,-1.0301021107453345e-05,1.9638610127548084e-05,0.00022687560633594117,0.00011368624543049016,7.898648579951484e-05,-1.9022625354803147e-05,0.001494714862664014,3.8823787945697436e-05,-0.0004974962187433979,-0.0006242673331677054,-0.0005372170764949978,0.0001010315612763913,-0.0012678808639663424,-0.05722695589065552,18.253320693969727,-0.9934418201446533,-18.269685745239258,-0.4214377999305725,-2.2753939628601074,0.30337852239608765,0
30,0.14499998092651367,0.05722695589065552,-18.253320693969727,0.9934418201446533,18.269685745239258,0.4214377999305725,2.2753939628601074,-0.30337852239608765,0.0,0.0,0.0,0.0,0.0,0.0,0.0,0.018852551620087508,0.39619149336644144,0.20354106768820612,0.6670731836158793,0.00541663308076723,0.09478906865957655,-0.2793821542303755,-0.6092852578204975,-0.05752166616446093,-0.6666227356927436,-2.5947834126321894,-0.05573512566097049,2.5078970407379995,0.8763298713299963,-0.6090851748156966,-0.05753196718556838,-0.666603097082616,-2.5945565370258534,-0.05562143941554,2.507976027223799,0.8763108487046415,-0.001494714862664014,-3.8823787945697436e-05,0.0004974962187433979,0.0006242673331677054,0.0005372170764949978,-0.0001010315612763913,0.0012678808639663424,0.0,0.0,0.0,0.0,0.0,0.0,0.0,0.00020008300480089947,-1.0301021107453345e-05,1.9638610127548084e-05,0.00022687560633594117,0.00011368624543049016,7.898648579951484e-05,-1.9022625354803147e-05,0.001494714862664014,3.8823787945697436e-05,-0.0004974962187433979,-0.0006242673331677054,-0.0005372170764949978,0.0001010315612763913,-0.0012678808639663424,-0.05722695589065552,18.253320693969727,-0.9934418201446533,-18.269685745239258,-0.4214377999305725,-2.2753939628601074,0.30337852239608765,0
31,0.15000128746032715,-0.04592245817184448,-18.304895401000977,0.9934418201446533,18.269685745239258,0.4333396553993225,2.2625765800476074,-0.29605430364608765,0.0,0.0,0.0,0.0,0.0,0.0,0.0,0.012282084093912854,0.39492059885971953,0.20004228511086164,0.6651610653151817,0.005730660620845977,0.0935907984883338,-0.2791224902398852,-0.6092782576837038,-0.057518046886774525,-0.6666227356927436,-2.5947834126321894,-0.05573644808928172,2.507898464891645,0.876329057527913,-0.6090851748156966,-0.05753196718556838,-0.666603097082616,-2.5945565370258534,-0.05562143941554,2.507976027223799,0.8763108487046415,0.0008477603715994076,0.0009251896383886478,0.0003193312710712253,0.00046308036285313934,-0.0002022044132794132,0.0004133624911488839,0.000670613639838735,0.0,0.0,0.0,0.0,0.0,0.0,0.0,0.00019308286800723273,-1.392029879385831e-05,1.9638610127548084e-05,0.00022687560633594117,0.00011500867374172191,7.756233215383546e-05,-1.8208823271526065e-05,-0.0008477603715994076,-0.0009251896383886478,-0.0003193312710712253,-0.00046308036285313934,0.0002022044132794132,-0.0004133624911488839,-0.000670613639838735,0.04592245817184448,18.304895401000977,-0.9934418201446533,-18.269685745239258,-0.4333396553993225,-2.2625765800476074,0.29605430364608765,0
32,0.1549997329711914,-0.04592245817184448,-18.304895401000977,0.9934418201446533,18.269685745239258,0.4333396553993225,2.2625765800476074,-0.29605430364608765,0.0,0.0,0.0,0.0,0.0,0.0,0.0,0.012282084093912854,0.39492059885971953,0.20004228511086164,0.6651610653151817,0.005730660620845977,0.0935907984883338,-0.2791224902398852,-0.6092782576837038,-0.057518046886774525,-0.6666227356927436,-2.5947834126321894,-0.05573644808928172,2.507898464891645,0.876329057527913,-0.6090851748156966,-0.05753196718556838,-0.666603097082616,-2.5945565370258534,-0.05562143941554,2.507976027223799,0.8763108487046415,0.0008477603715994076,0.0009251896383886478,0.0003193312710712253,0.00046308036285313934,-0.0002022044132794132,0.0004133624911488839,0.000670613639838735,0.0,0.0,0.0,0.0,0.0,0.0,0.0,0.00019308286800723273,-1.392029879385831e-05,1.9638610127548084e-05,0.00022687560633594117,0.00011500867374172191,7.756233215383546e-05,-1.8208823271526065e-05,-0.0008477603715994076,-0.0009251896383886478,-0.0003193312710712253,-0.00046308036285313934,0.0002022044132794132,-0.0004133624911488839,-0.000670613639838735,0.04592245817184448,18.304895401000977,-0.9934418201446533,-18.269685745239258,-0.4333396553993225,-2.2625765800476074,0.29605430364608765,0
33,0.16000080108642578,-0.018151462078094482,-18.304895401000977,0.9934418201446533,18.321260452270508,0.4269309639930725,2.2818026542663574,-0.26858848333358765,0.0,0.0,0.0,0.0,0.0,0.0,0.0,0.010389083871218086,0.39079397471824134,0.20465246048341706,0.6674018901895722,0.004917582183303593,0.09250636641923696,-0.2805624112828132,-0.609279968107421,-0.057518046886774525,-0.6666227356927436,-2.594787031909876,-0.05573573601446204,2.5078963286611766,0.8763260057701004,-0.6090851748156966,-0.05753196718556838,-0.666603097082616,-2.5945565370258534,-0.05562143941554,2.507976027223799,0.8763108487046415,0.0009342118147257433,0.0004035910194731808,0.0006117149371501001,-0.0005613438042797654,0.00014203975573297829,-0.000262541537453459,-0.0003486379302551392,0.0,0.0,0.0,0.0,0.0,0.0,0.0,0.00019479329172444881,-1.392029879385831e-05,1.9638610127548084e-05,0.00023049488402238083,0.00011429659892203681,7.969856262235453e-05,-1.5157065458959451e-05,-0.0009342118147257433,-0.0004035910194731808,-0.0006117149371501001,0.0005613438042797654,-0.00014203975573297829,0.000262541537453459,0.0003486379302551392,0.018151462078094482,18.304895401000977,-0.9934418201446533,-18.321260452270508,-0.4269309639930725,-2.2818026542663574,0.26858848333358765,0
34,0.16499948501586914,-0.018151462078094482,-18.304895401000977,0.9934418201446533,18.321260452270508,0.4269309639930725,2.2818026542663574,-0.26858848333358765,0.0,0.0,0.0,0.0,0.0,0.0,0.0,0.010389083871218086,0.39079397471824134,0.20465246048341706,0.6674018901895722,0.004917582183303593,0.09250636641923696,-0.2805624112828132,-0.609279968107421,-0.057518046886774525,-0.6666227356927436,-2.594787031909876,-0.05573573601446204,2.5078963286611766,0.8763260057701004,-0.6090851748156966,-0.05753196718556838,-0.666603097082616,-2.5945565370258534,-0.05562143941554,2.507976027223799,0.8763108487046415,0.0009342118147257433,0.0004035910194731808,0.0006117149371501001,-0.0005613438042797654,0.00014203975573297829,-0.000262541537453459,-0.0003486379302551392,0.0,0.0,0.0,0.0,0.0,0.0,0.0,0.00019479329172444881,-1.392029879385831e-05,1.9638610127548084e-05,0.00023049488402238083,0.00011429659892203681,7.969856262235453e-05,-1.5157065458959451e-05,-0.0009342118147257433,-0.0004035910194731808,-0.0006117149371501001,0.0005613438042797654,-0.00014203975573297829,0.000262541537453459,0.0003486379302551392,0.018151462078094482,18.304895401000977,-0.9934418201446533,-18.321260452270508,-0.4269309639930725,-2.2818026542663574,0.26858848333358765,0
35,0.1699984073638916,0.005652248859405518,-18.253320693969727,1.0172455310821533,18.269685745239258,0.4388328194618225,2.2946200370788574,-0.25485557317733765,0.0,0.0,0.0,0.0,0.0,0.0,0.0,0.003733169721259672,0.3923545018050935,0.19923086124632725,0.6605726684914963,0.004805362642788015,0.09133364755891281,-0.27956406332179023,-0.609281638542811,-0.05752166616446093,-0.6666244061285989,-2.5947834126321894,-0.05573705844084425,2.5078949045075305,0.8763244798911942,-0.6090851748156966,-0.05753196718556838,-0.666603097082616,-2.5945565370258534,-0.05562143941554,2.507976027223799,0.8763108487046415,-3.244223534430446e-05,-0.0006397720156978278,-0.000139436665831328,0.0003442972854524777,-0.0002939149674048879,-0.0007145796506437494,-0.0012916768685083577,0.0,0.0,0.0,0.0,0.0,0.0,0.0,0.0001964637271144598,-1.0301021107453345e-05,2.1309045982853547e-05,0.00022687560633594117,0.00011561902530424911,8.1122716268478e-05,-1.3631186552731656e-05,3.244223534430446e-05,0.0006397720156978278,0.000139436665831328,-0.0003442972854524777,0.0002939149674048879,0.0007145796506437494,0.0012916768685083577,-0.005652248859405518,18.253320693969727,-1.0172455310821533,-18.269685745239258,-0.4388328194618225,-2.2946200370788574,0.25485557317733765,0
36,0.17501544952392578,0.005652248859405518,-18.253320693969727,1.0172455310821533,18.269685745239258,0.4388328194618225,2.2946200370788574,-0.25485557317733765,0.0,0.0,0.0,0.0,0.0,0.0,0.0,0.003733169721259672,0.3923545018050935,0.19923086124632725,0.6605726684914963,0.004805362642788015,0.09133364755891281,-0.27956406332179023,-0.609281638542811,-0.05752166616446093,-0.6666244061285989,-2.5947834126321894,-0.05573705844084425,2.5078949045075305,0.8763244798911942,-0.6090851748156966,-0.05753196718556838,-0.666603097082616,-2.5945565370258534,-0.05562143941554,2.507976027223799,0.8763108487046415,-3.244223534430446e-05,-0.0006397720156978278,-0.000139436665831328,0.0003442972854524777,-0.0002939149674048879,-0.0007145796506437494,-0.0012916768685083577,0.0,0.0,0.0,0.0,0.0,0.0,0.0,0.0001964637271144598,-1.0301021107453345e-05,2.1309045982853547e-05,0.00022687560633594117,0.00011561902530424911,8.1122716268478e-05,-1.3631186552731656e-05,3.244223534430446e-05,0.0006397720156978278,0.000139436665831328,-0.0003442972854524777,0.0002939149674048879,0.0007145796506437494,0.0012916768685083577,-0.005652248859405518,18.253320693969727,-1.0172455310821533,-18.269685745239258,-0.4388328194618225,-2.2946200370788574,0.25485557317733765,0
37,0.1800997257232666,0.005652248859405518,-18.253320693969727,1.0172455310821533,18.269685745239258,0.4388328194618225,2.2946200370788574,-0.25485557317733765,0.0,0.0,0.0,0.0,0.0,0.0,0.0,0.003733169721259672,0.3923545018050935,0.19923086124632725,0.6605726684914963,0.004805362642788015,0.09133364755891281,-0.27956406332179023,-0.609281638542811,-0.05752166616446093,-0.6666244061285989,-2.5947834126321894,-0.05573705844084425,2.5078949045075305,0.8763244798911942,-0.6090851748156966,-0.05753196718556838,-0.666603097082616,-2.5945565370258534,-0.05562143941554,2.507976027223799,0.8763108487046415,-3.244223534430446e-05,-0.0006397720156978278,-0.000139436665831328,0.0003442972854524777,-0.0002939149674048879,-0.0007145796506437494,-0.0012916768685083577,0.0,0.0,0.0,0.0,0.0,0.0,0.0,0.0001964637271144598,-1.0301021107453345e-05,2.1309045982853547e-05,0.00022687560633594117,0.00011561902530424911,8.1122716268478e-05,-1.3631186552731656e-05,3.244223534430446e-05,0.0006397720156978278,0.000139436665831328,-0.0003442972854524777,0.0002939149674048879,0.0007145796506437494,0.0012916768685083577,-0.005652248859405518,18.253320693969727,-1.0172455310821533,-18.269685745239258,-0.4388328194618225,-2.2946200370788574,0.25485557317733765,0
38,0.18500685691833496,0.005652248859405518,-18.253320693969727,1.0172455310821533,18.269685745239258,0.4388328194618225,2.2946200370788574,-0.25485557317733765,0.0,0.0,0.0,0.0,0.0,0.0,0.0,0.003733169721259672,0.3923545018050935,0.19923086124632725,0.6605726684914963,0.004805362642788015,0.09133364755891281,-0.27956406332179023,-0.609281638542811,-0.05752166616446093,-0.6666244061285989,-2.5947834126321894,-0.05573705844084425,2.5078949045075305,0.8763244798911942,-0.6090851748156966,-0.05753196718556838,-0.666603097082616,-2.5945565370258534,-0.05562143941554,2.507976027223799,0.8763108487046415,-3.244223534430446e-05,-0.0006397720156978278,-0.000139436665831328,0.0003442972854524777,-0.0002939149674048879,-0.0007145796506437494,-0.0012916768685083577,0.0,0.0,0.0,0.0,0.0,0.0,0.0,0.0001964637271144598,-1.0301021107453345e-05,2.1309045982853547e-05,0.00022687560633594117,0.00011561902530424911,8.1122716268478e-05,-1.3631186552731656e-05,3.244223534430446e-05,0.0006397720156978278,0.000139436665831328,-0.0003442972854524777,0.0002939149674048879,0.0007145796506437494,0.0012916768685083577,-0.005652248859405518,18.253320693969727,-1.0172455310821533,-18.269685745239258,-0.4388328194618225,-2.2946200370788574,0.25485557317733765,0
39,0.1900014877319336,0.05722695589065552,-18.277124404907227,1.0410492420196533,18.297456741333008,0.4150291085243225,2.2689852714538574,-0.30337852239608765,0.0,0.0,0.0,0.0,0.0,0.0,0.0,0.012384388996843111,0.39224665842427886,0.20854448474315956,0.6601137996341985,0.004138543132159227,0.09261553065995201,-0.2807641691256455,-0.6092852578204975,-0.057519995728605666,-0.666626076564454,-2.5947853614740204,-0.055734413584073376,2.5078977528148223,0.8763298713299963,-0.6090851748156966,-0.05753196718556838,-0.666603097082616,-2.5945565370258534,-0.05562143941554,2.507976027223799,0.8763108487046415,-0.000653110409414217,0.00033021800600064943,-0.00023345292396117424,-0.0001802765330322615,0.004572761877443271,0.00016233483109812653,0.0011013789729198914,0.0,0.0,0.0,0.0,0.0,0.0,0.0,0.00020008300480089947,-1.1971456962717175e-05,2.2979481838047988e-05,0.00022882444816696434,0.00011297416853337655,7.827440897667515e-05,-1.9022625354803147e-05,0.000653110409414217,-0.00033021800600064943,0.00023345292396117424,0.0001802765330322615,-0.004572761877443271,-0.00016233483109812653,-0.0011013789729198914,-0.05722695589065552,18.277124404907227,-1.0410492420196533,-18.297456741333008,-0.4150291085243225,-2.2689852714538574,0.30337852239608765,0
40,0.19499826431274414,0.05722695589065552,-18.277124404907227,1.0410492420196533,18.297456741333008,0.4150291085243225,2.2689852714538574,-0.30337852239608765,0.0,0.0,0.0,0.0,0.0,0.0,0.0,0.012384388996843111,0.39224665842427886,0.20854448474315956,0.6601137996341985,0.004138543132159227,0.09261553065995201,-0.2807641691256455,-0.6092852578204975,-0.057519995728605666,-0.666626076564454,-2.5947853614740204,-0.055734413584073376,2.5078977528148223,0.8763298713299963,-0.6090851748156966,-0.05753196718556838,-0.666603097082616,-2.5945565370258534,-0.05562143941554,2.507976027223799,0.8763108487046415,-0.000653110409414217,0.00033021800600064943,-0.00023345292396117424,-0.0001802765330322615,0.004572761877443271,0.00016233483109812653,0.0011013789729198914,0.0,0.0,0.0,0.0,0.0,0.0,0.0,0.00020008300480089947,-1.1971456962717175e-05,2.2979481838047988e-05,0.00022882444816696434,0.00011297416853337655,7.827440897667515e-05,-1.9022625354803147e-05,0.000653110409414217,-0.00033021800600064943,0.00023345292396117424,0.0001802765330322615,-0.004572761877443271,-0.00016233483109812653,-0.0011013789729198914,-0.05722695589065552,18.277124404907227,-1.0410492420196533,-18.297456741333008,-0.4150291085243225,-2.2689852714538574,0.30337852239608765,0
41,0.19999957084655762,0.05722695589065552,-18.205713272094727,1.0688202381134033,18.297456741333008,0.4214377999305725,2.2753939628601074,-0.24844686686992645,0.0,0.0,0.0,0.0,0.0,0.0,0.0,0.014784821867351345,0.40209143053450236,0.2068794292296918,0.6535758817398655,0.004438045085556579,0.09087548692436992,-0.2811786841586156,-0.6092852578204975,-0.05752500703617146,-0.6666280254062852,-2.5947853614740204,-0.05573512566089629,2.5078970407379995,0.8763237678127156,-0.6090851748156966,-0.05753196718556838,-0.666603097082616,-2.5945565370258534,-0.05562143941554,2.507976027223799,0.8763108487046415,-0.0003658682460477742,-0.0006371540040156963,-0.0007174907026755067,-0.0009259031869648229,0.00048349926237017634,-9.579373126406524e-06,-0.0009480129491298747,0.0,0.0,0.0,0.0,0.0,0.0,0.0,0.00020008300480089947,-6.9601493969256856e-06,2.4928323669182184e-05,0.00022882444816696434,0.00011368624535629257,7.898648579951484e-05,-1.2919108074105345e-05,0.0003658682460477742,0.0006371540040156963,0.0007174907026755067,0.0009259031869648229,-0.00048349926237017634,9.579373126406524e-06,0.0009480129491298747,-0.05722695589065552,18.205713272094727,-1.0688202381134033,-18.297456741333008,-0.4214377999305725,-2.2753939628601074,0.24844686686992645,0
42,0.20499849319458008,0.05722695589065552,-18.205713272094727,1.0688202381134033,18.297456741333008,0.4214377999305725,2.2753939628601074,-0.24844686686992645,0.0,0.0,0.0,0.0,0.0,0.0,0.0,0.014784821867351345,0.40209143053450236,0.2068794292296918,0.6535758817398655,0.004438045085556579,0.09087548692436992,-0.2811786841586156,-0.6092852578204975,-0.05752500703617146,-0.6666280254062852,-2.5947853614740204,-0.05573512566089629,2.5078970407379995,0.8763237678127156,-0.6090851748156966,-0.05753196718556838,-0.666603097082616,-2.5945565370258534,-0.05562143941554,2.507976027223799,0.8763108487046415,-0.0003658682460477742,-0.0006371540040156963,-0.0007174907026755067,-0.0009259031869648229,0.00048349926237017634,-9.579373126406524e-06,-0.0009480129491298747,0.0,0.0,0.0,0.0,0.0,0.0,0.0,0.00020008300480089947,-6.9601493969256856e-06,2.4928323669182184e-05,0.00022882444816696434,0.00011368624535629257,7.898648579951484e-05,-1.2919108074105345e-05,0.0003658682460477742,0.0006371540040156963,0.0007174907026755067,0.0009259031869648229,-0.00048349926237017634,9.579373126406524e-06,0.0009480129491298747,-0.05722695589065552,18.205713272094727,-1.0688202381134033,-18.297456741333008,-0.4214377999305725,-2.2753939628601074,0.24844686686992645,0
43,0.20999884605407715,0.005652248859405518,-18.229516983032227,1.0172455310821533,18.269685745239258,0.4269309639930725,2.2753939628601074,-0.25485557317733765,0.0,0.0,0.0,0.0,0.0,0.0,0.0,0.016197453005124842,0.40352516732092925,0.20642822129004898,0.6586108573860213,0.00487836171140049,0.0917475352320203,-0.2800009397751401,-0.609281638542811,-0.057523336600316194,-0.6666244061285989,-2.5947834126321894,-0.05573573601245879,2.5078970407379995,0.8763244798911942,-0.6090851748156966,-0.05753196718556838,-0.666603097082616,-2.5945565370258534,-0.05562143941554,2.507976027223799,0.8763108487046415,0.0008426714654096117,0.00033427983579634613,0.0004377373900247997,-2.8432144686466643e-05,0.00013495243180052004,-0.00015848269122399267,-0.0012538707577658744,0.0,0.0,0.0,0.0,0.0,0.0,0.0,0.0001964637271144598,-8.630585252189515e-06,2.1309045982853547e-05,0.00022687560633594117,0.00011429659691879201,7.898648579951484e-05,-1.3631186552731656e-05,-0.0008426714654096117,-0.00033427983579634613,-0.0004377373900247997,2.8432144686466643e-05,-0.00013495243180052004,0.00015848269122399267,0.0012538707577658744,-0.005652248859405518,18.229516983032227,-1.0172455310821533,-18.269685745239258,-0.4269309639930725,-2.2753939628601074,0.25485557317733765,0
44,0.21500086784362793,0.005652248859405518,-18.229516983032227,1.0172455310821533,18.269685745239258,0.4269309639930725,2.2753939628601074,-0.25485557317733765,0.0,0.0,0.0,0.0,0.0,0.0,0.0,0.016197453005124842,0.40352516732092925,0.20642822129004898,0.6586108573860213,0.00487836171140049,0.0917475352320203,-0.2800009397751401,-0.609281638542811,-0.057523336600316194,-0.6666244061285989,-2.5947834126321894,-0.05573573601245879,2.5078970407379995,0.8763244798911942,-0.6090851748156966,-0.05753196718556838,-0.666603097082616,-2.5945565370258534,-0.05562143941554,2.507976027223799,0.8763108487046415,0.0008426714654096117,0.00033427983579634613,0.0004377373900247997,-2.8432144686466643e-05,0.00013495243180052004,-0.00015848269122399267,-0.0012538707577658744,0.0,0.0,0.0,0.0,0.0,0.0,0.0,0.0001964637271144598,-8.630585252189515e-06,2.1309045982853547e-05,0.00022687560633594117,0.00011429659691879201,7.898648579951484e-05,-1.3631186552731656e-05,-0.0008426714654096117,-0.00033427983579634613,-0.0004377373900247997,2.8432144686466643e-05,-0.00013495243180052004,0.00015848269122399267,0.0012538707577658744,-0.005652248859405518,18.229516983032227,-1.0172455310821533,-18.269685745239258,-0.4269309639930725,-2.2753939628601074,0.25485557317733765,0
45,0.21999835968017578,0.005652248859405518,-18.277124404907227,1.0410492420196533,18.269685745239258,0.4269309639930725,2.2689852714538574,-0.30337852239608765,0.0,0.0,0.0,0.0,0.0,0.0,0.0,0.019873732906479643,0.4050433383850999,0.20881624157896037,0.6602331667766063,0.004746209178539875,0.09246330589366612,-0.27932816497859375,-0.609281638542811,-0.057519995728605666,-0.666626076564454,-2.5947834126321894,-0.05573586744519744,2.5078977528148223,0.8763298713299963,-0.6090851748156966,-0.05753196718556838,-0.666603097082616,-2.5945565370258534,-0.05562143941554,2.507976027223799,0.8763108487046415,0.0003341869467447398,0.0007101874737775778,-0.0005324791685622041,0.00024904604903907163,-5.676860792144454e-05,0.0003372708681901673,0.001291610463617458,0.0,0.0,0.0,0.0,0.0,0.0,0.0,0.0001964637271144598,-1.1971456962717175e-05,2.2979481838047988e-05,0.00022687560633594117,0.00011442802965744292,7.827440897667515e-05,-1.9022625354803147e-05,-0.0003341869467447398,-0.0007101874737775778,0.0005324791685622041,-0.00024904604903907163,5.676860792144454e-05,-0.0003372708681901673,-0.001291610463617458,-0.005652248859405518,18.277124404907227,-1.0410492420196533,-18.269685745239258,-0.4269309639930725,-2.2689852714538574,0.30337852239608765,0
46,0.22500395774841309,0.005652248859405518,-18.277124404907227,1.0410492420196533,18.269685745239258,0.4269309639930725,2.2689852714538574,-0.30337852239608765,0.0,0.0,0.0,0.0,0.0,0.0,0.0,0.019873732906479643,0.4050433383850999,0.20881624157896037,0.6602331667766063,0.004746209178539875,0.09246330589366612,-0.27932816497859375,-0.609281638542811,-0.057519995728605666,-0.666626076564454,-2.5947834126321894,-0.05573586744519744,2.5078977528148223,0.8763298713299963,-0.6090851748156966,-0.05753196718556838,-0.666603097082616,-2.5945565370258534,-0.05562143941554,2.507976027223799,0.8763108487046415,0.0003341869467447398,0.0007101874737775778,-0.0005324791685622041,0.00024904604903907163,-5.676860792144454e-05,0.0003372708681901673,0.001291610463617458,0.0,0.0,0.0,0.0,0.0,0.0,0.0,0.0001964637271144598,-1.1971456962717175e-05,2.2979481838047988e-05,0.00022687560633594117,0.00011442802965744292,7.827440897667515e-05,-1.9022625354803147e-05,-0.0003341869467447398,-0.0007101874737775778,0.0005324791685622041,-0.00024904604903907163,5.676860792144454e-05,-0.0003372708681901673,-0.001291610463617458,-0.005652248859405518,18.277124404907227,-1.0410492420196533,-18.269685745239258,-0.4269309639930725,-2.2689852714538574,0.30337852239608765,0
47,0.22999906539916992,-0.04592245817184448,-18.304895401000977,1.0172455310821533,18.269685745239258,0.4333396553993225,2.2753939628601074,-0.28232139348983765,0.0,0.0,0.0,0.0,0.0,0.0,0.0,0.016126936591118433,0.40543535196486225,0.20576660898474086,0.6588280802062917,0.0044552102539687725,0.09225476648478584,-0.2791337649094558,-0.6092780222085639,-0.057518046886774525,-0.6666244061285989,-2.5947834126321894,-0.05573644809150753,2.5078970407379995,0.8763275316490068,-0.6090851748156966,-0.05753196718556838,-0.666603097082616,-2.5945565370258534,-0.05562143941554,2.507976027223799,0.8763108487046415,0.0009431364507389407,0.000644192491900519,0.00011684997101221361,0.0003440458897872472,-9.197006810101855e-05,0.0001846126469871361,6.830743246436051e-05,0.0,0.0,0.0,0.0,0.0,0.0,0.0,0.00019284739286729025,-1.392029879385831e-05,2.1309045982853547e-05,0.00022687560633594117,0.00011500867596753173,7.898648579951484e-05,-1.668294436529827e-05,-0.0009431364507389407,-0.000644192491900519,-0.00011684997101221361,-0.0003440458897872472,9.197006810101855e-05,-0.0001846126469871361,-6.830743246436051e-05,0.04592245817184448,18.304895401000977,-1.0172455310821533,-18.269685745239258,-0.4333396553993225,-2.2753939628601074,0.28232139348983765,0
48,0.2350008487701416,-0.04592245817184448,-18.304895401000977,1.0172455310821533,18.269685745239258,0.4333396553993225,2.2753939628601074,-0.28232139348983765,0.0,0.0,0.0,0.0,0.0,0.0,0.0,0.016126936591118433,0.40543535196486225,0.20576660898474086,0.6588280802062917,0.0044552102539687725,0.09225476648478584,-0.2791337649094558,-0.6092780222085639,-0.057518046886774525,-0.6666244061285989,-2.5947834126321894,-0.05573644809150753,2.5078970407379995,0.8763275316490068,-0.6090851748156966,-0.05753196718556838,-0.666603097082616,-2.5945565370258534,-0.05562143941554,2.507976027223799,0.8763108487046415,0.0009431364507389407,0.000644192491900519,0.00011684997101221361,0.0003440458897872472,-9.197006810101855e-05,0.0001846126469871361,6.830743246436051e-05,0.0,0.0,0.0,0.0,0.0,0.0,0.0,0.00019284739286729025,-1.392029879385831e-05,2.1309045982853547e-05,0.00022687560633594117,0.00011500867596753173,7.898648579951484e-05,-1.668294436529827e-05,-0.0009431364507389407,-0.000644192491900519,-0.00011684997101221361,-0.0003440458897872472,9.197006810101855e-05,-0.0001846126469871361,-6.830743246436051e-05,0.04592245817184448,18.304895401000977,-1.0172455310821533,-18.269685745239258,-0.4333396553993225,-2.2753939628601074,0.28232139348983765,0
49,0.24000144004821777,0.005652248859405518,-18.304895401000977,0.9934418201446533,18.297456741333008,0.4333396553993225,2.2818026542663574,-0.24112264811992645,0.0,0.0,0.0,0.0,0.0,0.0,0.0,0.00986878021368937,0.3985366839915985,0.20306244019395644,0.6597899781220105,0.004264000021808667,0.09259343807973304,-0.28073407814045204,-0.6092816385428165,-0.057518046886774525,-0.6666227328038125,-2.594785361813182,-0.0557364481073109,2.5078963286611766,0.8763229540106323,-0.6090851748156966,-0.05753196718556838,-0.666603097082616,-2.5945565370258534,-0.05562143941554,2.507976027223799,0.8763108487046415,-0.0006326380776638695,8.978532406622128e-05,0.00014800957468334648,-8.643764461738344e-05,-0.00024755128113538547,-3.899515461024261e-05,-0.0015829101473198183,0.0,0.0,0.0,0.0,0.0,0.0,0.0,0.0001964637271198999,-1.392029879385831e-05,1.9635721196453737e-05,0.00022882478732855205,0.00011500869177089729,7.969856262235453e-05,-1.2105305990828263e-05,0.0006326380776638695,-8.978532406622128e-05,-0.00014800957468334648,8.643764461738344e-05,0.00024755128113538547,3.899515461024261e-05,0.0015829101473198183,-0.005652248859405518,18.304895401000977,-0.9934418201446533,-18.297456741333008,-0.4333396553993225,-2.2818026542663574,0.24112264811992645,0
50,0.24501657485961914,0.005652248859405518,-18.304895401000977,0.9934418201446533,18.297456741333008,0.4333396553993225,2.2818026542663574,-0.24112264811992645,0.0,0.0,0.0,0.0,0.0,0.0,0.0,0.00986878021368937,0.3985366839915985,0.20306244019395644,0.6597899781220105,0.004264000021808667,0.09259343807973304,-0.28073407814045204,-0.6092816385428165,-0.057518046886774525,-0.6666227328038125,-2.594785361813182,-0.0557364481073109,2.5078963286611766,0.8763229540106323,-0.6090851748156966,-0.05753196718556838,-0.666603097082616,-2.5945565370258534,-0.05562143941554,2.507976027223799,0.8763108487046415,-0.0006326380776638695,8.978532406622128e-05,0.00014800957468334648,-8.643764461738344e-05,-0.00024755128113538547,-3.899515461024261e-05,-0.0015829101473198183,0.0,0.0,0.0,0.0,0.0,0.0,0.0,0.0001964637271198999,-1.392029879385831e-05,1.9635721196453737e-05,0.00022882478732855205,0.00011500869177089729,7.969856262235453e-05,-1.2105305990828263e-05,0.0006326380776638695,-8.978532406622128e-05,-0.00014800957468334648,8.643764461738344e-05,0.00024755128113538547,3.899515461024261e-05,0.0015829101473198183,-0.005652248859405518,18.304895401000977,-0.9934418201446533,-18.297456741333008,-0.4333396553993225,-2.2818026542663574,0.24112264811992645,0
51,0.24997377395629883,-0.018151462078094482,-18.277124404907227,1.0172455310821533,18.245882034301758,0.4388328194618225,2.2753939628601074,-0.29605430364608765,0.0,0.0,0.0,0.0,0.0,0.0,0.0,0.008970302023388577,0.3923375651501117,0.20353768717594234,0.6580605712226969,0.003523413224224096,0.09309571131571708,-0.2795037373773083,-0.6092799681069558,-0.057519995728605666,-0.6666244061285826,-2.5947817421963357,-0.05573705844084432,2.5078970407379995,0.876329057527913,-0.6090851748156966,-0.05753196718556838,-0.666603097082616,-2.5945565370258534,-0.05562143941554,2.507976027223799,0.8763108487046415,0.0004928068986352379,-0.000749680740760219,-0.0005466942688474296,0.0011259157009527983,-0.0003343982965518724,4.727902882166066e-05,0.00034829902464534056,0.0,0.0,0.0,0.0,0.0,0.0,0.0,0.00019479329125926537,-1.1971456962717175e-05,2.130904596664429e-05,0.00022520517048230104,0.0001156190253043185,7.898648579951484e-05,-1.8208823271526065e-05,-0.0004928068986352379,0.000749680740760219,0.0005466942688474296,-0.0011259157009527983,0.0003343982965518724,-4.727902882166066e-05,-0.00034829902464534056,0.018151462078094482,18.277124404907227,-1.0172455310821533,-18.245882034301758,-0.4388328194618225,-2.2753939628601074,0.29605430364608765,0
52,0.2550063133239746,-0.018151462078094482,-18.277124404907227,1.0172455310821533,18.245882034301758,0.4388328194618225,2.2753939628601074,-0.29605430364608765,0.0,0.0,0.0,0.0,0.0,0.0,0.0,0.008970302023388577,0.3923375651501117,0.20353768717594234,0.6580605712226969,0.003523413224224096,0.09309571131571708,-0.2795037373773083,-0.6092799681069558,-0.057519995728605666,-0.6666244061285826,-2.5947817421963357,-0.05573705844084432,2.5078970407379995,0.876329057527913,-0.6090851748156966,-0.05753196718556838,-0.666603097082616,-2.5945565370258534,-0.05562143941554,2.507976027223799,0.8763108487046415,0.0004928068986352379,-0.000749680740760219,-0.0005466942688474296,0.0011259157009527983,-0.0003343982965518724,4.727902882166066e-05,0.00034829902464534056,0.0,0.0,0.0,0.0,0.0,0.0,0.0,0.00019479329125926537,-1.1971456962717175e-05,2.130904596664429e-05,0.00022520517048230104,0.0001156190253043185,7.898648579951484e-05,-1.8208823271526065e-05,-0.0004928068986352379,0.000749680740760219,0.0005466942688474296,-0.0011259157009527983,0.0003343982965518724,-4.727902882166066e-05,-0.00034829902464534056,0.018151462078094482,18.277124404907227,-1.0172455310821533,-18.245882034301758,-0.4388328194618225,-2.2753939628601074,0.29605430364608765,0
53,0.25999975204467773,0.005652248859405518,-18.253320693969727,1.0410492420196533,18.297456741333008,0.4214377999305725,2.2882113456726074,-0.28964561223983765,0.0,0.0,0.0,0.0,0.0,0.0,0.0,0.011194358579325216,0.3940761211273774,0.20408777439472822,0.6542377433088571,0.0036241790180568433,0.09262187901084767,-0.28039836302292614,-0.609281638542811,-0.05752166616446093,-0.666626076564454,-2.5947853614740204,-0.05573513880417016,2.5078956165843533,0.8763283410904392,-0.6090851748156966,-0.05753196718556838,-0.666603097082616,-2.5945565370258534,-0.05562143941554,2.507976027223799,0.8763108487046415,0.00033284143841534267,-0.00024057600843670193,-0.0005817382486988465,-0.0002570373766740964,0.0001987144655079404,-0.0005701415368443503,0.0007955071292136756,0.0,0.0,0.0,0.0,0.0,0.0,0.0,0.0001964637271144598,-1.0301021107453345e-05,2.2979481838047988e-05,0.00022882444816696434,0.00011369938863015766,8.041063944563831e-05,-1.7492385797734933e-05,-0.00033284143841534267,0.00024057600843670193,0.0005817382486988465,0.0002570373766740964,-0.0001987144655079404,0.0005701415368443503,-0.0007955071292136756,-0.005652248859405518,18.253320693969727,-1.0410492420196533,-18.297456741333008,-0.4214377999305725,-2.2882113456726074,0.28964561223983765,0
54,0.26500725746154785,0.005652248859405518,-18.253320693969727,1.0410492420196533,18.297456741333008,0.4214377999305725,2.2882113456726074,-0.28964561223983765,0.0,0.0,0.0,0.0,0.0,0.0,0.0,0.011194358579325216,0.3940761211273774,0.20408777439472822,0.6542377433088571,0.0036241790180568433,0.09262187901084767,-0.28039836302292614,-0.609281638542811,-0.05752166616446093,-0.666626076564454,-2.5947853614740204,-0.05573513880417016,2.5078956165843533,0.8763283410904392,-0.6090851748156966,-0.05753196718556838,-0.666603097082616,-2.5945565370258534,-0.05562143941554,2.507976027223799,0.8763108487046415,0.00033284143841534267,-0.00024057600843670193,-0.0005817382486988465,-0.0002570373766740964,0.0001987144655079404,-0.0005701415368443503,0.0007955071292136756,0.0,0.0,0.0,0.0,0.0,0.0,0.0,0.0001964637271144598,-1.0301021107453345e-05,2.2979481838047988e-05,0.00022882444816696434,0.00011369938863015766,8.041063944563831e-05,-1.7492385797734933e-05,-0.00033284143841534267,0.00024057600843670193,0.0005817382486988465,0.0002570373766740964,-0.0001987144655079404,0.0005701415368443503,-0.0007955071292136756,-0.005652248859405518,18.253320693969727,-1.0410492420196533,-18.297456741333008,-0.4214377999305725,-2.2882113456726074,0.28964561223983765,0
55,0.26999855041503906,0.05722695589065552,-18.229516983032227,1.0172455310821533,18.269685745239258,0.4388328194618225,2.2689852714538574,-0.30337852239608765,0.0,0.0,0.0,0.0,0.0,0.0,0.0,0.007027755249247022,0.39329813490519616,0.19730024278414296,0.6543617699970415,0.003953225665138705,0.09285293179706497,-0.2805127424006466,-0.6092852578204975,-0.05752333952331489,-0.6666244061285989,-2.5947834126321894,-0.055737058440868945,2.5078977528148223,0.8763298713299881,-0.6090851748156966,-0.05753196718556838,-0.666603097082616,-2.5945565370258534,-0.05562143941554,2.507976027223799,0.8763108487046415,-0.0013476670663491704,-0.00017669265890985942,-0.0002936473038539744,2.3583777931980973e-05,-0.0003385418677769362,0.00034829639743048875,0.0004723989724098707,0.0,0.0,0.0,0.0,0.0,0.0,0.0,0.00020008300480089947,-8.627662253492263e-06,2.1309045982853547e-05,0.00022687560633594117,0.00011561902532894464,7.827440897667515e-05,-1.9022625346587496e-05,0.0013476670663491704,0.00017669265890985942,0.0002936473038539744,-2.3583777931980973e-05,0.0003385418677769362,-0.00034829639743048875,-0.0004723989724098707,-0.05722695589065552,18.229516983032227,-1.0172455310821533,-18.269685745239258,-0.4388328194618225,-2.2689852714538574,0.30337852239608765,0
56,0.2750065326690674,0.05722695589065552,-18.229516983032227,1.0172455310821533,18.269685745239258,0.4388328194618225,2.2689852714538574,-0.30337852239608765,0.0,0.0,0.0,0.0,0.0,0.0,0.0,0.007027755249247022,0.39329813490519616,0.19730024278414296,0.6543617699970415,0.003953225665138705,0.09285293179706497,-0.2805127424006466,-0.6092852578204975,-0.05752333952331489,-0.6666244061285989,-2.5947834126321894,-0.055737058440868945,2.5078977528148223,0.8763298713299881,-0.6090851748156966,-0.05753196718556838,-0.666603097082616,-2.5945565370258534,-0.05562143941554,2.507976027223799,0.8763108487046415,-0.0013476670663491704,-0.00017669265890985942,-0.0002936473038539744,2.3583777931980973e-05,-0.0003385418677769362,0.00034829639743048875,0.0004723989724098707,0.0,0.0,0.0,0.0,0.0,0.0,0.0,0.00020008300480089947,-8.627662253492263e-06,2.1309045982853547e-05,0.00022687560633594117,0.00011561902532894464,7.827440897667515e-05,-1.9022625346587496e-05,0.0013476670663491704,0.00017669265890985942,0.0002936473038539744,-2.3583777931980973e-05,0.0003385418677769362,-0.00034829639743048875,-0.0004723989724098707,-0.05722695589065552,18.229516983032227,-1.0172455310821533,-18.269685745239258,-0.4388328194618225,-2.2689852714538574,0.30337852239608765,0
57,0.2800133228302002,0.08103066682815552,-18.229516983032227,0.9934418201446533,18.321260452270508,0.4388328194618225,2.2689852714538574,-0.31711143255233765,0.0,0.0,0.0,0.0,0.0,0.0,0.0,0.012381133269164726,0.3962501941256195,0.20242266216483668,0.6558970537262865,0.004216066097567764,0.09309777820519226,-0.28139956895754537,-0.6092869282563528,-0.057523336600332695,-0.6666227356927436,-2.594787031909876,-0.05573812304602729,2.5078977528148223,0.8763313972089024,-0.6090851748156966,-0.05753196718556838,-0.666603097082616,-2.5945565370258534,-0.05562143941554,2.507976027223799,0.8763108487046415,-0.0012275493693556351,1.0596105547042759e-06,0.0007817940079016845,-0.001181598410134695,-0.00040136577764800593,0.00019413811332837354,0.0009387644614220502,0.0,0.0,0.0,0.0,0.0,0.0,0.0,0.00020175344065620493,-8.630585235688826e-06,1.9638610127548084e-05,0.00023049488402238083,0.00011668363048728675,7.827440897667515e-05,-2.054850426091992e-05,0.0012275493693556351,-1.0596105547042759e-06,-0.0007817940079016845,0.001181598410134695,0.00040136577764800593,-0.00019413811332837354,-0.0009387644614220502,-0.08103066682815552,18.229516983032227,-0.9934418201446533,-18.321260452270508,-0.4388328194618225,-2.2689852714538574,0.31711143255233765,0
58,0.285015344619751,0.08103066682815552,-18.229516983032227,0.9934418201446533,18.321260452270508,0.4388328194618225,2.2689852714538574,-0.31711143255233765,0.0,0.0,0.0,0.0,0.0,0.0,0.0,0.012381133269164726,0.3962501941256195,0.20242266216483668,0.6558970537262865,0.004216066097567764,0.09309777820519226,-0.28139956895754537,-0.6092869282563528,-0.057523336600332695,-0.6666227356927436,-2.594787031909876,-0.05573812304602729,2.5078977528148223,0.8763313972089024,-0.6090851748156966,-0.05753196718556838,-0.666603097082616,-2.5945565370258534,-0.05562143941554,2.507976027223799,0.8763108487046415,-0.0012275493693556351,1.0596105547042759e-06,0.0007817940079016845,-0.001181598410134695,-0.00040136577764800593,0.00019413811332837354,0.0009387644614220502,0.0,0.0,0.0,0.0,0.0,0.0,0.0,0.00020175344065620493,-8.630585235688826e-06,1.9638610127548084e-05,0.00023049488402238083,0.00011668363048728675,7.827440897667515e-05,-2.054850426091992e-05,0.0012275493693556351,-1.0596105547042759e-06,-0.0007817940079016845,0.001181598410134695,0.00040136577764800593,-0.00019413811332837354,-0.0009387644614220502,-0.08103066682815552,18.229516983032227,-0.9934418201446533,-18.321260452270508,-0.4388328194618225,-2.2689852714538574,0.31711143255233765,0
59,0.29000043869018555,0.08103066682815552,-18.229516983032227,0.9934418201446533,18.321260452270508,0.4388328194618225,2.2689852714538574,-0.31711143255233765,0.0,0.0,0.0,0.0,0.0,0.0,0.0,0.012381133269164726,0.3962501941256195,0.20242266216483668,0.6558970537262865,0.004216066097567764,0.09309777820519226,-0.28139956895754537,-0.6092869282563528,-0.057523336600332695,-0.6666227356927436,-2.594787031909876,-0.05573812304602729,2.5078977528148223,0.8763313972089024,-0.6090851748156966,-0.05753196718556838,-0.666603097082616,-2.5945565370258534,-0.05562143941554,2.507976027223799,0.8763108487046415,-0.0012275493693556351,1.0596105547042759e-06,0.0007817940079016845,-0.001181598410134695,-0.00040136577764800593,0.00019413811332837354,0.0009387644614220502,0.0,0.0,0.0,0.0,0.0,0.0,0.0,0.00020175344065620493,-8.630585235688826e-06,1.9638610127548084e-05,0.00023049488402238083,0.00011668363048728675,7.827440897667515e-05,-2.054850426091992e-05,0.0012275493693556351,-1.0596105547042759e-06,-0.0007817940079016845,0.001181598410134695,0.00040136577764800593,-0.00019413811332837354,-0.0009387644614220502,-0.08103066682815552,18.229516983032227,-0.9934418201446533,-18.321260452270508,-0.4388328194618225,-2.2689852714538574,0.31711143255233765,0
60,0.2950000762939453,0.08103066682815552,-18.229516983032227,0.9934418201446533,18.321260452270508,0.4388328194618225,2.2689852714538574,-0.31711143255233765,0.0,0.0,0.0,0.0,0.0,0.0,0.0,0.012381133269164726,0.3962501941256195,0.20242266216483668,0.6558970537262865,0.004216066097567764,0.09309777820519226,-0.28139956895754537,-0.6092869282563528,-0.057523336600332695,-0.6666227356927436,-2.594787031909876,-0.05573812304602729,2.5078977528148223,0.8763313972089024,-0.6090851748156966,-0.05753196718556838,-0.666603097082616,-2.5945565370258534,-0.05562143941554,2.507976027223799,0.8763108487046415,-0.0012275493693556351,1.0596105547042759e-06,0.0007817940079016845,-0.001181598410134695,-0.00040136577764800593,0.00019413811332837354,0.0009387644614220502,0.0,0.0,0.0,0.0,0.0,0.0,0.0,0.00020175344065620493,-8.630585235688826e-06,1.9638610127548084e-05,0.00023049488402238083,0.00011668363048728675,7.827440897667515e-05,-2.054850426091992e-05,0.0012275493693556351,-1.0596105547042759e-06,-0.0007817940079016845,0.001181598410134695,0.00040136577764800593,-0.00019413811332837354,-0.0009387644614220502,-0.08103066682815552,18.229516983032227,-0.9934418201446533,-18.321260452270508,-0.4388328194618225,-2.2689852714538574,0.31711143255233765,0
61,0.3000001907348633,0.03342324495315552,-18.304895401000977,1.0410492420196533,18.269685745239258,0.4214377999305725,2.2818026542663574,-0.25485557317733765,0.0,0.0,0.0,0.0,0.0,0.0,0.0,0.01358353484027236,0.3975355624806661,0.19909765299456286,0.6614957582296473,0.004929101242580821,0.0938120862658151,-0.2824978421202553,-0.6092835873846422,-0.05751804699503374,-0.666626076564454,-2.5947834126321894,-0.05573512566690602,2.5078963286611766,0.8763244798911941,-0.6090851748156966,-0.05753196718556838,-0.666603097082616,-2.5945565370258534,-0.05562143941554,2.507976027223799,0.8763108487046415,-3.176860766849481e-05,0.0012099648382231998,-0.0003188026286177669,0.0008027232720129789,0.0002814138967177711,-0.00016565820497740666,-0.0007261136148836713,0.0,0.0,0.0,0.0,0.0,0.0,0.0,0.000198412568945594,-1.3920190534644217e-05,2.2979481838047988e-05,0.00022687560633594117,0.00011368625136602001,7.969856262235453e-05,-1.3631186552620633e-05,3.176860766849481e-05,-0.0012099648382231998,0.0003188026286177669,-0.0008027232720129789,-0.0002814138967177711,0.00016565820497740666,0.0007261136148836713,-0.03342324495315552,18.304895401000977,-1.0410492420196533,-18.269685745239258,-0.4214377999305725,-2.2818026542663574,0.25485557317733765,0
62,0.3050229549407959,0.03342324495315552,-18.304895401000977,1.0410492420196533,18.269685745239258,0.4214377999305725,2.2818026542663574,-0.25485557317733765,0.0,0.0,0.0,0.0,0.0,0.0,0.0,0.01358353484027236,0.3975355624806661,0.19909765299456286,0.6614957582296473,0.004929101242580821,0.0938120862658151,-0.2824978421202553,-0.6092835873846422,-0.05751804699503374,-0.666626076564454,-2.5947834126321894,-0.05573512566690602,2.5078963286611766,0.8763244798911941,-0.6090851748156966,-0.05753196718556838,-0.666603097082616,-2.5945565370258534,-0.05562143941554,2.507976027223799,0.8763108487046415,-3.176860766849481e-05,0.0012099648382231998,-0.0003188026286177669,0.0008027232720129789,0.0002814138967177711,-0.00016565820497740666,-0.0007261136148836713,0.0,0.0,0.0,0.0,0.0,0.0,0.0,0.000198412568945594,-1.3920190534644217e-05,2.2979481838047988e-05,0.00022687560633594117,0.00011368625136602001,7.969856262235453e-05,-1.3631186552620633e-05,3.176860766849481e-05,-0.0012099648382231998,0.0003188026286177669,-0.0008027232720129789,-0.0002814138967177711,0.00016565820497740666,0.0007261136148836713,-0.03342324495315552,18.304895401000977,-1.0410492420196533,-18.269685745239258,-0.4214377999305725,-2.2818026542663574,0.25485557317733765,0
63,0.31000375747680664,0.05722695589065552,-18.277124404907227,1.0410492420196533,18.297456741333008,0.4269309639930725,2.2818026542663574,-0.29605430364608765,0.0,0.0,0.0,0.0,0.0,0.0,0.0,0.020404119971292024,0.39919753919855727,0.2027738701820751,0.6599917019778068,0.0048581687381243875,0.09376067119524335,-0.28122838691481233,-0.6092859730762348,-0.0575199957286075,-0.666626076564454,-2.5947853614740204,-0.055735736012458896,2.5078963286611766,0.8763290575279129,-0.6090851748156966,-0.05753196718556838,-0.666603097082616,-2.5945565370258534,-0.05562143941554,2.507976027223799,0.8763108487046415,-0.00046069943057398203,-3.155942015673215e-05,-0.0002621944216922763,-0.00026138316833314496,-2.5346806703444812e-05,-5.7198937986019175e-05,0.00016198574479213017,0.0,0.0,0.0,0.0,0.0,0.0,0.0,0.00020079826053820415,-1.1971456960885307e-05,2.2979481838047988e-05,0.00022882444816696434,0.0001142965969188961,7.969856262235453e-05,-1.8208823271415042e-05,0.00046069943057398203,3.155942015673215e-05,0.0002621944216922763,0.00026138316833314496,2.5346806703444812e-05,5.7198937986019175e-05,-0.00016198574479213017,-0.05722695589065552,18.277124404907227,-1.0410492420196533,-18.297456741333008,-0.4269309639930725,-2.2818026542663574,0.29605430364608765,0
64,0.3152930736541748,0.05722695589065552,-18.277124404907227,1.0410492420196533,18.297456741333008,0.4269309639930725,2.2818026542663574,-0.29605430364608765,0.0,0.0,0.0,0.0,0.0,0.0,0.0,0.020404119971292024,0.39919753919855727,0.2027738701820751,0.6599917019778068,0.0048581687381243875,0.09376067119524335,-0.28122838691481233,-0.6092859730762348,-0.0575199957286075,-0.666626076564454,-2.5947853614740204,-0.055735736012458896,2.5078963286611766,0.8763290575279129,-0.6090851748156966,-0.05753196718556838,-0.666603097082616,-2.5945565370258534,-0.05562143941554,2.507976027223799,0.8763108487046415,-0.00046069943057398203,-3.155942015673215e-05,-0.0002621944216922763,-0.00026138316833314496,-2.5346806703444812e-05,-5.7198937986019175e-05,0.00016198574479213017,0.0,0.0,0.0,0.0,0.0,0.0,0.0,0.00020079826053820415,-1.1971456960885307e-05,2.2979481838047988e-05,0.00022882444816696434,0.0001142965969188961,7.969856262235453e-05,-1.8208823271415042e-05,0.00046069943057398203,3.155942015673215e-05,0.0002621944216922763,0.00026138316833314496,2.5346806703444812e-05,5.7198937986019175e-05,-0.00016198574479213017,-0.05722695589065552,18.277124404907227,-1.0410492420196533,-18.297456741333008,-0.4269309639930725,-2.2818026542663574,0.29605430364608765,0
65,0.3199958801269531,0.05722695589065552,-18.304895401000977,1.0410492420196533,18.321260452270508,0.4388328194618225,2.2818026542663574,-0.25485557317733765,0.0,0.0,0.0,0.0,0.0,0.0,0.0,0.018405484576549617,0.3968836992690148,0.20131438446484368,0.6597983541832375,0.005076615557069564,0.093875795007086,-0.28211639721605225,-0.6092852578218433,-0.057518046886774525,-0.666626076564454,-2.594787031909876,-0.055737058440844214,2.5078963286611766,0.8763244798911941,-0.6090851748156966,-0.05753196718556838,-0.666603097082616,-2.5945565370258534,-0.05562143941554,2.507976027223799,0.8763108487046415,-0.0010204625163650748,0.0006554811235465258,-0.0004205038641377493,-0.0008608349355302234,-0.0003969470524885347,-0.0003565817657101579,-0.0008206995854498058,0.0,0.0,0.0,0.0,0.0,0.0,0.0,0.00020008300614671182,-1.392029879385831e-05,2.2979481838047988e-05,0.00023049488402238083,0.00011561902530421442,7.969856262235453e-05,-1.3631186552620633e-05,0.0010204625163650748,-0.0006554811235465258,0.0004205038641377493,0.0008608349355302234,0.0003969470524885347,0.0003565817657101579,0.0008206995854498058,-0.05722695589065552,18.304895401000977,-1.0410492420196533,-18.321260452270508,-0.4388328194618225,-2.2818026542663574,0.25485557317733765,0
66,0.3250010013580322,0.05722695589065552,-18.304895401000977,1.0410492420196533,18.321260452270508,0.4388328194618225,2.2818026542663574,-0.25485557317733765,0.0,0.0,0.0,0.0,0.0,0.0,0.0,0.018405484576549617,0.3968836992690148,0.20131438446484368,0.6597983541832375,0.005076615557069564,0.093875795007086,-0.28211639721605225,-0.6092852578218433,-0.057518046886774525,-0.666626076564454,-2.594787031909876,-0.055737058440844214,2.5078963286611766,0.8763244798911941,-0.6090851748156966,-0.05753196718556838,-0.666603097082616,-2.5945565370258534,-0.05562143941554,2.507976027223799,0.8763108487046415,-0.0010204625163650748,0.0006554811235465258,-0.0004205038641377493,-0.0008608349355302234,-0.0003969470524885347,-0.0003565817657101579,-0.0008206995854498058,0.0,0.0,0.0,0.0,0.0,0.0,0.0,0.00020008300614671182,-1.392029879385831e-05,2.2979481838047988e-05,0.00023049488402238083,0.00011561902530421442,7.969856262235453e-05,-1.3631186552620633e-05,0.0010204625163650748,-0.0006554811235465258,0.0004205038641377493,0.0008608349355302234,0.0003969470524885347,0.0003565817657101579,0.0008206995854498058,-0.05722695589065552,18.304895401000977,-1.0410492420196533,-18.321260452270508,-0.4388328194618225,-2.2818026542663574,0.25485557317733765,0
67,0.3299989700317383,0.005652248859405518,-18.253320693969727,1.0172455310821533,18.269685745239258,0.4269309639930725,2.2753939628601074,-0.24844686686992645,0.0,0.0,0.0,0.0,0.0,0.0,0.0,0.02102945394245153,0.39318110938005263,0.20633615825061882,0.6616912653334428,0.005293689606784729,0.09345261794130513,-0.2807277558628905,-0.609281638542811,-0.05752166616446093,-0.6666244061285989,-2.594783411760059,-0.05573609088085315,2.5078970407379995,0.8763237678127155,-0.6090851748156966,-0.05753196718556838,-0.666603097082616,-2.5945565370258534,-0.05562143941554,2.507976027223799,0.8763108487046415,6.03192364218507e-05,-0.0006278803323212091,0.0002110543248954599,0.0005110802594656415,0.00014860749352073476,3.857951985957588e-05,-0.001153892173648721,0.0,0.0,0.0,0.0,0.0,0.0,0.0,0.0001964637271144598,-1.0301021107453345e-05,2.1309045982853547e-05,0.00022687473420557325,0.00011465146531314946,7.898648579951484e-05,-1.2919108073994323e-05,-6.03192364218507e-05,0.0006278803323212091,-0.0002110543248954599,-0.0005110802594656415,-0.00014860749352073476,-3.857951985957588e-05,0.001153892173648721,-0.005652248859405518,18.253320693969727,-1.0172455310821533,-18.269685745239258,-0.4269309639930725,-2.2753939628601074,0.24844686686992645,0
68,0.33500123023986816,0.005652248859405518,-18.253320693969727,1.0172455310821533,18.269685745239258,0.4269309639930725,2.2753939628601074,-0.24844686686992645,0.0,0.0,0.0,0.0,0.0,0.0,0.0,0.02102945394245153,0.39318110938005263,0.20633615825061882,0.6616912653334428,0.005293689606784729,0.09345261794130513,-0.2807277558628905,-0.609281638542811,-0.05752166616446093,-0.6666244061285989,-2.594783411760059,-0.05573609088085315,2.5078970407379995,0.8763237678127155,-0.6090851748156966,-0.05753196718556838,-0.666603097082616,-2.5945565370258534,-0.05562143941554,2.507976027223799,0.8763108487046415,6.03192364218507e-05,-0.0006278803323212091,0.0002110543248954599,0.0005110802594656415,0.00014860749352073476,3.857951985957588e-05,-0.001153892173648721,0.0,0.0,0.0,0.0,0.0,0.0,0.0,0.0001964637271144598,-1.0301021107453345e-05,2.1309045982853547e-05,0.00022687473420557325,0.00011465146531314946,7.898648579951484e-05,-1.2919108073994323e-05,-6.03192364218507e-05,0.0006278803323212091,-0.0002110543248954599,-0.0005110802594656415,-0.00014860749352073476,-3.857951985957588e-05,0.001153892173648721,-0.005652248859405518,18.253320693969727,-1.0172455310821533,-18.269685745239258,-0.4269309639930725,-2.2753939628601074,0.24844686686992645,0
69,0.3399989604949951,-0.04592245817184448,-18.205713272094727,1.0410492420196533,18.297456741333008,0.4269309639930725,2.2689852714538574,-0.30978721380233765,0.0,0.0,0.0,0.0,0.0,0.0,0.0,0.01200956090156541,0.39540719044597206,0.20000623292664094,0.6609854931519964,0.005590265668501297,0.0929392297324863,-0.28040441380192166,-0.6092780192651247,-0.05752500703617146,-0.666626076564454,-2.5947853614740186,-0.05573573601312654,2.5078977528148223,0.8763305834068191,-0.6090851748156966,-0.05753196718556838,-0.666603097082616,-2.5945565370258534,-0.05562143941554,2.507976027223799,0.8763108487046415,0.0003911639748640754,-0.0012060133904729614,-0.0013732145132601325,-0.00017912518963273497,2.4637229822082966e-05,0.0003460004526628643,0.0013295190274381292,0.0,0.0,0.0,0.0,0.0,0.0,0.0,0.00019284444942813117,-6.9601493969256856e-06,2.2979481838047988e-05,0.000228824448165188,0.00011429659758654259,7.827440897667515e-05,-1.9734702177642838e-05,-0.0003911639748640754,0.0012060133904729614,0.0013732145132601325,0.00017912518963273497,-2.4637229822082966e-05,-0.0003460004526628643,-0.0013295190274381292,0.04592245817184448,18.205713272094727,-1.0410492420196533,-18.297456741333008,-0.4269309639930725,-2.2689852714538574,0.30978721380233765,0
70,0.34500670433044434,-0.04592245817184448,-18.205713272094727,1.0410492420196533,18.297456741333008,0.4269309639930725,2.2689852714538574,-0.30978721380233765,0.0,0.0,0.0,0.0,0.0,0.0,0.0,0.01200956090156541,0.39540719044597206,0.20000623292664094,0.6609854931519964,0.005590265668501297,0.0929392297324863,-0.28040441380192166,-0.6092780192651247,-0.05752500703617146,-0.666626076564454,-2.5947853614740186,-0.05573573601312654,2.5078977528148223,0.8763305834068191,-0.6090851748156966,-0.05753196718556838,-0.666603097082616,-2.5945565370258534,-0.05562143941554,2.507976027223799,0.8763108487046415,0.0003911639748640754,-0.0012060133904729614,-0.0013732145132601325,-0.00017912518963273497,2.4637229822082966e-05,0.0003460004526628643,0.0013295190274381292,0.0,0.0,0.0,0.0,0.0,0.0,0.0,0.00019284444942813117,-6.9601493969256856e-06,2.2979481838047988e-05,0.000228824448165188,0.00011429659758654259,7.827440897667515e-05,-1.9734702177642838e-05,-0.0003911639748640754,0.0012060133904729614,0.0013732145132601325,0.00017912518963273497,-2.4637229822082966e-05,-0.0003460004526628643,-0.0013295190274381292,0.04592245817184448,18.205713272094727,-1.0410492420196533,-18.297456741333008,-0.4269309639930725,-2.2689852714538574,0.30978721380233765,0
71,0.3500058650970459,-0.018151462078094482,-18.277124404907227,0.9934418201446533,18.269685745239258,0.4333396553993225,2.2753939628601074,-0.24844686686992645,0.0,0.0,0.0,0.0,0.0,0.0,0.0,0.015174751410569086,0.3974083106938893,0.20566594425275925,0.6613090630619161,0.004634159949718099,0.0932988418642689,-0.2802907295101732,-0.6092799681069558,-0.057519995728605666,-0.6666227356927436,-2.594783412632189,-0.05573644808928172,2.5078970407379995,0.8763237678127155,-0.6090851748156966,-0.05753196718556838,-0.666603097082616,-2.5945565370258534,-0.05562143941554,2.507976027223799,0.8763108487046415,0.00031144624395829345,0.0005955592888287764,0.00012843763842652613,0.0003663571760318493,-0.00041384361716709326,7.098657830318363e-05,-0.0007461246049925343,0.0,0.0,0.0,0.0,0.0,0.0,0.0,0.00019479329125926537,-1.1971456962717175e-05,1.9638610127548084e-05,0.00022687560633549708,0.00011500867374172191,7.898648579951484e-05,-1.2919108073994323e-05,-0.00031144624395829345,-0.0005955592888287764,-0.00012843763842652613,-0.0003663571760318493,0.00041384361716709326,-7.098657830318363e-05,0.0007461246049925343,0.018151462078094482,18.277124404907227,-0.9934418201446533,-18.269685745239258,-0.4333396553993225,-2.2753939628601074,0.24844686686992645,0
72,0.3550069332122803,-0.018151462078094482,-18.277124404907227,0.9934418201446533,18.269685745239258,0.4333396553993225,2.2753939628601074,-0.24844686686992645,0.0,0.0,0.0,0.0,0.0,0.0,0.0,0.015174751410569086,0.3974083106938893,0.20566594425275925,0.6613090630619161,0.004634159949718099,0.0932988418642689,-0.2802907295101732,-0.6092799681069558,-0.057519995728605666,-0.6666227356927436,-2.594783412632189,-0.05573644808928172,2.5078970407379995,0.8763237678127155,-0.6090851748156966,-0.05753196718556838,-0.666603097082616,-2.5945565370258534,-0.05562143941554,2.507976027223799,0.8763108487046415,0.00031144624395829345,0.0005955592888287764,0.00012843763842652613,0.0003663571760318493,-0.00041384361716709326,7.098657830318363e-05,-0.0007461246049925343,0.0,0.0,0.0,0.0,0.0,0.0,0.0,0.00019479329125926537,-1.1971456962717175e-05,1.9638610127548084e-05,0.00022687560633549708,0.00011500867374172191,7.898648579951484e-05,-1.2919108073994323e-05,-0.00031144624395829345,-0.0005955592888287764,-0.00012843763842652613,-0.0003663571760318493,0.00041384361716709326,-7.098657830318363e-05,0.0007461246049925343,0.018151462078094482,18.277124404907227,-0.9934418201446533,-18.269685745239258,-0.4333396553993225,-2.2753939628601074,0.24844686686992645,0
73,0.3599965572357178,0.05722695589065552,-18.229516983032227,0.9696381092071533,18.269685745239258,0.4269309639930725,2.2689852714538574,-0.23471395671367645,0.0,0.0,0.0,0.0,0.0,0.0,0.0,0.010018294802730162,0.3997395483764064,0.20087210228633276,0.6616685821877716,0.0038444308119513493,0.09302157480325592,-0.2785297676816443,-0.6092853372933571,-0.057523336600316194,-0.6666210652568882,-2.594783412632189,-0.05573573601245879,2.5078977528148223,0.8763222419338093,-0.6090851748156966,-0.05753196718556838,-0.666603097082616,-2.5945565370258534,-0.05562143941554,2.507976027223799,0.8763108487046415,-0.0012261348791380233,-0.0003899467630566495,0.0009346676285676862,0.000494936081722276,0.0002239120014514394,0.0003177371920557947,-0.0018197304031199347,0.0,0.0,0.0,0.0,0.0,0.0,0.0,0.00020016247766052597,-8.630585252189515e-06,1.796817427224262e-05,0.00022687560633549708,0.00011429659691879201,7.827440897667515e-05,-1.1393229167766528e-05,0.0012261348791380233,0.0003899467630566495,-0.0009346676285676862,-0.000494936081722276,-0.0002239120014514394,-0.0003177371920557947,0.0018197304031199347,-0.05722695589065552,18.229516983032227,-0.9696381092071533,-18.269685745239258,-0.4269309639930725,-2.2689852714538574,0.23471395671367645,0
74,0.3650083541870117,0.05722695589065552,-18.229516983032227,0.9696381092071533,18.269685745239258,0.4269309639930725,2.2689852714538574,-0.23471395671367645,0.0,0.0,0.0,0.0,0.0,0.0,0.0,0.010018294802730162,0.3997395483764064,0.20087210228633276,0.6616685821877716,0.0038444308119513493,0.09302157480325592,-0.2785297676816443,-0.6092853372933571,-0.057523336600316194,-0.6666210652568882,-2.594783412632189,-0.05573573601245879,2.5078977528148223,0.8763222419338093,-0.6090851748156966,-0.05753196718556838,-0.666603097082616,-2.5945565370258534,-0.05562143941554,2.507976027223799,0.8763108487046415,-0.0012261348791380233,-0.0003899467630566495,0.0009346676285676862,0.000494936081722276,0.0002239120014514394,0.0003177371920557947,-0.0018197304031199347,0.0,0.0,0.0,0.0,0.0,0.0,0.0,0.00020016247766052597,-8.630585252189515e-06,1.796817427224262e-05,0.00022687560633549708,0.00011429659691879201,7.827440897667515e-05,-1.1393229167766528e-05,0.0012261348791380233,0.0003899467630566495,-0.0009346676285676862,-0.000494936081722276,-0.0002239120014514394,-0.0003177371920557947,0.0018197304031199347,-0.05722695589065552,18.229516983032227,-0.9696381092071533,-18.269685745239258,-0.4269309639930725,-2.2689852714538574,0.23471395671367645,0
75,0.3700127601623535,0.05722695589065552,-18.229516983032227,0.9696381092071533,18.269685745239258,0.4269309639930725,2.2689852714538574,-0.23471395671367645,0.0,0.0,0.0,0.0,0.0,0.0,0.0,0.010018294802730162,0.3997395483764064,0.20087210228633276,0.6616685821877716,0.0038444308119513493,0.09302157480325592,-0.2785297676816443,-0.6092853372933571,-0.057523336600316194,-0.6666210652568882,-2.594783412632189,-0.05573573601245879,2.5078977528148223,0.8763222419338093,-0.6090851748156966,-0.05753196718556838,-0.666603097082616,-2.5945565370258534,-0.05562143941554,2.507976027223799,0.8763108487046415,-0.0012261348791380233,-0.0003899467630566495,0.0009346676285676862,0.000494936081722276,0.0002239120014514394,0.0003177371920557947,-0.0018197304031199347,0.0,0.0,0.0,0.0,0.0,0.0,0.0,0.00020016247766052597,-8.630585252189515e-06,1.796817427224262e-05,0.00022687560633549708,0.00011429659691879201,7.827440897667515e-05,-1.1393229167766528e-05,0.0012261348791380233,0.0003899467630566495,-0.0009346676285676862,-0.000494936081722276,-0.0002239120014514394,-0.0003177371920557947,0.0018197304031199347,-0.05722695589065552,18.229516983032227,-0.9696381092071533,-18.269685745239258,-0.4269309639930725,-2.2689852714538574,0.23471395671367645,0
76,0.3750014305114746,0.05722695589065552,-18.229516983032227,0.9696381092071533,18.269685745239258,0.4269309639930725,2.2689852714538574,-0.23471395671367645,0.0,0.0,0.0,0.0,0.0,0.0,0.0,0.010018294802730162,0.3997395483764064,0.20087210228633276,0.6616685821877716,0.0038444308119513493,0.09302157480325592,-0.2785297676816443,-0.6092853372933571,-0.057523336600316194,-0.6666210652568882,-2.594783412632189,-0.05573573601245879,2.5078977528148223,0.8763222419338093,-0.6090851748156966,-0.05753196718556838,-0.666603097082616,-2.5945565370258534,-0.05562143941554,2.507976027223799,0.8763108487046415,-0.0012261348791380233,-0.0003899467630566495,0.0009346676285676862,0.000494936081722276,0.0002239120014514394,0.0003177371920557947,-0.0018197304031199347,0.0,0.0,0.0,0.0,0.0,0.0,0.0,0.00020016247766052597,-8.630585252189515e-06,1.796817427224262e-05,0.00022687560633549708,0.00011429659691879201,7.827440897667515e-05,-1.1393229167766528e-05,0.0012261348791380233,0.0003899467630566495,-0.0009346676285676862,-0.000494936081722276,-0.0002239120014514394,-0.0003177371920557947,0.0018197304031199347,-0.05722695589065552,18.229516983032227,-0.9696381092071533,-18.269685745239258,-0.4269309639930725,-2.2689852714538574,0.23471395671367645,0
77,0.3800017833709717,0.05722695589065552,-18.253320693969727,0.9696381092071533,18.269685745239258,0.4333396553993225,2.2818026542663574,-0.31711143255233765,0.0,0.0,0.0,0.0,0.0,0.0,0.0,0.01818843053052338,0.40065074779382676,0.20471965687612434,0.659524965194978,0.0032713086767728427,0.09301865166277806,-0.27759288316899755,-0.6092874035881579,-0.05752166908745963,-0.6666210652568882,-2.594783412632189,-0.05573644808928171,2.5078963286611766,0.8763314015695532,-0.6090851748156966,-0.05753196718556838,-0.666603097082616,-2.5945565370258534,-0.05562143941554,2.507976027223799,0.8763108487046415,-0.00022581464302528958,-0.0002478593997500174,0.001254766365389323,0.0002387995695542929,0.0021050939852764105,0.00011740258271442093,0.0014324987040357001,0.0,0.0,0.0,0.0,0.0,0.0,0.0,0.00020222877246134363,-1.0298098108756093e-05,1.796817427224262e-05,0.00022687560633549708,0.00011500867374170803,7.969856262235453e-05,-2.0552864911760338e-05,0.00022581464302528958,0.0002478593997500174,-0.001254766365389323,-0.0002387995695542929,-0.0021050939852764105,-0.00011740258271442093,-0.0014324987040357001,-0.05722695589065552,18.253320693969727,-0.9696381092071533,-18.269685745239258,-0.4333396553993225,-2.2818026542663574,0.31711143255233765,0
78,0.3849945068359375,0.05722695589065552,-18.253320693969727,0.9696381092071533,18.269685745239258,0.4333396553993225,2.2818026542663574,-0.31711143255233765,0.0,0.0,0.0,0.0,0.0,0.0,0.0,0.01818843053052338,0.40065074779382676,0.20471965687612434,0.659524965194978,0.0032713086767728427,0.09301865166277806,-0.27759288316899755,-0.6092874035881579,-0.05752166908745963,-0.6666210652568882,-2.594783412632189,-0.05573644808928171,2.5078963286611766,0.8763314015695532,-0.6090851748156966,-0.05753196718556838,-0.666603097082616,-2.5945565370258534,-0.05562143941554,2.507976027223799,0.8763108487046415,-0.00022581464302528958,-0.0002478593997500174,0.001254766365389323,0.0002387995695542929,0.0021050939852764105,0.00011740258271442093,0.0014324987040357001,0.0,0.0,0.0,0.0,0.0,0.0,0.0,0.00020222877246134363,-1.0298098108756093e-05,1.796817427224262e-05,0.00022687560633549708,0.00011500867374170803,7.969856262235453e-05,-2.0552864911760338e-05,0.00022581464302528958,0.0002478593997500174,-0.001254766365389323,-0.0002387995695542929,-0.0021050939852764105,-0.00011740258271442093,-0.0014324987040357001,-0.05722695589065552,18.253320693969727,-0.9696381092071533,-18.269685745239258,-0.4333396553993225,-2.2818026542663574,0.31711143255233765,0
79,0.3899974822998047,0.05722695589065552,-18.253320693969727,1.0688202381134033,18.297456741333008,0.4214377999305725,2.2753939628601074,-0.26217979192733765,0.0,0.0,0.0,0.0,0.0,0.0,0.0,0.017017373431978965,0.3986086611182272,0.19796777989713066,0.661711582453984,0.0044114905184677936,0.09378493618988251,-0.27673900059018663,-0.609285257824535,-0.05752166616446643,-0.6666280254062852,-2.59478536147402,-0.05573512566089629,2.5078970407379995,0.8763252936932857,-0.6090851748156966,-0.05753196718556838,-0.666603097082616,-2.5945565370258534,-0.05562143941554,2.507976027223799,0.8763108487046415,-0.0004981522724731389,-0.00018769977219347167,-0.0008714285872281129,-0.0002540359132823444,0.0003143882634960906,0.00018970723362017603,-0.00016543855824209823,0.0,0.0,0.0,0.0,0.0,0.0,0.0,0.00020008300883844754,-1.0301021101950802e-05,2.4928323669182184e-05,0.00022882444816652026,0.00011368624535629257,7.898648579951484e-05,-1.4444988644224388e-05,0.0004981522724731389,0.00018769977219347167,0.0008714285872281129,0.0002540359132823444,-0.0003143882634960906,-0.00018970723362017603,0.00016543855824209823,-0.05722695589065552,18.253320693969727,-1.0688202381134033,-18.297456741333008,-0.4214377999305725,-2.2753939628601074,0.26217979192733765,0
