rezayati/contactInterpretation/dataset/franka_main/labeled_data/link7/a8_7.csv
index,time,tau_J0,tau_J1,tau_J2,tau_J3,tau_J4,tau_J5,tau_J6,tau_J_d0,tau_J_d1,tau_J_d2,tau_J_d3,tau_J_d4,tau_J_d5,tau_J_d6,tau_ext0,tau_ext1,tau_ext2,tau_ext3,tau_ext4,tau_ext5,tau_ext6,q0,q1,q2,q3,q4,q5,q6,q_d0,q_d1,q_d2,q_d3,q_d4,q_d5,q_d6,dq0,dq1,dq2,dq3,dq4,dq5,dq6,dq_d0,dq_d1,dq_d2,dq_d3,dq_d4,dq_d5,dq_d6,e0,e1,e2,e3,e4,e5,e6,de0,de1,de2,de3,de4,de5,de6,etau_J0,etau_J1,etau_J2,etau_J3,etau_J4,etau_J5,etau_J6,label
1,0.0,-0.19667929410934448,-11.750940322875977,1.1164276599884033,21.669649124145508,0.3024192452430725,2.4887118339538574,-0.30337852239608765,0.0,0.0,0.0,0.0,0.0,0.0,0.0,-0.19765800440550166,0.5807157323302663,-0.06103831167691135,0.39172212822302765,-0.2304691926633932,0.09330690893318294,-0.3215793804199403,0.17281036436976047,-0.48767477560879885,-0.11149937674067925,-1.9462537007750125,0.13348504898945487,2.595545095496707,0.9452628173931164,0.1728802376190821,-0.48752024683155326,-0.11147110072896137,-1.9463801863486305,0.1336059019074957,2.595550359778934,0.9452445589611904,-0.000391595960674479,0.00034064910860396376,-0.00012165142006813073,0.0003175286085556915,8.688102775655554e-06,7.435880833533157e-05,-0.00033205342635575416,0.0,0.0,0.0,0.0,0.0,0.0,0.0,6.987324932164474e-05,0.00015452877724558833,2.8276011717884297e-05,-0.00012648557361805146,0.00012085291804081466,5.264282227024353e-06,-1.8258431925932683e-05,0.000391595960674479,-0.00034064910860396376,0.00012165142006813073,-0.0003175286085556915,-8.688102775655554e-06,-7.435880833533157e-05,0.00033205342635575416,0.19667929410934448,11.750940322875977,-1.1164276599884033,-21.669649124145508,-0.3024192452430725,-2.4887118339538574,0.30337852239608765,0
2,0.0047626495361328125,-0.19667929410934448,-11.774744033813477,1.1164276599884033,21.717256546020508,0.3079124093055725,2.5015292167663574,-0.33084434270858765,0.0,0.0,0.0,0.0,0.0,0.0,0.0,-0.19742004513986253,0.5621007511867832,-0.061111210124515675,0.4003381960084797,-0.23086561710913323,0.09444367385785467,-0.3207386176152928,0.17281036436976047,-0.4876731051729436,-0.11149957521505727,-1.9462570416467229,0.1334844386378924,2.5955436713430613,0.9452661858473765,0.1728802376190821,-0.48752024683155326,-0.11147110072896137,-1.9463801863486305,0.1336059019074957,2.595550359778934,0.9452445589611904,-0.0004547798417188083,0.0003170578444893213,0.00023513589131085553,-0.0003284166631164844,-0.00020177696891941177,-0.0003259216767986834,0.0009054019183618555,0.0,0.0,0.0,0.0,0.0,0.0,0.0,6.987324932164474e-05,0.00015285834139033838,2.8474486095900198e-05,-0.00012314470190766258,0.00012146326960330023,6.688435872703735e-06,-2.1626886186121297e-05,0.0004547798417188083,-0.0003170578444893213,-0.00023513589131085553,0.0003284166631164844,0.00020177696891941177,0.0003259216767986834,-0.0009054019183618555,0.19667929410934448,11.774744033813477,-1.1164276599884033,-21.717256546020508,-0.3079124093055725,-2.5015292167663574,0.33084434270858765,0
3,0.009750127792358398,-0.19667929410934448,-11.774744033813477,1.1164276599884033,21.717256546020508,0.3079124093055725,2.5015292167663574,-0.33084434270858765,0.0,0.0,0.0,0.0,0.0,0.0,0.0,-0.19742004513986253,0.5621007511867832,-0.061111210124515675,0.4003381960084797,-0.23086561710913323,0.09444367385785467,-0.3207386176152928,0.17281036436976047,-0.4876731051729436,-0.11149957521505727,-1.9462570416467229,0.1334844386378924,2.5955436713430613,0.9452661858473765,0.1728802376190821,-0.48752024683155326,-0.11147110072896137,-1.9463801863486305,0.1336059019074957,2.595550359778934,0.9452445589611904,-0.0004547798417188083,0.0003170578444893213,0.00023513589131085553,-0.0003284166631164844,-0.00020177696891941177,-0.0003259216767986834,0.0009054019183618555,0.0,0.0,0.0,0.0,0.0,0.0,0.0,6.987324932164474e-05,0.00015285834139033838,2.8474486095900198e-05,-0.00012314470190766258,0.00012146326960330023,6.688435872703735e-06,-2.1626886186121297e-05,0.0004547798417188083,-0.0003170578444893213,-0.00023513589131085553,0.0003284166631164844,0.00020177696891941177,0.0003259216767986834,-0.0009054019183618555,0.19667929410934448,11.774744033813477,-1.1164276599884033,-21.717256546020508,-0.3079124093055725,-2.5015292167663574,0.33084434270858765,0
4,0.014751434326171875,-0.22445029020309448,-11.802515029907227,1.0926239490509033,21.693452835083008,0.3024192452430725,2.5015292167663574,-0.26858848333358765,0.0,0.0,0.0,0.0,0.0,0.0,0.0,-0.20499989579667163,0.553475119055504,-0.07108236450257625,0.40053081087246833,-0.23024673804577575,0.09446780431696956,-0.3199056362556729,0.17281231321159163,-0.48767115633111247,-0.11149767080008677,-1.9462553712108677,0.13348504898945487,2.5955436713430613,0.9452593138393762,0.1728802376190821,-0.48752024683155326,-0.11147110072896137,-1.9463801863486305,0.1336059019074957,2.595550359778934,0.9452445589611904,0.00028920038444910144,0.00024961233255916317,0.00010483339710515883,-0.00029583763023581435,-0.00010621595103839756,-0.000322246531851099,-0.0013710829023906117,0.0,0.0,0.0,0.0,0.0,0.0,0.0,6.792440749048279e-05,0.00015090949955920419,2.6570071125400774e-05,-0.00012481513776285702,0.00012085291804081466,6.688435872703735e-06,-1.4754878185807563e-05,-0.00028920038444910144,-0.00024961233255916317,-0.00010483339710515883,0.00029583763023581435,0.00010621595103839756,0.000322246531851099,0.0013710829023906117,0.22445029020309448,11.802515029907227,-1.0926239490509033,-21.693452835083008,-0.3024192452430725,-2.5015292167663574,0.26858848333358765,0
5,0.01974964141845703,-0.22445029020309448,-11.802515029907227,1.0926239490509033,21.693452835083008,0.3024192452430725,2.5015292167663574,-0.26858848333358765,0.0,0.0,0.0,0.0,0.0,0.0,0.0,-0.20499989579667163,0.553475119055504,-0.07108236450257625,0.40053081087246833,-0.23024673804577575,0.09446780431696956,-0.3199056362556729,0.17281231321159163,-0.48767115633111247,-0.11149767080008677,-1.9462553712108677,0.13348504898945487,2.5955436713430613,0.9452593138393762,0.1728802376190821,-0.48752024683155326,-0.11147110072896137,-1.9463801863486305,0.1336059019074957,2.595550359778934,0.9452445589611904,0.00028920038444910144,0.00024961233255916317,0.00010483339710515883,-0.00029583763023581435,-0.00010621595103839756,-0.000322246531851099,-0.0013710829023906117,0.0,0.0,0.0,0.0,0.0,0.0,0.0,6.792440749048279e-05,0.00015090949955920419,2.6570071125400774e-05,-0.00012481513776285702,0.00012085291804081466,6.688435872703735e-06,-1.4754878185807563e-05,-0.00028920038444910144,-0.00024961233255916317,-0.00010483339710515883,0.00029583763023581435,0.00010621595103839756,0.000322246531851099,0.0013710829023906117,0.22445029020309448,11.802515029907227,-1.0926239490509033,-21.693452835083008,-0.3024192452430725,-2.5015292167663574,0.26858848333358765,0
6,0.0249481201171875,-0.19667929410934448,-11.802515029907227,1.1680023670196533,21.693452835083008,0.2960105538368225,2.4951205253601074,-0.27591270208358765,0.0,0.0,0.0,0.0,0.0,0.0,0.0,-0.1951604985443385,0.5666097326319771,-0.05533730126437908,0.39524399673635596,-0.2312717376170575,0.09370804962303048,-0.3169769385664262,0.17281036436976047,-0.48767115633111247,-0.11150257222216278,-1.9462553712108677,0.1334857610662778,2.595544383419884,0.9452590266687532,0.1728802376190821,-0.48752024683155326,-0.11147110072896137,-1.9463801863486305,0.1336059019074957,2.595550359778934,0.9452445589611904,0.00028429543529944016,0.0011152916790046952,-0.00037608440352682426,0.0001843054725163621,0.00038622522066479766,0.00014962182718429817,-0.0007644933779042624,0.0,0.0,0.0,0.0,0.0,0.0,0.0,6.987324932164474e-05,0.00015090949955920419,3.14714932014154e-05,-0.00012481513776285702,0.0001201408412178917,5.976359049864044e-06,-1.4467707562748622e-05,-0.00028429543529944016,-0.0011152916790046952,0.00037608440352682426,-0.0001843054725163621,-0.00038622522066479766,-0.00014962182718429817,0.0007644933779042624,0.19667929410934448,11.802515029907227,-1.1680023670196533,-21.693452835083008,-0.2960105538368225,-2.4951205253601074,0.27591270208358765,0
7,0.029750347137451172,-0.19667929410934448,-11.802515029907227,1.1680023670196533,21.693452835083008,0.2960105538368225,2.4951205253601074,-0.27591270208358765,0.0,0.0,0.0,0.0,0.0,0.0,0.0,-0.1951604985443385,0.5666097326319771,-0.05533730126437908,0.39524399673635596,-0.2312717376170575,0.09370804962303048,-0.3169769385664262,0.17281036436976047,-0.48767115633111247,-0.11150257222216278,-1.9462553712108677,0.1334857610662778,2.595544383419884,0.9452590266687532,0.1728802376190821,-0.48752024683155326,-0.11147110072896137,-1.9463801863486305,0.1336059019074957,2.595550359778934,0.9452445589611904,0.00028429543529944016,0.0011152916790046952,-0.00037608440352682426,0.0001843054725163621,0.00038622522066479766,0.00014962182718429817,-0.0007644933779042624,0.0,0.0,0.0,0.0,0.0,0.0,0.0,6.987324932164474e-05,0.00015090949955920419,3.14714932014154e-05,-0.00012481513776285702,0.0001201408412178917,5.976359049864044e-06,-1.4467707562748622e-05,-0.00028429543529944016,-0.0011152916790046952,0.00037608440352682426,-0.0001843054725163621,-0.00038622522066479766,-0.00014962182718429817,0.0007644933779042624,0.19667929410934448,11.802515029907227,-1.1680023670196533,-21.693452835083008,-0.2960105538368225,-2.4951205253601074,0.27591270208358765,0
8,0.034789323806762695,-0.17287558317184448,-11.774744033813477,1.1441986560821533,21.669649124145508,0.3143211007118225,2.5015292167663574,-0.29605430364608765,0.0,0.0,0.0,0.0,0.0,0.0,0.0,-0.19866605024665251,0.5655559339105884,-0.05917831863527652,0.3948931982851865,-0.23027364073746387,0.09446644206344902,-0.31558936716713143,0.17280869393390522,-0.4876731051729436,-0.1115005886984773,-1.9462537007750125,0.13348372656106947,2.5955436713430613,0.9452623610110297,0.1728802376190821,-0.48752024683155326,-0.11147110072896137,-1.9463801863486305,0.1336059019074957,2.595550359778934,0.9452445589611904,7.385503771336669e-06,0.0005470118143935215,0.0003919618015917688,0.00032886845384105817,-0.00047662968268076907,-0.00045323934190107367,-0.00048536851311416755,0.0,0.0,0.0,0.0,0.0,0.0,0.0,7.154368517689469e-05,0.00015285834139033838,2.9487969515934465e-05,-0.00012648557361805146,0.00012217534642622319,6.688435872703735e-06,-1.780204983925504e-05,-7.385503771336669e-06,-0.0005470118143935215,-0.0003919618015917688,-0.00032886845384105817,0.00047662968268076907,0.00045323934190107367,0.00048536851311416755,0.17287558317184448,11.774744033813477,-1.1441986560821533,-21.669649124145508,-0.3143211007118225,-2.5015292167663574,0.29605430364608765,0
9,0.03976774215698242,-0.17287558317184448,-11.774744033813477,1.1441986560821533,21.669649124145508,0.3143211007118225,2.5015292167663574,-0.29605430364608765,0.0,0.0,0.0,0.0,0.0,0.0,0.0,-0.19866605024665251,0.5655559339105884,-0.05917831863527652,0.3948931982851865,-0.23027364073746387,0.09446644206344902,-0.31558936716713143,0.17280869393390522,-0.4876731051729436,-0.1115005886984773,-1.9462537007750125,0.13348372656106947,2.5955436713430613,0.9452623610110297,0.1728802376190821,-0.48752024683155326,-0.11147110072896137,-1.9463801863486305,0.1336059019074957,2.595550359778934,0.9452445589611904,7.385503771336669e-06,0.0005470118143935215,0.0003919618015917688,0.00032886845384105817,-0.00047662968268076907,-0.00045323934190107367,-0.00048536851311416755,0.0,0.0,0.0,0.0,0.0,0.0,0.0,7.154368517689469e-05,0.00015285834139033838,2.9487969515934465e-05,-0.00012648557361805146,0.00012217534642622319,6.688435872703735e-06,-1.780204983925504e-05,-7.385503771336669e-06,-0.0005470118143935215,-0.0003919618015917688,-0.00032886845384105817,0.00047662968268076907,0.00045323934190107367,0.00048536851311416755,0.17287558317184448,11.774744033813477,-1.1441986560821533,-21.669649124145508,-0.3143211007118225,-2.5015292167663574,0.29605430364608765,0
10,0.04475808143615723,-0.14510458707809448,-11.750940322875977,1.1441986560821533,21.618074417114258,0.3143211007118225,2.4951205253601074,-0.30337852239608765,0.0,0.0,0.0,0.0,0.0,0.0,0.0,-0.19555737879516175,0.5666168786632081,-0.05644124373104718,0.39601987304147035,-0.22949423558811546,0.09487227426006171,-0.3160269359919391,0.17280674509207408,-0.48767477560879885,-0.1115015522758609,-1.946250081497326,0.13348372656106947,2.595544383419884,0.9452631794545123,0.1728802376190821,-0.48752024683155326,-0.11147110072896137,-1.9463801863486305,0.1336059019074957,2.595550359778934,0.9452445589611904,-0.0002648377507377655,0.0005087975545584073,0.0005513385614470464,0.0018053054593981232,-0.0002724496238780287,-3.417768983042603e-05,3.1333657158006045e-05,0.0,0.0,0.0,0.0,0.0,0.0,0.0,7.349252700802889e-05,0.00015452877724558833,3.045154689952645e-05,-0.00013010485130449112,0.00012217534642622319,5.976359049864044e-06,-1.862049332190807e-05,0.0002648377507377655,-0.0005087975545584073,-0.0005513385614470464,-0.0018053054593981232,0.0002724496238780287,3.417768983042603e-05,-3.1333657158006045e-05,0.14510458707809448,11.750940322875977,-1.1441986560821533,-21.618074417114258,-0.3143211007118225,-2.4951205253601074,0.30337852239608765,0
11,0.04975008964538574,-0.14510458707809448,-11.750940322875977,1.1441986560821533,21.618074417114258,0.3143211007118225,2.4951205253601074,-0.30337852239608765,0.0,0.0,0.0,0.0,0.0,0.0,0.0,-0.19555737879516175,0.5666168786632081,-0.05644124373104718,0.39601987304147035,-0.22949423558811546,0.09487227426006171,-0.3160269359919391,0.17280674509207408,-0.48767477560879885,-0.1115015522758609,-1.946250081497326,0.13348372656106947,2.595544383419884,0.9452631794545123,0.1728802376190821,-0.48752024683155326,-0.11147110072896137,-1.9463801863486305,0.1336059019074957,2.595550359778934,0.9452445589611904,-0.0002648377507377655,0.0005087975545584073,0.0005513385614470464,0.0018053054593981232,-0.0002724496238780287,-3.417768983042603e-05,3.1333657158006045e-05,0.0,0.0,0.0,0.0,0.0,0.0,0.0,7.349252700802889e-05,0.00015452877724558833,3.045154689952645e-05,-0.00013010485130449112,0.00012217534642622319,5.976359049864044e-06,-1.862049332190807e-05,0.0002648377507377655,-0.0005087975545584073,-0.0005513385614470464,-0.0018053054593981232,0.0002724496238780287,3.417768983042603e-05,-3.1333657158006045e-05,0.14510458707809448,11.750940322875977,-1.1441986560821533,-21.618074417114258,-0.3143211007118225,-2.4951205253601074,0.30337852239608765,0
12,0.05469965934753418,-0.17287558317184448,-11.699365615844727,1.1164276599884033,21.641878128051758,0.3024192452430725,2.5015292167663574,-0.33084434270858765,0.0,0.0,0.0,0.0,0.0,0.0,0.0,-0.19579328683978411,0.569933159975784,-0.05760374124962126,0.3956173154439964,-0.22859759411592892,0.09518098059158939,-0.31556389253647643,0.17280869393390522,-0.4876783948864853,-0.11149968062828665,-1.9462517519331812,0.13348504898945487,2.5955436713430613,0.9452646623592318,0.1728802376190821,-0.48752024683155326,-0.11147110072896137,-1.9463801863486305,0.1336059019074957,2.595550359778934,0.9452445589611904,-0.00038182920588985256,-0.0004777885807512964,0.0009453465049673737,0.0006770890208611485,-2.5600489269044625e-06,-0.00017841935930106663,0.0013704263113339206,0.0,0.0,0.0,0.0,0.0,0.0,0.0,7.154368517689469e-05,0.000158148054932028,2.857989932528171e-05,-0.00012843441544929668,0.00012085291804081466,6.688435872703735e-06,-2.010339804137118e-05,0.00038182920588985256,0.0004777885807512964,-0.0009453465049673737,-0.0006770890208611485,2.5600489269044625e-06,0.00017841935930106663,-0.0013704263113339206,0.17287558317184448,11.699365615844727,-1.1164276599884033,-21.641878128051758,-0.3024192452430725,-2.5015292167663574,0.33084434270858765,0
13,0.059748172760009766,-0.17287558317184448,-11.699365615844727,1.1164276599884033,21.641878128051758,0.3024192452430725,2.5015292167663574,-0.33084434270858765,0.0,0.0,0.0,0.0,0.0,0.0,0.0,-0.19579328683978411,0.569933159975784,-0.05760374124962126,0.3956173154439964,-0.22859759411592892,0.09518098059158939,-0.31556389253647643,0.17280869393390522,-0.4876783948864853,-0.11149968062828665,-1.9462517519331812,0.13348504898945487,2.5955436713430613,0.9452646623592318,0.1728802376190821,-0.48752024683155326,-0.11147110072896137,-1.9463801863486305,0.1336059019074957,2.595550359778934,0.9452445589611904,-0.00038182920588985256,-0.0004777885807512964,0.0009453465049673737,0.0006770890208611485,-2.5600489269044625e-06,-0.00017841935930106663,0.0013704263113339206,0.0,0.0,0.0,0.0,0.0,0.0,0.0,7.154368517689469e-05,0.000158148054932028,2.857989932528171e-05,-0.00012843441544929668,0.00012085291804081466,6.688435872703735e-06,-2.010339804137118e-05,0.00038182920588985256,0.0004777885807512964,-0.0009453465049673737,-0.0006770890208611485,2.5600489269044625e-06,0.00017841935930106663,-0.0013704263113339206,0.17287558317184448,11.699365615844727,-1.1164276599884033,-21.641878128051758,-0.3024192452430725,-2.5015292167663574,0.33084434270858765,0
14,0.06475138664245605,-0.17287558317184448,-11.699365615844727,1.1164276599884033,21.641878128051758,0.3024192452430725,2.5015292167663574,-0.33084434270858765,0.0,0.0,0.0,0.0,0.0,0.0,0.0,-0.19579328683978411,0.569933159975784,-0.05760374124962126,0.3956173154439964,-0.22859759411592892,0.09518098059158939,-0.31556389253647643,0.17280869393390522,-0.4876783948864853,-0.11149968062828665,-1.9462517519331812,0.13348504898945487,2.5955436713430613,0.9452646623592318,0.1728802376190821,-0.48752024683155326,-0.11147110072896137,-1.9463801863486305,0.1336059019074957,2.595550359778934,0.9452445589611904,-0.00038182920588985256,-0.0004777885807512964,0.0009453465049673737,0.0006770890208611485,-2.5600489269044625e-06,-0.00017841935930106663,0.0013704263113339206,0.0,0.0,0.0,0.0,0.0,0.0,0.0,7.154368517689469e-05,0.000158148054932028,2.857989932528171e-05,-0.00012843441544929668,0.00012085291804081466,6.688435872703735e-06,-2.010339804137118e-05,0.00038182920588985256,0.0004777885807512964,-0.0009453465049673737,-0.0006770890208611485,2.5600489269044625e-06,0.00017841935930106663,-0.0013704263113339206,0.17287558317184448,11.699365615844727,-1.1164276599884033,-21.641878128051758,-0.3024192452430725,-2.5015292167663574,0.33084434270858765,0
15,0.06974673271179199,-0.17287558317184448,-11.699365615844727,1.1164276599884033,21.641878128051758,0.3024192452430725,2.5015292167663574,-0.33084434270858765,0.0,0.0,0.0,0.0,0.0,0.0,0.0,-0.19579328683978411,0.569933159975784,-0.05760374124962126,0.3956173154439964,-0.22859759411592892,0.09518098059158939,-0.31556389253647643,0.17280869393390522,-0.4876783948864853,-0.11149968062828665,-1.9462517519331812,0.13348504898945487,2.5955436713430613,0.9452646623592318,0.1728802376190821,-0.48752024683155326,-0.11147110072896137,-1.9463801863486305,0.1336059019074957,2.595550359778934,0.9452445589611904,-0.00038182920588985256,-0.0004777885807512964,0.0009453465049673737,0.0006770890208611485,-2.5600489269044625e-06,-0.00017841935930106663,0.0013704263113339206,0.0,0.0,0.0,0.0,0.0,0.0,0.0,7.154368517689469e-05,0.000158148054932028,2.857989932528171e-05,-0.00012843441544929668,0.00012085291804081466,6.688435872703735e-06,-2.010339804137118e-05,0.00038182920588985256,0.0004777885807512964,-0.0009453465049673737,-0.0006770890208611485,2.5600489269044625e-06,0.00017841935930106663,-0.0013704263113339206,0.17287558317184448,11.699365615844727,-1.1164276599884033,-21.641878128051758,-0.3024192452430725,-2.5015292167663574,0.33084434270858765,0
16,0.07492804527282715,-0.22445029020309448,-11.750940322875977,1.1164276599884033,21.693452835083008,0.3024192452430725,2.4951205253601074,-0.33084434270858765,0.0,0.0,0.0,0.0,0.0,0.0,0.0,-0.19527001177814807,0.5663173826704064,-0.056101010374694275,0.39980603547183186,-0.2288733620682309,0.09646305771301324,-0.3156927206953191,0.17281231321159163,-0.48767477560879885,-0.11149658434311413,-1.9462553712108677,0.13348503582574048,2.595544383419884,0.9452662312034948,0.1728802376190821,-0.48752024683155326,-0.11147110072896137,-1.9463801863486305,0.1336059019074957,2.595550359778934,0.9452445589611904,0.00082627735610517,0.0005338999367020062,0.00014486176399502976,-0.0006861212188283095,0.00022560446955927253,-0.000282565031892267,0.0008373347106010321,0.0,0.0,0.0,0.0,0.0,0.0,0.0,6.792440749048279e-05,0.00015452877724558833,2.5483614152763123e-05,-0.00012481513776285702,0.00012086608175521096,5.976359049864044e-06,-2.167224230442688e-05,-0.00082627735610517,-0.0005338999367020062,-0.00014486176399502976,0.0006861212188283095,-0.00022560446955927253,0.000282565031892267,-0.0008373347106010321,0.22445029020309448,11.750940322875977,-1.1164276599884033,-21.693452835083008,-0.3024192452430725,-2.4951205253601074,0.33084434270858765,0
17,0.07974815368652344,-0.22445029020309448,-11.750940322875977,1.1164276599884033,21.693452835083008,0.3024192452430725,2.4951205253601074,-0.33084434270858765,0.0,0.0,0.0,0.0,0.0,0.0,0.0,-0.19527001177814807,0.5663173826704064,-0.056101010374694275,0.39980603547183186,-0.2288733620682309,0.09646305771301324,-0.3156927206953191,0.17281231321159163,-0.48767477560879885,-0.11149658434311413,-1.9462553712108677,0.13348503582574048,2.595544383419884,0.9452662312034948,0.1728802376190821,-0.48752024683155326,-0.11147110072896137,-1.9463801863486305,0.1336059019074957,2.595550359778934,0.9452445589611904,0.00082627735610517,0.0005338999367020062,0.00014486176399502976,-0.0006861212188283095,0.00022560446955927253,-0.000282565031892267,0.0008373347106010321,0.0,0.0,0.0,0.0,0.0,0.0,0.0,6.792440749048279e-05,0.00015452877724558833,2.5483614152763123e-05,-0.00012481513776285702,0.00012086608175521096,5.976359049864044e-06,-2.167224230442688e-05,-0.00082627735610517,-0.0005338999367020062,-0.00014486176399502976,0.0006861212188283095,-0.00022560446955927253,0.000282565031892267,-0.0008373347106010321,0.22445029020309448,11.750940322875977,-1.1164276599884033,-21.693452835083008,-0.3024192452430725,-2.4951205253601074,0.33084434270858765,0
18,0.08475017547607422,-0.19667929410934448,-11.750940322875977,1.0926239490509033,21.693452835083008,0.3024192452430725,2.4951205253601074,-0.30978721380233765,0.0,0.0,0.0,0.0,0.0,0.0,0.0,-0.19557509988345853,0.5718756579933422,-0.052311372185660024,0.3994349454605426,-0.2293646319379537,0.09576068614326384,-0.31718096424817666,0.17281036436976047,-0.48767477560879885,-0.11149728429737857,-1.9462553712472064,0.13348504898938057,2.595544383419884,0.9452638910347317,0.1728802376190821,-0.48752024683155326,-0.11147110072896137,-1.9463801863486305,0.1336059019074957,2.595550359778934,0.9452445589611904,-0.00034869429214114193,0.0001857508594444009,0.0008580936946908298,0.00013042912975165226,-5.696365482885746e-05,-3.69839374978993e-05,0.00043780087801855295,0.0,0.0,0.0,0.0,0.0,0.0,0.0,6.987324932164474e-05,0.00015452877724558833,2.6183568417201264e-05,-0.0001248151014241472,0.00012085291811511634,5.976359049864044e-06,-1.9332073541322714e-05,0.00034869429214114193,-0.0001857508594444009,-0.0008580936946908298,-0.00013042912975165226,5.696365482885746e-05,3.69839374978993e-05,-0.00043780087801855295,0.19667929410934448,11.750940322875977,-1.0926239490509033,-21.693452835083008,-0.3024192452430725,-2.4951205253601074,0.30978721380233765,0
19,0.08975005149841309,-0.19667929410934448,-11.750940322875977,1.0926239490509033,21.693452835083008,0.3024192452430725,2.4951205253601074,-0.30978721380233765,0.0,0.0,0.0,0.0,0.0,0.0,0.0,-0.19557509988345853,0.5718756579933422,-0.052311372185660024,0.3994349454605426,-0.2293646319379537,0.09576068614326384,-0.31718096424817666,0.17281036436976047,-0.48767477560879885,-0.11149728429737857,-1.9462553712472064,0.13348504898938057,2.595544383419884,0.9452638910347317,0.1728802376190821,-0.48752024683155326,-0.11147110072896137,-1.9463801863486305,0.1336059019074957,2.595550359778934,0.9452445589611904,-0.00034869429214114193,0.0001857508594444009,0.0008580936946908298,0.00013042912975165226,-5.696365482885746e-05,-3.69839374978993e-05,0.00043780087801855295,0.0,0.0,0.0,0.0,0.0,0.0,0.0,6.987324932164474e-05,0.00015452877724558833,2.6183568417201264e-05,-0.0001248151014241472,0.00012085291811511634,5.976359049864044e-06,-1.9332073541322714e-05,0.00034869429214114193,-0.0001857508594444009,-0.0008580936946908298,-0.00013042912975165226,5.696365482885746e-05,3.69839374978993e-05,-0.00043780087801855295,0.19667929410934448,11.750940322875977,-1.0926239490509033,-21.693452835083008,-0.3024192452430725,-2.4951205253601074,0.30978721380233765,0
20,0.09474968910217285,-0.17287558317184448,-11.802515029907227,1.1441986560821533,21.693452835083008,0.3024192452430725,2.4951205253601074,-0.33725303411483765,0.0,0.0,0.0,0.0,0.0,0.0,0.0,-0.19865966915216074,0.5695989806209465,-0.05238947999340856,0.4002859870720106,-0.23018192324351286,0.0958309714073493,-0.31621357986413684,0.17280869393390522,-0.48767115633111247,-0.11150140150864382,-1.946255397701821,0.1334850488269399,2.5955443848734348,0.9452658571600885,0.1728802376190821,-0.48752024683155326,-0.11147110072896137,-1.9463801863486305,0.1336059019074957,2.595550359778934,0.9452445589611904,-0.001064875790486374,0.0008213302613897972,-0.00045991390770228047,6.103733290435466e-05,7.55540065544717e-06,-2.193293765403797e-05,0.0010269292123855512,0.0,0.0,0.0,0.0,0.0,0.0,0.0,7.154368517689469e-05,0.00015090949955920419,3.0300779682454482e-05,-0.00012478864680942614,0.00012085308055578836,5.974905499250838e-06,-2.129819889806761e-05,0.001064875790486374,-0.0008213302613897972,0.00045991390770228047,-6.103733290435466e-05,-7.55540065544717e-06,2.193293765403797e-05,-0.0010269292123855512,0.17287558317184448,11.802515029907227,-1.1441986560821533,-21.693452835083008,-0.3024192452430725,-2.4951205253601074,0.33725303411483765,0
21,0.0997459888458252,-0.17287558317184448,-11.802515029907227,1.1441986560821533,21.693452835083008,0.3024192452430725,2.4951205253601074,-0.33725303411483765,0.0,0.0,0.0,0.0,0.0,0.0,0.0,-0.19865966915216074,0.5695989806209465,-0.05238947999340856,0.4002859870720106,-0.23018192324351286,0.0958309714073493,-0.31621357986413684,0.17280869393390522,-0.48767115633111247,-0.11150140150864382,-1.946255397701821,0.1334850488269399,2.5955443848734348,0.9452658571600885,0.1728802376190821,-0.48752024683155326,-0.11147110072896137,-1.9463801863486305,0.1336059019074957,2.595550359778934,0.9452445589611904,-0.001064875790486374,0.0008213302613897972,-0.00045991390770228047,6.103733290435466e-05,7.55540065544717e-06,-2.193293765403797e-05,0.0010269292123855512,0.0,0.0,0.0,0.0,0.0,0.0,0.0,7.154368517689469e-05,0.00015090949955920419,3.0300779682454482e-05,-0.00012478864680942614,0.00012085308055578836,5.974905499250838e-06,-2.129819889806761e-05,0.001064875790486374,-0.0008213302613897972,0.00045991390770228047,-6.103733290435466e-05,-7.55540065544717e-06,2.193293765403797e-05,-0.0010269292123855512,0.17287558317184448,11.802515029907227,-1.1441986560821533,-21.693452835083008,-0.3024192452430725,-2.4951205253601074,0.33725303411483765,0
22,0.1047666072845459,-0.22445029020309448,-11.727136611938477,1.1164276599884033,21.693452835083008,0.3143211007118225,2.5015292167663574,-0.32352012395858765,0.0,0.0,0.0,0.0,0.0,0.0,0.0,-0.20033739009318596,0.5826783461339312,-0.057364212626706775,0.39254307259774435,-0.23041893413937858,0.09405086343160224,-0.31701307077393254,0.17281231321159163,-0.4876764460446541,-0.11149966507419558,-1.946255371211017,0.13348372656106855,2.5955436713430697,0.9452654174041364,0.1728802376190821,-0.48752024683155326,-0.11147110072896137,-1.9463801863486305,0.1336059019074957,2.595550359778934,0.9452445589611904,0.0004632973904775097,-0.0006529962995592247,0.00032448526000922775,2.438352831464225e-05,-0.00036256719335894843,-0.00037143215795040546,0.0003132805281176967,0.0,0.0,0.0,0.0,0.0,0.0,0.0,6.792440749048279e-05,0.00015619921310083829,2.856434523421103e-05,-0.000124815137613421,0.00012217534642713912,6.68843586426604e-06,-2.0858442945970168e-05,-0.0004632973904775097,0.0006529962995592247,-0.00032448526000922775,-2.438352831464225e-05,0.00036256719335894843,0.00037143215795040546,-0.0003132805281176967,0.22445029020309448,11.727136611938477,-1.1164276599884033,-21.693452835083008,-0.3143211007118225,-2.5015292167663574,0.32352012395858765,0
23,0.10978102684020996,-0.22445029020309448,-11.727136611938477,1.1164276599884033,21.693452835083008,0.3143211007118225,2.5015292167663574,-0.32352012395858765,0.0,0.0,0.0,0.0,0.0,0.0,0.0,-0.20033739009318596,0.5826783461339312,-0.057364212626706775,0.39254307259774435,-0.23041893413937858,0.09405086343160224,-0.31701307077393254,0.17281231321159163,-0.4876764460446541,-0.11149966507419558,-1.946255371211017,0.13348372656106855,2.5955436713430697,0.9452654174041364,0.1728802376190821,-0.48752024683155326,-0.11147110072896137,-1.9463801863486305,0.1336059019074957,2.595550359778934,0.9452445589611904,0.0004632973904775097,-0.0006529962995592247,0.00032448526000922775,2.438352831464225e-05,-0.00036256719335894843,-0.00037143215795040546,0.0003132805281176967,0.0,0.0,0.0,0.0,0.0,0.0,0.0,6.792440749048279e-05,0.00015619921310083829,2.856434523421103e-05,-0.000124815137613421,0.00012217534642713912,6.68843586426604e-06,-2.0858442945970168e-05,-0.0004632973904775097,0.0006529962995592247,-0.00032448526000922775,-2.438352831464225e-05,0.00036256719335894843,0.00037143215795040546,-0.0003132805281176967,0.22445029020309448,11.727136611938477,-1.1164276599884033,-21.693452835083008,-0.3143211007118225,-2.5015292167663574,0.32352012395858765,0
24,0.11476731300354004,-0.22445029020309448,-11.802515029907227,1.1164276599884033,21.669649124145508,0.3024192452430725,2.4951205253601074,-0.30337852239608765,0.0,0.0,0.0,0.0,0.0,0.0,0.0,-0.2052070609620183,0.5724702720156322,-0.06521210856135486,0.3962831309377968,-0.22986102138501535,0.09515688290443083,-0.3177407997382076,0.17281231321159163,-0.48767115633111247,-0.1114972955699564,-1.9462537007750125,0.13348504898945487,2.5955443834198846,0.9452631794545384,0.1728802376190821,-0.48752024683155326,-0.11147110072896137,-1.9463801863486305,0.1336059019074957,2.595550359778934,0.9452445589611904,0.0002975703306771894,0.0011590268520415324,1.0276704795119355e-05,-0.00014361941722555315,3.0306520193921075e-05,0.00020869339858750117,-0.0003613928339809733,0.0,0.0,0.0,0.0,0.0,0.0,0.0,6.792440749048279e-05,0.00015090949955920419,2.6194840995030777e-05,-0.00012648557361805146,0.00012085291804081466,5.976359049419955e-06,-1.8620493347998313e-05,-0.0002975703306771894,-0.0011590268520415324,-1.0276704795119355e-05,0.00014361941722555315,-3.0306520193921075e-05,-0.00020869339858750117,0.0003613928339809733,0.22445029020309448,11.802515029907227,-1.1164276599884033,-21.669649124145508,-0.3024192452430725,-2.4951205253601074,0.30337852239608765,0
25,0.11975646018981934,-0.22445029020309448,-11.802515029907227,1.1164276599884033,21.669649124145508,0.3024192452430725,2.4951205253601074,-0.30337852239608765,0.0,0.0,0.0,0.0,0.0,0.0,0.0,-0.2052070609620183,0.5724702720156322,-0.06521210856135486,0.3962831309377968,-0.22986102138501535,0.09515688290443083,-0.3177407997382076,0.17281231321159163,-0.48767115633111247,-0.1114972955699564,-1.9462537007750125,0.13348504898945487,2.5955443834198846,0.9452631794545384,0.1728802376190821,-0.48752024683155326,-0.11147110072896137,-1.9463801863486305,0.1336059019074957,2.595550359778934,0.9452445589611904,0.0002975703306771894,0.0011590268520415324,1.0276704795119355e-05,-0.00014361941722555315,3.0306520193921075e-05,0.00020869339858750117,-0.0003613928339809733,0.0,0.0,0.0,0.0,0.0,0.0,0.0,6.792440749048279e-05,0.00015090949955920419,2.6194840995030777e-05,-0.00012648557361805146,0.00012085291804081466,5.976359049419955e-06,-1.8620493347998313e-05,-0.0002975703306771894,-0.0011590268520415324,-1.0276704795119355e-05,0.00014361941722555315,-3.0306520193921075e-05,-0.00020869339858750117,0.0003613928339809733,0.22445029020309448,11.802515029907227,-1.1164276599884033,-21.669649124145508,-0.3024192452430725,-2.4951205253601074,0.30337852239608765,0
26,0.12475180625915527,-0.22445029020309448,-11.727136611938477,1.0926239490509033,21.693452835083008,0.3079124093055725,2.4951205253601074,-0.32352012395858765,0.0,0.0,0.0,0.0,0.0,0.0,0.0,-0.20586916315644227,0.5700298968833982,-0.06372918378688773,0.3974573950969449,-0.230482614142797,0.09653955766844163,-0.3173356300923878,0.17281231321159163,-0.4876764460446541,-0.11149793876441055,-1.9462553712108677,0.1334844342499876,2.5955443834198846,0.9452653771832646,0.1728802376190821,-0.48752024683155326,-0.11147110072896137,-1.9463801863486305,0.1336059019074957,2.595550359778934,0.9452445589611904,0.00023687614722345843,-0.00025476740493994327,0.0007335435647231165,0.00014566860988982964,-0.0001725022319579992,2.6293713612170224e-05,0.0004554648092960148,0.0,0.0,0.0,0.0,0.0,0.0,0.0,6.792440749048279e-05,0.00015619921310083829,2.6838035449186504e-05,-0.00012481513776285702,0.00012146765750808974,5.976359049419955e-06,-2.08182220742259e-05,-0.00023687614722345843,0.00025476740493994327,-0.0007335435647231165,-0.00014566860988982964,0.0001725022319579992,-2.6293713612170224e-05,-0.0004554648092960148,0.22445029020309448,11.727136611938477,-1.0926239490509033,-21.693452835083008,-0.3079124093055725,-2.4951205253601074,0.32352012395858765,0
27,0.12975168228149414,-0.22445029020309448,-11.727136611938477,1.0926239490509033,21.693452835083008,0.3079124093055725,2.4951205253601074,-0.32352012395858765,0.0,0.0,0.0,0.0,0.0,0.0,0.0,-0.20586916315644227,0.5700298968833982,-0.06372918378688773,0.3974573950969449,-0.230482614142797,0.09653955766844163,-0.3173356300923878,0.17281231321159163,-0.4876764460446541,-0.11149793876441055,-1.9462553712108677,0.1334844342499876,2.5955443834198846,0.9452653771832646,0.1728802376190821,-0.48752024683155326,-0.11147110072896137,-1.9463801863486305,0.1336059019074957,2.595550359778934,0.9452445589611904,0.00023687614722345843,-0.00025476740493994327,0.0007335435647231165,0.00014566860988982964,-0.0001725022319579992,2.6293713612170224e-05,0.0004554648092960148,0.0,0.0,0.0,0.0,0.0,0.0,0.0,6.792440749048279e-05,0.00015619921310083829,2.6838035449186504e-05,-0.00012481513776285702,0.00012146765750808974,5.976359049419955e-06,-2.08182220742259e-05,-0.00023687614722345843,0.00025476740493994327,-0.0007335435647231165,-0.00014566860988982964,0.0001725022319579992,-2.6293713612170224e-05,-0.0004554648092960148,0.22445029020309448,11.727136611938477,-1.0926239490509033,-21.693452835083008,-0.3079124093055725,-2.4951205253601074,0.32352012395858765,0
28,0.13475346565246582,-0.19667929410934448,-11.774744033813477,1.1441986560821533,21.669649124145508,0.3079124093055725,2.4951205253601074,-0.30978721380233765,0.0,0.0,0.0,0.0,0.0,0.0,0.0,-0.20436009573880262,0.5709588144637532,-0.0608983824379659,0.3970856762284814,-0.2308277592724228,0.09580922868062698,-0.3190043247796172,0.17281036436976047,-0.4876731051729436,-0.11149943108643834,-1.9462537007750125,0.13348443863786763,2.5955443834198846,0.9452638870614674,0.1728802376190821,-0.48752024683155326,-0.11147110072896137,-1.9463801863486305,0.1336059019074957,2.595550359778934,0.9452445589611904,-0.00015550058277959776,0.0004132656457756318,-0.0002146063678372359,0.0003387943975269819,-0.0001759414133766024,-5.8528266664016944e-05,0.00033801824604154504,0.0,0.0,0.0,0.0,0.0,0.0,0.0,6.987324932164474e-05,0.00015285834139033838,2.8330357476971657e-05,-0.00012648557361805146,0.0001214632696280582,5.976359049419955e-06,-1.9328100276938542e-05,0.00015550058277959776,-0.0004132656457756318,0.0002146063678372359,-0.0003387943975269819,0.0001759414133766024,5.8528266664016944e-05,-0.00033801824604154504,0.19667929410934448,11.774744033813477,-1.1441986560821533,-21.669649124145508,-0.3079124093055725,-2.4951205253601074,0.30978721380233765,0
29,0.13974905014038086,-0.19667929410934448,-11.774744033813477,1.1441986560821533,21.669649124145508,0.3079124093055725,2.4951205253601074,-0.30978721380233765,0.0,0.0,0.0,0.0,0.0,0.0,0.0,-0.20436009573880262,0.5709588144637532,-0.0608983824379659,0.3970856762284814,-0.2308277592724228,0.09580922868062698,-0.3190043247796172,0.17281036436976047,-0.4876731051729436,-0.11149943108643834,-1.9462537007750125,0.13348443863786763,2.5955443834198846,0.9452638870614674,0.1728802376190821,-0.48752024683155326,-0.11147110072896137,-1.9463801863486305,0.1336059019074957,2.595550359778934,0.9452445589611904,-0.00015550058277959776,0.0004132656457756318,-0.0002146063678372359,0.0003387943975269819,-0.0001759414133766024,-5.8528266664016944e-05,0.00033801824604154504,0.0,0.0,0.0,0.0,0.0,0.0,0.0,6.987324932164474e-05,0.00015285834139033838,2.8330357476971657e-05,-0.00012648557361805146,0.0001214632696280582,5.976359049419955e-06,-1.9328100276938542e-05,0.00015550058277959776,-0.0004132656457756318,0.0002146063678372359,-0.0003387943975269819,0.0001759414133766024,5.8528266664016944e-05,-0.00033801824604154504,0.19667929410934448,11.774744033813477,-1.1441986560821533,-21.669649124145508,-0.3079124093055725,-2.4951205253601074,0.30978721380233765,0
30,0.14474773406982422,-0.22445029020309448,-11.699365615844727,1.0926239490509033,21.717256546020508,0.3024192452430725,2.5015292167663574,-0.33725303411483765,0.0,0.0,0.0,0.0,0.0,0.0,0.0,-0.2048945884151386,0.5701313239967697,-0.065943511053925,0.3973923467334355,-0.2305062779548233,0.09635677775673576,-0.31937092989349736,0.17281231321159163,-0.4876783948864853,-0.11149730779469605,-1.9462570416467229,0.13348504898945487,2.5955436713430617,0.94526694130263,0.1728802376190821,-0.48752024683155326,-0.11147110072896137,-1.9463801863486305,0.1336059019074957,2.595550359778934,0.9452445589611904,0.000578996973224427,-0.0010948006536148252,0.0011125682851736598,-0.000376884265773107,4.538225422123841e-05,-2.5064133035068732e-05,0.0012727605842207047,0.0,0.0,0.0,0.0,0.0,0.0,0.0,6.792440749048279e-05,0.000158148054932028,2.62070657346819e-05,-0.00012314470190766258,0.00012085291804081466,6.688435872259646e-06,-2.2382341439586284e-05,-0.000578996973224427,0.0010948006536148252,-0.0011125682851736598,0.000376884265773107,-4.538225422123841e-05,2.5064133035068732e-05,-0.0012727605842207047,0.22445029020309448,11.699365615844727,-1.0926239490509033,-21.717256546020508,-0.3024192452430725,-2.5015292167663574,0.33725303411483765,0
31,0.14974713325500488,-0.22445029020309448,-11.699365615844727,1.0926239490509033,21.717256546020508,0.3024192452430725,2.5015292167663574,-0.33725303411483765,0.0,0.0,0.0,0.0,0.0,0.0,0.0,-0.2048945884151386,0.5701313239967697,-0.065943511053925,0.3973923467334355,-0.2305062779548233,0.09635677775673576,-0.31937092989349736,0.17281231321159163,-0.4876783948864853,-0.11149730779469605,-1.9462570416467229,0.13348504898945487,2.5955436713430617,0.94526694130263,0.1728802376190821,-0.48752024683155326,-0.11147110072896137,-1.9463801863486305,0.1336059019074957,2.595550359778934,0.9452445589611904,0.000578996973224427,-0.0010948006536148252,0.0011125682851736598,-0.000376884265773107,4.538225422123841e-05,-2.5064133035068732e-05,0.0012727605842207047,0.0,0.0,0.0,0.0,0.0,0.0,0.0,6.792440749048279e-05,0.000158148054932028,2.62070657346819e-05,-0.00012314470190766258,0.00012085291804081466,6.688435872259646e-06,-2.2382341439586284e-05,-0.000578996973224427,0.0010948006536148252,-0.0011125682851736598,0.000376884265773107,-4.538225422123841e-05,2.5064133035068732e-05,-0.0012727605842207047,0.22445029020309448,11.699365615844727,-1.0926239490509033,-21.717256546020508,-0.3024192452430725,-2.5015292167663574,0.33725303411483765,0
32,0.15474796295166016,-0.14510458707809448,-11.727136611938477,1.1441986560821533,21.669649124145508,0.3024192452430725,2.4951205253601074,-0.32352012395858765,0.0,0.0,0.0,0.0,0.0,0.0,0.0,-0.19535842023662375,0.5745544713109384,-0.05476501204946653,0.392383313171687,-0.23102355281135595,0.09605948634845092,-0.31927853613535917,0.17280674509207408,-0.4876764460446541,-0.11150090135122151,-1.9462544160307498,0.13348504898945487,2.5955443834198846,0.9452648944040356,0.1728802376190821,-0.48752024683155326,-0.11147110072896137,-1.9463801863486305,0.1336059019074957,2.595550359778934,0.9452445589611904,-0.0005104821549597101,-0.0005525018636526003,0.0007744708596929492,1.5322532437076968e-05,-2.2064301506464696e-06,0.00021946693178206996,0.0004212513826906741,0.0,0.0,0.0,0.0,0.0,0.0,0.0,7.349252700802889e-05,0.00015619921310083829,2.9800622260142684e-05,-0.00012577031788074677,0.00012085291804081466,5.976359049419955e-06,-2.03354428451874e-05,0.0005104821549597101,0.0005525018636526003,-0.0007744708596929492,-1.5322532437076968e-05,2.2064301506464696e-06,-0.00021946693178206996,-0.0004212513826906741,0.14510458707809448,11.727136611938477,-1.1441986560821533,-21.669649124145508,-0.3024192452430725,-2.4951205253601074,0.32352012395858765,0
33,0.159745454788208,-0.14510458707809448,-11.727136611938477,1.1441986560821533,21.669649124145508,0.3024192452430725,2.4951205253601074,-0.32352012395858765,0.0,0.0,0.0,0.0,0.0,0.0,0.0,-0.19535842023662375,0.5745544713109384,-0.05476501204946653,0.392383313171687,-0.23102355281135595,0.09605948634845092,-0.31927853613535917,0.17280674509207408,-0.4876764460446541,-0.11150090135122151,-1.9462544160307498,0.13348504898945487,2.5955443834198846,0.9452648944040356,0.1728802376190821,-0.48752024683155326,-0.11147110072896137,-1.9463801863486305,0.1336059019074957,2.595550359778934,0.9452445589611904,-0.0005104821549597101,-0.0005525018636526003,0.0007744708596929492,1.5322532437076968e-05,-2.2064301506464696e-06,0.00021946693178206996,0.0004212513826906741,0.0,0.0,0.0,0.0,0.0,0.0,0.0,7.349252700802889e-05,0.00015619921310083829,2.9800622260142684e-05,-0.00012577031788074677,0.00012085291804081466,5.976359049419955e-06,-2.03354428451874e-05,0.0005104821549597101,0.0005525018636526003,-0.0007744708596929492,-1.5322532437076968e-05,2.2064301506464696e-06,-0.00021946693178206996,-0.0004212513826906741,0.14510458707809448,11.727136611938477,-1.1441986560821533,-21.669649124145508,-0.3024192452430725,-2.4951205253601074,0.32352012395858765,0
34,0.1647472381591797,-0.19667929410934448,-11.750940322875977,1.1680023670196533,21.669649124145508,0.3079124093055725,2.5015292167663574,-0.33084434270858765,0.0,0.0,0.0,0.0,0.0,0.0,0.0,-0.19563173009785242,0.5726945170941433,-0.059360293854167696,0.3945959707037963,-0.23091597832823568,0.09665240011334485,-0.32020557800030475,0.17281036436976047,-0.48767477560879885,-0.11150038776560824,-1.9462537007790501,0.1334844386378924,2.5955436713430617,0.9452662311542176,0.1728802376190821,-0.48752024683155326,-0.11147110072896137,-1.9463801863486305,0.1336059019074957,2.595550359778934,0.9452445589611904,0.0005010713647821254,0.0005442008915544716,-0.0006482605760509491,0.00035355362621110136,-0.00015054813759424012,-0.00046863926950799754,0.0011570982989438181,0.0,0.0,0.0,0.0,0.0,0.0,0.0,6.987324932164474e-05,0.00015452877724558833,2.9287036646868936e-05,-0.00012648556958039237,0.00012146326960330023,6.688435872259646e-06,-2.1672193027177933e-05,-0.0005010713647821254,-0.0005442008915544716,0.0006482605760509491,-0.00035355362621110136,0.00015054813759424012,0.00046863926950799754,-0.0011570982989438181,0.19667929410934448,11.750940322875977,-1.1680023670196533,-21.669649124145508,-0.3079124093055725,-2.5015292167663574,0.33084434270858765,0
35,0.16974854469299316,-0.19667929410934448,-11.750940322875977,1.1680023670196533,21.669649124145508,0.3079124093055725,2.5015292167663574,-0.33084434270858765,0.0,0.0,0.0,0.0,0.0,0.0,0.0,-0.19563173009785242,0.5726945170941433,-0.059360293854167696,0.3945959707037963,-0.23091597832823568,0.09665240011334485,-0.32020557800030475,0.17281036436976047,-0.48767477560879885,-0.11150038776560824,-1.9462537007790501,0.1334844386378924,2.5955436713430617,0.9452662311542176,0.1728802376190821,-0.48752024683155326,-0.11147110072896137,-1.9463801863486305,0.1336059019074957,2.595550359778934,0.9452445589611904,0.0005010713647821254,0.0005442008915544716,-0.0006482605760509491,0.00035355362621110136,-0.00015054813759424012,-0.00046863926950799754,0.0011570982989438181,0.0,0.0,0.0,0.0,0.0,0.0,0.0,6.987324932164474e-05,0.00015452877724558833,2.9287036646868936e-05,-0.00012648556958039237,0.00012146326960330023,6.688435872259646e-06,-2.1672193027177933e-05,-0.0005010713647821254,-0.0005442008915544716,0.0006482605760509491,-0.00035355362621110136,0.00015054813759424012,0.00046863926950799754,-0.0011570982989438181,0.19667929410934448,11.750940322875977,-1.1680023670196533,-21.669649124145508,-0.3079124093055725,-2.5015292167663574,0.33084434270858765,0
36,0.17474722862243652,-0.22445029020309448,-11.750940322875977,1.1441986560821533,21.693452835083008,0.3143211007118225,2.4951205253601074,-0.35098594427108765,0.0,0.0,0.0,0.0,0.0,0.0,0.0,-0.19645109409745154,0.569999595089315,-0.06184111455858953,0.39581610519933186,-0.2305964848852165,0.09662721373135226,-0.3186550626552271,0.17281231321159163,-0.48767477560879885,-0.11150161400913366,-1.9462553712108677,0.13348337114078027,2.5955443834198846,0.9452637626087221,0.1728802376190821,-0.48752024683155326,-0.11147110072896137,-1.9463801863486305,0.1336059019074957,2.595550359778934,0.9452445589611904,0.0004522354005689081,0.00041578704515748613,-0.0002558717792984577,-0.0006950825060084893,-0.0004550069851054803,-6.571738524798782e-05,0.0019548609715206357,0.0,0.0,0.0,0.0,0.0,0.0,0.0,6.792440749048279e-05,0.00015452877724558833,3.051328017229793e-05,-0.00012481513776285702,0.00012253076671542296,5.976359049419955e-06,-1.9203647531718104e-05,-0.0004522354005689081,-0.00041578704515748613,0.0002558717792984577,0.0006950825060084893,0.0004550069851054803,6.571738524798782e-05,-0.0019548609715206357,0.22445029020309448,11.750940322875977,-1.1441986560821533,-21.693452835083008,-0.3143211007118225,-2.4951205253601074,0.35098594427108765,0
37,0.17975258827209473,-0.22445029020309448,-11.750940322875977,1.1441986560821533,21.693452835083008,0.3143211007118225,2.4951205253601074,-0.35098594427108765,0.0,0.0,0.0,0.0,0.0,0.0,0.0,-0.19645109409745154,0.569999595089315,-0.06184111455858953,0.39581610519933186,-0.2305964848852165,0.09662721373135226,-0.3186550626552271,0.17281231321159163,-0.48767477560879885,-0.11150161400913366,-1.9462553712108677,0.13348337114078027,2.5955443834198846,0.9452637626087221,0.1728802376190821,-0.48752024683155326,-0.11147110072896137,-1.9463801863486305,0.1336059019074957,2.595550359778934,0.9452445589611904,0.0004522354005689081,0.00041578704515748613,-0.0002558717792984577,-0.0006950825060084893,-0.0004550069851054803,-6.571738524798782e-05,0.0019548609715206357,0.0,0.0,0.0,0.0,0.0,0.0,0.0,6.792440749048279e-05,0.00015452877724558833,3.051328017229793e-05,-0.00012481513776285702,0.00012253076671542296,5.976359049419955e-06,-1.9203647531718104e-05,-0.0004522354005689081,-0.00041578704515748613,0.0002558717792984577,0.0006950825060084893,0.0004550069851054803,6.571738524798782e-05,-0.0019548609715206357,0.22445029020309448,11.750940322875977,-1.1441986560821533,-21.693452835083008,-0.3143211007118225,-2.4951205253601074,0.35098594427108765,0
38,0.18609237670898438,-0.22445029020309448,-11.750940322875977,1.1164276599884033,21.669649124145508,0.2960105538368225,2.4823031425476074,-0.33725303411483765,0.0,0.0,0.0,0.0,0.0,0.0,0.0,-0.19716297025660298,0.5752599869892223,-0.060129328721917605,0.3944320153496742,-0.23040676322940992,0.09594040341191586,-0.3170792740606395,0.17281231321159163,-0.48767477560879885,-0.11149753233285144,-1.9462537008840288,0.13348576106427146,2.5955458075735303,0.9452636843787279,0.1728802376190821,-0.48752024683155326,-0.11147110072896137,-1.9463801863486305,0.1336059019074957,2.595550359778934,0.9452445589611904,0.0002779419073676383,0.00034624545576106974,-2.7305519045158643e-05,0.000355260620972516,0.00039260614631065477,0.00020152332669843426,0.001196700122043694,0.0,0.0,0.0,0.0,0.0,0.0,0.0,6.792440749048279e-05,0.00015452877724558833,2.6431603890070265e-05,-0.00012648546460169996,0.00012014084322423124,4.552205403740572e-06,-1.912541753745778e-05,-0.0002779419073676383,-0.00034624545576106974,2.7305519045158643e-05,-0.000355260620972516,-0.00039260614631065477,-0.00020152332669843426,-0.001196700122043694,0.22445029020309448,11.750940322875977,-1.1164276599884033,-21.669649124145508,-0.2960105538368225,-2.4823031425476074,0.33725303411483765,0
39,0.1897590160369873,-0.22445029020309448,-11.750940322875977,1.1164276599884033,21.669649124145508,0.2960105538368225,2.4823031425476074,-0.33725303411483765,0.0,0.0,0.0,0.0,0.0,0.0,0.0,-0.19716297025660298,0.5752599869892223,-0.060129328721917605,0.3944320153496742,-0.23040676322940992,0.09594040341191586,-0.3170792740606395,0.17281231321159163,-0.48767477560879885,-0.11149753233285144,-1.9462537008840288,0.13348576106427146,2.5955458075735303,0.9452636843787279,0.1728802376190821,-0.48752024683155326,-0.11147110072896137,-1.9463801863486305,0.1336059019074957,2.595550359778934,0.9452445589611904,0.0002779419073676383,0.00034624545576106974,-2.7305519045158643e-05,0.000355260620972516,0.00039260614631065477,0.00020152332669843426,0.001196700122043694,0.0,0.0,0.0,0.0,0.0,0.0,0.0,6.792440749048279e-05,0.00015452877724558833,2.6431603890070265e-05,-0.00012648546460169996,0.00012014084322423124,4.552205403740572e-06,-1.912541753745778e-05,-0.0002779419073676383,-0.00034624545576106974,2.7305519045158643e-05,-0.000355260620972516,-0.00039260614631065477,-0.00020152332669843426,-0.001196700122043694,0.22445029020309448,11.750940322875977,-1.1164276599884033,-21.669649124145508,-0.2960105538368225,-2.4823031425476074,0.33725303411483765,0
40,0.19658613204956055,-0.22445029020309448,-11.750940322875977,1.1164276599884033,21.669649124145508,0.2960105538368225,2.4823031425476074,-0.33725303411483765,0.0,0.0,0.0,0.0,0.0,0.0,0.0,-0.19716297025660298,0.5752599869892223,-0.060129328721917605,0.3944320153496742,-0.23040676322940992,0.09594040341191586,-0.3170792740606395,0.17281231321159163,-0.48767477560879885,-0.11149753233285144,-1.9462537008840288,0.13348576106427146,2.5955458075735303,0.9452636843787279,0.1728802376190821,-0.48752024683155326,-0.11147110072896137,-1.9463801863486305,0.1336059019074957,2.595550359778934,0.9452445589611904,0.0002779419073676383,0.00034624545576106974,-2.7305519045158643e-05,0.000355260620972516,0.00039260614631065477,0.00020152332669843426,0.001196700122043694,0.0,0.0,0.0,0.0,0.0,0.0,0.0,6.792440749048279e-05,0.00015452877724558833,2.6431603890070265e-05,-0.00012648546460169996,0.00012014084322423124,4.552205403740572e-06,-1.912541753745778e-05,-0.0002779419073676383,-0.00034624545576106974,2.7305519045158643e-05,-0.000355260620972516,-0.00039260614631065477,-0.00020152332669843426,-0.001196700122043694,0.22445029020309448,11.750940322875977,-1.1164276599884033,-21.669649124145508,-0.2960105538368225,-2.4823031425476074,0.33725303411483765,0
41,0.199751615524292,-0.22445029020309448,-11.750940322875977,1.1164276599884033,21.669649124145508,0.2960105538368225,2.4823031425476074,-0.33725303411483765,0.0,0.0,0.0,0.0,0.0,0.0,0.0,-0.19716297025660298,0.5752599869892223,-0.060129328721917605,0.3944320153496742,-0.23040676322940992,0.09594040341191586,-0.3170792740606395,0.17281231321159163,-0.48767477560879885,-0.11149753233285144,-1.9462537008840288,0.13348576106427146,2.5955458075735303,0.9452636843787279,0.1728802376190821,-0.48752024683155326,-0.11147110072896137,-1.9463801863486305,0.1336059019074957,2.595550359778934,0.9452445589611904,0.0002779419073676383,0.00034624545576106974,-2.7305519045158643e-05,0.000355260620972516,0.00039260614631065477,0.00020152332669843426,0.001196700122043694,0.0,0.0,0.0,0.0,0.0,0.0,0.0,6.792440749048279e-05,0.00015452877724558833,2.6431603890070265e-05,-0.00012648546460169996,0.00012014084322423124,4.552205403740572e-06,-1.912541753745778e-05,-0.0002779419073676383,-0.00034624545576106974,2.7305519045158643e-05,-0.000355260620972516,-0.00039260614631065477,-0.00020152332669843426,-0.001196700122043694,0.22445029020309448,11.750940322875977,-1.1164276599884033,-21.669649124145508,-0.2960105538368225,-2.4823031425476074,0.33725303411483765,0
42,0.20475554466247559,-0.22445029020309448,-11.750940322875977,1.1164276599884033,21.669649124145508,0.2960105538368225,2.4823031425476074,-0.33725303411483765,0.0,0.0,0.0,0.0,0.0,0.0,0.0,-0.19716297025660298,0.5752599869892223,-0.060129328721917605,0.3944320153496742,-0.23040676322940992,0.09594040341191586,-0.3170792740606395,0.17281231321159163,-0.48767477560879885,-0.11149753233285144,-1.9462537008840288,0.13348576106427146,2.5955458075735303,0.9452636843787279,0.1728802376190821,-0.48752024683155326,-0.11147110072896137,-1.9463801863486305,0.1336059019074957,2.595550359778934,0.9452445589611904,0.0002779419073676383,0.00034624545576106974,-2.7305519045158643e-05,0.000355260620972516,0.00039260614631065477,0.00020152332669843426,0.001196700122043694,0.0,0.0,0.0,0.0,0.0,0.0,0.0,6.792440749048279e-05,0.00015452877724558833,2.6431603890070265e-05,-0.00012648546460169996,0.00012014084322423124,4.552205403740572e-06,-1.912541753745778e-05,-0.0002779419073676383,-0.00034624545576106974,2.7305519045158643e-05,-0.000355260620972516,-0.00039260614631065477,-0.00020152332669843426,-0.001196700122043694,0.22445029020309448,11.750940322875977,-1.1164276599884033,-21.669649124145508,-0.2960105538368225,-2.4823031425476074,0.33725303411483765,0
43,0.20975041389465332,-0.22445029020309448,-11.750940322875977,1.1164276599884033,21.717256546020508,0.3024192452430725,2.4887118339538574,-0.29605430364608765,0.0,0.0,0.0,0.0,0.0,0.0,0.0,-0.19534285623943018,0.5786109952361235,-0.06093222944974499,0.3926594750975136,-0.2301880494317471,0.09368704777936165,-0.31788939736532246,0.17281231321159163,-0.48767477560879885,-0.11149674505592945,-1.946257041646723,0.13348398272858725,2.5955450562508506,0.9452622449653139,0.1728802376190821,-0.48752024683155326,-0.11147110072896137,-1.9463801863486305,0.1336059019074957,2.595550359778934,0.9452445589611904,0.0002640970821187254,0.000217915275530617,4.155246018075543e-05,-0.0010719161481096665,0.00011612599046110974,8.095825543351811e-05,-0.0009391218955413494,0.0,0.0,0.0,0.0,0.0,0.0,0.0,6.792440749048279e-05,0.00015452877724558833,2.564432696808283e-05,-0.00012314470190744053,0.00012191917890844173,5.303528083366871e-06,-1.768600412344057e-05,-0.0002640970821187254,-0.000217915275530617,-4.155246018075543e-05,0.0010719161481096665,-0.00011612599046110974,-8.095825543351811e-05,0.0009391218955413494,0.22445029020309448,11.750940322875977,-1.1164276599884033,-21.717256546020508,-0.3024192452430725,-2.4887118339538574,0.29605430364608765,0
44,0.2147514820098877,-0.22445029020309448,-11.750940322875977,1.1164276599884033,21.717256546020508,0.3024192452430725,2.4887118339538574,-0.29605430364608765,0.0,0.0,0.0,0.0,0.0,0.0,0.0,-0.19534285623943018,0.5786109952361235,-0.06093222944974499,0.3926594750975136,-0.2301880494317471,0.09368704777936165,-0.31788939736532246,0.17281231321159163,-0.48767477560879885,-0.11149674505592945,-1.946257041646723,0.13348398272858725,2.5955450562508506,0.9452622449653139,0.1728802376190821,-0.48752024683155326,-0.11147110072896137,-1.9463801863486305,0.1336059019074957,2.595550359778934,0.9452445589611904,0.0002640970821187254,0.000217915275530617,4.155246018075543e-05,-0.0010719161481096665,0.00011612599046110974,8.095825543351811e-05,-0.0009391218955413494,0.0,0.0,0.0,0.0,0.0,0.0,0.0,6.792440749048279e-05,0.00015452877724558833,2.564432696808283e-05,-0.00012314470190744053,0.00012191917890844173,5.303528083366871e-06,-1.768600412344057e-05,-0.0002640970821187254,-0.000217915275530617,-4.155246018075543e-05,0.0010719161481096665,-0.00011612599046110974,-8.095825543351811e-05,0.0009391218955413494,0.22445029020309448,11.750940322875977,-1.1164276599884033,-21.717256546020508,-0.3024192452430725,-2.4887118339538574,0.29605430364608765,0
45,0.21975016593933105,-0.24825400114059448,-11.727136611938477,1.0926239490509033,21.693452835083008,0.3079124093055725,2.4887118339538574,-0.30978721380233765,0.0,0.0,0.0,0.0,0.0,0.0,0.0,-0.19910396496719274,0.5659102916269343,-0.06680287220370194,0.40045988413699857,-0.22962605071427816,0.0939662003578413,-0.31898023359695266,0.17281398364744688,-0.4876764460446541,-0.11149491385460107,-1.9462553712108677,0.13348443863187334,2.595545095496486,0.945263528991023,0.1728802376190821,-0.48752024683155326,-0.11147110072896137,-1.9463801863486305,0.1336059019074957,2.595550359778934,0.9452445589611904,0.0007967570842155634,-0.0008659711576101241,0.0006318998049231797,0.00018391420325232616,-0.00025243283844904833,-9.586632312345863e-05,4.479546349197313e-05,0.0,0.0,0.0,0.0,0.0,0.0,0.0,6.625397163523283e-05,0.00015619921310083829,2.3813125639704502e-05,-0.00012481513776285702,0.0001214632756223466,5.264282448180779e-06,-1.8970029832532376e-05,-0.0007967570842155634,0.0008659711576101241,-0.0006318998049231797,-0.00018391420325232616,0.00025243283844904833,9.586632312345863e-05,-4.479546349197313e-05,0.24825400114059448,11.727136611938477,-1.0926239490509033,-21.693452835083008,-0.3079124093055725,-2.4887118339538574,0.30978721380233765,0
46,0.22475266456604004,-0.24825400114059448,-11.727136611938477,1.0926239490509033,21.693452835083008,0.3079124093055725,2.4887118339538574,-0.30978721380233765,0.0,0.0,0.0,0.0,0.0,0.0,0.0,-0.19910396496719274,0.5659102916269343,-0.06680287220370194,0.40045988413699857,-0.22962605071427816,0.0939662003578413,-0.31898023359695266,0.17281398364744688,-0.4876764460446541,-0.11149491385460107,-1.9462553712108677,0.13348443863187334,2.595545095496486,0.945263528991023,0.1728802376190821,-0.48752024683155326,-0.11147110072896137,-1.9463801863486305,0.1336059019074957,2.595550359778934,0.9452445589611904,0.0007967570842155634,-0.0008659711576101241,0.0006318998049231797,0.00018391420325232616,-0.00025243283844904833,-9.586632312345863e-05,4.479546349197313e-05,0.0,0.0,0.0,0.0,0.0,0.0,0.0,6.625397163523283e-05,0.00015619921310083829,2.3813125639704502e-05,-0.00012481513776285702,0.0001214632756223466,5.264282448180779e-06,-1.8970029832532376e-05,-0.0007967570842155634,0.0008659711576101241,-0.0006318998049231797,-0.00018391420325232616,0.00025243283844904833,9.586632312345863e-05,-4.479546349197313e-05,0.24825400114059448,11.727136611938477,-1.0926239490509033,-21.693452835083008,-0.3079124093055725,-2.4887118339538574,0.30978721380233765,0
47,0.2302842140197754,-0.17287558317184448,-11.802515029907227,1.1164276599884033,21.693452835083008,0.3143211007118225,2.4887118339538574,-0.29605430364608765,0.0,0.0,0.0,0.0,0.0,0.0,0.0,-0.1960971579530439,0.577787911130701,-0.0608414587793965,0.39218235183391037,-0.23021280234319436,0.09183465825737169,-0.3176651965419737,0.17280869393390522,-0.48767115633111247,-0.11149684696248117,-1.9462553977381596,0.13348266030020178,2.595545095496707,0.9452622449693995,0.1728802376190821,-0.48752024683155326,-0.11147110072896137,-1.9463801863486305,0.1336059019074957,2.595550359778934,0.9452445589611904,-0.0005574326186390311,0.0011537263180120402,0.0005701664844398617,-0.0005455389464657498,-0.0002901261278813635,0.00023272937611009168,-0.0005878746644008795,0.0,0.0,0.0,0.0,0.0,0.0,0.0,7.154368517689469e-05,0.00015090949955920419,2.574623351980776e-05,-0.00012478861047093837,0.00012324160729390576,5.264282227024353e-06,-1.76860082090613e-05,0.0005574326186390311,-0.0011537263180120402,-0.0005701664844398617,0.0005455389464657498,0.0002901261278813635,-0.00023272937611009168,0.0005878746644008795,0.17287558317184448,11.802515029907227,-1.1164276599884033,-21.693452835083008,-0.3143211007118225,-2.4887118339538574,0.29605430364608765,0
48,0.23474931716918945,-0.17287558317184448,-11.802515029907227,1.1164276599884033,21.693452835083008,0.3143211007118225,2.4887118339538574,-0.29605430364608765,0.0,0.0,0.0,0.0,0.0,0.0,0.0,-0.1960971579530439,0.577787911130701,-0.0608414587793965,0.39218235183391037,-0.23021280234319436,0.09183465825737169,-0.3176651965419737,0.17280869393390522,-0.48767115633111247,-0.11149684696248117,-1.9462553977381596,0.13348266030020178,2.595545095496707,0.9452622449693995,0.1728802376190821,-0.48752024683155326,-0.11147110072896137,-1.9463801863486305,0.1336059019074957,2.595550359778934,0.9452445589611904,-0.0005574326186390311,0.0011537263180120402,0.0005701664844398617,-0.0005455389464657498,-0.0002901261278813635,0.00023272937611009168,-0.0005878746644008795,0.0,0.0,0.0,0.0,0.0,0.0,0.0,7.154368517689469e-05,0.00015090949955920419,2.574623351980776e-05,-0.00012478861047093837,0.00012324160729390576,5.264282227024353e-06,-1.76860082090613e-05,0.0005574326186390311,-0.0011537263180120402,-0.0005701664844398617,0.0005455389464657498,0.0002901261278813635,-0.00023272937611009168,0.0005878746644008795,0.17287558317184448,11.802515029907227,-1.1164276599884033,-21.693452835083008,-0.3143211007118225,-2.4887118339538574,0.29605430364608765,0
49,0.2397603988647461,-0.19667929410934448,-11.699365615844727,1.1441986560821533,21.693452835083008,0.3143211007118225,2.4887118339538574,-0.26858848333358765,0.0,0.0,0.0,0.0,0.0,0.0,0.0,-0.20230821503841914,0.5748504344666686,-0.06921967754164997,0.39212645794273904,-0.22963776062800167,0.09237012548562372,-0.317547707966775,0.17281036436976047,-0.4876783948864853,-0.1114987910063034,-1.9462553712110173,0.13348372655505042,2.595545095496707,0.9452593138939613,0.1728802376190821,-0.48752024683155326,-0.11147110072896137,-1.9463801863486305,0.1336059019074957,2.595550359778934,0.9452445589611904,-0.0003638945845452266,-0.0013663450591757443,-8.829581217536035e-05,-0.0002621525026523839,-0.000491345067158825,-9.505164176958693e-06,-0.0019215911169256986,0.0,0.0,0.0,0.0,0.0,0.0,0.0,6.987324932164474e-05,0.000158148054932028,2.7690277342035108e-05,-0.00012481513761319896,0.00012217535244526956,5.264282227024353e-06,-1.475493277092177e-05,0.0003638945845452266,0.0013663450591757443,8.829581217536035e-05,0.0002621525026523839,0.000491345067158825,9.505164176958693e-06,0.0019215911169256986,0.19667929410934448,11.699365615844727,-1.1441986560821533,-21.693452835083008,-0.3143211007118225,-2.4887118339538574,0.26858848333358765,0
50,0.2447502613067627,-0.19667929410934448,-11.699365615844727,1.1441986560821533,21.693452835083008,0.3143211007118225,2.4887118339538574,-0.26858848333358765,0.0,0.0,0.0,0.0,0.0,0.0,0.0,-0.20230821503841914,0.5748504344666686,-0.06921967754164997,0.39212645794273904,-0.22963776062800167,0.09237012548562372,-0.317547707966775,0.17281036436976047,-0.4876783948864853,-0.1114987910063034,-1.9462553712110173,0.13348372655505042,2.595545095496707,0.9452593138939613,0.1728802376190821,-0.48752024683155326,-0.11147110072896137,-1.9463801863486305,0.1336059019074957,2.595550359778934,0.9452445589611904,-0.0003638945845452266,-0.0013663450591757443,-8.829581217536035e-05,-0.0002621525026523839,-0.000491345067158825,-9.505164176958693e-06,-0.0019215911169256986,0.0,0.0,0.0,0.0,0.0,0.0,0.0,6.987324932164474e-05,0.000158148054932028,2.7690277342035108e-05,-0.00012481513761319896,0.00012217535244526956,5.264282227024353e-06,-1.475493277092177e-05,0.0003638945845452266,0.0013663450591757443,8.829581217536035e-05,0.0002621525026523839,0.000491345067158825,9.505164176958693e-06,0.0019215911169256986,0.19667929410934448,11.699365615844727,-1.1441986560821533,-21.693452835083008,-0.3143211007118225,-2.4887118339538574,0.26858848333358765,0
51,0.2497549057006836,-0.19667929410934448,-11.750940322875977,1.1680023670196533,21.693452835083008,0.2960105538368225,2.4951205253601074,-0.28232139348983765,0.0,0.0,0.0,0.0,0.0,0.0,0.0,-0.20666288394024296,0.5613283969083005,-0.07012256020753299,0.3989318478242121,-0.22935775511055922,0.09339146174156383,-0.31825277372255417,0.17281036436976047,-0.48767477560879885,-0.11150094409778076,-1.9462553712108677,0.13348576106627777,2.595544383419884,0.9452604775097971,0.1728802376190821,-0.48752024683155326,-0.11147110072896137,-1.9463801863486305,0.1336059019074957,2.595550359778934,0.9452445589611904,-0.0006738243868488888,-0.0001705370515225228,-0.0010792724695260745,-2.4464365890730483e-05,0.00030915178582035906,-7.360196407288766e-05,-0.00076453483489151,0.0,0.0,0.0,0.0,0.0,0.0,0.0,6.987324932164474e-05,0.00015452877724558833,2.9843368819393312e-05,-0.00012481513776285702,0.00012014084121791946,5.976359049864044e-06,-1.5918548606719263e-05,0.0006738243868488888,0.0001705370515225228,0.0010792724695260745,2.4464365890730483e-05,-0.00030915178582035906,7.360196407288766e-05,0.00076453483489151,0.19667929410934448,11.750940322875977,-1.1680023670196533,-21.693452835083008,-0.2960105538368225,-2.4951205253601074,0.28232139348983765,0
52,0.2547569274902344,-0.19667929410934448,-11.750940322875977,1.1680023670196533,21.693452835083008,0.2960105538368225,2.4951205253601074,-0.28232139348983765,0.0,0.0,0.0,0.0,0.0,0.0,0.0,-0.20666288394024296,0.5613283969083005,-0.07012256020753299,0.3989318478242121,-0.22935775511055922,0.09339146174156383,-0.31825277372255417,0.17281036436976047,-0.48767477560879885,-0.11150094409778076,-1.9462553712108677,0.13348576106627777,2.595544383419884,0.9452604775097971,0.1728802376190821,-0.48752024683155326,-0.11147110072896137,-1.9463801863486305,0.1336059019074957,2.595550359778934,0.9452445589611904,-0.0006738243868488888,-0.0001705370515225228,-0.0010792724695260745,-2.4464365890730483e-05,0.00030915178582035906,-7.360196407288766e-05,-0.00076453483489151,0.0,0.0,0.0,0.0,0.0,0.0,0.0,6.987324932164474e-05,0.00015452877724558833,2.9843368819393312e-05,-0.00012481513776285702,0.00012014084121791946,5.976359049864044e-06,-1.5918548606719263e-05,0.0006738243868488888,0.0001705370515225228,0.0010792724695260745,2.4464365890730483e-05,-0.00030915178582035906,7.360196407288766e-05,0.00076453483489151,0.19667929410934448,11.750940322875977,-1.1680023670196533,-21.693452835083008,-0.2960105538368225,-2.4951205253601074,0.28232139348983765,0
53,0.2597529888153076,-0.17287558317184448,-11.750940322875977,1.1918060779571533,21.641878128051758,0.3079124093055725,2.5015292167663574,-0.28964561223983765,0.0,0.0,0.0,0.0,0.0,0.0,0.0,-0.1969607914489168,0.5715802502768934,-0.05279736192495378,0.3944867069271139,-0.2302499356553997,0.0929202107229245,-0.31718866712441135,0.17280869393390522,-0.48767477560879885,-0.11150205003674792,-1.9462517519331812,0.1334844386378924,2.5955436713430613,0.9452615194835771,0.1728802376190821,-0.48752024683155326,-0.11147110072896137,-1.9463801863486305,0.1336059019074957,2.595550359778934,0.9452445589611904,-0.00022403104414503916,5.097595469177862e-05,-0.0007327934480481366,0.0009592085744682114,-0.00021640137499202822,-0.00016905503044008192,-0.0004119515691883806,0.0,0.0,0.0,0.0,0.0,0.0,0.0,7.154368517689469e-05,0.00015452877724558833,3.0949307786548585e-05,-0.00012843441544929668,0.00012146326960330023,6.688435872703735e-06,-1.696052238664425e-05,0.00022403104414503916,-5.097595469177862e-05,0.0007327934480481366,-0.0009592085744682114,0.00021640137499202822,0.00016905503044008192,0.0004119515691883806,0.17287558317184448,11.750940322875977,-1.1918060779571533,-21.641878128051758,-0.3079124093055725,-2.5015292167663574,0.28964561223983765,0
54,0.2647712230682373,-0.17287558317184448,-11.750940322875977,1.1918060779571533,21.641878128051758,0.3079124093055725,2.5015292167663574,-0.28964561223983765,0.0,0.0,0.0,0.0,0.0,0.0,0.0,-0.1969607914489168,0.5715802502768934,-0.05279736192495378,0.3944867069271139,-0.2302499356553997,0.0929202107229245,-0.31718866712441135,0.17280869393390522,-0.48767477560879885,-0.11150205003674792,-1.9462517519331812,0.1334844386378924,2.5955436713430613,0.9452615194835771,0.1728802376190821,-0.48752024683155326,-0.11147110072896137,-1.9463801863486305,0.1336059019074957,2.595550359778934,0.9452445589611904,-0.00022403104414503916,5.097595469177862e-05,-0.0007327934480481366,0.0009592085744682114,-0.00021640137499202822,-0.00016905503044008192,-0.0004119515691883806,0.0,0.0,0.0,0.0,0.0,0.0,0.0,7.154368517689469e-05,0.00015452877724558833,3.0949307786548585e-05,-0.00012843441544929668,0.00012146326960330023,6.688435872703735e-06,-1.696052238664425e-05,0.00022403104414503916,-5.097595469177862e-05,0.0007327934480481366,-0.0009592085744682114,0.00021640137499202822,0.00016905503044008192,0.0004119515691883806,0.17287558317184448,11.750940322875977,-1.1918060779571533,-21.641878128051758,-0.3079124093055725,-2.5015292167663574,0.28964561223983765,0
55,0.2697579860687256,-0.17287558317184448,-11.802515029907227,1.1680023670196533,21.693452835083008,0.2960105538368225,2.4951205253601074,-0.32352012395858765,0.0,0.0,0.0,0.0,0.0,0.0,0.0,-0.19835923298780928,0.5742666119248461,-0.056952987044295765,0.3949135628346942,-0.2299793458856079,0.09386313766153276,-0.317555949958655,0.17280869393390522,-0.48767115633111247,-0.11150233540861253,-1.9462553712108677,0.1334857610662778,2.595544383419884,0.9452654040005096,0.1728802376190821,-0.48752024683155326,-0.11147110072896137,-1.9463801863486305,0.1336059019074957,2.595550359778934,0.9452445589611904,-0.0001773844785148518,0.0016592711189798632,-8.802987514582711e-05,1.6646642004734222e-05,0.00040306755368837787,-0.0001863780325817426,0.00046497547438444553,0.0,0.0,0.0,0.0,0.0,0.0,0.0,7.154368517689469e-05,0.00015090949955920419,3.123467965115978e-05,-0.00012481513776285702,0.0001201408412178917,5.976359049864044e-06,-2.0845039319206116e-05,0.0001773844785148518,-0.0016592711189798632,8.802987514582711e-05,-1.6646642004734222e-05,-0.00040306755368837787,0.0001863780325817426,-0.00046497547438444553,0.17287558317184448,11.802515029907227,-1.1680023670196533,-21.693452835083008,-0.2960105538368225,-2.4951205253601074,0.32352012395858765,0
56,0.2749972343444824,-0.17287558317184448,-11.802515029907227,1.1680023670196533,21.693452835083008,0.2960105538368225,2.4951205253601074,-0.32352012395858765,0.0,0.0,0.0,0.0,0.0,0.0,0.0,-0.19835923298780928,0.5742666119248461,-0.056952987044295765,0.3949135628346942,-0.2299793458856079,0.09386313766153276,-0.317555949958655,0.17280869393390522,-0.48767115633111247,-0.11150233540861253,-1.9462553712108677,0.1334857610662778,2.595544383419884,0.9452654040005096,0.1728802376190821,-0.48752024683155326,-0.11147110072896137,-1.9463801863486305,0.1336059019074957,2.595550359778934,0.9452445589611904,-0.0001773844785148518,0.0016592711189798632,-8.802987514582711e-05,1.6646642004734222e-05,0.00040306755368837787,-0.0001863780325817426,0.00046497547438444553,0.0,0.0,0.0,0.0,0.0,0.0,0.0,7.154368517689469e-05,0.00015090949955920419,3.123467965115978e-05,-0.00012481513776285702,0.0001201408412178917,5.976359049864044e-06,-2.0845039319206116e-05,0.0001773844785148518,-0.0016592711189798632,8.802987514582711e-05,-1.6646642004734222e-05,-0.00040306755368837787,0.0001863780325817426,-0.00046497547438444553,0.17287558317184448,11.802515029907227,-1.1680023670196533,-21.693452835083008,-0.2960105538368225,-2.4951205253601074,0.32352012395858765,0
57,0.2797515392303467,-0.12130087614059448,-11.750940322875977,1.1441986560821533,21.693452835083008,0.3024192452430725,2.4887118339538574,-0.30337852239608765,0.0,0.0,0.0,0.0,0.0,0.0,0.0,-0.1985007848530309,0.5670531870200803,-0.05893167640849348,0.3994752057579626,-0.22955973527082865,0.09427795313750219,-0.31961082130007523,0.1728050746562188,-0.48767477560879885,-0.11150131388950878,-1.9462553977018209,0.13348503582574048,2.595545095496707,0.9452615703743404,0.1728802376190821,-0.48752024683155326,-0.11147110072896137,-1.9463801863486305,0.1336059019074957,2.595550359778934,0.9452445589611904,-0.001460267403476638,8.323042209912392e-06,4.937438413423687e-05,-0.00023672773764535186,4.1909806785675927e-05,7.088714874364983e-05,0.00017199767048857367,0.0,0.0,0.0,0.0,0.0,0.0,0.0,7.516296286330659e-05,0.00015452877724558833,3.0213160547409856e-05,-0.00012478864680964818,0.00012086608175521096,5.264282227024353e-06,-1.7011413150025412e-05,0.001460267403476638,-8.323042209912392e-06,-4.937438413423687e-05,0.00023672773764535186,-4.1909806785675927e-05,-7.088714874364983e-05,-0.00017199767048857367,0.12130087614059448,11.750940322875977,-1.1441986560821533,-21.693452835083008,-0.3024192452430725,-2.4887118339538574,0.30337852239608765,0
58,0.2847473621368408,-0.12130087614059448,-11.750940322875977,1.1441986560821533,21.693452835083008,0.3024192452430725,2.4887118339538574,-0.30337852239608765,0.0,0.0,0.0,0.0,0.0,0.0,0.0,-0.1985007848530309,0.5670531870200803,-0.05893167640849348,0.3994752057579626,-0.22955973527082865,0.09427795313750219,-0.31961082130007523,0.1728050746562188,-0.48767477560879885,-0.11150131388950878,-1.9462553977018209,0.13348503582574048,2.595545095496707,0.9452615703743404,0.1728802376190821,-0.48752024683155326,-0.11147110072896137,-1.9463801863486305,0.1336059019074957,2.595550359778934,0.9452445589611904,-0.001460267403476638,8.323042209912392e-06,4.937438413423687e-05,-0.00023672773764535186,4.1909806785675927e-05,7.088714874364983e-05,0.00017199767048857367,0.0,0.0,0.0,0.0,0.0,0.0,0.0,7.516296286330659e-05,0.00015452877724558833,3.0213160547409856e-05,-0.00012478864680964818,0.00012086608175521096,5.264282227024353e-06,-1.7011413150025412e-05,0.001460267403476638,-8.323042209912392e-06,-4.937438413423687e-05,0.00023672773764535186,-4.1909806785675927e-05,-7.088714874364983e-05,-0.00017199767048857367,0.12130087614059448,11.750940322875977,-1.1441986560821533,-21.693452835083008,-0.3024192452430725,-2.4887118339538574,0.30337852239608765,0
59,0.2897505760192871,-0.19667929410934448,-11.699365615844727,1.1164276599884033,21.693452835083008,0.3079124093055725,2.4951205253601074,-0.30337852239608765,0.0,0.0,0.0,0.0,0.0,0.0,0.0,-0.1920596228303127,0.5661738060747071,-0.05185868427375469,0.40337982482115936,-0.22986781889928765,0.09437946708786835,-0.3179564990335591,0.17281036436976047,-0.4876783948864853,-0.11149968856594976,-1.9462553713200335,0.1334844386378181,2.595544383419884,0.9452631779555661,0.1728802376190821,-0.48752024683155326,-0.11147110072896137,-1.9463801863486305,0.1336059019074957,2.595550359778934,0.9452445589611904,0.00017562117072784448,-0.0010652871153046454,0.0007964010589929494,0.0003020014853643685,-0.0001356883737495368,-0.00010888195506326247,0.0003197194784219001,0.0,0.0,0.0,0.0,0.0,0.0,0.0,6.987324932164474e-05,0.000158148054932028,2.8587836988391846e-05,-0.0001248150285970695,0.0001214632696776019,5.976359049864044e-06,-1.8618994375718678e-05,-0.00017562117072784448,0.0010652871153046454,-0.0007964010589929494,-0.0003020014853643685,0.0001356883737495368,0.00010888195506326247,-0.0003197194784219001,0.19667929410934448,11.699365615844727,-1.1164276599884033,-21.693452835083008,-0.3079124093055725,-2.4951205253601074,0.30337852239608765,0
60,0.2897505760192871,-0.19667929410934448,-11.699365615844727,1.1164276599884033,21.693452835083008,0.3079124093055725,2.4951205253601074,-0.30337852239608765,0.0,0.0,0.0,0.0,0.0,0.0,0.0,-0.1920596228303127,0.5661738060747071,-0.05185868427375469,0.40337982482115936,-0.22986781889928765,0.09437946708786835,-0.3179564990335591,0.17281036436976047,-0.4876783948864853,-0.11149968856594976,-1.9462553713200335,0.1334844386378181,2.595544383419884,0.9452631779555661,0.1728802376190821,-0.48752024683155326,-0.11147110072896137,-1.9463801863486305,0.1336059019074957,2.595550359778934,0.9452445589611904,0.00017562117072784448,-0.0010652871153046454,0.0007964010589929494,0.0003020014853643685,-0.0001356883737495368,-0.00010888195506326247,0.0003197194784219001,0.0,0.0,0.0,0.0,0.0,0.0,0.0,6.987324932164474e-05,0.000158148054932028,2.8587836988391846e-05,-0.0001248150285970695,0.0001214632696776019,5.976359049864044e-06,-1.8618994375718678e-05,-0.00017562117072784448,0.0010652871153046454,-0.0007964010589929494,-0.0003020014853643685,0.0001356883737495368,0.00010888195506326247,-0.0003197194784219001,0.19667929410934448,11.699365615844727,-1.1164276599884033,-21.693452835083008,-0.3079124093055725,-2.4951205253601074,0.30337852239608765,0
61,0.29975152015686035,-0.19667929410934448,-11.699365615844727,1.1164276599884033,21.693452835083008,0.3079124093055725,2.4951205253601074,-0.30337852239608765,0.0,0.0,0.0,0.0,0.0,0.0,0.0,-0.1920596228303127,0.5661738060747071,-0.05185868427375469,0.40337982482115936,-0.22986781889928765,0.09437946708786835,-0.3179564990335591,0.17281036436976047,-0.4876783948864853,-0.11149968856594976,-1.9462553713200335,0.1334844386378181,2.595544383419884,0.9452631779555661,0.1728802376190821,-0.48752024683155326,-0.11147110072896137,-1.9463801863486305,0.1336059019074957,2.595550359778934,0.9452445589611904,0.00017562117072784448,-0.0010652871153046454,0.0007964010589929494,0.0003020014853643685,-0.0001356883737495368,-0.00010888195506326247,0.0003197194784219001,0.0,0.0,0.0,0.0,0.0,0.0,0.0,6.987324932164474e-05,0.000158148054932028,2.8587836988391846e-05,-0.0001248150285970695,0.0001214632696776019,5.976359049864044e-06,-1.8618994375718678e-05,-0.00017562117072784448,0.0010652871153046454,-0.0007964010589929494,-0.0003020014853643685,0.0001356883737495368,0.00010888195506326247,-0.0003197194784219001,0.19667929410934448,11.699365615844727,-1.1164276599884033,-21.693452835083008,-0.3079124093055725,-2.4951205253601074,0.30337852239608765,0
62,0.3047471046447754,-0.19667929410934448,-11.699365615844727,1.1164276599884033,21.693452835083008,0.3079124093055725,2.4951205253601074,-0.30337852239608765,0.0,0.0,0.0,0.0,0.0,0.0,0.0,-0.1920596228303127,0.5661738060747071,-0.05185868427375469,0.40337982482115936,-0.22986781889928765,0.09437946708786835,-0.3179564990335591,0.17281036436976047,-0.4876783948864853,-0.11149968856594976,-1.9462553713200335,0.1334844386378181,2.595544383419884,0.9452631779555661,0.1728802376190821,-0.48752024683155326,-0.11147110072896137,-1.9463801863486305,0.1336059019074957,2.595550359778934,0.9452445589611904,0.00017562117072784448,-0.0010652871153046454,0.0007964010589929494,0.0003020014853643685,-0.0001356883737495368,-0.00010888195506326247,0.0003197194784219001,0.0,0.0,0.0,0.0,0.0,0.0,0.0,6.987324932164474e-05,0.000158148054932028,2.8587836988391846e-05,-0.0001248150285970695,0.0001214632696776019,5.976359049864044e-06,-1.8618994375718678e-05,-0.00017562117072784448,0.0010652871153046454,-0.0007964010589929494,-0.0003020014853643685,0.0001356883737495368,0.00010888195506326247,-0.0003197194784219001,0.19667929410934448,11.699365615844727,-1.1164276599884033,-21.693452835083008,-0.3079124093055725,-2.4951205253601074,0.30337852239608765,0
63,0.31054091453552246,-0.22445029020309448,-11.750940322875977,1.1441986560821533,21.717256546020508,0.3079124093055725,2.4887118339538574,-0.28964561223983765,0.0,0.0,0.0,0.0,0.0,0.0,0.0,-0.19813997375125064,0.5679577255849886,-0.06098859643178411,0.4021011889531931,-0.22931855551591843,0.09461414706333864,-0.31667974718009306,0.17281231321159163,-0.48767477560879885,-0.11150066697399547,-1.9462570416467246,0.1334844386378924,2.595545095496707,0.9452616519201746,0.1728802376190821,-0.48752024683155326,-0.11147110072896137,-1.9463801863486305,0.1336059019074957,2.595550359778934,0.9452445589611904,0.0002266699099845988,0.00011655901273604717,-0.000675520855877597,-0.0008987654095713112,-0.0001033013548851862,0.0002455762732830046,-0.0006939030921165074,0.0,0.0,0.0,0.0,0.0,0.0,0.0,6.792440749048279e-05,0.00015452877724558833,2.956624503409888e-05,-0.00012314470190588622,0.00012146326960330023,5.264282227024353e-06,-1.7092958984221696e-05,-0.0002266699099845988,-0.00011655901273604717,0.000675520855877597,0.0008987654095713112,0.0001033013548851862,-0.0002455762732830046,0.0006939030921165074,0.22445029020309448,11.750940322875977,-1.1441986560821533,-21.717256546020508,-0.3079124093055725,-2.4887118339538574,0.28964561223983765,0
64,0.31475067138671875,-0.22445029020309448,-11.750940322875977,1.1441986560821533,21.717256546020508,0.3079124093055725,2.4887118339538574,-0.28964561223983765,0.0,0.0,0.0,0.0,0.0,0.0,0.0,-0.19813997375125064,0.5679577255849886,-0.06098859643178411,0.4021011889531931,-0.22931855551591843,0.09461414706333864,-0.31667974718009306,0.17281231321159163,-0.48767477560879885,-0.11150066697399547,-1.9462570416467246,0.1334844386378924,2.595545095496707,0.9452616519201746,0.1728802376190821,-0.48752024683155326,-0.11147110072896137,-1.9463801863486305,0.1336059019074957,2.595550359778934,0.9452445589611904,0.0002266699099845988,0.00011655901273604717,-0.000675520855877597,-0.0008987654095713112,-0.0001033013548851862,0.0002455762732830046,-0.0006939030921165074,0.0,0.0,0.0,0.0,0.0,0.0,0.0,6.792440749048279e-05,0.00015452877724558833,2.956624503409888e-05,-0.00012314470190588622,0.00012146326960330023,5.264282227024353e-06,-1.7092958984221696e-05,-0.0002266699099845988,-0.00011655901273604717,0.000675520855877597,0.0008987654095713112,0.0001033013548851862,-0.0002455762732830046,0.0006939030921165074,0.22445029020309448,11.750940322875977,-1.1441986560821533,-21.717256546020508,-0.3079124093055725,-2.4887118339538574,0.28964561223983765,0
65,0.3197598457336426,-0.22445029020309448,-11.750940322875977,1.1164276599884033,21.641878128051758,0.3198142647743225,2.4951205253601074,-0.26217979192733765,0.0,0.0,0.0,0.0,0.0,0.0,0.0,-0.19342117182339644,0.5854771449176989,-0.052482761461372734,0.3909350165138519,-0.22957333727726414,0.09234241704442782,-0.317982689851832,0.17281231321159163,-0.48767477560879885,-0.11149890031624042,-1.9462517529156735,0.13348311620950695,2.595544383419884,0.9452585615908163,0.1728802376190821,-0.48752024683155326,-0.11147110072896137,-1.9463801863486305,0.1336059019074957,2.595550359778934,0.9452445589611904,0.0011326895318780298,0.00034380965140073504,-0.0001492553212396755,0.0010511780962770803,-0.000647620188791046,0.0004142285841893153,-0.0019940638044900474,0.0,0.0,0.0,0.0,0.0,0.0,0.0,6.792440749048279e-05,0.00015452877724558833,2.779958727905374e-05,-0.00012843343295698695,0.0001227856979887365,5.976359049864044e-06,-1.4002629625919916e-05,-0.0011326895318780298,-0.00034380965140073504,0.0001492553212396755,-0.0010511780962770803,0.000647620188791046,-0.0004142285841893153,0.0019940638044900474,0.22445029020309448,11.750940322875977,-1.1164276599884033,-21.641878128051758,-0.3198142647743225,-2.4951205253601074,0.26217979192733765,0
66,0.3247809410095215,-0.22445029020309448,-11.750940322875977,1.1164276599884033,21.641878128051758,0.3198142647743225,2.4951205253601074,-0.26217979192733765,0.0,0.0,0.0,0.0,0.0,0.0,0.0,-0.19342117182339644,0.5854771449176989,-0.052482761461372734,0.3909350165138519,-0.22957333727726414,0.09234241704442782,-0.317982689851832,0.17281231321159163,-0.48767477560879885,-0.11149890031624042,-1.9462517529156735,0.13348311620950695,2.595544383419884,0.9452585615908163,0.1728802376190821,-0.48752024683155326,-0.11147110072896137,-1.9463801863486305,0.1336059019074957,2.595550359778934,0.9452445589611904,0.0011326895318780298,0.00034380965140073504,-0.0001492553212396755,0.0010511780962770803,-0.000647620188791046,0.0004142285841893153,-0.0019940638044900474,0.0,0.0,0.0,0.0,0.0,0.0,0.0,6.792440749048279e-05,0.00015452877724558833,2.779958727905374e-05,-0.00012843343295698695,0.0001227856979887365,5.976359049864044e-06,-1.4002629625919916e-05,-0.0011326895318780298,-0.00034380965140073504,0.0001492553212396755,-0.0010511780962770803,0.000647620188791046,-0.0004142285841893153,0.0019940638044900474,0.22445029020309448,11.750940322875977,-1.1164276599884033,-21.641878128051758,-0.3198142647743225,-2.4951205253601074,0.26217979192733765,0
67,0.32976436614990234,-0.19667929410934448,-11.774744033813477,1.1164276599884033,21.693452835083008,0.2960105538368225,2.5015292167663574,-0.28964561223983765,0.0,0.0,0.0,0.0,0.0,0.0,0.0,-0.19979338694687762,0.5631625725309027,-0.06443039990604818,0.40332016008646715,-0.22951197818869462,0.09555707145410315,-0.31628922727958403,0.17281036436976047,-0.4876731051729436,-0.11149960953410229,-1.946255380041191,0.1334857610662778,2.5955436713430613,0.9452573090590749,0.1728802376190821,-0.48752024683155326,-0.11147110072896137,-1.9463801863486305,0.1336059019074957,2.595550359778934,0.9452445589611904,-0.0007075305183816573,0.00021975368390125458,0.0003235301227326309,-0.0004987006730211744,0.0003435223365897608,-0.0003727188184444257,-0.000501819125726573,0.0,0.0,0.0,0.0,0.0,0.0,0.0,6.987324932164474e-05,0.00015285834139033838,2.850880514092269e-05,-0.0001248063074394956,0.0001201408412178917,6.688435872703735e-06,-1.2750097884484113e-05,0.0007075305183816573,-0.00021975368390125458,-0.0003235301227326309,0.0004987006730211744,-0.0003435223365897608,0.0003727188184444257,0.000501819125726573,0.19667929410934448,11.774744033813477,-1.1164276599884033,-21.693452835083008,-0.2960105538368225,-2.5015292167663574,0.28964561223983765,0
68,0.33475375175476074,-0.19667929410934448,-11.774744033813477,1.1164276599884033,21.693452835083008,0.2960105538368225,2.5015292167663574,-0.28964561223983765,0.0,0.0,0.0,0.0,0.0,0.0,0.0,-0.19979338694687762,0.5631625725309027,-0.06443039990604818,0.40332016008646715,-0.22951197818869462,0.09555707145410315,-0.31628922727958403,0.17281036436976047,-0.4876731051729436,-0.11149960953410229,-1.946255380041191,0.1334857610662778,2.5955436713430613,0.9452573090590749,0.1728802376190821,-0.48752024683155326,-0.11147110072896137,-1.9463801863486305,0.1336059019074957,2.595550359778934,0.9452445589611904,-0.0007075305183816573,0.00021975368390125458,0.0003235301227326309,-0.0004987006730211744,0.0003435223365897608,-0.0003727188184444257,-0.000501819125726573,0.0,0.0,0.0,0.0,0.0,0.0,0.0,6.987324932164474e-05,0.00015285834139033838,2.850880514092269e-05,-0.0001248063074394956,0.0001201408412178917,6.688435872703735e-06,-1.2750097884484113e-05,0.0007075305183816573,-0.00021975368390125458,-0.0003235301227326309,0.0004987006730211744,-0.0003435223365897608,0.0003727188184444257,0.000501819125726573,0.19667929410934448,11.774744033813477,-1.1164276599884033,-21.693452835083008,-0.2960105538368225,-2.5015292167663574,0.28964561223983765,0
69,0.3397488594055176,-0.17287558317184448,-11.774744033813477,1.1441986560821533,21.669649124145508,0.3024192452430725,2.4951205253601074,-0.28964561223983765,0.0,0.0,0.0,0.0,0.0,0.0,0.0,-0.202792169931498,0.5644163142870566,-0.06447945239224005,0.40050978296349576,-0.22949412013619883,0.09547551506191039,-0.31621798470399987,0.17280869393390522,-0.4876731051729436,-0.11149872119470709,-1.9462537007750622,0.13348504898945487,2.595544383419884,0.9452615999151033,0.1728802376190821,-0.48752024683155326,-0.11147110072896137,-1.9463801863486305,0.1336059019074957,2.595550359778934,0.9452445589611904,-0.000758180299399978,0.0003868934896168497,-0.00041591879070631193,0.0004878771757053687,0.00020219753504223894,-0.00015468722763525928,-0.0009782391452655876,0.0,0.0,0.0,0.0,0.0,0.0,0.0,7.154368517689469e-05,0.00015285834139033838,2.7620465745725742e-05,-0.00012648557356831347,0.00012085291804081466,5.976359049864044e-06,-1.7040953912861312e-05,0.000758180299399978,-0.0003868934896168497,0.00041591879070631193,-0.0004878771757053687,-0.00020219753504223894,0.00015468722763525928,0.0009782391452655876,0.17287558317184448,11.774744033813477,-1.1441986560821533,-21.669649124145508,-0.3024192452430725,-2.4951205253601074,0.28964561223983765,0
70,0.3447456359863281,-0.17287558317184448,-11.774744033813477,1.1441986560821533,21.669649124145508,0.3024192452430725,2.4951205253601074,-0.28964561223983765,0.0,0.0,0.0,0.0,0.0,0.0,0.0,-0.202792169931498,0.5644163142870566,-0.06447945239224005,0.40050978296349576,-0.22949412013619883,0.09547551506191039,-0.31621798470399987,0.17280869393390522,-0.4876731051729436,-0.11149872119470709,-1.9462537007750622,0.13348504898945487,2.595544383419884,0.9452615999151033,0.1728802376190821,-0.48752024683155326,-0.11147110072896137,-1.9463801863486305,0.1336059019074957,2.595550359778934,0.9452445589611904,-0.000758180299399978,0.0003868934896168497,-0.00041591879070631193,0.0004878771757053687,0.00020219753504223894,-0.00015468722763525928,-0.0009782391452655876,0.0,0.0,0.0,0.0,0.0,0.0,0.0,7.154368517689469e-05,0.00015285834139033838,2.7620465745725742e-05,-0.00012648557356831347,0.00012085291804081466,5.976359049864044e-06,-1.7040953912861312e-05,0.000758180299399978,-0.0003868934896168497,0.00041591879070631193,-0.0004878771757053687,-0.00020219753504223894,0.00015468722763525928,0.0009782391452655876,0.17287558317184448,11.774744033813477,-1.1441986560821533,-21.669649124145508,-0.3024192452430725,-2.4951205253601074,0.28964561223983765,0
71,0.349745512008667,-0.22445029020309448,-11.802515029907227,1.1680023670196533,21.669649124145508,0.2960105538368225,2.4951205253601074,-0.26858848333358765,0.0,0.0,0.0,0.0,0.0,0.0,0.0,-0.20298938261442945,0.5653528062255648,-0.06444933712123559,0.39670994289924366,-0.2291891234373844,0.09499177065810542,-0.3187169659170505,0.17281231321159163,-0.48767115633111247,-0.11150047024682,-1.9462537007750125,0.1334857610662778,2.595544383419884,0.9452592736673366,0.1728802376190821,-0.48752024683155326,-0.11147110072896137,-1.9463801863486305,0.1336059019074957,2.595550359778934,0.9452445589611904,0.0003459218671876874,0.000997062394967871,-0.0009599339206706527,7.836189024727522e-05,0.0003850131010894545,-2.3012170845842782e-05,-0.0019391968477272983,0.0,0.0,0.0,0.0,0.0,0.0,0.0,6.792440749048279e-05,0.00015090949955920419,2.9369517858632288e-05,-0.00012648557361805146,0.0001201408412178917,5.976359049864044e-06,-1.4714706146223833e-05,-0.0003459218671876874,-0.000997062394967871,0.0009599339206706527,-7.836189024727522e-05,-0.0003850131010894545,2.3012170845842782e-05,0.0019391968477272983,0.22445029020309448,11.802515029907227,-1.1680023670196533,-21.669649124145508,-0.2960105538368225,-2.4951205253601074,0.26858848333358765,0
72,0.35475873947143555,-0.22445029020309448,-11.802515029907227,1.1680023670196533,21.669649124145508,0.2960105538368225,2.4951205253601074,-0.26858848333358765,0.0,0.0,0.0,0.0,0.0,0.0,0.0,-0.20298938261442945,0.5653528062255648,-0.06444933712123559,0.39670994289924366,-0.2291891234373844,0.09499177065810542,-0.3187169659170505,0.17281231321159163,-0.48767115633111247,-0.11150047024682,-1.9462537007750125,0.1334857610662778,2.595544383419884,0.9452592736673366,0.1728802376190821,-0.48752024683155326,-0.11147110072896137,-1.9463801863486305,0.1336059019074957,2.595550359778934,0.9452445589611904,0.0003459218671876874,0.000997062394967871,-0.0009599339206706527,7.836189024727522e-05,0.0003850131010894545,-2.3012170845842782e-05,-0.0019391968477272983,0.0,0.0,0.0,0.0,0.0,0.0,0.0,6.792440749048279e-05,0.00015090949955920419,2.9369517858632288e-05,-0.00012648557361805146,0.0001201408412178917,5.976359049864044e-06,-1.4714706146223833e-05,-0.0003459218671876874,-0.000997062394967871,0.0009599339206706527,-7.836189024727522e-05,-0.0003850131010894545,2.3012170845842782e-05,0.0019391968477272983,0.22445029020309448,11.802515029907227,-1.1680023670196533,-21.669649124145508,-0.2960105538368225,-2.4951205253601074,0.26858848333358765,0
73,0.3597590923309326,-0.19667929410934448,-11.750940322875977,1.0926239490509033,21.669649124145508,0.3024192452430725,2.4951205253601074,-0.31711143255233765,0.0,0.0,0.0,0.0,0.0,0.0,0.0,-0.2044405257651914,0.5564851673097524,-0.06645182737395514,0.3980948763488606,-0.22891595865220893,0.09537661373775226,-0.3193424395240193,0.17281036436976047,-0.48767477560879885,-0.11149553602088474,-1.9462537007750125,0.13348504898945487,2.595544383419884,0.9452610849029424,0.1728802376190821,-0.48752024683155326,-0.11147110072896137,-1.9463801863486305,0.1336059019074957,2.595550359778934,0.9452445589611904,-0.00034326842488866205,-0.00030617387953891606,0.0007450257018670727,0.0002625035515585189,4.4188695557161765e-05,7.009939396159236e-05,0.0008802354657791289,0.0,0.0,0.0,0.0,0.0,0.0,0.0,6.987324932164474e-05,0.00015452877724558833,2.4435291923377567e-05,-0.00012648557361805146,0.00012085291804081466,5.976359049864044e-06,-1.6525941751943662e-05,0.00034326842488866205,0.00030617387953891606,-0.0007450257018670727,-0.0002625035515585189,-4.4188695557161765e-05,-7.009939396159236e-05,-0.0008802354657791289,0.19667929410934448,11.750940322875977,-1.0926239490509033,-21.669649124145508,-0.3024192452430725,-2.4951205253601074,0.31711143255233765,0
74,0.36475419998168945,-0.19667929410934448,-11.750940322875977,1.0926239490509033,21.669649124145508,0.3024192452430725,2.4951205253601074,-0.31711143255233765,0.0,0.0,0.0,0.0,0.0,0.0,0.0,-0.2044405257651914,0.5564851673097524,-0.06645182737395514,0.3980948763488606,-0.22891595865220893,0.09537661373775226,-0.3193424395240193,0.17281036436976047,-0.48767477560879885,-0.11149553602088474,-1.9462537007750125,0.13348504898945487,2.595544383419884,0.9452610849029424,0.1728802376190821,-0.48752024683155326,-0.11147110072896137,-1.9463801863486305,0.1336059019074957,2.595550359778934,0.9452445589611904,-0.00034326842488866205,-0.00030617387953891606,0.0007450257018670727,0.0002625035515585189,4.4188695557161765e-05,7.009939396159236e-05,0.0008802354657791289,0.0,0.0,0.0,0.0,0.0,0.0,0.0,6.987324932164474e-05,0.00015452877724558833,2.4435291923377567e-05,-0.00012648557361805146,0.00012085291804081466,5.976359049864044e-06,-1.6525941751943662e-05,0.00034326842488866205,0.00030617387953891606,-0.0007450257018670727,-0.0002625035515585189,-4.4188695557161765e-05,-7.009939396159236e-05,-0.0008802354657791289,0.19667929410934448,11.750940322875977,-1.0926239490509033,-21.669649124145508,-0.3024192452430725,-2.4951205253601074,0.31711143255233765,0
75,0.3697640895843506,-0.22445029020309448,-11.727136611938477,1.1680023670196533,21.693452835083008,0.3079124093055725,2.5015292167663574,-0.33084434270858765,0.0,0.0,0.0,0.0,0.0,0.0,0.0,-0.19794169642810164,0.5594848139313892,-0.05769857398728991,0.39457180170862405,-0.22949376514108522,0.09493656303252862,-0.31875543167669956,0.17281231321159163,-0.4876764460446541,-0.1115025721740255,-1.9462553712108677,0.1334844386378924,2.5955436713430613,0.9452657479712473,0.1728802376190821,-0.48752024683155326,-0.11147110072896137,-1.9463801863486305,0.1336059019074957,2.595550359778934,0.9452445589611904,0.0010093002213475714,-0.0006976160412304128,-0.00042832572256912846,-0.0002968849347655232,-0.00015168510401988988,-0.00015427740403220372,0.0007278871316651273,0.0,0.0,0.0,0.0,0.0,0.0,0.0,6.792440749048279e-05,0.00015619921310083829,3.147144506412958e-05,-0.00012481513776285702,0.00012146326960330023,6.688435872703735e-06,-2.118901005687679e-05,-0.0010093002213475714,0.0006976160412304128,0.00042832572256912846,0.0002968849347655232,0.00015168510401988988,0.00015427740403220372,-0.0007278871316651273,0.22445029020309448,11.727136611938477,-1.1680023670196533,-21.693452835083008,-0.3079124093055725,-2.5015292167663574,0.33084434270858765,0
76,0.3747870922088623,-0.22445029020309448,-11.727136611938477,1.1680023670196533,21.693452835083008,0.3079124093055725,2.5015292167663574,-0.33084434270858765,0.0,0.0,0.0,0.0,0.0,0.0,0.0,-0.19794169642810164,0.5594848139313892,-0.05769857398728991,0.39457180170862405,-0.22949376514108522,0.09493656303252862,-0.31875543167669956,0.17281231321159163,-0.4876764460446541,-0.1115025721740255,-1.9462553712108677,0.1334844386378924,2.5955436713430613,0.9452657479712473,0.1728802376190821,-0.48752024683155326,-0.11147110072896137,-1.9463801863486305,0.1336059019074957,2.595550359778934,0.9452445589611904,0.0010093002213475714,-0.0006976160412304128,-0.00042832572256912846,-0.0002968849347655232,-0.00015168510401988988,-0.00015427740403220372,0.0007278871316651273,0.0,0.0,0.0,0.0,0.0,0.0,0.0,6.792440749048279e-05,0.00015619921310083829,3.147144506412958e-05,-0.00012481513776285702,0.00012146326960330023,6.688435872703735e-06,-2.118901005687679e-05,-0.0010093002213475714,0.0006976160412304128,0.00042832572256912846,0.0002968849347655232,0.00015168510401988988,0.00015427740403220372,-0.0007278871316651273,0.22445029020309448,11.727136611938477,-1.1680023670196533,-21.693452835083008,-0.3079124093055725,-2.5015292167663574,0.33084434270858765,0
77,0.37976908683776855,-0.22445029020309448,-11.727136611938477,1.1680023670196533,21.693452835083008,0.3079124093055725,2.5015292167663574,-0.33084434270858765,0.0,0.0,0.0,0.0,0.0,0.0,0.0,-0.19794169642810164,0.5594848139313892,-0.05769857398728991,0.39457180170862405,-0.22949376514108522,0.09493656303252862,-0.31875543167669956,0.17281231321159163,-0.4876764460446541,-0.1115025721740255,-1.9462553712108677,0.1334844386378924,2.5955436713430613,0.9452657479712473,0.1728802376190821,-0.48752024683155326,-0.11147110072896137,-1.9463801863486305,0.1336059019074957,2.595550359778934,0.9452445589611904,0.0010093002213475714,-0.0006976160412304128,-0.00042832572256912846,-0.0002968849347655232,-0.00015168510401988988,-0.00015427740403220372,0.0007278871316651273,0.0,0.0,0.0,0.0,0.0,0.0,0.0,6.792440749048279e-05,0.00015619921310083829,3.147144506412958e-05,-0.00012481513776285702,0.00012146326960330023,6.688435872703735e-06,-2.118901005687679e-05,-0.0010093002213475714,0.0006976160412304128,0.00042832572256912846,0.0002968849347655232,0.00015168510401988988,0.00015427740403220372,-0.0007278871316651273,0.22445029020309448,11.727136611938477,-1.1680023670196533,-21.693452835083008,-0.3079124093055725,-2.5015292167663574,0.33084434270858765,0
78,0.3847677707672119,-0.14510458707809448,-11.727136611938477,1.1918060779571533,21.669649124145508,0.3079124093055725,2.4823031425476074,-0.32352012395858765,0.0,0.0,0.0,0.0,0.0,0.0,0.0,-0.19865574509683007,0.5664501712208946,-0.060709539664626555,0.3908120353471742,-0.2290242746253027,0.09505080216651028,-0.3194651503807527,0.17280674509207408,-0.4876764460446541,-0.1115025314024771,-1.9462537007750125,0.1334844386378924,2.59554580757353,0.9452654159176508,0.1728802376190821,-0.48752024683155326,-0.11147110072896137,-1.9463801863486305,0.1336059019074957,2.595550359778934,0.9452445589611904,-0.0009095635965192197,-0.000711248991138413,-0.0011204365718309006,0.00030279589297742135,-0.00012325636614830848,0.0003108561767867001,0.0006954934604207251,0.0,0.0,0.0,0.0,0.0,0.0,0.0,7.349252700802889e-05,0.00015619921310083829,3.143067351572826e-05,-0.00012648557361805146,0.00012146326960330023,4.5522054041846616e-06,-2.0856956460368892e-05,0.0009095635965192197,0.000711248991138413,0.0011204365718309006,-0.00030279589297742135,0.00012325636614830848,-0.0003108561767867001,-0.0006954934604207251,0.14510458707809448,11.727136611938477,-1.1918060779571533,-21.669649124145508,-0.3079124093055725,-2.4823031425476074,0.32352012395858765,0
79,0.38979530334472656,-0.14510458707809448,-11.727136611938477,1.1918060779571533,21.669649124145508,0.3079124093055725,2.4823031425476074,-0.32352012395858765,0.0,0.0,0.0,0.0,0.0,0.0,0.0,-0.19865574509683007,0.5664501712208946,-0.060709539664626555,0.3908120353471742,-0.2290242746253027,0.09505080216651028,-0.3194651503807527,0.17280674509207408,-0.4876764460446541,-0.1115025314024771,-1.9462537007750125,0.1334844386378924,2.59554580757353,0.9452654159176508,0.1728802376190821,-0.48752024683155326,-0.11147110072896137,-1.9463801863486305,0.1336059019074957,2.595550359778934,0.9452445589611904,-0.0009095635965192197,-0.000711248991138413,-0.0011204365718309006,0.00030279589297742135,-0.00012325636614830848,0.0003108561767867001,0.0006954934604207251,0.0,0.0,0.0,0.0,0.0,0.0,0.0,7.349252700802889e-05,0.00015619921310083829,3.143067351572826e-05,-0.00012648557361805146,0.00012146326960330023,4.5522054041846616e-06,-2.0856956460368892e-05,0.0009095635965192197,0.000711248991138413,0.0011204365718309006,-0.00030279589297742135,0.00012325636614830848,-0.0003108561767867001,-0.0006954934604207251,0.14510458707809448,11.727136611938477,-1.1918060779571533,-21.669649124145508,-0.3079124093055725,-2.4823031425476074,0.32352012395858765,0
