rezayati/contactInterpretation/dataset/franka_main/labeled_data/link7/a8_8.csv
index,time,tau_J0,tau_J1,tau_J2,tau_J3,tau_J4,tau_J5,tau_J6,tau_J_d0,tau_J_d1,tau_J_d2,tau_J_d3,tau_J_d4,tau_J_d5,tau_J_d6,tau_ext0,tau_ext1,tau_ext2,tau_ext3,tau_ext4,tau_ext5,tau_ext6,q0,q1,q2,q3,q4,q5,q6,q_d0,q_d1,q_d2,q_d3,q_d4,q_d5,q_d6,dq0,dq1,dq2,dq3,dq4,dq5,dq6,dq_d0,dq_d1,dq_d2,dq_d3,dq_d4,dq_d5,dq_d6,e0,e1,e2,e3,e4,e5,e6,de0,de1,de2,de3,de4,de5,de6,etau_J0,etau_J1,etau_J2,etau_J3,etau_J4,etau_J5,etau_J6,label
1,0.0,-0.4267818331718445,-22.819665908813477,-0.04995415359735489,14.131807327270508,0.1714988350868225,2.1389803886413574,-0.36471885442733765,0.0,0.0,0.0,0.0,0.0,0.0,0.0,-0.42025169061529555,-0.03839052681528264,-0.18570949392677266,0.30386045233194536,-0.06207149472549904,-0.035790462744833454,-0.37569596674667605,1.6757539791433436,0.052328211027155555,0.03016221002596961,-2.7524932689789825,0.034366085559129705,2.7662933702645467,0.7691928675903213,1.6754973547542302,0.052104326824870026,0.029969505109285054,-2.752394845125968,0.0342448039870148,2.7663679543071322,0.7691630533470046,0.00026129496361013577,-0.0001682733841073362,-0.000849110338135212,0.0005128138216228645,-7.19499472632285e-05,0.00021141401753135345,0.00011916559801205237,0.0,0.0,0.0,0.0,0.0,0.0,0.0,-0.00025662438911333574,-0.0002238842022855292,-0.00019270491668455653,9.842385301439549e-05,-0.00012128157211490492,7.458404258553486e-05,-2.9814243316717004e-05,-0.00026129496361013577,0.0001682733841073362,0.000849110338135212,-0.0005128138216228645,7.19499472632285e-05,-0.00021141401753135345,-0.00011916559801205237,0.4267818331718445,22.819665908813477,0.04995415359735489,-14.131807327270508,-0.1714988350868225,-2.1389803886413574,0.36471885442733765,0
2,0.0049970149993896484,-0.4267818331718445,-22.819665908813477,-0.04995415359735489,14.131807327270508,0.1714988350868225,2.1389803886413574,-0.36471885442733765,0.0,0.0,0.0,0.0,0.0,0.0,0.0,-0.42025169061529555,-0.03839052681528264,-0.18570949392677266,0.30386045233194536,-0.06207149472549904,-0.035790462744833454,-0.37569596674667605,1.6757539791433436,0.052328211027155555,0.03016221002596961,-2.7524932689789825,0.034366085559129705,2.7662933702645467,0.7691928675903213,1.6754973547542302,0.052104326824870026,0.029969505109285054,-2.752394845125968,0.0342448039870148,2.7663679543071322,0.7691630533470046,0.00026129496361013577,-0.0001682733841073362,-0.000849110338135212,0.0005128138216228645,-7.19499472632285e-05,0.00021141401753135345,0.00011916559801205237,0.0,0.0,0.0,0.0,0.0,0.0,0.0,-0.00025662438911333574,-0.0002238842022855292,-0.00019270491668455653,9.842385301439549e-05,-0.00012128157211490492,7.458404258553486e-05,-2.9814243316717004e-05,-0.00026129496361013577,0.0001682733841073362,0.000849110338135212,-0.0005128138216228645,7.19499472632285e-05,-0.00021141401753135345,-0.00011916559801205237,0.4267818331718445,22.819665908813477,0.04995415359735489,-14.131807327270508,-0.1714988350868225,-2.1389803886413574,0.36471885442733765,0
3,0.009996175765991211,-0.4267818331718445,-22.819665908813477,-0.04995415359735489,14.131807327270508,0.1714988350868225,2.1389803886413574,-0.36471885442733765,0.0,0.0,0.0,0.0,0.0,0.0,0.0,-0.42025169061529555,-0.03839052681528264,-0.18570949392677266,0.30386045233194536,-0.06207149472549904,-0.035790462744833454,-0.37569596674667605,1.6757539791433436,0.052328211027155555,0.03016221002596961,-2.7524932689789825,0.034366085559129705,2.7662933702645467,0.7691928675903213,1.6754973547542302,0.052104326824870026,0.029969505109285054,-2.752394845125968,0.0342448039870148,2.7663679543071322,0.7691630533470046,0.00026129496361013577,-0.0001682733841073362,-0.000849110338135212,0.0005128138216228645,-7.19499472632285e-05,0.00021141401753135345,0.00011916559801205237,0.0,0.0,0.0,0.0,0.0,0.0,0.0,-0.00025662438911333574,-0.0002238842022855292,-0.00019270491668455653,9.842385301439549e-05,-0.00012128157211490492,7.458404258553486e-05,-2.9814243316717004e-05,-0.00026129496361013577,0.0001682733841073362,0.000849110338135212,-0.0005128138216228645,7.19499472632285e-05,-0.00021141401753135345,-0.00011916559801205237,0.4267818331718445,22.819665908813477,0.04995415359735489,-14.131807327270508,-0.1714988350868225,-2.1389803886413574,0.36471885442733765,0
4,0.016072511672973633,-0.4267818331718445,-22.871240615844727,-0.07375786453485489,14.207185745239258,0.1650901436805725,2.1517977714538574,-0.37845176458358765,0.0,0.0,0.0,0.0,0.0,0.0,0.0,-0.4218281273170151,-0.04194375337546521,-0.18798031449819758,0.30878830313488626,-0.0622262190553791,-0.03551385201754787,-0.37397320232771075,1.6757539791433436,0.052334066394786764,0.030163881435595463,-2.7525007325389743,0.03436679763595262,2.766295471879465,0.7691943934692276,1.6754973547542302,0.052104326824870026,0.029969505109285054,-2.752394845125968,0.0342448039870148,2.7663679543071322,0.7691630533470046,0.00024860855563933856,0.0007837276346746658,-0.0005534507053254827,-0.0006265764785409089,0.00015830832549613817,0.00015914745181692366,0.0003615770799325519,0.0,0.0,0.0,0.0,0.0,0.0,0.0,-0.00025662438911333574,-0.00022973956991673844,-0.00019437632631040883,0.00010588741300621152,-0.00012199364893782094,7.248242766744184e-05,-3.13401222229448e-05,-0.00024860855563933856,-0.0007837276346746658,0.0005534507053254827,0.0006265764785409089,-0.00015830832549613817,-0.00015914745181692366,-0.0003615770799325519,0.4267818331718445,22.871240615844727,0.07375786453485489,-14.207185745239258,-0.1650901436805725,-2.1517977714538574,0.37845176458358765,0
5,0.019997119903564453,-0.4267818331718445,-22.871240615844727,-0.07375786453485489,14.207185745239258,0.1650901436805725,2.1517977714538574,-0.37845176458358765,0.0,0.0,0.0,0.0,0.0,0.0,0.0,-0.4218281273170151,-0.04194375337546521,-0.18798031449819758,0.30878830313488626,-0.0622262190553791,-0.03551385201754787,-0.37397320232771075,1.6757539791433436,0.052334066394786764,0.030163881435595463,-2.7525007325389743,0.03436679763595262,2.766295471879465,0.7691943934692276,1.6754973547542302,0.052104326824870026,0.029969505109285054,-2.752394845125968,0.0342448039870148,2.7663679543071322,0.7691630533470046,0.00024860855563933856,0.0007837276346746658,-0.0005534507053254827,-0.0006265764785409089,0.00015830832549613817,0.00015914745181692366,0.0003615770799325519,0.0,0.0,0.0,0.0,0.0,0.0,0.0,-0.00025662438911333574,-0.00022973956991673844,-0.00019437632631040883,0.00010588741300621152,-0.00012199364893782094,7.248242766744184e-05,-3.13401222229448e-05,-0.00024860855563933856,-0.0007837276346746658,0.0005534507053254827,0.0006265764785409089,-0.00015830832549613817,-0.00015914745181692366,-0.0003615770799325519,0.4267818331718445,22.871240615844727,0.07375786453485489,-14.207185745239258,-0.1650901436805725,-2.1517977714538574,0.37845176458358765,0
6,0.02499699592590332,-0.4029781222343445,-22.847436904907227,-0.07375786453485489,14.207185745239258,0.1650901436805725,2.1582064628601074,-0.40591758489608765,0.0,0.0,0.0,0.0,0.0,0.0,0.0,-0.41555451021315615,-0.04101868572852222,-0.18143810936238333,0.30427359208054117,-0.06244613517963635,-0.03568697921775006,-0.37331625899705795,1.6757523087074881,0.052330159877550415,0.03016388013724382,-2.75249858535333,0.03436679763595262,2.76629476180049,0.76919744522704,1.6754973547542302,0.052104326824870026,0.029969505109285054,-2.752394845125968,0.0342448039870148,2.7663679543071322,0.7691630533470046,0.000331247908955308,-7.310936028806271e-05,-8.529557643065114e-06,-0.0009314526287900626,0.00017167666210788875,-4.341496238488716e-05,0.0014629617911214145,0.0,0.0,0.0,0.0,0.0,0.0,0.0,-0.00025495395325791925,-0.0002258330526803895,-0.00019437502795876735,0.00010374022736181487,-0.00012199364893782094,7.319250664217236e-05,-3.439188003540039e-05,-0.000331247908955308,7.310936028806271e-05,8.529557643065114e-06,0.0009314526287900626,-0.00017167666210788875,4.341496238488716e-05,-0.0014629617911214145,0.4029781222343445,22.847436904907227,0.07375786453485489,-14.207185745239258,-0.1650901436805725,-2.1582064628601074,0.40591758489608765,0
7,0.029997587203979492,-0.4029781222343445,-22.847436904907227,-0.07375786453485489,14.207185745239258,0.1650901436805725,2.1582064628601074,-0.40591758489608765,0.0,0.0,0.0,0.0,0.0,0.0,0.0,-0.41555451021315615,-0.04101868572852222,-0.18143810936238333,0.30427359208054117,-0.06244613517963635,-0.03568697921775006,-0.37331625899705795,1.6757523087074881,0.052330159877550415,0.03016388013724382,-2.75249858535333,0.03436679763595262,2.76629476180049,0.76919744522704,1.6754973547542302,0.052104326824870026,0.029969505109285054,-2.752394845125968,0.0342448039870148,2.7663679543071322,0.7691630533470046,0.000331247908955308,-7.310936028806271e-05,-8.529557643065114e-06,-0.0009314526287900626,0.00017167666210788875,-4.341496238488716e-05,0.0014629617911214145,0.0,0.0,0.0,0.0,0.0,0.0,0.0,-0.00025495395325791925,-0.0002258330526803895,-0.00019437502795876735,0.00010374022736181487,-0.00012199364893782094,7.319250664217236e-05,-3.439188003540039e-05,-0.000331247908955308,7.310936028806271e-05,8.529557643065114e-06,0.0009314526287900626,-0.00017167666210788875,4.341496238488716e-05,-0.0014629617911214145,0.4029781222343445,22.847436904907227,0.07375786453485489,-14.207185745239258,-0.1650901436805725,-2.1582064628601074,0.40591758489608765,0
8,0.03499794006347656,-0.4267818331718445,-22.847436904907227,-0.07375786453485489,14.155611038208008,0.1888938546180725,2.1582064628601074,-0.39950889348983765,0.0,0.0,0.0,0.0,0.0,0.0,0.0,-0.41865894071556814,-0.04122868449525186,-0.1836661656643547,0.30035486922990945,-0.06113002855803729,-0.035521205443062684,-0.3719953762206656,1.6757539791433436,0.05233015986492762,0.030163880137236494,-2.7524956256091433,0.03436415277918179,2.7662947264307953,0.7691956734582527,1.6754973547542302,0.052104326824870026,0.029969505109285054,-2.752394845125968,0.0342448039870148,2.7663679543071322,0.7691630533470046,0.0005369978423594169,-0.0002374396639104374,-0.0007191714787261643,-5.1619964799739105e-05,-0.00028663181935875416,-0.0003964339710329662,0.0013916750161629655,0.0,0.0,0.0,0.0,0.0,0.0,0.0,-0.00025662438911333574,-0.00022583304005759086,-0.00019437502795143988,0.00010078048317518906,-0.00011934879216699001,7.322787633690098e-05,-3.262011124804953e-05,-0.0005369978423594169,0.0002374396639104374,0.0007191714787261643,5.1619964799739105e-05,0.00028663181935875416,0.0003964339710329662,-0.0013916750161629655,0.4267818331718445,22.847436904907227,0.07375786453485489,-14.155611038208008,-0.1888938546180725,-2.1582064628601074,0.39950889348983765,0
9,0.04000258445739746,-0.4267818331718445,-22.847436904907227,-0.07375786453485489,14.155611038208008,0.1888938546180725,2.1582064628601074,-0.39950889348983765,0.0,0.0,0.0,0.0,0.0,0.0,0.0,-0.41865894071556814,-0.04122868449525186,-0.1836661656643547,0.30035486922990945,-0.06113002855803729,-0.035521205443062684,-0.3719953762206656,1.6757539791433436,0.05233015986492762,0.030163880137236494,-2.7524956256091433,0.03436415277918179,2.7662947264307953,0.7691956734582527,1.6754973547542302,0.052104326824870026,0.029969505109285054,-2.752394845125968,0.0342448039870148,2.7663679543071322,0.7691630533470046,0.0005369978423594169,-0.0002374396639104374,-0.0007191714787261643,-5.1619964799739105e-05,-0.00028663181935875416,-0.0003964339710329662,0.0013916750161629655,0.0,0.0,0.0,0.0,0.0,0.0,0.0,-0.00025662438911333574,-0.00022583304005759086,-0.00019437502795143988,0.00010078048317518906,-0.00011934879216699001,7.322787633690098e-05,-3.262011124804953e-05,-0.0005369978423594169,0.0002374396639104374,0.0007191714787261643,5.1619964799739105e-05,0.00028663181935875416,0.0003964339710329662,-0.0013916750161629655,0.4267818331718445,22.847436904907227,0.07375786453485489,-14.155611038208008,-0.1888938546180725,-2.1582064628601074,0.39950889348983765,0
10,0.045015573501586914,-0.4029781222343445,-22.819665908813477,-0.07375786453485489,14.131807327270508,0.1769919991493225,2.1517977714538574,-0.41324180364608765,0.0,0.0,0.0,0.0,0.0,0.0,0.0,-0.4139198725386319,-0.044015572254317424,-0.17978817818983542,0.3049179175082931,-0.05956453032043211,-0.034690134636167845,-0.3712182395811793,1.6757523087074881,0.05232821134787409,0.030163888901122447,-2.752493967494616,0.034366540640592566,2.7662954766227195,0.7691982197772848,1.6754973547542302,0.052104326824870026,0.029969505109285054,-2.752394845125968,0.0342448039870148,2.7663679543071322,0.7691630533470046,5.996075431188173e-06,-0.000338153311009904,-0.0004804573374038533,0.0010157036104748458,-2.110376635718288e-05,1.2894450672978662e-05,0.0016125206183784258,0.0,0.0,0.0,0.0,0.0,0.0,0.0,-0.00025495395325791925,-0.00022388452300406425,-0.00019438379183739363,9.91223686477305e-05,-0.00012173665357776559,7.247768441276392e-05,-3.516643028012023e-05,-5.996075431188173e-06,0.000338153311009904,0.0004804573374038533,-0.0010157036104748458,2.110376635718288e-05,-1.2894450672978662e-05,-0.0016125206183784258,0.4029781222343445,22.819665908813477,0.07375786453485489,-14.131807327270508,-0.1769919991493225,-2.1517977714538574,0.41324180364608765,0
11,0.05000472068786621,-0.4029781222343445,-22.819665908813477,-0.07375786453485489,14.131807327270508,0.1769919991493225,2.1517977714538574,-0.41324180364608765,0.0,0.0,0.0,0.0,0.0,0.0,0.0,-0.4139198725386319,-0.044015572254317424,-0.17978817818983542,0.3049179175082931,-0.05956453032043211,-0.034690134636167845,-0.3712182395811793,1.6757523087074881,0.05232821134787409,0.030163888901122447,-2.752493967494616,0.034366540640592566,2.7662954766227195,0.7691982197772848,1.6754973547542302,0.052104326824870026,0.029969505109285054,-2.752394845125968,0.0342448039870148,2.7663679543071322,0.7691630533470046,5.996075431188173e-06,-0.000338153311009904,-0.0004804573374038533,0.0010157036104748458,-2.110376635718288e-05,1.2894450672978662e-05,0.0016125206183784258,0.0,0.0,0.0,0.0,0.0,0.0,0.0,-0.00025495395325791925,-0.00022388452300406425,-0.00019438379183739363,9.91223686477305e-05,-0.00012173665357776559,7.247768441276392e-05,-3.516643028012023e-05,-5.996075431188173e-06,0.000338153311009904,0.0004804573374038533,-0.0010157036104748458,2.110376635718288e-05,-1.2894450672978662e-05,-0.0016125206183784258,0.4029781222343445,22.819665908813477,0.07375786453485489,-14.131807327270508,-0.1769919991493225,-2.1517977714538574,0.41324180364608765,0
12,0.05500054359436035,-0.4029781222343445,-22.819665908813477,-0.07375786453485489,14.131807327270508,0.1769919991493225,2.1517977714538574,-0.41324180364608765,0.0,0.0,0.0,0.0,0.0,0.0,0.0,-0.4139198725386319,-0.044015572254317424,-0.17978817818983542,0.3049179175082931,-0.05956453032043211,-0.034690134636167845,-0.3712182395811793,1.6757523087074881,0.05232821134787409,0.030163888901122447,-2.752493967494616,0.034366540640592566,2.7662954766227195,0.7691982197772848,1.6754973547542302,0.052104326824870026,0.029969505109285054,-2.752394845125968,0.0342448039870148,2.7663679543071322,0.7691630533470046,5.996075431188173e-06,-0.000338153311009904,-0.0004804573374038533,0.0010157036104748458,-2.110376635718288e-05,1.2894450672978662e-05,0.0016125206183784258,0.0,0.0,0.0,0.0,0.0,0.0,0.0,-0.00025495395325791925,-0.00022388452300406425,-0.00019438379183739363,9.91223686477305e-05,-0.00012173665357776559,7.247768441276392e-05,-3.516643028012023e-05,-5.996075431188173e-06,0.000338153311009904,0.0004804573374038533,-0.0010157036104748458,2.110376635718288e-05,-1.2894450672978662e-05,-0.0016125206183784258,0.4029781222343445,22.819665908813477,0.07375786453485489,-14.131807327270508,-0.1769919991493225,-2.1517977714538574,0.41324180364608765,0
13,0.06004667282104492,-0.4505855441093445,-22.847436904907227,-0.1253325641155243,14.179414749145508,0.1650901436805725,2.1517977714538574,-0.38577598333358765,0.0,0.0,0.0,0.0,0.0,0.0,0.0,-0.4127716167380501,-0.03933317448965217,-0.18101214926900253,0.30064584221771307,-0.05904711273716975,-0.03537409277015056,-0.37229780107649474,1.6757556495791988,0.052330162787928125,0.03016962914693293,-2.7524975253222284,0.034366797641967026,2.766290886311258,0.7691951898284863,1.6754973547542302,0.052104326824870026,0.029969505109285054,-2.752394845125968,0.0342448039870148,2.7663679543071322,0.7691630533470046,0.0011807742488764567,0.0006366520736168586,0.0006390898213053885,-0.00040443544331988116,0.00037916062783532086,-5.9374563265377e-05,0.0005336686130103192,0.0,0.0,0.0,0.0,0.0,0.0,0.0,-0.0002582948249685302,-0.00022583596305809917,-0.0002001240376478773,0.00010268019626025193,-0.0001219936549522252,7.706799587436919e-05,-3.213648148170378e-05,-0.0011807742488764567,-0.0006366520736168586,-0.0006390898213053885,0.00040443544331988116,-0.00037916062783532086,5.9374563265377e-05,-0.0005336686130103192,0.4505855441093445,22.847436904907227,0.1253325641155243,-14.179414749145508,-0.1650901436805725,-2.1517977714538574,0.38577598333358765,0
14,0.06499910354614258,-0.4505855441093445,-22.847436904907227,-0.1253325641155243,14.179414749145508,0.1650901436805725,2.1517977714538574,-0.38577598333358765,0.0,0.0,0.0,0.0,0.0,0.0,0.0,-0.4127716167380501,-0.03933317448965217,-0.18101214926900253,0.30064584221771307,-0.05904711273716975,-0.03537409277015056,-0.37229780107649474,1.6757556495791988,0.052330162787928125,0.03016962914693293,-2.7524975253222284,0.034366797641967026,2.766290886311258,0.7691951898284863,1.6754973547542302,0.052104326824870026,0.029969505109285054,-2.752394845125968,0.0342448039870148,2.7663679543071322,0.7691630533470046,0.0011807742488764567,0.0006366520736168586,0.0006390898213053885,-0.00040443544331988116,0.00037916062783532086,-5.9374563265377e-05,0.0005336686130103192,0.0,0.0,0.0,0.0,0.0,0.0,0.0,-0.0002582948249685302,-0.00022583596305809917,-0.0002001240376478773,0.00010268019626025193,-0.0001219936549522252,7.706799587436919e-05,-3.213648148170378e-05,-0.0011807742488764567,-0.0006366520736168586,-0.0006390898213053885,0.00040443544331988116,-0.00037916062783532086,5.9374563265377e-05,-0.0005336686130103192,0.4505855441093445,22.847436904907227,0.1253325641155243,-14.179414749145508,-0.1650901436805725,-2.1517977714538574,0.38577598333358765,0
15,0.06999778747558594,-0.4505855441093445,-22.819665908813477,-0.09756157547235489,14.131807327270508,0.1769919991493225,2.1453890800476074,-0.37204307317733765,0.0,0.0,0.0,0.0,0.0,0.0,0.0,-0.4137117682831073,-0.039742118182097365,-0.18373592038831887,0.30069353219801603,-0.059381042695140766,-0.035466916425111926,-0.37477365954746966,1.6757556495791988,0.052328211023112955,0.030165550585114158,-2.7524935815594773,0.03436547520756724,2.766293007013862,0.7691926217541768,1.6754973547542302,0.052104326824870026,0.029969505109285054,-2.752394845125968,0.0342448039870148,2.7663679543071322,0.7691630533470046,0.0007915224092650024,-0.000682232208587237,-0.00024118664090675112,0.0004129639239822641,-0.00027417847456123935,0.00010500339717511685,-0.0002119773447163153,0.0,0.0,0.0,0.0,0.0,0.0,0.0,-0.0002582948249685302,-0.0002238841982429296,-0.00019604547582910414,9.873643350921668e-05,-0.00012067122055244017,7.49472932701778e-05,-2.956840717216469e-05,-0.0007915224092650024,0.000682232208587237,0.00024118664090675112,-0.0004129639239822641,0.00027417847456123935,-0.00010500339717511685,0.0002119773447163153,0.4505855441093445,22.819665908813477,0.09756157547235489,-14.131807327270508,-0.1769919991493225,-2.1453890800476074,0.37204307317733765,0
16,0.0749967098236084,-0.4505855441093445,-22.819665908813477,-0.09756157547235489,14.131807327270508,0.1769919991493225,2.1453890800476074,-0.37204307317733765,0.0,0.0,0.0,0.0,0.0,0.0,0.0,-0.4137117682831073,-0.039742118182097365,-0.18373592038831887,0.30069353219801603,-0.059381042695140766,-0.035466916425111926,-0.37477365954746966,1.6757556495791988,0.052328211023112955,0.030165550585114158,-2.7524935815594773,0.03436547520756724,2.766293007013862,0.7691926217541768,1.6754973547542302,0.052104326824870026,0.029969505109285054,-2.752394845125968,0.0342448039870148,2.7663679543071322,0.7691630533470046,0.0007915224092650024,-0.000682232208587237,-0.00024118664090675112,0.0004129639239822641,-0.00027417847456123935,0.00010500339717511685,-0.0002119773447163153,0.0,0.0,0.0,0.0,0.0,0.0,0.0,-0.0002582948249685302,-0.0002238841982429296,-0.00019604547582910414,9.873643350921668e-05,-0.00012067122055244017,7.49472932701778e-05,-2.956840717216469e-05,-0.0007915224092650024,0.000682232208587237,0.00024118664090675112,-0.0004129639239822641,0.00027417847456123935,-0.00010500339717511685,0.0002119773447163153,0.4505855441093445,22.819665908813477,0.09756157547235489,-14.131807327270508,-0.1769919991493225,-2.1453890800476074,0.37204307317733765,0
17,0.08000040054321289,-0.4029781222343445,-22.847436904907227,-0.09756157547235489,14.155611038208008,0.1714988350868225,2.1582064628601074,-0.34457725286483765,0.0,0.0,0.0,0.0,0.0,0.0,0.0,-0.41218348208553784,-0.03983717382241522,-0.18167083777507803,0.30159954252697807,-0.06020249913981114,-0.03542210107372591,-0.3768401081158024,1.6757523087074881,0.0523301687421829,0.030165550573091823,-2.7524951689538333,0.03436608555912971,2.766294295139092,0.7691906296286105,1.6754973547542302,0.052104326824870026,0.029969505109285054,-2.752394845125968,0.0342448039870148,2.7663679543071322,0.7691630533470046,-0.0001331301795341684,0.0001731574434787964,5.950398805523363e-05,0.00011604426385104423,-3.7126439284870744e-05,-0.0004025643669075092,-0.00132015477019615,0.0,0.0,0.0,0.0,0.0,0.0,0.0,-0.00025495395325791925,-0.0002258419173128759,-0.00019604546380676963,0.00010032382786517857,-0.00012128157211491186,7.365916804014105e-05,-2.7576281605878883e-05,0.0001331301795341684,-0.0001731574434787964,-5.950398805523363e-05,-0.00011604426385104423,3.7126439284870744e-05,0.0004025643669075092,0.00132015477019615,0.4029781222343445,22.847436904907227,0.09756157547235489,-14.155611038208008,-0.1714988350868225,-2.1582064628601074,0.34457725286483765,0
18,0.08500075340270996,-0.4029781222343445,-22.847436904907227,-0.09756157547235489,14.155611038208008,0.1714988350868225,2.1582064628601074,-0.34457725286483765,0.0,0.0,0.0,0.0,0.0,0.0,0.0,-0.41218348208553784,-0.03983717382241522,-0.18167083777507803,0.30159954252697807,-0.06020249913981114,-0.03542210107372591,-0.3768401081158024,1.6757523087074881,0.0523301687421829,0.030165550573091823,-2.7524951689538333,0.03436608555912971,2.766294295139092,0.7691906296286105,1.6754973547542302,0.052104326824870026,0.029969505109285054,-2.752394845125968,0.0342448039870148,2.7663679543071322,0.7691630533470046,-0.0001331301795341684,0.0001731574434787964,5.950398805523363e-05,0.00011604426385104423,-3.7126439284870744e-05,-0.0004025643669075092,-0.00132015477019615,0.0,0.0,0.0,0.0,0.0,0.0,0.0,-0.00025495395325791925,-0.0002258419173128759,-0.00019604546380676963,0.00010032382786517857,-0.00012128157211491186,7.365916804014105e-05,-2.7576281605878883e-05,0.0001331301795341684,-0.0001731574434787964,-5.950398805523363e-05,-0.00011604426385104423,3.7126439284870744e-05,0.0004025643669075092,0.00132015477019615,0.4029781222343445,22.847436904907227,0.09756157547235489,-14.155611038208008,-0.1714988350868225,-2.1582064628601074,0.34457725286483765,0
19,0.09128856658935547,-0.4029781222343445,-22.819665908813477,-0.09756157547235489,14.155611038208008,0.1650901436805725,2.1453890800476074,-0.35831016302108765,0.0,0.0,0.0,0.0,0.0,0.0,0.0,-0.41132604264966566,-0.04169092932127574,-0.18023401480253984,0.3011545630186297,-0.060776377122877076,-0.03578005896424893,-0.37744374213794835,1.6757523087074881,0.05232823733013485,0.030165550897680124,-2.7524950499075995,0.03436679763595263,2.766296185897678,0.7691921555134984,1.6754973547542302,0.052104326824870026,0.029969505109285054,-2.752394845125968,0.0342448039870148,2.7663679543071322,0.7691630533470046,9.51337464392392e-05,-0.0008734995554855059,0.00035598808861674475,0.00023101037185589595,0.0002040738870472322,8.590966257902151e-05,-0.0007355755125897515,0.0,0.0,0.0,0.0,0.0,0.0,0.0,-0.00025495395325791925,-0.0002239105052648238,-0.0001960457883950703,0.00010020478163141888,-0.00012199364893782788,7.17684094544424e-05,-2.910216649376629e-05,-9.51337464392392e-05,0.0008734995554855059,-0.00035598808861674475,-0.00023101037185589595,-0.0002040738870472322,-8.590966257902151e-05,0.0007355755125897515,0.4029781222343445,22.819665908813477,0.09756157547235489,-14.155611038208008,-0.1650901436805725,-2.1453890800476074,0.35831016302108765,0
20,0.09499740600585938,-0.4029781222343445,-22.819665908813477,-0.09756157547235489,14.155611038208008,0.1650901436805725,2.1453890800476074,-0.35831016302108765,0.0,0.0,0.0,0.0,0.0,0.0,0.0,-0.41132604264966566,-0.04169092932127574,-0.18023401480253984,0.3011545630186297,-0.060776377122877076,-0.03578005896424893,-0.37744374213794835,1.6757523087074881,0.05232823733013485,0.030165550897680124,-2.7524950499075995,0.03436679763595263,2.766296185897678,0.7691921555134984,1.6754973547542302,0.052104326824870026,0.029969505109285054,-2.752394845125968,0.0342448039870148,2.7663679543071322,0.7691630533470046,9.51337464392392e-05,-0.0008734995554855059,0.00035598808861674475,0.00023101037185589595,0.0002040738870472322,8.590966257902151e-05,-0.0007355755125897515,0.0,0.0,0.0,0.0,0.0,0.0,0.0,-0.00025495395325791925,-0.0002239105052648238,-0.0001960457883950703,0.00010020478163141888,-0.00012199364893782788,7.17684094544424e-05,-2.910216649376629e-05,-9.51337464392392e-05,0.0008734995554855059,-0.00035598808861674475,-0.00023101037185589595,-0.0002040738870472322,-8.590966257902151e-05,0.0007355755125897515,0.4029781222343445,22.819665908813477,0.09756157547235489,-14.155611038208008,-0.1650901436805725,-2.1453890800476074,0.35831016302108765,0
21,0.10007786750793457,-0.4505855441093445,-22.895044326782227,-0.09756157547235489,14.131807327270508,0.1714988350868225,2.1517977714538574,-0.37204307317733765,0.0,0.0,0.0,0.0,0.0,0.0,0.0,-0.41325739095258684,-0.042207914440677716,-0.18111553695436217,0.3009287757272138,-0.060920485249983385,-0.03588559436788706,-0.37605498444667806,1.6757556495791988,0.05233350073678662,0.030165550609158962,-2.752495412592178,0.03436608555912971,2.7662954782379745,0.769193642146548,1.6754973547542302,0.052104326824870026,0.029969505109285054,-2.752394845125968,0.0342448039870148,2.7663679543071322,0.7691630533470046,0.0010739876184910789,0.0012608513650269014,0.0001371680952683274,0.0007427009473869624,0.00011320754650061127,0.0001130129013727733,-0.00012733536068557276,0.0,0.0,0.0,0.0,0.0,0.0,0.0,-0.0002582948249685302,-0.00022917391191659697,-0.00019604549987390849,0.00010056746620978885,-0.00012128157211491186,7.247606915772309e-05,-3.05887995433185e-05,-0.0010739876184910789,-0.0012608513650269014,-0.0001371680952683274,-0.0007427009473869624,-0.00011320754650061127,-0.0001130129013727733,0.00012733536068557276,0.4505855441093445,22.895044326782227,0.09756157547235489,-14.131807327270508,-0.1714988350868225,-2.1517977714538574,0.37204307317733765,0
22,0.10500097274780273,-0.4505855441093445,-22.895044326782227,-0.09756157547235489,14.131807327270508,0.1714988350868225,2.1517977714538574,-0.37204307317733765,0.0,0.0,0.0,0.0,0.0,0.0,0.0,-0.41325739095258684,-0.042207914440677716,-0.18111553695436217,0.3009287757272138,-0.060920485249983385,-0.03588559436788706,-0.37605498444667806,1.6757556495791988,0.05233350073678662,0.030165550609158962,-2.752495412592178,0.03436608555912971,2.7662954782379745,0.769193642146548,1.6754973547542302,0.052104326824870026,0.029969505109285054,-2.752394845125968,0.0342448039870148,2.7663679543071322,0.7691630533470046,0.0010739876184910789,0.0012608513650269014,0.0001371680952683274,0.0007427009473869624,0.00011320754650061127,0.0001130129013727733,-0.00012733536068557276,0.0,0.0,0.0,0.0,0.0,0.0,0.0,-0.0002582948249685302,-0.00022917391191659697,-0.00019604549987390849,0.00010056746620978885,-0.00012128157211491186,7.247606915772309e-05,-3.05887995433185e-05,-0.0010739876184910789,-0.0012608513650269014,-0.0001371680952683274,-0.0007427009473869624,-0.00011320754650061127,-0.0001130129013727733,0.00012733536068557276,0.4505855441093445,22.895044326782227,0.09756157547235489,-14.131807327270508,-0.1714988350868225,-2.1517977714538574,0.37204307317733765,0
23,0.11012387275695801,-0.4029781222343445,-22.819665908813477,-0.09756157547235489,14.179414749145508,0.1714988350868225,2.1582064628601074,-0.37204307317733765,0.0,0.0,0.0,0.0,0.0,0.0,0.0,-0.4065239990505538,-0.04093083332023399,-0.17654995985761518,0.298010502565782,-0.06207537112013854,-0.03554324296305378,-0.37524370956421055,1.6757523087074881,0.052328220766425446,0.030165550609157335,-2.7524989296644975,0.03436612501961213,2.7662915681891302,0.7691936809076664,1.6754973547542302,0.052104326824870026,0.029969505109285054,-2.752394845125968,0.0342448039870148,2.7663679543071322,0.7691630533470046,-1.2506197241786736e-05,-0.0004754559484544548,-0.0003325147833703725,-0.0005956473278875969,0.003027822055488811,-0.0002893254078731754,-8.779564043466657e-05,0.0,0.0,0.0,0.0,0.0,0.0,0.0,-0.00025495395325791925,-0.00022389394155541975,-0.00019604549987228131,0.00010408453852939203,-0.00012132103259732824,7.638611800198092e-05,-3.0627560661744546e-05,1.2506197241786736e-05,0.0004754559484544548,0.0003325147833703725,0.0005956473278875969,-0.003027822055488811,0.0002893254078731754,8.779564043466657e-05,0.4029781222343445,22.819665908813477,0.09756157547235489,-14.179414749145508,-0.1714988350868225,-2.1582064628601074,0.37204307317733765,0
24,0.11502313613891602,-0.4029781222343445,-22.819665908813477,-0.09756157547235489,14.179414749145508,0.1714988350868225,2.1582064628601074,-0.37204307317733765,0.0,0.0,0.0,0.0,0.0,0.0,0.0,-0.4065239990505538,-0.04093083332023399,-0.17654995985761518,0.298010502565782,-0.06207537112013854,-0.03554324296305378,-0.37524370956421055,1.6757523087074881,0.052328220766425446,0.030165550609157335,-2.7524989296644975,0.03436612501961213,2.7662915681891302,0.7691936809076664,1.6754973547542302,0.052104326824870026,0.029969505109285054,-2.752394845125968,0.0342448039870148,2.7663679543071322,0.7691630533470046,-1.2506197241786736e-05,-0.0004754559484544548,-0.0003325147833703725,-0.0005956473278875969,0.003027822055488811,-0.0002893254078731754,-8.779564043466657e-05,0.0,0.0,0.0,0.0,0.0,0.0,0.0,-0.00025495395325791925,-0.00022389394155541975,-0.00019604549987228131,0.00010408453852939203,-0.00012132103259732824,7.638611800198092e-05,-3.0627560661744546e-05,1.2506197241786736e-05,0.0004754559484544548,0.0003325147833703725,0.0005956473278875969,-0.003027822055488811,0.0002893254078731754,8.779564043466657e-05,0.4029781222343445,22.819665908813477,0.09756157547235489,-14.179414749145508,-0.1714988350868225,-2.1582064628601074,0.37204307317733765,0
25,0.12000250816345215,-0.3514034152030945,-22.847436904907227,-0.09756157547235489,14.179414749145508,0.1714988350868225,2.1453890800476074,-0.39218467473983765,0.0,0.0,0.0,0.0,0.0,0.0,0.0,-0.4067701743877912,-0.040616290504340825,-0.17688824933332042,0.29869315077353287,-0.06126439634967229,-0.03521652118864243,-0.3736337249268808,1.6757486894298017,0.0523301598649826,0.03016555349438728,-2.7524975262062026,0.034366085559352465,2.766296137968961,0.769195919348131,1.6754973547542302,0.052104326824870026,0.029969505109285054,-2.752394845125968,0.0342448039870148,2.7663679543071322,0.7691630533470046,-0.0011331370080979643,0.00038309007421579106,0.00010542669462733932,-0.000420103390636029,0.00010359531497742396,3.592981549568006e-05,0.0009259983265340379,0.0,0.0,0.0,0.0,0.0,0.0,0.0,-0.0002513346755714796,-0.00022583304011257466,-0.00019604838510222516,0.00010268108023447908,-0.00012128157233766423,7.181633817143762e-05,-3.286600112639704e-05,0.0011331370080979643,-0.00038309007421579106,-0.00010542669462733932,0.000420103390636029,-0.00010359531497742396,-3.592981549568006e-05,-0.0009259983265340379,0.3514034152030945,22.847436904907227,0.09756157547235489,-14.179414749145508,-0.1714988350868225,-2.1453890800476074,0.39218467473983765,0
26,0.12500572204589844,-0.3514034152030945,-22.847436904907227,-0.09756157547235489,14.179414749145508,0.1714988350868225,2.1453890800476074,-0.39218467473983765,0.0,0.0,0.0,0.0,0.0,0.0,0.0,-0.4067701743877912,-0.040616290504340825,-0.17688824933332042,0.29869315077353287,-0.06126439634967229,-0.03521652118864243,-0.3736337249268808,1.6757486894298017,0.0523301598649826,0.03016555349438728,-2.7524975262062026,0.034366085559352465,2.766296137968961,0.769195919348131,1.6754973547542302,0.052104326824870026,0.029969505109285054,-2.752394845125968,0.0342448039870148,2.7663679543071322,0.7691630533470046,-0.0011331370080979643,0.00038309007421579106,0.00010542669462733932,-0.000420103390636029,0.00010359531497742396,3.592981549568006e-05,0.0009259983265340379,0.0,0.0,0.0,0.0,0.0,0.0,0.0,-0.0002513346755714796,-0.00022583304011257466,-0.00019604838510222516,0.00010268108023447908,-0.00012128157233766423,7.181633817143762e-05,-3.286600112639704e-05,0.0011331370080979643,-0.00038309007421579106,-0.00010542669462733932,0.000420103390636029,-0.00010359531497742396,-3.592981549568006e-05,-0.0009259983265340379,0.3514034152030945,22.847436904907227,0.09756157547235489,-14.179414749145508,-0.1714988350868225,-2.1453890800476074,0.39218467473983765,0
27,0.1300041675567627,-0.3752071261405945,-22.847436904907227,-0.07375786453485489,14.131807327270508,0.1714988350868225,2.1517977714538574,-0.39950889348983765,0.0,0.0,0.0,0.0,0.0,0.0,0.0,-0.40546119199638714,-0.042048111368432964,-0.17673823447347375,0.30167578644261683,-0.06070689595271202,-0.03509648866994578,-0.3729283270463901,1.6757503598656571,0.05233039662782212,0.030163880137252984,-2.752495343625768,0.03436608555912971,2.7662939416197534,0.7691967331502172,1.6754973547542302,0.052104326824870026,0.029969505109285054,-2.752394845125968,0.0342448039870148,2.7663679543071322,0.7691630533470046,-0.00033249535277568793,0.00031217841598398004,5.0579977574263514e-05,0.0011263581092473439,-6.786746482902411e-05,-9.832538712259766e-06,0.0009870933006826137,0.0,0.0,0.0,0.0,0.0,0.0,0.0,-0.0002530051114268961,-0.00022606980295209606,-0.00019437502796793016,0.00010049849979987258,-0.00012128157211491186,7.401268737883271e-05,-3.36798032125607e-05,0.00033249535277568793,-0.00031217841598398004,-5.0579977574263514e-05,-0.0011263581092473439,6.786746482902411e-05,9.832538712259766e-06,-0.0009870933006826137,0.3752071261405945,22.847436904907227,0.07375786453485489,-14.131807327270508,-0.1714988350868225,-2.1517977714538574,0.39950889348983765,0
28,0.13499903678894043,-0.3752071261405945,-22.847436904907227,-0.07375786453485489,14.131807327270508,0.1714988350868225,2.1517977714538574,-0.39950889348983765,0.0,0.0,0.0,0.0,0.0,0.0,0.0,-0.40546119199638714,-0.042048111368432964,-0.17673823447347375,0.30167578644261683,-0.06070689595271202,-0.03509648866994578,-0.3729283270463901,1.6757503598656571,0.05233039662782212,0.030163880137252984,-2.752495343625768,0.03436608555912971,2.7662939416197534,0.7691967331502172,1.6754973547542302,0.052104326824870026,0.029969505109285054,-2.752394845125968,0.0342448039870148,2.7663679543071322,0.7691630533470046,-0.00033249535277568793,0.00031217841598398004,5.0579977574263514e-05,0.0011263581092473439,-6.786746482902411e-05,-9.832538712259766e-06,0.0009870933006826137,0.0,0.0,0.0,0.0,0.0,0.0,0.0,-0.0002530051114268961,-0.00022606980295209606,-0.00019437502796793016,0.00010049849979987258,-0.00012128157211491186,7.401268737883271e-05,-3.36798032125607e-05,0.00033249535277568793,-0.00031217841598398004,-5.0579977574263514e-05,-0.0011263581092473439,6.786746482902411e-05,9.832538712259766e-06,-0.0009870933006826137,0.3752071261405945,22.847436904907227,0.07375786453485489,-14.131807327270508,-0.1714988350868225,-2.1517977714538574,0.39950889348983765,0
29,0.140000581741333,-0.3752071261405945,-22.847436904907227,-0.07375786453485489,14.131807327270508,0.1714988350868225,2.1517977714538574,-0.39950889348983765,0.0,0.0,0.0,0.0,0.0,0.0,0.0,-0.40546119199638714,-0.042048111368432964,-0.17673823447347375,0.30167578644261683,-0.06070689595271202,-0.03509648866994578,-0.3729283270463901,1.6757503598656571,0.05233039662782212,0.030163880137252984,-2.752495343625768,0.03436608555912971,2.7662939416197534,0.7691967331502172,1.6754973547542302,0.052104326824870026,0.029969505109285054,-2.752394845125968,0.0342448039870148,2.7663679543071322,0.7691630533470046,-0.00033249535277568793,0.00031217841598398004,5.0579977574263514e-05,0.0011263581092473439,-6.786746482902411e-05,-9.832538712259766e-06,0.0009870933006826137,0.0,0.0,0.0,0.0,0.0,0.0,0.0,-0.0002530051114268961,-0.00022606980295209606,-0.00019437502796793016,0.00010049849979987258,-0.00012128157211491186,7.401268737883271e-05,-3.36798032125607e-05,0.00033249535277568793,-0.00031217841598398004,-5.0579977574263514e-05,-0.0011263581092473439,6.786746482902411e-05,9.832538712259766e-06,-0.0009870933006826137,0.3752071261405945,22.847436904907227,0.07375786453485489,-14.131807327270508,-0.1714988350868225,-2.1517977714538574,0.39950889348983765,0
30,0.14499950408935547,-0.3752071261405945,-22.847436904907227,-0.07375786453485489,14.131807327270508,0.1714988350868225,2.1517977714538574,-0.39950889348983765,0.0,0.0,0.0,0.0,0.0,0.0,0.0,-0.40546119199638714,-0.042048111368432964,-0.17673823447347375,0.30167578644261683,-0.06070689595271202,-0.03509648866994578,-0.3729283270463901,1.6757503598656571,0.05233039662782212,0.030163880137252984,-2.752495343625768,0.03436608555912971,2.7662939416197534,0.7691967331502172,1.6754973547542302,0.052104326824870026,0.029969505109285054,-2.752394845125968,0.0342448039870148,2.7663679543071322,0.7691630533470046,-0.00033249535277568793,0.00031217841598398004,5.0579977574263514e-05,0.0011263581092473439,-6.786746482902411e-05,-9.832538712259766e-06,0.0009870933006826137,0.0,0.0,0.0,0.0,0.0,0.0,0.0,-0.0002530051114268961,-0.00022606980295209606,-0.00019437502796793016,0.00010049849979987258,-0.00012128157211491186,7.401268737883271e-05,-3.36798032125607e-05,0.00033249535277568793,-0.00031217841598398004,-5.0579977574263514e-05,-0.0011263581092473439,6.786746482902411e-05,9.832538712259766e-06,-0.0009870933006826137,0.3752071261405945,22.847436904907227,0.07375786453485489,-14.131807327270508,-0.1714988350868225,-2.1517977714538574,0.39950889348983765,0
31,0.14999771118164062,-0.4029781222343445,-22.819665908813477,-0.02615044265985489,14.155611038208008,0.1769919991493225,2.1389803886413574,-0.38577598333358765,0.0,0.0,0.0,0.0,0.0,0.0,0.0,-0.4157064324295202,-0.043076459101221896,-0.1851776855578638,0.3033365964340099,-0.05961403064082651,-0.034986511833000174,-0.3740361459385578,1.6757523087074881,0.05232821102443299,0.03016053926552597,-2.75249771700506,0.03436547520756721,2.7662968498936564,0.7691952072713109,1.6754973547542302,0.052104326824870026,0.029969505109285054,-2.752394845125968,0.0342448039870148,2.7663679543071322,0.7691630533470046,-0.0007201963427837682,-0.0007059208979853652,-0.0018186557385597437,0.00033512958044828735,-0.00020192216526977245,0.0005143388879747387,0.00021532746224772642,0.0,0.0,0.0,0.0,0.0,0.0,0.0,-0.00025495395325791925,-0.00022388419956296396,-0.0001910341562409157,0.00010287187909208129,-0.00012067122055241242,7.110441347579766e-05,-3.215392430622188e-05,0.0007201963427837682,0.0007059208979853652,0.0018186557385597437,-0.00033512958044828735,0.00020192216526977245,-0.0005143388879747387,-0.00021532746224772642,0.4029781222343445,22.819665908813477,0.02615044265985489,-14.155611038208008,-0.1769919991493225,-2.1389803886413574,0.38577598333358765,0
32,0.1550002098083496,-0.4029781222343445,-22.819665908813477,-0.02615044265985489,14.155611038208008,0.1769919991493225,2.1389803886413574,-0.38577598333358765,0.0,0.0,0.0,0.0,0.0,0.0,0.0,-0.4157064324295202,-0.043076459101221896,-0.1851776855578638,0.3033365964340099,-0.05961403064082651,-0.034986511833000174,-0.3740361459385578,1.6757523087074881,0.05232821102443299,0.03016053926552597,-2.75249771700506,0.03436547520756721,2.7662968498936564,0.7691952072713109,1.6754973547542302,0.052104326824870026,0.029969505109285054,-2.752394845125968,0.0342448039870148,2.7663679543071322,0.7691630533470046,-0.0007201963427837682,-0.0007059208979853652,-0.0018186557385597437,0.00033512958044828735,-0.00020192216526977245,0.0005143388879747387,0.00021532746224772642,0.0,0.0,0.0,0.0,0.0,0.0,0.0,-0.00025495395325791925,-0.00022388419956296396,-0.0001910341562409157,0.00010287187909208129,-0.00012067122055241242,7.110441347579766e-05,-3.215392430622188e-05,0.0007201963427837682,0.0007059208979853652,0.0018186557385597437,-0.00033512958044828735,0.00020192216526977245,-0.0005143388879747387,-0.00021532746224772642,0.4029781222343445,22.819665908813477,0.02615044265985489,-14.155611038208008,-0.1769919991493225,-2.1389803886413574,0.38577598333358765,0
33,0.15999746322631836,-0.4029781222343445,-22.819665908813477,-0.1253325641155243,14.155611038208008,0.1714988350868225,2.1453890800476074,-0.40591758489608765,0.0,0.0,0.0,0.0,0.0,0.0,0.0,-0.413240633112808,-0.03879258166092026,-0.17920606158091912,0.3019866674621477,-0.06025511733071267,-0.03569211532099955,-0.37513994657742056,1.6757523087074881,0.05232821102309646,0.03016994453858175,-2.7524951748465516,0.03436608555912971,2.7662961491306026,0.7691970920143303,1.6754973547542302,0.052104326824870026,0.029969505109285054,-2.752394845125968,0.0342448039870148,2.7663679543071322,0.7691630533470046,-0.0005790531899375777,-0.00018786532599917457,0.0006302101727782699,0.00046631436128592984,-2.2986474215288822e-05,0.0002578886747871552,0.0017526276421499286,0.0,0.0,0.0,0.0,0.0,0.0,0.0,-0.00025495395325791925,-0.00022388419822643585,-0.0002004394292966956,0.00010032972058349188,-0.00012128157211491186,7.180517652960461e-05,-3.4038667325653194e-05,0.0005790531899375777,0.00018786532599917457,-0.0006302101727782699,-0.00046631436128592984,2.2986474215288822e-05,-0.0002578886747871552,-0.0017526276421499286,0.4029781222343445,22.819665908813477,0.1253325641155243,-14.155611038208008,-0.1714988350868225,-2.1453890800476074,0.40591758489608765,0
34,0.16499996185302734,-0.4029781222343445,-22.819665908813477,-0.1253325641155243,14.155611038208008,0.1714988350868225,2.1453890800476074,-0.40591758489608765,0.0,0.0,0.0,0.0,0.0,0.0,0.0,-0.413240633112808,-0.03879258166092026,-0.17920606158091912,0.3019866674621477,-0.06025511733071267,-0.03569211532099955,-0.37513994657742056,1.6757523087074881,0.05232821102309646,0.03016994453858175,-2.7524951748465516,0.03436608555912971,2.7662961491306026,0.7691970920143303,1.6754973547542302,0.052104326824870026,0.029969505109285054,-2.752394845125968,0.0342448039870148,2.7663679543071322,0.7691630533470046,-0.0005790531899375777,-0.00018786532599917457,0.0006302101727782699,0.00046631436128592984,-2.2986474215288822e-05,0.0002578886747871552,0.0017526276421499286,0.0,0.0,0.0,0.0,0.0,0.0,0.0,-0.00025495395325791925,-0.00022388419822643585,-0.0002004394292966956,0.00010032972058349188,-0.00012128157211491186,7.180517652960461e-05,-3.4038667325653194e-05,0.0005790531899375777,0.00018786532599917457,-0.0006302101727782699,-0.00046631436128592984,2.2986474215288822e-05,-0.0002578886747871552,-0.0017526276421499286,0.4029781222343445,22.819665908813477,0.1253325641155243,-14.155611038208008,-0.1714988350868225,-2.1453890800476074,0.40591758489608765,0
35,0.1700153350830078,-0.4029781222343445,-22.871240615844727,-0.1253325641155243,14.207185745239258,0.1595969796180725,2.1517977714538574,-0.39950889348983765,0.0,0.0,0.0,0.0,0.0,0.0,0.0,-0.41230675905944403,-0.04285806275439074,-0.17975102174821198,0.30581285127868596,-0.061440589211137105,-0.035168831562093904,-0.3739541565734044,1.6757523087074881,0.05233183030078285,0.030167499455066353,-2.7525006517174924,0.034367407987515135,2.766295320554638,0.769196732988047,1.6754973547542302,0.052104326824870026,0.029969505109285054,-2.752394845125968,0.0342448039870148,2.7663679543071322,0.7691630533470046,-0.00031186199864346743,0.0007470972710276537,0.000556058923452225,-0.0006126687639736542,0.0003371766896889138,-3.569565870111666e-05,0.001080123901366768,0.0,0.0,0.0,0.0,0.0,0.0,0.0,-0.00025495395325791925,-0.00022750347591282694,-0.00019799434578129937,0.00010580659152426009,-0.00012260400050033426,7.263375249433324e-05,-3.3679641042394515e-05,0.00031186199864346743,-0.0007470972710276537,-0.000556058923452225,0.0006126687639736542,-0.0003371766896889138,3.569565870111666e-05,-0.001080123901366768,0.4029781222343445,22.871240615844727,0.1253325641155243,-14.207185745239258,-0.1595969796180725,-2.1517977714538574,0.39950889348983765,0
36,0.17685389518737793,-0.4029781222343445,-22.871240615844727,-0.1253325641155243,14.207185745239258,0.1595969796180725,2.1517977714538574,-0.39950889348983765,0.0,0.0,0.0,0.0,0.0,0.0,0.0,-0.41230675905944403,-0.04285806275439074,-0.17975102174821198,0.30581285127868596,-0.061440589211137105,-0.035168831562093904,-0.3739541565734044,1.6757523087074881,0.05233183030078285,0.030167499455066353,-2.7525006517174924,0.034367407987515135,2.766295320554638,0.769196732988047,1.6754973547542302,0.052104326824870026,0.029969505109285054,-2.752394845125968,0.0342448039870148,2.7663679543071322,0.7691630533470046,-0.00031186199864346743,0.0007470972710276537,0.000556058923452225,-0.0006126687639736542,0.0003371766896889138,-3.569565870111666e-05,0.001080123901366768,0.0,0.0,0.0,0.0,0.0,0.0,0.0,-0.00025495395325791925,-0.00022750347591282694,-0.00019799434578129937,0.00010580659152426009,-0.00012260400050033426,7.263375249433324e-05,-3.3679641042394515e-05,0.00031186199864346743,-0.0007470972710276537,-0.000556058923452225,0.0006126687639736542,-0.0003371766896889138,3.569565870111666e-05,-0.001080123901366768,0.4029781222343445,22.871240615844727,0.1253325641155243,-14.207185745239258,-0.1595969796180725,-2.1517977714538574,0.39950889348983765,0
37,0.18078851699829102,-0.4267818331718445,-22.795862197875977,-0.1253325641155243,14.179414749145508,0.1595969796180725,2.1389803886413574,-0.37845176458358765,0.0,0.0,0.0,0.0,0.0,0.0,0.0,-0.40840307682127114,-0.03910701323788628,-0.17708548328163218,0.30523902993985635,-0.06268904455796329,-0.035278136251455976,-0.3725514764894765,1.6757539791433436,0.052326540912018826,0.03016749941440028,-2.752496948087613,0.034367407987515135,2.7662958425911204,0.7691912145548387,1.6754973547542302,0.052104326824870026,0.029969505109285054,-2.752394845125968,0.0342448039870148,2.7663679543071322,0.7691630533470046,0.0007781133128311174,-0.000791280791607586,0.0006820525673473628,-0.00021173811471459362,0.00018632907965656967,0.0004638138010577662,0.0005856406434933463,0.0,0.0,0.0,0.0,0.0,0.0,0.0,-0.00025662438911333574,-0.00022221408714880042,-0.0001979943051152247,0.00010210296164503418,-0.00012260400050033426,7.211171601184674e-05,-2.8161207834109803e-05,-0.0007781133128311174,0.000791280791607586,-0.0006820525673473628,0.00021173811471459362,-0.00018632907965656967,-0.0004638138010577662,-0.0005856406434933463,0.4267818331718445,22.795862197875977,0.1253325641155243,-14.179414749145508,-0.1595969796180725,-2.1389803886413574,0.37845176458358765,0
38,0.18495607376098633,-0.4267818331718445,-22.795862197875977,-0.1253325641155243,14.179414749145508,0.1595969796180725,2.1389803886413574,-0.37845176458358765,0.0,0.0,0.0,0.0,0.0,0.0,0.0,-0.40840307682127114,-0.03910701323788628,-0.17708548328163218,0.30523902993985635,-0.06268904455796329,-0.035278136251455976,-0.3725514764894765,1.6757539791433436,0.052326540912018826,0.03016749941440028,-2.752496948087613,0.034367407987515135,2.7662958425911204,0.7691912145548387,1.6754973547542302,0.052104326824870026,0.029969505109285054,-2.752394845125968,0.0342448039870148,2.7663679543071322,0.7691630533470046,0.0007781133128311174,-0.000791280791607586,0.0006820525673473628,-0.00021173811471459362,0.00018632907965656967,0.0004638138010577662,0.0005856406434933463,0.0,0.0,0.0,0.0,0.0,0.0,0.0,-0.00025662438911333574,-0.00022221408714880042,-0.0001979943051152247,0.00010210296164503418,-0.00012260400050033426,7.211171601184674e-05,-2.8161207834109803e-05,-0.0007781133128311174,0.000791280791607586,-0.0006820525673473628,0.00021173811471459362,-0.00018632907965656967,-0.0004638138010577662,-0.0005856406434933463,0.4267818331718445,22.795862197875977,0.1253325641155243,-14.179414749145508,-0.1595969796180725,-2.1389803886413574,0.37845176458358765,0
39,0.18999457359313965,-0.4029781222343445,-22.819665908813477,-0.07375786453485489,14.131807327270508,0.1650901436805725,2.1389803886413574,-0.37845176458358765,0.0,0.0,0.0,0.0,0.0,0.0,0.0,-0.40653821139622487,-0.03993805034766758,-0.17685140868317567,0.30629799673239827,-0.06401071242753453,-0.03501203963911037,-0.3717218393279441,1.6757523087074881,0.052328289944063126,0.030163880137236494,-2.752495366297888,0.03436679763595263,2.7662968573256053,0.7691943934512825,1.6754973547542302,0.052104326824870026,0.029969505109285054,-2.752394845125968,0.0342448039870148,2.7663679543071322,0.7691630533470046,0.00018070516447409553,-0.0004962512084235897,-0.00043710980398239014,0.0010513542363694754,-9.841917622418113e-05,0.00044853749974852375,0.00040581716175842794,0.0,0.0,0.0,0.0,0.0,0.0,0.0,-0.00025495395325791925,-0.00022396311919310047,-0.00019437502795143988,0.00010052117192005383,-0.00012199364893782788,7.109698152696353e-05,-3.134010427785494e-05,-0.00018070516447409553,0.0004962512084235897,0.00043710980398239014,-0.0010513542363694754,9.841917622418113e-05,-0.00044853749974852375,-0.00040581716175842794,0.4029781222343445,22.819665908813477,0.07375786453485489,-14.131807327270508,-0.1650901436805725,-2.1389803886413574,0.37845176458358765,0
40,0.19499754905700684,-0.4029781222343445,-22.819665908813477,-0.07375786453485489,14.131807327270508,0.1650901436805725,2.1389803886413574,-0.37845176458358765,0.0,0.0,0.0,0.0,0.0,0.0,0.0,-0.40653821139622487,-0.03993805034766758,-0.17685140868317567,0.30629799673239827,-0.06401071242753453,-0.03501203963911037,-0.3717218393279441,1.6757523087074881,0.052328289944063126,0.030163880137236494,-2.752495366297888,0.03436679763595263,2.7662968573256053,0.7691943934512825,1.6754973547542302,0.052104326824870026,0.029969505109285054,-2.752394845125968,0.0342448039870148,2.7663679543071322,0.7691630533470046,0.00018070516447409553,-0.0004962512084235897,-0.00043710980398239014,0.0010513542363694754,-9.841917622418113e-05,0.00044853749974852375,0.00040581716175842794,0.0,0.0,0.0,0.0,0.0,0.0,0.0,-0.00025495395325791925,-0.00022396311919310047,-0.00019437502795143988,0.00010052117192005383,-0.00012199364893782788,7.109698152696353e-05,-3.134010427785494e-05,-0.00018070516447409553,0.0004962512084235897,0.00043710980398239014,-0.0010513542363694754,9.841917622418113e-05,-0.00044853749974852375,-0.00040581716175842794,0.4029781222343445,22.819665908813477,0.07375786453485489,-14.131807327270508,-0.1650901436805725,-2.1389803886413574,0.37845176458358765,0
41,0.1999976634979248,-0.4029781222343445,-22.819665908813477,-0.09756157547235489,14.155611038208008,0.1650901436805725,2.1389803886413574,-0.37845176458358765,0.0,0.0,0.0,0.0,0.0,0.0,0.0,-0.4094146554596215,-0.042056845011057845,-0.18002692448324162,0.30800606949834547,-0.06436060986570052,-0.03483968065595774,-0.3725241922408069,1.6757523087074881,0.052328213946540664,0.030165550573091757,-2.7524973130474244,0.03436679763595263,2.7662967710335167,0.7691943891085767,1.6754973547542302,0.052104326824870026,0.029969505109285054,-2.752394845125968,0.0342448039870148,2.7663679543071322,0.7691630533470046,5.240579801253839e-05,-0.0008714694752303702,0.00014411436181343735,0.0004570366232086639,1.2781801794574316e-05,0.00023672799400007233,0.0002908244259425083,0.0,0.0,0.0,0.0,0.0,0.0,0.0,-0.00025495395325791925,-0.00022388712167063785,-0.0001960454638067037,0.00010246792145629513,-0.00012199364893782788,7.118327361554933e-05,-3.133576157210438e-05,-5.240579801253839e-05,0.0008714694752303702,-0.00014411436181343735,-0.0004570366232086639,-1.2781801794574316e-05,-0.00023672799400007233,-0.0002908244259425083,0.4029781222343445,22.819665908813477,0.09756157547235489,-14.155611038208008,-0.1650901436805725,-2.1389803886413574,0.37845176458358765,0
42,0.20499730110168457,-0.4029781222343445,-22.819665908813477,-0.09756157547235489,14.155611038208008,0.1650901436805725,2.1389803886413574,-0.37845176458358765,0.0,0.0,0.0,0.0,0.0,0.0,0.0,-0.4094146554596215,-0.042056845011057845,-0.18002692448324162,0.30800606949834547,-0.06436060986570052,-0.03483968065595774,-0.3725241922408069,1.6757523087074881,0.052328213946540664,0.030165550573091757,-2.7524973130474244,0.03436679763595263,2.7662967710335167,0.7691943891085767,1.6754973547542302,0.052104326824870026,0.029969505109285054,-2.752394845125968,0.0342448039870148,2.7663679543071322,0.7691630533470046,5.240579801253839e-05,-0.0008714694752303702,0.00014411436181343735,0.0004570366232086639,1.2781801794574316e-05,0.00023672799400007233,0.0002908244259425083,0.0,0.0,0.0,0.0,0.0,0.0,0.0,-0.00025495395325791925,-0.00022388712167063785,-0.0001960454638067037,0.00010246792145629513,-0.00012199364893782788,7.118327361554933e-05,-3.133576157210438e-05,-5.240579801253839e-05,0.0008714694752303702,-0.00014411436181343735,-0.0004570366232086639,-1.2781801794574316e-05,-0.00023672799400007233,-0.0002908244259425083,0.4029781222343445,22.819665908813477,0.09756157547235489,-14.155611038208008,-0.1650901436805725,-2.1389803886413574,0.37845176458358765,0
43,0.20999646186828613,-0.4029781222343445,-22.819665908813477,-0.07375786453485489,14.155611038208008,0.1769919991493225,2.1453890800476074,-0.35831016302108765,0.0,0.0,0.0,0.0,0.0,0.0,0.0,-0.41089552906906335,-0.03918059959312687,-0.18321057878110852,0.3064741555831503,-0.06464634764914007,-0.03558969207880271,-0.3742720975330806,1.6757523087074881,0.05232821113137217,0.030163880137236494,-2.7524979564630008,0.03436547520756721,2.7662926538263326,0.7691921119069665,1.6754973547542302,0.052104326824870026,0.029969505109285054,-2.752394845125968,0.0342448039870148,2.7663679543071322,0.7691630533470046,-0.0004015502451688907,-0.0003230548976686665,-0.0002249851795546312,0.00047055262882730615,-0.00019348321072747086,4.7828415642191695e-06,-0.000958794721532429,0.0,0.0,0.0,0.0,0.0,0.0,0.0,-0.00025495395325791925,-0.0002238843065021437,-0.00019437502795143988,0.00010311133703266862,-0.00012067122055241242,7.53004807996227e-05,-2.905855996182538e-05,0.0004015502451688907,0.0003230548976686665,0.0002249851795546312,-0.00047055262882730615,0.00019348321072747086,-4.7828415642191695e-06,0.000958794721532429,0.4029781222343445,22.819665908813477,0.07375786453485489,-14.155611038208008,-0.1769919991493225,-2.1453890800476074,0.35831016302108765,0
44,0.21500897407531738,-0.4029781222343445,-22.819665908813477,-0.07375786453485489,14.155611038208008,0.1769919991493225,2.1453890800476074,-0.35831016302108765,0.0,0.0,0.0,0.0,0.0,0.0,0.0,-0.41089552906906335,-0.03918059959312687,-0.18321057878110852,0.3064741555831503,-0.06464634764914007,-0.03558969207880271,-0.3742720975330806,1.6757523087074881,0.05232821113137217,0.030163880137236494,-2.7524979564630008,0.03436547520756721,2.7662926538263326,0.7691921119069665,1.6754973547542302,0.052104326824870026,0.029969505109285054,-2.752394845125968,0.0342448039870148,2.7663679543071322,0.7691630533470046,-0.0004015502451688907,-0.0003230548976686665,-0.0002249851795546312,0.00047055262882730615,-0.00019348321072747086,4.7828415642191695e-06,-0.000958794721532429,0.0,0.0,0.0,0.0,0.0,0.0,0.0,-0.00025495395325791925,-0.0002238843065021437,-0.00019437502795143988,0.00010311133703266862,-0.00012067122055241242,7.53004807996227e-05,-2.905855996182538e-05,0.0004015502451688907,0.0003230548976686665,0.0002249851795546312,-0.00047055262882730615,0.00019348321072747086,-4.7828415642191695e-06,0.000958794721532429,0.4029781222343445,22.819665908813477,0.07375786453485489,-14.155611038208008,-0.1769919991493225,-2.1453890800476074,0.35831016302108765,0
45,0.21999883651733398,-0.4267818331718445,-22.819665908813477,-0.09756157547235489,14.155611038208008,0.1714988350868225,2.1453890800476074,-0.35098594427108765,0.0,0.0,0.0,0.0,0.0,0.0,0.0,-0.41271411952409387,-0.04012088864868825,-0.18368215280925798,0.3066425902386218,-0.06370478445442726,-0.03582477784188548,-0.3754905248662408,1.6757539791433436,0.052328211023097065,0.030165550573091757,-2.752497258253772,0.03436608555912971,2.7662960711037385,0.769191341711169,1.6754973547542302,0.052104326824870026,0.029969505109285054,-2.752394845125968,0.0342448039870148,2.7663679543071322,0.7691630533470046,0.0002986720905140298,-0.0004382959779296315,-0.0005834914917404546,0.00033772240258994775,0.00011241056651607329,4.312172723778707e-05,-0.0014278564088891128,0.0,0.0,0.0,0.0,0.0,0.0,0.0,-0.00025662438911333574,-0.00022388419822703953,-0.0001960454638067037,0.00010241312780401302,-0.00012128157211491186,7.188320339368559e-05,-2.8288364164352764e-05,-0.0002986720905140298,0.0004382959779296315,0.0005834914917404546,-0.00033772240258994775,-0.00011241056651607329,-4.312172723778707e-05,0.0014278564088891128,0.4267818331718445,22.819665908813477,0.09756157547235489,-14.155611038208008,-0.1714988350868225,-2.1453890800476074,0.35098594427108765,0
46,0.22501730918884277,-0.4267818331718445,-22.819665908813477,-0.09756157547235489,14.155611038208008,0.1714988350868225,2.1453890800476074,-0.35098594427108765,0.0,0.0,0.0,0.0,0.0,0.0,0.0,-0.41271411952409387,-0.04012088864868825,-0.18368215280925798,0.3066425902386218,-0.06370478445442726,-0.03582477784188548,-0.3754905248662408,1.6757539791433436,0.052328211023097065,0.030165550573091757,-2.752497258253772,0.03436608555912971,2.7662960711037385,0.769191341711169,1.6754973547542302,0.052104326824870026,0.029969505109285054,-2.752394845125968,0.0342448039870148,2.7663679543071322,0.7691630533470046,0.0002986720905140298,-0.0004382959779296315,-0.0005834914917404546,0.00033772240258994775,0.00011241056651607329,4.312172723778707e-05,-0.0014278564088891128,0.0,0.0,0.0,0.0,0.0,0.0,0.0,-0.00025662438911333574,-0.00022388419822703953,-0.0001960454638067037,0.00010241312780401302,-0.00012128157211491186,7.188320339368559e-05,-2.8288364164352764e-05,-0.0002986720905140298,0.0004382959779296315,0.0005834914917404546,-0.00033772240258994775,-0.00011241056651607329,-4.312172723778707e-05,0.0014278564088891128,0.4267818331718445,22.819665908813477,0.09756157547235489,-14.155611038208008,-0.1714988350868225,-2.1453890800476074,0.35098594427108765,0
47,0.23000860214233398,-0.4267818331718445,-22.847436904907227,-0.07375786453485489,14.131807327270508,0.1714988350868225,2.1389803886413574,-0.35831016302108765,0.0,0.0,0.0,0.0,0.0,0.0,0.0,-0.4072380446775692,-0.036182365657904676,-0.17766132240238955,0.30396963366473334,-0.06342202568586582,-0.03646694787865519,-0.37632718046675834,1.6757539791433436,0.052330159864927596,0.03016459001199892,-2.75249353254238,0.03436608555912971,2.766296900937422,0.7691921540599481,1.6754973547542302,0.052104326824870026,0.029969505109285054,-2.752394845125968,0.0342448039870148,2.7663679543071322,0.7691630533470046,0.00039947035543847517,0.0006038483856508487,0.00016223374290680787,0.0009422120933141402,6.0871453402259924e-05,0.00045515009811171225,-0.0008970692203758197,0.0,0.0,0.0,0.0,0.0,0.0,0.0,-0.00025662438911333574,-0.00022583304005757004,-0.00019508490271386708,9.868741641172463e-05,-0.00012128157211491186,7.105336971013898e-05,-2.910071294348615e-05,-0.00039947035543847517,-0.0006038483856508487,-0.00016223374290680787,-0.0009422120933141402,-6.0871453402259924e-05,-0.00045515009811171225,0.0008970692203758197,0.4267818331718445,22.847436904907227,0.07375786453485489,-14.131807327270508,-0.1714988350868225,-2.1389803886413574,0.35831016302108765,0
48,0.23506379127502441,-0.4267818331718445,-22.847436904907227,-0.07375786453485489,14.131807327270508,0.1714988350868225,2.1389803886413574,-0.35831016302108765,0.0,0.0,0.0,0.0,0.0,0.0,0.0,-0.4072380446775692,-0.036182365657904676,-0.17766132240238955,0.30396963366473334,-0.06342202568586582,-0.03646694787865519,-0.37632718046675834,1.6757539791433436,0.052330159864927596,0.03016459001199892,-2.75249353254238,0.03436608555912971,2.766296900937422,0.7691921540599481,1.6754973547542302,0.052104326824870026,0.029969505109285054,-2.752394845125968,0.0342448039870148,2.7663679543071322,0.7691630533470046,0.00039947035543847517,0.0006038483856508487,0.00016223374290680787,0.0009422120933141402,6.0871453402259924e-05,0.00045515009811171225,-0.0008970692203758197,0.0,0.0,0.0,0.0,0.0,0.0,0.0,-0.00025662438911333574,-0.00022583304005757004,-0.00019508490271386708,9.868741641172463e-05,-0.00012128157211491186,7.105336971013898e-05,-2.910071294348615e-05,-0.00039947035543847517,-0.0006038483856508487,-0.00016223374290680787,-0.0009422120933141402,-6.0871453402259924e-05,-0.00045515009811171225,0.0008970692203758197,0.4267818331718445,22.847436904907227,0.07375786453485489,-14.131807327270508,-0.1714988350868225,-2.1389803886413574,0.35831016302108765,0
49,0.2400069236755371,-0.3514034152030945,-22.847436904907227,-0.1253325641155243,14.155611038208008,0.1714988350868225,2.1453890800476074,-0.35831016302108765,0.0,0.0,0.0,0.0,0.0,0.0,0.0,-0.4142590346316249,-0.038806346672081035,-0.17924853155280301,0.30484397201492225,-0.06228794474657585,-0.03643783673653936,-0.37498299642122496,1.6757486894298017,0.052332290730978316,0.030167499415735804,-2.752495880439379,0.03436608555912971,2.766292618295843,0.7691889765991077,1.6754973547542302,0.052104326824870026,0.029969505109285054,-2.752394845125968,0.0342448039870148,2.7663679543071322,0.7691630533470046,-0.0013833120866296321,0.0003573186116509062,0.0006425535560123163,0.00020935212678830612,-3.0475599411532645e-05,9.678233082423732e-05,-0.0004248887492245788,0.0,0.0,0.0,0.0,0.0,0.0,0.0,-0.0002513346755714796,-0.00022796390610829026,-0.00019799430645075014,0.00010103531341076888,-0.00012128157211491186,7.533601128928424e-05,-2.5923252103043914e-05,0.0013833120866296321,-0.0003573186116509062,-0.0006425535560123163,-0.00020935212678830612,3.0475599411532645e-05,-9.678233082423732e-05,0.0004248887492245788,0.3514034152030945,22.847436904907227,0.1253325641155243,-14.155611038208008,-0.1714988350868225,-2.1453890800476074,0.35831016302108765,0
50,0.24504876136779785,-0.3514034152030945,-22.847436904907227,-0.1253325641155243,14.155611038208008,0.1714988350868225,2.1453890800476074,-0.35831016302108765,0.0,0.0,0.0,0.0,0.0,0.0,0.0,-0.4142590346316249,-0.038806346672081035,-0.17924853155280301,0.30484397201492225,-0.06228794474657585,-0.03643783673653936,-0.37498299642122496,1.6757486894298017,0.052332290730978316,0.030167499415735804,-2.752495880439379,0.03436608555912971,2.766292618295843,0.7691889765991077,1.6754973547542302,0.052104326824870026,0.029969505109285054,-2.752394845125968,0.0342448039870148,2.7663679543071322,0.7691630533470046,-0.0013833120866296321,0.0003573186116509062,0.0006425535560123163,0.00020935212678830612,-3.0475599411532645e-05,9.678233082423732e-05,-0.0004248887492245788,0.0,0.0,0.0,0.0,0.0,0.0,0.0,-0.0002513346755714796,-0.00022796390610829026,-0.00019799430645075014,0.00010103531341076888,-0.00012128157211491186,7.533601128928424e-05,-2.5923252103043914e-05,0.0013833120866296321,-0.0003573186116509062,-0.0006425535560123163,-0.00020935212678830612,3.0475599411532645e-05,-9.678233082423732e-05,0.0004248887492245788,0.3514034152030945,22.847436904907227,0.1253325641155243,-14.155611038208008,-0.1714988350868225,-2.1453890800476074,0.35831016302108765,0
51,0.2500441074371338,-0.4029781222343445,-22.847436904907227,-0.1253325641155243,14.179414749145508,0.1769919991493225,2.1582064628601074,-0.37204307317733765,0.0,0.0,0.0,0.0,0.0,0.0,0.0,-0.41277525526351366,-0.03692806237926041,-0.18068765763354075,0.3020623647855614,-0.06209460289027234,-0.03694432808348849,-0.37377911163107574,1.6757523087074881,0.052330159901014,0.03016749941440007,-2.7524969243316053,0.03436547520756721,2.7662936657631483,0.7691936813385695,1.6754973547542302,0.052104326824870026,0.029969505109285054,-2.752394845125968,0.0342448039870148,2.7663679543071322,0.7691630533470046,-0.0002660481020549685,0.00030229718293908444,0.0005826272682533473,-0.00047103027380022186,-0.00013169686771871513,-0.0003536063650528682,4.294916640491844e-05,0.0,0.0,0.0,0.0,0.0,0.0,0.0,-0.00025495395325791925,-0.00022583307614397474,-0.00019799430511501653,0.00010207920563720663,-0.00012067122055241242,7.428854398394691e-05,-3.062799156483553e-05,0.0002660481020549685,-0.00030229718293908444,-0.0005826272682533473,0.00047103027380022186,0.00013169686771871513,0.0003536063650528682,-4.294916640491844e-05,0.4029781222343445,22.847436904907227,0.1253325641155243,-14.179414749145508,-0.1769919991493225,-2.1582064628601074,0.37204307317733765,0
52,0.2550468444824219,-0.4029781222343445,-22.847436904907227,-0.1253325641155243,14.179414749145508,0.1769919991493225,2.1582064628601074,-0.37204307317733765,0.0,0.0,0.0,0.0,0.0,0.0,0.0,-0.41277525526351366,-0.03692806237926041,-0.18068765763354075,0.3020623647855614,-0.06209460289027234,-0.03694432808348849,-0.37377911163107574,1.6757523087074881,0.052330159901014,0.03016749941440007,-2.7524969243316053,0.03436547520756721,2.7662936657631483,0.7691936813385695,1.6754973547542302,0.052104326824870026,0.029969505109285054,-2.752394845125968,0.0342448039870148,2.7663679543071322,0.7691630533470046,-0.0002660481020549685,0.00030229718293908444,0.0005826272682533473,-0.00047103027380022186,-0.00013169686771871513,-0.0003536063650528682,4.294916640491844e-05,0.0,0.0,0.0,0.0,0.0,0.0,0.0,-0.00025495395325791925,-0.00022583307614397474,-0.00019799430511501653,0.00010207920563720663,-0.00012067122055241242,7.428854398394691e-05,-3.062799156483553e-05,0.0002660481020549685,-0.00030229718293908444,-0.0005826272682533473,0.00047103027380022186,0.00013169686771871513,0.0003536063650528682,-4.294916640491844e-05,0.4029781222343445,22.847436904907227,0.1253325641155243,-14.179414749145508,-0.1769919991493225,-2.1582064628601074,0.37204307317733765,0
53,0.26006221771240234,-0.4029781222343445,-22.847436904907227,-0.1253325641155243,14.179414749145508,0.1769919991493225,2.1582064628601074,-0.37204307317733765,0.0,0.0,0.0,0.0,0.0,0.0,0.0,-0.41277525526351366,-0.03692806237926041,-0.18068765763354075,0.3020623647855614,-0.06209460289027234,-0.03694432808348849,-0.37377911163107574,1.6757523087074881,0.052330159901014,0.03016749941440007,-2.7524969243316053,0.03436547520756721,2.7662936657631483,0.7691936813385695,1.6754973547542302,0.052104326824870026,0.029969505109285054,-2.752394845125968,0.0342448039870148,2.7663679543071322,0.7691630533470046,-0.0002660481020549685,0.00030229718293908444,0.0005826272682533473,-0.00047103027380022186,-0.00013169686771871513,-0.0003536063650528682,4.294916640491844e-05,0.0,0.0,0.0,0.0,0.0,0.0,0.0,-0.00025495395325791925,-0.00022583307614397474,-0.00019799430511501653,0.00010207920563720663,-0.00012067122055241242,7.428854398394691e-05,-3.062799156483553e-05,0.0002660481020549685,-0.00030229718293908444,-0.0005826272682533473,0.00047103027380022186,0.00013169686771871513,0.0003536063650528682,-4.294916640491844e-05,0.4029781222343445,22.847436904907227,0.1253325641155243,-14.179414749145508,-0.1769919991493225,-2.1582064628601074,0.37204307317733765,0
54,0.2650022506713867,-0.4029781222343445,-22.847436904907227,-0.1253325641155243,14.179414749145508,0.1769919991493225,2.1582064628601074,-0.37204307317733765,0.0,0.0,0.0,0.0,0.0,0.0,0.0,-0.41277525526351366,-0.03692806237926041,-0.18068765763354075,0.3020623647855614,-0.06209460289027234,-0.03694432808348849,-0.37377911163107574,1.6757523087074881,0.052330159901014,0.03016749941440007,-2.7524969243316053,0.03436547520756721,2.7662936657631483,0.7691936813385695,1.6754973547542302,0.052104326824870026,0.029969505109285054,-2.752394845125968,0.0342448039870148,2.7663679543071322,0.7691630533470046,-0.0002660481020549685,0.00030229718293908444,0.0005826272682533473,-0.00047103027380022186,-0.00013169686771871513,-0.0003536063650528682,4.294916640491844e-05,0.0,0.0,0.0,0.0,0.0,0.0,0.0,-0.00025495395325791925,-0.00022583307614397474,-0.00019799430511501653,0.00010207920563720663,-0.00012067122055241242,7.428854398394691e-05,-3.062799156483553e-05,0.0002660481020549685,-0.00030229718293908444,-0.0005826272682533473,0.00047103027380022186,0.00013169686771871513,0.0003536063650528682,-4.294916640491844e-05,0.4029781222343445,22.847436904907227,0.1253325641155243,-14.179414749145508,-0.1769919991493225,-2.1582064628601074,0.37204307317733765,0
55,0.2700061798095703,-0.4267818331718445,-22.847436904907227,-0.1253325641155243,14.131807327270508,0.1650901436805725,2.1389803886413574,-0.41965049505233765,0.0,0.0,0.0,0.0,0.0,0.0,0.0,-0.4187198621585628,-0.03778566580022787,-0.18809570213964985,0.301845885405629,-0.060243232926183894,-0.03684040855317074,-0.37221872351906227,1.6757539791433436,0.052330168633923896,0.03016749941440005,-2.752493294334556,0.03436679763595263,2.7662958427473043,0.7691947320689121,1.6754973547542302,0.052104326824870026,0.029969505109285054,-2.752394845125968,0.0342448039870148,2.7663679543071322,0.7691630533470046,0.00015928408634022855,-8.849146266904255e-05,8.910694776140231e-05,0.00036780861351385415,-0.00049178939837899,0.0003288310882598965,0.001583236318195984,0.0,0.0,0.0,0.0,0.0,0.0,0.0,-0.00025662438911333574,-0.00022584180905386997,-0.00019799430511499572,9.844920858803619e-05,-0.00012199364893782788,7.211155982789208e-05,-3.1678721907457685e-05,-0.00015928408634022855,8.849146266904255e-05,-8.910694776140231e-05,-0.00036780861351385415,0.00049178939837899,-0.0003288310882598965,-0.001583236318195984,0.4267818331718445,22.847436904907227,0.1253325641155243,-14.131807327270508,-0.1650901436805725,-2.1389803886413574,0.41965049505233765,0
56,0.27500367164611816,-0.4267818331718445,-22.847436904907227,-0.1253325641155243,14.131807327270508,0.1650901436805725,2.1389803886413574,-0.41965049505233765,0.0,0.0,0.0,0.0,0.0,0.0,0.0,-0.4187198621585628,-0.03778566580022787,-0.18809570213964985,0.301845885405629,-0.060243232926183894,-0.03684040855317074,-0.37221872351906227,1.6757539791433436,0.052330168633923896,0.03016749941440005,-2.752493294334556,0.03436679763595263,2.7662958427473043,0.7691947320689121,1.6754973547542302,0.052104326824870026,0.029969505109285054,-2.752394845125968,0.0342448039870148,2.7663679543071322,0.7691630533470046,0.00015928408634022855,-8.849146266904255e-05,8.910694776140231e-05,0.00036780861351385415,-0.00049178939837899,0.0003288310882598965,0.001583236318195984,0.0,0.0,0.0,0.0,0.0,0.0,0.0,-0.00025662438911333574,-0.00022584180905386997,-0.00019799430511499572,9.844920858803619e-05,-0.00012199364893782788,7.211155982789208e-05,-3.1678721907457685e-05,-0.00015928408634022855,8.849146266904255e-05,-8.910694776140231e-05,-0.00036780861351385415,0.00049178939837899,-0.0003288310882598965,-0.001583236318195984,0.4267818331718445,22.847436904907227,0.1253325641155243,-14.131807327270508,-0.1650901436805725,-2.1389803886413574,0.41965049505233765,0
57,0.2800290584564209,-0.4267818331718445,-22.871240615844727,-0.09756157547235489,14.131807327270508,0.1834006905555725,2.1453890800476074,-0.36471885442733765,0.0,0.0,0.0,0.0,0.0,0.0,0.0,-0.41367877196409203,-0.03363230313311448,-0.18691022237917804,0.29698658868438227,-0.06145896426223225,-0.03748638275243924,-0.37330822406017333,1.6757539791433436,0.05233183030093136,0.03016562977265373,-2.7524942873260945,0.0343647631307443,2.766296188843327,0.7691928675185329,1.6754973547542302,0.052104326824870026,0.029969505109285054,-2.752394845125968,0.0342448039870148,2.7663679543071322,0.7691630533470046,0.00017900256198584002,0.0010901936572768832,-0.0008148603513793308,0.00047470239299767593,-0.0005045817197832812,7.821370337475744e-05,-0.00039248289370481543,0.0,0.0,0.0,0.0,0.0,0.0,0.0,-0.00025662438911333574,-0.00022750347606133314,-0.00019612466336867487,9.944220012636507e-05,-0.0001199591437294964,7.17654638053844e-05,-2.9814171528252942e-05,-0.00017900256198584002,-0.0010901936572768832,0.0008148603513793308,-0.00047470239299767593,0.0005045817197832812,-7.821370337475744e-05,0.00039248289370481543,0.4267818331718445,22.871240615844727,0.09756157547235489,-14.131807327270508,-0.1834006905555725,-2.1453890800476074,0.36471885442733765,0
58,0.2850489616394043,-0.4267818331718445,-22.871240615844727,-0.09756157547235489,14.131807327270508,0.1834006905555725,2.1453890800476074,-0.36471885442733765,0.0,0.0,0.0,0.0,0.0,0.0,0.0,-0.41367877196409203,-0.03363230313311448,-0.18691022237917804,0.29698658868438227,-0.06145896426223225,-0.03748638275243924,-0.37330822406017333,1.6757539791433436,0.05233183030093136,0.03016562977265373,-2.7524942873260945,0.0343647631307443,2.766296188843327,0.7691928675185329,1.6754973547542302,0.052104326824870026,0.029969505109285054,-2.752394845125968,0.0342448039870148,2.7663679543071322,0.7691630533470046,0.00017900256198584002,0.0010901936572768832,-0.0008148603513793308,0.00047470239299767593,-0.0005045817197832812,7.821370337475744e-05,-0.00039248289370481543,0.0,0.0,0.0,0.0,0.0,0.0,0.0,-0.00025662438911333574,-0.00022750347606133314,-0.00019612466336867487,9.944220012636507e-05,-0.0001199591437294964,7.17654638053844e-05,-2.9814171528252942e-05,-0.00017900256198584002,-0.0010901936572768832,0.0008148603513793308,-0.00047470239299767593,0.0005045817197832812,-7.821370337475744e-05,0.00039248289370481543,0.4267818331718445,22.871240615844727,0.09756157547235489,-14.131807327270508,-0.1834006905555725,-2.1453890800476074,0.36471885442733765,0
59,0.2900400161743164,-0.4029781222343445,-22.795862197875977,-0.1253325641155243,14.155611038208008,0.1769919991493225,2.1453890800476074,-0.39950889348983765,0.0,0.0,0.0,0.0,0.0,0.0,0.0,-0.4118261017116682,-0.03652156273913786,-0.18689392814720923,0.29897621405687846,-0.061872847464171446,-0.03721052986496993,-0.37490591264470063,1.6757523087074881,0.052326540912018826,0.03016823558096937,-2.7524956629950657,0.03436547520756721,2.7662951132340874,0.7691967331502171,1.6754973547542302,0.052104326824870026,0.029969505109285054,-2.752394845125968,0.0342448039870148,2.7663679543071322,0.7691630533470046,-0.00046748502792999687,-0.000725625229449337,0.0005342977445544957,0.00047468117898016166,-0.00018339227375516168,0.00023296872627492614,0.0010870979643886067,0.0,0.0,0.0,0.0,0.0,0.0,0.0,-0.00025495395325791925,-0.00022221408714880042,-0.00019873047168431773,0.00010081786909754697,-0.00012067122055241242,7.284107304483811e-05,-3.367980321244968e-05,0.00046748502792999687,0.000725625229449337,-0.0005342977445544957,-0.00047468117898016166,0.00018339227375516168,-0.00023296872627492614,-0.0010870979643886067,0.4029781222343445,22.795862197875977,0.1253325641155243,-14.155611038208008,-0.1769919991493225,-2.1453890800476074,0.39950889348983765,0
60,0.2950141429901123,-0.4029781222343445,-22.795862197875977,-0.1253325641155243,14.155611038208008,0.1769919991493225,2.1453890800476074,-0.39950889348983765,0.0,0.0,0.0,0.0,0.0,0.0,0.0,-0.4118261017116682,-0.03652156273913786,-0.18689392814720923,0.29897621405687846,-0.061872847464171446,-0.03721052986496993,-0.37490591264470063,1.6757523087074881,0.052326540912018826,0.03016823558096937,-2.7524956629950657,0.03436547520756721,2.7662951132340874,0.7691967331502171,1.6754973547542302,0.052104326824870026,0.029969505109285054,-2.752394845125968,0.0342448039870148,2.7663679543071322,0.7691630533470046,-0.00046748502792999687,-0.000725625229449337,0.0005342977445544957,0.00047468117898016166,-0.00018339227375516168,0.00023296872627492614,0.0010870979643886067,0.0,0.0,0.0,0.0,0.0,0.0,0.0,-0.00025495395325791925,-0.00022221408714880042,-0.00019873047168431773,0.00010081786909754697,-0.00012067122055241242,7.284107304483811e-05,-3.367980321244968e-05,0.00046748502792999687,0.000725625229449337,-0.0005342977445544957,-0.00047468117898016166,0.00018339227375516168,-0.00023296872627492614,-0.0010870979643886067,0.4029781222343445,22.795862197875977,0.1253325641155243,-14.155611038208008,-0.1769919991493225,-2.1453890800476074,0.39950889348983765,0
61,0.30002927780151367,-0.4267818331718445,-22.819665908813477,-0.1253325641155243,14.179414749145508,0.1650901436805725,2.1517977714538574,-0.39950889348983765,0.0,0.0,0.0,0.0,0.0,0.0,0.0,-0.4142391827072665,-0.03653843264133666,-0.1872111630634087,0.30243019850397207,-0.06208599366776469,-0.03720159020250628,-0.37681133879747264,1.6757539791433436,0.05232894761877014,0.030167500392320835,-2.7524973989630936,0.03436679763595263,2.7662953604943494,0.7691956735120878,1.6754973547542302,0.052104326824870026,0.029969505109285054,-2.752394845125968,0.0342448039870148,2.7663679543071322,0.7691630533470046,0.0001661774768139894,-0.00022133267718570804,0.0005169705562569064,0.00011787362128362009,-7.06752739092653e-05,-5.4213459051636206e-05,0.00022925935578823166,0.0,0.0,0.0,0.0,0.0,0.0,0.0,-0.00025662438911333574,-0.00022462079390011408,-0.00019799528303578173,0.00010255383712554078,-0.00012199364893782788,7.25938127827952e-05,-3.2620165083208086e-05,-0.0001661774768139894,0.00022133267718570804,-0.0005169705562569064,-0.00011787362128362009,7.06752739092653e-05,5.4213459051636206e-05,-0.00022925935578823166,0.4267818331718445,22.819665908813477,0.1253325641155243,-14.179414749145508,-0.1650901436805725,-2.1517977714538574,0.39950889348983765,0
62,0.3050107955932617,-0.4267818331718445,-22.819665908813477,-0.1253325641155243,14.179414749145508,0.1650901436805725,2.1517977714538574,-0.39950889348983765,0.0,0.0,0.0,0.0,0.0,0.0,0.0,-0.4142391827072665,-0.03653843264133666,-0.1872111630634087,0.30243019850397207,-0.06208599366776469,-0.03720159020250628,-0.37681133879747264,1.6757539791433436,0.05232894761877014,0.030167500392320835,-2.7524973989630936,0.03436679763595263,2.7662953604943494,0.7691956735120878,1.6754973547542302,0.052104326824870026,0.029969505109285054,-2.752394845125968,0.0342448039870148,2.7663679543071322,0.7691630533470046,0.0001661774768139894,-0.00022133267718570804,0.0005169705562569064,0.00011787362128362009,-7.06752739092653e-05,-5.4213459051636206e-05,0.00022925935578823166,0.0,0.0,0.0,0.0,0.0,0.0,0.0,-0.00025662438911333574,-0.00022462079390011408,-0.00019799528303578173,0.00010255383712554078,-0.00012199364893782788,7.25938127827952e-05,-3.2620165083208086e-05,-0.0001661774768139894,0.00022133267718570804,-0.0005169705562569064,-0.00011787362128362009,7.06752739092653e-05,5.4213459051636206e-05,-0.00022925935578823166,0.4267818331718445,22.819665908813477,0.1253325641155243,-14.179414749145508,-0.1650901436805725,-2.1517977714538574,0.39950889348983765,0
63,0.3100111484527588,-0.4267818331718445,-22.819665908813477,-0.09756157547235489,14.131807327270508,0.1650901436805725,2.1389803886413574,-0.39950889348983765,0.0,0.0,0.0,0.0,0.0,0.0,0.0,-0.4129687199600676,-0.03559153398613691,-0.18527571812693147,0.30294201461652687,-0.06265474846880902,-0.036854337682118446,-0.379616231389474,1.6757539791433436,0.0523282899482194,0.030166260447859704,-2.7524934960011813,0.03436679763595263,2.766296887855478,0.7691956735061062,1.6754973547542302,0.052104326824870026,0.029969505109285054,-2.752394845125968,0.0342448039870148,2.7663679543071322,0.7691630533470046,0.0004893874184171563,-0.0005016125484532496,5.328848305988868e-05,0.0008335396017952198,0.00032248473780670624,0.0004796365747572271,0.0010512515251309537,0.0,0.0,0.0,0.0,0.0,0.0,0.0,-0.00025662438911333574,-0.00022396312334937302,-0.0001967553385746508,9.865087521321314e-05,-0.00012199364893782788,7.106645165411152e-05,-3.2620159101548474e-05,-0.0004893874184171563,0.0005016125484532496,-5.328848305988868e-05,-0.0008335396017952198,-0.00032248473780670624,-0.0004796365747572271,-0.0010512515251309537,0.4267818331718445,22.819665908813477,0.09756157547235489,-14.131807327270508,-0.1650901436805725,-2.1389803886413574,0.39950889348983765,0
64,0.31499433517456055,-0.4267818331718445,-22.819665908813477,-0.09756157547235489,14.131807327270508,0.1650901436805725,2.1389803886413574,-0.39950889348983765,0.0,0.0,0.0,0.0,0.0,0.0,0.0,-0.4129687199600676,-0.03559153398613691,-0.18527571812693147,0.30294201461652687,-0.06265474846880902,-0.036854337682118446,-0.379616231389474,1.6757539791433436,0.0523282899482194,0.030166260447859704,-2.7524934960011813,0.03436679763595263,2.766296887855478,0.7691956735061062,1.6754973547542302,0.052104326824870026,0.029969505109285054,-2.752394845125968,0.0342448039870148,2.7663679543071322,0.7691630533470046,0.0004893874184171563,-0.0005016125484532496,5.328848305988868e-05,0.0008335396017952198,0.00032248473780670624,0.0004796365747572271,0.0010512515251309537,0.0,0.0,0.0,0.0,0.0,0.0,0.0,-0.00025662438911333574,-0.00022396312334937302,-0.0001967553385746508,9.865087521321314e-05,-0.00012199364893782788,7.106645165411152e-05,-3.2620159101548474e-05,-0.0004893874184171563,0.0005016125484532496,-5.328848305988868e-05,-0.0008335396017952198,-0.00032248473780670624,-0.0004796365747572271,-0.0010512515251309537,0.4267818331718445,22.819665908813477,0.09756157547235489,-14.131807327270508,-0.1650901436805725,-2.1389803886413574,0.39950889348983765,0
65,0.319993257522583,-0.4505855441093445,-22.819665908813477,-0.1253325641155243,14.131807327270508,0.1650901436805725,2.1517977714538574,-0.39950889348983765,0.0,0.0,0.0,0.0,0.0,0.0,0.0,-0.4155283014959088,-0.037099004743529805,-0.18655928734616586,0.30260489752931885,-0.06212596704607948,-0.03652676510903502,-0.3784932407030222,1.6757556495791988,0.052328219792538086,0.030167499418407313,-2.7524941881571015,0.034366799097451974,2.7662919330288678,0.7691967195777665,1.6754973547542302,0.052104326824870026,0.029969505109285054,-2.752394845125968,0.0342448039870148,2.7663679543071322,0.7691630533470046,0.0010810161637912516,-0.0007251077082450666,0.00043706304746908743,0.0008717714580516554,7.830155576744944e-05,9.383896261230605e-06,0.0015351847796605685,0.0,0.0,0.0,0.0,0.0,0.0,0.0,-0.0002582948249685302,-0.0002238929676680601,-0.000197994309122259,9.934303113334764e-05,-0.00012199511043717304,7.602127826444871e-05,-3.366623076184183e-05,-0.0010810161637912516,0.0007251077082450666,-0.00043706304746908743,-0.0008717714580516554,-7.830155576744944e-05,-9.383896261230605e-06,-0.0015351847796605685,0.4505855441093445,22.819665908813477,0.1253325641155243,-14.131807327270508,-0.1650901436805725,-2.1517977714538574,0.39950889348983765,0
66,0.3250298500061035,-0.4505855441093445,-22.819665908813477,-0.1253325641155243,14.131807327270508,0.1650901436805725,2.1517977714538574,-0.39950889348983765,0.0,0.0,0.0,0.0,0.0,0.0,0.0,-0.4155283014959088,-0.037099004743529805,-0.18655928734616586,0.30260489752931885,-0.06212596704607948,-0.03652676510903502,-0.3784932407030222,1.6757556495791988,0.052328219792538086,0.030167499418407313,-2.7524941881571015,0.034366799097451974,2.7662919330288678,0.7691967195777665,1.6754973547542302,0.052104326824870026,0.029969505109285054,-2.752394845125968,0.0342448039870148,2.7663679543071322,0.7691630533470046,0.0010810161637912516,-0.0007251077082450666,0.00043706304746908743,0.0008717714580516554,7.830155576744944e-05,9.383896261230605e-06,0.0015351847796605685,0.0,0.0,0.0,0.0,0.0,0.0,0.0,-0.0002582948249685302,-0.0002238929676680601,-0.000197994309122259,9.934303113334764e-05,-0.00012199511043717304,7.602127826444871e-05,-3.366623076184183e-05,-0.0010810161637912516,0.0007251077082450666,-0.00043706304746908743,-0.0008717714580516554,-7.830155576744944e-05,-9.383896261230605e-06,-0.0015351847796605685,0.4505855441093445,22.819665908813477,0.1253325641155243,-14.131807327270508,-0.1650901436805725,-2.1517977714538574,0.39950889348983765,0
67,0.3300046920776367,-0.4267818331718445,-22.795862197875977,-0.07375786453485489,14.179414749145508,0.1714988350868225,2.1517977714538574,-0.39950889348983765,0.0,0.0,0.0,0.0,0.0,0.0,0.0,-0.41323765363650466,-0.03178108316781949,-0.1841758289703635,0.29830682823630145,-0.0627439241176255,-0.03658803107640139,-0.37572294481436647,1.6757539791433436,0.05232654058729069,0.030164116762157325,-2.7524995943472708,0.034366085559137956,2.7662922600577424,0.7691967273359396,1.6754973547542302,0.052104326824870026,0.029969505109285054,-2.752394845125968,0.0342448039870148,2.7663679543071322,0.7691630533470046,-4.617182192519027e-06,-0.00045621950716972647,-0.00037017838923817623,-0.0003192239947129232,-0.00022169337981643478,-0.00017864330764132754,0.001462945048435204,0.0,0.0,0.0,0.0,0.0,0.0,0.0,-0.00025662438911333574,-0.00022221376242066715,-0.00019461165287227092,0.00010474922130265796,-0.00012128157212315527,7.569424938980163e-05,-3.3673988934945775e-05,4.617182192519027e-06,0.00045621950716972647,0.00037017838923817623,0.0003192239947129232,0.00022169337981643478,0.00017864330764132754,-0.001462945048435204,0.4267818331718445,22.795862197875977,0.07375786453485489,-14.179414749145508,-0.1714988350868225,-2.1517977714538574,0.39950889348983765,0
68,0.3350186347961426,-0.4267818331718445,-22.795862197875977,-0.07375786453485489,14.179414749145508,0.1714988350868225,2.1517977714538574,-0.39950889348983765,0.0,0.0,0.0,0.0,0.0,0.0,0.0,-0.41323765363650466,-0.03178108316781949,-0.1841758289703635,0.29830682823630145,-0.0627439241176255,-0.03658803107640139,-0.37572294481436647,1.6757539791433436,0.05232654058729069,0.030164116762157325,-2.7524995943472708,0.034366085559137956,2.7662922600577424,0.7691967273359396,1.6754973547542302,0.052104326824870026,0.029969505109285054,-2.752394845125968,0.0342448039870148,2.7663679543071322,0.7691630533470046,-4.617182192519027e-06,-0.00045621950716972647,-0.00037017838923817623,-0.0003192239947129232,-0.00022169337981643478,-0.00017864330764132754,0.001462945048435204,0.0,0.0,0.0,0.0,0.0,0.0,0.0,-0.00025662438911333574,-0.00022221376242066715,-0.00019461165287227092,0.00010474922130265796,-0.00012128157212315527,7.569424938980163e-05,-3.3673988934945775e-05,4.617182192519027e-06,0.00045621950716972647,0.00037017838923817623,0.0003192239947129232,0.00022169337981643478,0.00017864330764132754,-0.001462945048435204,0.4267818331718445,22.795862197875977,0.07375786453485489,-14.179414749145508,-0.1714988350868225,-2.1517977714538574,0.39950889348983765,0
69,0.34000635147094727,-0.4267818331718445,-22.847436904907227,-0.09756157547235489,14.179414749145508,0.1650901436805725,2.1517977714538574,-0.39950889348983765,0.0,0.0,0.0,0.0,0.0,0.0,0.0,-0.4155893013035425,-0.03114457687973565,-0.18465962740302228,0.29872913445663823,-0.06278554588667401,-0.03663311659856214,-0.37389220572150383,1.6757539791433436,0.0523308704783888,0.030165559338313466,-2.752496616430164,0.03436679763595263,2.766294065368994,0.7691967326656676,1.6754973547542302,0.052104326824870026,0.029969505109285054,-2.752394845125968,0.0342448039870148,2.7663679543071322,0.7691630533470046,0.0003562274378356823,0.0011200533194834924,-0.0001227727011560586,-0.0004114195932581175,0.00020305643143219318,-0.00015560155025021275,0.0014073650897223158,0.0,0.0,0.0,0.0,0.0,0.0,0.0,-0.00025662438911333574,-0.00022654365351877648,-0.00019605422902841188,0.00010177130419597447,-0.00012199364893782788,7.388893813820019e-05,-3.367931866293805e-05,-0.0003562274378356823,-0.0011200533194834924,0.0001227727011560586,0.0004114195932581175,-0.00020305643143219318,0.00015560155025021275,-0.0014073650897223158,0.4267818331718445,22.847436904907227,0.09756157547235489,-14.179414749145508,-0.1650901436805725,-2.1517977714538574,0.39950889348983765,0
70,0.34501194953918457,-0.4267818331718445,-22.847436904907227,-0.09756157547235489,14.179414749145508,0.1650901436805725,2.1517977714538574,-0.39950889348983765,0.0,0.0,0.0,0.0,0.0,0.0,0.0,-0.4155893013035425,-0.03114457687973565,-0.18465962740302228,0.29872913445663823,-0.06278554588667401,-0.03663311659856214,-0.37389220572150383,1.6757539791433436,0.0523308704783888,0.030165559338313466,-2.752496616430164,0.03436679763595263,2.766294065368994,0.7691967326656676,1.6754973547542302,0.052104326824870026,0.029969505109285054,-2.752394845125968,0.0342448039870148,2.7663679543071322,0.7691630533470046,0.0003562274378356823,0.0011200533194834924,-0.0001227727011560586,-0.0004114195932581175,0.00020305643143219318,-0.00015560155025021275,0.0014073650897223158,0.0,0.0,0.0,0.0,0.0,0.0,0.0,-0.00025662438911333574,-0.00022654365351877648,-0.00019605422902841188,0.00010177130419597447,-0.00012199364893782788,7.388893813820019e-05,-3.367931866293805e-05,-0.0003562274378356823,-0.0011200533194834924,0.0001227727011560586,0.0004114195932581175,-0.00020305643143219318,0.00015560155025021275,-0.0014073650897223158,0.4267818331718445,22.847436904907227,0.09756157547235489,-14.179414749145508,-0.1650901436805725,-2.1517977714538574,0.39950889348983765,0
71,0.3500101566314697,-0.4029781222343445,-22.795862197875977,-0.07375786453485489,14.179414749145508,0.1714988350868225,2.1655306816101074,-0.35098594427108765,0.0,0.0,0.0,0.0,0.0,0.0,0.0,-0.4075925564925818,-0.02820692517740517,-0.17877179276072963,0.2974217171640474,-0.06360305805531656,-0.03695495352570358,-0.3732162473437516,1.6757523087074881,0.052327250988195406,0.03016388013728597,-2.752496695777197,0.03436608555912971,2.7662939479904667,0.7691913417114123,1.6754973547542302,0.052104326824870026,0.029969505109285054,-2.752394845125968,0.0342448039870148,2.7663679543071322,0.7691630533470046,0.00020759468401670736,-0.0003527960931194892,-0.00023353043611119186,-0.00038184850535976506,-0.0002400486529838606,-0.0006667953507445791,-0.0012587271370840011,0.0,0.0,0.0,0.0,0.0,0.0,0.0,-0.00025495395325791925,-0.00022292416332538034,-0.00019437502800091766,0.00010185065122891857,-0.00012128157211491186,7.400631666554247e-05,-2.828836440771365e-05,-0.00020759468401670736,0.0003527960931194892,0.00023353043611119186,0.00038184850535976506,0.0002400486529838606,0.0006667953507445791,0.0012587271370840011,0.4029781222343445,22.795862197875977,0.07375786453485489,-14.179414749145508,-0.1714988350868225,-2.1655306816101074,0.35098594427108765,0
72,0.35500288009643555,-0.4029781222343445,-22.795862197875977,-0.07375786453485489,14.179414749145508,0.1714988350868225,2.1655306816101074,-0.35098594427108765,0.0,0.0,0.0,0.0,0.0,0.0,0.0,-0.4075925564925818,-0.02820692517740517,-0.17877179276072963,0.2974217171640474,-0.06360305805531656,-0.03695495352570358,-0.3732162473437516,1.6757523087074881,0.052327250988195406,0.03016388013728597,-2.752496695777197,0.03436608555912971,2.7662939479904667,0.7691913417114123,1.6754973547542302,0.052104326824870026,0.029969505109285054,-2.752394845125968,0.0342448039870148,2.7663679543071322,0.7691630533470046,0.00020759468401670736,-0.0003527960931194892,-0.00023353043611119186,-0.00038184850535976506,-0.0002400486529838606,-0.0006667953507445791,-0.0012587271370840011,0.0,0.0,0.0,0.0,0.0,0.0,0.0,-0.00025495395325791925,-0.00022292416332538034,-0.00019437502800091766,0.00010185065122891857,-0.00012128157211491186,7.400631666554247e-05,-2.828836440771365e-05,-0.00020759468401670736,0.0003527960931194892,0.00023353043611119186,0.00038184850535976506,0.0002400486529838606,0.0006667953507445791,0.0012587271370840011,0.4029781222343445,22.795862197875977,0.07375786453485489,-14.179414749145508,-0.1714988350868225,-2.1655306816101074,0.35098594427108765,0
73,0.3600180149078369,-0.3514034152030945,-22.871240615844727,-0.09756157547235489,14.155611038208008,0.1595969796180725,2.1517977714538574,-0.35098594427108765,0.0,0.0,0.0,0.0,0.0,0.0,0.0,-0.411767146577078,-0.03717194207558301,-0.1789986022483748,0.30278025920989077,-0.06351192876528056,-0.03550797177293229,-0.37532244118692876,1.6757486894298017,0.05233183030479309,0.030165550573091757,-2.752497108537701,0.034367407987515135,2.7662954737158185,0.769189928860576,1.6754973547542302,0.052104326824870026,0.029969505109285054,-2.752394845125968,0.0342448039870148,2.7663679543071322,0.7691630533470046,-0.0012602062276598337,0.0007730211115034632,0.0004047274506372201,0.0004639613338632428,0.000360184256772236,-1.2684067664566135e-05,-0.001267122284106903,0.0,0.0,0.0,0.0,0.0,0.0,0.0,-0.0002513346755714796,-0.00022750347992306352,-0.0001960454638067037,0.00010226341173291686,-0.00012260400050033426,7.24805913137061e-05,-2.6875513571389398e-05,0.0012602062276598337,-0.0007730211115034632,-0.0004047274506372201,-0.0004639613338632428,-0.000360184256772236,1.2684067664566135e-05,0.001267122284106903,0.3514034152030945,22.871240615844727,0.09756157547235489,-14.155611038208008,-0.1595969796180725,-2.1517977714538574,0.35098594427108765,0
74,0.36499643325805664,-0.3514034152030945,-22.871240615844727,-0.09756157547235489,14.155611038208008,0.1595969796180725,2.1517977714538574,-0.35098594427108765,0.0,0.0,0.0,0.0,0.0,0.0,0.0,-0.411767146577078,-0.03717194207558301,-0.1789986022483748,0.30278025920989077,-0.06351192876528056,-0.03550797177293229,-0.37532244118692876,1.6757486894298017,0.05233183030479309,0.030165550573091757,-2.752497108537701,0.034367407987515135,2.7662954737158185,0.769189928860576,1.6754973547542302,0.052104326824870026,0.029969505109285054,-2.752394845125968,0.0342448039870148,2.7663679543071322,0.7691630533470046,-0.0012602062276598337,0.0007730211115034632,0.0004047274506372201,0.0004639613338632428,0.000360184256772236,-1.2684067664566135e-05,-0.001267122284106903,0.0,0.0,0.0,0.0,0.0,0.0,0.0,-0.0002513346755714796,-0.00022750347992306352,-0.0001960454638067037,0.00010226341173291686,-0.00012260400050033426,7.24805913137061e-05,-2.6875513571389398e-05,0.0012602062276598337,-0.0007730211115034632,-0.0004047274506372201,-0.0004639613338632428,-0.000360184256772236,1.2684067664566135e-05,0.001267122284106903,0.3514034152030945,22.871240615844727,0.09756157547235489,-14.155611038208008,-0.1595969796180725,-2.1517977714538574,0.35098594427108765,0
75,0.37002086639404297,-0.3514034152030945,-22.871240615844727,-0.09756157547235489,14.155611038208008,0.1595969796180725,2.1517977714538574,-0.35098594427108765,0.0,0.0,0.0,0.0,0.0,0.0,0.0,-0.411767146577078,-0.03717194207558301,-0.1789986022483748,0.30278025920989077,-0.06351192876528056,-0.03550797177293229,-0.37532244118692876,1.6757486894298017,0.05233183030479309,0.030165550573091757,-2.752497108537701,0.034367407987515135,2.7662954737158185,0.769189928860576,1.6754973547542302,0.052104326824870026,0.029969505109285054,-2.752394845125968,0.0342448039870148,2.7663679543071322,0.7691630533470046,-0.0012602062276598337,0.0007730211115034632,0.0004047274506372201,0.0004639613338632428,0.000360184256772236,-1.2684067664566135e-05,-0.001267122284106903,0.0,0.0,0.0,0.0,0.0,0.0,0.0,-0.0002513346755714796,-0.00022750347992306352,-0.0001960454638067037,0.00010226341173291686,-0.00012260400050033426,7.24805913137061e-05,-2.6875513571389398e-05,0.0012602062276598337,-0.0007730211115034632,-0.0004047274506372201,-0.0004639613338632428,-0.000360184256772236,1.2684067664566135e-05,0.001267122284106903,0.3514034152030945,22.871240615844727,0.09756157547235489,-14.155611038208008,-0.1595969796180725,-2.1517977714538574,0.35098594427108765,0
76,0.3750166893005371,-0.3514034152030945,-22.871240615844727,-0.09756157547235489,14.155611038208008,0.1595969796180725,2.1517977714538574,-0.35098594427108765,0.0,0.0,0.0,0.0,0.0,0.0,0.0,-0.411767146577078,-0.03717194207558301,-0.1789986022483748,0.30278025920989077,-0.06351192876528056,-0.03550797177293229,-0.37532244118692876,1.6757486894298017,0.05233183030479309,0.030165550573091757,-2.752497108537701,0.034367407987515135,2.7662954737158185,0.769189928860576,1.6754973547542302,0.052104326824870026,0.029969505109285054,-2.752394845125968,0.0342448039870148,2.7663679543071322,0.7691630533470046,-0.0012602062276598337,0.0007730211115034632,0.0004047274506372201,0.0004639613338632428,0.000360184256772236,-1.2684067664566135e-05,-0.001267122284106903,0.0,0.0,0.0,0.0,0.0,0.0,0.0,-0.0002513346755714796,-0.00022750347992306352,-0.0001960454638067037,0.00010226341173291686,-0.00012260400050033426,7.24805913137061e-05,-2.6875513571389398e-05,0.0012602062276598337,-0.0007730211115034632,-0.0004047274506372201,-0.0004639613338632428,-0.000360184256772236,1.2684067664566135e-05,0.001267122284106903,0.3514034152030945,22.871240615844727,0.09756157547235489,-14.155611038208008,-0.1595969796180725,-2.1517977714538574,0.35098594427108765,0
77,0.3800027370452881,-0.3514034152030945,-22.871240615844727,-0.09756157547235489,14.155611038208008,0.1595969796180725,2.1517977714538574,-0.35098594427108765,0.0,0.0,0.0,0.0,0.0,0.0,0.0,-0.411767146577078,-0.03717194207558301,-0.1789986022483748,0.30278025920989077,-0.06351192876528056,-0.03550797177293229,-0.37532244118692876,1.6757486894298017,0.05233183030479309,0.030165550573091757,-2.752497108537701,0.034367407987515135,2.7662954737158185,0.769189928860576,1.6754973547542302,0.052104326824870026,0.029969505109285054,-2.752394845125968,0.0342448039870148,2.7663679543071322,0.7691630533470046,-0.0012602062276598337,0.0007730211115034632,0.0004047274506372201,0.0004639613338632428,0.000360184256772236,-1.2684067664566135e-05,-0.001267122284106903,0.0,0.0,0.0,0.0,0.0,0.0,0.0,-0.0002513346755714796,-0.00022750347992306352,-0.0001960454638067037,0.00010226341173291686,-0.00012260400050033426,7.24805913137061e-05,-2.6875513571389398e-05,0.0012602062276598337,-0.0007730211115034632,-0.0004047274506372201,-0.0004639613338632428,-0.000360184256772236,1.2684067664566135e-05,0.001267122284106903,0.3514034152030945,22.871240615844727,0.09756157547235489,-14.155611038208008,-0.1595969796180725,-2.1517977714538574,0.35098594427108765,0
78,0.3850362300872803,-0.4029781222343445,-22.819665908813477,-0.1253325641155243,14.230989456176758,0.1714988350868225,2.1517977714538574,-0.37204307317733765,0.0,0.0,0.0,0.0,0.0,0.0,0.0,-0.41148945827352,-0.03461080502119581,-0.17728246867629646,0.3002009057139139,-0.0636603685356273,-0.03624956201326712,-0.3762592673659397,1.6757523087074881,0.052330345894738006,0.03016757828937365,-2.752503290266412,0.034366440703471494,2.766295359046854,0.769193681384429,1.6754973547542302,0.052104326824870026,0.029969505109285054,-2.752394845125968,0.0342448039870148,2.7663679543071322,0.7691630533470046,-0.00025502872459262437,-0.0007179908077921166,0.0009120054349877162,-0.001318863619595814,-0.00010697299060888712,-6.77257448190036e-05,-0.00032092984899539,0.0,0.0,0.0,0.0,0.0,0.0,0.0,-0.00025495395325791925,-0.00022601906986798037,-0.0001980731800885968,0.00010844514044405784,-0.00012163671645669394,7.259526027825203e-05,-3.062803742437392e-05,0.00025502872459262437,0.0007179908077921166,-0.0009120054349877162,0.001318863619595814,0.00010697299060888712,6.77257448190036e-05,0.00032092984899539,0.4029781222343445,22.819665908813477,0.1253325641155243,-14.230989456176758,-0.1714988350868225,-2.1517977714538574,0.37204307317733765,0
79,0.39000916481018066,-0.4029781222343445,-22.819665908813477,-0.1253325641155243,14.230989456176758,0.1714988350868225,2.1517977714538574,-0.37204307317733765,0.0,0.0,0.0,0.0,0.0,0.0,0.0,-0.41148945827352,-0.03461080502119581,-0.17728246867629646,0.3002009057139139,-0.0636603685356273,-0.03624956201326712,-0.3762592673659397,1.6757523087074881,0.052330345894738006,0.03016757828937365,-2.752503290266412,0.034366440703471494,2.766295359046854,0.769193681384429,1.6754973547542302,0.052104326824870026,0.029969505109285054,-2.752394845125968,0.0342448039870148,2.7663679543071322,0.7691630533470046,-0.00025502872459262437,-0.0007179908077921166,0.0009120054349877162,-0.001318863619595814,-0.00010697299060888712,-6.77257448190036e-05,-0.00032092984899539,0.0,0.0,0.0,0.0,0.0,0.0,0.0,-0.00025495395325791925,-0.00022601906986798037,-0.0001980731800885968,0.00010844514044405784,-0.00012163671645669394,7.259526027825203e-05,-3.062803742437392e-05,0.00025502872459262437,0.0007179908077921166,-0.0009120054349877162,0.001318863619595814,0.00010697299060888712,6.77257448190036e-05,0.00032092984899539,0.4029781222343445,22.819665908813477,0.1253325641155243,-14.230989456176758,-0.1714988350868225,-2.1517977714538574,0.37204307317733765,0
