rezayati/contactInterpretation/dataset/franka_main/labeled_data/link2/f1_2.csv
index,time,tau_J0,tau_J1,tau_J2,tau_J3,tau_J4,tau_J5,tau_J6,tau_J_d0,tau_J_d1,tau_J_d2,tau_J_d3,tau_J_d4,tau_J_d5,tau_J_d6,tau_ext0,tau_ext1,tau_ext2,tau_ext3,tau_ext4,tau_ext5,tau_ext6,q0,q1,q2,q3,q4,q5,q6,q_d0,q_d1,q_d2,q_d3,q_d4,q_d5,q_d6,dq0,dq1,dq2,dq3,dq4,dq5,dq6,dq_d0,dq_d1,dq_d2,dq_d3,dq_d4,dq_d5,dq_d6,e0,e1,e2,e3,e4,e5,e6,de0,de1,de2,de3,de4,de5,de6,etau_J0,etau_J1,etau_J2,etau_J3,etau_J4,etau_J5,etau_J6,label
1,0.0,-0.24825400114059448,-13.536218643188477,0.4221527874469757,18.269685745239258,0.5697532296180725,2.3010287284851074,-0.22098104655742645,0.0,0.0,0.0,0.0,0.0,0.0,0.0,-0.26110379501234504,0.3668355307449978,-0.03154764238775976,0.5679686908624682,0.1458568649129604,0.08836731996255458,-0.2146551463941676,0.07180674262304668,-0.33421605069403343,-0.12026896953197873,-2.8748825749810507,-0.06461022719336144,2.5181957882129526,0.7687503062801229,0.07165585495296277,-0.33419673383382315,-0.1203439052763738,-2.874768336042937,-0.06453255302590709,2.518161157661014,0.7687020283728597,-0.0004364700416560912,-0.0001367166940520411,-0.0006829772432499356,0.0003524806457587863,0.0002863638859522893,-4.964952839988673e-05,0.00027740615656128966,0.0,0.0,0.0,0.0,0.0,0.0,0.0,-0.00015088767008390735,1.9316860210283338e-05,-7.493574439507156e-05,0.00011423893811368657,7.767416745435574e-05,-3.4630551938530374e-05,-4.8277907263138964e-05,0.0004364700416560912,0.0001367166940520411,0.0006829772432499356,-0.0003524806457587863,-0.0002863638859522893,4.964952839988673e-05,-0.00027740615656128966,0.24825400114059448,13.536218643188477,-0.4221527874469757,-18.269685745239258,-0.5697532296180725,-2.3010287284851074,0.22098104655742645,0
2,0.004998445510864258,-0.2720577120780945,-13.512414932250977,0.3467743694782257,18.269685745239258,0.5761619210243225,2.2946200370788574,-0.19351522624492645,0.0,0.0,0.0,0.0,0.0,0.0,0.0,-0.2592936174180345,0.36471701010527535,-0.02837195707672926,0.5720947943425894,0.14564646693595426,0.0899860210283579,-0.21370788676741462,0.07180718093184056,-0.334217019270664,-0.12026583697855613,-2.8748849427028764,-0.06461105755898139,2.5181964944733837,0.7687472152764537,0.07165585495296277,-0.33419673383382315,-0.1203439052763738,-2.874768336042937,-0.06453255302590709,2.518161157661014,0.7687020283728597,0.0007434237380838863,-0.0007995733603783449,0.0010864553379877193,0.0009757527062955071,8.409962729219393e-05,0.0003423461392451347,-0.0013072295127516088,0.0,0.0,0.0,0.0,0.0,0.0,0.0,-0.0001513259788777921,2.0285436840850046e-05,-7.806829781767388e-05,0.0001166066599394,7.850453307430005e-05,-3.5336812369557435e-05,-4.518690359400779e-05,-0.0007434237380838863,0.0007995733603783449,-0.0010864553379877193,-0.0009757527062955071,-8.409962729219393e-05,-0.0003423461392451347,0.0013072295127516088,0.2720577120780945,13.512414932250977,-0.3467743694782257,-18.269685745239258,-0.5761619210243225,-2.2946200370788574,0.19351522624492645,0
3,0.009995460510253906,-0.2720577120780945,-13.512414932250977,0.3467743694782257,18.269685745239258,0.5761619210243225,2.2946200370788574,-0.19351522624492645,0.0,0.0,0.0,0.0,0.0,0.0,0.0,-0.2592936174180345,0.36471701010527535,-0.02837195707672926,0.5720947943425894,0.14564646693595426,0.0899860210283579,-0.21370788676741462,0.07180718093184056,-0.334217019270664,-0.12026583697855613,-2.8748849427028764,-0.06461105755898139,2.5181964944733837,0.7687472152764537,0.07165585495296277,-0.33419673383382315,-0.1203439052763738,-2.874768336042937,-0.06453255302590709,2.518161157661014,0.7687020283728597,0.0007434237380838863,-0.0007995733603783449,0.0010864553379877193,0.0009757527062955071,8.409962729219393e-05,0.0003423461392451347,-0.0013072295127516088,0.0,0.0,0.0,0.0,0.0,0.0,0.0,-0.0001513259788777921,2.0285436840850046e-05,-7.806829781767388e-05,0.0001166066599394,7.850453307430005e-05,-3.5336812369557435e-05,-4.518690359400779e-05,-0.0007434237380838863,0.0007995733603783449,-0.0010864553379877193,-0.0009757527062955071,-8.409962729219393e-05,-0.0003423461392451347,0.0013072295127516088,0.2720577120780945,13.512414932250977,-0.3467743694782257,-18.269685745239258,-0.5761619210243225,-2.2946200370788574,0.19351522624492645,0
4,0.015114068984985352,-0.24825400114059448,-13.512414932250977,0.3705780804157257,18.245882034301758,0.5816550850868225,2.3010287284851074,-0.18710653483867645,0.0,0.0,0.0,0.0,0.0,0.0,0.0,-0.2575158943132072,0.36923889204135385,-0.02933327494548099,0.5686150707770723,0.14559080463078658,0.0895275655131667,-0.213624517722155,0.0718048586603203,-0.3342179464864039,-0.12026490317909447,-2.8748807603194537,-0.06461166791121163,2.518196959933733,0.768746542445266,0.07165585495296277,-0.33419673383382315,-0.1203439052763738,-2.874768336042937,-0.06453255302590709,2.518161157661014,0.7687020283728597,-5.8091813876753504e-05,-0.0006136897592527724,9.06035353819623e-05,0.001213937871467089,-0.00017598271413991253,0.00015304030043696685,-0.001073373859758079,0.0,0.0,0.0,0.0,0.0,0.0,0.0,-0.00014900370735752844,2.1212652580759883e-05,-7.900209727933205e-05,0.00011242427651669828,7.911488530454314e-05,-3.5802272718932215e-05,-4.4514072406243166e-05,5.8091813876753504e-05,0.0006136897592527724,-9.06035353819623e-05,-0.001213937871467089,0.00017598271413991253,-0.00015304030043696685,0.001073373859758079,0.24825400114059448,13.512414932250977,-0.3705780804157257,-18.245882034301758,-0.5816550850868225,-2.3010287284851074,0.18710653483867645,0
5,0.02000141143798828,-0.24825400114059448,-13.512414932250977,0.3705780804157257,18.245882034301758,0.5816550850868225,2.3010287284851074,-0.18710653483867645,0.0,0.0,0.0,0.0,0.0,0.0,0.0,-0.2575158943132072,0.36923889204135385,-0.02933327494548099,0.5686150707770723,0.14559080463078658,0.0895275655131667,-0.213624517722155,0.0718048586603203,-0.3342179464864039,-0.12026490317909447,-2.8748807603194537,-0.06461166791121163,2.518196959933733,0.768746542445266,0.07165585495296277,-0.33419673383382315,-0.1203439052763738,-2.874768336042937,-0.06453255302590709,2.518161157661014,0.7687020283728597,-5.8091813876753504e-05,-0.0006136897592527724,9.06035353819623e-05,0.001213937871467089,-0.00017598271413991253,0.00015304030043696685,-0.001073373859758079,0.0,0.0,0.0,0.0,0.0,0.0,0.0,-0.00014900370735752844,2.1212652580759883e-05,-7.900209727933205e-05,0.00011242427651669828,7.911488530454314e-05,-3.5802272718932215e-05,-4.4514072406243166e-05,5.8091813876753504e-05,0.0006136897592527724,-9.06035353819623e-05,-0.001213937871467089,0.00017598271413991253,-0.00015304030043696685,0.001073373859758079,0.24825400114059448,13.512414932250977,-0.3705780804157257,-18.245882034301758,-0.5816550850868225,-2.3010287284851074,0.18710653483867645,0
6,0.02499699592590332,-0.24825400114059448,-13.512414932250977,0.3705780804157257,18.245882034301758,0.5816550850868225,2.3010287284851074,-0.18710653483867645,0.0,0.0,0.0,0.0,0.0,0.0,0.0,-0.2575158943132072,0.36923889204135385,-0.02933327494548099,0.5686150707770723,0.14559080463078658,0.0895275655131667,-0.213624517722155,0.0718048586603203,-0.3342179464864039,-0.12026490317909447,-2.8748807603194537,-0.06461166791121163,2.518196959933733,0.768746542445266,0.07165585495296277,-0.33419673383382315,-0.1203439052763738,-2.874768336042937,-0.06453255302590709,2.518161157661014,0.7687020283728597,-5.8091813876753504e-05,-0.0006136897592527724,9.06035353819623e-05,0.001213937871467089,-0.00017598271413991253,0.00015304030043696685,-0.001073373859758079,0.0,0.0,0.0,0.0,0.0,0.0,0.0,-0.00014900370735752844,2.1212652580759883e-05,-7.900209727933205e-05,0.00011242427651669828,7.911488530454314e-05,-3.5802272718932215e-05,-4.4514072406243166e-05,5.8091813876753504e-05,0.0006136897592527724,-9.06035353819623e-05,-0.001213937871467089,0.00017598271413991253,-0.00015304030043696685,0.001073373859758079,0.24825400114059448,13.512414932250977,-0.3705780804157257,-18.245882034301758,-0.5816550850868225,-2.3010287284851074,0.18710653483867645,0
7,0.029961109161376953,-0.24825400114059448,-13.512414932250977,0.3705780804157257,18.245882034301758,0.5816550850868225,2.3010287284851074,-0.18710653483867645,0.0,0.0,0.0,0.0,0.0,0.0,0.0,-0.2575158943132072,0.36923889204135385,-0.02933327494548099,0.5686150707770723,0.14559080463078658,0.0895275655131667,-0.213624517722155,0.0718048586603203,-0.3342179464864039,-0.12026490317909447,-2.8748807603194537,-0.06461166791121163,2.518196959933733,0.768746542445266,0.07165585495296277,-0.33419673383382315,-0.1203439052763738,-2.874768336042937,-0.06453255302590709,2.518161157661014,0.7687020283728597,-5.8091813876753504e-05,-0.0006136897592527724,9.06035353819623e-05,0.001213937871467089,-0.00017598271413991253,0.00015304030043696685,-0.001073373859758079,0.0,0.0,0.0,0.0,0.0,0.0,0.0,-0.00014900370735752844,2.1212652580759883e-05,-7.900209727933205e-05,0.00011242427651669828,7.911488530454314e-05,-3.5802272718932215e-05,-4.4514072406243166e-05,5.8091813876753504e-05,0.0006136897592527724,-9.06035353819623e-05,-0.001213937871467089,0.00017598271413991253,-0.00015304030043696685,0.001073373859758079,0.24825400114059448,13.512414932250977,-0.3705780804157257,-18.245882034301758,-0.5816550850868225,-2.3010287284851074,0.18710653483867645,0
8,0.03499579429626465,-0.24825400114059448,-13.587793350219727,0.3983490765094757,18.269685745239258,0.5761619210243225,2.3074374198913574,-0.20083944499492645,0.0,0.0,0.0,0.0,0.0,0.0,0.0,-0.2562806036332798,0.3686417493692016,-0.031143002850451264,0.5699449306681343,0.1455136886009559,0.09067478587427263,-0.2138646724531627,0.07180551016057264,-0.3342124451775193,-0.1202696636061943,-2.8748851145763035,-0.06461105755964913,2.5181951886022746,0.7687480682705585,0.07165585495296277,-0.33419673383382315,-0.1203439052763738,-2.874768336042937,-0.06453255302590709,2.518161157661014,0.7687020283728597,-0.00023913353971922728,0.0009697093824110932,-0.0007060213885228805,0.0005938971138455044,-0.00020238013361529198,-0.00028236280429569616,-0.0010741783189365463,0.0,0.0,0.0,0.0,0.0,0.0,0.0,-0.00014965520760987228,1.5711343696156455e-05,-7.42416701794979e-05,0.00011677853336644617,7.850453374204369e-05,-3.403094126053219e-05,-4.60398976988019e-05,0.00023913353971922728,-0.0009697093824110932,0.0007060213885228805,-0.0005938971138455044,0.00020238013361529198,0.00028236280429569616,0.0010741783189365463,0.24825400114059448,13.587793350219727,-0.3983490765094757,-18.269685745239258,-0.5761619210243225,-2.3074374198913574,0.20083944499492645,0
9,0.040521860122680664,-0.24825400114059448,-13.587793350219727,0.3983490765094757,18.269685745239258,0.5761619210243225,2.3074374198913574,-0.20083944499492645,0.0,0.0,0.0,0.0,0.0,0.0,0.0,-0.2562806036332798,0.3686417493692016,-0.031143002850451264,0.5699449306681343,0.1455136886009559,0.09067478587427263,-0.2138646724531627,0.07180551016057264,-0.3342124451775193,-0.1202696636061943,-2.8748851145763035,-0.06461105755964913,2.5181951886022746,0.7687480682705585,0.07165585495296277,-0.33419673383382315,-0.1203439052763738,-2.874768336042937,-0.06453255302590709,2.518161157661014,0.7687020283728597,-0.00023913353971922728,0.0009697093824110932,-0.0007060213885228805,0.0005938971138455044,-0.00020238013361529198,-0.00028236280429569616,-0.0010741783189365463,0.0,0.0,0.0,0.0,0.0,0.0,0.0,-0.00014965520760987228,1.5711343696156455e-05,-7.42416701794979e-05,0.00011677853336644617,7.850453374204369e-05,-3.403094126053219e-05,-4.60398976988019e-05,0.00023913353971922728,-0.0009697093824110932,0.0007060213885228805,-0.0005938971138455044,0.00020238013361529198,0.00028236280429569616,0.0010741783189365463,0.24825400114059448,13.587793350219727,-0.3983490765094757,-18.269685745239258,-0.5761619210243225,-2.3074374198913574,0.20083944499492645,0
10,0.0449986457824707,-0.22445029020309448,-13.563989639282227,0.3467743694782257,18.297456741333008,0.5761619210243225,2.2882113456726074,-0.19351522624492645,0.0,0.0,0.0,0.0,0.0,0.0,0.0,-0.257533228548689,0.36492627889187174,-0.033782739784581295,0.5710036175662075,0.14567300505977998,0.09084598086543429,-0.21506241239328985,0.0718038896358914,-0.33421340035644276,-0.12026536361046042,-2.87488649832525,-0.0646110590200129,2.5181973635342683,0.7687472152764535,0.07165585495296277,-0.33419673383382315,-0.1203439052763738,-2.874768336042937,-0.06453255302590709,2.518161157661014,0.7687020283728597,-0.0012242591186443815,-0.00018783670534426396,0.000948992096241202,-3.564718413189911e-06,-0.00024218627839125347,0.0004523157143824545,-0.0015532108062955385,0.0,0.0,0.0,0.0,0.0,0.0,0.0,-0.00014803468292863553,1.6666522619612767e-05,-7.854166591338141e-05,0.00011816228231298354,7.850599410581804e-05,-3.6205873254147036e-05,-4.518690359378574e-05,0.0012242591186443815,0.00018783670534426396,-0.000948992096241202,3.564718413189911e-06,0.00024218627839125347,-0.0004523157143824545,0.0015532108062955385,0.22445029020309448,13.563989639282227,-0.3467743694782257,-18.297456741333008,-0.5761619210243225,-2.2882113456726074,0.19351522624492645,0
11,0.05005359649658203,-0.22445029020309448,-13.563989639282227,0.3467743694782257,18.297456741333008,0.5761619210243225,2.2882113456726074,-0.19351522624492645,0.0,0.0,0.0,0.0,0.0,0.0,0.0,-0.257533228548689,0.36492627889187174,-0.033782739784581295,0.5710036175662075,0.14567300505977998,0.09084598086543429,-0.21506241239328985,0.0718038896358914,-0.33421340035644276,-0.12026536361046042,-2.87488649832525,-0.0646110590200129,2.5181973635342683,0.7687472152764535,0.07165585495296277,-0.33419673383382315,-0.1203439052763738,-2.874768336042937,-0.06453255302590709,2.518161157661014,0.7687020283728597,-0.0012242591186443815,-0.00018783670534426396,0.000948992096241202,-3.564718413189911e-06,-0.00024218627839125347,0.0004523157143824545,-0.0015532108062955385,0.0,0.0,0.0,0.0,0.0,0.0,0.0,-0.00014803468292863553,1.6666522619612767e-05,-7.854166591338141e-05,0.00011816228231298354,7.850599410581804e-05,-3.6205873254147036e-05,-4.518690359378574e-05,0.0012242591186443815,0.00018783670534426396,-0.000948992096241202,3.564718413189911e-06,0.00024218627839125347,-0.0004523157143824545,0.0015532108062955385,0.22445029020309448,13.563989639282227,-0.3467743694782257,-18.297456741333008,-0.5761619210243225,-2.2882113456726074,0.19351522624492645,0
12,0.054998159408569336,-0.2998287081718445,-13.563989639282227,0.3983490765094757,18.269685745239258,0.5761619210243225,2.3010287284851074,-0.19351522624492645,0.0,0.0,0.0,0.0,0.0,0.0,0.0,-0.2564540566690974,0.36535417893381,-0.03317244406565695,0.5642453057593939,0.14492938949099335,0.08952717249246538,-0.2153142612189672,0.07181037075049503,-0.33421416822656025,-0.1202693507156899,-2.874884552055957,-0.0646110575596519,2.5181957823968237,0.7687472545222366,0.07165585495296277,-0.33419673383382315,-0.1203439052763738,-2.874768336042937,-0.06453255302590709,2.518161157661014,0.7687020283728597,0.0014600870300869654,-3.811023793963878e-05,-0.000751451182247294,0.0003782354500789102,-0.00012999686440467,-0.00018974592057066286,-0.0014768925216006323,0.0,0.0,0.0,0.0,0.0,0.0,0.0,-0.00015451579753225642,1.7434392737103455e-05,-7.455456068390653e-05,0.00011621601302014284,7.850453374480537e-05,-3.4624735809618556e-05,-4.522614937685354e-05,-0.0014600870300869654,3.811023793963878e-05,0.000751451182247294,-0.0003782354500789102,0.00012999686440467,0.00018974592057066286,0.0014768925216006323,0.2998287081718445,13.563989639282227,-0.3983490765094757,-18.269685745239258,-0.5761619210243225,-2.3010287284851074,0.19351522624492645,0
13,0.059999704360961914,-0.2998287081718445,-13.563989639282227,0.3983490765094757,18.269685745239258,0.5761619210243225,2.3010287284851074,-0.19351522624492645,0.0,0.0,0.0,0.0,0.0,0.0,0.0,-0.2564540566690974,0.36535417893381,-0.03317244406565695,0.5642453057593939,0.14492938949099335,0.08952717249246538,-0.2153142612189672,0.07181037075049503,-0.33421416822656025,-0.1202693507156899,-2.874884552055957,-0.0646110575596519,2.5181957823968237,0.7687472545222366,0.07165585495296277,-0.33419673383382315,-0.1203439052763738,-2.874768336042937,-0.06453255302590709,2.518161157661014,0.7687020283728597,0.0014600870300869654,-3.811023793963878e-05,-0.000751451182247294,0.0003782354500789102,-0.00012999686440467,-0.00018974592057066286,-0.0014768925216006323,0.0,0.0,0.0,0.0,0.0,0.0,0.0,-0.00015451579753225642,1.7434392737103455e-05,-7.455456068390653e-05,0.00011621601302014284,7.850453374480537e-05,-3.4624735809618556e-05,-4.522614937685354e-05,-0.0014600870300869654,3.811023793963878e-05,0.000751451182247294,-0.0003782354500789102,0.00012999686440467,0.00018974592057066286,0.0014768925216006323,0.2998287081718445,13.563989639282227,-0.3983490765094757,-18.269685745239258,-0.5761619210243225,-2.3010287284851074,0.19351522624492645,0
14,0.06500005722045898,-0.2720577120780945,-13.587793350219727,0.3467743694782257,18.297456741333008,0.5761619210243225,2.3010287284851074,-0.20724813640117645,0.0,0.0,0.0,0.0,0.0,0.0,0.0,-0.2543432248116836,0.36183442521149983,-0.0317251936591064,0.563387652004124,0.14508940851872562,0.08890741883056669,-0.21463307682159735,0.07180620432554781,-0.33421384883375566,-0.1202660696752685,-2.8748871374965694,-0.06461105755964915,2.518199000556773,0.7687487804012166,0.07165585495296277,-0.33419673383382315,-0.1203439052763738,-2.874768336042937,-0.06453255302590709,2.518161157661014,0.7687020283728597,0.0006352614357907117,0.0006488951755433393,0.0012034715862148289,-0.00046758637499978587,-0.00015716384341799429,1.5448782821343496e-05,0.0003360569270691116,0.0,0.0,0.0,0.0,0.0,0.0,0.0,-0.00015034937258504022,1.7114999932510422e-05,-7.783560110530274e-05,0.00011880145363241112,7.850453374205757e-05,-3.784289575881061e-05,-4.675202835691117e-05,-0.0006352614357907117,-0.0006488951755433393,-0.0012034715862148289,0.00046758637499978587,0.00015716384341799429,-1.5448782821343496e-05,-0.0003360569270691116,0.2720577120780945,13.587793350219727,-0.3467743694782257,-18.297456741333008,-0.5761619210243225,-2.3010287284851074,0.20724813640117645,0
15,0.06999874114990234,-0.2720577120780945,-13.587793350219727,0.3467743694782257,18.297456741333008,0.5761619210243225,2.3010287284851074,-0.20724813640117645,0.0,0.0,0.0,0.0,0.0,0.0,0.0,-0.2543432248116836,0.36183442521149983,-0.0317251936591064,0.563387652004124,0.14508940851872562,0.08890741883056669,-0.21463307682159735,0.07180620432554781,-0.33421384883375566,-0.1202660696752685,-2.8748871374965694,-0.06461105755964915,2.518199000556773,0.7687487804012166,0.07165585495296277,-0.33419673383382315,-0.1203439052763738,-2.874768336042937,-0.06453255302590709,2.518161157661014,0.7687020283728597,0.0006352614357907117,0.0006488951755433393,0.0012034715862148289,-0.00046758637499978587,-0.00015716384341799429,1.5448782821343496e-05,0.0003360569270691116,0.0,0.0,0.0,0.0,0.0,0.0,0.0,-0.00015034937258504022,1.7114999932510422e-05,-7.783560110530274e-05,0.00011880145363241112,7.850453374205757e-05,-3.784289575881061e-05,-4.675202835691117e-05,-0.0006352614357907117,-0.0006488951755433393,-0.0012034715862148289,0.00046758637499978587,0.00015716384341799429,-1.5448782821343496e-05,-0.0003360569270691116,0.2720577120780945,13.587793350219727,-0.3467743694782257,-18.297456741333008,-0.5761619210243225,-2.3010287284851074,0.20724813640117645,0
16,0.0749969482421875,-0.22445029020309448,-13.536218643188477,0.4221527874469757,18.345064163208008,0.5761619210243225,2.2946200370788574,-0.17978231608867645,0.0,0.0,0.0,0.0,0.0,0.0,0.0,-0.25722852351657793,0.35874172103024843,-0.033295913080770304,0.5675292239909427,0.14582098948095895,0.08973693488956526,-0.21284752112316008,0.07180287116380936,-0.33421603771661035,-0.12027057407840269,-2.8748902557848792,-0.06461105755964915,2.5181965119341205,0.7687457284818985,0.07165585495296277,-0.33419673383382315,-0.1203439052763738,-2.874768336042937,-0.06453255302590709,2.518161157661014,0.7687020283728597,-0.0013783488782104652,-0.00050439187963316,-0.0008236336944674948,-0.0010341768897428826,0.00014517636290548218,0.0002293936435863729,-0.001314427631646951,0.0,0.0,0.0,0.0,0.0,0.0,0.0,-0.00014701621084659,1.9303882787202742e-05,-7.333119797110765e-05,0.00012191974194220023,7.850453374205757e-05,-3.5354273106413814e-05,-4.370010903875787e-05,0.0013783488782104652,0.00050439187963316,0.0008236336944674948,0.0010341768897428826,-0.00014517636290548218,-0.0002293936435863729,0.001314427631646951,0.22445029020309448,13.536218643188477,-0.4221527874469757,-18.345064163208008,-0.5761619210243225,-2.2946200370788574,0.17978231608867645,0
17,0.0799875259399414,-0.22445029020309448,-13.536218643188477,0.4221527874469757,18.345064163208008,0.5761619210243225,2.2946200370788574,-0.17978231608867645,0.0,0.0,0.0,0.0,0.0,0.0,0.0,-0.25722852351657793,0.35874172103024843,-0.033295913080770304,0.5675292239909427,0.14582098948095895,0.08973693488956526,-0.21284752112316008,0.07180287116380936,-0.33421603771661035,-0.12027057407840269,-2.8748902557848792,-0.06461105755964915,2.5181965119341205,0.7687457284818985,0.07165585495296277,-0.33419673383382315,-0.1203439052763738,-2.874768336042937,-0.06453255302590709,2.518161157661014,0.7687020283728597,-0.0013783488782104652,-0.00050439187963316,-0.0008236336944674948,-0.0010341768897428826,0.00014517636290548218,0.0002293936435863729,-0.001314427631646951,0.0,0.0,0.0,0.0,0.0,0.0,0.0,-0.00014701621084659,1.9303882787202742e-05,-7.333119797110765e-05,0.00012191974194220023,7.850453374205757e-05,-3.5354273106413814e-05,-4.370010903875787e-05,0.0013783488782104652,0.00050439187963316,0.0008236336944674948,0.0010341768897428826,-0.00014517636290548218,-0.0002293936435863729,0.001314427631646951,0.22445029020309448,13.536218643188477,-0.4221527874469757,-18.345064163208008,-0.5761619210243225,-2.2946200370788574,0.17978231608867645,0
18,0.08499717712402344,-0.2720577120780945,-13.512414932250977,0.3705780804157257,18.345064163208008,0.5816550850868225,2.3010287284851074,-0.23471395671367645,0.0,0.0,0.0,0.0,0.0,0.0,0.0,-0.2544909306154772,0.3577994743571676,-0.031183961390328783,0.5678404126614754,0.14687483325142922,0.08932562289827756,-0.2115676516995707,0.07180620723603857,-0.33421726651679534,-0.12026763780661688,-2.8748895993181014,-0.06461166791121165,2.518198961310949,0.768751827798378,0.07165585495296277,-0.33419673383382315,-0.1203439052763738,-2.874768336042937,-0.06453255302590709,2.518161157661014,0.7687020283728597,0.0002756531855889556,-0.0012367353238678267,0.0004947906890235545,-0.0007770663448051567,-0.00021129206958129247,-3.486479961917106e-05,0.000851061426646085,0.0,0.0,0.0,0.0,0.0,0.0,0.0,-0.00015035228307580528,2.0532682972196348e-05,-7.626746975691878e-05,0.00012126327516437385,7.911488530455701e-05,-3.780364993488661e-05,-4.97994255183043e-05,-0.0002756531855889556,0.0012367353238678267,-0.0004947906890235545,0.0007770663448051567,0.00021129206958129247,3.486479961917106e-05,-0.000851061426646085,0.2720577120780945,13.512414932250977,-0.3705780804157257,-18.345064163208008,-0.5816550850868225,-2.3010287284851074,0.23471395671367645,0
19,0.08999276161193848,-0.2720577120780945,-13.512414932250977,0.3705780804157257,18.345064163208008,0.5816550850868225,2.3010287284851074,-0.23471395671367645,0.0,0.0,0.0,0.0,0.0,0.0,0.0,-0.2544909306154772,0.3577994743571676,-0.031183961390328783,0.5678404126614754,0.14687483325142922,0.08932562289827756,-0.2115676516995707,0.07180620723603857,-0.33421726651679534,-0.12026763780661688,-2.8748895993181014,-0.06461166791121165,2.518198961310949,0.768751827798378,0.07165585495296277,-0.33419673383382315,-0.1203439052763738,-2.874768336042937,-0.06453255302590709,2.518161157661014,0.7687020283728597,0.0002756531855889556,-0.0012367353238678267,0.0004947906890235545,-0.0007770663448051567,-0.00021129206958129247,-3.486479961917106e-05,0.000851061426646085,0.0,0.0,0.0,0.0,0.0,0.0,0.0,-0.00015035228307580528,2.0532682972196348e-05,-7.626746975691878e-05,0.00012126327516437385,7.911488530455701e-05,-3.780364993488661e-05,-4.97994255183043e-05,-0.0002756531855889556,0.0012367353238678267,-0.0004947906890235545,0.0007770663448051567,0.00021129206958129247,3.486479961917106e-05,-0.000851061426646085,0.2720577120780945,13.512414932250977,-0.3705780804157257,-18.345064163208008,-0.5816550850868225,-2.3010287284851074,0.23471395671367645,0
20,0.09499502182006836,-0.24825400114059448,-13.536218643188477,0.3705780804157257,18.245882034301758,0.5578513741493225,2.3138461112976074,-0.23471395671367645,0.0,0.0,0.0,0.0,0.0,0.0,0.0,-0.25677764872034936,0.36348654685284165,-0.033906120041137695,0.5675443515210034,0.1474173662598138,0.08875234685431203,-0.21193877098936548,0.07180666661973437,-0.3342174710519403,-0.12026537573128669,-2.874883282839278,-0.06460902305444081,2.5181954180604627,0.7687518321590044,0.07165585495296277,-0.33419673383382315,-0.1203439052763738,-2.874768336042937,-0.06453255302590709,2.518161157661014,0.7687020283728597,-0.0004051394180678805,-0.00041339725016773253,0.0001079330769600685,0.0015335812808732047,0.0005060319503457793,-0.0005335713324214568,0.0008869456675323574,0.0,0.0,0.0,0.0,0.0,0.0,0.0,-0.00015081166677159696,2.0737218117128364e-05,-7.852954508710819e-05,0.00011494679634083127,7.647002853372609e-05,-3.426039944853798e-05,-4.980378614471981e-05,0.0004051394180678805,0.00041339725016773253,-0.0001079330769600685,-0.0015335812808732047,-0.0005060319503457793,0.0005335713324214568,-0.0008869456675323574,0.24825400114059448,13.536218643188477,-0.3705780804157257,-18.245882034301758,-0.5578513741493225,-2.3138461112976074,0.23471395671367645,0
21,0.09999752044677734,-0.24825400114059448,-13.536218643188477,0.3705780804157257,18.245882034301758,0.5578513741493225,2.3138461112976074,-0.23471395671367645,0.0,0.0,0.0,0.0,0.0,0.0,0.0,-0.25677764872034936,0.36348654685284165,-0.033906120041137695,0.5675443515210034,0.1474173662598138,0.08875234685431203,-0.21193877098936548,0.07180666661973437,-0.3342174710519403,-0.12026537573128669,-2.874883282839278,-0.06460902305444081,2.5181954180604627,0.7687518321590044,0.07165585495296277,-0.33419673383382315,-0.1203439052763738,-2.874768336042937,-0.06453255302590709,2.518161157661014,0.7687020283728597,-0.0004051394180678805,-0.00041339725016773253,0.0001079330769600685,0.0015335812808732047,0.0005060319503457793,-0.0005335713324214568,0.0008869456675323574,0.0,0.0,0.0,0.0,0.0,0.0,0.0,-0.00015081166677159696,2.0737218117128364e-05,-7.852954508710819e-05,0.00011494679634083127,7.647002853372609e-05,-3.426039944853798e-05,-4.980378614471981e-05,0.0004051394180678805,0.00041339725016773253,-0.0001079330769600685,-0.0015335812808732047,-0.0005060319503457793,0.0005335713324214568,-0.0008869456675323574,0.24825400114059448,13.536218643188477,-0.3705780804157257,-18.245882034301758,-0.5578513741493225,-2.3138461112976074,0.23471395671367645,0
22,0.10502123832702637,-0.22445029020309448,-13.611597061157227,0.3467743694782257,18.321260452270508,0.5761619210243225,2.3010287284851074,-0.17337362468242645,0.0,0.0,0.0,0.0,0.0,0.0,0.0,-0.25608285315276,0.3605578125252636,-0.032725558090019105,0.5690242626721798,0.14662634457038265,0.08907073888544065,-0.21250298675306217,0.0718059412627279,-0.33421011222020774,-0.12026504748036031,-2.8748887975660313,-0.06461105755964915,2.5181968434941906,0.7687450165665812,0.07165585495296277,-0.33419673383382315,-0.1203439052763738,-2.874768336042937,-0.06453255302590709,2.518161157661014,0.7687020283728597,-0.0010854642250740338,0.0010608445006197319,0.0011560117518615608,-0.0008023504174683955,-7.051763350914173e-05,-5.419995848549733e-05,-0.0012811302929692577,0.0,0.0,0.0,0.0,0.0,0.0,0.0,-0.00015008630976512394,1.3378386384599317e-05,-7.885779601349285e-05,0.00012046152309430624,7.850453374205757e-05,-3.5685833176479775e-05,-4.2988193721504864e-05,0.0010854642250740338,-0.0010608445006197319,-0.0011560117518615608,0.0008023504174683955,7.051763350914173e-05,5.419995848549733e-05,0.0012811302929692577,0.22445029020309448,13.611597061157227,-0.3467743694782257,-18.321260452270508,-0.5761619210243225,-2.3010287284851074,0.17337362468242645,0
23,0.11000537872314453,-0.22445029020309448,-13.611597061157227,0.3467743694782257,18.321260452270508,0.5761619210243225,2.3010287284851074,-0.17337362468242645,0.0,0.0,0.0,0.0,0.0,0.0,0.0,-0.25608285315276,0.3605578125252636,-0.032725558090019105,0.5690242626721798,0.14662634457038265,0.08907073888544065,-0.21250298675306217,0.0718059412627279,-0.33421011222020774,-0.12026504748036031,-2.8748887975660313,-0.06461105755964915,2.5181968434941906,0.7687450165665812,0.07165585495296277,-0.33419673383382315,-0.1203439052763738,-2.874768336042937,-0.06453255302590709,2.518161157661014,0.7687020283728597,-0.0010854642250740338,0.0010608445006197319,0.0011560117518615608,-0.0008023504174683955,-7.051763350914173e-05,-5.419995848549733e-05,-0.0012811302929692577,0.0,0.0,0.0,0.0,0.0,0.0,0.0,-0.00015008630976512394,1.3378386384599317e-05,-7.885779601349285e-05,0.00012046152309430624,7.850453374205757e-05,-3.5685833176479775e-05,-4.2988193721504864e-05,0.0010854642250740338,-0.0010608445006197319,-0.0011560117518615608,0.0008023504174683955,7.051763350914173e-05,5.419995848549733e-05,0.0012811302929692577,0.22445029020309448,13.611597061157227,-0.3467743694782257,-18.321260452270508,-0.5761619210243225,-2.3010287284851074,0.17337362468242645,0
24,0.11500334739685059,-0.22445029020309448,-13.536218643188477,0.3705780804157257,18.321260452270508,0.5697532296180725,2.3010287284851074,-0.19351522624492645,0.0,0.0,0.0,0.0,0.0,0.0,0.0,-0.25601663005019826,0.3592369322580149,-0.03151509964987411,0.5728285103356164,0.1470676622619327,0.08939839434815451,-0.21292131152866403,0.07180578667390954,-0.33421534886748516,-0.12026773552428953,-2.8748887966951715,-0.06461034548282624,2.518196253352798,0.7687472545223104,0.07165585495296277,-0.33419673383382315,-0.1203439052763738,-2.874768336042937,-0.06453255302590709,2.518161157661014,0.7687020283728597,-0.0005091997990019976,-0.0006904950590752344,0.00043414279006274157,-0.0002945703311710733,-0.0005236710839572921,6.436783369044516e-05,-0.00039792252472202743,0.0,0.0,0.0,0.0,0.0,0.0,0.0,-0.00014993172094676654,1.8615033662017222e-05,-7.616975208427079e-05,0.00012046065223447755,7.779245691914849e-05,-3.5095691783837424e-05,-4.522614945068337e-05,0.0005091997990019976,0.0006904950590752344,-0.00043414279006274157,0.0002945703311710733,0.0005236710839572921,-6.436783369044516e-05,0.00039792252472202743,0.22445029020309448,13.536218643188477,-0.3705780804157257,-18.321260452270508,-0.5697532296180725,-2.3010287284851074,0.19351522624492645,0
25,0.11999988555908203,-0.22445029020309448,-13.536218643188477,0.3705780804157257,18.321260452270508,0.5697532296180725,2.3010287284851074,-0.19351522624492645,0.0,0.0,0.0,0.0,0.0,0.0,0.0,-0.25601663005019826,0.3592369322580149,-0.03151509964987411,0.5728285103356164,0.1470676622619327,0.08939839434815451,-0.21292131152866403,0.07180578667390954,-0.33421534886748516,-0.12026773552428953,-2.8748887966951715,-0.06461034548282624,2.518196253352798,0.7687472545223104,0.07165585495296277,-0.33419673383382315,-0.1203439052763738,-2.874768336042937,-0.06453255302590709,2.518161157661014,0.7687020283728597,-0.0005091997990019976,-0.0006904950590752344,0.00043414279006274157,-0.0002945703311710733,-0.0005236710839572921,6.436783369044516e-05,-0.00039792252472202743,0.0,0.0,0.0,0.0,0.0,0.0,0.0,-0.00014993172094676654,1.8615033662017222e-05,-7.616975208427079e-05,0.00012046065223447755,7.779245691914849e-05,-3.5095691783837424e-05,-4.522614945068337e-05,0.0005091997990019976,0.0006904950590752344,-0.00043414279006274157,0.0002945703311710733,0.0005236710839572921,-6.436783369044516e-05,0.00039792252472202743,0.22445029020309448,13.536218643188477,-0.3705780804157257,-18.321260452270508,-0.5697532296180725,-2.3010287284851074,0.19351522624492645,0
26,0.1256113052368164,-0.2998287081718445,-13.587793350219727,0.3983490765094757,18.297456741333008,0.5880637764930725,2.2946200370788574,-0.18710653483867645,0.0,0.0,0.0,0.0,0.0,0.0,0.0,-0.2541082610494248,0.35965430570334045,-0.03037208794175213,0.5697549879999164,0.14599798308118833,0.08909449960821973,-0.2128571240888353,0.07180816479118429,-0.33421171189252497,-0.12026958470121814,-2.8748845908800686,-0.06461237998803457,2.5181964959295597,0.768746503254139,0.07165585495296277,-0.33419673383382315,-0.1203439052763738,-2.874768336042937,-0.06453255302590709,2.518161157661014,0.7687020283728597,0.0011797183387111472,0.0007627598050478043,-0.0002392939092390199,0.00023638755919745756,-0.00043451671193610813,7.070292101723257e-05,-0.0014736247373806283,0.0,0.0,0.0,0.0,0.0,0.0,0.0,-0.00015230983822152322,1.4978058701820007e-05,-7.432057515566193e-05,0.0001162548371316241,7.982696212747997e-05,-3.533826854562605e-05,-4.4474881279232825e-05,-0.0011797183387111472,-0.0007627598050478043,0.0002392939092390199,-0.00023638755919745756,0.00043451671193610813,-7.070292101723257e-05,0.0014736247373806283,0.2998287081718445,13.587793350219727,-0.3983490765094757,-18.297456741333008,-0.5880637764930725,-2.2946200370788574,0.18710653483867645,0
27,0.13000106811523438,-0.2998287081718445,-13.587793350219727,0.3983490765094757,18.297456741333008,0.5880637764930725,2.2946200370788574,-0.18710653483867645,0.0,0.0,0.0,0.0,0.0,0.0,0.0,-0.2541082610494248,0.35965430570334045,-0.03037208794175213,0.5697549879999164,0.14599798308118833,0.08909449960821973,-0.2128571240888353,0.07180816479118429,-0.33421171189252497,-0.12026958470121814,-2.8748845908800686,-0.06461237998803457,2.5181964959295597,0.768746503254139,0.07165585495296277,-0.33419673383382315,-0.1203439052763738,-2.874768336042937,-0.06453255302590709,2.518161157661014,0.7687020283728597,0.0011797183387111472,0.0007627598050478043,-0.0002392939092390199,0.00023638755919745756,-0.00043451671193610813,7.070292101723257e-05,-0.0014736247373806283,0.0,0.0,0.0,0.0,0.0,0.0,0.0,-0.00015230983822152322,1.4978058701820007e-05,-7.432057515566193e-05,0.0001162548371316241,7.982696212747997e-05,-3.533826854562605e-05,-4.4474881279232825e-05,-0.0011797183387111472,-0.0007627598050478043,0.0002392939092390199,-0.00023638755919745756,0.00043451671193610813,-7.070292101723257e-05,0.0014736247373806283,0.2998287081718445,13.587793350219727,-0.3983490765094757,-18.297456741333008,-0.5880637764930725,-2.2946200370788574,0.18710653483867645,0
28,0.1349494457244873,-0.2998287081718445,-13.587793350219727,0.3983490765094757,18.297456741333008,0.5880637764930725,2.2946200370788574,-0.18710653483867645,0.0,0.0,0.0,0.0,0.0,0.0,0.0,-0.2541082610494248,0.35965430570334045,-0.03037208794175213,0.5697549879999164,0.14599798308118833,0.08909449960821973,-0.2128571240888353,0.07180816479118429,-0.33421171189252497,-0.12026958470121814,-2.8748845908800686,-0.06461237998803457,2.5181964959295597,0.768746503254139,0.07165585495296277,-0.33419673383382315,-0.1203439052763738,-2.874768336042937,-0.06453255302590709,2.518161157661014,0.7687020283728597,0.0011797183387111472,0.0007627598050478043,-0.0002392939092390199,0.00023638755919745756,-0.00043451671193610813,7.070292101723257e-05,-0.0014736247373806283,0.0,0.0,0.0,0.0,0.0,0.0,0.0,-0.00015230983822152322,1.4978058701820007e-05,-7.432057515566193e-05,0.0001162548371316241,7.982696212747997e-05,-3.533826854562605e-05,-4.4474881279232825e-05,-0.0011797183387111472,-0.0007627598050478043,0.0002392939092390199,-0.00023638755919745756,0.00043451671193610813,-7.070292101723257e-05,0.0014736247373806283,0.2998287081718445,13.587793350219727,-0.3983490765094757,-18.297456741333008,-0.5880637764930725,-2.2946200370788574,0.18710653483867645,0
29,0.13999724388122559,-0.2998287081718445,-13.587793350219727,0.3983490765094757,18.297456741333008,0.5880637764930725,2.2946200370788574,-0.18710653483867645,0.0,0.0,0.0,0.0,0.0,0.0,0.0,-0.2541082610494248,0.35965430570334045,-0.03037208794175213,0.5697549879999164,0.14599798308118833,0.08909449960821973,-0.2128571240888353,0.07180816479118429,-0.33421171189252497,-0.12026958470121814,-2.8748845908800686,-0.06461237998803457,2.5181964959295597,0.768746503254139,0.07165585495296277,-0.33419673383382315,-0.1203439052763738,-2.874768336042937,-0.06453255302590709,2.518161157661014,0.7687020283728597,0.0011797183387111472,0.0007627598050478043,-0.0002392939092390199,0.00023638755919745756,-0.00043451671193610813,7.070292101723257e-05,-0.0014736247373806283,0.0,0.0,0.0,0.0,0.0,0.0,0.0,-0.00015230983822152322,1.4978058701820007e-05,-7.432057515566193e-05,0.0001162548371316241,7.982696212747997e-05,-3.533826854562605e-05,-4.4474881279232825e-05,-0.0011797183387111472,-0.0007627598050478043,0.0002392939092390199,-0.00023638755919745756,0.00043451671193610813,-7.070292101723257e-05,0.0014736247373806283,0.2998287081718445,13.587793350219727,-0.3983490765094757,-18.297456741333008,-0.5880637764930725,-2.2946200370788574,0.18710653483867645,0
30,0.14500093460083008,-0.2998287081718445,-13.587793350219727,0.3983490765094757,18.297456741333008,0.5880637764930725,2.2946200370788574,-0.18710653483867645,0.0,0.0,0.0,0.0,0.0,0.0,0.0,-0.2541082610494248,0.35965430570334045,-0.03037208794175213,0.5697549879999164,0.14599798308118833,0.08909449960821973,-0.2128571240888353,0.07180816479118429,-0.33421171189252497,-0.12026958470121814,-2.8748845908800686,-0.06461237998803457,2.5181964959295597,0.768746503254139,0.07165585495296277,-0.33419673383382315,-0.1203439052763738,-2.874768336042937,-0.06453255302590709,2.518161157661014,0.7687020283728597,0.0011797183387111472,0.0007627598050478043,-0.0002392939092390199,0.00023638755919745756,-0.00043451671193610813,7.070292101723257e-05,-0.0014736247373806283,0.0,0.0,0.0,0.0,0.0,0.0,0.0,-0.00015230983822152322,1.4978058701820007e-05,-7.432057515566193e-05,0.0001162548371316241,7.982696212747997e-05,-3.533826854562605e-05,-4.4474881279232825e-05,-0.0011797183387111472,-0.0007627598050478043,0.0002392939092390199,-0.00023638755919745756,0.00043451671193610813,-7.070292101723257e-05,0.0014736247373806283,0.2998287081718445,13.587793350219727,-0.3983490765094757,-18.297456741333008,-0.5880637764930725,-2.2946200370788574,0.18710653483867645,0
31,0.1499955654144287,-0.22445029020309448,-13.563989639282227,0.3705780804157257,18.297456741333008,0.5761619210243225,2.3010287284851074,-0.20724813640117645,0.0,0.0,0.0,0.0,0.0,0.0,0.0,-0.25511697978714987,0.3541544074969306,-0.02743213127771761,0.5727546760981261,0.1458284210341723,0.08905538902567425,-0.21220366120991382,0.07180358534989013,-0.33421337349796254,-0.12026763910660072,-2.8748864311572713,-0.06461105755964915,2.5181959132160587,0.7687487799164786,0.07165585495296277,-0.33419673383382315,-0.1203439052763738,-2.874768336042937,-0.06453255302590709,2.518161157661014,0.7687020283728597,-0.000710587375649014,-7.680302508680121e-05,0.00016183765100934343,0.00016924180513061606,-0.00013933760031162236,-3.3084705596120015e-05,-0.0008015299471738121,0.0,0.0,0.0,0.0,0.0,0.0,0.0,-0.00014773039692736467,1.6639664139395105e-05,-7.626616977307599e-05,0.00011809511433424902,7.850453374205757e-05,-3.47555550446188e-05,-4.675154361888367e-05,0.000710587375649014,7.680302508680121e-05,-0.00016183765100934343,-0.00016924180513061606,0.00013933760031162236,3.3084705596120015e-05,0.0008015299471738121,0.22445029020309448,13.563989639282227,-0.3705780804157257,-18.297456741333008,-0.5761619210243225,-2.3010287284851074,0.20724813640117645,0
32,0.15546870231628418,-0.24825400114059448,-13.536218643188477,0.3705780804157257,18.297456741333008,0.5761619210243225,2.2946200370788574,-0.21457235515117645,0.0,0.0,0.0,0.0,0.0,0.0,0.0,-0.258072242631642,0.35623972179954627,-0.030394496864038133,0.5692918572842823,0.1456257361978631,0.0886902846183251,-0.212326230236128,0.07180524443093872,-0.33421534915774587,-0.1202677443351002,-2.874886477932454,-0.06461105609928537,2.518196494491378,0.7687494764657297,0.07165585495296277,-0.33419673383382315,-0.1203439052763738,-2.874768336042937,-0.06453255302590709,2.518161157661014,0.7687020283728597,-0.00025733344446335533,-0.0004099530238830612,-0.00019141509577269014,-2.9577718621833452e-05,2.452411287860557e-05,0.0002546366514355325,-0.00021180655439605612,0.0,0.0,0.0,0.0,0.0,0.0,0.0,-0.00014938947797595026,1.8615323922721583e-05,-7.61609412736064e-05,0.00011814188951708715,7.850307337828322e-05,-3.533683036405222e-05,-4.744809286993945e-05,0.00025733344446335533,0.0004099530238830612,0.00019141509577269014,2.9577718621833452e-05,-2.452411287860557e-05,-0.0002546366514355325,0.00021180655439605612,0.24825400114059448,13.536218643188477,-0.3705780804157257,-18.297456741333008,-0.5761619210243225,-2.2946200370788574,0.21457235515117645,0
33,0.15999484062194824,-0.24825400114059448,-13.536218643188477,0.3705780804157257,18.297456741333008,0.5761619210243225,2.2946200370788574,-0.21457235515117645,0.0,0.0,0.0,0.0,0.0,0.0,0.0,-0.258072242631642,0.35623972179954627,-0.030394496864038133,0.5692918572842823,0.1456257361978631,0.0886902846183251,-0.212326230236128,0.07180524443093872,-0.33421534915774587,-0.1202677443351002,-2.874886477932454,-0.06461105609928537,2.518196494491378,0.7687494764657297,0.07165585495296277,-0.33419673383382315,-0.1203439052763738,-2.874768336042937,-0.06453255302590709,2.518161157661014,0.7687020283728597,-0.00025733344446335533,-0.0004099530238830612,-0.00019141509577269014,-2.9577718621833452e-05,2.452411287860557e-05,0.0002546366514355325,-0.00021180655439605612,0.0,0.0,0.0,0.0,0.0,0.0,0.0,-0.00014938947797595026,1.8615323922721583e-05,-7.61609412736064e-05,0.00011814188951708715,7.850307337828322e-05,-3.533683036405222e-05,-4.744809286993945e-05,0.00025733344446335533,0.0004099530238830612,0.00019141509577269014,2.9577718621833452e-05,-2.452411287860557e-05,-0.0002546366514355325,0.00021180655439605612,0.24825400114059448,13.536218643188477,-0.3705780804157257,-18.297456741333008,-0.5761619210243225,-2.2946200370788574,0.21457235515117645,0
34,0.16499662399291992,-0.24825400114059448,-13.536218643188477,0.3705780804157257,18.297456741333008,0.5761619210243225,2.2946200370788574,-0.21457235515117645,0.0,0.0,0.0,0.0,0.0,0.0,0.0,-0.258072242631642,0.35623972179954627,-0.030394496864038133,0.5692918572842823,0.1456257361978631,0.0886902846183251,-0.212326230236128,0.07180524443093872,-0.33421534915774587,-0.1202677443351002,-2.874886477932454,-0.06461105609928537,2.518196494491378,0.7687494764657297,0.07165585495296277,-0.33419673383382315,-0.1203439052763738,-2.874768336042937,-0.06453255302590709,2.518161157661014,0.7687020283728597,-0.00025733344446335533,-0.0004099530238830612,-0.00019141509577269014,-2.9577718621833452e-05,2.452411287860557e-05,0.0002546366514355325,-0.00021180655439605612,0.0,0.0,0.0,0.0,0.0,0.0,0.0,-0.00014938947797595026,1.8615323922721583e-05,-7.61609412736064e-05,0.00011814188951708715,7.850307337828322e-05,-3.533683036405222e-05,-4.744809286993945e-05,0.00025733344446335533,0.0004099530238830612,0.00019141509577269014,2.9577718621833452e-05,-2.452411287860557e-05,-0.0002546366514355325,0.00021180655439605612,0.24825400114059448,13.536218643188477,-0.3705780804157257,-18.297456741333008,-0.5761619210243225,-2.2946200370788574,0.21457235515117645,0
35,0.1708073616027832,-0.24825400114059448,-13.536218643188477,0.3983490765094757,18.297456741333008,0.5642600655555725,2.2946200370788574,-0.18710653483867645,0.0,0.0,0.0,0.0,0.0,0.0,0.0,-0.2571243025419173,0.35663969243873056,-0.031869721145509115,0.5686245017415594,0.14524064699180586,0.08974433853203899,-0.21225789590564723,0.0718066639894215,-0.33421564023133404,-0.12026897899098216,-2.8748871346539415,-0.06460867052607241,2.5181996864696914,0.7687464247072529,0.07165585495296277,-0.33419673383382315,-0.1203439052763738,-2.874768336042937,-0.06453255302590709,2.518161157661014,0.7687020283728597,-0.0005700040246849949,-0.0004403095824445271,-0.0005584544111067827,9.645979051546073e-05,0.00035892721203974887,0.00022701771003069,-0.0012351276432215489,0.0,0.0,0.0,0.0,0.0,0.0,0.0,-0.00015080903645872668,1.8906397510898287e-05,-7.492628539164381e-05,0.00011879861100450029,7.611750016532637e-05,-3.852880867727393e-05,-4.43963343931264e-05,0.0005700040246849949,0.0004403095824445271,0.0005584544111067827,-9.645979051546073e-05,-0.00035892721203974887,-0.00022701771003069,0.0012351276432215489,0.24825400114059448,13.536218643188477,-0.3983490765094757,-18.297456741333008,-0.5642600655555725,-2.2946200370788574,0.18710653483867645,0
36,0.17513084411621094,-0.24825400114059448,-13.536218643188477,0.3983490765094757,18.297456741333008,0.5642600655555725,2.2946200370788574,-0.18710653483867645,0.0,0.0,0.0,0.0,0.0,0.0,0.0,-0.2571243025419173,0.35663969243873056,-0.031869721145509115,0.5686245017415594,0.14524064699180586,0.08974433853203899,-0.21225789590564723,0.0718066639894215,-0.33421564023133404,-0.12026897899098216,-2.8748871346539415,-0.06460867052607241,2.5181996864696914,0.7687464247072529,0.07165585495296277,-0.33419673383382315,-0.1203439052763738,-2.874768336042937,-0.06453255302590709,2.518161157661014,0.7687020283728597,-0.0005700040246849949,-0.0004403095824445271,-0.0005584544111067827,9.645979051546073e-05,0.00035892721203974887,0.00022701771003069,-0.0012351276432215489,0.0,0.0,0.0,0.0,0.0,0.0,0.0,-0.00015080903645872668,1.8906397510898287e-05,-7.492628539164381e-05,0.00011879861100450029,7.611750016532637e-05,-3.852880867727393e-05,-4.43963343931264e-05,0.0005700040246849949,0.0004403095824445271,0.0005584544111067827,-9.645979051546073e-05,-0.00035892721203974887,-0.00022701771003069,0.0012351276432215489,0.24825400114059448,13.536218643188477,-0.3983490765094757,-18.297456741333008,-0.5642600655555725,-2.2946200370788574,0.18710653483867645,0
37,0.18000411987304688,-0.24825400114059448,-13.536218643188477,0.3983490765094757,18.297456741333008,0.5761619210243225,2.2946200370788574,-0.19351522624492645,0.0,0.0,0.0,0.0,0.0,0.0,0.0,-0.2629203881079393,0.35905481822662694,-0.03633732891761344,0.5670617689499086,0.14482460651468776,0.08930322470189019,-0.21292439446723832,0.07180464095755841,-0.33421818336448755,-0.12026748046295146,-2.874887066825304,-0.06461105755363941,2.51819684770408,0.7687472545216457,0.07165585495296277,-0.33419673383382315,-0.1203439052763738,-2.874768336042937,-0.06453255302590709,2.518161157661014,0.7687020283728597,-0.000824535762919021,-0.000273390952196047,-0.0010198319265103928,3.3440045627742956e-05,-0.00032526673609060215,3.4130921822913657e-05,-0.0009961436975234848,0.0,0.0,0.0,0.0,0.0,0.0,0.0,-0.00014878600459564129,2.1449530664408023e-05,-7.642481342233498e-05,0.00011873078236712686,7.850452773232319e-05,-3.569004306580581e-05,-4.522614878599285e-05,0.000824535762919021,0.000273390952196047,0.0010198319265103928,-3.3440045627742956e-05,0.00032526673609060215,-3.4130921822913657e-05,0.0009961436975234848,0.24825400114059448,13.536218643188477,-0.3983490765094757,-18.297456741333008,-0.5761619210243225,-2.2946200370788574,0.19351522624492645,0
38,0.18500304222106934,-0.24825400114059448,-13.536218643188477,0.3983490765094757,18.297456741333008,0.5761619210243225,2.2946200370788574,-0.19351522624492645,0.0,0.0,0.0,0.0,0.0,0.0,0.0,-0.2629203881079393,0.35905481822662694,-0.03633732891761344,0.5670617689499086,0.14482460651468776,0.08930322470189019,-0.21292439446723832,0.07180464095755841,-0.33421818336448755,-0.12026748046295146,-2.874887066825304,-0.06461105755363941,2.51819684770408,0.7687472545216457,0.07165585495296277,-0.33419673383382315,-0.1203439052763738,-2.874768336042937,-0.06453255302590709,2.518161157661014,0.7687020283728597,-0.000824535762919021,-0.000273390952196047,-0.0010198319265103928,3.3440045627742956e-05,-0.00032526673609060215,3.4130921822913657e-05,-0.0009961436975234848,0.0,0.0,0.0,0.0,0.0,0.0,0.0,-0.00014878600459564129,2.1449530664408023e-05,-7.642481342233498e-05,0.00011873078236712686,7.850452773232319e-05,-3.569004306580581e-05,-4.522614878599285e-05,0.000824535762919021,0.000273390952196047,0.0010198319265103928,-3.3440045627742956e-05,0.00032526673609060215,-3.4130921822913657e-05,0.0009961436975234848,0.24825400114059448,13.536218643188477,-0.3983490765094757,-18.297456741333008,-0.5761619210243225,-2.2946200370788574,0.19351522624492645,0
39,0.1900022029876709,-0.2720577120780945,-13.536218643188477,0.3467743694782257,18.297456741333008,0.5816550850868225,2.3010287284851074,-0.20724813640117645,0.0,0.0,0.0,0.0,0.0,0.0,0.0,-0.2637133160201438,0.36215395396544536,-0.035193609589414365,0.5689461873414844,0.14437797110477482,0.089211099342567,-0.21413445106908222,0.07180699583281215,-0.33421540182875414,-0.12026607258770956,-2.8748845863252757,-0.0646116679112116,2.5181989613129105,0.7687487804012166,0.07165585495296277,-0.33419673383382315,-0.1203439052763738,-2.874768336042937,-0.06453255302590709,2.518161157661014,0.7687020283728597,3.291985174988343e-05,-2.5045345866356315e-05,0.0008208486185723921,0.00024259682970490662,-0.00047200257095848997,-0.00013720759411217808,-0.0004365422813549445,0.0,0.0,0.0,0.0,0.0,0.0,0.0,-0.00015114087984938185,1.8667994930998688e-05,-7.783268866423665e-05,0.00011625028233863688,7.911488530451538e-05,-3.780365189642865e-05,-4.675202835691117e-05,-3.291985174988343e-05,2.5045345866356315e-05,-0.0008208486185723921,-0.00024259682970490662,0.00047200257095848997,0.00013720759411217808,0.0004365422813549445,0.2720577120780945,13.536218643188477,-0.3467743694782257,-18.297456741333008,-0.5816550850868225,-2.3010287284851074,0.20724813640117645,0
40,0.19499945640563965,-0.2720577120780945,-13.536218643188477,0.3467743694782257,18.297456741333008,0.5816550850868225,2.3010287284851074,-0.20724813640117645,0.0,0.0,0.0,0.0,0.0,0.0,0.0,-0.2637133160201438,0.36215395396544536,-0.035193609589414365,0.5689461873414844,0.14437797110477482,0.089211099342567,-0.21413445106908222,0.07180699583281215,-0.33421540182875414,-0.12026607258770956,-2.8748845863252757,-0.0646116679112116,2.5181989613129105,0.7687487804012166,0.07165585495296277,-0.33419673383382315,-0.1203439052763738,-2.874768336042937,-0.06453255302590709,2.518161157661014,0.7687020283728597,3.291985174988343e-05,-2.5045345866356315e-05,0.0008208486185723921,0.00024259682970490662,-0.00047200257095848997,-0.00013720759411217808,-0.0004365422813549445,0.0,0.0,0.0,0.0,0.0,0.0,0.0,-0.00015114087984938185,1.8667994930998688e-05,-7.783268866423665e-05,0.00011625028233863688,7.911488530451538e-05,-3.780365189642865e-05,-4.675202835691117e-05,-3.291985174988343e-05,2.5045345866356315e-05,-0.0008208486185723921,-0.00024259682970490662,0.00047200257095848997,0.00013720759411217808,0.0004365422813549445,0.2720577120780945,13.536218643188477,-0.3467743694782257,-18.297456741333008,-0.5816550850868225,-2.3010287284851074,0.20724813640117645,0
41,0.1999950408935547,-0.2998287081718445,-13.536218643188477,0.3983490765094757,18.245882034301758,0.5761619210243225,2.2946200370788574,-0.17978231608867645,0.0,0.0,0.0,0.0,0.0,0.0,0.0,-0.26377175247076295,0.3665899650039411,-0.03394923001480149,0.5648997425968051,0.14410040743211108,0.08822837502102623,-0.2140390394570647,0.07181055478166623,-0.33421556173991807,-0.12026874482630129,-2.8748826668152443,-0.06461105317855785,2.518200739504037,0.7687457285895689,0.07165585495296277,-0.33419673383382315,-0.1203439052763738,-2.874768336042937,-0.06453255302590709,2.518161157661014,0.7687020283728597,0.0011666612796887188,3.518482852752636e-05,-0.00022120676742014763,0.0011958844511311356,5.009075295101013e-05,9.10074032478319e-05,-0.001616710654997311,0.0,0.0,0.0,0.0,0.0,0.0,0.0,-0.00015469982870346122,1.8827906094920355e-05,-7.516045007251171e-05,0.00011433077230726951,7.850015265076227e-05,-3.9581843022773455e-05,-4.3700216709186e-05,-0.0011666612796887188,-3.518482852752636e-05,0.00022120676742014763,-0.0011958844511311356,-5.009075295101013e-05,-9.10074032478319e-05,0.001616710654997311,0.2998287081718445,13.536218643188477,-0.3983490765094757,-18.245882034301758,-0.5761619210243225,-2.2946200370788574,0.17978231608867645,0
42,0.20499968528747559,-0.2998287081718445,-13.536218643188477,0.3983490765094757,18.245882034301758,0.5761619210243225,2.2946200370788574,-0.17978231608867645,0.0,0.0,0.0,0.0,0.0,0.0,0.0,-0.26377175247076295,0.3665899650039411,-0.03394923001480149,0.5648997425968051,0.14410040743211108,0.08822837502102623,-0.2140390394570647,0.07181055478166623,-0.33421556173991807,-0.12026874482630129,-2.8748826668152443,-0.06461105317855785,2.518200739504037,0.7687457285895689,0.07165585495296277,-0.33419673383382315,-0.1203439052763738,-2.874768336042937,-0.06453255302590709,2.518161157661014,0.7687020283728597,0.0011666612796887188,3.518482852752636e-05,-0.00022120676742014763,0.0011958844511311356,5.009075295101013e-05,9.10074032478319e-05,-0.001616710654997311,0.0,0.0,0.0,0.0,0.0,0.0,0.0,-0.00015469982870346122,1.8827906094920355e-05,-7.516045007251171e-05,0.00011433077230726951,7.850015265076227e-05,-3.9581843022773455e-05,-4.3700216709186e-05,-0.0011666612796887188,-3.518482852752636e-05,0.00022120676742014763,-0.0011958844511311356,-5.009075295101013e-05,-9.10074032478319e-05,0.001616710654997311,0.2998287081718445,13.536218643188477,-0.3983490765094757,-18.245882034301758,-0.5761619210243225,-2.2946200370788574,0.17978231608867645,0
43,0.2100081443786621,-0.24825400114059448,-13.563989639282227,0.3705780804157257,18.269685745239258,0.5761619210243225,2.3010287284851074,-0.22830526530742645,0.0,0.0,0.0,0.0,0.0,0.0,0.0,-0.26498923304122995,0.36270113356065425,-0.03496332506655238,0.564801593469855,0.14496567260059545,0.08798161781589811,-0.21329712955586846,0.07180559389275303,-0.3342155457574293,-0.12026765335598905,-2.874883280981882,-0.06461105707283649,2.518195787265659,0.7687507668694961,0.07165585495296277,-0.33419673383382315,-0.1203439052763738,-2.874768336042937,-0.06453255302590709,2.518161157661014,0.7687020283728597,-0.0004761535510487927,-4.162436219656717e-05,0.000768991492216848,0.0003495859509237861,-2.9410117803154314e-05,-7.725151060173252e-05,0.000100080812212826,0.0,0.0,0.0,0.0,0.0,0.0,0.0,-0.000149738939790256,1.8811923606143477e-05,-7.625192038475392e-05,0.0001149449389448165,7.850404692939794e-05,-3.4629604644731415e-05,-4.873849663633578e-05,0.0004761535510487927,4.162436219656717e-05,-0.000768991492216848,-0.0003495859509237861,2.9410117803154314e-05,7.725151060173252e-05,-0.000100080812212826,0.24825400114059448,13.563989639282227,-0.3705780804157257,-18.269685745239258,-0.5761619210243225,-2.3010287284851074,0.22830526530742645,0
44,0.2149982452392578,-0.24825400114059448,-13.563989639282227,0.3705780804157257,18.269685745239258,0.5761619210243225,2.3010287284851074,-0.22830526530742645,0.0,0.0,0.0,0.0,0.0,0.0,0.0,-0.26498923304122995,0.36270113356065425,-0.03496332506655238,0.564801593469855,0.14496567260059545,0.08798161781589811,-0.21329712955586846,0.07180559389275303,-0.3342155457574293,-0.12026765335598905,-2.874883280981882,-0.06461105707283649,2.518195787265659,0.7687507668694961,0.07165585495296277,-0.33419673383382315,-0.1203439052763738,-2.874768336042937,-0.06453255302590709,2.518161157661014,0.7687020283728597,-0.0004761535510487927,-4.162436219656717e-05,0.000768991492216848,0.0003495859509237861,-2.9410117803154314e-05,-7.725151060173252e-05,0.000100080812212826,0.0,0.0,0.0,0.0,0.0,0.0,0.0,-0.000149738939790256,1.8811923606143477e-05,-7.625192038475392e-05,0.0001149449389448165,7.850404692939794e-05,-3.4629604644731415e-05,-4.873849663633578e-05,0.0004761535510487927,4.162436219656717e-05,-0.000768991492216848,-0.0003495859509237861,2.9410117803154314e-05,7.725151060173252e-05,-0.000100080812212826,0.24825400114059448,13.563989639282227,-0.3705780804157257,-18.269685745239258,-0.5761619210243225,-2.3010287284851074,0.22830526530742645,0
45,0.21999621391296387,-0.2720577120780945,-13.587793350219727,0.3983490765094757,18.297456741333008,0.5761619210243225,2.3074374198913574,-0.24844686686992645,0.0,0.0,0.0,0.0,0.0,0.0,0.0,-0.2610952515358112,0.36488906709959823,-0.030888411611424846,0.5613459665563529,0.1448689918406193,0.08786973144774805,-0.21369691071404198,0.07180726428494845,-0.33421170351038504,-0.12026968437140124,-2.874887105866601,-0.06461105755964638,2.5181950746803836,0.7687533580359415,0.07165585495296277,-0.33419673383382315,-0.1203439052763738,-2.874768336042937,-0.06453255302590709,2.518161157661014,0.7687020283728597,0.0007298954484564527,0.0008732694386522477,-0.000288154943106914,-0.00015924869665389998,-0.0001451741979997043,-0.000338129396654355,0.0008961638395553046,0.0,0.0,0.0,0.0,0.0,0.0,0.0,-0.00015140933198568018,1.4969676561893408e-05,-7.422090497255507e-05,0.00011876982366398892,7.850453373929589e-05,-3.391701936950042e-05,-5.1329663081745025e-05,-0.0007298954484564527,-0.0008732694386522477,0.000288154943106914,0.00015924869665389998,0.0001451741979997043,0.000338129396654355,-0.0008961638395553046,0.2720577120780945,13.587793350219727,-0.3983490765094757,-18.297456741333008,-0.5761619210243225,-2.3074374198913574,0.24844686686992645,0
46,0.22499895095825195,-0.2720577120780945,-13.587793350219727,0.3983490765094757,18.297456741333008,0.5761619210243225,2.3074374198913574,-0.24844686686992645,0.0,0.0,0.0,0.0,0.0,0.0,0.0,-0.2610952515358112,0.36488906709959823,-0.030888411611424846,0.5613459665563529,0.1448689918406193,0.08786973144774805,-0.21369691071404198,0.07180726428494845,-0.33421170351038504,-0.12026968437140124,-2.874887105866601,-0.06461105755964638,2.5181950746803836,0.7687533580359415,0.07165585495296277,-0.33419673383382315,-0.1203439052763738,-2.874768336042937,-0.06453255302590709,2.518161157661014,0.7687020283728597,0.0007298954484564527,0.0008732694386522477,-0.000288154943106914,-0.00015924869665389998,-0.0001451741979997043,-0.000338129396654355,0.0008961638395553046,0.0,0.0,0.0,0.0,0.0,0.0,0.0,-0.00015140933198568018,1.4969676561893408e-05,-7.422090497255507e-05,0.00011876982366398892,7.850453373929589e-05,-3.391701936950042e-05,-5.1329663081745025e-05,-0.0007298954484564527,-0.0008732694386522477,0.000288154943106914,0.00015924869665389998,0.0001451741979997043,0.000338129396654355,-0.0008961638395553046,0.2720577120780945,13.587793350219727,-0.3983490765094757,-18.297456741333008,-0.5761619210243225,-2.3074374198913574,0.24844686686992645,0
47,0.22999882698059082,-0.2720577120780945,-13.488611221313477,0.3705780804157257,18.321260452270508,0.5642600655555725,2.2946200370788574,-0.24112264811992645,0.0,0.0,0.0,0.0,0.0,0.0,0.0,-0.25955184793476366,0.35973868582070145,-0.03216906531571263,0.5633076346779664,0.1446858581217446,0.08886118282045086,-0.21328652646055,0.07180936108543384,-0.33421875151463437,-0.12026774141211778,-2.8748887373902012,-0.06460973513126372,2.518196967523228,0.7687514845977227,0.07165585495296277,-0.33419673383382315,-0.1203439052763738,-2.874768336042937,-0.06453255302590709,2.518161157661014,0.7687020283728597,0.0006766711418294551,-0.0017756096967075678,2.371446942588738e-05,-0.0006252484262787491,0.00017925957282473412,5.9642249464932404e-05,0.0010117434182732236,0.0,0.0,0.0,0.0,0.0,0.0,0.0,-0.00015350613247107348,2.2017680811226015e-05,-7.616386425601807e-05,0.00012040134726420959,7.718210535663517e-05,-3.5809862213742605e-05,-4.945622486296486e-05,-0.0006766711418294551,0.0017756096967075678,-2.371446942588738e-05,0.0006252484262787491,-0.00017925957282473412,-5.9642249464932404e-05,-0.0010117434182732236,0.2720577120780945,13.488611221313477,-0.3705780804157257,-18.321260452270508,-0.5642600655555725,-2.2946200370788574,0.24112264811992645,0
48,0.23499822616577148,-0.2720577120780945,-13.488611221313477,0.3705780804157257,18.321260452270508,0.5642600655555725,2.2946200370788574,-0.24112264811992645,0.0,0.0,0.0,0.0,0.0,0.0,0.0,-0.25955184793476366,0.35973868582070145,-0.03216906531571263,0.5633076346779664,0.1446858581217446,0.08886118282045086,-0.21328652646055,0.07180936108543384,-0.33421875151463437,-0.12026774141211778,-2.8748887373902012,-0.06460973513126372,2.518196967523228,0.7687514845977227,0.07165585495296277,-0.33419673383382315,-0.1203439052763738,-2.874768336042937,-0.06453255302590709,2.518161157661014,0.7687020283728597,0.0006766711418294551,-0.0017756096967075678,2.371446942588738e-05,-0.0006252484262787491,0.00017925957282473412,5.9642249464932404e-05,0.0010117434182732236,0.0,0.0,0.0,0.0,0.0,0.0,0.0,-0.00015350613247107348,2.2017680811226015e-05,-7.616386425601807e-05,0.00012040134726420959,7.718210535663517e-05,-3.5809862213742605e-05,-4.945622486296486e-05,-0.0006766711418294551,0.0017756096967075678,-2.371446942588738e-05,0.0006252484262787491,-0.00017925957282473412,-5.9642249464932404e-05,-0.0010117434182732236,0.2720577120780945,13.488611221313477,-0.3705780804157257,-18.321260452270508,-0.5642600655555725,-2.2946200370788574,0.24112264811992645,0
49,0.24069952964782715,-0.2720577120780945,-13.488611221313477,0.3705780804157257,18.321260452270508,0.5642600655555725,2.2946200370788574,-0.24112264811992645,0.0,0.0,0.0,0.0,0.0,0.0,0.0,-0.25955184793476366,0.35973868582070145,-0.03216906531571263,0.5633076346779664,0.1446858581217446,0.08886118282045086,-0.21328652646055,0.07180936108543384,-0.33421875151463437,-0.12026774141211778,-2.8748887373902012,-0.06460973513126372,2.518196967523228,0.7687514845977227,0.07165585495296277,-0.33419673383382315,-0.1203439052763738,-2.874768336042937,-0.06453255302590709,2.518161157661014,0.7687020283728597,0.0006766711418294551,-0.0017756096967075678,2.371446942588738e-05,-0.0006252484262787491,0.00017925957282473412,5.9642249464932404e-05,0.0010117434182732236,0.0,0.0,0.0,0.0,0.0,0.0,0.0,-0.00015350613247107348,2.2017680811226015e-05,-7.616386425601807e-05,0.00012040134726420959,7.718210535663517e-05,-3.5809862213742605e-05,-4.945622486296486e-05,-0.0006766711418294551,0.0017756096967075678,-2.371446942588738e-05,0.0006252484262787491,-0.00017925957282473412,-5.9642249464932404e-05,-0.0010117434182732236,0.2720577120780945,13.488611221313477,-0.3705780804157257,-18.321260452270508,-0.5642600655555725,-2.2946200370788574,0.24112264811992645,0
50,0.2453298568725586,-0.2720577120780945,-13.488611221313477,0.3705780804157257,18.321260452270508,0.5642600655555725,2.2946200370788574,-0.24112264811992645,0.0,0.0,0.0,0.0,0.0,0.0,0.0,-0.25955184793476366,0.35973868582070145,-0.03216906531571263,0.5633076346779664,0.1446858581217446,0.08886118282045086,-0.21328652646055,0.07180936108543384,-0.33421875151463437,-0.12026774141211778,-2.8748887373902012,-0.06460973513126372,2.518196967523228,0.7687514845977227,0.07165585495296277,-0.33419673383382315,-0.1203439052763738,-2.874768336042937,-0.06453255302590709,2.518161157661014,0.7687020283728597,0.0006766711418294551,-0.0017756096967075678,2.371446942588738e-05,-0.0006252484262787491,0.00017925957282473412,5.9642249464932404e-05,0.0010117434182732236,0.0,0.0,0.0,0.0,0.0,0.0,0.0,-0.00015350613247107348,2.2017680811226015e-05,-7.616386425601807e-05,0.00012040134726420959,7.718210535663517e-05,-3.5809862213742605e-05,-4.945622486296486e-05,-0.0006766711418294551,0.0017756096967075678,-2.371446942588738e-05,0.0006252484262787491,-0.00017925957282473412,-5.9642249464932404e-05,-0.0010117434182732236,0.2720577120780945,13.488611221313477,-0.3705780804157257,-18.321260452270508,-0.5642600655555725,-2.2946200370788574,0.24112264811992645,0
51,0.2500030994415283,-0.24825400114059448,-13.536218643188477,0.3983490765094757,18.297456741333008,0.5761619210243225,2.3010287284851074,-0.21457235515117645,0.0,0.0,0.0,0.0,0.0,0.0,0.0,-0.25793502922434636,0.3605522944959712,-0.03492322008529098,0.5624415064650174,0.14430973321802362,0.08843617037755587,-0.21384690173174278,0.07180677182940466,-0.33421542830405526,-0.1202675534336748,-2.8748871293275826,-0.06461105755964913,2.5181959529490943,0.7687495941973183,0.07165585495296277,-0.33419673383382315,-0.1203439052763738,-2.874768336042937,-0.06453255302590709,2.518161157661014,0.7687020283728597,-0.000838729369538919,-0.0002582432835223728,-0.0003532390487138023,-0.00015127127009823056,-0.0001902475632455601,4.867663826586592e-05,0.0002153362215449007,0.0,0.0,0.0,0.0,0.0,0.0,0.0,-0.00015091687644189222,1.869447023211679e-05,-7.63518426989962e-05,0.0001187932846455908,7.850453374204369e-05,-3.47952880801472e-05,-4.756582445852864e-05,0.000838729369538919,0.0002582432835223728,0.0003532390487138023,0.00015127127009823056,0.0001902475632455601,-4.867663826586592e-05,-0.0002153362215449007,0.24825400114059448,13.536218643188477,-0.3983490765094757,-18.297456741333008,-0.5761619210243225,-2.3010287284851074,0.21457235515117645,0
52,0.2549612522125244,-0.24825400114059448,-13.536218643188477,0.3983490765094757,18.297456741333008,0.5761619210243225,2.3010287284851074,-0.21457235515117645,0.0,0.0,0.0,0.0,0.0,0.0,0.0,-0.25793502922434636,0.3605522944959712,-0.03492322008529098,0.5624415064650174,0.14430973321802362,0.08843617037755587,-0.21384690173174278,0.07180677182940466,-0.33421542830405526,-0.1202675534336748,-2.8748871293275826,-0.06461105755964913,2.5181959529490943,0.7687495941973183,0.07165585495296277,-0.33419673383382315,-0.1203439052763738,-2.874768336042937,-0.06453255302590709,2.518161157661014,0.7687020283728597,-0.000838729369538919,-0.0002582432835223728,-0.0003532390487138023,-0.00015127127009823056,-0.0001902475632455601,4.867663826586592e-05,0.0002153362215449007,0.0,0.0,0.0,0.0,0.0,0.0,0.0,-0.00015091687644189222,1.869447023211679e-05,-7.63518426989962e-05,0.0001187932846455908,7.850453374204369e-05,-3.47952880801472e-05,-4.756582445852864e-05,0.000838729369538919,0.0002582432835223728,0.0003532390487138023,0.00015127127009823056,0.0001902475632455601,-4.867663826586592e-05,-0.0002153362215449007,0.24825400114059448,13.536218643188477,-0.3983490765094757,-18.297456741333008,-0.5761619210243225,-2.3010287284851074,0.21457235515117645,0
53,0.26000022888183594,-0.22445029020309448,-13.536218643188477,0.4221527874469757,18.321260452270508,0.5761619210243225,2.3010287284851074,-0.20724813640117645,0.0,0.0,0.0,0.0,0.0,0.0,0.0,-0.2585461901003993,0.3605262190196065,-0.02948097293097098,0.5642771746490396,0.1433822597938116,0.08863226238955736,-0.21382595552705766,0.0718035827281503,-0.33421746810755393,-0.1202706532760037,-2.8748866572630285,-0.06461105755964913,2.5181957825589967,0.7687487803473814,0.07165585495296277,-0.33419673383382315,-0.1203439052763738,-2.874768336042937,-0.06453255302590709,2.518161157661014,0.7687020283728597,-0.0009402530649099628,-0.00022810924177776897,-0.0009948722503799034,-0.000672579527299417,-7.295756404606669e-05,-0.00012213440356054488,-0.0007111096847882491,0.0,0.0,0.0,0.0,0.0,0.0,0.0,-0.00014772777518752556,2.0734273730782515e-05,-7.32520003701026e-05,0.00011832122009147739,7.850453374204369e-05,-3.46248979825603e-05,-4.675197452164159e-05,0.0009402530649099628,0.00022810924177776897,0.0009948722503799034,0.000672579527299417,7.295756404606669e-05,0.00012213440356054488,0.0007111096847882491,0.22445029020309448,13.536218643188477,-0.4221527874469757,-18.321260452270508,-0.5761619210243225,-2.3010287284851074,0.20724813640117645,0
54,0.2661435604095459,-0.22445029020309448,-13.536218643188477,0.4221527874469757,18.321260452270508,0.5761619210243225,2.3010287284851074,-0.20724813640117645,0.0,0.0,0.0,0.0,0.0,0.0,0.0,-0.2585461901003993,0.3605262190196065,-0.02948097293097098,0.5642771746490396,0.1433822597938116,0.08863226238955736,-0.21382595552705766,0.0718035827281503,-0.33421746810755393,-0.1202706532760037,-2.8748866572630285,-0.06461105755964913,2.5181957825589967,0.7687487803473814,0.07165585495296277,-0.33419673383382315,-0.1203439052763738,-2.874768336042937,-0.06453255302590709,2.518161157661014,0.7687020283728597,-0.0009402530649099628,-0.00022810924177776897,-0.0009948722503799034,-0.000672579527299417,-7.295756404606669e-05,-0.00012213440356054488,-0.0007111096847882491,0.0,0.0,0.0,0.0,0.0,0.0,0.0,-0.00014772777518752556,2.0734273730782515e-05,-7.32520003701026e-05,0.00011832122009147739,7.850453374204369e-05,-3.46248979825603e-05,-4.675197452164159e-05,0.0009402530649099628,0.00022810924177776897,0.0009948722503799034,0.000672579527299417,7.295756404606669e-05,0.00012213440356054488,0.0007111096847882491,0.22445029020309448,13.536218643188477,-0.4221527874469757,-18.321260452270508,-0.5761619210243225,-2.3010287284851074,0.20724813640117645,0
55,0.2700977325439453,-0.3236324191093445,-13.512414932250977,0.3705780804157257,18.345064163208008,0.5697532296180725,2.3010287284851074,-0.22830526530742645,0.0,0.0,0.0,0.0,0.0,0.0,0.0,-0.26217953680958705,0.3610208366364971,-0.031479807216442626,0.5699346696006478,0.14337467974022333,0.08912147587647551,-0.21415018392603588,0.0718120324074589,-0.33421707327805694,-0.12026770499697631,-2.874888466161676,-0.06461034548282622,2.518199131860813,0.7687511200822058,0.07165585495296277,-0.33419673383382315,-0.1203439052763738,-2.874768336042937,-0.06453255302590709,2.518161157661014,0.7687020283728597,0.0012986595057717743,-0.0008701894048502629,0.0001321371189040395,-0.0008457219477167738,4.2479655064486864e-05,-1.590701666937343e-05,0.0001758188007118967,0.0,0.0,0.0,0.0,0.0,0.0,0.0,-0.00015617745449612863,2.0339444233796744e-05,-7.620027939748975e-05,0.00012013011873879265,7.779245691913461e-05,-3.7974199798895825e-05,-4.909170934608298e-05,-0.0012986595057717743,0.0008701894048502629,-0.0001321371189040395,0.0008457219477167738,-4.2479655064486864e-05,1.590701666937343e-05,-0.0001758188007118967,0.3236324191093445,13.512414932250977,-0.3705780804157257,-18.345064163208008,-0.5697532296180725,-2.3010287284851074,0.22830526530742645,0
56,0.2749967575073242,-0.3236324191093445,-13.512414932250977,0.3705780804157257,18.345064163208008,0.5697532296180725,2.3010287284851074,-0.22830526530742645,0.0,0.0,0.0,0.0,0.0,0.0,0.0,-0.26217953680958705,0.3610208366364971,-0.031479807216442626,0.5699346696006478,0.14337467974022333,0.08912147587647551,-0.21415018392603588,0.0718120324074589,-0.33421707327805694,-0.12026770499697631,-2.874888466161676,-0.06461034548282622,2.518199131860813,0.7687511200822058,0.07165585495296277,-0.33419673383382315,-0.1203439052763738,-2.874768336042937,-0.06453255302590709,2.518161157661014,0.7687020283728597,0.0012986595057717743,-0.0008701894048502629,0.0001321371189040395,-0.0008457219477167738,4.2479655064486864e-05,-1.590701666937343e-05,0.0001758188007118967,0.0,0.0,0.0,0.0,0.0,0.0,0.0,-0.00015617745449612863,2.0339444233796744e-05,-7.620027939748975e-05,0.00012013011873879265,7.779245691913461e-05,-3.7974199798895825e-05,-4.909170934608298e-05,-0.0012986595057717743,0.0008701894048502629,-0.0001321371189040395,0.0008457219477167738,-4.2479655064486864e-05,1.590701666937343e-05,-0.0001758188007118967,0.3236324191093445,13.512414932250977,-0.3705780804157257,-18.345064163208008,-0.5697532296180725,-2.3010287284851074,0.22830526530742645,0
57,0.27996158599853516,-0.2720577120780945,-13.563989639282227,0.4221527874469757,18.321260452270508,0.5761619210243225,2.2882113456726074,-0.25485557317733765,0.0,0.0,0.0,0.0,0.0,0.0,0.0,-0.2609257408236476,0.3673675646575399,-0.02677256492416998,0.5635094679378942,0.14278966346637667,0.08819370835742685,-0.21449557992987703,0.07180913353105753,-0.33421416822696415,-0.12026919658800332,-2.874886829901184,-0.06461105755964913,2.5181972067844223,0.768754070116414,0.07165585495296277,-0.33419673383382315,-0.1203439052763738,-2.874768336042937,-0.06453255302590709,2.518161157661014,0.7687020283728597,0.00035520764685910314,0.0005013824405983621,-0.0007090459079736922,-0.0007021532853143041,-8.703084885611014e-05,0.0006702488864822053,-0.00025174784905540853,0.0,0.0,0.0,0.0,0.0,0.0,0.0,-0.0001532785780947593,1.743439314100259e-05,-7.47086883704784e-05,0.00011849385824680425,7.850453374204369e-05,-3.6049123408155026e-05,-5.2041743554220865e-05,-0.00035520764685910314,-0.0005013824405983621,0.0007090459079736922,0.0007021532853143041,8.703084885611014e-05,-0.0006702488864822053,0.00025174784905540853,0.2720577120780945,13.563989639282227,-0.4221527874469757,-18.321260452270508,-0.5761619210243225,-2.2882113456726074,0.25485557317733765,0
58,0.2852456569671631,-0.2720577120780945,-13.563989639282227,0.4221527874469757,18.321260452270508,0.5761619210243225,2.2882113456726074,-0.25485557317733765,0.0,0.0,0.0,0.0,0.0,0.0,0.0,-0.2609257408236476,0.3673675646575399,-0.02677256492416998,0.5635094679378942,0.14278966346637667,0.08819370835742685,-0.21449557992987703,0.07180913353105753,-0.33421416822696415,-0.12026919658800332,-2.874886829901184,-0.06461105755964913,2.5181972067844223,0.768754070116414,0.07165585495296277,-0.33419673383382315,-0.1203439052763738,-2.874768336042937,-0.06453255302590709,2.518161157661014,0.7687020283728597,0.00035520764685910314,0.0005013824405983621,-0.0007090459079736922,-0.0007021532853143041,-8.703084885611014e-05,0.0006702488864822053,-0.00025174784905540853,0.0,0.0,0.0,0.0,0.0,0.0,0.0,-0.0001532785780947593,1.743439314100259e-05,-7.47086883704784e-05,0.00011849385824680425,7.850453374204369e-05,-3.6049123408155026e-05,-5.2041743554220865e-05,-0.00035520764685910314,-0.0005013824405983621,0.0007090459079736922,0.0007021532853143041,8.703084885611014e-05,-0.0006702488864822053,0.00025174784905540853,0.2720577120780945,13.563989639282227,-0.4221527874469757,-18.321260452270508,-0.5761619210243225,-2.2882113456726074,0.25485557317733765,0
59,0.2899966239929199,-0.24825400114059448,-13.563989639282227,0.3705780804157257,18.297456741333008,0.5697532296180725,2.3074374198913574,-0.22098104655742645,0.0,0.0,0.0,0.0,0.0,0.0,0.0,-0.26434280767345925,0.36423718174267294,-0.030608061019292285,0.5663140710123327,0.14402279665929177,0.08873157328753341,-0.21442513401915644,0.07180462454275571,-0.33421408886715254,-0.12026774136384817,-2.8748864979268887,-0.06461034548282622,2.5181950761339076,0.7687503061186173,0.07165585495296277,-0.33419673383382315,-0.1203439052763738,-2.874768336042937,-0.06453255302590709,2.518161157661014,0.7687020283728597,-0.0003376761533143285,5.148989123632081e-06,0.00015736866403145636,-0.0005085260528120787,-0.0009670777435494485,-0.00020941121532814242,0.0005276751146221524,0.0,0.0,0.0,0.0,0.0,0.0,0.0,-0.00014876958979294364,1.7355033329391478e-05,-7.61639125256286e-05,0.00011816188395163962,7.779245691913461e-05,-3.391847289346828e-05,-4.827774575755228e-05,0.0003376761533143285,-5.148989123632081e-06,-0.00015736866403145636,0.0005085260528120787,0.0009670777435494485,0.00020941121532814242,-0.0005276751146221524,0.24825400114059448,13.563989639282227,-0.3705780804157257,-18.297456741333008,-0.5697532296180725,-2.3074374198913574,0.22098104655742645,0
60,0.2950096130371094,-0.24825400114059448,-13.563989639282227,0.3705780804157257,18.297456741333008,0.5697532296180725,2.3074374198913574,-0.22098104655742645,0.0,0.0,0.0,0.0,0.0,0.0,0.0,-0.26434280767345925,0.36423718174267294,-0.030608061019292285,0.5663140710123327,0.14402279665929177,0.08873157328753341,-0.21442513401915644,0.07180462454275571,-0.33421408886715254,-0.12026774136384817,-2.8748864979268887,-0.06461034548282622,2.5181950761339076,0.7687503061186173,0.07165585495296277,-0.33419673383382315,-0.1203439052763738,-2.874768336042937,-0.06453255302590709,2.518161157661014,0.7687020283728597,-0.0003376761533143285,5.148989123632081e-06,0.00015736866403145636,-0.0005085260528120787,-0.0009670777435494485,-0.00020941121532814242,0.0005276751146221524,0.0,0.0,0.0,0.0,0.0,0.0,0.0,-0.00014876958979294364,1.7355033329391478e-05,-7.61639125256286e-05,0.00011816188395163962,7.779245691913461e-05,-3.391847289346828e-05,-4.827774575755228e-05,0.0003376761533143285,-5.148989123632081e-06,-0.00015736866403145636,0.0005085260528120787,0.0009670777435494485,0.00020941121532814242,-0.0005276751146221524,0.24825400114059448,13.563989639282227,-0.3705780804157257,-18.297456741333008,-0.5697532296180725,-2.3074374198913574,0.22098104655742645,0
61,0.3000030517578125,-0.24825400114059448,-13.563989639282227,0.3705780804157257,18.345064163208008,0.5761619210243225,2.3074374198913574,-0.21457235515117645,0.0,0.0,0.0,0.0,0.0,0.0,0.0,-0.2582794747101174,0.36629058855561364,-0.029345690019780078,0.5621734447528185,0.14287102705903507,0.08835506348189777,-0.21458755992675102,0.07180524741518171,-0.33421337656248307,-0.1202670252774362,-2.8748885710124084,-0.06461105755964913,2.518195193064047,0.7687495942032971,0.07165585495296277,-0.33419673383382315,-0.1203439052763738,-2.874768336042937,-0.06453255302590709,2.518161157661014,0.7687020283728597,-7.558815160659037e-05,0.0005057123376163634,0.000458549314092084,-0.0015705257885114028,-0.00015771744297191922,-0.00041684806683531505,0.0006307674294945432,0.0,0.0,0.0,0.0,0.0,0.0,0.0,-0.00014939246221894187,1.6642728659921335e-05,-7.687999893760122e-05,0.00012023496947133339,7.850453374204369e-05,-3.403540303281716e-05,-4.756583043741269e-05,7.558815160659037e-05,-0.0005057123376163634,-0.000458549314092084,0.0015705257885114028,0.00015771744297191922,0.00041684806683531505,-0.0006307674294945432,0.24825400114059448,13.563989639282227,-0.3705780804157257,-18.345064163208008,-0.5761619210243225,-2.3074374198913574,0.21457235515117645,0
62,0.3049921989440918,-0.24825400114059448,-13.563989639282227,0.3705780804157257,18.345064163208008,0.5761619210243225,2.3074374198913574,-0.21457235515117645,0.0,0.0,0.0,0.0,0.0,0.0,0.0,-0.2582794747101174,0.36629058855561364,-0.029345690019780078,0.5621734447528185,0.14287102705903507,0.08835506348189777,-0.21458755992675102,0.07180524741518171,-0.33421337656248307,-0.1202670252774362,-2.8748885710124084,-0.06461105755964913,2.518195193064047,0.7687495942032971,0.07165585495296277,-0.33419673383382315,-0.1203439052763738,-2.874768336042937,-0.06453255302590709,2.518161157661014,0.7687020283728597,-7.558815160659037e-05,0.0005057123376163634,0.000458549314092084,-0.0015705257885114028,-0.00015771744297191922,-0.00041684806683531505,0.0006307674294945432,0.0,0.0,0.0,0.0,0.0,0.0,0.0,-0.00014939246221894187,1.6642728659921335e-05,-7.687999893760122e-05,0.00012023496947133339,7.850453374204369e-05,-3.403540303281716e-05,-4.756583043741269e-05,7.558815160659037e-05,-0.0005057123376163634,-0.000458549314092084,0.0015705257885114028,0.00015771744297191922,0.00041684806683531505,-0.0006307674294945432,0.24825400114059448,13.563989639282227,-0.3705780804157257,-18.345064163208008,-0.5761619210243225,-2.3074374198913574,0.21457235515117645,0
63,0.3099997043609619,-0.22445029020309448,-13.536218643188477,0.3705780804157257,18.269685745239258,0.5816550850868225,2.3010287284851074,-0.22098104655742645,0.0,0.0,0.0,0.0,0.0,0.0,0.0,-0.25468131560187246,0.3702745062112139,-0.027507619529253766,0.5637390699092455,0.14267463401043995,0.08844971321988972,-0.2145770582782119,0.07180381233733152,-0.3342153311700789,-0.12026561007293442,-2.874885185837368,-0.06461166791121163,2.5181959001886263,0.7687503062262877,0.07165585495296277,-0.33419673383382315,-0.1203439052763738,-2.874768336042937,-0.06453255302590709,2.518161157661014,0.7687020283728597,-0.0006052773183482512,0.0007178172594473758,0.0008698768980044699,0.0007943638577433518,-0.00034062561859024576,0.00013713230302291572,0.000509754888703453,0.0,0.0,0.0,0.0,0.0,0.0,0.0,-0.00014795738436874928,1.859733625575455e-05,-7.829520343938245e-05,0.00011684979443105092,7.911488530454314e-05,-3.4742527612152685e-05,-4.827785342798041e-05,0.0006052773183482512,-0.0007178172594473758,-0.0008698768980044699,-0.0007943638577433518,0.00034062561859024576,-0.00013713230302291572,-0.000509754888703453,0.22445029020309448,13.536218643188477,-0.3705780804157257,-18.269685745239258,-0.5816550850868225,-2.3010287284851074,0.22098104655742645,0
64,0.3150177001953125,-0.22445029020309448,-13.536218643188477,0.3705780804157257,18.269685745239258,0.5816550850868225,2.3010287284851074,-0.22098104655742645,0.0,0.0,0.0,0.0,0.0,0.0,0.0,-0.25468131560187246,0.3702745062112139,-0.027507619529253766,0.5637390699092455,0.14267463401043995,0.08844971321988972,-0.2145770582782119,0.07180381233733152,-0.3342153311700789,-0.12026561007293442,-2.874885185837368,-0.06461166791121163,2.5181959001886263,0.7687503062262877,0.07165585495296277,-0.33419673383382315,-0.1203439052763738,-2.874768336042937,-0.06453255302590709,2.518161157661014,0.7687020283728597,-0.0006052773183482512,0.0007178172594473758,0.0008698768980044699,0.0007943638577433518,-0.00034062561859024576,0.00013713230302291572,0.000509754888703453,0.0,0.0,0.0,0.0,0.0,0.0,0.0,-0.00014795738436874928,1.859733625575455e-05,-7.829520343938245e-05,0.00011684979443105092,7.911488530454314e-05,-3.4742527612152685e-05,-4.827785342798041e-05,0.0006052773183482512,-0.0007178172594473758,-0.0008698768980044699,-0.0007943638577433518,0.00034062561859024576,-0.00013713230302291572,-0.000509754888703453,0.22445029020309448,13.536218643188477,-0.3705780804157257,-18.269685745239258,-0.5816550850868225,-2.3010287284851074,0.22098104655742645,0
65,0.3200504779815674,-0.24825400114059448,-13.563989639282227,0.3705780804157257,18.269685745239258,0.5697532296180725,2.3010287284851074,-0.20083944499492645,0.0,0.0,0.0,0.0,0.0,0.0,0.0,-0.25601116328583107,0.3708738097089389,-0.028882244694813892,0.5646591089738742,0.14358837974356614,0.08830628925277628,-0.21457555618081478,0.07180548861693768,-0.3342141770568441,-0.12026766212632262,-2.8748849756324635,-0.06460928087764316,2.5181989745545956,0.7687480683064485,0.07165585495296277,-0.33419673383382315,-0.1203439052763738,-2.874768336042937,-0.06453255302590709,2.518161157661014,0.7687020283728597,-0.00011830504949211417,0.001012866821972054,6.147190396738594e-05,0.0004549066408538437,0.0002001391380793971,-1.4501971346822074e-05,-0.0004411981024049638,0.0,0.0,0.0,0.0,0.0,0.0,0.0,-0.00014963366397491296,1.7443223020940923e-05,-7.624315005118343e-05,0.00011663958952645714,7.672785173606922e-05,-3.7816893581510413e-05,-4.6039933588759574e-05,0.00011830504949211417,-0.001012866821972054,-6.147190396738594e-05,-0.0004549066408538437,-0.0002001391380793971,1.4501971346822074e-05,0.0004411981024049638,0.24825400114059448,13.563989639282227,-0.3705780804157257,-18.269685745239258,-0.5697532296180725,-2.3010287284851074,0.20083944499492645,0
66,0.32500720024108887,-0.24825400114059448,-13.563989639282227,0.3705780804157257,18.269685745239258,0.5697532296180725,2.3010287284851074,-0.20083944499492645,0.0,0.0,0.0,0.0,0.0,0.0,0.0,-0.25601116328583107,0.3708738097089389,-0.028882244694813892,0.5646591089738742,0.14358837974356614,0.08830628925277628,-0.21457555618081478,0.07180548861693768,-0.3342141770568441,-0.12026766212632262,-2.8748849756324635,-0.06460928087764316,2.5181989745545956,0.7687480683064485,0.07165585495296277,-0.33419673383382315,-0.1203439052763738,-2.874768336042937,-0.06453255302590709,2.518161157661014,0.7687020283728597,-0.00011830504949211417,0.001012866821972054,6.147190396738594e-05,0.0004549066408538437,0.0002001391380793971,-1.4501971346822074e-05,-0.0004411981024049638,0.0,0.0,0.0,0.0,0.0,0.0,0.0,-0.00014963366397491296,1.7443223020940923e-05,-7.624315005118343e-05,0.00011663958952645714,7.672785173606922e-05,-3.7816893581510413e-05,-4.6039933588759574e-05,0.00011830504949211417,-0.001012866821972054,-6.147190396738594e-05,-0.0004549066408538437,-0.0002001391380793971,1.4501971346822074e-05,0.0004411981024049638,0.24825400114059448,13.563989639282227,-0.3705780804157257,-18.269685745239258,-0.5697532296180725,-2.3010287284851074,0.20083944499492645,0
67,0.33003830909729004,-0.24825400114059448,-13.563989639282227,0.3705780804157257,18.321260452270508,0.5697532296180725,2.3074374198913574,-0.24112264811992645,0.0,0.0,0.0,0.0,0.0,0.0,0.0,-0.25741238213657036,0.37478219959727327,-0.031319129461855076,0.5665172641272279,0.14401406247412338,0.08943897006940163,-0.21383251256626784,0.07180487883249644,-0.33421340141061356,-0.12026490317996782,-2.874888705992492,-0.0646103454768165,2.518196131429405,0.7687525442358519,0.07165585495296277,-0.33419673383382315,-0.1203439052763738,-2.874768336042937,-0.06453255302590709,2.518161157661014,0.7687020283728597,-0.0006820932599865159,0.001033986995830339,9.585122537216467e-05,-0.000525438897197187,0.00018690117069747366,-0.00016285675338122884,0.001182580511888614,0.0,0.0,0.0,0.0,0.0,0.0,0.0,-0.00014902387953366625,1.666757679041897e-05,-7.900209640597511e-05,0.00012036994955488822,7.779245090941411e-05,-3.497376839067812e-05,-5.051586299220645e-05,0.0006820932599865159,-0.001033986995830339,-9.585122537216467e-05,0.000525438897197187,-0.00018690117069747366,0.00016285675338122884,-0.001182580511888614,0.24825400114059448,13.563989639282227,-0.3705780804157257,-18.321260452270508,-0.5697532296180725,-2.3074374198913574,0.24112264811992645,0
68,0.33504796028137207,-0.24825400114059448,-13.563989639282227,0.3705780804157257,18.321260452270508,0.5697532296180725,2.3074374198913574,-0.24112264811992645,0.0,0.0,0.0,0.0,0.0,0.0,0.0,-0.25741238213657036,0.37478219959727327,-0.031319129461855076,0.5665172641272279,0.14401406247412338,0.08943897006940163,-0.21383251256626784,0.07180487883249644,-0.33421340141061356,-0.12026490317996782,-2.874888705992492,-0.0646103454768165,2.518196131429405,0.7687525442358519,0.07165585495296277,-0.33419673383382315,-0.1203439052763738,-2.874768336042937,-0.06453255302590709,2.518161157661014,0.7687020283728597,-0.0006820932599865159,0.001033986995830339,9.585122537216467e-05,-0.000525438897197187,0.00018690117069747366,-0.00016285675338122884,0.001182580511888614,0.0,0.0,0.0,0.0,0.0,0.0,0.0,-0.00014902387953366625,1.666757679041897e-05,-7.900209640597511e-05,0.00012036994955488822,7.779245090941411e-05,-3.497376839067812e-05,-5.051586299220645e-05,0.0006820932599865159,-0.001033986995830339,-9.585122537216467e-05,0.000525438897197187,-0.00018690117069747366,0.00016285675338122884,-0.001182580511888614,0.24825400114059448,13.563989639282227,-0.3705780804157257,-18.321260452270508,-0.5697532296180725,-2.3074374198913574,0.24112264811992645,0
69,0.3400096893310547,-0.2720577120780945,-13.536218643188477,0.3705780804157257,18.321260452270508,0.5761619210243225,2.3010287284851074,-0.21457235515117645,0.0,0.0,0.0,0.0,0.0,0.0,0.0,-0.2612782696340532,0.37479627709347907,-0.03419964295660453,0.5688489569909291,0.14401694270894175,0.09032437444102225,-0.21387564755101984,0.07180629388143063,-0.3342185025988234,-0.1202677345757988,-2.874886161569564,-0.0646110575596491,2.518199314529616,0.7687495942032999,0.07165585495296277,-0.33419673383382315,-0.1203439052763738,-2.874768336042937,-0.06453255302590709,2.518161157661014,0.7687020283728597,-0.00011373361937702213,1.2286508412245221e-07,-0.00021034882855911963,-5.995568278567245e-05,-2.2408845301850305e-05,2.7340388895546702e-05,0.0006443044757186153,0.0,0.0,0.0,0.0,0.0,0.0,0.0,-0.0001504389284678609,2.1768765000262924e-05,-7.61707005750012e-05,0.00011782552662698009,7.850453374201594e-05,-3.8156868602090555e-05,-4.756583044018825e-05,0.00011373361937702213,-1.2286508412245221e-07,0.00021034882855911963,5.995568278567245e-05,2.2408845301850305e-05,-2.7340388895546702e-05,-0.0006443044757186153,0.2720577120780945,13.536218643188477,-0.3705780804157257,-18.321260452270508,-0.5761619210243225,-2.3010287284851074,0.21457235515117645,0
70,0.34501171112060547,-0.2720577120780945,-13.536218643188477,0.3705780804157257,18.321260452270508,0.5761619210243225,2.3010287284851074,-0.21457235515117645,0.0,0.0,0.0,0.0,0.0,0.0,0.0,-0.2612782696340532,0.37479627709347907,-0.03419964295660453,0.5688489569909291,0.14401694270894175,0.09032437444102225,-0.21387564755101984,0.07180629388143063,-0.3342185025988234,-0.1202677345757988,-2.874886161569564,-0.0646110575596491,2.518199314529616,0.7687495942032999,0.07165585495296277,-0.33419673383382315,-0.1203439052763738,-2.874768336042937,-0.06453255302590709,2.518161157661014,0.7687020283728597,-0.00011373361937702213,1.2286508412245221e-07,-0.00021034882855911963,-5.995568278567245e-05,-2.2408845301850305e-05,2.7340388895546702e-05,0.0006443044757186153,0.0,0.0,0.0,0.0,0.0,0.0,0.0,-0.0001504389284678609,2.1768765000262924e-05,-7.61707005750012e-05,0.00011782552662698009,7.850453374201594e-05,-3.8156868602090555e-05,-4.756583044018825e-05,0.00011373361937702213,-1.2286508412245221e-07,0.00021034882855911963,5.995568278567245e-05,2.2408845301850305e-05,-2.7340388895546702e-05,-0.0006443044757186153,0.2720577120780945,13.536218643188477,-0.3705780804157257,-18.321260452270508,-0.5761619210243225,-2.3010287284851074,0.21457235515117645,0
71,0.3499941825866699,-0.2720577120780945,-13.536218643188477,0.3705780804157257,18.321260452270508,0.5761619210243225,2.3010287284851074,-0.21457235515117645,0.0,0.0,0.0,0.0,0.0,0.0,0.0,-0.2612782696340532,0.37479627709347907,-0.03419964295660453,0.5688489569909291,0.14401694270894175,0.09032437444102225,-0.21387564755101984,0.07180629388143063,-0.3342185025988234,-0.1202677345757988,-2.874886161569564,-0.0646110575596491,2.518199314529616,0.7687495942032999,0.07165585495296277,-0.33419673383382315,-0.1203439052763738,-2.874768336042937,-0.06453255302590709,2.518161157661014,0.7687020283728597,-0.00011373361937702213,1.2286508412245221e-07,-0.00021034882855911963,-5.995568278567245e-05,-2.2408845301850305e-05,2.7340388895546702e-05,0.0006443044757186153,0.0,0.0,0.0,0.0,0.0,0.0,0.0,-0.0001504389284678609,2.1768765000262924e-05,-7.61707005750012e-05,0.00011782552662698009,7.850453374201594e-05,-3.8156868602090555e-05,-4.756583044018825e-05,0.00011373361937702213,-1.2286508412245221e-07,0.00021034882855911963,5.995568278567245e-05,2.2408845301850305e-05,-2.7340388895546702e-05,-0.0006443044757186153,0.2720577120780945,13.536218643188477,-0.3705780804157257,-18.321260452270508,-0.5761619210243225,-2.3010287284851074,0.21457235515117645,0
72,0.354992151260376,-0.2720577120780945,-13.536218643188477,0.3705780804157257,18.321260452270508,0.5761619210243225,2.3010287284851074,-0.21457235515117645,0.0,0.0,0.0,0.0,0.0,0.0,0.0,-0.2612782696340532,0.37479627709347907,-0.03419964295660453,0.5688489569909291,0.14401694270894175,0.09032437444102225,-0.21387564755101984,0.07180629388143063,-0.3342185025988234,-0.1202677345757988,-2.874886161569564,-0.0646110575596491,2.518199314529616,0.7687495942032999,0.07165585495296277,-0.33419673383382315,-0.1203439052763738,-2.874768336042937,-0.06453255302590709,2.518161157661014,0.7687020283728597,-0.00011373361937702213,1.2286508412245221e-07,-0.00021034882855911963,-5.995568278567245e-05,-2.2408845301850305e-05,2.7340388895546702e-05,0.0006443044757186153,0.0,0.0,0.0,0.0,0.0,0.0,0.0,-0.0001504389284678609,2.1768765000262924e-05,-7.61707005750012e-05,0.00011782552662698009,7.850453374201594e-05,-3.8156868602090555e-05,-4.756583044018825e-05,0.00011373361937702213,-1.2286508412245221e-07,0.00021034882855911963,5.995568278567245e-05,2.2408845301850305e-05,-2.7340388895546702e-05,-0.0006443044757186153,0.2720577120780945,13.536218643188477,-0.3705780804157257,-18.321260452270508,-0.5761619210243225,-2.3010287284851074,0.21457235515117645,0
73,0.360013484954834,-0.2720577120780945,-13.587793350219727,0.4221527874469757,18.269685745239258,0.5761619210243225,2.2946200370788574,-0.24844686686992645,0.0,0.0,0.0,0.0,0.0,0.0,0.0,-0.26054311898051336,0.37602799654903635,-0.036211984750262174,0.5631136637180181,0.14348598068500565,0.08902075037505751,-0.21296070942219816,0.07180931962836572,-0.33421249783297746,-0.1202713545190605,-2.8748844820341266,-0.06461105755964913,2.518200183590522,0.7687533580379353,0.07165585495296277,-0.33419673383382315,-0.1203439052763738,-2.874768336042937,-0.06453255302590709,2.518161157661014,0.7687020283728597,0.00018175234198238239,0.0008879568635566233,-0.0013007343912402325,0.00029574393017816925,-0.00024229690888334513,0.00027348697314892736,0.0017714466613777955,0.0,0.0,0.0,0.0,0.0,0.0,0.0,-0.00015346467540294784,1.576399915431681e-05,-7.255075731329996e-05,0.0001161459911895868,7.850453374204369e-05,-3.902592950799644e-05,-5.1329665075594555e-05,-0.00018175234198238239,-0.0008879568635566233,0.0013007343912402325,-0.00029574393017816925,0.00024229690888334513,-0.00027348697314892736,-0.0017714466613777955,0.2720577120780945,13.587793350219727,-0.4221527874469757,-18.269685745239258,-0.5761619210243225,-2.2946200370788574,0.24844686686992645,0
74,0.3650064468383789,-0.2720577120780945,-13.587793350219727,0.4221527874469757,18.269685745239258,0.5761619210243225,2.2946200370788574,-0.24844686686992645,0.0,0.0,0.0,0.0,0.0,0.0,0.0,-0.26054311898051336,0.37602799654903635,-0.036211984750262174,0.5631136637180181,0.14348598068500565,0.08902075037505751,-0.21296070942219816,0.07180931962836572,-0.33421249783297746,-0.1202713545190605,-2.8748844820341266,-0.06461105755964913,2.518200183590522,0.7687533580379353,0.07165585495296277,-0.33419673383382315,-0.1203439052763738,-2.874768336042937,-0.06453255302590709,2.518161157661014,0.7687020283728597,0.00018175234198238239,0.0008879568635566233,-0.0013007343912402325,0.00029574393017816925,-0.00024229690888334513,0.00027348697314892736,0.0017714466613777955,0.0,0.0,0.0,0.0,0.0,0.0,0.0,-0.00015346467540294784,1.576399915431681e-05,-7.255075731329996e-05,0.0001161459911895868,7.850453374204369e-05,-3.902592950799644e-05,-5.1329665075594555e-05,-0.00018175234198238239,-0.0008879568635566233,0.0013007343912402325,-0.00029574393017816925,0.00024229690888334513,-0.00027348697314892736,-0.0017714466613777955,0.2720577120780945,13.587793350219727,-0.4221527874469757,-18.269685745239258,-0.5761619210243225,-2.2946200370788574,0.24844686686992645,0
75,0.3700077533721924,-0.22445029020309448,-13.587793350219727,0.3705780804157257,18.345064163208008,0.5578513741493225,2.3202548027038574,-0.20083944499492645,0.0,0.0,0.0,0.0,0.0,0.0,0.0,-0.2565163758802425,0.3715959462738965,-0.03242016824399353,0.5664964272377288,0.14303820609803325,0.09025136924733825,-0.21347455073629457,0.07180533635098763,-0.33421420205543867,-0.12026774401023455,-2.8748904783599056,-0.0646090230544408,2.5181936462285353,0.7687480683243937,0.07165585495296277,-0.33419673383382315,-0.1203439052763738,-2.874768336042937,-0.06453255302590709,2.518161157661014,0.7687020283728597,-0.0002870364714914649,0.0010070733651798987,0.0008540479779223543,-0.001153870771827281,0.00047852159142658054,-0.0006974456919018119,3.5839519637098874e-05,0.0,0.0,0.0,0.0,0.0,0.0,0.0,-0.00014948139802485605,1.7468221615524193e-05,-7.616126613925467e-05,0.00012214231696860978,7.647002853371221e-05,-3.248856752113838e-05,-4.6039951533960455e-05,0.0002870364714914649,-0.0010070733651798987,-0.0008540479779223543,0.001153870771827281,-0.00047852159142658054,0.0006974456919018119,-3.5839519637098874e-05,0.22445029020309448,13.587793350219727,-0.3705780804157257,-18.345064163208008,-0.5578513741493225,-2.3202548027038574,0.20083944499492645,0
76,0.37499475479125977,-0.22445029020309448,-13.587793350219727,0.3705780804157257,18.345064163208008,0.5578513741493225,2.3202548027038574,-0.20083944499492645,0.0,0.0,0.0,0.0,0.0,0.0,0.0,-0.2565163758802425,0.3715959462738965,-0.03242016824399353,0.5664964272377288,0.14303820609803325,0.09025136924733825,-0.21347455073629457,0.07180533635098763,-0.33421420205543867,-0.12026774401023455,-2.8748904783599056,-0.0646090230544408,2.5181936462285353,0.7687480683243937,0.07165585495296277,-0.33419673383382315,-0.1203439052763738,-2.874768336042937,-0.06453255302590709,2.518161157661014,0.7687020283728597,-0.0002870364714914649,0.0010070733651798987,0.0008540479779223543,-0.001153870771827281,0.00047852159142658054,-0.0006974456919018119,3.5839519637098874e-05,0.0,0.0,0.0,0.0,0.0,0.0,0.0,-0.00014948139802485605,1.7468221615524193e-05,-7.616126613925467e-05,0.00012214231696860978,7.647002853371221e-05,-3.248856752113838e-05,-4.6039951533960455e-05,0.0002870364714914649,-0.0010070733651798987,-0.0008540479779223543,0.001153870771827281,-0.00047852159142658054,0.0006974456919018119,-3.5839519637098874e-05,0.22445029020309448,13.587793350219727,-0.3705780804157257,-18.345064163208008,-0.5578513741493225,-2.3202548027038574,0.20083944499492645,0
77,0.37999558448791504,-0.24825400114059448,-13.512414932250977,0.3705780804157257,18.321260452270508,0.5761619210243225,2.2946200370788574,-0.17337362468242645,0.0,0.0,0.0,0.0,0.0,0.0,0.0,-0.2568511811968684,0.37352094015924064,-0.03002951294000419,0.5609923995223861,0.14227385481660507,0.09005531971732748,-0.21263370124310585,0.07180477866520994,-0.3342179508246732,-0.1202674974680768,-2.87488880509352,-0.06461105755964913,2.5181975601410227,0.7687450165665812,0.07165585495296277,-0.33419673383382315,-0.1203439052763738,-2.874768336042937,-0.06453255302590709,2.518161157661014,0.7687020283728597,2.39772860698774e-05,-0.0006220774577106701,0.0006818861934664053,-0.0006964810203452331,-0.00035308714479805075,0.0003476918394417001,-0.0013406573943194743,0.0,0.0,0.0,0.0,0.0,0.0,0.0,-0.00014892371224717316,2.1216990850059236e-05,-7.640780829699934e-05,0.00012046905058316071,7.850453374204369e-05,-3.6402480008579374e-05,-4.2988193721504864e-05,-2.39772860698774e-05,0.0006220774577106701,-0.0006818861934664053,0.0006964810203452331,0.00035308714479805075,-0.0003476918394417001,0.0013406573943194743,0.24825400114059448,13.512414932250977,-0.3705780804157257,-18.321260452270508,-0.5761619210243225,-2.2946200370788574,0.17337362468242645,0
78,0.3850095272064209,-0.24825400114059448,-13.512414932250977,0.3705780804157257,18.321260452270508,0.5761619210243225,2.2946200370788574,-0.17337362468242645,0.0,0.0,0.0,0.0,0.0,0.0,0.0,-0.2568511811968684,0.37352094015924064,-0.03002951294000419,0.5609923995223861,0.14227385481660507,0.09005531971732748,-0.21263370124310585,0.07180477866520994,-0.3342179508246732,-0.1202674974680768,-2.87488880509352,-0.06461105755964913,2.5181975601410227,0.7687450165665812,0.07165585495296277,-0.33419673383382315,-0.1203439052763738,-2.874768336042937,-0.06453255302590709,2.518161157661014,0.7687020283728597,2.39772860698774e-05,-0.0006220774577106701,0.0006818861934664053,-0.0006964810203452331,-0.00035308714479805075,0.0003476918394417001,-0.0013406573943194743,0.0,0.0,0.0,0.0,0.0,0.0,0.0,-0.00014892371224717316,2.1216990850059236e-05,-7.640780829699934e-05,0.00012046905058316071,7.850453374204369e-05,-3.6402480008579374e-05,-4.2988193721504864e-05,-2.39772860698774e-05,0.0006220774577106701,-0.0006818861934664053,0.0006964810203452331,0.00035308714479805075,-0.0003476918394417001,0.0013406573943194743,0.24825400114059448,13.512414932250977,-0.3705780804157257,-18.321260452270508,-0.5761619210243225,-2.2946200370788574,0.17337362468242645,0
79,0.38999319076538086,-0.22445029020309448,-13.563989639282227,0.3983490765094757,18.321260452270508,0.5761619210243225,2.3074374198913574,-0.23471395671367645,0.0,0.0,0.0,0.0,0.0,0.0,0.0,-0.25586817469916856,0.36533025481828485,-0.02655662793987115,0.5673498873048485,0.14236687158799258,0.09140859246645246,-0.2121849061024465,0.07180581882200616,-0.33421579311579375,-0.12026732251632964,-2.8748887757641013,-0.06461105755964913,2.518195087979654,0.7687518321590291,0.07165585495296277,-0.33419673383382315,-0.1203439052763738,-2.874768336042937,-0.06453255302590709,2.518161157661014,0.7687020283728597,-0.0006390675185023409,0.00022343776377759756,-0.00022663812427622346,-0.0003598844437873693,0.00018838754519569988,-0.00012180881747176332,0.0012017132685858338,0.0,0.0,0.0,0.0,0.0,0.0,0.0,-0.00014996386904339576,1.905928197060147e-05,-7.65827600441582e-05,0.00012043972116426716,7.850453374204369e-05,-3.393031864007412e-05,-4.980378616936676e-05,0.0006390675185023409,-0.00022343776377759756,0.00022663812427622346,0.0003598844437873693,-0.00018838754519569988,0.00012180881747176332,-0.0012017132685858338,0.22445029020309448,13.563989639282227,-0.3983490765094757,-18.321260452270508,-0.5761619210243225,-2.3074374198913574,0.23471395671367645,0
