rezayati/contactInterpretation/dataset/franka_main/labeled_data/link2/f1_3.csv
index,time,tau_J0,tau_J1,tau_J2,tau_J3,tau_J4,tau_J5,tau_J6,tau_J_d0,tau_J_d1,tau_J_d2,tau_J_d3,tau_J_d4,tau_J_d5,tau_J_d6,tau_ext0,tau_ext1,tau_ext2,tau_ext3,tau_ext4,tau_ext5,tau_ext6,q0,q1,q2,q3,q4,q5,q6,q_d0,q_d1,q_d2,q_d3,q_d4,q_d5,q_d6,dq0,dq1,dq2,dq3,dq4,dq5,dq6,dq_d0,dq_d1,dq_d2,dq_d3,dq_d4,dq_d5,dq_d6,e0,e1,e2,e3,e4,e5,e6,de0,de1,de2,de3,de4,de5,de6,etau_J0,etau_J1,etau_J2,etau_J3,etau_J4,etau_J5,etau_J6,label
1,0.0,-0.3514034152030945,-33.96377182006836,-3.8982207775115967,19.313081741333008,0.3262229561805725,1.783755898475647,-0.17337362468242645,0.0,0.0,0.0,0.0,0.0,0.0,0.0,-0.3402096501337292,0.07587083805099636,-0.3244092062495922,0.2504138799808183,0.2661866688585025,-0.12846883767493256,-0.1532632349904687,1.054412825362724,0.32373643696746074,-0.3925082976346067,-2.153134241347757,0.8647358803282322,2.4658775946794402,0.5445009589190002,1.0544104758940245,0.3238615046091247,-0.39250456234122666,-2.153291787532338,0.8647539153680389,2.46587817577521,0.5445020185570556,-0.0002638343241261472,-0.0005928200990110487,-0.0003563609995162195,-0.0007879462168376202,-0.0002798895739931711,-0.00016791340972122188,0.0014083500882526125,0.0,0.0,0.0,0.0,0.0,0.0,0.0,-2.349468699591739e-06,0.00012506764166397843,3.735293380047189e-06,-0.000157546184580859,1.8035039806685305e-05,5.810957697249819e-07,1.0596380554117601e-06,0.0002638343241261472,0.0005928200990110487,0.0003563609995162195,0.0007879462168376202,0.0002798895739931711,0.00016791340972122188,-0.0014083500882526125,0.3514034152030945,33.96377182006836,3.8982207775115967,-19.313081741333008,-0.3262229561805725,-1.783755898475647,0.17337362468242645,0
2,0.004984855651855469,-0.3514034152030945,-33.96377182006836,-3.8982207775115967,19.313081741333008,0.3262229561805725,1.783755898475647,-0.17337362468242645,0.0,0.0,0.0,0.0,0.0,0.0,0.0,-0.3402096501337292,0.07587083805099636,-0.3244092062495922,0.2504138799808183,0.2661866688585025,-0.12846883767493256,-0.1532632349904687,1.054412825362724,0.32373643696746074,-0.3925082976346067,-2.153134241347757,0.8647358803282322,2.4658775946794402,0.5445009589190002,1.0544104758940245,0.3238615046091247,-0.39250456234122666,-2.153291787532338,0.8647539153680389,2.46587817577521,0.5445020185570556,-0.0002638343241261472,-0.0005928200990110487,-0.0003563609995162195,-0.0007879462168376202,-0.0002798895739931711,-0.00016791340972122188,0.0014083500882526125,0.0,0.0,0.0,0.0,0.0,0.0,0.0,-2.349468699591739e-06,0.00012506764166397843,3.735293380047189e-06,-0.000157546184580859,1.8035039806685305e-05,5.810957697249819e-07,1.0596380554117601e-06,0.0002638343241261472,0.0005928200990110487,0.0003563609995162195,0.0007879462168376202,0.0002798895739931711,0.00016791340972122188,-0.0014083500882526125,0.3514034152030945,33.96377182006836,3.8982207775115967,-19.313081741333008,-0.3262229561805725,-1.783755898475647,0.17337362468242645,0
3,0.009982585906982422,-0.3752071261405945,-33.96377182006836,-3.8744170665740967,19.289278030395508,0.3198142647743225,1.777347207069397,-0.19351522624492645,0.0,0.0,0.0,0.0,0.0,0.0,0.0,-0.3452957372764125,0.07292892406683867,-0.3309275013907504,0.2540173966288367,0.26621724590959345,-0.1276273326344946,-0.15347957654541675,1.0544144957985795,0.32373620465668673,-0.392508157459283,-2.153132569932106,0.864733327753766,2.4658785304960444,0.5445031963901414,1.0544104758940245,0.3238615046091247,-0.39250456234122666,-2.153291787532338,0.8647539153680389,2.46587817577521,0.5445020185570556,0.0006314574356385636,-0.0007177729070026516,-0.0008511861911593122,2.3234269456830727e-05,-0.00013836989889950445,8.172065150556048e-05,0.0015655141463125828,0.0,0.0,0.0,0.0,0.0,0.0,0.0,-4.019904555008225e-06,0.00012529995243798497,3.595118056365365e-06,-0.00015921760023163145,2.0587614272926658e-05,-3.5472083448340186e-07,-1.1778330858414066e-06,-0.0006314574356385636,0.0007177729070026516,0.0008511861911593122,-2.3234269456830727e-05,0.00013836989889950445,-8.172065150556048e-05,-0.0015655141463125828,0.3752071261405945,33.96377182006836,3.8744170665740967,-19.289278030395508,-0.3198142647743225,-1.777347207069397,0.19351522624492645,0
4,0.01499319076538086,-0.3752071261405945,-33.96377182006836,-3.8744170665740967,19.289278030395508,0.3198142647743225,1.777347207069397,-0.19351522624492645,0.0,0.0,0.0,0.0,0.0,0.0,0.0,-0.3452957372764125,0.07292892406683867,-0.3309275013907504,0.2540173966288367,0.26621724590959345,-0.1276273326344946,-0.15347957654541675,1.0544144957985795,0.32373620465668673,-0.392508157459283,-2.153132569932106,0.864733327753766,2.4658785304960444,0.5445031963901414,1.0544104758940245,0.3238615046091247,-0.39250456234122666,-2.153291787532338,0.8647539153680389,2.46587817577521,0.5445020185570556,0.0006314574356385636,-0.0007177729070026516,-0.0008511861911593122,2.3234269456830727e-05,-0.00013836989889950445,8.172065150556048e-05,0.0015655141463125828,0.0,0.0,0.0,0.0,0.0,0.0,0.0,-4.019904555008225e-06,0.00012529995243798497,3.595118056365365e-06,-0.00015921760023163145,2.0587614272926658e-05,-3.5472083448340186e-07,-1.1778330858414066e-06,-0.0006314574356385636,0.0007177729070026516,0.0008511861911593122,-2.3234269456830727e-05,0.00013836989889950445,-8.172065150556048e-05,-0.0015655141463125828,0.3752071261405945,33.96377182006836,3.8744170665740967,-19.289278030395508,-0.3198142647743225,-1.777347207069397,0.19351522624492645,0
5,0.020020246505737305,-0.3514034152030945,-33.96377182006836,-3.8982207775115967,19.289278030395508,0.3262229561805725,1.770938515663147,-0.16604940593242645,0.0,0.0,0.0,0.0,0.0,0.0,0.0,-0.33811758032710054,0.07135099330181689,-0.32460198167998505,0.25757736641483003,0.2651786043877256,-0.1278739002984515,-0.1545339790999645,1.054412825362724,0.323736440866375,-0.3925054718567432,-2.153133259011821,0.8647357553512712,2.46588006684479,0.5445001446861614,1.0544104758940245,0.3238615046091247,-0.39250456234122666,-2.153291787532338,0.8647539153680389,2.46587817577521,0.5445020185570556,3.694714083295306e-05,-0.001116693344322322,0.00042050078074791253,0.0003576118373043206,-0.00026510732514626706,0.00026272508191326773,-1.1055329752725178e-05,0.0,0.0,0.0,0.0,0.0,0.0,0.0,-2.349468699591739e-06,0.00012506374274973142,9.095155165672608e-07,-0.0001585285205170095,1.8160016767687637e-05,-1.891069580040039e-06,1.8738708942311888e-06,-3.694714083295306e-05,0.001116693344322322,-0.00042050078074791253,-0.0003576118373043206,0.00026510732514626706,-0.00026272508191326773,1.1055329752725178e-05,0.3514034152030945,33.96377182006836,3.8982207775115967,-19.289278030395508,-0.3262229561805725,-1.770938515663147,0.16604940593242645,0
6,0.024985551834106445,-0.3514034152030945,-33.96377182006836,-3.8982207775115967,19.289278030395508,0.3262229561805725,1.770938515663147,-0.16604940593242645,0.0,0.0,0.0,0.0,0.0,0.0,0.0,-0.33811758032710054,0.07135099330181689,-0.32460198167998505,0.25757736641483003,0.2651786043877256,-0.1278739002984515,-0.1545339790999645,1.054412825362724,0.323736440866375,-0.3925054718567432,-2.153133259011821,0.8647357553512712,2.46588006684479,0.5445001446861614,1.0544104758940245,0.3238615046091247,-0.39250456234122666,-2.153291787532338,0.8647539153680389,2.46587817577521,0.5445020185570556,3.694714083295306e-05,-0.001116693344322322,0.00042050078074791253,0.0003576118373043206,-0.00026510732514626706,0.00026272508191326773,-1.1055329752725178e-05,0.0,0.0,0.0,0.0,0.0,0.0,0.0,-2.349468699591739e-06,0.00012506374274973142,9.095155165672608e-07,-0.0001585285205170095,1.8160016767687637e-05,-1.891069580040039e-06,1.8738708942311888e-06,-3.694714083295306e-05,0.001116693344322322,-0.00042050078074791253,-0.0003576118373043206,0.00026510732514626706,-0.00026272508191326773,1.1055329752725178e-05,0.3514034152030945,33.96377182006836,3.8982207775115967,-19.289278030395508,-0.3262229561805725,-1.770938515663147,0.16604940593242645,0
7,0.02999591827392578,-0.2998287081718445,-33.96377182006836,-3.8982207775115967,19.289278030395508,0.3262229561805725,1.777347207069397,-0.13217489421367645,0.0,0.0,0.0,0.0,0.0,0.0,0.0,-0.3453400616621093,0.06954577136870821,-0.32779788652863523,0.25548976122638584,0.2654923489692586,-0.12791344392682846,-0.15606832012246902,1.0544092060850379,0.3237357322347094,-0.392507934191374,-2.1531328253489947,0.8647348056475275,2.4658781764278874,0.5444963809591966,1.0544104758940245,0.3238615046091247,-0.39250456234122666,-2.153291787532338,0.8647539153680389,2.46587817577521,0.5445020185570556,-0.0008816137542325561,-0.0016076776682693778,0.00018708015414360378,-0.0003071151216210234,-0.0002150859948386414,-9.348985126466276e-05,-0.001104176530070308,0.0,0.0,0.0,0.0,0.0,0.0,0.0,1.2698089866258755e-06,0.00012577237441530054,3.3718501473156692e-06,-0.0001589621833431032,1.9109720511445438e-05,-6.526774676274272e-10,5.63759785898732e-06,0.0008816137542325561,0.0016076776682693778,-0.00018708015414360378,0.0003071151216210234,0.0002150859948386414,9.348985126466276e-05,0.001104176530070308,0.2998287081718445,33.96377182006836,3.8982207775115967,-19.289278030395508,-0.3262229561805725,-1.777347207069397,0.13217489421367645,0
8,0.03499341011047363,-0.2998287081718445,-33.96377182006836,-3.8982207775115967,19.289278030395508,0.3262229561805725,1.777347207069397,-0.13217489421367645,0.0,0.0,0.0,0.0,0.0,0.0,0.0,-0.3453400616621093,0.06954577136870821,-0.32779788652863523,0.25548976122638584,0.2654923489692586,-0.12791344392682846,-0.15606832012246902,1.0544092060850379,0.3237357322347094,-0.392507934191374,-2.1531328253489947,0.8647348056475275,2.4658781764278874,0.5444963809591966,1.0544104758940245,0.3238615046091247,-0.39250456234122666,-2.153291787532338,0.8647539153680389,2.46587817577521,0.5445020185570556,-0.0008816137542325561,-0.0016076776682693778,0.00018708015414360378,-0.0003071151216210234,-0.0002150859948386414,-9.348985126466276e-05,-0.001104176530070308,0.0,0.0,0.0,0.0,0.0,0.0,0.0,1.2698089866258755e-06,0.00012577237441530054,3.3718501473156692e-06,-0.0001589621833431032,1.9109720511445438e-05,-6.526774676274272e-10,5.63759785898732e-06,0.0008816137542325561,0.0016076776682693778,-0.00018708015414360378,0.0003071151216210234,0.0002150859948386414,9.348985126466276e-05,0.001104176530070308,0.2998287081718445,33.96377182006836,3.8982207775115967,-19.289278030395508,-0.3262229561805725,-1.777347207069397,0.13217489421367645,0
9,0.03999638557434082,-0.3752071261405945,-34.01534652709961,-3.8744170665740967,19.289278030395508,0.3143211007118225,1.770938515663147,-0.14590780436992645,0.0,0.0,0.0,0.0,0.0,0.0,0.0,-0.35007029979194126,0.0674080812068996,-0.3309817719626002,0.2553413038402275,0.2664257487650686,-0.12779223782848922,-0.15588766264004114,1.0544144957985795,0.32374006014139456,-0.3925078452094033,-2.1531325702484785,0.8647360081068965,2.465879280310603,0.5444982604276596,1.0544104758940245,0.3238615046091247,-0.39250456234122666,-2.153291787532338,0.8647539153680389,2.46587817577521,0.5445020185570556,0.0005774923020931626,-0.00017929922018333611,-2.5115538655053587e-07,0.00011721193933469745,0.00017933909939125208,0.000150538019092639,-0.0007526952672867887,0.0,0.0,0.0,0.0,0.0,0.0,0.0,-4.019904555008225e-06,0.00012144446773015849,3.2828681766350343e-06,-0.00015921728385936973,1.790726114236918e-05,-1.1045353929262092e-06,3.758129396014276e-06,-0.0005774923020931626,0.00017929922018333611,2.5115538655053587e-07,-0.00011721193933469745,-0.00017933909939125208,-0.000150538019092639,0.0007526952672867887,0.3752071261405945,34.01534652709961,3.8744170665740967,-19.289278030395508,-0.3143211007118225,-1.770938515663147,0.14590780436992645,0
10,0.04499006271362305,-0.3752071261405945,-34.01534652709961,-3.8744170665740967,19.289278030395508,0.3143211007118225,1.770938515663147,-0.14590780436992645,0.0,0.0,0.0,0.0,0.0,0.0,0.0,-0.35007029979194126,0.0674080812068996,-0.3309817719626002,0.2553413038402275,0.2664257487650686,-0.12779223782848922,-0.15588766264004114,1.0544144957985795,0.32374006014139456,-0.3925078452094033,-2.1531325702484785,0.8647360081068965,2.465879280310603,0.5444982604276596,1.0544104758940245,0.3238615046091247,-0.39250456234122666,-2.153291787532338,0.8647539153680389,2.46587817577521,0.5445020185570556,0.0005774923020931626,-0.00017929922018333611,-2.5115538655053587e-07,0.00011721193933469745,0.00017933909939125208,0.000150538019092639,-0.0007526952672867887,0.0,0.0,0.0,0.0,0.0,0.0,0.0,-4.019904555008225e-06,0.00012144446773015849,3.2828681766350343e-06,-0.00015921728385936973,1.790726114236918e-05,-1.1045353929262092e-06,3.758129396014276e-06,-0.0005774923020931626,0.00017929922018333611,2.5115538655053587e-07,-0.00011721193933469745,-0.00017933909939125208,-0.000150538019092639,0.0007526952672867887,0.3752071261405945,34.01534652709961,3.8744170665740967,-19.289278030395508,-0.3143211007118225,-1.770938515663147,0.14590780436992645,0
11,0.04998612403869629,-0.3236324191093445,-34.06295394897461,-3.8744170665740967,19.313081741333008,0.3143211007118225,1.777347207069397,-0.12485067546367645,0.0,0.0,0.0,0.0,0.0,0.0,0.0,-0.3479650169910986,0.07034940013039165,-0.32337353899918586,0.2545138895594352,0.2664045284396812,-0.1284967084388289,-0.15632702785934313,1.054410876520893,0.3237434010171053,-0.3925073789698652,-2.1531342444621244,0.8647357665786578,2.4658792373536214,0.5444955669976044,1.0544104758940245,0.3238615046091247,-0.39250456234122666,-2.153291787532338,0.8647539153680389,2.46587817577521,0.5445020185570556,-0.00031210266212997945,0.0018141502209445442,0.00011254950974156707,5.419272724775946e-06,-6.881052428220425e-05,-9.240891171316727e-05,-0.0012749344069567883,0.0,0.0,0.0,0.0,0.0,0.0,0.0,-4.0062686856856544e-07,0.000118103592019414,2.816628638546703e-06,-0.0001575430702134284,1.814878938111164e-05,-1.0615784113987559e-06,6.451559451225997e-06,0.00031210266212997945,-0.0018141502209445442,-0.00011254950974156707,-5.419272724775946e-06,6.881052428220425e-05,9.240891171316727e-05,0.0012749344069567883,0.3236324191093445,34.06295394897461,3.8744170665740967,-19.313081741333008,-0.3143211007118225,-1.777347207069397,0.12485067546367645,0
12,0.05509662628173828,-0.3236324191093445,-34.06295394897461,-3.8744170665740967,19.313081741333008,0.3143211007118225,1.777347207069397,-0.12485067546367645,0.0,0.0,0.0,0.0,0.0,0.0,0.0,-0.3479650169910986,0.07034940013039165,-0.32337353899918586,0.2545138895594352,0.2664045284396812,-0.1284967084388289,-0.15632702785934313,1.054410876520893,0.3237434010171053,-0.3925073789698652,-2.1531342444621244,0.8647357665786578,2.4658792373536214,0.5444955669976044,1.0544104758940245,0.3238615046091247,-0.39250456234122666,-2.153291787532338,0.8647539153680389,2.46587817577521,0.5445020185570556,-0.00031210266212997945,0.0018141502209445442,0.00011254950974156707,5.419272724775946e-06,-6.881052428220425e-05,-9.240891171316727e-05,-0.0012749344069567883,0.0,0.0,0.0,0.0,0.0,0.0,0.0,-4.0062686856856544e-07,0.000118103592019414,2.816628638546703e-06,-0.0001575430702134284,1.814878938111164e-05,-1.0615784113987559e-06,6.451559451225997e-06,0.00031210266212997945,-0.0018141502209445442,-0.00011254950974156707,-5.419272724775946e-06,6.881052428220425e-05,9.240891171316727e-05,0.0012749344069567883,0.3236324191093445,34.06295394897461,3.8744170665740967,-19.313081741333008,-0.3143211007118225,-1.777347207069397,0.12485067546367645,0
13,0.05995345115661621,-0.3752071261405945,-33.99154281616211,-3.8506133556365967,19.261507034301758,0.3198142647743225,1.770938515663147,-0.15231649577617645,0.0,0.0,0.0,0.0,0.0,0.0,0.0,-0.3467473249397093,0.07503028876401739,-0.31843609489613,0.2526811792475892,0.2656528038244563,-0.12863523580950675,-0.15564540517006845,1.0544144957985795,0.32373836054768773,-0.3925111664095208,-2.153133376184422,0.8647331733490133,2.465879949595727,0.5444986188072551,1.0544104758940245,0.3238615046091247,-0.39250456234122666,-2.153291787532338,0.8647539153680389,2.46587817577521,0.5445020185570556,0.000881384159122738,0.0002544376465592267,-0.00031513931951977916,0.0009867114785819836,-0.00016496501170773636,0.00022914358286661276,0.00038221103292845773,0.0,0.0,0.0,0.0,0.0,0.0,0.0,-4.019904555008225e-06,0.00012314406143698609,6.604068294113752e-06,-0.00015841134791605427,2.074201902557693e-05,-1.773820517136926e-06,3.3997498004589843e-06,-0.000881384159122738,-0.0002544376465592267,0.00031513931951977916,-0.0009867114785819836,0.00016496501170773636,-0.00022914358286661276,-0.00038221103292845773,0.3752071261405945,33.99154281616211,3.8506133556365967,-19.261507034301758,-0.3198142647743225,-1.770938515663147,0.15231649577617645,0
14,0.0649874210357666,-0.3752071261405945,-33.99154281616211,-3.8506133556365967,19.261507034301758,0.3198142647743225,1.770938515663147,-0.15231649577617645,0.0,0.0,0.0,0.0,0.0,0.0,0.0,-0.3467473249397093,0.07503028876401739,-0.31843609489613,0.2526811792475892,0.2656528038244563,-0.12863523580950675,-0.15564540517006845,1.0544144957985795,0.32373836054768773,-0.3925111664095208,-2.153133376184422,0.8647331733490133,2.465879949595727,0.5444986188072551,1.0544104758940245,0.3238615046091247,-0.39250456234122666,-2.153291787532338,0.8647539153680389,2.46587817577521,0.5445020185570556,0.000881384159122738,0.0002544376465592267,-0.00031513931951977916,0.0009867114785819836,-0.00016496501170773636,0.00022914358286661276,0.00038221103292845773,0.0,0.0,0.0,0.0,0.0,0.0,0.0,-4.019904555008225e-06,0.00012314406143698609,6.604068294113752e-06,-0.00015841134791605427,2.074201902557693e-05,-1.773820517136926e-06,3.3997498004589843e-06,-0.000881384159122738,-0.0002544376465592267,0.00031513931951977916,-0.0009867114785819836,0.00016496501170773636,-0.00022914358286661276,-0.00038221103292845773,0.3752071261405945,33.99154281616211,3.8506133556365967,-19.261507034301758,-0.3198142647743225,-1.770938515663147,0.15231649577617645,0
15,0.0700676441192627,-0.3514034152030945,-34.01534652709961,-3.8982207775115967,19.237703323364258,0.3198142647743225,1.770938515663147,-0.18710653483867645,0.0,0.0,0.0,0.0,0.0,0.0,0.0,-0.3543343477440227,0.07154503198498716,-0.3227675184201809,0.2556305116370699,0.26562708220850584,-0.12781646922603046,-0.15443692526018607,1.054412825362724,0.3237400601452302,-0.3925054984339864,-2.1531296398546655,0.8647354795204519,2.465878888342543,0.544502484313316,1.0544104758940245,0.3238615046091247,-0.39250456234122666,-2.153291787532338,0.8647539153680389,2.46587817577521,0.5445020185570556,3.393358194852865e-05,0.0008862114584991548,0.00016123426082801176,0.0009602951466948745,-8.454863741176319e-05,0.00021569638788044202,0.0016419061963508768,0.0,0.0,0.0,0.0,0.0,0.0,0.0,-2.349468699591739e-06,0.00012144446389450447,9.360927597512614e-07,-0.00016214767767230853,1.843584758698391e-05,-7.125673331387361e-07,-4.657562604482024e-07,-3.393358194852865e-05,-0.0008862114584991548,-0.00016123426082801176,-0.0009602951466948745,8.454863741176319e-05,-0.00021569638788044202,-0.0016419061963508768,0.3514034152030945,34.01534652709961,3.8982207775115967,-19.237703323364258,-0.3198142647743225,-1.770938515663147,0.18710653483867645,0
16,0.0749967098236084,-0.3514034152030945,-34.01534652709961,-3.8982207775115967,19.237703323364258,0.3198142647743225,1.770938515663147,-0.18710653483867645,0.0,0.0,0.0,0.0,0.0,0.0,0.0,-0.3543343477440227,0.07154503198498716,-0.3227675184201809,0.2556305116370699,0.26562708220850584,-0.12781646922603046,-0.15443692526018607,1.054412825362724,0.3237400601452302,-0.3925054984339864,-2.1531296398546655,0.8647354795204519,2.465878888342543,0.544502484313316,1.0544104758940245,0.3238615046091247,-0.39250456234122666,-2.153291787532338,0.8647539153680389,2.46587817577521,0.5445020185570556,3.393358194852865e-05,0.0008862114584991548,0.00016123426082801176,0.0009602951466948745,-8.454863741176319e-05,0.00021569638788044202,0.0016419061963508768,0.0,0.0,0.0,0.0,0.0,0.0,0.0,-2.349468699591739e-06,0.00012144446389450447,9.360927597512614e-07,-0.00016214767767230853,1.843584758698391e-05,-7.125673331387361e-07,-4.657562604482024e-07,-3.393358194852865e-05,-0.0008862114584991548,-0.00016123426082801176,-0.0009602951466948745,8.454863741176319e-05,-0.00021569638788044202,-0.0016419061963508768,0.3514034152030945,34.01534652709961,3.8982207775115967,-19.237703323364258,-0.3198142647743225,-1.770938515663147,0.18710653483867645,0
17,0.07995915412902832,-0.4029781222343445,-33.99154281616211,-3.9497954845428467,19.289278030395508,0.3143211007118225,1.783755898475647,-0.18710653483867645,0.0,0.0,0.0,0.0,0.0,0.0,0.0,-0.3552550013716693,0.06890012913753096,-0.32736233136286524,0.25875803179722123,0.265734836974445,-0.12747140725074266,-0.15521782772377113,1.0544164446404105,0.3237383887374778,-0.39250399596958424,-2.153132570075963,0.8647357665791193,2.465877465636457,0.5445056675883546,1.0544104758940245,0.3238615046091247,-0.39250456234122666,-2.153291787532338,0.8647539153680389,2.46587817577521,0.5445020185570556,0.0010445840573220005,0.0002514609079609899,0.0008475771709328127,0.0004126860349905726,0.00022162402546776995,-0.0001885503506149202,0.0016890399933683934,0.0,0.0,0.0,0.0,0.0,0.0,0.0,-5.968746386031398e-06,0.00012311587164692828,-5.663716424186838e-07,-0.00015921745637470508,1.814878891959193e-05,7.101387531349701e-07,-3.6490312990133944e-06,-0.0010445840573220005,-0.0002514609079609899,-0.0008475771709328127,-0.0004126860349905726,-0.00022162402546776995,0.0001885503506149202,-0.0016890399933683934,0.4029781222343445,33.99154281616211,3.9497954845428467,-19.289278030395508,-0.3143211007118225,-1.783755898475647,0.18710653483867645,0
18,0.08498525619506836,-0.4029781222343445,-33.99154281616211,-3.9497954845428467,19.289278030395508,0.3143211007118225,1.783755898475647,-0.18710653483867645,0.0,0.0,0.0,0.0,0.0,0.0,0.0,-0.3552550013716693,0.06890012913753096,-0.32736233136286524,0.25875803179722123,0.265734836974445,-0.12747140725074266,-0.15521782772377113,1.0544164446404105,0.3237383887374778,-0.39250399596958424,-2.153132570075963,0.8647357665791193,2.465877465636457,0.5445056675883546,1.0544104758940245,0.3238615046091247,-0.39250456234122666,-2.153291787532338,0.8647539153680389,2.46587817577521,0.5445020185570556,0.0010445840573220005,0.0002514609079609899,0.0008475771709328127,0.0004126860349905726,0.00022162402546776995,-0.0001885503506149202,0.0016890399933683934,0.0,0.0,0.0,0.0,0.0,0.0,0.0,-5.968746386031398e-06,0.00012311587164692828,-5.663716424186838e-07,-0.00015921745637470508,1.814878891959193e-05,7.101387531349701e-07,-3.6490312990133944e-06,-0.0010445840573220005,-0.0002514609079609899,-0.0008475771709328127,-0.0004126860349905726,-0.00022162402546776995,0.0001885503506149202,-0.0016890399933683934,0.4029781222343445,33.99154281616211,3.9497954845428467,-19.289278030395508,-0.3143211007118225,-1.783755898475647,0.18710653483867645,0
19,0.08998727798461914,-0.3514034152030945,-34.03915023803711,-3.8982207775115967,19.289278030395508,0.3143211007118225,1.783755898475647,-0.18710653483867645,0.0,0.0,0.0,0.0,0.0,0.0,0.0,-0.3479909609066185,0.07175474809457567,-0.32643237713805273,0.2559604014420965,0.2651420100678999,-0.12849898752078603,-0.15513938091114965,1.0544128341930419,0.3237417305812446,-0.39250619802922443,-2.1531325700370805,0.864733832315102,2.465877469512599,0.5445024843312855,1.0544104758940245,0.3238615046091247,-0.39250456234122666,-2.153291787532338,0.8647539153680389,2.46587817577521,0.5445020185570556,-0.00022287922033251983,0.0007342149415941735,-0.00048274682385698674,-0.00024710298635764445,0.0001790003735215414,-0.0002953160563219094,0.001276340788536273,0.0,0.0,0.0,0.0,0.0,0.0,0.0,-2.3582990174020324e-06,0.00011977402788010405,1.635687997769697e-06,-0.00015921749525737994,2.0083052936881174e-05,7.062626110609926e-07,-4.6577422985194517e-07,0.00022287922033251983,-0.0007342149415941735,0.00048274682385698674,0.00024710298635764445,-0.0001790003735215414,0.0002953160563219094,-0.001276340788536273,0.3514034152030945,34.03915023803711,3.8982207775115967,-19.289278030395508,-0.3143211007118225,-1.783755898475647,0.18710653483867645,0
20,0.09498763084411621,-0.3514034152030945,-34.03915023803711,-3.8982207775115967,19.289278030395508,0.3143211007118225,1.783755898475647,-0.18710653483867645,0.0,0.0,0.0,0.0,0.0,0.0,0.0,-0.3479909609066185,0.07175474809457567,-0.32643237713805273,0.2559604014420965,0.2651420100678999,-0.12849898752078603,-0.15513938091114965,1.0544128341930419,0.3237417305812446,-0.39250619802922443,-2.1531325700370805,0.864733832315102,2.465877469512599,0.5445024843312855,1.0544104758940245,0.3238615046091247,-0.39250456234122666,-2.153291787532338,0.8647539153680389,2.46587817577521,0.5445020185570556,-0.00022287922033251983,0.0007342149415941735,-0.00048274682385698674,-0.00024710298635764445,0.0001790003735215414,-0.0002953160563219094,0.001276340788536273,0.0,0.0,0.0,0.0,0.0,0.0,0.0,-2.3582990174020324e-06,0.00011977402788010405,1.635687997769697e-06,-0.00015921749525737994,2.0083052936881174e-05,7.062626110609926e-07,-4.6577422985194517e-07,0.00022287922033251983,-0.0007342149415941735,0.00048274682385698674,0.00024710298635764445,-0.0001790003735215414,0.0002953160563219094,-0.001276340788536273,0.3514034152030945,34.03915023803711,3.8982207775115967,-19.289278030395508,-0.3143211007118225,-1.783755898475647,0.18710653483867645,0
21,0.09998559951782227,-0.3514034152030945,-33.99154281616211,-3.9220244884490967,19.261507034301758,0.3143211007118225,1.777347207069397,-0.13217489421367645,0.0,0.0,0.0,0.0,0.0,0.0,0.0,-0.35269229382625716,0.0722266969748372,-0.3347381701619397,0.25417647228537993,0.26526637713256707,-0.12839099438706936,-0.15545501945397674,1.0544128253627738,0.32373768107654055,-0.3925040317978859,-2.1531306466000775,0.8647372163939177,2.4658817267984934,0.5444963812822076,1.0544104758940245,0.3238615046091247,-0.39250456234122666,-2.153291787532338,0.8647539153680389,2.46587817577521,0.5445020185570556,-0.0003771699266347719,-0.0006655720618547953,1.2891656901902964e-05,0.0006215847056699865,5.041544121386023e-05,8.508343945980492e-05,-0.0012523208164951203,0.0,0.0,0.0,0.0,0.0,0.0,0.0,-2.3494687493297306e-06,0.00012382353258416634,-5.305433407598592e-07,-0.00016114093226038406,1.669897412126531e-05,-3.551023283421273e-06,5.637274848036e-06,0.0003771699266347719,0.0006655720618547953,-1.2891656901902964e-05,-0.0006215847056699865,-5.041544121386023e-05,-8.508343945980492e-05,0.0012523208164951203,0.3514034152030945,33.99154281616211,3.9220244884490967,-19.261507034301758,-0.3143211007118225,-1.777347207069397,0.13217489421367645,0
22,0.10494494438171387,-0.3514034152030945,-33.99154281616211,-3.9220244884490967,19.261507034301758,0.3143211007118225,1.777347207069397,-0.13217489421367645,0.0,0.0,0.0,0.0,0.0,0.0,0.0,-0.35269229382625716,0.0722266969748372,-0.3347381701619397,0.25417647228537993,0.26526637713256707,-0.12839099438706936,-0.15545501945397674,1.0544128253627738,0.32373768107654055,-0.3925040317978859,-2.1531306466000775,0.8647372163939177,2.4658817267984934,0.5444963812822076,1.0544104758940245,0.3238615046091247,-0.39250456234122666,-2.153291787532338,0.8647539153680389,2.46587817577521,0.5445020185570556,-0.0003771699266347719,-0.0006655720618547953,1.2891656901902964e-05,0.0006215847056699865,5.041544121386023e-05,8.508343945980492e-05,-0.0012523208164951203,0.0,0.0,0.0,0.0,0.0,0.0,0.0,-2.3494687493297306e-06,0.00012382353258416634,-5.305433407598592e-07,-0.00016114093226038406,1.669897412126531e-05,-3.551023283421273e-06,5.637274848036e-06,0.0003771699266347719,0.0006655720618547953,-1.2891656901902964e-05,-0.0006215847056699865,-5.041544121386023e-05,-8.508343945980492e-05,0.0012523208164951203,0.3514034152030945,33.99154281616211,3.9220244884490967,-19.261507034301758,-0.3143211007118225,-1.777347207069397,0.13217489421367645,0
23,0.1099846363067627,-0.3514034152030945,-33.99154281616211,-3.9220244884490967,19.261507034301758,0.3143211007118225,1.777347207069397,-0.13217489421367645,0.0,0.0,0.0,0.0,0.0,0.0,0.0,-0.35269229382625716,0.0722266969748372,-0.3347381701619397,0.25417647228537993,0.26526637713256707,-0.12839099438706936,-0.15545501945397674,1.0544128253627738,0.32373768107654055,-0.3925040317978859,-2.1531306466000775,0.8647372163939177,2.4658817267984934,0.5444963812822076,1.0544104758940245,0.3238615046091247,-0.39250456234122666,-2.153291787532338,0.8647539153680389,2.46587817577521,0.5445020185570556,-0.0003771699266347719,-0.0006655720618547953,1.2891656901902964e-05,0.0006215847056699865,5.041544121386023e-05,8.508343945980492e-05,-0.0012523208164951203,0.0,0.0,0.0,0.0,0.0,0.0,0.0,-2.3494687493297306e-06,0.00012382353258416634,-5.305433407598592e-07,-0.00016114093226038406,1.669897412126531e-05,-3.551023283421273e-06,5.637274848036e-06,0.0003771699266347719,0.0006655720618547953,-1.2891656901902964e-05,-0.0006215847056699865,-5.041544121386023e-05,-8.508343945980492e-05,0.0012523208164951203,0.3514034152030945,33.99154281616211,3.9220244884490967,-19.261507034301758,-0.3143211007118225,-1.777347207069397,0.13217489421367645,0
24,0.11498737335205078,-0.3514034152030945,-33.99154281616211,-3.9220244884490967,19.261507034301758,0.3143211007118225,1.777347207069397,-0.13217489421367645,0.0,0.0,0.0,0.0,0.0,0.0,0.0,-0.35269229382625716,0.0722266969748372,-0.3347381701619397,0.25417647228537993,0.26526637713256707,-0.12839099438706936,-0.15545501945397674,1.0544128253627738,0.32373768107654055,-0.3925040317978859,-2.1531306466000775,0.8647372163939177,2.4658817267984934,0.5444963812822076,1.0544104758940245,0.3238615046091247,-0.39250456234122666,-2.153291787532338,0.8647539153680389,2.46587817577521,0.5445020185570556,-0.0003771699266347719,-0.0006655720618547953,1.2891656901902964e-05,0.0006215847056699865,5.041544121386023e-05,8.508343945980492e-05,-0.0012523208164951203,0.0,0.0,0.0,0.0,0.0,0.0,0.0,-2.3494687493297306e-06,0.00012382353258416634,-5.305433407598592e-07,-0.00016114093226038406,1.669897412126531e-05,-3.551023283421273e-06,5.637274848036e-06,0.0003771699266347719,0.0006655720618547953,-1.2891656901902964e-05,-0.0006215847056699865,-5.041544121386023e-05,-8.508343945980492e-05,0.0012523208164951203,0.3514034152030945,33.99154281616211,3.9220244884490967,-19.261507034301758,-0.3143211007118225,-1.777347207069397,0.13217489421367645,0
25,0.12003278732299805,-0.3236324191093445,-33.99154281616211,-3.8506133556365967,19.289278030395508,0.3198142647743225,1.777347207069397,-0.11111776530742645,0.0,0.0,0.0,0.0,0.0,0.0,0.0,-0.3408222394401875,0.06406189936306123,-0.3274698703773893,0.2537371332391661,0.26453801385681197,-0.12886529865154536,-0.15629933300887053,1.054410876520893,0.323738389669537,-0.39250911892346757,-2.1531325703871524,0.8647353813726987,2.4658782979473113,0.5444943957829639,1.0544104758940245,0.3238615046091247,-0.39250456234122666,-2.153291787532338,0.8647539153680389,2.46587817577521,0.5445020185570556,-0.0003547823245727318,-0.0008283013624340217,-0.0009387432760560833,-0.000497814535574854,4.932566951906321e-05,0.00012465988922043521,-0.0018088232204671163,0.0,0.0,0.0,0.0,0.0,0.0,0.0,-4.0062686856856544e-07,0.00012311493958772068,4.556582240911045e-06,-0.00015921714518540853,1.8533995340241916e-05,-1.221721013244803e-07,7.622774091720075e-06,0.0003547823245727318,0.0008283013624340217,0.0009387432760560833,0.000497814535574854,-4.932566951906321e-05,-0.00012465988922043521,0.0018088232204671163,0.3236324191093445,33.99154281616211,3.8506133556365967,-19.289278030395508,-0.3198142647743225,-1.777347207069397,0.11111776530742645,0
26,0.12498927116394043,-0.3236324191093445,-33.99154281616211,-3.8506133556365967,19.289278030395508,0.3198142647743225,1.777347207069397,-0.11111776530742645,0.0,0.0,0.0,0.0,0.0,0.0,0.0,-0.3408222394401875,0.06406189936306123,-0.3274698703773893,0.2537371332391661,0.26453801385681197,-0.12886529865154536,-0.15629933300887053,1.054410876520893,0.323738389669537,-0.39250911892346757,-2.1531325703871524,0.8647353813726987,2.4658782979473113,0.5444943957829639,1.0544104758940245,0.3238615046091247,-0.39250456234122666,-2.153291787532338,0.8647539153680389,2.46587817577521,0.5445020185570556,-0.0003547823245727318,-0.0008283013624340217,-0.0009387432760560833,-0.000497814535574854,4.932566951906321e-05,0.00012465988922043521,-0.0018088232204671163,0.0,0.0,0.0,0.0,0.0,0.0,0.0,-4.0062686856856544e-07,0.00012311493958772068,4.556582240911045e-06,-0.00015921714518540853,1.8533995340241916e-05,-1.221721013244803e-07,7.622774091720075e-06,0.0003547823245727318,0.0008283013624340217,0.0009387432760560833,0.000497814535574854,-4.932566951906321e-05,-0.00012465988922043521,0.0018088232204671163,0.3236324191093445,33.99154281616211,3.8506133556365967,-19.289278030395508,-0.3198142647743225,-1.777347207069397,0.11111776530742645,0
27,0.13003063201904297,-0.3236324191093445,-34.01534652709961,-3.8744170665740967,19.289278030395508,0.3143211007118225,1.763614296913147,-0.13217489421367645,0.0,0.0,0.0,0.0,0.0,0.0,0.0,-0.34469555314738504,0.0705623702402537,-0.3315371431791885,0.2494716273988289,0.26530771267564995,-0.1288045331304533,-0.1556243314720246,1.054410876520893,0.3237400601453946,-0.3925073969687688,-2.1531325737113343,0.8647372143644079,2.465879703108356,0.5444963807996929,1.0544104758940245,0.3238615046091247,-0.39250456234122666,-2.153291787532338,0.8647539153680389,2.46587817577521,0.5445020185570556,-0.00020956449192508988,0.0008217411833322564,-4.6421504600221757e-05,0.00010230865175508759,0.00028183574488441595,0.0002832401561861907,-0.0009069581713168535,0.0,0.0,0.0,0.0,0.0,0.0,0.0,-4.0062686856856544e-07,0.00012144446373013595,2.834627542136481e-06,-0.00015921382100358983,1.670100363104776e-05,-1.5273331461784778e-06,5.637757362730866e-06,0.00020956449192508988,-0.0008217411833322564,4.6421504600221757e-05,-0.00010230865175508759,-0.00028183574488441595,-0.0002832401561861907,0.0009069581713168535,0.3236324191093445,34.01534652709961,3.8744170665740967,-19.289278030395508,-0.3143211007118225,-1.763614296913147,0.13217489421367645,0
28,0.13498473167419434,-0.3236324191093445,-34.01534652709961,-3.8744170665740967,19.289278030395508,0.3143211007118225,1.763614296913147,-0.13217489421367645,0.0,0.0,0.0,0.0,0.0,0.0,0.0,-0.34469555314738504,0.0705623702402537,-0.3315371431791885,0.2494716273988289,0.26530771267564995,-0.1288045331304533,-0.1556243314720246,1.054410876520893,0.3237400601453946,-0.3925073969687688,-2.1531325737113343,0.8647372143644079,2.465879703108356,0.5444963807996929,1.0544104758940245,0.3238615046091247,-0.39250456234122666,-2.153291787532338,0.8647539153680389,2.46587817577521,0.5445020185570556,-0.00020956449192508988,0.0008217411833322564,-4.6421504600221757e-05,0.00010230865175508759,0.00028183574488441595,0.0002832401561861907,-0.0009069581713168535,0.0,0.0,0.0,0.0,0.0,0.0,0.0,-4.0062686856856544e-07,0.00012144446373013595,2.834627542136481e-06,-0.00015921382100358983,1.670100363104776e-05,-1.5273331461784778e-06,5.637757362730866e-06,0.00020956449192508988,-0.0008217411833322564,4.6421504600221757e-05,-0.00010230865175508759,-0.00028183574488441595,-0.0002832401561861907,0.0009069581713168535,0.3236324191093445,34.01534652709961,3.8744170665740967,-19.289278030395508,-0.3143211007118225,-1.763614296913147,0.13217489421367645,0
29,0.13998770713806152,-0.2720577120780945,-33.99154281616211,-3.8506133556365967,19.261507034301758,0.3198142647743225,1.770938515663147,-0.11111776530742645,0.0,0.0,0.0,0.0,0.0,0.0,0.0,-0.3372685670234635,0.0657422997313875,-0.32265377175737703,0.25284866526423094,0.26549867943834343,-0.12941919405323885,-0.15542769325338207,1.0544072572432066,0.3237383897095395,-0.39250880494766693,-2.153131335364882,0.8647351577237937,2.4658799884049176,0.5444972636375965,1.0544104758940245,0.3238615046091247,-0.39250456234122666,-2.153291787532338,0.8647539153680389,2.46587817577521,0.5445020185570556,-0.001273008076586755,-1.783327286937787e-05,0.00022742533353410215,0.0004848881672077384,-7.26243357605645e-05,0.0003196675709887395,-0.001731925850998233,0.0,0.0,0.0,0.0,0.0,0.0,0.0,3.2186508178710938e-06,0.00012311489958521937,4.242606440274521e-06,-0.00016045216745563806,1.8757644245193106e-05,-1.8126297076648257e-06,4.754919459060147e-06,0.001273008076586755,1.783327286937787e-05,-0.00022742533353410215,-0.0004848881672077384,7.26243357605645e-05,-0.0003196675709887395,0.001731925850998233,0.2720577120780945,33.99154281616211,3.8506133556365967,-19.261507034301758,-0.3198142647743225,-1.770938515663147,0.11111776530742645,0
30,0.14498591423034668,-0.2720577120780945,-33.99154281616211,-3.8506133556365967,19.261507034301758,0.3198142647743225,1.770938515663147,-0.11111776530742645,0.0,0.0,0.0,0.0,0.0,0.0,0.0,-0.3372685670234635,0.0657422997313875,-0.32265377175737703,0.25284866526423094,0.26549867943834343,-0.12941919405323885,-0.15542769325338207,1.0544072572432066,0.3237383897095395,-0.39250880494766693,-2.153131335364882,0.8647351577237937,2.4658799884049176,0.5444972636375965,1.0544104758940245,0.3238615046091247,-0.39250456234122666,-2.153291787532338,0.8647539153680389,2.46587817577521,0.5445020185570556,-0.001273008076586755,-1.783327286937787e-05,0.00022742533353410215,0.0004848881672077384,-7.26243357605645e-05,0.0003196675709887395,-0.001731925850998233,0.0,0.0,0.0,0.0,0.0,0.0,0.0,3.2186508178710938e-06,0.00012311489958521937,4.242606440274521e-06,-0.00016045216745563806,1.8757644245193106e-05,-1.8126297076648257e-06,4.754919459060147e-06,0.001273008076586755,1.783327286937787e-05,-0.00022742533353410215,-0.0004848881672077384,7.26243357605645e-05,-0.0003196675709887395,0.001731925850998233,0.2720577120780945,33.99154281616211,3.8506133556365967,-19.261507034301758,-0.3198142647743225,-1.770938515663147,0.11111776530742645,0
31,0.14999747276306152,-0.3236324191093445,-33.96377182006836,-3.8982207775115967,19.313081741333008,0.3143211007118225,1.790164589881897,-0.13858358561992645,0.0,0.0,0.0,0.0,0.0,0.0,0.0,-0.34758087251762687,0.060001095778166355,-0.32727388142889285,0.2547606668222067,0.2656824341139866,-0.1279163246080031,-0.15491262245920143,1.054410876520893,0.32373644086770836,-0.39250557974982037,-2.1531349320061883,0.8647339132657462,2.4658799307575054,0.5444972120838251,1.0544104758940245,0.3238615046091247,-0.39250456234122666,-2.153291787532338,0.8647539153680389,2.46587817577521,0.5445020185570556,-3.1476919550452786e-05,-0.0014517466300247126,0.0010772033815719467,-0.0005207640665563149,0.00020137571474125227,-0.0006904119568204683,-0.0002973645230587133,0.0,0.0,0.0,0.0,0.0,0.0,0.0,-4.0062686856856544e-07,0.00012506374141635357,1.0174085937064703e-06,-0.00015685552614952414,2.000210229269328e-05,-1.7549822954876504e-06,4.806473230534181e-06,3.1476919550452786e-05,0.0014517466300247126,-0.0010772033815719467,0.0005207640665563149,-0.00020137571474125227,0.0006904119568204683,0.0002973645230587133,0.3236324191093445,33.96377182006836,3.8982207775115967,-19.313081741333008,-0.3143211007118225,-1.790164589881897,0.13858358561992645,0
32,0.1550273895263672,-0.3236324191093445,-33.96377182006836,-3.8982207775115967,19.313081741333008,0.3143211007118225,1.790164589881897,-0.13858358561992645,0.0,0.0,0.0,0.0,0.0,0.0,0.0,-0.34758087251762687,0.060001095778166355,-0.32727388142889285,0.2547606668222067,0.2656824341139866,-0.1279163246080031,-0.15491262245920143,1.054410876520893,0.32373644086770836,-0.39250557974982037,-2.1531349320061883,0.8647339132657462,2.4658799307575054,0.5444972120838251,1.0544104758940245,0.3238615046091247,-0.39250456234122666,-2.153291787532338,0.8647539153680389,2.46587817577521,0.5445020185570556,-3.1476919550452786e-05,-0.0014517466300247126,0.0010772033815719467,-0.0005207640665563149,0.00020137571474125227,-0.0006904119568204683,-0.0002973645230587133,0.0,0.0,0.0,0.0,0.0,0.0,0.0,-4.0062686856856544e-07,0.00012506374141635357,1.0174085937064703e-06,-0.00015685552614952414,2.000210229269328e-05,-1.7549822954876504e-06,4.806473230534181e-06,3.1476919550452786e-05,0.0014517466300247126,-0.0010772033815719467,0.0005207640665563149,-0.00020137571474125227,0.0006904119568204683,0.0002973645230587133,0.3236324191093445,33.96377182006836,3.8982207775115967,-19.313081741333008,-0.3143211007118225,-1.790164589881897,0.13858358561992645,0
33,0.15999603271484375,-0.3514034152030945,-33.99154281616211,-3.8744170665740967,19.313081741333008,0.3198142647743225,1.777347207069397,-0.19351522624492645,0.0,0.0,0.0,0.0,0.0,0.0,0.0,-0.3369508056449151,0.06683647451034722,-0.3155559568516605,0.2515655945789198,0.2650781408237972,-0.1286898979127643,-0.15492882106539188,1.054412825362724,0.3237383897095395,-0.3925099797712213,-2.1531342408008367,0.8647362291133256,2.465878547908,0.5445033184885837,1.0544104758940245,0.3238615046091247,-0.39250456234122666,-2.153291787532338,0.8647539153680389,2.46587817577521,0.5445020185570556,0.00043349133961669543,-0.0006402752137920356,-8.397312279640038e-05,-0.0004162972729015301,-9.275646878609102e-05,0.00017095575886651583,0.0016909512067230289,0.0,0.0,0.0,0.0,0.0,0.0,0.0,-2.349468699591739e-06,0.00012311489958521937,5.417429994658551e-06,-0.00015754673150114584,1.7686254713322747e-05,-3.7213278991643506e-07,-1.2999315280870505e-06,-0.00043349133961669543,0.0006402752137920356,8.397312279640038e-05,0.0004162972729015301,9.275646878609102e-05,-0.00017095575886651583,-0.0016909512067230289,0.3514034152030945,33.99154281616211,3.8744170665740967,-19.313081741333008,-0.3198142647743225,-1.777347207069397,0.19351522624492645,0
34,0.16502070426940918,-0.3514034152030945,-33.99154281616211,-3.8744170665740967,19.313081741333008,0.3198142647743225,1.777347207069397,-0.19351522624492645,0.0,0.0,0.0,0.0,0.0,0.0,0.0,-0.3369508056449151,0.06683647451034722,-0.3155559568516605,0.2515655945789198,0.2650781408237972,-0.1286898979127643,-0.15492882106539188,1.054412825362724,0.3237383897095395,-0.3925099797712213,-2.1531342408008367,0.8647362291133256,2.465878547908,0.5445033184885837,1.0544104758940245,0.3238615046091247,-0.39250456234122666,-2.153291787532338,0.8647539153680389,2.46587817577521,0.5445020185570556,0.00043349133961669543,-0.0006402752137920356,-8.397312279640038e-05,-0.0004162972729015301,-9.275646878609102e-05,0.00017095575886651583,0.0016909512067230289,0.0,0.0,0.0,0.0,0.0,0.0,0.0,-2.349468699591739e-06,0.00012311489958521937,5.417429994658551e-06,-0.00015754673150114584,1.7686254713322747e-05,-3.7213278991643506e-07,-1.2999315280870505e-06,-0.00043349133961669543,0.0006402752137920356,8.397312279640038e-05,0.0004162972729015301,9.275646878609102e-05,-0.00017095575886651583,-0.0016909512067230289,0.3514034152030945,33.99154281616211,3.8744170665740967,-19.313081741333008,-0.3198142647743225,-1.777347207069397,0.19351522624492645,0
35,0.17008352279663086,-0.3236324191093445,-34.01534652709961,-3.8982207775115967,19.313081741333008,0.3079124093055725,1.770938515663147,-0.17978231608867645,0.0,0.0,0.0,0.0,0.0,0.0,0.0,-0.3434511246005751,0.06859127990907542,-0.32008429479941247,0.25041837205072476,0.2647417216727003,-0.1280458039534245,-0.1559370731303158,1.054410876520893,0.32373998140839494,-0.3925075899895334,-2.1531363321721178,0.8647346701004683,2.4658790055917033,0.5445017097577782,1.0544104758940245,0.3238615046091247,-0.39250456234122666,-2.153291787532338,0.8647539153680389,2.46587817577521,0.5445020185570556,-0.00041214709556160607,0.00034770459007254725,-7.169954610501012e-05,-0.0004485537282137209,0.000497856716819512,0.00014572873791429976,0.001354297869707162,0.0,0.0,0.0,0.0,0.0,0.0,0.0,-4.0062686856856544e-07,0.0001215232007297784,3.0276483067304127e-06,-0.00015545536022010253,1.9245267570577873e-05,-8.298164932973862e-07,3.0879927737093027e-07,0.00041214709556160607,-0.00034770459007254725,7.169954610501012e-05,0.0004485537282137209,-0.000497856716819512,-0.00014572873791429976,-0.001354297869707162,0.3236324191093445,34.01534652709961,3.8982207775115967,-19.313081741333008,-0.3079124093055725,-1.770938515663147,0.17978231608867645,0
36,0.17501449584960938,-0.3236324191093445,-34.01534652709961,-3.8982207775115967,19.313081741333008,0.3079124093055725,1.770938515663147,-0.17978231608867645,0.0,0.0,0.0,0.0,0.0,0.0,0.0,-0.3434511246005751,0.06859127990907542,-0.32008429479941247,0.25041837205072476,0.2647417216727003,-0.1280458039534245,-0.1559370731303158,1.054410876520893,0.32373998140839494,-0.3925075899895334,-2.1531363321721178,0.8647346701004683,2.4658790055917033,0.5445017097577782,1.0544104758940245,0.3238615046091247,-0.39250456234122666,-2.153291787532338,0.8647539153680389,2.46587817577521,0.5445020185570556,-0.00041214709556160607,0.00034770459007254725,-7.169954610501012e-05,-0.0004485537282137209,0.000497856716819512,0.00014572873791429976,0.001354297869707162,0.0,0.0,0.0,0.0,0.0,0.0,0.0,-4.0062686856856544e-07,0.0001215232007297784,3.0276483067304127e-06,-0.00015545536022010253,1.9245267570577873e-05,-8.298164932973862e-07,3.0879927737093027e-07,0.00041214709556160607,-0.00034770459007254725,7.169954610501012e-05,0.0004485537282137209,-0.000497856716819512,-0.00014572873791429976,-0.001354297869707162,0.3236324191093445,34.01534652709961,3.8982207775115967,-19.313081741333008,-0.3079124093055725,-1.770938515663147,0.17978231608867645,0
37,0.18003177642822266,-0.3236324191093445,-34.01534652709961,-3.8982207775115967,19.313081741333008,0.3079124093055725,1.770938515663147,-0.17978231608867645,0.0,0.0,0.0,0.0,0.0,0.0,0.0,-0.3434511246005751,0.06859127990907542,-0.32008429479941247,0.25041837205072476,0.2647417216727003,-0.1280458039534245,-0.1559370731303158,1.054410876520893,0.32373998140839494,-0.3925075899895334,-2.1531363321721178,0.8647346701004683,2.4658790055917033,0.5445017097577782,1.0544104758940245,0.3238615046091247,-0.39250456234122666,-2.153291787532338,0.8647539153680389,2.46587817577521,0.5445020185570556,-0.00041214709556160607,0.00034770459007254725,-7.169954610501012e-05,-0.0004485537282137209,0.000497856716819512,0.00014572873791429976,0.001354297869707162,0.0,0.0,0.0,0.0,0.0,0.0,0.0,-4.0062686856856544e-07,0.0001215232007297784,3.0276483067304127e-06,-0.00015545536022010253,1.9245267570577873e-05,-8.298164932973862e-07,3.0879927737093027e-07,0.00041214709556160607,-0.00034770459007254725,7.169954610501012e-05,0.0004485537282137209,-0.000497856716819512,-0.00014572873791429976,-0.001354297869707162,0.3236324191093445,34.01534652709961,3.8982207775115967,-19.313081741333008,-0.3079124093055725,-1.770938515663147,0.17978231608867645,0
38,0.18505001068115234,-0.3752071261405945,-34.01534652709961,-3.9497954845428467,19.261507034301758,0.3143211007118225,1.783755898475647,-0.18710653483867645,0.0,0.0,0.0,0.0,0.0,0.0,0.0,-0.33745759884020565,0.06814295437215626,-0.3176978256088344,0.25277109112284396,0.2642141265921209,-0.12878385777282722,-0.15565816343550062,1.0544152110543168,0.3237400601449504,-0.3925020813798118,-2.1531334870186463,0.8647359514788645,2.4658775029449083,0.5445035439516667,1.0544104758940245,0.3238615046091247,-0.39250456234122666,-2.153291787532338,0.8647539153680389,2.46587817577521,0.5445020185570556,0.0006602115895244962,0.0005879656160782995,0.0009846883472639542,0.0006001653843814436,7.411810167899932e-05,-0.0002608173572710885,0.0017809357682295273,0.0,0.0,0.0,0.0,0.0,0.0,0.0,-4.735160292312912e-06,0.00012144446417433619,-2.480961414863536e-06,-0.00015830051369158937,1.7963889174410497e-05,6.728303016956261e-07,-1.5253946110682648e-06,-0.0006602115895244962,-0.0005879656160782995,-0.0009846883472639542,-0.0006001653843814436,-7.411810167899932e-05,0.0002608173572710885,-0.0017809357682295273,0.3752071261405945,34.01534652709961,3.9497954845428467,-19.261507034301758,-0.3143211007118225,-1.783755898475647,0.18710653483867645,0
39,0.18999028205871582,-0.3752071261405945,-34.01534652709961,-3.9497954845428467,19.261507034301758,0.3143211007118225,1.783755898475647,-0.18710653483867645,0.0,0.0,0.0,0.0,0.0,0.0,0.0,-0.33745759884020565,0.06814295437215626,-0.3176978256088344,0.25277109112284396,0.2642141265921209,-0.12878385777282722,-0.15565816343550062,1.0544152110543168,0.3237400601449504,-0.3925020813798118,-2.1531334870186463,0.8647359514788645,2.4658775029449083,0.5445035439516667,1.0544104758940245,0.3238615046091247,-0.39250456234122666,-2.153291787532338,0.8647539153680389,2.46587817577521,0.5445020185570556,0.0006602115895244962,0.0005879656160782995,0.0009846883472639542,0.0006001653843814436,7.411810167899932e-05,-0.0002608173572710885,0.0017809357682295273,0.0,0.0,0.0,0.0,0.0,0.0,0.0,-4.735160292312912e-06,0.00012144446417433619,-2.480961414863536e-06,-0.00015830051369158937,1.7963889174410497e-05,6.728303016956261e-07,-1.5253946110682648e-06,-0.0006602115895244962,-0.0005879656160782995,-0.0009846883472639542,-0.0006001653843814436,-7.411810167899932e-05,0.0002608173572710885,-0.0017809357682295273,0.3752071261405945,34.01534652709961,3.9497954845428467,-19.261507034301758,-0.3143211007118225,-1.783755898475647,0.18710653483867645,0
40,0.19498968124389648,-0.3752071261405945,-34.03915023803711,-3.8982207775115967,19.261507034301758,0.3198142647743225,1.783755898475647,-0.17337362468242645,0.0,0.0,0.0,0.0,0.0,0.0,0.0,-0.3501275563611303,0.06802162049252038,-0.3320457636871317,0.2534756947385806,0.264492401615332,-0.1280947871112578,-0.1550628624526097,1.0544145752754768,0.32374173058125005,-0.3925076677397455,-2.1531307004702915,0.8647333296228591,2.4658775995248035,0.5445009584403913,1.0544104758940245,0.3238615046091247,-0.39250456234122666,-2.153291787532338,0.8647539153680389,2.46587817577521,0.5445020185570556,8.927725896961161e-06,0.0012375424690053618,-0.000695467974017383,0.0007389802628157789,-6.698063214067364e-05,-0.0002608586188514667,0.0010206067365380208,0.0,0.0,0.0,0.0,0.0,0.0,0.0,-4.0993814522938266e-06,0.00011977402787466396,3.105398518832292e-06,-0.00016108706204631673,2.0585745179824144e-05,5.762504065032203e-07,1.0601166643420257e-06,-8.927725896961161e-06,-0.0012375424690053618,0.000695467974017383,-0.0007389802628157789,6.698063214067364e-05,0.0002608586188514667,-0.0010206067365380208,0.3752071261405945,34.03915023803711,3.8982207775115967,-19.261507034301758,-0.3198142647743225,-1.783755898475647,0.17337362468242645,0
41,0.19999051094055176,-0.3752071261405945,-34.03915023803711,-3.8982207775115967,19.261507034301758,0.3198142647743225,1.783755898475647,-0.17337362468242645,0.0,0.0,0.0,0.0,0.0,0.0,0.0,-0.3501275563611303,0.06802162049252038,-0.3320457636871317,0.2534756947385806,0.264492401615332,-0.1280947871112578,-0.1550628624526097,1.0544145752754768,0.32374173058125005,-0.3925076677397455,-2.1531307004702915,0.8647333296228591,2.4658775995248035,0.5445009584403913,1.0544104758940245,0.3238615046091247,-0.39250456234122666,-2.153291787532338,0.8647539153680389,2.46587817577521,0.5445020185570556,8.927725896961161e-06,0.0012375424690053618,-0.000695467974017383,0.0007389802628157789,-6.698063214067364e-05,-0.0002608586188514667,0.0010206067365380208,0.0,0.0,0.0,0.0,0.0,0.0,0.0,-4.0993814522938266e-06,0.00011977402787466396,3.105398518832292e-06,-0.00016108706204631673,2.0585745179824144e-05,5.762504065032203e-07,1.0601166643420257e-06,-8.927725896961161e-06,-0.0012375424690053618,0.000695467974017383,-0.0007389802628157789,6.698063214067364e-05,0.0002608586188514667,-0.0010206067365380208,0.3752071261405945,34.03915023803711,3.8982207775115967,-19.261507034301758,-0.3198142647743225,-1.783755898475647,0.17337362468242645,0
42,0.20502519607543945,-0.3514034152030945,-33.96377182006836,-3.8982207775115967,19.261507034301758,0.3198142647743225,1.777347207069397,-0.17337362468242645,0.0,0.0,0.0,0.0,0.0,0.0,0.0,-0.3422826908428883,0.07482594738245289,-0.32529881287965146,0.25137428545554197,0.26463067557307346,-0.129706341277787,-0.1557927614572993,1.0544128253631728,0.3237357322347094,-0.39250625048485177,-2.1531306215106323,0.864736592633962,2.4658782297188413,0.5445009584344096,1.0544104758940245,0.3238615046091247,-0.39250456234122666,-2.153291787532338,0.8647539153680389,2.46587817577521,0.5445020185570556,-0.00015158857225371972,-0.00035656124693603063,4.759467072693883e-05,0.0005594224900040334,-1.8582759576316646e-05,6.076010711853781e-05,0.001352709621355973,0.0,0.0,0.0,0.0,0.0,0.0,0.0,-2.3494691483438856e-06,0.00012577237441530054,1.6881436251114934e-06,-0.00016116602170557215,1.7322734076952173e-05,-5.394363133959246e-08,1.0601226460016377e-06,0.00015158857225371972,0.00035656124693603063,-4.759467072693883e-05,-0.0005594224900040334,1.8582759576316646e-05,-6.076010711853781e-05,-0.001352709621355973,0.3514034152030945,33.96377182006836,3.8982207775115967,-19.261507034301758,-0.3198142647743225,-1.777347207069397,0.17337362468242645,0
43,0.21001172065734863,-0.3514034152030945,-33.96377182006836,-3.8982207775115967,19.261507034301758,0.3198142647743225,1.777347207069397,-0.17337362468242645,0.0,0.0,0.0,0.0,0.0,0.0,0.0,-0.3422826908428883,0.07482594738245289,-0.32529881287965146,0.25137428545554197,0.26463067557307346,-0.129706341277787,-0.1557927614572993,1.0544128253631728,0.3237357322347094,-0.39250625048485177,-2.1531306215106323,0.864736592633962,2.4658782297188413,0.5445009584344096,1.0544104758940245,0.3238615046091247,-0.39250456234122666,-2.153291787532338,0.8647539153680389,2.46587817577521,0.5445020185570556,-0.00015158857225371972,-0.00035656124693603063,4.759467072693883e-05,0.0005594224900040334,-1.8582759576316646e-05,6.076010711853781e-05,0.001352709621355973,0.0,0.0,0.0,0.0,0.0,0.0,0.0,-2.3494691483438856e-06,0.00012577237441530054,1.6881436251114934e-06,-0.00016116602170557215,1.7322734076952173e-05,-5.394363133959246e-08,1.0601226460016377e-06,0.00015158857225371972,0.00035656124693603063,-4.759467072693883e-05,-0.0005594224900040334,1.8582759576316646e-05,-6.076010711853781e-05,-0.001352709621355973,0.3514034152030945,33.96377182006836,3.8982207775115967,-19.261507034301758,-0.3198142647743225,-1.777347207069397,0.17337362468242645,0
44,0.21503496170043945,-0.3514034152030945,-34.01534652709961,-3.8744170665740967,19.313081741333008,0.3262229561805725,1.777347207069397,-0.17978231608867645,0.0,0.0,0.0,0.0,0.0,0.0,0.0,-0.35129162348718523,0.07579613964625828,-0.33617892969097735,0.2501158877633183,0.2654878918624818,-0.12861759617359217,-0.15529501721246433,1.054412825362724,0.3237400601053923,-0.39250713386672825,-2.1531342403679585,0.8647355140628643,2.4658824317706345,0.544501709757089,1.0544104758940245,0.3238615046091247,-0.39250456234122666,-2.153291787532338,0.8647539153680389,2.46587817577521,0.5445020185570556,-1.1608084081025833e-05,0.0009238599892664148,-0.000786892315872195,-0.0008513580412291285,-0.00023362873358824052,2.291528065852803e-05,0.0010703439492877947,0.0,0.0,0.0,0.0,0.0,0.0,0.0,-2.349468699591739e-06,0.00012144450373241522,2.5715255015934524e-06,-0.0001575471643793236,1.840130517460903e-05,-4.2559954245291465e-06,3.0879996659738396e-07,1.1608084081025833e-05,-0.0009238599892664148,0.000786892315872195,0.0008513580412291285,0.00023362873358824052,-2.291528065852803e-05,-0.0010703439492877947,0.3514034152030945,34.01534652709961,3.8744170665740967,-19.313081741333008,-0.3262229561805725,-1.777347207069397,0.17978231608867645,0
45,0.2200331687927246,-0.3514034152030945,-34.01534652709961,-3.8744170665740967,19.313081741333008,0.3262229561805725,1.777347207069397,-0.17978231608867645,0.0,0.0,0.0,0.0,0.0,0.0,0.0,-0.35129162348718523,0.07579613964625828,-0.33617892969097735,0.2501158877633183,0.2654878918624818,-0.12861759617359217,-0.15529501721246433,1.054412825362724,0.3237400601053923,-0.39250713386672825,-2.1531342403679585,0.8647355140628643,2.4658824317706345,0.544501709757089,1.0544104758940245,0.3238615046091247,-0.39250456234122666,-2.153291787532338,0.8647539153680389,2.46587817577521,0.5445020185570556,-1.1608084081025833e-05,0.0009238599892664148,-0.000786892315872195,-0.0008513580412291285,-0.00023362873358824052,2.291528065852803e-05,0.0010703439492877947,0.0,0.0,0.0,0.0,0.0,0.0,0.0,-2.349468699591739e-06,0.00012144450373241522,2.5715255015934524e-06,-0.0001575471643793236,1.840130517460903e-05,-4.2559954245291465e-06,3.0879996659738396e-07,1.1608084081025833e-05,-0.0009238599892664148,0.000786892315872195,0.0008513580412291285,0.00023362873358824052,-2.291528065852803e-05,-0.0010703439492877947,0.3514034152030945,34.01534652709961,3.8744170665740967,-19.313081741333008,-0.3262229561805725,-1.777347207069397,0.17978231608867645,0
46,0.22503328323364258,-0.3514034152030945,-34.01534652709961,-3.8744170665740967,19.313081741333008,0.3262229561805725,1.777347207069397,-0.17978231608867645,0.0,0.0,0.0,0.0,0.0,0.0,0.0,-0.35129162348718523,0.07579613964625828,-0.33617892969097735,0.2501158877633183,0.2654878918624818,-0.12861759617359217,-0.15529501721246433,1.054412825362724,0.3237400601053923,-0.39250713386672825,-2.1531342403679585,0.8647355140628643,2.4658824317706345,0.544501709757089,1.0544104758940245,0.3238615046091247,-0.39250456234122666,-2.153291787532338,0.8647539153680389,2.46587817577521,0.5445020185570556,-1.1608084081025833e-05,0.0009238599892664148,-0.000786892315872195,-0.0008513580412291285,-0.00023362873358824052,2.291528065852803e-05,0.0010703439492877947,0.0,0.0,0.0,0.0,0.0,0.0,0.0,-2.349468699591739e-06,0.00012144450373241522,2.5715255015934524e-06,-0.0001575471643793236,1.840130517460903e-05,-4.2559954245291465e-06,3.0879996659738396e-07,1.1608084081025833e-05,-0.0009238599892664148,0.000786892315872195,0.0008513580412291285,0.00023362873358824052,-2.291528065852803e-05,-0.0010703439492877947,0.3514034152030945,34.01534652709961,3.8744170665740967,-19.313081741333008,-0.3262229561805725,-1.777347207069397,0.17978231608867645,0
47,0.23000049591064453,-0.3514034152030945,-34.01534652709961,-3.8744170665740967,19.313081741333008,0.3262229561805725,1.777347207069397,-0.17978231608867645,0.0,0.0,0.0,0.0,0.0,0.0,0.0,-0.35129162348718523,0.07579613964625828,-0.33617892969097735,0.2501158877633183,0.2654878918624818,-0.12861759617359217,-0.15529501721246433,1.054412825362724,0.3237400601053923,-0.39250713386672825,-2.1531342403679585,0.8647355140628643,2.4658824317706345,0.544501709757089,1.0544104758940245,0.3238615046091247,-0.39250456234122666,-2.153291787532338,0.8647539153680389,2.46587817577521,0.5445020185570556,-1.1608084081025833e-05,0.0009238599892664148,-0.000786892315872195,-0.0008513580412291285,-0.00023362873358824052,2.291528065852803e-05,0.0010703439492877947,0.0,0.0,0.0,0.0,0.0,0.0,0.0,-2.349468699591739e-06,0.00012144450373241522,2.5715255015934524e-06,-0.0001575471643793236,1.840130517460903e-05,-4.2559954245291465e-06,3.0879996659738396e-07,1.1608084081025833e-05,-0.0009238599892664148,0.000786892315872195,0.0008513580412291285,0.00023362873358824052,-2.291528065852803e-05,-0.0010703439492877947,0.3514034152030945,34.01534652709961,3.8744170665740967,-19.313081741333008,-0.3262229561805725,-1.777347207069397,0.17978231608867645,0
48,0.23499202728271484,-0.2998287081718445,-34.01534652709961,-3.8982207775115967,19.289278030395508,0.3198142647743225,1.770938515663147,-0.16604940593242645,0.0,0.0,0.0,0.0,0.0,0.0,0.0,-0.34659807117237773,0.07101759733492065,-0.3327086083824178,0.25240869480576666,0.26557578063057025,-0.12855462788510197,-0.15581457407866,1.0544092064120867,0.3237400591733329,-0.3925075919175916,-2.1531325793801774,0.8647365656115865,2.4658790099742784,0.5445001969603566,1.0544104758940245,0.3238615046091247,-0.39250456234122666,-2.153291787532338,0.8647539153680389,2.46587817577521,0.5445020185570556,-0.0010196941101055315,0.0004178063038550156,0.000160730886158858,-0.0001027058520385263,2.3796839744833095e-05,0.000284306300030525,0.0003679173954153409,0.0,0.0,0.0,0.0,0.0,0.0,0.0,1.2694819377934152e-06,0.00012144543579184486,3.029576364943498e-06,-0.00015920815216041717,1.7349756452400555e-05,-8.341990684890277e-07,1.8215966990364763e-06,0.0010196941101055315,-0.0004178063038550156,-0.000160730886158858,0.0001027058520385263,-2.3796839744833095e-05,-0.000284306300030525,-0.0003679173954153409,0.2998287081718445,34.01534652709961,3.8982207775115967,-19.289278030395508,-0.3198142647743225,-1.770938515663147,0.16604940593242645,0
49,0.23999643325805664,-0.2998287081718445,-34.01534652709961,-3.8982207775115967,19.289278030395508,0.3198142647743225,1.770938515663147,-0.16604940593242645,0.0,0.0,0.0,0.0,0.0,0.0,0.0,-0.34659807117237773,0.07101759733492065,-0.3327086083824178,0.25240869480576666,0.26557578063057025,-0.12855462788510197,-0.15581457407866,1.0544092064120867,0.3237400591733329,-0.3925075919175916,-2.1531325793801774,0.8647365656115865,2.4658790099742784,0.5445001969603566,1.0544104758940245,0.3238615046091247,-0.39250456234122666,-2.153291787532338,0.8647539153680389,2.46587817577521,0.5445020185570556,-0.0010196941101055315,0.0004178063038550156,0.000160730886158858,-0.0001027058520385263,2.3796839744833095e-05,0.000284306300030525,0.0003679173954153409,0.0,0.0,0.0,0.0,0.0,0.0,0.0,1.2694819377934152e-06,0.00012144543579184486,3.029576364943498e-06,-0.00015920815216041717,1.7349756452400555e-05,-8.341990684890277e-07,1.8215966990364763e-06,0.0010196941101055315,-0.0004178063038550156,-0.000160730886158858,0.0001027058520385263,-2.3796839744833095e-05,-0.000284306300030525,-0.0003679173954153409,0.2998287081718445,34.01534652709961,3.8982207775115967,-19.289278030395508,-0.3198142647743225,-1.770938515663147,0.16604940593242645,0
50,0.24500179290771484,-0.2998287081718445,-33.99154281616211,-3.8506133556365967,19.289278030395508,0.3198142647743225,1.763614296913147,-0.20083944499492645,0.0,0.0,0.0,0.0,0.0,0.0,0.0,-0.334713620972327,0.07265942130960343,-0.32156038663335423,0.2521624015437903,0.26547477931618074,-0.12974668721141483,-0.15622839439415304,1.0544092060850396,0.32373838970953406,-0.39250880441816277,-2.153132884553105,0.8647364316890359,2.465879701816311,0.544504049438374,1.0544104758940245,0.3238615046091247,-0.39250456234122666,-2.153291787532338,0.8647539153680389,2.46587817577521,0.5445020185570556,-6.412226535138864e-06,-0.0004820607610648942,-0.00030669909849485286,0.00012967742730256345,8.284021516461564e-05,0.000544422739338445,0.002138731956532911,0.0,0.0,0.0,0.0,0.0,0.0,0.0,1.2698089848495187e-06,0.00012311489959065947,4.242076936111783e-06,-0.0001589029792330443,1.7483679003005292e-05,-1.5260411010409314e-06,-2.0308813184488628e-06,6.412226535138864e-06,0.0004820607610648942,0.00030669909849485286,-0.00012967742730256345,-8.284021516461564e-05,-0.000544422739338445,-0.002138731956532911,0.2998287081718445,33.99154281616211,3.8506133556365967,-19.289278030395508,-0.3198142647743225,-1.763614296913147,0.20083944499492645,0
51,0.2499856948852539,-0.2998287081718445,-33.99154281616211,-3.8506133556365967,19.289278030395508,0.3198142647743225,1.763614296913147,-0.20083944499492645,0.0,0.0,0.0,0.0,0.0,0.0,0.0,-0.334713620972327,0.07265942130960343,-0.32156038663335423,0.2521624015437903,0.26547477931618074,-0.12974668721141483,-0.15622839439415304,1.0544092060850396,0.32373838970953406,-0.39250880441816277,-2.153132884553105,0.8647364316890359,2.465879701816311,0.544504049438374,1.0544104758940245,0.3238615046091247,-0.39250456234122666,-2.153291787532338,0.8647539153680389,2.46587817577521,0.5445020185570556,-6.412226535138864e-06,-0.0004820607610648942,-0.00030669909849485286,0.00012967742730256345,8.284021516461564e-05,0.000544422739338445,0.002138731956532911,0.0,0.0,0.0,0.0,0.0,0.0,0.0,1.2698089848495187e-06,0.00012311489959065947,4.242076936111783e-06,-0.0001589029792330443,1.7483679003005292e-05,-1.5260411010409314e-06,-2.0308813184488628e-06,6.412226535138864e-06,0.0004820607610648942,0.00030669909849485286,-0.00012967742730256345,-8.284021516461564e-05,-0.000544422739338445,-0.002138731956532911,0.2998287081718445,33.99154281616211,3.8506133556365967,-19.289278030395508,-0.3198142647743225,-1.763614296913147,0.20083944499492645,0
52,0.2550046443939209,-0.3236324191093445,-33.99154281616211,-3.8744170665740967,19.289278030395508,0.3198142647743225,1.783755898475647,-0.18710653483867645,0.0,0.0,0.0,0.0,0.0,0.0,0.0,-0.3522632592309463,0.06859929838157805,-0.3360570243482513,0.24961106528280935,0.2664727779460893,-0.12880883825124353,-0.15677690184291557,1.0544108765572318,0.32373838938551897,-0.3925071335382654,-2.1531328760515587,0.8647333474525023,2.4658778169110978,0.5445024973954895,1.0544104758940245,0.3238615046091247,-0.39250456234122666,-2.153291787532338,0.8647539153680389,2.46587817577521,0.5445020185570556,-0.0004421978524487574,-0.0009388642132098014,4.44795003987525e-05,-0.00041414603394413364,-7.447242429527192e-05,-0.00029505380144733535,0.0009708701311334432,0.0,0.0,0.0,0.0,0.0,0.0,0.0,-4.0066320727838445e-07,0.000123115223605752,2.571197038725437e-06,-0.00015891148077917805,2.0567915536617853e-05,3.588641122043157e-07,-4.788384339038387e-07,0.0004421978524487574,0.0009388642132098014,-4.44795003987525e-05,0.00041414603394413364,7.447242429527192e-05,0.00029505380144733535,-0.0009708701311334432,0.3236324191093445,33.99154281616211,3.8744170665740967,-19.289278030395508,-0.3198142647743225,-1.783755898475647,0.18710653483867645,0
53,0.2599833011627197,-0.3236324191093445,-33.99154281616211,-3.8744170665740967,19.289278030395508,0.3198142647743225,1.783755898475647,-0.18710653483867645,0.0,0.0,0.0,0.0,0.0,0.0,0.0,-0.3522632592309463,0.06859929838157805,-0.3360570243482513,0.24961106528280935,0.2664727779460893,-0.12880883825124353,-0.15677690184291557,1.0544108765572318,0.32373838938551897,-0.3925071335382654,-2.1531328760515587,0.8647333474525023,2.4658778169110978,0.5445024973954895,1.0544104758940245,0.3238615046091247,-0.39250456234122666,-2.153291787532338,0.8647539153680389,2.46587817577521,0.5445020185570556,-0.0004421978524487574,-0.0009388642132098014,4.44795003987525e-05,-0.00041414603394413364,-7.447242429527192e-05,-0.00029505380144733535,0.0009708701311334432,0.0,0.0,0.0,0.0,0.0,0.0,0.0,-4.0066320727838445e-07,0.000123115223605752,2.571197038725437e-06,-0.00015891148077917805,2.0567915536617853e-05,3.588641122043157e-07,-4.788384339038387e-07,0.0004421978524487574,0.0009388642132098014,-4.44795003987525e-05,0.00041414603394413364,7.447242429527192e-05,0.00029505380144733535,-0.0009708701311334432,0.3236324191093445,33.99154281616211,3.8744170665740967,-19.289278030395508,-0.3198142647743225,-1.783755898475647,0.18710653483867645,0
54,0.26505327224731445,-0.2998287081718445,-34.03915023803711,-3.8982207775115967,19.289278030395508,0.3198142647743225,1.763614296913147,-0.14590780436992645,0.0,0.0,0.0,0.0,0.0,0.0,0.0,-0.35016821062251025,0.06601769621700966,-0.33160202343817,0.2503082647338548,0.26595868282908774,-0.1284640153755698,-0.15732977414362084,1.0544092060850379,0.3237417305812495,-0.39250546313840995,-2.1531325954424836,0.8647360695297429,2.465883251296262,0.5445010986909069,1.0544104758940245,0.3238615046091247,-0.39250456234122666,-2.153291787532338,0.8647539153680389,2.46587817577521,0.5445020185570556,-0.0011774243285959005,0.0008066063096889956,0.00032070292062131,3.191151129954928e-05,-7.979354989972017e-05,0.00031308856228004153,-0.0009418905302843716,0.0,0.0,0.0,0.0,0.0,0.0,0.0,1.2698089866258755e-06,0.00011977402787521907,9.007971832897255e-07,-0.00015919208985426536,1.78458382960045e-05,-5.0755210518893534e-06,9.198661486964355e-07,0.0011774243285959005,-0.0008066063096889956,-0.00032070292062131,-3.191151129954928e-05,7.979354989972017e-05,-0.00031308856228004153,0.0009418905302843716,0.2998287081718445,34.03915023803711,3.8982207775115967,-19.289278030395508,-0.3198142647743225,-1.763614296913147,0.14590780436992645,0
55,0.2702200412750244,-0.2998287081718445,-34.03915023803711,-3.8982207775115967,19.289278030395508,0.3198142647743225,1.763614296913147,-0.14590780436992645,0.0,0.0,0.0,0.0,0.0,0.0,0.0,-0.35016821062251025,0.06601769621700966,-0.33160202343817,0.2503082647338548,0.26595868282908774,-0.1284640153755698,-0.15732977414362084,1.0544092060850379,0.3237417305812495,-0.39250546313840995,-2.1531325954424836,0.8647360695297429,2.465883251296262,0.5445010986909069,1.0544104758940245,0.3238615046091247,-0.39250456234122666,-2.153291787532338,0.8647539153680389,2.46587817577521,0.5445020185570556,-0.0011774243285959005,0.0008066063096889956,0.00032070292062131,3.191151129954928e-05,-7.979354989972017e-05,0.00031308856228004153,-0.0009418905302843716,0.0,0.0,0.0,0.0,0.0,0.0,0.0,1.2698089866258755e-06,0.00011977402787521907,9.007971832897255e-07,-0.00015919208985426536,1.78458382960045e-05,-5.0755210518893534e-06,9.198661486964355e-07,0.0011774243285959005,-0.0008066063096889956,-0.00032070292062131,-3.191151129954928e-05,7.979354989972017e-05,-0.00031308856228004153,0.0009418905302843716,0.2998287081718445,34.03915023803711,3.8982207775115967,-19.289278030395508,-0.3198142647743225,-1.763614296913147,0.14590780436992645,0
56,0.2749905586242676,-0.3514034152030945,-34.01534652709961,-3.8744170665740967,19.313081741333008,0.3198142647743225,1.783755898475647,-0.16604940593242645,0.0,0.0,0.0,0.0,0.0,0.0,0.0,-0.3434319829389801,0.05835379109455588,-0.32465327471173744,0.2548795790816311,0.2652142697050852,-0.128892547224149,-0.15683237298340444,1.054412825362724,0.3237400572292097,-0.39251020428125855,-2.153134547535472,0.8647366044050168,2.465877469537212,0.5445001446383325,1.0544104758940245,0.3238615046091247,-0.39250456234122666,-2.153291787532338,0.8647539153680389,2.46587817577521,0.5445020185570556,-0.0005244921364861635,7.580951800238116e-06,-3.871248912026304e-06,-0.00032542304679829525,-9.868137789259471e-05,-0.0002821445375618384,0.0003421806061205858,0.0,0.0,0.0,0.0,0.0,0.0,0.0,-2.349468699591739e-06,0.00012144737991504062,5.641940031886339e-06,-0.0001572399968656768,1.7310963022154624e-05,7.062379978606259e-07,1.8739187230831789e-06,0.0005244921364861635,-7.580951800238116e-06,3.871248912026304e-06,0.00032542304679829525,9.868137789259471e-05,0.0002821445375618384,-0.0003421806061205858,0.3514034152030945,34.01534652709961,3.8744170665740967,-19.313081741333008,-0.3198142647743225,-1.783755898475647,0.16604940593242645,0
57,0.27999210357666016,-0.3514034152030945,-34.01534652709961,-3.8744170665740967,19.313081741333008,0.3198142647743225,1.783755898475647,-0.16604940593242645,0.0,0.0,0.0,0.0,0.0,0.0,0.0,-0.3434319829389801,0.05835379109455588,-0.32465327471173744,0.2548795790816311,0.2652142697050852,-0.128892547224149,-0.15683237298340444,1.054412825362724,0.3237400572292097,-0.39251020428125855,-2.153134547535472,0.8647366044050168,2.465877469537212,0.5445001446383325,1.0544104758940245,0.3238615046091247,-0.39250456234122666,-2.153291787532338,0.8647539153680389,2.46587817577521,0.5445020185570556,-0.0005244921364861635,7.580951800238116e-06,-3.871248912026304e-06,-0.00032542304679829525,-9.868137789259471e-05,-0.0002821445375618384,0.0003421806061205858,0.0,0.0,0.0,0.0,0.0,0.0,0.0,-2.349468699591739e-06,0.00012144737991504062,5.641940031886339e-06,-0.0001572399968656768,1.7310963022154624e-05,7.062379978606259e-07,1.8739187230831789e-06,0.0005244921364861635,-7.580951800238116e-06,3.871248912026304e-06,0.00032542304679829525,9.868137789259471e-05,0.0002821445375618384,-0.0003421806061205858,0.3514034152030945,34.01534652709961,3.8744170665740967,-19.313081741333008,-0.3198142647743225,-1.783755898475647,0.16604940593242645,0
58,0.2849860191345215,-0.3514034152030945,-33.96377182006836,-3.8744170665740967,19.289278030395508,0.3262229561805725,1.783755898475647,-0.13858358561992645,0.0,0.0,0.0,0.0,0.0,0.0,0.0,-0.34523490362214054,0.059398374096715084,-0.32482104353747093,0.25586247513349597,0.2648952908087906,-0.12879238796821285,-0.15646460889446412,1.0544128518536773,0.323736440867659,-0.39250713456232794,-2.153134636231655,0.864734794446524,2.4658785378721175,0.5444970928745138,1.0544104758940245,0.3238615046091247,-0.39250456234122666,-2.153291787532338,0.8647539153680389,2.46587817577521,0.5445020185570556,8.161782634956325e-05,-0.0011711878086073468,-0.0008906748797135986,0.0003479217417925663,-0.0004575136341432457,-0.00013116864968085808,-0.0008243029562305463,0.0,0.0,0.0,0.0,0.0,0.0,0.0,-2.3759596528005744e-06,0.00012506374146570298,2.5722211012824125e-06,-0.000157151300682834,1.912092151490352e-05,-3.620969075690539e-07,4.925682541845333e-06,-8.161782634956325e-05,0.0011711878086073468,0.0008906748797135986,-0.0003479217417925663,0.0004575136341432457,0.00013116864968085808,0.0008243029562305463,0.3514034152030945,33.96377182006836,3.8744170665740967,-19.289278030395508,-0.3262229561805725,-1.783755898475647,0.13858358561992645,0
59,0.28998637199401855,-0.3514034152030945,-33.96377182006836,-3.8744170665740967,19.289278030395508,0.3262229561805725,1.783755898475647,-0.13858358561992645,0.0,0.0,0.0,0.0,0.0,0.0,0.0,-0.34523490362214054,0.059398374096715084,-0.32482104353747093,0.25586247513349597,0.2648952908087906,-0.12879238796821285,-0.15646460889446412,1.0544128518536773,0.323736440867659,-0.39250713456232794,-2.153134636231655,0.864734794446524,2.4658785378721175,0.5444970928745138,1.0544104758940245,0.3238615046091247,-0.39250456234122666,-2.153291787532338,0.8647539153680389,2.46587817577521,0.5445020185570556,8.161782634956325e-05,-0.0011711878086073468,-0.0008906748797135986,0.0003479217417925663,-0.0004575136341432457,-0.00013116864968085808,-0.0008243029562305463,0.0,0.0,0.0,0.0,0.0,0.0,0.0,-2.3759596528005744e-06,0.00012506374146570298,2.5722211012824125e-06,-0.000157151300682834,1.912092151490352e-05,-3.620969075690539e-07,4.925682541845333e-06,-8.161782634956325e-05,0.0011711878086073468,0.0008906748797135986,-0.0003479217417925663,0.0004575136341432457,0.00013116864968085808,0.0008243029562305463,0.3514034152030945,33.96377182006836,3.8744170665740967,-19.289278030395508,-0.3262229561805725,-1.783755898475647,0.13858358561992645,0
60,0.29499125480651855,-0.3752071261405945,-33.96377182006836,-3.9220244884490967,19.261507034301758,0.3143211007118225,1.777347207069397,-0.17337362468242645,0.0,0.0,0.0,0.0,0.0,0.0,0.0,-0.34941453124713834,0.06592918689243396,-0.33131801652316734,0.2532437185922116,0.2654605599553008,-0.12874479694490337,-0.15703329137398916,1.054414496125678,0.32373644086770836,-0.3925066631648341,-2.153132690572862,0.8647323890970103,2.4658824202157295,0.5445009584344096,1.0544104758940245,0.3238615046091247,-0.39250456234122666,-2.153291787532338,0.8647539153680389,2.46587817577521,0.5445020185570556,0.0003866573059082043,-0.0005898780469279014,0.00025791380655303407,0.0006507616059318599,0.0003965051675874284,-5.138424250553583e-05,0.0008724067751349799,0.0,0.0,0.0,0.0,0.0,0.0,0.0,-4.020231653578676e-06,0.00012506374141635357,2.1008236074648856e-06,-0.00015909695947602387,2.15262710285824e-05,-4.244440519496351e-06,1.0601226460016377e-06,-0.0003866573059082043,0.0005898780469279014,-0.00025791380655303407,-0.0006507616059318599,-0.0003965051675874284,5.138424250553583e-05,-0.0008724067751349799,0.3752071261405945,33.96377182006836,3.9220244884490967,-19.261507034301758,-0.3143211007118225,-1.777347207069397,0.17337362468242645,0
61,0.3000049591064453,-0.3752071261405945,-33.96377182006836,-3.9220244884490967,19.261507034301758,0.3143211007118225,1.777347207069397,-0.17337362468242645,0.0,0.0,0.0,0.0,0.0,0.0,0.0,-0.34941453124713834,0.06592918689243396,-0.33131801652316734,0.2532437185922116,0.2654605599553008,-0.12874479694490337,-0.15703329137398916,1.054414496125678,0.32373644086770836,-0.3925066631648341,-2.153132690572862,0.8647323890970103,2.4658824202157295,0.5445009584344096,1.0544104758940245,0.3238615046091247,-0.39250456234122666,-2.153291787532338,0.8647539153680389,2.46587817577521,0.5445020185570556,0.0003866573059082043,-0.0005898780469279014,0.00025791380655303407,0.0006507616059318599,0.0003965051675874284,-5.138424250553583e-05,0.0008724067751349799,0.0,0.0,0.0,0.0,0.0,0.0,0.0,-4.020231653578676e-06,0.00012506374141635357,2.1008236074648856e-06,-0.00015909695947602387,2.15262710285824e-05,-4.244440519496351e-06,1.0601226460016377e-06,-0.0003866573059082043,0.0005898780469279014,-0.00025791380655303407,-0.0006507616059318599,-0.0003965051675874284,5.138424250553583e-05,-0.0008724067751349799,0.3752071261405945,33.96377182006836,3.9220244884490967,-19.261507034301758,-0.3143211007118225,-1.777347207069397,0.17337362468242645,0
62,0.3050351142883301,-0.3236324191093445,-34.01534652709961,-3.8744170665740967,19.237703323364258,0.3143211007118225,1.770938515663147,-0.15231649577617645,0.0,0.0,0.0,0.0,0.0,0.0,0.0,-0.3418093431127646,0.057907790141644655,-0.32742650074179624,0.2596161075034663,0.26563667983245015,-0.12907038388428976,-0.1565508284568352,1.0544108765208948,0.3237400601453948,-0.3925072123274691,-2.15312994649337,0.8647371970172136,2.4658792410887025,0.5444989719661297,1.0544104758940245,0.3238615046091247,-0.39250456234122666,-2.153291787532338,0.8647539153680389,2.46587817577521,0.5445020185570556,-0.0005331571570921398,-0.00013396283136927673,-0.0007464404258678886,0.0010384995509062362,8.964016568655016e-05,-3.4032464710645723e-06,0.00013830383055784528,0.0,0.0,0.0,0.0,0.0,0.0,0.0,-4.006268703449223e-07,0.00012144446372991391,2.6499862424422815e-06,-0.00016184103896765833,1.671835082528439e-05,-1.0653134925320273e-06,3.0465909258703405e-06,0.0005331571570921398,0.00013396283136927673,0.0007464404258678886,-0.0010384995509062362,-8.964016568655016e-05,3.4032464710645723e-06,-0.00013830383055784528,0.3236324191093445,34.01534652709961,3.8744170665740967,-19.237703323364258,-0.3143211007118225,-1.770938515663147,0.15231649577617645,0
63,0.31003403663635254,-0.3236324191093445,-34.01534652709961,-3.8744170665740967,19.237703323364258,0.3143211007118225,1.770938515663147,-0.15231649577617645,0.0,0.0,0.0,0.0,0.0,0.0,0.0,-0.3418093431127646,0.057907790141644655,-0.32742650074179624,0.2596161075034663,0.26563667983245015,-0.12907038388428976,-0.1565508284568352,1.0544108765208948,0.3237400601453948,-0.3925072123274691,-2.15312994649337,0.8647371970172136,2.4658792410887025,0.5444989719661297,1.0544104758940245,0.3238615046091247,-0.39250456234122666,-2.153291787532338,0.8647539153680389,2.46587817577521,0.5445020185570556,-0.0005331571570921398,-0.00013396283136927673,-0.0007464404258678886,0.0010384995509062362,8.964016568655016e-05,-3.4032464710645723e-06,0.00013830383055784528,0.0,0.0,0.0,0.0,0.0,0.0,0.0,-4.006268703449223e-07,0.00012144446372991391,2.6499862424422815e-06,-0.00016184103896765833,1.671835082528439e-05,-1.0653134925320273e-06,3.0465909258703405e-06,0.0005331571570921398,0.00013396283136927673,0.0007464404258678886,-0.0010384995509062362,-8.964016568655016e-05,3.4032464710645723e-06,-0.00013830383055784528,0.3236324191093445,34.01534652709961,3.8744170665740967,-19.237703323364258,-0.3143211007118225,-1.770938515663147,0.15231649577617645,0
64,0.315171480178833,-0.3752071261405945,-33.99154281616211,-3.8744170665740967,19.261507034301758,0.3143211007118225,1.783755898475647,-0.16604940593242645,0.0,0.0,0.0,0.0,0.0,0.0,0.0,-0.3509514353739756,0.07294409451475113,-0.3363767945432722,0.25063646484692503,0.2653974445131285,-0.1295414496018432,-0.15532159462568207,1.0544144958349182,0.3237383897095395,-0.3925092944319268,-2.1531306210958916,0.8647370803363826,2.465878647051787,0.5445001446343201,1.0544104758940245,0.3238615046091247,-0.39250456234122666,-2.153291787532338,0.8647539153680389,2.46587817577521,0.5445020185570556,0.0004320418566061491,0.00021835405103131476,-0.0005020836835966654,0.0006728916438113757,4.657832202888594e-05,-0.00033714068851288195,0.0005939066614413875,0.0,0.0,0.0,0.0,0.0,0.0,0.0,-4.019940893718044e-06,0.00012311489958521937,4.732090700121372e-06,-0.0001611664364462584,1.683503165628153e-05,-4.7127657687440205e-07,1.8739227355402122e-06,-0.0004320418566061491,-0.00021835405103131476,0.0005020836835966654,-0.0006728916438113757,-4.657832202888594e-05,0.00033714068851288195,-0.0005939066614413875,0.3752071261405945,33.99154281616211,3.8744170665740967,-19.261507034301758,-0.3143211007118225,-1.783755898475647,0.16604940593242645,0
65,0.31998753547668457,-0.3752071261405945,-33.99154281616211,-3.8744170665740967,19.261507034301758,0.3143211007118225,1.783755898475647,-0.16604940593242645,0.0,0.0,0.0,0.0,0.0,0.0,0.0,-0.3509514353739756,0.07294409451475113,-0.3363767945432722,0.25063646484692503,0.2653974445131285,-0.1295414496018432,-0.15532159462568207,1.0544144958349182,0.3237383897095395,-0.3925092944319268,-2.1531306210958916,0.8647370803363826,2.465878647051787,0.5445001446343201,1.0544104758940245,0.3238615046091247,-0.39250456234122666,-2.153291787532338,0.8647539153680389,2.46587817577521,0.5445020185570556,0.0004320418566061491,0.00021835405103131476,-0.0005020836835966654,0.0006728916438113757,4.657832202888594e-05,-0.00033714068851288195,0.0005939066614413875,0.0,0.0,0.0,0.0,0.0,0.0,0.0,-4.019940893718044e-06,0.00012311489958521937,4.732090700121372e-06,-0.0001611664364462584,1.683503165628153e-05,-4.7127657687440205e-07,1.8739227355402122e-06,-0.0004320418566061491,-0.00021835405103131476,0.0005020836835966654,-0.0006728916438113757,-4.657832202888594e-05,0.00033714068851288195,-0.0005939066614413875,0.3752071261405945,33.99154281616211,3.8744170665740967,-19.261507034301758,-0.3143211007118225,-1.783755898475647,0.16604940593242645,0
66,0.32500576972961426,-0.3752071261405945,-33.99154281616211,-3.8744170665740967,19.261507034301758,0.3143211007118225,1.783755898475647,-0.16604940593242645,0.0,0.0,0.0,0.0,0.0,0.0,0.0,-0.3509514353739756,0.07294409451475113,-0.3363767945432722,0.25063646484692503,0.2653974445131285,-0.1295414496018432,-0.15532159462568207,1.0544144958349182,0.3237383897095395,-0.3925092944319268,-2.1531306210958916,0.8647370803363826,2.465878647051787,0.5445001446343201,1.0544104758940245,0.3238615046091247,-0.39250456234122666,-2.153291787532338,0.8647539153680389,2.46587817577521,0.5445020185570556,0.0004320418566061491,0.00021835405103131476,-0.0005020836835966654,0.0006728916438113757,4.657832202888594e-05,-0.00033714068851288195,0.0005939066614413875,0.0,0.0,0.0,0.0,0.0,0.0,0.0,-4.019940893718044e-06,0.00012311489958521937,4.732090700121372e-06,-0.0001611664364462584,1.683503165628153e-05,-4.7127657687440205e-07,1.8739227355402122e-06,-0.0004320418566061491,-0.00021835405103131476,0.0005020836835966654,-0.0006728916438113757,-4.657832202888594e-05,0.00033714068851288195,-0.0005939066614413875,0.3752071261405945,33.99154281616211,3.8744170665740967,-19.261507034301758,-0.3143211007118225,-1.783755898475647,0.16604940593242645,0
67,0.32999658584594727,-0.3752071261405945,-33.99154281616211,-3.8744170665740967,19.261507034301758,0.3143211007118225,1.783755898475647,-0.16604940593242645,0.0,0.0,0.0,0.0,0.0,0.0,0.0,-0.3509514353739756,0.07294409451475113,-0.3363767945432722,0.25063646484692503,0.2653974445131285,-0.1295414496018432,-0.15532159462568207,1.0544144958349182,0.3237383897095395,-0.3925092944319268,-2.1531306210958916,0.8647370803363826,2.465878647051787,0.5445001446343201,1.0544104758940245,0.3238615046091247,-0.39250456234122666,-2.153291787532338,0.8647539153680389,2.46587817577521,0.5445020185570556,0.0004320418566061491,0.00021835405103131476,-0.0005020836835966654,0.0006728916438113757,4.657832202888594e-05,-0.00033714068851288195,0.0005939066614413875,0.0,0.0,0.0,0.0,0.0,0.0,0.0,-4.019940893718044e-06,0.00012311489958521937,4.732090700121372e-06,-0.0001611664364462584,1.683503165628153e-05,-4.7127657687440205e-07,1.8739227355402122e-06,-0.0004320418566061491,-0.00021835405103131476,0.0005020836835966654,-0.0006728916438113757,-4.657832202888594e-05,0.00033714068851288195,-0.0005939066614413875,0.3752071261405945,33.99154281616211,3.8744170665740967,-19.261507034301758,-0.3143211007118225,-1.783755898475647,0.16604940593242645,0
68,0.33500242233276367,-0.2998287081718445,-34.01534652709961,-3.9220244884490967,19.313081741333008,0.3198142647743225,1.777347207069397,-0.17337362468242645,0.0,0.0,0.0,0.0,0.0,0.0,0.0,-0.33994745771563245,0.06129447733438181,-0.3262949463724219,0.25989167979073025,0.2642946972578755,-0.1291515570069263,-0.1549254227639792,1.054409206085038,0.3237400338997282,-0.3925038043434914,-2.1531370209718923,0.8647355139720518,2.465878177719957,0.5445009584344096,1.0544104758940245,0.3238615046091247,-0.39250456234122666,-2.153291787532338,0.8647539153680389,2.46587817577521,0.5445020185570556,-0.0010531402288621481,0.00036357033387401233,0.0007834295945963214,-0.0003919785192498255,-0.0001509029234173305,5.003455098307357e-05,0.0005917483706162624,0.0,0.0,0.0,0.0,0.0,0.0,0.0,1.2698089864038309e-06,0.0001214707093964984,-7.579977352456524e-07,-0.0001547665604455517,1.8401395987077684e-05,-1.944747030080407e-09,1.0601226460016377e-06,0.0010531402288621481,-0.00036357033387401233,-0.0007834295945963214,0.0003919785192498255,0.0001509029234173305,-5.003455098307357e-05,-0.0005917483706162624,0.2998287081718445,34.01534652709961,3.9220244884490967,-19.313081741333008,-0.3198142647743225,-1.777347207069397,0.17337362468242645,0
69,0.3413853645324707,-0.2998287081718445,-34.01534652709961,-3.9220244884490967,19.313081741333008,0.3198142647743225,1.777347207069397,-0.17337362468242645,0.0,0.0,0.0,0.0,0.0,0.0,0.0,-0.33994745771563245,0.06129447733438181,-0.3262949463724219,0.25989167979073025,0.2642946972578755,-0.1291515570069263,-0.1549254227639792,1.054409206085038,0.3237400338997282,-0.3925038043434914,-2.1531370209718923,0.8647355139720518,2.465878177719957,0.5445009584344096,1.0544104758940245,0.3238615046091247,-0.39250456234122666,-2.153291787532338,0.8647539153680389,2.46587817577521,0.5445020185570556,-0.0010531402288621481,0.00036357033387401233,0.0007834295945963214,-0.0003919785192498255,-0.0001509029234173305,5.003455098307357e-05,0.0005917483706162624,0.0,0.0,0.0,0.0,0.0,0.0,0.0,1.2698089864038309e-06,0.0001214707093964984,-7.579977352456524e-07,-0.0001547665604455517,1.8401395987077684e-05,-1.944747030080407e-09,1.0601226460016377e-06,0.0010531402288621481,-0.00036357033387401233,-0.0007834295945963214,0.0003919785192498255,0.0001509029234173305,-5.003455098307357e-05,-0.0005917483706162624,0.2998287081718445,34.01534652709961,3.9220244884490967,-19.313081741333008,-0.3198142647743225,-1.777347207069397,0.17337362468242645,0
70,0.3449866771697998,-0.3752071261405945,-34.01534652709961,-3.8744170665740967,19.261507034301758,0.3079124093055725,1.770938515663147,-0.17337362468242645,0.0,0.0,0.0,0.0,0.0,0.0,0.0,-0.34861166748789524,0.0658926544141213,-0.3346377061234849,0.2552043322433755,0.2645000821640683,-0.1284625274955332,-0.155545070173987,1.0544144957985795,0.3237400601452467,-0.3925074488463512,-2.1531306211059666,0.8647366794600656,2.4658789270979002,0.5445013116471193,1.0544104758940245,0.3238615046091247,-0.39250456234122666,-2.153291787532338,0.8647539153680389,2.46587817577521,0.5445020185570556,0.0006029747354078021,2.639437542357442e-05,-0.0002316630973339917,0.0004075585842343322,0.00032259996416481116,7.159956148411114e-05,0.0005645376503768247,0.0,0.0,0.0,0.0,0.0,0.0,0.0,-4.019904555008225e-06,0.00012144446387801766,2.886505124533034e-06,-0.00016116642637120648,1.723590797331198e-05,-7.513226902844394e-07,7.069099362544407e-07,-0.0006029747354078021,-2.639437542357442e-05,0.0002316630973339917,-0.0004075585842343322,-0.00032259996416481116,-7.159956148411114e-05,-0.0005645376503768247,0.3752071261405945,34.01534652709961,3.8744170665740967,-19.261507034301758,-0.3079124093055725,-1.770938515663147,0.17337362468242645,0
71,0.3499882221221924,-0.3752071261405945,-34.01534652709961,-3.8744170665740967,19.261507034301758,0.3079124093055725,1.770938515663147,-0.17337362468242645,0.0,0.0,0.0,0.0,0.0,0.0,0.0,-0.34861166748789524,0.0658926544141213,-0.3346377061234849,0.2552043322433755,0.2645000821640683,-0.1284625274955332,-0.155545070173987,1.0544144957985795,0.3237400601452467,-0.3925074488463512,-2.1531306211059666,0.8647366794600656,2.4658789270979002,0.5445013116471193,1.0544104758940245,0.3238615046091247,-0.39250456234122666,-2.153291787532338,0.8647539153680389,2.46587817577521,0.5445020185570556,0.0006029747354078021,2.639437542357442e-05,-0.0002316630973339917,0.0004075585842343322,0.00032259996416481116,7.159956148411114e-05,0.0005645376503768247,0.0,0.0,0.0,0.0,0.0,0.0,0.0,-4.019904555008225e-06,0.00012144446387801766,2.886505124533034e-06,-0.00016116642637120648,1.723590797331198e-05,-7.513226902844394e-07,7.069099362544407e-07,-0.0006029747354078021,-2.639437542357442e-05,0.0002316630973339917,-0.0004075585842343322,-0.00032259996416481116,-7.159956148411114e-05,-0.0005645376503768247,0.3752071261405945,34.01534652709961,3.8744170665740967,-19.261507034301758,-0.3079124093055725,-1.770938515663147,0.17337362468242645,0
72,0.3549957275390625,-0.3514034152030945,-34.01534652709961,-3.8744170665740967,19.313081741333008,0.3079124093055725,1.777347207069397,-0.17978231608867645,0.0,0.0,0.0,0.0,0.0,0.0,0.0,-0.3374877113034932,0.06867334519437722,-0.32174023429475124,0.2540144613929927,0.26416725175746175,-0.12964421730311393,-0.1564221357243566,1.054412825362724,0.3237400601453948,-0.3925071335400428,-2.1531342432023792,0.8647335819799442,2.4658818393680737,0.544502023725936,1.0544104758940245,0.3238615046091247,-0.39250456234122666,-2.153291787532338,0.8647539153680389,2.46587817577521,0.5445020185570556,0.0004189119557158164,0.00033134747996671417,-2.667674459620965e-05,-0.000524166364779991,0.00048557495916788716,-7.23203397205506e-05,0.0010854017262434993,0.0,0.0,0.0,0.0,0.0,0.0,0.0,-2.349468699591739e-06,0.00012144446372991391,2.571198816136988e-06,-0.00015754432995862544,2.0333388094706528e-05,-3.6635928637451798e-06,-5.168880434780476e-09,-0.0004189119557158164,-0.00033134747996671417,2.667674459620965e-05,0.000524166364779991,-0.00048557495916788716,7.23203397205506e-05,-0.0010854017262434993,0.3514034152030945,34.01534652709961,3.8744170665740967,-19.313081741333008,-0.3079124093055725,-1.777347207069397,0.17978231608867645,0
73,0.35999464988708496,-0.3514034152030945,-34.01534652709961,-3.8744170665740967,19.313081741333008,0.3079124093055725,1.777347207069397,-0.17978231608867645,0.0,0.0,0.0,0.0,0.0,0.0,0.0,-0.3374877113034932,0.06867334519437722,-0.32174023429475124,0.2540144613929927,0.26416725175746175,-0.12964421730311393,-0.1564221357243566,1.054412825362724,0.3237400601453948,-0.3925071335400428,-2.1531342432023792,0.8647335819799442,2.4658818393680737,0.544502023725936,1.0544104758940245,0.3238615046091247,-0.39250456234122666,-2.153291787532338,0.8647539153680389,2.46587817577521,0.5445020185570556,0.0004189119557158164,0.00033134747996671417,-2.667674459620965e-05,-0.000524166364779991,0.00048557495916788716,-7.23203397205506e-05,0.0010854017262434993,0.0,0.0,0.0,0.0,0.0,0.0,0.0,-2.349468699591739e-06,0.00012144446372991391,2.571198816136988e-06,-0.00015754432995862544,2.0333388094706528e-05,-3.6635928637451798e-06,-5.168880434780476e-09,-0.0004189119557158164,-0.00033134747996671417,2.667674459620965e-05,0.000524166364779991,-0.00048557495916788716,7.23203397205506e-05,-0.0010854017262434993,0.3514034152030945,34.01534652709961,3.8744170665740967,-19.313081741333008,-0.3079124093055725,-1.777347207069397,0.17978231608867645,0
74,0.3649916648864746,-0.2998287081718445,-33.99154281616211,-3.8982207775115967,19.289278030395508,0.3317161202430725,1.770938515663147,-0.17337362468242645,0.0,0.0,0.0,0.0,0.0,0.0,0.0,-0.3427342009856408,0.0730831586105279,-0.325764527479417,0.24599533337466278,0.2643933246004961,-0.12972047318527877,-0.15702496390384688,1.054409444503617,0.3237383897095395,-0.39250572667514483,-2.1531325784703785,0.8647305321869659,2.4658789285721205,0.5445009584364034,1.0544104758940245,0.3238615046091247,-0.39250456234122666,-2.153291787532338,0.8647539153680389,2.46587817577521,0.5445020185570556,-0.0006278210816545865,-0.00010742983520623073,0.0005988521412752573,-0.0004721899593241182,-0.0005806661672757959,0.0002535904669611268,0.00048649961978189263,0.0,0.0,0.0,0.0,0.0,0.0,0.0,1.031390407524313e-06,0.00012311489958521937,1.1643339181688361e-06,-0.00015920906195932005,2.3383181072977877e-05,-7.52796910585829e-07,1.0601206521521078e-06,0.0006278210816545865,0.00010742983520623073,-0.0005988521412752573,0.0004721899593241182,0.0005806661672757959,-0.0002535904669611268,-0.00048649961978189263,0.2998287081718445,33.99154281616211,3.8982207775115967,-19.289278030395508,-0.3317161202430725,-1.770938515663147,0.17337362468242645,0
75,0.3699910640716553,-0.2998287081718445,-33.99154281616211,-3.8982207775115967,19.289278030395508,0.3317161202430725,1.770938515663147,-0.17337362468242645,0.0,0.0,0.0,0.0,0.0,0.0,0.0,-0.3427342009856408,0.0730831586105279,-0.325764527479417,0.24599533337466278,0.2643933246004961,-0.12972047318527877,-0.15702496390384688,1.054409444503617,0.3237383897095395,-0.39250572667514483,-2.1531325784703785,0.8647305321869659,2.4658789285721205,0.5445009584364034,1.0544104758940245,0.3238615046091247,-0.39250456234122666,-2.153291787532338,0.8647539153680389,2.46587817577521,0.5445020185570556,-0.0006278210816545865,-0.00010742983520623073,0.0005988521412752573,-0.0004721899593241182,-0.0005806661672757959,0.0002535904669611268,0.00048649961978189263,0.0,0.0,0.0,0.0,0.0,0.0,0.0,1.031390407524313e-06,0.00012311489958521937,1.1643339181688361e-06,-0.00015920906195932005,2.3383181072977877e-05,-7.52796910585829e-07,1.0601206521521078e-06,0.0006278210816545865,0.00010742983520623073,-0.0005988521412752573,0.0004721899593241182,0.0005806661672757959,-0.0002535904669611268,-0.00048649961978189263,0.2998287081718445,33.99154281616211,3.8982207775115967,-19.289278030395508,-0.3317161202430725,-1.770938515663147,0.17337362468242645,0
76,0.3750340938568115,-0.3752071261405945,-33.99154281616211,-3.8744170665740967,19.261507034301758,0.3143211007118225,1.777347207069397,-0.16604940593242645,0.0,0.0,0.0,0.0,0.0,0.0,0.0,-0.3417914089271233,0.06637733581798874,-0.3257463118461848,0.24780392828599504,0.2646091394039269,-0.12901969231779664,-0.15809813670348122,1.0544144957999253,0.3237383897095395,-0.39250722397749366,-2.1531308761883863,0.864732456190837,2.465878646725719,0.5445002623698961,1.0544104758940245,0.3238615046091247,-0.39250456234122666,-2.153291787532338,0.8647539153680389,2.46587817577521,0.5445020185570556,0.0008609163348240017,-0.0005082622059204804,0.00011417628637851546,0.00012310497730112324,0.00024199803936280327,-0.00010172098205614,0.0001799608795647164,0.0,0.0,0.0,0.0,0.0,0.0,0.0,-4.019905900820575e-06,0.00012311489958521937,2.661636266998446e-06,-0.00016091134395157525,2.1459177201865742e-05,-4.7095050925705095e-07,1.7561871594740097e-06,-0.0008609163348240017,0.0005082622059204804,-0.00011417628637851546,-0.00012310497730112324,-0.00024199803936280327,0.00010172098205614,-0.0001799608795647164,0.3752071261405945,33.99154281616211,3.8744170665740967,-19.261507034301758,-0.3143211007118225,-1.777347207069397,0.16604940593242645,0
77,0.3800513744354248,-0.3752071261405945,-33.99154281616211,-3.8744170665740967,19.261507034301758,0.3143211007118225,1.777347207069397,-0.16604940593242645,0.0,0.0,0.0,0.0,0.0,0.0,0.0,-0.3417914089271233,0.06637733581798874,-0.3257463118461848,0.24780392828599504,0.2646091394039269,-0.12901969231779664,-0.15809813670348122,1.0544144957999253,0.3237383897095395,-0.39250722397749366,-2.1531308761883863,0.864732456190837,2.465878646725719,0.5445002623698961,1.0544104758940245,0.3238615046091247,-0.39250456234122666,-2.153291787532338,0.8647539153680389,2.46587817577521,0.5445020185570556,0.0008609163348240017,-0.0005082622059204804,0.00011417628637851546,0.00012310497730112324,0.00024199803936280327,-0.00010172098205614,0.0001799608795647164,0.0,0.0,0.0,0.0,0.0,0.0,0.0,-4.019905900820575e-06,0.00012311489958521937,2.661636266998446e-06,-0.00016091134395157525,2.1459177201865742e-05,-4.7095050925705095e-07,1.7561871594740097e-06,-0.0008609163348240017,0.0005082622059204804,-0.00011417628637851546,-0.00012310497730112324,-0.00024199803936280327,0.00010172098205614,-0.0001799608795647164,0.3752071261405945,33.99154281616211,3.8744170665740967,-19.261507034301758,-0.3143211007118225,-1.777347207069397,0.16604940593242645,0
78,0.3850529193878174,-0.3514034152030945,-34.01534652709961,-3.9220244884490967,19.261507034301758,0.3143211007118225,1.770938515663147,-0.19351522624492645,0.0,0.0,0.0,0.0,0.0,0.0,0.0,-0.35202003487384276,0.061143948335900505,-0.33146817379453103,0.24946852131519268,0.2652556196665457,-0.127788973625706,-0.15735330014126264,1.054412825362724,0.32373935151239586,-0.392504037734625,-2.153131386525886,0.8647372148410793,2.4658788923768475,0.5445031968753201,1.0544104758940245,0.3238615046091247,-0.39250456234122666,-2.153291787532338,0.8647539153680389,2.46587817577521,0.5445020185570556,-0.0004714640399383452,0.00011610604315037263,0.0004007509324323601,0.000597061793002382,0.0001670596889972877,0.00018541018134597174,0.0013238657656132371,0.0,0.0,0.0,0.0,0.0,0.0,0.0,-2.349468699591739e-06,0.00012215309672886088,-5.246066016595385e-07,-0.00016040100645176025,1.6700526959567696e-05,-7.166016375848017e-07,-1.1783182645164203e-06,0.0004714640399383452,-0.00011610604315037263,-0.0004007509324323601,-0.000597061793002382,-0.0001670596889972877,-0.00018541018134597174,-0.0013238657656132371,0.3514034152030945,34.01534652709961,3.9220244884490967,-19.261507034301758,-0.3143211007118225,-1.770938515663147,0.19351522624492645,0
79,0.39008474349975586,-0.3514034152030945,-34.01534652709961,-3.9220244884490967,19.261507034301758,0.3143211007118225,1.770938515663147,-0.19351522624492645,0.0,0.0,0.0,0.0,0.0,0.0,0.0,-0.35202003487384276,0.061143948335900505,-0.33146817379453103,0.24946852131519268,0.2652556196665457,-0.127788973625706,-0.15735330014126264,1.054412825362724,0.32373935151239586,-0.392504037734625,-2.153131386525886,0.8647372148410793,2.4658788923768475,0.5445031968753201,1.0544104758940245,0.3238615046091247,-0.39250456234122666,-2.153291787532338,0.8647539153680389,2.46587817577521,0.5445020185570556,-0.0004714640399383452,0.00011610604315037263,0.0004007509324323601,0.000597061793002382,0.0001670596889972877,0.00018541018134597174,0.0013238657656132371,0.0,0.0,0.0,0.0,0.0,0.0,0.0,-2.349468699591739e-06,0.00012215309672886088,-5.246066016595385e-07,-0.00016040100645176025,1.6700526959567696e-05,-7.166016375848017e-07,-1.1783182645164203e-06,0.0004714640399383452,-0.00011610604315037263,-0.0004007509324323601,-0.000597061793002382,-0.0001670596889972877,-0.00018541018134597174,-0.0013238657656132371,0.3514034152030945,34.01534652709961,3.9220244884490967,-19.261507034301758,-0.3143211007118225,-1.770938515663147,0.19351522624492645,0
80,0.3950507640838623,-0.4029781222343445,-34.01534652709961,-3.8744170665740967,19.289278030395508,0.3262229561805725,1.783755898475647,-0.17337362468242645,0.0,0.0,0.0,0.0,0.0,0.0,0.0,-0.34823528303984047,0.07330272739287604,-0.3276077594540239,0.24413165748626495,0.2650716607679926,-0.12915815452301996,-0.1572374262304028,1.0544164446404105,0.3237398239303949,-0.39250736978664824,-2.1531325708812297,0.864732508294641,2.4658789159566137,0.5445009976802689,1.0544104758940245,0.3238615046091247,-0.39250456234122666,-2.153291787532338,0.8647539153680389,2.46587817577521,0.5445020185570556,0.0008853551640114362,0.0008751511125798785,-0.0009489694957376142,-0.00011804191398185602,-0.00027086403886970883,-3.203191189825933e-05,0.0006973170434882875,0.0,0.0,0.0,0.0,0.0,0.0,0.0,-5.968746386031398e-06,0.00012168067872980748,2.8074454215820666e-06,-0.00015921665110818495,2.140707339792769e-05,-7.401814037244492e-07,1.0208767866615176e-06,-0.0008853551640114362,-0.0008751511125798785,0.0009489694957376142,0.00011804191398185602,0.00027086403886970883,3.203191189825933e-05,-0.0006973170434882875,0.4029781222343445,34.01534652709961,3.8744170665740967,-19.289278030395508,-0.3262229561805725,-1.783755898475647,0.17337362468242645,0
