rezayati/contactInterpretation/dataset/franka_main/labeled_data/link2/f1_4.csv
index,time,tau_J0,tau_J1,tau_J2,tau_J3,tau_J4,tau_J5,tau_J6,tau_J_d0,tau_J_d1,tau_J_d2,tau_J_d3,tau_J_d4,tau_J_d5,tau_J_d6,tau_ext0,tau_ext1,tau_ext2,tau_ext3,tau_ext4,tau_ext5,tau_ext6,q0,q1,q2,q3,q4,q5,q6,q_d0,q_d1,q_d2,q_d3,q_d4,q_d5,q_d6,dq0,dq1,dq2,dq3,dq4,dq5,dq6,dq_d0,dq_d1,dq_d2,dq_d3,dq_d4,dq_d5,dq_d6,e0,e1,e2,e3,e4,e5,e6,de0,de1,de2,de3,de4,de5,de6,etau_J0,etau_J1,etau_J2,etau_J3,etau_J4,etau_J5,etau_J6,label
1,0.0,-0.4029781222343445,-19.669641494750977,-0.5458648204803467,19.983552932739258,0.6475730538368225,2.4630770683288574,-0.25485557317733765,0.0,0.0,0.0,0.0,0.0,0.0,0.0,-0.38257795036628106,0.054672847452305974,-0.3245204985361593,0.2343018361731652,0.0720616462243243,0.09833695385062544,-0.24240601804822356,1.2135030296852714,-0.22024155985277855,-0.0074944550128632085,-2.6038520101246077,-0.10888392708765683,2.468184262010786,0.8264792218796453,1.2134413937687574,-0.2202432315892585,-0.0075118285948192216,-2.6038483821997875,-0.10888392708698907,2.4681821257803174,0.826474908251239,0.0007959660640429776,-0.00013392190545154635,0.0008901002438482409,0.0001308346729419924,0.00033632036213322773,0.00030660346046257624,0.0009012267195168491,0.0,0.0,0.0,0.0,0.0,0.0,0.0,-6.163591651398015e-05,-1.6717364799412326e-06,-1.7373581956013108e-05,3.6279248201154246e-06,6.677575159486082e-13,-2.1362304685190736e-06,-4.313628406249492e-06,-0.0007959660640429776,0.00013392190545154635,-0.0008901002438482409,-0.0001308346729419924,-0.00033632036213322773,-0.00030660346046257624,-0.0009012267195168491,0.4029781222343445,19.669641494750977,0.5458648204803467,-19.983552932739258,-0.6475730538368225,-2.4630770683288574,0.25485557317733765,0
2,0.004995584487915039,-0.3752071261405945,-19.693445205688477,-0.5458648204803467,20.007356643676758,0.6475730538368225,2.4758944511413574,-0.25485557317733765,0.0,0.0,0.0,0.0,0.0,0.0,0.0,-0.3864232585511493,0.06444906596723256,-0.32641459014187346,0.22162495768669616,0.07149884669951535,0.09538531211056302,-0.2416967468710824,1.2135010808434403,-0.22023988974094205,-0.007497257761589155,-2.603853680560463,-0.10888392708698909,2.46818283785714,0.8264790896045794,1.2134413937687574,-0.2202432315892585,-0.0075118285948192216,-2.6038483821997875,-0.10888392708698907,2.4681821257803174,0.826474908251239,-0.00024396217001130968,0.000777285006052829,0.000584201560393883,-0.0002025025961736442,0.00029230530702039893,0.0026998521702253815,0.0005993374493487745,0.0,0.0,0.0,0.0,0.0,0.0,0.0,-5.9687074682956975e-05,-3.3418483164349144e-06,-1.4570833230066749e-05,5.29836067553191e-06,1.3877787807814457e-17,-7.120768228396912e-07,-4.18135334034897e-06,0.00024396217001130968,-0.000777285006052829,-0.000584201560393883,0.0002025025961736442,-0.00029230530702039893,-0.0026998521702253815,-0.0005993374493487745,0.3752071261405945,19.693445205688477,0.5458648204803467,-20.007356643676758,-0.6475730538368225,-2.4758944511413574,0.25485557317733765,0
3,0.0099945068359375,-0.3752071261405945,-19.693445205688477,-0.5458648204803467,20.007356643676758,0.6475730538368225,2.4758944511413574,-0.25485557317733765,0.0,0.0,0.0,0.0,0.0,0.0,0.0,-0.3864232585511493,0.06444906596723256,-0.32641459014187346,0.22162495768669616,0.07149884669951535,0.09538531211056302,-0.2416967468710824,1.2135010808434403,-0.22023988974094205,-0.007497257761589155,-2.603853680560463,-0.10888392708698909,2.46818283785714,0.8264790896045794,1.2134413937687574,-0.2202432315892585,-0.0075118285948192216,-2.6038483821997875,-0.10888392708698907,2.4681821257803174,0.826474908251239,-0.00024396217001130968,0.000777285006052829,0.000584201560393883,-0.0002025025961736442,0.00029230530702039893,0.0026998521702253815,0.0005993374493487745,0.0,0.0,0.0,0.0,0.0,0.0,0.0,-5.9687074682956975e-05,-3.3418483164349144e-06,-1.4570833230066749e-05,5.29836067553191e-06,1.3877787807814457e-17,-7.120768228396912e-07,-4.18135334034897e-06,0.00024396217001130968,-0.000777285006052829,-0.000584201560393883,0.0002025025961736442,-0.00029230530702039893,-0.0026998521702253815,-0.0005993374493487745,0.3752071261405945,19.693445205688477,0.5458648204803467,-20.007356643676758,-0.6475730538368225,-2.4758944511413574,0.25485557317733765,0
4,0.014994144439697266,-0.4029781222343445,-19.693445205688477,-0.5696685314178467,20.054964065551758,0.6594749093055725,2.4694857597351074,-0.24112264811992645,0.0,0.0,0.0,0.0,0.0,0.0,0.0,-0.38333934493194577,0.059144795579862526,-0.3249282434473931,0.22722151512796937,0.07037489744296994,0.09774473256041341,-0.2406739177085587,1.2135030296852714,-0.22023988974094388,-0.007492859282162341,-2.6038570214321735,-0.1088852495153745,2.468183549933963,0.826477720329851,1.2134413937687574,-0.2202432315892585,-0.0075118285948192216,-2.6038483821997875,-0.10888392708698907,2.4681821257803174,0.826474908251239,0.0007306420226581506,0.00027814640239477815,0.0007227008989220887,-0.0013931755662376015,-0.00015545830673685632,8.470250998056966e-05,0.00011104913566464381,0.0,0.0,0.0,0.0,0.0,0.0,0.0,-6.163591651398015e-05,-3.3418483146030464e-06,-1.8969312656880177e-05,8.639232385920792e-06,1.3224283854224028e-06,-1.4241536456793824e-06,-2.812078611968971e-06,-0.0007306420226581506,-0.00027814640239477815,-0.0007227008989220887,0.0013931755662376015,0.00015545830673685632,-8.470250998056966e-05,-0.00011104913566464381,0.4029781222343445,19.693445205688477,0.5696685314178467,-20.054964065551758,-0.6594749093055725,-2.4694857597351074,0.24112264811992645,0
5,0.02000570297241211,-0.4029781222343445,-19.693445205688477,-0.5696685314178467,20.054964065551758,0.6594749093055725,2.4694857597351074,-0.24112264811992645,0.0,0.0,0.0,0.0,0.0,0.0,0.0,-0.38333934493194577,0.059144795579862526,-0.3249282434473931,0.22722151512796937,0.07037489744296994,0.09774473256041341,-0.2406739177085587,1.2135030296852714,-0.22023988974094388,-0.007492859282162341,-2.6038570214321735,-0.1088852495153745,2.468183549933963,0.826477720329851,1.2134413937687574,-0.2202432315892585,-0.0075118285948192216,-2.6038483821997875,-0.10888392708698907,2.4681821257803174,0.826474908251239,0.0007306420226581506,0.00027814640239477815,0.0007227008989220887,-0.0013931755662376015,-0.00015545830673685632,8.470250998056966e-05,0.00011104913566464381,0.0,0.0,0.0,0.0,0.0,0.0,0.0,-6.163591651398015e-05,-3.3418483146030464e-06,-1.8969312656880177e-05,8.639232385920792e-06,1.3224283854224028e-06,-1.4241536456793824e-06,-2.812078611968971e-06,-0.0007306420226581506,-0.00027814640239477815,-0.0007227008989220887,0.0013931755662376015,0.00015545830673685632,-8.470250998056966e-05,-0.00011104913566464381,0.4029781222343445,19.693445205688477,0.5696685314178467,-20.054964065551758,-0.6594749093055725,-2.4694857597351074,0.24112264811992645,0
6,0.0249788761138916,-0.3514034152030945,-19.669641494750977,-0.4982573688030243,19.983552932739258,0.6658836007118225,2.4630770683288574,-0.25485557317733765,0.0,0.0,0.0,0.0,0.0,0.0,0.0,-0.38292491950733476,0.055368127232652345,-0.3273733728375443,0.23000139667386152,0.07026881964449273,0.09891216371451902,-0.24054350316016906,1.213499410407585,-0.22024156017679913,-0.007497528635395831,-2.6038520101246077,-0.10888596159219742,2.468184262010786,0.8264753405756212,1.2134413937687574,-0.2202432315892585,-0.0075118285948192216,-2.6038483821997875,-0.10888392708698907,2.4681821257803174,0.826474908251239,-0.0009146333827337621,-0.0007022925930835659,-0.0008276601545874728,0.0001647167258670332,-0.00045726884122725527,0.00038863235713294976,0.0008796638191598387,0.0,0.0,0.0,0.0,0.0,0.0,0.0,-5.801663882754049e-05,-1.6714124593530943e-06,-1.4299959423390296e-05,3.6279248201154246e-06,2.0345052083453607e-06,-2.1362304685190736e-06,-4.323243821824363e-07,0.0009146333827337621,0.0007022925930835659,0.0008276601545874728,-0.0001647167258670332,0.00045726884122725527,-0.00038863235713294976,-0.0008796638191598387,0.3514034152030945,19.669641494750977,0.4982573688030243,-19.983552932739258,-0.6658836007118225,-2.4630770683288574,0.25485557317733765,0
7,0.02994084358215332,-0.3514034152030945,-19.669641494750977,-0.4982573688030243,19.983552932739258,0.6658836007118225,2.4630770683288574,-0.25485557317733765,0.0,0.0,0.0,0.0,0.0,0.0,0.0,-0.38292491950733476,0.055368127232652345,-0.3273733728375443,0.23000139667386152,0.07026881964449273,0.09891216371451902,-0.24054350316016906,1.213499410407585,-0.22024156017679913,-0.007497528635395831,-2.6038520101246077,-0.10888596159219742,2.468184262010786,0.8264753405756212,1.2134413937687574,-0.2202432315892585,-0.0075118285948192216,-2.6038483821997875,-0.10888392708698907,2.4681821257803174,0.826474908251239,-0.0009146333827337621,-0.0007022925930835659,-0.0008276601545874728,0.0001647167258670332,-0.00045726884122725527,0.00038863235713294976,0.0008796638191598387,0.0,0.0,0.0,0.0,0.0,0.0,0.0,-5.801663882754049e-05,-1.6714124593530943e-06,-1.4299959423390296e-05,3.6279248201154246e-06,2.0345052083453607e-06,-2.1362304685190736e-06,-4.323243821824363e-07,0.0009146333827337621,0.0007022925930835659,0.0008276601545874728,-0.0001647167258670332,0.00045726884122725527,-0.00038863235713294976,-0.0008796638191598387,0.3514034152030945,19.669641494750977,0.4982573688030243,-19.983552932739258,-0.6658836007118225,-2.4630770683288574,0.25485557317733765,0
8,0.03500652313232422,-0.3514034152030945,-19.693445205688477,-0.4982573688030243,19.983552932739258,0.6539817452430725,2.4694857597351074,-0.22098104655742645,0.0,0.0,0.0,0.0,0.0,0.0,0.0,-0.38048157172863833,0.05975994506852466,-0.32424324173396757,0.22830537343919008,0.07052971177833284,0.09793098283870397,-0.24077161456962934,1.213499410407585,-0.22023988974094388,-0.007499759530743293,-2.6038520101246077,-0.108884639163812,2.468183549933963,0.826474658189969,1.2134413937687574,-0.2202432315892585,-0.0075118285948192216,-2.6038483821997875,-0.10888392708698907,2.4681821257803174,0.826474908251239,-0.0006318094788420398,0.0005977458207357619,-0.0003819556197274288,0.0006690621228199967,0.000139060161328409,-0.00016709010225383325,-0.0009708926345981429,0.0,0.0,0.0,0.0,0.0,0.0,0.0,-5.801663882754049e-05,-3.3418483146030464e-06,-1.206906407592856e-05,3.6279248201154246e-06,7.120768229229579e-07,-1.4241536456793824e-06,2.500612700240268e-07,0.0006318094788420398,-0.0005977458207357619,0.0003819556197274288,-0.0006690621228199967,-0.000139060161328409,0.00016709010225383325,0.0009708926345981429,0.3514034152030945,19.693445205688477,0.4982573688030243,-19.983552932739258,-0.6539817452430725,-2.4694857597351074,0.22098104655742645,0
9,0.03994870185852051,-0.3514034152030945,-19.693445205688477,-0.4982573688030243,19.983552932739258,0.6539817452430725,2.4694857597351074,-0.22098104655742645,0.0,0.0,0.0,0.0,0.0,0.0,0.0,-0.38048157172863833,0.05975994506852466,-0.32424324173396757,0.22830537343919008,0.07052971177833284,0.09793098283870397,-0.24077161456962934,1.213499410407585,-0.22023988974094388,-0.007499759530743293,-2.6038520101246077,-0.108884639163812,2.468183549933963,0.826474658189969,1.2134413937687574,-0.2202432315892585,-0.0075118285948192216,-2.6038483821997875,-0.10888392708698907,2.4681821257803174,0.826474908251239,-0.0006318094788420398,0.0005977458207357619,-0.0003819556197274288,0.0006690621228199967,0.000139060161328409,-0.00016709010225383325,-0.0009708926345981429,0.0,0.0,0.0,0.0,0.0,0.0,0.0,-5.801663882754049e-05,-3.3418483146030464e-06,-1.206906407592856e-05,3.6279248201154246e-06,7.120768229229579e-07,-1.4241536456793824e-06,2.500612700240268e-07,0.0006318094788420398,-0.0005977458207357619,0.0003819556197274288,-0.0006690621228199967,-0.000139060161328409,0.00016709010225383325,0.0009708926345981429,0.3514034152030945,19.693445205688477,0.4982573688030243,-19.983552932739258,-0.6539817452430725,-2.4694857597351074,0.22098104655742645,0
10,0.04499030113220215,-0.3236324191093445,-19.693445205688477,-0.5220611095428467,19.983552932739258,0.6539817452430725,2.4630770683288574,-0.25485557317733765,0.0,0.0,0.0,0.0,0.0,0.0,0.0,-0.3848371905858397,0.05932877098539458,-0.3289108816749485,0.22724335754306138,0.07133594167525756,0.09640394974815306,-0.24218203156817508,1.2134974615657539,-0.22023988974094388,-0.00749588451126797,-2.6038520101246077,-0.108884639163812,2.468184262010786,0.8264764336407536,1.2134413937687574,-0.2202432315892585,-0.0075118285948192216,-2.6038483821997875,-0.10888392708698907,2.4681821257803174,0.826474908251239,-0.0015325564679018661,0.0006932765921735146,-2.9394650693305136e-05,0.0003742093196111326,0.00018606973552058554,5.675060681355529e-05,0.0007743527926728522,0.0,0.0,0.0,0.0,0.0,0.0,0.0,-5.6067796996517316e-05,-3.3418483146030464e-06,-1.5944083551251362e-05,3.6279248201154246e-06,7.120768229229579e-07,-2.1362304685190736e-06,-1.5253895145894703e-06,0.0015325564679018661,-0.0006932765921735146,2.9394650693305136e-05,-0.0003742093196111326,-0.00018606973552058554,-5.675060681355529e-05,-0.0007743527926728522,0.3236324191093445,19.693445205688477,0.5220611095428467,-19.983552932739258,-0.6539817452430725,-2.4630770683288574,0.25485557317733765,0
11,0.049991607666015625,-0.3236324191093445,-19.693445205688477,-0.5220611095428467,19.983552932739258,0.6539817452430725,2.4630770683288574,-0.25485557317733765,0.0,0.0,0.0,0.0,0.0,0.0,0.0,-0.3848371905858397,0.05932877098539458,-0.3289108816749485,0.22724335754306138,0.07133594167525756,0.09640394974815306,-0.24218203156817508,1.2134974615657539,-0.22023988974094388,-0.00749588451126797,-2.6038520101246077,-0.108884639163812,2.468184262010786,0.8264764336407536,1.2134413937687574,-0.2202432315892585,-0.0075118285948192216,-2.6038483821997875,-0.10888392708698907,2.4681821257803174,0.826474908251239,-0.0015325564679018661,0.0006932765921735146,-2.9394650693305136e-05,0.0003742093196111326,0.00018606973552058554,5.675060681355529e-05,0.0007743527926728522,0.0,0.0,0.0,0.0,0.0,0.0,0.0,-5.6067796996517316e-05,-3.3418483146030464e-06,-1.5944083551251362e-05,3.6279248201154246e-06,7.120768229229579e-07,-2.1362304685190736e-06,-1.5253895145894703e-06,0.0015325564679018661,-0.0006932765921735146,2.9394650693305136e-05,-0.0003742093196111326,-0.00018606973552058554,-5.675060681355529e-05,-0.0007743527926728522,0.3236324191093445,19.693445205688477,0.5220611095428467,-19.983552932739258,-0.6539817452430725,-2.4630770683288574,0.25485557317733765,0
12,0.05502152442932129,-0.3752071261405945,-19.669641494750977,-0.5220611095428467,20.007356643676758,0.6594749093055725,2.4630770683288574,-0.21457235515117645,0.0,0.0,0.0,0.0,0.0,0.0,0.0,-0.38340547233905997,0.05965574914838544,-0.32699431623198255,0.2279419632580089,0.07162393653996815,0.09574896411280842,-0.24207358542834406,1.2135010808434403,-0.22024156017679913,-0.0074961915132971966,-2.603853680560463,-0.1088852495153745,2.468184262010786,0.826470537382484,1.2134413937687574,-0.2202432315892585,-0.0075118285948192216,-2.6038483821997875,-0.10888392708698907,2.4681821257803174,0.826474908251239,-0.00020216362332518343,-1.8180609014827916e-05,1.5954639520841862e-05,7.871793310679078e-06,2.397981982514472e-05,0.00028002055888298863,-0.0012786209605490637,0.0,0.0,0.0,0.0,0.0,0.0,0.0,-5.9687074682956975e-05,-1.6714124593530943e-06,-1.563708152202501e-05,5.29836067553191e-06,1.3224283854224028e-06,-2.1362304685190736e-06,4.3708687550436665e-06,0.00020216362332518343,1.8180609014827916e-05,-1.5954639520841862e-05,-7.871793310679078e-06,-2.397981982514472e-05,-0.00028002055888298863,0.0012786209605490637,0.3752071261405945,19.669641494750977,0.5220611095428467,-20.007356643676758,-0.6594749093055725,-2.4630770683288574,0.21457235515117645,0
13,0.060016632080078125,-0.3752071261405945,-19.669641494750977,-0.5220611095428467,20.007356643676758,0.6594749093055725,2.4630770683288574,-0.21457235515117645,0.0,0.0,0.0,0.0,0.0,0.0,0.0,-0.38340547233905997,0.05965574914838544,-0.32699431623198255,0.2279419632580089,0.07162393653996815,0.09574896411280842,-0.24207358542834406,1.2135010808434403,-0.22024156017679913,-0.0074961915132971966,-2.603853680560463,-0.1088852495153745,2.468184262010786,0.826470537382484,1.2134413937687574,-0.2202432315892585,-0.0075118285948192216,-2.6038483821997875,-0.10888392708698907,2.4681821257803174,0.826474908251239,-0.00020216362332518343,-1.8180609014827916e-05,1.5954639520841862e-05,7.871793310679078e-06,2.397981982514472e-05,0.00028002055888298863,-0.0012786209605490637,0.0,0.0,0.0,0.0,0.0,0.0,0.0,-5.9687074682956975e-05,-1.6714124593530943e-06,-1.563708152202501e-05,5.29836067553191e-06,1.3224283854224028e-06,-2.1362304685190736e-06,4.3708687550436665e-06,0.00020216362332518343,1.8180609014827916e-05,-1.5954639520841862e-05,-7.871793310679078e-06,-2.397981982514472e-05,-0.00028002055888298863,0.0012786209605490637,0.3752071261405945,19.669641494750977,0.5220611095428467,-20.007356643676758,-0.6594749093055725,-2.4630770683288574,0.21457235515117645,0
14,0.06500577926635742,-0.3752071261405945,-19.693445205688477,-0.5220611095428467,20.007356643676758,0.6658836007118225,2.4630770683288574,-0.26217979192733765,0.0,0.0,0.0,0.0,0.0,0.0,0.0,-0.38373025869025496,0.05745101132366836,-0.32698750838192936,0.22808535846338063,0.07200587842076357,0.09602032229536019,-0.2417381906648228,1.2135010808434403,-0.22023988974094388,-0.0074959643842140615,-2.603853680560463,-0.10888596159219742,2.468184262010786,0.8264793579785518,1.2134413937687574,-0.2202432315892585,-0.0075118285948192216,-2.6038483821997875,-0.10888392708698907,2.4681821257803174,0.826474908251239,-0.00011379579055688489,0.00029123229347014656,-0.00010342864443593677,-0.00014587069027901297,-0.0003726637085660037,4.430655428238568e-05,0.0011994841793360812,0.0,0.0,0.0,0.0,0.0,0.0,0.0,-5.9687074682956975e-05,-3.3418483146030464e-06,-1.586421060516003e-05,5.29836067553191e-06,2.0345052083453607e-06,-2.1362304685190736e-06,-4.449727312727525e-06,0.00011379579055688489,-0.00029123229347014656,0.00010342864443593677,0.00014587069027901297,0.0003726637085660037,-4.430655428238568e-05,-0.0011994841793360812,0.3752071261405945,19.693445205688477,0.5220611095428467,-20.007356643676758,-0.6658836007118225,-2.4630770683288574,0.26217979192733765,0
15,0.07002639770507812,-0.3752071261405945,-19.693445205688477,-0.5220611095428467,20.007356643676758,0.6658836007118225,2.4630770683288574,-0.26217979192733765,0.0,0.0,0.0,0.0,0.0,0.0,0.0,-0.38373025869025496,0.05745101132366836,-0.32698750838192936,0.22808535846338063,0.07200587842076357,0.09602032229536019,-0.2417381906648228,1.2135010808434403,-0.22023988974094388,-0.0074959643842140615,-2.603853680560463,-0.10888596159219742,2.468184262010786,0.8264793579785518,1.2134413937687574,-0.2202432315892585,-0.0075118285948192216,-2.6038483821997875,-0.10888392708698907,2.4681821257803174,0.826474908251239,-0.00011379579055688489,0.00029123229347014656,-0.00010342864443593677,-0.00014587069027901297,-0.0003726637085660037,4.430655428238568e-05,0.0011994841793360812,0.0,0.0,0.0,0.0,0.0,0.0,0.0,-5.9687074682956975e-05,-3.3418483146030464e-06,-1.586421060516003e-05,5.29836067553191e-06,2.0345052083453607e-06,-2.1362304685190736e-06,-4.449727312727525e-06,0.00011379579055688489,-0.00029123229347014656,0.00010342864443593677,0.00014587069027901297,0.0003726637085660037,-4.430655428238568e-05,-0.0011994841793360812,0.3752071261405945,19.693445205688477,0.5220611095428467,-20.007356643676758,-0.6658836007118225,-2.4630770683288574,0.26217979192733765,0
16,0.07496809959411621,-0.3752071261405945,-19.693445205688477,-0.5220611095428467,20.007356643676758,0.6658836007118225,2.4630770683288574,-0.26217979192733765,0.0,0.0,0.0,0.0,0.0,0.0,0.0,-0.38373025869025496,0.05745101132366836,-0.32698750838192936,0.22808535846338063,0.07200587842076357,0.09602032229536019,-0.2417381906648228,1.2135010808434403,-0.22023988974094388,-0.0074959643842140615,-2.603853680560463,-0.10888596159219742,2.468184262010786,0.8264793579785518,1.2134413937687574,-0.2202432315892585,-0.0075118285948192216,-2.6038483821997875,-0.10888392708698907,2.4681821257803174,0.826474908251239,-0.00011379579055688489,0.00029123229347014656,-0.00010342864443593677,-0.00014587069027901297,-0.0003726637085660037,4.430655428238568e-05,0.0011994841793360812,0.0,0.0,0.0,0.0,0.0,0.0,0.0,-5.9687074682956975e-05,-3.3418483146030464e-06,-1.586421060516003e-05,5.29836067553191e-06,2.0345052083453607e-06,-2.1362304685190736e-06,-4.449727312727525e-06,0.00011379579055688489,-0.00029123229347014656,0.00010342864443593677,0.00014587069027901297,0.0003726637085660037,-4.430655428238568e-05,-0.0011994841793360812,0.3752071261405945,19.693445205688477,0.5220611095428467,-20.007356643676758,-0.6658836007118225,-2.4630770683288574,0.26217979192733765,0
17,0.08001518249511719,-0.3752071261405945,-19.693445205688477,-0.5220611095428467,20.007356643676758,0.6658836007118225,2.4630770683288574,-0.26217979192733765,0.0,0.0,0.0,0.0,0.0,0.0,0.0,-0.38373025869025496,0.05745101132366836,-0.32698750838192936,0.22808535846338063,0.07200587842076357,0.09602032229536019,-0.2417381906648228,1.2135010808434403,-0.22023988974094388,-0.0074959643842140615,-2.603853680560463,-0.10888596159219742,2.468184262010786,0.8264793579785518,1.2134413937687574,-0.2202432315892585,-0.0075118285948192216,-2.6038483821997875,-0.10888392708698907,2.4681821257803174,0.826474908251239,-0.00011379579055688489,0.00029123229347014656,-0.00010342864443593677,-0.00014587069027901297,-0.0003726637085660037,4.430655428238568e-05,0.0011994841793360812,0.0,0.0,0.0,0.0,0.0,0.0,0.0,-5.9687074682956975e-05,-3.3418483146030464e-06,-1.586421060516003e-05,5.29836067553191e-06,2.0345052083453607e-06,-2.1362304685190736e-06,-4.449727312727525e-06,0.00011379579055688489,-0.00029123229347014656,0.00010342864443593677,0.00014587069027901297,0.0003726637085660037,-4.430655428238568e-05,-0.0011994841793360812,0.3752071261405945,19.693445205688477,0.5220611095428467,-20.007356643676758,-0.6658836007118225,-2.4630770683288574,0.26217979192733765,0
18,0.08501076698303223,-0.4029781222343445,-19.717248916625977,-0.5220611095428467,20.007356643676758,0.6539817452430725,2.4758944511413574,-0.25485557317733765,0.0,0.0,0.0,0.0,0.0,0.0,0.0,-0.38293495032767844,0.05872591141739215,-0.32753690656852347,0.22686443601372228,0.07155209192450467,0.09538749060132526,-0.24110904247869516,1.21350302972161,-0.2202382193050886,-0.007496879580776045,-2.603853680560463,-0.108884639163812,2.46818283785714,0.8264794616418809,1.2134413937687574,-0.2202432315892585,-0.0075118285948192216,-2.6038483821997875,-0.10888392708698907,2.4681821257803174,0.826474908251239,0.0004809937186386099,0.0007236984312934842,-9.861403965443658e-05,0.0001840207978593844,0.0002415586866131184,-0.00017634418570076644,0.0009070665428741465,0.0,0.0,0.0,0.0,0.0,0.0,0.0,-6.163595285268997e-05,-5.012284169880754e-06,-1.4949014043176556e-05,5.29836067553191e-06,7.120768229229579e-07,-7.120768228396912e-07,-4.553390641870436e-06,-0.0004809937186386099,-0.0007236984312934842,9.861403965443658e-05,-0.0001840207978593844,-0.0002415586866131184,0.00017634418570076644,-0.0009070665428741465,0.4029781222343445,19.717248916625977,0.5220611095428467,-20.007356643676758,-0.6539817452430725,-2.4758944511413574,0.25485557317733765,0
19,0.09003353118896484,-0.4029781222343445,-19.717248916625977,-0.5220611095428467,20.007356643676758,0.6539817452430725,2.4758944511413574,-0.25485557317733765,0.0,0.0,0.0,0.0,0.0,0.0,0.0,-0.38293495032767844,0.05872591141739215,-0.32753690656852347,0.22686443601372228,0.07155209192450467,0.09538749060132526,-0.24110904247869516,1.21350302972161,-0.2202382193050886,-0.007496879580776045,-2.603853680560463,-0.108884639163812,2.46818283785714,0.8264794616418809,1.2134413937687574,-0.2202432315892585,-0.0075118285948192216,-2.6038483821997875,-0.10888392708698907,2.4681821257803174,0.826474908251239,0.0004809937186386099,0.0007236984312934842,-9.861403965443658e-05,0.0001840207978593844,0.0002415586866131184,-0.00017634418570076644,0.0009070665428741465,0.0,0.0,0.0,0.0,0.0,0.0,0.0,-6.163595285268997e-05,-5.012284169880754e-06,-1.4949014043176556e-05,5.29836067553191e-06,7.120768229229579e-07,-7.120768228396912e-07,-4.553390641870436e-06,-0.0004809937186386099,-0.0007236984312934842,9.861403965443658e-05,-0.0001840207978593844,-0.0002415586866131184,0.00017634418570076644,-0.0009070665428741465,0.4029781222343445,19.717248916625977,0.5220611095428467,-20.007356643676758,-0.6539817452430725,-2.4758944511413574,0.25485557317733765,0
20,0.09501981735229492,-0.4029781222343445,-19.693445205688477,-0.5220611095428467,19.955781936645508,0.6594749093055725,2.4630770683288574,-0.22098104655742645,0.0,0.0,0.0,0.0,0.0,0.0,0.0,-0.3834488342233771,0.06174564422807775,-0.3263006510430352,0.22485395689275395,0.07115363601570437,0.09545944041779283,-0.24064147283327889,1.2135030296852714,-0.22023988974094388,-0.007496875292718564,-2.6038500612827766,-0.1088852495153745,2.468184262010786,0.8264754473833457,1.2134413937687574,-0.2202432315892585,-0.0075118285948192216,-2.6038483821997875,-0.10888392708698907,2.4681821257803174,0.826474908251239,0.00043355729730905877,0.0003350666679578904,0.00011156331952735949,0.0009374978071258188,-0.000120310515842288,0.0002463824216253002,-0.0006172308820694385,0.0,0.0,0.0,0.0,0.0,0.0,0.0,-6.163591651398015e-05,-3.3418483146030464e-06,-1.4953302100657699e-05,1.679082989092251e-06,1.3224283854224028e-06,-2.1362304685190736e-06,-5.391321066250399e-07,-0.00043355729730905877,-0.0003350666679578904,-0.00011156331952735949,-0.0009374978071258188,0.000120310515842288,-0.0002463824216253002,0.0006172308820694385,0.4029781222343445,19.693445205688477,0.5220611095428467,-19.955781936645508,-0.6594749093055725,-2.4630770683288574,0.22098104655742645,0
21,0.10002541542053223,-0.4029781222343445,-19.693445205688477,-0.5220611095428467,19.955781936645508,0.6594749093055725,2.4630770683288574,-0.22098104655742645,0.0,0.0,0.0,0.0,0.0,0.0,0.0,-0.3834488342233771,0.06174564422807775,-0.3263006510430352,0.22485395689275395,0.07115363601570437,0.09545944041779283,-0.24064147283327889,1.2135030296852714,-0.22023988974094388,-0.007496875292718564,-2.6038500612827766,-0.1088852495153745,2.468184262010786,0.8264754473833457,1.2134413937687574,-0.2202432315892585,-0.0075118285948192216,-2.6038483821997875,-0.10888392708698907,2.4681821257803174,0.826474908251239,0.00043355729730905877,0.0003350666679578904,0.00011156331952735949,0.0009374978071258188,-0.000120310515842288,0.0002463824216253002,-0.0006172308820694385,0.0,0.0,0.0,0.0,0.0,0.0,0.0,-6.163591651398015e-05,-3.3418483146030464e-06,-1.4953302100657699e-05,1.679082989092251e-06,1.3224283854224028e-06,-2.1362304685190736e-06,-5.391321066250399e-07,-0.00043355729730905877,-0.0003350666679578904,-0.00011156331952735949,-0.0009374978071258188,0.000120310515842288,-0.0002463824216253002,0.0006172308820694385,0.4029781222343445,19.693445205688477,0.5220611095428467,-19.955781936645508,-0.6594749093055725,-2.4630770683288574,0.22098104655742645,0
22,0.10503220558166504,-0.3752071261405945,-19.693445205688477,-0.5220611095428467,20.007356643676758,0.6594749093055725,2.4630770683288574,-0.23471395671367645,0.0,0.0,0.0,0.0,0.0,0.0,0.0,-0.3812937686468007,0.06898693623525605,-0.32239574135910726,0.21454507822927912,0.07074370912093594,0.09327007210304322,-0.24103470120114912,1.2135010808434403,-0.22023988974094388,-0.007496639538484213,-2.603853680560463,-0.1088852495153745,2.468184262010786,0.8264730965884971,1.2134413937687574,-0.2202432315892585,-0.0075118285948192216,-2.6038483821997875,-0.10888392708698907,2.4681821257803174,0.826474908251239,0.00011931869454401686,0.0005717560841983828,0.00030338811627516477,-0.0001093708658566109,-0.00010097739063868056,0.0011348045884344024,-0.00038030434630103167,0.0,0.0,0.0,0.0,0.0,0.0,0.0,-5.9687074682956975e-05,-3.3418483146030464e-06,-1.518905633500836e-05,5.29836067553191e-06,1.3224283854224028e-06,-2.1362304685190736e-06,1.8116627419351161e-06,-0.00011931869454401686,-0.0005717560841983828,-0.00030338811627516477,0.0001093708658566109,0.00010097739063868056,-0.0011348045884344024,0.00038030434630103167,0.3752071261405945,19.693445205688477,0.5220611095428467,-20.007356643676758,-0.6594749093055725,-2.4630770683288574,0.23471395671367645,0
23,0.11002922058105469,-0.3752071261405945,-19.693445205688477,-0.5220611095428467,20.007356643676758,0.6594749093055725,2.4630770683288574,-0.23471395671367645,0.0,0.0,0.0,0.0,0.0,0.0,0.0,-0.3812937686468007,0.06898693623525605,-0.32239574135910726,0.21454507822927912,0.07074370912093594,0.09327007210304322,-0.24103470120114912,1.2135010808434403,-0.22023988974094388,-0.007496639538484213,-2.603853680560463,-0.1088852495153745,2.468184262010786,0.8264730965884971,1.2134413937687574,-0.2202432315892585,-0.0075118285948192216,-2.6038483821997875,-0.10888392708698907,2.4681821257803174,0.826474908251239,0.00011931869454401686,0.0005717560841983828,0.00030338811627516477,-0.0001093708658566109,-0.00010097739063868056,0.0011348045884344024,-0.00038030434630103167,0.0,0.0,0.0,0.0,0.0,0.0,0.0,-5.9687074682956975e-05,-3.3418483146030464e-06,-1.518905633500836e-05,5.29836067553191e-06,1.3224283854224028e-06,-2.1362304685190736e-06,1.8116627419351161e-06,-0.00011931869454401686,-0.0005717560841983828,-0.00030338811627516477,0.0001093708658566109,0.00010097739063868056,-0.0011348045884344024,0.00038030434630103167,0.3752071261405945,19.693445205688477,0.5220611095428467,-20.007356643676758,-0.6594749093055725,-2.4630770683288574,0.23471395671367645,0
24,0.1150364875793457,-0.3752071261405945,-19.717248916625977,-0.5220611095428467,20.031160354614258,0.6713767647743225,2.4694857597351074,-0.24844686686992645,0.0,0.0,0.0,0.0,0.0,0.0,0.0,-0.381640626175823,0.06178477842230355,-0.3247711642147642,0.2244123122046986,0.07146214676827295,0.09578526732615296,-0.24212072022306738,1.2135010808434403,-0.2202382193050886,-0.007496796381896487,-2.603855350996318,-0.10888657194375992,2.468183549933963,0.8264773567888728,1.2134413937687574,-0.2202432315892585,-0.0075118285948192216,-2.6038483821997875,-0.10888392708698907,2.4681821257803174,0.826474908251239,0.00011029201067314515,0.0011391687428670828,-1.752050988618003e-05,-0.0005498537276099458,-0.0006969833515671961,-0.0001339457676873024,-7.742477265479062e-06,0.0,0.0,0.0,0.0,0.0,0.0,0.0,-5.9687074682956975e-05,-5.012284169880754e-06,-1.5032212922734892e-05,6.9687965305043065e-06,2.6448567708448056e-06,-1.4241536456793824e-06,-2.4485376337590736e-06,-0.00011029201067314515,-0.0011391687428670828,1.752050988618003e-05,0.0005498537276099458,0.0006969833515671961,0.0001339457676873024,7.742477265479062e-06,0.3752071261405945,19.717248916625977,0.5220611095428467,-20.031160354614258,-0.6713767647743225,-2.4694857597351074,0.24844686686992645,0
25,0.12003922462463379,-0.3752071261405945,-19.717248916625977,-0.5220611095428467,20.031160354614258,0.6713767647743225,2.4694857597351074,-0.24844686686992645,0.0,0.0,0.0,0.0,0.0,0.0,0.0,-0.381640626175823,0.06178477842230355,-0.3247711642147642,0.2244123122046986,0.07146214676827295,0.09578526732615296,-0.24212072022306738,1.2135010808434403,-0.2202382193050886,-0.007496796381896487,-2.603855350996318,-0.10888657194375992,2.468183549933963,0.8264773567888728,1.2134413937687574,-0.2202432315892585,-0.0075118285948192216,-2.6038483821997875,-0.10888392708698907,2.4681821257803174,0.826474908251239,0.00011029201067314515,0.0011391687428670828,-1.752050988618003e-05,-0.0005498537276099458,-0.0006969833515671961,-0.0001339457676873024,-7.742477265479062e-06,0.0,0.0,0.0,0.0,0.0,0.0,0.0,-5.9687074682956975e-05,-5.012284169880754e-06,-1.5032212922734892e-05,6.9687965305043065e-06,2.6448567708448056e-06,-1.4241536456793824e-06,-2.4485376337590736e-06,-0.00011029201067314515,-0.0011391687428670828,1.752050988618003e-05,0.0005498537276099458,0.0006969833515671961,0.0001339457676873024,7.742477265479062e-06,0.3752071261405945,19.717248916625977,0.5220611095428467,-20.031160354614258,-0.6713767647743225,-2.4694857597351074,0.24844686686992645,0
26,0.12502622604370117,-0.4267818331718445,-19.645837783813477,-0.5458648204803467,19.983552932739258,0.6420798897743225,2.4694857597351074,-0.24844686686992645,0.0,0.0,0.0,0.0,0.0,0.0,0.0,-0.382014787491966,0.05805695420575133,-0.3271119505953447,0.22854781431519253,0.07143264681206088,0.09602026199079985,-0.2429119016013707,1.2135049385397059,-0.2202432306126544,-0.007494182363478857,-2.6038520101246077,-0.10888331673542659,2.468183549933963,0.8264773323994656,1.2134413937687574,-0.2202432315892585,-0.0075118285948192216,-2.6038483821997875,-0.10888392708698907,2.4681821257803174,0.826474908251239,0.0011177006425197105,-0.0010017600626743338,0.0005567064187315754,0.0005086904810495216,0.00044762215412167517,3.55779702273919e-05,-6.979658731760414e-05,0.0,0.0,0.0,0.0,0.0,0.0,0.0,-6.35447709484982e-05,-9.76604075386689e-10,-1.76462313403649e-05,3.6279248201154246e-06,-6.103515624855671e-07,-1.4241536456793824e-06,-2.4241482265985326e-06,-0.0011177006425197105,0.0010017600626743338,-0.0005567064187315754,-0.0005086904810495216,-0.00044762215412167517,-3.55779702273919e-05,6.979658731760414e-05,0.4267818331718445,19.645837783813477,0.5458648204803467,-19.983552932739258,-0.6420798897743225,-2.4694857597351074,0.24844686686992645,0
27,0.1300187110900879,-0.4267818331718445,-19.645837783813477,-0.5458648204803467,19.983552932739258,0.6420798897743225,2.4694857597351074,-0.24844686686992645,0.0,0.0,0.0,0.0,0.0,0.0,0.0,-0.382014787491966,0.05805695420575133,-0.3271119505953447,0.22854781431519253,0.07143264681206088,0.09602026199079985,-0.2429119016013707,1.2135049385397059,-0.2202432306126544,-0.007494182363478857,-2.6038520101246077,-0.10888331673542659,2.468183549933963,0.8264773323994656,1.2134413937687574,-0.2202432315892585,-0.0075118285948192216,-2.6038483821997875,-0.10888392708698907,2.4681821257803174,0.826474908251239,0.0011177006425197105,-0.0010017600626743338,0.0005567064187315754,0.0005086904810495216,0.00044762215412167517,3.55779702273919e-05,-6.979658731760414e-05,0.0,0.0,0.0,0.0,0.0,0.0,0.0,-6.35447709484982e-05,-9.76604075386689e-10,-1.76462313403649e-05,3.6279248201154246e-06,-6.103515624855671e-07,-1.4241536456793824e-06,-2.4241482265985326e-06,-0.0011177006425197105,0.0010017600626743338,-0.0005567064187315754,-0.0005086904810495216,-0.00044762215412167517,-3.55779702273919e-05,6.979658731760414e-05,0.4267818331718445,19.645837783813477,0.5458648204803467,-19.983552932739258,-0.6420798897743225,-2.4694857597351074,0.24844686686992645,0
28,0.1350393295288086,-0.3752071261405945,-19.693445205688477,-0.5458648204803467,20.054964065551758,0.6539817452430725,2.4694857597351074,-0.21457235515117645,0.0,0.0,0.0,0.0,0.0,0.0,0.0,-0.3795646706549832,0.05584253355385396,-0.3258926955415756,0.23082662017587569,0.07036262212468312,0.0965592580779576,-0.24287141191457692,1.2135010808438889,-0.22023988963293703,-0.007494918450941853,-2.6038570214321735,-0.108884639163812,2.468183549933963,0.8264704972364473,1.2134413937687574,-0.2202432315892585,-0.0075118285948192216,-2.6038483821997875,-0.10888392708698907,2.4681821257803174,0.826474908251239,-0.00040573572444452374,5.218885668324746e-05,0.00044993670625388834,-0.0008913144358347317,-9.364001733456344e-06,-0.0002239909932453109,-0.001116952138438098,0.0,0.0,0.0,0.0,0.0,0.0,0.0,-5.968707513148708e-05,-3.3419563214565073e-06,-1.691014387736854e-05,8.639232385920792e-06,7.120768229229579e-07,-1.4241536456793824e-06,4.41101479176087e-06,0.00040573572444452374,-5.218885668324746e-05,-0.00044993670625388834,0.0008913144358347317,9.364001733456344e-06,0.0002239909932453109,0.001116952138438098,0.3752071261405945,19.693445205688477,0.5458648204803467,-20.054964065551758,-0.6539817452430725,-2.4694857597351074,0.21457235515117645,0
29,0.14002490043640137,-0.3752071261405945,-19.693445205688477,-0.5458648204803467,20.054964065551758,0.6539817452430725,2.4694857597351074,-0.21457235515117645,0.0,0.0,0.0,0.0,0.0,0.0,0.0,-0.3795646706549832,0.05584253355385396,-0.3258926955415756,0.23082662017587569,0.07036262212468312,0.0965592580779576,-0.24287141191457692,1.2135010808438889,-0.22023988963293703,-0.007494918450941853,-2.6038570214321735,-0.108884639163812,2.468183549933963,0.8264704972364473,1.2134413937687574,-0.2202432315892585,-0.0075118285948192216,-2.6038483821997875,-0.10888392708698907,2.4681821257803174,0.826474908251239,-0.00040573572444452374,5.218885668324746e-05,0.00044993670625388834,-0.0008913144358347317,-9.364001733456344e-06,-0.0002239909932453109,-0.001116952138438098,0.0,0.0,0.0,0.0,0.0,0.0,0.0,-5.968707513148708e-05,-3.3419563214565073e-06,-1.691014387736854e-05,8.639232385920792e-06,7.120768229229579e-07,-1.4241536456793824e-06,4.41101479176087e-06,0.00040573572444452374,-5.218885668324746e-05,-0.00044993670625388834,0.0008913144358347317,9.364001733456344e-06,0.0002239909932453109,0.001116952138438098,0.3752071261405945,19.693445205688477,0.5458648204803467,-20.054964065551758,-0.6539817452430725,-2.4694857597351074,0.21457235515117645,0
30,0.14503216743469238,-0.4029781222343445,-19.669641494750977,-0.5696685314178467,19.983552932739258,0.6539817452430725,2.4758944511413574,-0.27591270208358765,0.0,0.0,0.0,0.0,0.0,0.0,0.0,-0.3807300027885971,0.06126926500280507,-0.3259586102949652,0.22270327716813532,0.0699030782684377,0.09500371034739497,-0.24283214614665688,1.2135032681038505,-0.22024156017679852,-0.0074925875057626785,-2.6038520101246077,-0.108884639163812,2.46818283785714,0.8264803827054077,1.2134413937687574,-0.2202432315892585,-0.0075118285948192216,-2.6038483821997875,-0.10888392708698907,2.4681821257803174,0.826474908251239,0.0002258895967368108,-0.0004178786366926233,0.0012822418566256306,0.00023299956517982502,8.508744655430625e-05,-0.00021965490461481094,0.001025384673105532,0.0,0.0,0.0,0.0,0.0,0.0,0.0,-6.187433509308171e-05,-1.671412459963717e-06,-1.9241089056543093e-05,3.6279248201154246e-06,7.120768229229579e-07,-7.120768228396912e-07,-5.474454168652443e-06,-0.0002258895967368108,0.0004178786366926233,-0.0012822418566256306,-0.00023299956517982502,-8.508744655430625e-05,0.00021965490461481094,-0.001025384673105532,0.4029781222343445,19.669641494750977,0.5696685314178467,-19.983552932739258,-0.6539817452430725,-2.4758944511413574,0.27591270208358765,0
31,0.1500396728515625,-0.4029781222343445,-19.669641494750977,-0.5696685314178467,19.983552932739258,0.6539817452430725,2.4758944511413574,-0.27591270208358765,0.0,0.0,0.0,0.0,0.0,0.0,0.0,-0.3807300027885971,0.06126926500280507,-0.3259586102949652,0.22270327716813532,0.0699030782684377,0.09500371034739497,-0.24283214614665688,1.2135032681038505,-0.22024156017679852,-0.0074925875057626785,-2.6038520101246077,-0.108884639163812,2.46818283785714,0.8264803827054077,1.2134413937687574,-0.2202432315892585,-0.0075118285948192216,-2.6038483821997875,-0.10888392708698907,2.4681821257803174,0.826474908251239,0.0002258895967368108,-0.0004178786366926233,0.0012822418566256306,0.00023299956517982502,8.508744655430625e-05,-0.00021965490461481094,0.001025384673105532,0.0,0.0,0.0,0.0,0.0,0.0,0.0,-6.187433509308171e-05,-1.671412459963717e-06,-1.9241089056543093e-05,3.6279248201154246e-06,7.120768229229579e-07,-7.120768228396912e-07,-5.474454168652443e-06,-0.0002258895967368108,0.0004178786366926233,-0.0012822418566256306,-0.00023299956517982502,-8.508744655430625e-05,0.00021965490461481094,-0.001025384673105532,0.4029781222343445,19.669641494750977,0.5696685314178467,-19.983552932739258,-0.6539817452430725,-2.4758944511413574,0.27591270208358765,0
32,0.15503859519958496,-0.3752071261405945,-19.669641494750977,-0.4982573688030243,19.955781936645508,0.6539817452430725,2.4630770683288574,-0.23471395671367645,0.0,0.0,0.0,0.0,0.0,0.0,0.0,-0.3791270961986268,0.06164385291622636,-0.3239644650357726,0.22203985646058802,0.07006117648403656,0.09571155551198576,-0.24371970524221767,1.2135010808447861,-0.22024156017679913,-0.007497628109582088,-2.6038500612827766,-0.108884639163812,2.468184262010786,0.8264740798817264,1.2134413937687574,-0.2202432315892585,-0.0075118285948192216,-2.6038483821997875,-0.10888392708698907,2.4681821257803174,0.826474908251239,0.00023690868704445892,0.00014640177253221352,-0.0007075920231621218,0.000613613049413326,0.00010019779756802385,0.0002887518396379253,-4.267391392213027e-05,0.0,0.0,0.0,0.0,0.0,0.0,0.0,-5.9687076028769326e-05,-1.6714124593530943e-06,-1.4200485237133263e-05,1.679082989092251e-06,7.120768229229579e-07,-2.1362304685190736e-06,8.283695126509727e-07,-0.00023690868704445892,-0.00014640177253221352,0.0007075920231621218,-0.000613613049413326,-0.00010019779756802385,-0.0002887518396379253,4.267391392213027e-05,0.3752071261405945,19.669641494750977,0.4982573688030243,-19.955781936645508,-0.6539817452430725,-2.4630770683288574,0.23471395671367645,0
33,0.1600172519683838,-0.3752071261405945,-19.669641494750977,-0.4982573688030243,19.955781936645508,0.6539817452430725,2.4630770683288574,-0.23471395671367645,0.0,0.0,0.0,0.0,0.0,0.0,0.0,-0.3791270961986268,0.06164385291622636,-0.3239644650357726,0.22203985646058802,0.07006117648403656,0.09571155551198576,-0.24371970524221767,1.2135010808447861,-0.22024156017679913,-0.007497628109582088,-2.6038500612827766,-0.108884639163812,2.468184262010786,0.8264740798817264,1.2134413937687574,-0.2202432315892585,-0.0075118285948192216,-2.6038483821997875,-0.10888392708698907,2.4681821257803174,0.826474908251239,0.00023690868704445892,0.00014640177253221352,-0.0007075920231621218,0.000613613049413326,0.00010019779756802385,0.0002887518396379253,-4.267391392213027e-05,0.0,0.0,0.0,0.0,0.0,0.0,0.0,-5.9687076028769326e-05,-1.6714124593530943e-06,-1.4200485237133263e-05,1.679082989092251e-06,7.120768229229579e-07,-2.1362304685190736e-06,8.283695126509727e-07,-0.00023690868704445892,-0.00014640177253221352,0.0007075920231621218,-0.000613613049413326,-0.00010019779756802385,-0.0002887518396379253,4.267391392213027e-05,0.3752071261405945,19.669641494750977,0.4982573688030243,-19.955781936645508,-0.6539817452430725,-2.4630770683288574,0.23471395671367645,0
34,0.16501665115356445,-0.3752071261405945,-19.669641494750977,-0.5696685314178467,19.983552932739258,0.6594749093055725,2.4630770683288574,-0.24844686686992645,0.0,0.0,0.0,0.0,0.0,0.0,0.0,-0.37975159743617976,0.060951449188705896,-0.3253501514449389,0.2242919518460017,0.07037434297669877,0.09704689979894418,-0.2434387739059938,1.2135010808434403,-0.22024156017679913,-0.007494911236266783,-2.6038520101246077,-0.1088852495153745,2.468184262010786,0.8264784299990219,1.2134413937687574,-0.2202432315892585,-0.0075118285948192216,-2.6038483821997875,-0.10888392708698907,2.4681821257803174,0.826474908251239,0.00023931648490695676,0.00035290021428204985,0.0010536746906756453,6.246338047682358e-05,-0.00024329588728111694,0.0002927401954311979,0.00041457724974418026,0.0,0.0,0.0,0.0,0.0,0.0,0.0,-5.9687074682956975e-05,-1.6714124593530943e-06,-1.691735855243858e-05,3.6279248201154246e-06,1.3224283854224028e-06,-2.1362304685190736e-06,-3.5217477828419774e-06,-0.00023931648490695676,-0.00035290021428204985,-0.0010536746906756453,-6.246338047682358e-05,0.00024329588728111694,-0.0002927401954311979,-0.00041457724974418026,0.3752071261405945,19.669641494750977,0.5696685314178467,-19.983552932739258,-0.6594749093055725,-2.4630770683288574,0.24844686686992645,0
35,0.17003154754638672,-0.3752071261405945,-19.669641494750977,-0.5696685314178467,19.983552932739258,0.6594749093055725,2.4630770683288574,-0.24844686686992645,0.0,0.0,0.0,0.0,0.0,0.0,0.0,-0.37975159743617976,0.060951449188705896,-0.3253501514449389,0.2242919518460017,0.07037434297669877,0.09704689979894418,-0.2434387739059938,1.2135010808434403,-0.22024156017679913,-0.007494911236266783,-2.6038520101246077,-0.1088852495153745,2.468184262010786,0.8264784299990219,1.2134413937687574,-0.2202432315892585,-0.0075118285948192216,-2.6038483821997875,-0.10888392708698907,2.4681821257803174,0.826474908251239,0.00023931648490695676,0.00035290021428204985,0.0010536746906756453,6.246338047682358e-05,-0.00024329588728111694,0.0002927401954311979,0.00041457724974418026,0.0,0.0,0.0,0.0,0.0,0.0,0.0,-5.9687074682956975e-05,-1.6714124593530943e-06,-1.691735855243858e-05,3.6279248201154246e-06,1.3224283854224028e-06,-2.1362304685190736e-06,-3.5217477828419774e-06,-0.00023931648490695676,-0.00035290021428204985,-0.0010536746906756453,-6.246338047682358e-05,0.00024329588728111694,-0.0002927401954311979,-0.00041457724974418026,0.3752071261405945,19.669641494750977,0.5696685314178467,-19.983552932739258,-0.6594749093055725,-2.4630770683288574,0.24844686686992645,0
36,0.17504262924194336,-0.3752071261405945,-19.669641494750977,-0.5220611095428467,20.007356643676758,0.6594749093055725,2.4758944511413574,-0.23471395671367645,0.0,0.0,0.0,0.0,0.0,0.0,0.0,-0.37975159743617976,0.056199587908753804,-0.3285808021138111,0.22877585793294078,0.07129361479110363,0.09816491834284047,-0.2431729140013325,1.2135010808434403,-0.2202382193050886,-0.0074961694091818095,-2.603853680560463,-0.10888536780483928,2.46818283785714,0.8264741971194521,1.2134413937687574,-0.2202432315892585,-0.0075118285948192216,-2.6038483821997875,-0.10888392708698907,2.4681821257803174,0.826474908251239,0.00023931648490695676,0.0009048653623004511,0.0005506985691384652,-5.80366384923978e-05,-0.0024280811367417693,-0.00029526109720160273,-0.00015763670432759734,0.0,0.0,0.0,0.0,0.0,0.0,0.0,-5.9687074682956975e-05,-5.012284169880754e-06,-1.5659185637412025e-05,5.29836067553191e-06,1.4407178502012785e-06,-7.120768228396912e-07,7.111317869012979e-07,-0.00023931648490695676,-0.0009048653623004511,-0.0005506985691384652,5.80366384923978e-05,0.0024280811367417693,0.00029526109720160273,0.00015763670432759734,0.3752071261405945,19.669641494750977,0.5220611095428467,-20.007356643676758,-0.6594749093055725,-2.4758944511413574,0.23471395671367645,0
37,0.18003535270690918,-0.3752071261405945,-19.669641494750977,-0.5220611095428467,20.007356643676758,0.6594749093055725,2.4758944511413574,-0.23471395671367645,0.0,0.0,0.0,0.0,0.0,0.0,0.0,-0.37975159743617976,0.056199587908753804,-0.3285808021138111,0.22877585793294078,0.07129361479110363,0.09816491834284047,-0.2431729140013325,1.2135010808434403,-0.2202382193050886,-0.0074961694091818095,-2.603853680560463,-0.10888536780483928,2.46818283785714,0.8264741971194521,1.2134413937687574,-0.2202432315892585,-0.0075118285948192216,-2.6038483821997875,-0.10888392708698907,2.4681821257803174,0.826474908251239,0.00023931648490695676,0.0009048653623004511,0.0005506985691384652,-5.80366384923978e-05,-0.0024280811367417693,-0.00029526109720160273,-0.00015763670432759734,0.0,0.0,0.0,0.0,0.0,0.0,0.0,-5.9687074682956975e-05,-5.012284169880754e-06,-1.5659185637412025e-05,5.29836067553191e-06,1.4407178502012785e-06,-7.120768228396912e-07,7.111317869012979e-07,-0.00023931648490695676,-0.0009048653623004511,-0.0005506985691384652,5.80366384923978e-05,0.0024280811367417693,0.00029526109720160273,0.00015763670432759734,0.3752071261405945,19.669641494750977,0.5220611095428467,-20.007356643676758,-0.6594749093055725,-2.4758944511413574,0.23471395671367645,0
38,0.18503189086914062,-0.4029781222343445,-19.717248916625977,-0.5220611095428467,20.007356643676758,0.6594749093055725,2.4758944511413574,-0.23471395671367645,0.0,0.0,0.0,0.0,0.0,0.0,0.0,-0.38055048277487147,0.056199587908753804,-0.3285808021138111,0.22877585793294078,0.07129361479110363,0.09816491834284047,-0.2431729140013325,1.2135030296852714,-0.2202382193050886,-0.0074961694091818095,-2.603853680560463,-0.10888536780483928,2.46818283785714,0.8264741971194521,1.2134413937687574,-0.2202432315892585,-0.0075118285948192216,-2.6038483821997875,-0.10888392708698907,2.4681821257803174,0.826474908251239,0.00027830856029294535,0.0009048653623004511,0.0005506985691384652,-5.80366384923978e-05,-0.0024280811367417693,-0.00029526109720160273,-0.00015763670432759734,0.0,0.0,0.0,0.0,0.0,0.0,0.0,-6.163591651398015e-05,-5.012284169880754e-06,-1.5659185637412025e-05,5.29836067553191e-06,1.4407178502012785e-06,-7.120768228396912e-07,7.111317869012979e-07,-0.00027830856029294535,-0.0009048653623004511,-0.0005506985691384652,5.80366384923978e-05,0.0024280811367417693,0.00029526109720160273,0.00015763670432759734,0.4029781222343445,19.717248916625977,0.5220611095428467,-20.007356643676758,-0.6594749093055725,-2.4758944511413574,0.23471395671367645,0
39,0.19003963470458984,-0.4029781222343445,-19.717248916625977,-0.5220611095428467,20.007356643676758,0.6594749093055725,2.4758944511413574,-0.23471395671367645,0.0,0.0,0.0,0.0,0.0,0.0,0.0,-0.38055048277487147,0.056199587908753804,-0.3285808021138111,0.22877585793294078,0.07129361479110363,0.09816491834284047,-0.2431729140013325,1.2135030296852714,-0.2202382193050886,-0.0074961694091818095,-2.603853680560463,-0.10888536780483928,2.46818283785714,0.8264741971194521,1.2134413937687574,-0.2202432315892585,-0.0075118285948192216,-2.6038483821997875,-0.10888392708698907,2.4681821257803174,0.826474908251239,0.00027830856029294535,0.0009048653623004511,0.0005506985691384652,-5.80366384923978e-05,-0.0024280811367417693,-0.00029526109720160273,-0.00015763670432759734,0.0,0.0,0.0,0.0,0.0,0.0,0.0,-6.163591651398015e-05,-5.012284169880754e-06,-1.5659185637412025e-05,5.29836067553191e-06,1.4407178502012785e-06,-7.120768228396912e-07,7.111317869012979e-07,-0.00027830856029294535,-0.0009048653623004511,-0.0005506985691384652,5.80366384923978e-05,0.0024280811367417693,0.00029526109720160273,0.00015763670432759734,0.4029781222343445,19.717248916625977,0.5220611095428467,-20.007356643676758,-0.6594749093055725,-2.4758944511413574,0.23471395671367645,0
40,0.19503259658813477,-0.3752071261405945,-19.693445205688477,-0.5220611095428467,20.031160354614258,0.6539817452430725,2.4630770683288574,-0.22098104655742645,0.0,0.0,0.0,0.0,0.0,0.0,0.0,-0.3846263173172641,0.09001574122396708,-0.32774661324744997,0.17396052188246994,0.069300100932885,0.09111632499332482,-0.24261262189970903,1.2135010808434403,-0.22023988974094388,-0.007495963878505568,-2.603855350996318,-0.10888463916382024,2.468184261992841,0.8264743093412356,1.2134413937687574,-0.2202432315892585,-0.0075118285948192216,-2.6038483821997875,-0.10888392708698907,2.4681821257803174,0.826474908251239,-0.00042401593157657437,1.3001548407027783e-05,-0.0005342408516050591,0.00033942381787093964,-0.0001295416636106333,0.00030891247185192553,-0.0005485444030783978,0.0,0.0,0.0,0.0,0.0,0.0,0.0,-5.9687074682956975e-05,-3.3418483146030464e-06,-1.586471631365334e-05,6.9687965305043065e-06,7.120768311663639e-07,-2.136212523762282e-06,5.989100034797801e-07,0.00042401593157657437,-1.3001548407027783e-05,0.0005342408516050591,-0.00033942381787093964,0.0001295416636106333,-0.00030891247185192553,0.0005485444030783978,0.3752071261405945,19.693445205688477,0.5220611095428467,-20.031160354614258,-0.6539817452430725,-2.4630770683288574,0.22098104655742645,0
41,0.20000767707824707,-0.3752071261405945,-19.693445205688477,-0.5220611095428467,20.031160354614258,0.6539817452430725,2.4630770683288574,-0.22098104655742645,0.0,0.0,0.0,0.0,0.0,0.0,0.0,-0.3846263173172641,0.09001574122396708,-0.32774661324744997,0.17396052188246994,0.069300100932885,0.09111632499332482,-0.24261262189970903,1.2135010808434403,-0.22023988974094388,-0.007495963878505568,-2.603855350996318,-0.10888463916382024,2.468184261992841,0.8264743093412356,1.2134413937687574,-0.2202432315892585,-0.0075118285948192216,-2.6038483821997875,-0.10888392708698907,2.4681821257803174,0.826474908251239,-0.00042401593157657437,1.3001548407027783e-05,-0.0005342408516050591,0.00033942381787093964,-0.0001295416636106333,0.00030891247185192553,-0.0005485444030783978,0.0,0.0,0.0,0.0,0.0,0.0,0.0,-5.9687074682956975e-05,-3.3418483146030464e-06,-1.586471631365334e-05,6.9687965305043065e-06,7.120768311663639e-07,-2.136212523762282e-06,5.989100034797801e-07,0.00042401593157657437,-1.3001548407027783e-05,0.0005342408516050591,-0.00033942381787093964,0.0001295416636106333,-0.00030891247185192553,0.0005485444030783978,0.3752071261405945,19.693445205688477,0.5220611095428467,-20.031160354614258,-0.6539817452430725,-2.4630770683288574,0.22098104655742645,0
42,0.2050175666809082,-0.3236324191093445,-19.717248916625977,-0.5458648204803467,19.983552932739258,0.6594749093055725,2.4758944511413574,-0.22098104655742645,0.0,0.0,0.0,0.0,0.0,0.0,0.0,-0.3779009689870983,0.059836437960444355,-0.3219695949139748,0.2216301112463361,0.06973723717749686,0.09799802309661054,-0.24089116856708015,1.213497488056707,-0.2202382193050886,-0.0074948892138260075,-2.6038520101246077,-0.1088852495153745,2.46818283785714,0.8264715728565744,1.2134413937687574,-0.2202432315892585,-0.0075118285948192216,-2.6038483821997875,-0.10888392708698907,2.4681821257803174,0.826474908251239,-0.0011270802327413773,0.0006365674466894916,0.0006800580380051655,0.000923711840338901,-7.12225838578277e-05,-0.00023347808124698518,-0.0007209103867853217,0.0,0.0,0.0,0.0,0.0,0.0,0.0,-5.609428794972615e-05,-5.012284169880754e-06,-1.6939380993214077e-05,3.6279248201154246e-06,1.3224283854224028e-06,-7.120768228396912e-07,3.3353946646830224e-06,0.0011270802327413773,-0.0006365674466894916,-0.0006800580380051655,-0.000923711840338901,7.12225838578277e-05,0.00023347808124698518,0.0007209103867853217,0.3236324191093445,19.717248916625977,0.5458648204803467,-19.983552932739258,-0.6594749093055725,-2.4758944511413574,0.22098104655742645,0
43,0.21001243591308594,-0.3236324191093445,-19.717248916625977,-0.5458648204803467,19.983552932739258,0.6594749093055725,2.4758944511413574,-0.22098104655742645,0.0,0.0,0.0,0.0,0.0,0.0,0.0,-0.3779009689870983,0.059836437960444355,-0.3219695949139748,0.2216301112463361,0.06973723717749686,0.09799802309661054,-0.24089116856708015,1.213497488056707,-0.2202382193050886,-0.0074948892138260075,-2.6038520101246077,-0.1088852495153745,2.46818283785714,0.8264715728565744,1.2134413937687574,-0.2202432315892585,-0.0075118285948192216,-2.6038483821997875,-0.10888392708698907,2.4681821257803174,0.826474908251239,-0.0011270802327413773,0.0006365674466894916,0.0006800580380051655,0.000923711840338901,-7.12225838578277e-05,-0.00023347808124698518,-0.0007209103867853217,0.0,0.0,0.0,0.0,0.0,0.0,0.0,-5.609428794972615e-05,-5.012284169880754e-06,-1.6939380993214077e-05,3.6279248201154246e-06,1.3224283854224028e-06,-7.120768228396912e-07,3.3353946646830224e-06,0.0011270802327413773,-0.0006365674466894916,-0.0006800580380051655,-0.000923711840338901,7.12225838578277e-05,0.00023347808124698518,0.0007209103867853217,0.3236324191093445,19.717248916625977,0.5458648204803467,-19.983552932739258,-0.6594749093055725,-2.4758944511413574,0.22098104655742645,0
44,0.21501994132995605,-0.3752071261405945,-19.669641494750977,-0.5220611095428467,20.031160354614258,0.6539817452430725,2.4566683769226074,-0.25485557317733765,0.0,0.0,0.0,0.0,0.0,0.0,0.0,-0.38188094240884024,0.054817759265721994,-0.3294815839148245,0.23401034134263954,0.07069066842837751,0.09921932382801905,-0.24048007414708486,1.2135010808435898,-0.22024156017679913,-0.007496808143899217,-2.603855350996318,-0.108884639163812,2.4681849740876087,0.8264780425419536,1.2134413937687574,-0.2202432315892585,-0.0075118285948192216,-2.6038483821997875,-0.10888392708698907,2.4681821257803174,0.826474908251239,-0.0004751322224469015,-8.21941053848731e-05,-0.0002559324373790181,-0.0004846216153475887,2.77497519009026e-05,0.0004458986622810853,0.000873948116179424,0.0,0.0,0.0,0.0,0.0,0.0,0.0,-5.9687074832392994e-05,-1.6714124593530943e-06,-1.5020450920004598e-05,6.9687965305043065e-06,7.120768229229579e-07,-2.848307291358765e-06,-3.1342907145237575e-06,0.0004751322224469015,8.21941053848731e-05,0.0002559324373790181,0.0004846216153475887,-2.77497519009026e-05,-0.0004458986622810853,-0.000873948116179424,0.3752071261405945,19.669641494750977,0.5220611095428467,-20.031160354614258,-0.6539817452430725,-2.4566683769226074,0.25485557317733765,0
45,0.22003936767578125,-0.3752071261405945,-19.669641494750977,-0.5220611095428467,20.031160354614258,0.6539817452430725,2.4566683769226074,-0.25485557317733765,0.0,0.0,0.0,0.0,0.0,0.0,0.0,-0.38188094240884024,0.054817759265721994,-0.3294815839148245,0.23401034134263954,0.07069066842837751,0.09921932382801905,-0.24048007414708486,1.2135010808435898,-0.22024156017679913,-0.007496808143899217,-2.603855350996318,-0.108884639163812,2.4681849740876087,0.8264780425419536,1.2134413937687574,-0.2202432315892585,-0.0075118285948192216,-2.6038483821997875,-0.10888392708698907,2.4681821257803174,0.826474908251239,-0.0004751322224469015,-8.21941053848731e-05,-0.0002559324373790181,-0.0004846216153475887,2.77497519009026e-05,0.0004458986622810853,0.000873948116179424,0.0,0.0,0.0,0.0,0.0,0.0,0.0,-5.9687074832392994e-05,-1.6714124593530943e-06,-1.5020450920004598e-05,6.9687965305043065e-06,7.120768229229579e-07,-2.848307291358765e-06,-3.1342907145237575e-06,0.0004751322224469015,8.21941053848731e-05,0.0002559324373790181,0.0004846216153475887,-2.77497519009026e-05,-0.0004458986622810853,-0.000873948116179424,0.3752071261405945,19.669641494750977,0.5220611095428467,-20.031160354614258,-0.6539817452430725,-2.4566683769226074,0.25485557317733765,0
46,0.2250363826751709,-0.3514034152030945,-19.669641494750977,-0.5458648204803467,19.983552932739258,0.6594749093055725,2.4630770683288574,-0.19351522624492645,0.0,0.0,0.0,0.0,0.0,0.0,0.0,-0.38098486399875137,0.05481062356051505,-0.3289889824845132,0.23524212061045421,0.07063083773667149,0.098956919263649,-0.24012159894828683,1.213499410407585,-0.22024156017679913,-0.007494892213327056,-2.6038520101246077,-0.1088852495153745,2.468184262010786,0.8264690947125841,1.2134413937687574,-0.2202432315892585,-0.0075118285948192216,-2.6038483821997875,-0.10888392708698907,2.4681821257803174,0.826474908251239,-0.0008472912713098183,6.0663146146766555e-05,0.00039971596974570825,0.0006518949250236901,-5.767119433993836e-05,0.00029536492768416224,-0.0020609556478606347,0.0,0.0,0.0,0.0,0.0,0.0,0.0,-5.801663882754049e-05,-1.6714124593530943e-06,-1.6936381492165496e-05,3.6279248201154246e-06,1.3224283854224028e-06,-2.1362304685190736e-06,5.8135386549196255e-06,0.0008472912713098183,-6.0663146146766555e-05,-0.00039971596974570825,-0.0006518949250236901,5.767119433993836e-05,-0.00029536492768416224,0.0020609556478606347,0.3514034152030945,19.669641494750977,0.5458648204803467,-19.983552932739258,-0.6594749093055725,-2.4630770683288574,0.19351522624492645,0
47,0.23003292083740234,-0.3514034152030945,-19.669641494750977,-0.5458648204803467,19.983552932739258,0.6594749093055725,2.4630770683288574,-0.19351522624492645,0.0,0.0,0.0,0.0,0.0,0.0,0.0,-0.38098486399875137,0.05481062356051505,-0.3289889824845132,0.23524212061045421,0.07063083773667149,0.098956919263649,-0.24012159894828683,1.213499410407585,-0.22024156017679913,-0.007494892213327056,-2.6038520101246077,-0.1088852495153745,2.468184262010786,0.8264690947125841,1.2134413937687574,-0.2202432315892585,-0.0075118285948192216,-2.6038483821997875,-0.10888392708698907,2.4681821257803174,0.826474908251239,-0.0008472912713098183,6.0663146146766555e-05,0.00039971596974570825,0.0006518949250236901,-5.767119433993836e-05,0.00029536492768416224,-0.0020609556478606347,0.0,0.0,0.0,0.0,0.0,0.0,0.0,-5.801663882754049e-05,-1.6714124593530943e-06,-1.6936381492165496e-05,3.6279248201154246e-06,1.3224283854224028e-06,-2.1362304685190736e-06,5.8135386549196255e-06,0.0008472912713098183,-6.0663146146766555e-05,-0.00039971596974570825,-0.0006518949250236901,5.767119433993836e-05,-0.00029536492768416224,0.0020609556478606347,0.3514034152030945,19.669641494750977,0.5458648204803467,-19.983552932739258,-0.6594749093055725,-2.4630770683288574,0.19351522624492645,0
48,0.23503899574279785,-0.3752071261405945,-19.693445205688477,-0.5696685314178467,20.007356643676758,0.6475730538368225,2.4758944511413574,-0.26858848333358765,0.0,0.0,0.0,0.0,0.0,0.0,0.0,-0.37992720108932404,0.05766763869480756,-0.32882292926283674,0.23082663763337857,0.07004895975889461,0.09840084400150534,-0.24063697150024335,1.2135010808434403,-0.22023988974094388,-0.007492590500349712,-2.603853680560463,-0.10888392708698909,2.46818283785714,0.8264774796723944,1.2134413937687574,-0.2202432315892585,-0.0075118285948192216,-2.6038483821997875,-0.10888392708698907,2.4681821257803174,0.826474908251239,-0.00013220195860394788,0.0005060650584792686,0.0005895051778205899,-0.00041768659078965956,0.0012671979494742695,-0.0003296652064591761,0.0007390662190864656,0.0,0.0,0.0,0.0,0.0,0.0,0.0,-5.9687074682956975e-05,-3.3418483146030464e-06,-1.9238094469509887e-05,5.29836067553191e-06,1.3877787807814457e-17,-7.120768228396912e-07,-2.5714211553395927e-06,0.00013220195860394788,-0.0005060650584792686,-0.0005895051778205899,0.00041768659078965956,-0.0012671979494742695,0.0003296652064591761,-0.0007390662190864656,0.3752071261405945,19.693445205688477,0.5696685314178467,-20.007356643676758,-0.6475730538368225,-2.4758944511413574,0.26858848333358765,0
49,0.2404172420501709,-0.3752071261405945,-19.693445205688477,-0.5696685314178467,20.007356643676758,0.6475730538368225,2.4758944511413574,-0.26858848333358765,0.0,0.0,0.0,0.0,0.0,0.0,0.0,-0.37992720108932404,0.05766763869480756,-0.32882292926283674,0.23082663763337857,0.07004895975889461,0.09840084400150534,-0.24063697150024335,1.2135010808434403,-0.22023988974094388,-0.007492590500349712,-2.603853680560463,-0.10888392708698909,2.46818283785714,0.8264774796723944,1.2134413937687574,-0.2202432315892585,-0.0075118285948192216,-2.6038483821997875,-0.10888392708698907,2.4681821257803174,0.826474908251239,-0.00013220195860394788,0.0005060650584792686,0.0005895051778205899,-0.00041768659078965956,0.0012671979494742695,-0.0003296652064591761,0.0007390662190864656,0.0,0.0,0.0,0.0,0.0,0.0,0.0,-5.9687074682956975e-05,-3.3418483146030464e-06,-1.9238094469509887e-05,5.29836067553191e-06,1.3877787807814457e-17,-7.120768228396912e-07,-2.5714211553395927e-06,0.00013220195860394788,-0.0005060650584792686,-0.0005895051778205899,0.00041768659078965956,-0.0012671979494742695,0.0003296652064591761,-0.0007390662190864656,0.3752071261405945,19.693445205688477,0.5696685314178467,-20.007356643676758,-0.6475730538368225,-2.4758944511413574,0.26858848333358765,0
50,0.2450096607208252,-0.3236324191093445,-19.669641494750977,-0.5458648204803467,20.007356643676758,0.6475730538368225,2.4694857597351074,-0.20724813640117645,0.0,0.0,0.0,0.0,0.0,0.0,0.0,-0.3804166377243534,0.053348843407728753,-0.33426680117733204,0.23439197273704535,0.07155358870448332,0.09860121566204341,-0.2408199627729477,1.2134974615657539,-0.22024156017679913,-0.0074948992437900075,-2.603853680560463,-0.10888391394371522,2.468183549933963,0.8264732631285103,1.2134413937687574,-0.2202432315892585,-0.0075118285948192216,-2.6038483821997875,-0.10888392708698907,2.4681821257803174,0.826474908251239,-0.001195722533171303,-0.0005049846600558114,0.0002722678010154774,-6.806151726848899e-05,0.00031368143128356887,-1.8229728688205109e-06,-0.001306546254596682,0.0,0.0,0.0,0.0,0.0,0.0,0.0,-5.6067796996517316e-05,-1.6714124593530943e-06,-1.6929351029214106e-05,5.29836067553191e-06,-1.3143273858151616e-08,-1.4241536456793824e-06,1.6451227287106462e-06,0.001195722533171303,0.0005049846600558114,-0.0002722678010154774,6.806151726848899e-05,-0.00031368143128356887,1.8229728688205109e-06,0.001306546254596682,0.3236324191093445,19.669641494750977,0.5458648204803467,-20.007356643676758,-0.6475730538368225,-2.4694857597351074,0.20724813640117645,0
51,0.25000977516174316,-0.3236324191093445,-19.669641494750977,-0.5458648204803467,20.007356643676758,0.6475730538368225,2.4694857597351074,-0.20724813640117645,0.0,0.0,0.0,0.0,0.0,0.0,0.0,-0.3804166377243534,0.053348843407728753,-0.33426680117733204,0.23439197273704535,0.07155358870448332,0.09860121566204341,-0.2408199627729477,1.2134974615657539,-0.22024156017679913,-0.0074948992437900075,-2.603853680560463,-0.10888391394371522,2.468183549933963,0.8264732631285103,1.2134413937687574,-0.2202432315892585,-0.0075118285948192216,-2.6038483821997875,-0.10888392708698907,2.4681821257803174,0.826474908251239,-0.001195722533171303,-0.0005049846600558114,0.0002722678010154774,-6.806151726848899e-05,0.00031368143128356887,-1.8229728688205109e-06,-0.001306546254596682,0.0,0.0,0.0,0.0,0.0,0.0,0.0,-5.6067796996517316e-05,-1.6714124593530943e-06,-1.6929351029214106e-05,5.29836067553191e-06,-1.3143273858151616e-08,-1.4241536456793824e-06,1.6451227287106462e-06,0.001195722533171303,0.0005049846600558114,-0.0002722678010154774,6.806151726848899e-05,-0.00031368143128356887,1.8229728688205109e-06,0.001306546254596682,0.3236324191093445,19.669641494750977,0.5458648204803467,-20.007356643676758,-0.6475730538368225,-2.4694857597351074,0.20724813640117645,0
52,0.25501012802124023,-0.3514034152030945,-19.669641494750977,-0.5458648204803467,20.031160354614258,0.6539817452430725,2.4758944511413574,-0.22830526530742645,0.0,0.0,0.0,0.0,0.0,0.0,0.0,-0.37568374071534705,0.05218304673827395,-0.3329219369956237,0.23150287780293738,0.07098159940356889,0.09828324978150216,-0.24020810581649496,1.213499410407585,-0.22024156017679913,-0.007497047014121116,-2.603855350996318,-0.10888463916373779,2.46818283785714,0.8264755654142477,1.2134413937687574,-0.2202432315892585,-0.0075118285948192216,-2.6038483821997875,-0.10888392708698907,2.4681821257803174,0.826474908251239,-0.0004001506269604503,-0.0010525208898945484,0.0005418925273445826,-0.000820601437111589,2.148633148099493e-06,-0.0002572292678758551,-0.0005032036106339684,0.0,0.0,0.0,0.0,0.0,0.0,0.0,-5.801663882754049e-05,-1.6714124593530943e-06,-1.4781580698105222e-05,6.9687965305043065e-06,7.120767487184265e-07,-7.120768228396912e-07,-6.571630086771307e-07,0.0004001506269604503,0.0010525208898945484,-0.0005418925273445826,0.000820601437111589,-2.148633148099493e-06,0.0002572292678758551,0.0005032036106339684,0.3514034152030945,19.669641494750977,0.5458648204803467,-20.031160354614258,-0.6539817452430725,-2.4758944511413574,0.22830526530742645,0
53,0.2600095272064209,-0.3514034152030945,-19.669641494750977,-0.5458648204803467,20.031160354614258,0.6539817452430725,2.4758944511413574,-0.22830526530742645,0.0,0.0,0.0,0.0,0.0,0.0,0.0,-0.37568374071534705,0.05218304673827395,-0.3329219369956237,0.23150287780293738,0.07098159940356889,0.09828324978150216,-0.24020810581649496,1.213499410407585,-0.22024156017679913,-0.007497047014121116,-2.603855350996318,-0.10888463916373779,2.46818283785714,0.8264755654142477,1.2134413937687574,-0.2202432315892585,-0.0075118285948192216,-2.6038483821997875,-0.10888392708698907,2.4681821257803174,0.826474908251239,-0.0004001506269604503,-0.0010525208898945484,0.0005418925273445826,-0.000820601437111589,2.148633148099493e-06,-0.0002572292678758551,-0.0005032036106339684,0.0,0.0,0.0,0.0,0.0,0.0,0.0,-5.801663882754049e-05,-1.6714124593530943e-06,-1.4781580698105222e-05,6.9687965305043065e-06,7.120767487184265e-07,-7.120768228396912e-07,-6.571630086771307e-07,0.0004001506269604503,0.0010525208898945484,-0.0005418925273445826,0.000820601437111589,-2.148633148099493e-06,0.0002572292678758551,0.0005032036106339684,0.3514034152030945,19.669641494750977,0.5458648204803467,-20.031160354614258,-0.6539817452430725,-2.4758944511413574,0.22830526530742645,0
54,0.26500964164733887,-0.4029781222343445,-19.669641494750977,-0.5220611095428467,20.031160354614258,0.6594749093055725,2.4694857597351074,-0.26217979192733765,0.0,0.0,0.0,0.0,0.0,0.0,0.0,-0.37977724609285735,0.0590067924253837,-0.3377269029368192,0.22207108740531134,0.07099648013163719,0.09690129450948931,-0.23999257094326243,1.2135051754524833,-0.2202415514282436,-0.0074979804325244455,-2.603855350996318,-0.10888525097573826,2.4681831967212533,0.8264760224235183,1.2134413937687574,-0.2202432315892585,-0.0075118285948192216,-2.6038483821997875,-0.10888392708698907,2.4681821257803174,0.826474908251239,0.00028295959982275044,-0.0006362042078731748,-0.0002663714966595114,-0.0013617237066277442,-4.288361280006363e-05,-0.00022366310054576478,0.0009436186228334858,0.0,0.0,0.0,0.0,0.0,0.0,0.0,-6.378168372589421e-05,-1.6801610148997614e-06,-1.3848162294776041e-05,6.9687965305043065e-06,1.3238887491828777e-06,-1.0709409359321853e-06,-1.1141722792151754e-06,-0.00028295959982275044,0.0006362042078731748,0.0002663714966595114,0.0013617237066277442,4.288361280006363e-05,0.00022366310054576478,-0.0009436186228334858,0.4029781222343445,19.669641494750977,0.5220611095428467,-20.031160354614258,-0.6594749093055725,-2.4694857597351074,0.26217979192733765,0
55,0.27000951766967773,-0.4029781222343445,-19.669641494750977,-0.5220611095428467,20.031160354614258,0.6594749093055725,2.4694857597351074,-0.26217979192733765,0.0,0.0,0.0,0.0,0.0,0.0,0.0,-0.37977724609285735,0.0590067924253837,-0.3377269029368192,0.22207108740531134,0.07099648013163719,0.09690129450948931,-0.23999257094326243,1.2135051754524833,-0.2202415514282436,-0.0074979804325244455,-2.603855350996318,-0.10888525097573826,2.4681831967212533,0.8264760224235183,1.2134413937687574,-0.2202432315892585,-0.0075118285948192216,-2.6038483821997875,-0.10888392708698907,2.4681821257803174,0.826474908251239,0.00028295959982275044,-0.0006362042078731748,-0.0002663714966595114,-0.0013617237066277442,-4.288361280006363e-05,-0.00022366310054576478,0.0009436186228334858,0.0,0.0,0.0,0.0,0.0,0.0,0.0,-6.378168372589421e-05,-1.6801610148997614e-06,-1.3848162294776041e-05,6.9687965305043065e-06,1.3238887491828777e-06,-1.0709409359321853e-06,-1.1141722792151754e-06,-0.00028295959982275044,0.0006362042078731748,0.0002663714966595114,0.0013617237066277442,4.288361280006363e-05,0.00022366310054576478,-0.0009436186228334858,0.4029781222343445,19.669641494750977,0.5220611095428467,-20.031160354614258,-0.6594749093055725,-2.4694857597351074,0.26217979192733765,0
56,0.2750105857849121,-0.4029781222343445,-19.669641494750977,-0.5220611095428467,20.031160354614258,0.6594749093055725,2.4694857597351074,-0.26217979192733765,0.0,0.0,0.0,0.0,0.0,0.0,0.0,-0.37977724609285735,0.0590067924253837,-0.3377269029368192,0.22207108740531134,0.07099648013163719,0.09690129450948931,-0.23999257094326243,1.2135051754524833,-0.2202415514282436,-0.0074979804325244455,-2.603855350996318,-0.10888525097573826,2.4681831967212533,0.8264760224235183,1.2134413937687574,-0.2202432315892585,-0.0075118285948192216,-2.6038483821997875,-0.10888392708698907,2.4681821257803174,0.826474908251239,0.00028295959982275044,-0.0006362042078731748,-0.0002663714966595114,-0.0013617237066277442,-4.288361280006363e-05,-0.00022366310054576478,0.0009436186228334858,0.0,0.0,0.0,0.0,0.0,0.0,0.0,-6.378168372589421e-05,-1.6801610148997614e-06,-1.3848162294776041e-05,6.9687965305043065e-06,1.3238887491828777e-06,-1.0709409359321853e-06,-1.1141722792151754e-06,-0.00028295959982275044,0.0006362042078731748,0.0002663714966595114,0.0013617237066277442,4.288361280006363e-05,0.00022366310054576478,-0.0009436186228334858,0.4029781222343445,19.669641494750977,0.5220611095428467,-20.031160354614258,-0.6594749093055725,-2.4694857597351074,0.26217979192733765,0
57,0.28000879287719727,-0.4029781222343445,-19.669641494750977,-0.5220611095428467,20.031160354614258,0.6594749093055725,2.4694857597351074,-0.26217979192733765,0.0,0.0,0.0,0.0,0.0,0.0,0.0,-0.37977724609285735,0.0590067924253837,-0.3377269029368192,0.22207108740531134,0.07099648013163719,0.09690129450948931,-0.23999257094326243,1.2135051754524833,-0.2202415514282436,-0.0074979804325244455,-2.603855350996318,-0.10888525097573826,2.4681831967212533,0.8264760224235183,1.2134413937687574,-0.2202432315892585,-0.0075118285948192216,-2.6038483821997875,-0.10888392708698907,2.4681821257803174,0.826474908251239,0.00028295959982275044,-0.0006362042078731748,-0.0002663714966595114,-0.0013617237066277442,-4.288361280006363e-05,-0.00022366310054576478,0.0009436186228334858,0.0,0.0,0.0,0.0,0.0,0.0,0.0,-6.378168372589421e-05,-1.6801610148997614e-06,-1.3848162294776041e-05,6.9687965305043065e-06,1.3238887491828777e-06,-1.0709409359321853e-06,-1.1141722792151754e-06,-0.00028295959982275044,0.0006362042078731748,0.0002663714966595114,0.0013617237066277442,4.288361280006363e-05,0.00022366310054576478,-0.0009436186228334858,0.4029781222343445,19.669641494750977,0.5220611095428467,-20.031160354614258,-0.6594749093055725,-2.4694857597351074,0.26217979192733765,0
58,0.2850067615509033,-0.4267818331718445,-19.669641494750977,-0.5458648204803467,20.007356643676758,0.6539817452430725,2.4694857597351074,-0.22098104655742645,0.0,0.0,0.0,0.0,0.0,0.0,0.0,-0.3769988426117981,0.05630456773393287,-0.3311925380530394,0.22579010749913442,0.07153724682744256,0.0972001831174903,-0.24155589915757844,1.213504701114386,-0.22024156017674976,-0.007494971129411692,-2.603853680560463,-0.10888463916382024,2.46818249029384,0.8264714587636272,1.2134413937687574,-0.2202432315892585,-0.0075118285948192216,-2.6038483821997875,-0.10888392708698907,2.4681821257803174,0.826474908251239,0.0011681501181876536,-6.299047694484168e-06,0.00029381335000964304,0.00034158459442720486,0.00011819093704334577,-0.0001181720891287263,-0.0009986706828759974,0.0,0.0,0.0,0.0,0.0,0.0,0.0,-6.330734562864926e-05,-1.6714125087302634e-06,-1.6857465407529686e-05,5.29836067553191e-06,7.120768311663639e-07,-3.645135224772389e-07,3.4494876118840168e-06,-0.0011681501181876536,6.299047694484168e-06,-0.00029381335000964304,-0.00034158459442720486,-0.00011819093704334577,0.0001181720891287263,0.0009986706828759974,0.4267818331718445,19.669641494750977,0.5458648204803467,-20.007356643676758,-0.6539817452430725,-2.4694857597351074,0.22098104655742645,0
59,0.2900063991546631,-0.4267818331718445,-19.669641494750977,-0.5458648204803467,20.007356643676758,0.6539817452430725,2.4694857597351074,-0.22098104655742645,0.0,0.0,0.0,0.0,0.0,0.0,0.0,-0.3769988426117981,0.05630456773393287,-0.3311925380530394,0.22579010749913442,0.07153724682744256,0.0972001831174903,-0.24155589915757844,1.213504701114386,-0.22024156017674976,-0.007494971129411692,-2.603853680560463,-0.10888463916382024,2.46818249029384,0.8264714587636272,1.2134413937687574,-0.2202432315892585,-0.0075118285948192216,-2.6038483821997875,-0.10888392708698907,2.4681821257803174,0.826474908251239,0.0011681501181876536,-6.299047694484168e-06,0.00029381335000964304,0.00034158459442720486,0.00011819093704334577,-0.0001181720891287263,-0.0009986706828759974,0.0,0.0,0.0,0.0,0.0,0.0,0.0,-6.330734562864926e-05,-1.6714125087302634e-06,-1.6857465407529686e-05,5.29836067553191e-06,7.120768311663639e-07,-3.645135224772389e-07,3.4494876118840168e-06,-0.0011681501181876536,6.299047694484168e-06,-0.00029381335000964304,-0.00034158459442720486,-0.00011819093704334577,0.0001181720891287263,0.0009986706828759974,0.4267818331718445,19.669641494750977,0.5458648204803467,-20.007356643676758,-0.6539817452430725,-2.4694857597351074,0.22098104655742645,0
60,0.29500317573547363,-0.3236324191093445,-19.669641494750977,-0.5220611095428467,19.983552932739258,0.6658836007118225,2.4694857597351074,-0.28232139348983765,0.0,0.0,0.0,0.0,0.0,0.0,0.0,-0.3768837536360415,0.05583436886795667,-0.32794780192985595,0.22574152049726903,0.07154057388097311,0.09675915327821177,-0.24081149127842916,1.2134974615657594,-0.22024156017679913,-0.007496651660429983,-2.6038520101246077,-0.10888596159219742,2.4681835499279816,0.8264790811320314,1.2134413937687574,-0.2202432315892585,-0.0075118285948192216,-2.6038483821997875,-0.10888392708698907,2.4681821257803174,0.826474908251239,-0.001828905831465348,-3.288803776521246e-05,0.0001461432340900364,0.0007531354973557541,-0.00034992096056204796,-0.0003084065351386267,0.0019490814460647197,0.0,0.0,0.0,0.0,0.0,0.0,0.0,-5.606779700206843e-05,-1.6714124593530943e-06,-1.5176934389238284e-05,3.6279248201154246e-06,2.0345052083453607e-06,-1.424147664241815e-06,-4.172880792352451e-06,0.001828905831465348,3.288803776521246e-05,-0.0001461432340900364,-0.0007531354973557541,0.00034992096056204796,0.0003084065351386267,-0.0019490814460647197,0.3236324191093445,19.669641494750977,0.5220611095428467,-19.983552932739258,-0.6658836007118225,-2.4694857597351074,0.28232139348983765,0
61,0.30000996589660645,-0.3236324191093445,-19.669641494750977,-0.5220611095428467,19.983552932739258,0.6658836007118225,2.4694857597351074,-0.28232139348983765,0.0,0.0,0.0,0.0,0.0,0.0,0.0,-0.3768837536360415,0.05583436886795667,-0.32794780192985595,0.22574152049726903,0.07154057388097311,0.09675915327821177,-0.24081149127842916,1.2134974615657594,-0.22024156017679913,-0.007496651660429983,-2.6038520101246077,-0.10888596159219742,2.4681835499279816,0.8264790811320314,1.2134413937687574,-0.2202432315892585,-0.0075118285948192216,-2.6038483821997875,-0.10888392708698907,2.4681821257803174,0.826474908251239,-0.001828905831465348,-3.288803776521246e-05,0.0001461432340900364,0.0007531354973557541,-0.00034992096056204796,-0.0003084065351386267,0.0019490814460647197,0.0,0.0,0.0,0.0,0.0,0.0,0.0,-5.606779700206843e-05,-1.6714124593530943e-06,-1.5176934389238284e-05,3.6279248201154246e-06,2.0345052083453607e-06,-1.424147664241815e-06,-4.172880792352451e-06,0.001828905831465348,3.288803776521246e-05,-0.0001461432340900364,-0.0007531354973557541,0.00034992096056204796,0.0003084065351386267,-0.0019490814460647197,0.3236324191093445,19.669641494750977,0.5220611095428467,-19.983552932739258,-0.6658836007118225,-2.4694857597351074,0.28232139348983765,0
62,0.3050084114074707,-0.3752071261405945,-19.693445205688477,-0.5220611095428467,20.007356643676758,0.6594749093055725,2.4566683769226074,-0.22830526530742645,0.0,0.0,0.0,0.0,0.0,0.0,0.0,-0.38173434062396483,0.06584392717955129,-0.3279070086253279,0.22227542316890922,0.07178746146017699,0.0955015378282227,-0.24080654137295265,1.2135010808434403,-0.22023988974094388,-0.007496800350891012,-2.603853680560463,-0.1088852495153745,2.4681849740876087,0.8264730915651544,1.2134413937687574,-0.2202432315892585,-0.0075118285948192216,-2.6038483821997875,-0.10888392708698907,2.4681821257803174,0.826474908251239,-0.00029306081546490317,0.0011319992765874876,2.6263398168013428e-05,-0.00019813256214675556,-0.0002245050120566507,0.00040721110731038734,-0.0005114051832032806,0.0,0.0,0.0,0.0,0.0,0.0,0.0,-5.9687074682956975e-05,-3.3418483146030464e-06,-1.5028243928209492e-05,5.29836067553191e-06,1.3224283854224028e-06,-2.848307291358765e-06,1.8166860846768884e-06,0.00029306081546490317,-0.0011319992765874876,-2.6263398168013428e-05,0.00019813256214675556,0.0002245050120566507,-0.00040721110731038734,0.0005114051832032806,0.3752071261405945,19.693445205688477,0.5220611095428467,-20.007356643676758,-0.6594749093055725,-2.4566683769226074,0.22830526530742645,0
63,0.31000423431396484,-0.3752071261405945,-19.693445205688477,-0.5220611095428467,20.007356643676758,0.6594749093055725,2.4566683769226074,-0.22830526530742645,0.0,0.0,0.0,0.0,0.0,0.0,0.0,-0.38173434062396483,0.06584392717955129,-0.3279070086253279,0.22227542316890922,0.07178746146017699,0.0955015378282227,-0.24080654137295265,1.2135010808434403,-0.22023988974094388,-0.007496800350891012,-2.603853680560463,-0.1088852495153745,2.4681849740876087,0.8264730915651544,1.2134413937687574,-0.2202432315892585,-0.0075118285948192216,-2.6038483821997875,-0.10888392708698907,2.4681821257803174,0.826474908251239,-0.00029306081546490317,0.0011319992765874876,2.6263398168013428e-05,-0.00019813256214675556,-0.0002245050120566507,0.00040721110731038734,-0.0005114051832032806,0.0,0.0,0.0,0.0,0.0,0.0,0.0,-5.9687074682956975e-05,-3.3418483146030464e-06,-1.5028243928209492e-05,5.29836067553191e-06,1.3224283854224028e-06,-2.848307291358765e-06,1.8166860846768884e-06,0.00029306081546490317,-0.0011319992765874876,-2.6263398168013428e-05,0.00019813256214675556,0.0002245050120566507,-0.00040721110731038734,0.0005114051832032806,0.3752071261405945,19.693445205688477,0.5220611095428467,-20.007356643676758,-0.6594749093055725,-2.4566683769226074,0.22830526530742645,0
64,0.31501317024230957,-0.3752071261405945,-19.717248916625977,-0.5458648204803467,20.007356643676758,0.6475730538368225,2.4630770683288574,-0.22830526530742645,0.0,0.0,0.0,0.0,0.0,0.0,0.0,-0.3835846539373297,0.06037195010778118,-0.3275209629007493,0.22748164293149523,0.07158103515989751,0.09513230524603139,-0.24101901940230183,1.2135010808434403,-0.2202382193050886,-0.007494180115779021,-2.603853680560463,-0.10888392708698909,2.468184262010786,0.826472386001167,1.2134413937687574,-0.2202432315892585,-0.0075118285948192216,-2.6038483821997875,-0.10888392708698907,2.4681821257803174,0.826474908251239,0.00016260221065061934,0.0010781859429859686,0.00045466258266455863,0.00014891397230474263,0.00028526687593387996,-0.0001684371197243038,-0.0008419632437261025,0.0,0.0,0.0,0.0,0.0,0.0,0.0,-5.9687074682956975e-05,-5.012284169880754e-06,-1.7648479040200185e-05,5.29836067553191e-06,1.3877787807814457e-17,-2.1362304685190736e-06,2.5222500720234464e-06,-0.00016260221065061934,-0.0010781859429859686,-0.00045466258266455863,-0.00014891397230474263,-0.00028526687593387996,0.0001684371197243038,0.0008419632437261025,0.3752071261405945,19.717248916625977,0.5458648204803467,-20.007356643676758,-0.6475730538368225,-2.4630770683288574,0.22830526530742645,0
65,0.3200225830078125,-0.3752071261405945,-19.717248916625977,-0.5458648204803467,20.007356643676758,0.6475730538368225,2.4630770683288574,-0.22830526530742645,0.0,0.0,0.0,0.0,0.0,0.0,0.0,-0.3835846539373297,0.06037195010778118,-0.3275209629007493,0.22748164293149523,0.07158103515989751,0.09513230524603139,-0.24101901940230183,1.2135010808434403,-0.2202382193050886,-0.007494180115779021,-2.603853680560463,-0.10888392708698909,2.468184262010786,0.826472386001167,1.2134413937687574,-0.2202432315892585,-0.0075118285948192216,-2.6038483821997875,-0.10888392708698907,2.4681821257803174,0.826474908251239,0.00016260221065061934,0.0010781859429859686,0.00045466258266455863,0.00014891397230474263,0.00028526687593387996,-0.0001684371197243038,-0.0008419632437261025,0.0,0.0,0.0,0.0,0.0,0.0,0.0,-5.9687074682956975e-05,-5.012284169880754e-06,-1.7648479040200185e-05,5.29836067553191e-06,1.3877787807814457e-17,-2.1362304685190736e-06,2.5222500720234464e-06,-0.00016260221065061934,-0.0010781859429859686,-0.00045466258266455863,-0.00014891397230474263,-0.00028526687593387996,0.0001684371197243038,0.0008419632437261025,0.3752071261405945,19.717248916625977,0.5458648204803467,-20.007356643676758,-0.6475730538368225,-2.4630770683288574,0.22830526530742645,0
66,0.3250312805175781,-0.3752071261405945,-19.693445205688477,-0.5220611095428467,19.983552932739258,0.6539817452430725,2.4694857597351074,-0.27591270208358765,0.0,0.0,0.0,0.0,0.0,0.0,0.0,-0.3855390552281251,0.060393865452173894,-0.33185186400006966,0.22630004054754266,0.07118325161155023,0.09358302601117563,-0.24163818833338221,1.2135011603163,-0.22023988974094388,-0.0074979811018825015,-2.6038520101246077,-0.108884639163812,2.468183549933963,0.8264786438845156,1.2134413937687574,-0.2202432315892585,-0.0075118285948192216,-2.6038483821997875,-0.10888392708698907,2.4681821257803174,0.826474908251239,-0.0004880459593595391,-1.8077737268833864e-05,-0.0006369882813871963,0.0004438594624625823,-5.064355134611824e-09,-0.00023044741342023123,0.001488732072162404,0.0,0.0,0.0,0.0,0.0,0.0,0.0,-5.976654754258348e-05,-3.3418483146030464e-06,-1.384749293672008e-05,3.6279248201154246e-06,7.120768229229579e-07,-1.4241536456793824e-06,-3.7356332766025346e-06,0.0004880459593595391,1.8077737268833864e-05,0.0006369882813871963,-0.0004438594624625823,5.064355134611824e-09,0.00023044741342023123,-0.001488732072162404,0.3752071261405945,19.693445205688477,0.5220611095428467,-19.983552932739258,-0.6539817452430725,-2.4694857597351074,0.27591270208358765,0
67,0.33000802993774414,-0.3752071261405945,-19.693445205688477,-0.5220611095428467,19.983552932739258,0.6539817452430725,2.4694857597351074,-0.27591270208358765,0.0,0.0,0.0,0.0,0.0,0.0,0.0,-0.3855390552281251,0.060393865452173894,-0.33185186400006966,0.22630004054754266,0.07118325161155023,0.09358302601117563,-0.24163818833338221,1.2135011603163,-0.22023988974094388,-0.0074979811018825015,-2.6038520101246077,-0.108884639163812,2.468183549933963,0.8264786438845156,1.2134413937687574,-0.2202432315892585,-0.0075118285948192216,-2.6038483821997875,-0.10888392708698907,2.4681821257803174,0.826474908251239,-0.0004880459593595391,-1.8077737268833864e-05,-0.0006369882813871963,0.0004438594624625823,-5.064355134611824e-09,-0.00023044741342023123,0.001488732072162404,0.0,0.0,0.0,0.0,0.0,0.0,0.0,-5.976654754258348e-05,-3.3418483146030464e-06,-1.384749293672008e-05,3.6279248201154246e-06,7.120768229229579e-07,-1.4241536456793824e-06,-3.7356332766025346e-06,0.0004880459593595391,1.8077737268833864e-05,0.0006369882813871963,-0.0004438594624625823,5.064355134611824e-09,0.00023044741342023123,-0.001488732072162404,0.3752071261405945,19.693445205688477,0.5220611095428467,-19.983552932739258,-0.6539817452430725,-2.4694857597351074,0.27591270208358765,0
68,0.33503222465515137,-0.4029781222343445,-19.693445205688477,-0.5458648204803467,19.955781936645508,0.6594749093055725,2.4566683769226074,-0.25485557317733765,0.0,0.0,0.0,0.0,0.0,0.0,0.0,-0.3790041803479251,0.05756218725315332,-0.32813018116747183,0.2248523109390514,0.07030188754577922,0.09313519918408661,-0.24232222566802605,1.2135037449423545,-0.22023988974094388,-0.007496344762723122,-2.6038500612827766,-0.1088852495153745,2.4681849739261033,0.8264763176303673,1.2134413937687574,-0.2202432315892585,-0.0075118285948192216,-2.6038483821997875,-0.10888392708698907,2.4681821257803174,0.826474908251239,0.0008817482370398229,-0.00010458666811399492,0.0003057619120213994,0.0010959883259574759,-0.00026016620118905325,0.00010950895157802164,0.00028995755383775016,0.0,0.0,0.0,0.0,0.0,0.0,0.0,-6.235117359709719e-05,-3.3418483146030464e-06,-1.5483832096099652e-05,1.679082989092251e-06,1.3224283854224028e-06,-2.848145785883105e-06,-1.4093791282920876e-06,-0.0008817482370398229,0.00010458666811399492,-0.0003057619120213994,-0.0010959883259574759,0.00026016620118905325,-0.00010950895157802164,-0.00028995755383775016,0.4029781222343445,19.693445205688477,0.5458648204803467,-19.955781936645508,-0.6594749093055725,-2.4566683769226074,0.25485557317733765,0
69,0.34002137184143066,-0.4029781222343445,-19.693445205688477,-0.5458648204803467,19.955781936645508,0.6594749093055725,2.4566683769226074,-0.25485557317733765,0.0,0.0,0.0,0.0,0.0,0.0,0.0,-0.3790041803479251,0.05756218725315332,-0.32813018116747183,0.2248523109390514,0.07030188754577922,0.09313519918408661,-0.24232222566802605,1.2135037449423545,-0.22023988974094388,-0.007496344762723122,-2.6038500612827766,-0.1088852495153745,2.4681849739261033,0.8264763176303673,1.2134413937687574,-0.2202432315892585,-0.0075118285948192216,-2.6038483821997875,-0.10888392708698907,2.4681821257803174,0.826474908251239,0.0008817482370398229,-0.00010458666811399492,0.0003057619120213994,0.0010959883259574759,-0.00026016620118905325,0.00010950895157802164,0.00028995755383775016,0.0,0.0,0.0,0.0,0.0,0.0,0.0,-6.235117359709719e-05,-3.3418483146030464e-06,-1.5483832096099652e-05,1.679082989092251e-06,1.3224283854224028e-06,-2.848145785883105e-06,-1.4093791282920876e-06,-0.0008817482370398229,0.00010458666811399492,-0.0003057619120213994,-0.0010959883259574759,0.00026016620118905325,-0.00010950895157802164,-0.00028995755383775016,0.4029781222343445,19.693445205688477,0.5458648204803467,-19.955781936645508,-0.6594749093055725,-2.4566683769226074,0.25485557317733765,0
70,0.3450314998626709,-0.4029781222343445,-19.717248916625977,-0.5220611095428467,20.007356643676758,0.6594749093055725,2.4630770683288574,-0.24112264811992645,0.0,0.0,0.0,0.0,0.0,0.0,0.0,-0.3821604601793994,0.05549074786273513,-0.3309222166920574,0.22264528345949455,0.07014554575757219,0.0915547818307873,-0.24249574128012652,1.2135030296866172,-0.2202382193050886,-0.007496562587710374,-2.603853680560463,-0.1088852495153745,2.468184262010786,0.8264745545480263,1.2134413937687574,-0.2202432315892585,-0.0075118285948192216,-2.6038483821997875,-0.10888392708698907,2.4681821257803174,0.826474908251239,0.0003020275705831694,0.00030468972972002895,-2.9309105784667074e-05,-8.574046607580228e-05,5.657037151130552e-05,-3.5468365419567916e-05,-0.0003038102290140403,0.0,0.0,0.0,0.0,0.0,0.0,0.0,-6.16359178597925e-05,-5.012284169880754e-06,-1.5266007108847256e-05,5.29836067553191e-06,1.3224283854224028e-06,-2.1362304685190736e-06,3.5370321271877003e-07,-0.0003020275705831694,-0.00030468972972002895,2.9309105784667074e-05,8.574046607580228e-05,-5.657037151130552e-05,3.5468365419567916e-05,0.0003038102290140403,0.4029781222343445,19.717248916625977,0.5220611095428467,-20.007356643676758,-0.6594749093055725,-2.4630770683288574,0.24112264811992645,0
71,0.350020170211792,-0.4029781222343445,-19.717248916625977,-0.5220611095428467,20.007356643676758,0.6594749093055725,2.4630770683288574,-0.24112264811992645,0.0,0.0,0.0,0.0,0.0,0.0,0.0,-0.3821604601793994,0.05549074786273513,-0.3309222166920574,0.22264528345949455,0.07014554575757219,0.0915547818307873,-0.24249574128012652,1.2135030296866172,-0.2202382193050886,-0.007496562587710374,-2.603853680560463,-0.1088852495153745,2.468184262010786,0.8264745545480263,1.2134413937687574,-0.2202432315892585,-0.0075118285948192216,-2.6038483821997875,-0.10888392708698907,2.4681821257803174,0.826474908251239,0.0003020275705831694,0.00030468972972002895,-2.9309105784667074e-05,-8.574046607580228e-05,5.657037151130552e-05,-3.5468365419567916e-05,-0.0003038102290140403,0.0,0.0,0.0,0.0,0.0,0.0,0.0,-6.16359178597925e-05,-5.012284169880754e-06,-1.5266007108847256e-05,5.29836067553191e-06,1.3224283854224028e-06,-2.1362304685190736e-06,3.5370321271877003e-07,-0.0003020275705831694,-0.00030468972972002895,2.9309105784667074e-05,8.574046607580228e-05,-5.657037151130552e-05,3.5468365419567916e-05,0.0003038102290140403,0.4029781222343445,19.717248916625977,0.5220611095428467,-20.007356643676758,-0.6594749093055725,-2.4630770683288574,0.24112264811992645,0
72,0.35503315925598145,-0.3752071261405945,-19.669641494750977,-0.5220611095428467,20.054964065551758,0.6539817452430725,2.4694857597351074,-0.26217979192733765,0.0,0.0,0.0,0.0,0.0,0.0,0.0,-0.38419608138960154,0.05586102457177925,-0.32734042802823765,0.22077301095597132,0.0709773883027055,0.09086478940093336,-0.2412906002480739,1.2135010808434403,-0.22024156017679913,-0.007496796778354707,-2.6038570214321735,-0.108884639163812,2.468183549933963,0.8264799164170462,1.2134413937687574,-0.2202432315892585,-0.0075118285948192216,-2.6038483821997875,-0.10888392708698907,2.4681821257803174,0.826474908251239,4.552916790754293e-05,-0.0004878475921999315,-0.0004423352542589413,-0.001137133177145309,0.00010217771264249583,-6.422672048075483e-05,0.0014142095790059261,0.0,0.0,0.0,0.0,0.0,0.0,0.0,-5.9687074682956975e-05,-1.6714124593530943e-06,-1.5031816464514472e-05,8.639232385920792e-06,7.120768229229579e-07,-1.4241536456793824e-06,-5.008165807174336e-06,-4.552916790754293e-05,0.0004878475921999315,0.0004423352542589413,0.001137133177145309,-0.00010217771264249583,6.422672048075483e-05,-0.0014142095790059261,0.3752071261405945,19.669641494750977,0.5220611095428467,-20.054964065551758,-0.6539817452430725,-2.4694857597351074,0.26217979192733765,0
73,0.36002159118652344,-0.3752071261405945,-19.669641494750977,-0.5220611095428467,20.054964065551758,0.6539817452430725,2.4694857597351074,-0.26217979192733765,0.0,0.0,0.0,0.0,0.0,0.0,0.0,-0.38419608138960154,0.05586102457177925,-0.32734042802823765,0.22077301095597132,0.0709773883027055,0.09086478940093336,-0.2412906002480739,1.2135010808434403,-0.22024156017679913,-0.007496796778354707,-2.6038570214321735,-0.108884639163812,2.468183549933963,0.8264799164170462,1.2134413937687574,-0.2202432315892585,-0.0075118285948192216,-2.6038483821997875,-0.10888392708698907,2.4681821257803174,0.826474908251239,4.552916790754293e-05,-0.0004878475921999315,-0.0004423352542589413,-0.001137133177145309,0.00010217771264249583,-6.422672048075483e-05,0.0014142095790059261,0.0,0.0,0.0,0.0,0.0,0.0,0.0,-5.9687074682956975e-05,-1.6714124593530943e-06,-1.5031816464514472e-05,8.639232385920792e-06,7.120768229229579e-07,-1.4241536456793824e-06,-5.008165807174336e-06,-4.552916790754293e-05,0.0004878475921999315,0.0004423352542589413,0.001137133177145309,-0.00010217771264249583,6.422672048075483e-05,-0.0014142095790059261,0.3752071261405945,19.669641494750977,0.5220611095428467,-20.054964065551758,-0.6539817452430725,-2.4694857597351074,0.26217979192733765,0
74,0.3650338649749756,-0.3752071261405945,-19.693445205688477,-0.4982573688030243,19.983552932739258,0.6475730538368225,2.4694857597351074,-0.20724813640117645,0.0,0.0,0.0,0.0,0.0,0.0,0.0,-0.3843766411466526,0.054121925296511574,-0.3305971300126944,0.2227240964555641,0.07135980540270769,0.09197395357896795,-0.24028499709573323,1.2135010808434403,-0.22023988974094388,-0.0074997332328859325,-2.6038520101246077,-0.10888392708698909,2.468183549933963,0.8264700361087701,1.2134413937687574,-0.2202432315892585,-0.0075118285948192216,-2.6038483821997875,-0.10888392708698907,2.4681821257803174,0.826474908251239,-0.00013951350658288606,0.0007041870174034221,-0.0008322558781683802,0.0005430997528568072,0.0002999381819373068,-1.0723427858482873e-05,-0.0015312887357451668,0.0,0.0,0.0,0.0,0.0,0.0,0.0,-5.9687074682956975e-05,-3.3418483146030464e-06,-1.2095361933289056e-05,3.6279248201154246e-06,1.3877787807814457e-17,-1.4241536456793824e-06,4.872142468914653e-06,0.00013951350658288606,-0.0007041870174034221,0.0008322558781683802,-0.0005430997528568072,-0.0002999381819373068,1.0723427858482873e-05,0.0015312887357451668,0.3752071261405945,19.693445205688477,0.4982573688030243,-19.983552932739258,-0.6475730538368225,-2.4694857597351074,0.20724813640117645,0
75,0.3700075149536133,-0.3752071261405945,-19.693445205688477,-0.4982573688030243,19.983552932739258,0.6475730538368225,2.4694857597351074,-0.20724813640117645,0.0,0.0,0.0,0.0,0.0,0.0,0.0,-0.3843766411466526,0.054121925296511574,-0.3305971300126944,0.2227240964555641,0.07135980540270769,0.09197395357896795,-0.24028499709573323,1.2135010808434403,-0.22023988974094388,-0.0074997332328859325,-2.6038520101246077,-0.10888392708698909,2.468183549933963,0.8264700361087701,1.2134413937687574,-0.2202432315892585,-0.0075118285948192216,-2.6038483821997875,-0.10888392708698907,2.4681821257803174,0.826474908251239,-0.00013951350658288606,0.0007041870174034221,-0.0008322558781683802,0.0005430997528568072,0.0002999381819373068,-1.0723427858482873e-05,-0.0015312887357451668,0.0,0.0,0.0,0.0,0.0,0.0,0.0,-5.9687074682956975e-05,-3.3418483146030464e-06,-1.2095361933289056e-05,3.6279248201154246e-06,1.3877787807814457e-17,-1.4241536456793824e-06,4.872142468914653e-06,0.00013951350658288606,-0.0007041870174034221,0.0008322558781683802,-0.0005430997528568072,-0.0002999381819373068,1.0723427858482873e-05,0.0015312887357451668,0.3752071261405945,19.693445205688477,0.4982573688030243,-19.983552932739258,-0.6475730538368225,-2.4694857597351074,0.20724813640117645,0
76,0.3750331401824951,-0.4029781222343445,-19.645837783813477,-0.5220611095428467,19.983552932739258,0.6539817452430725,2.4758944511413574,-0.22098104655742645,0.0,0.0,0.0,0.0,0.0,0.0,0.0,-0.38418325836297285,0.05818410391823582,-0.33285069287968805,0.22321970983472897,0.0714444651707579,0.09251048667657176,-0.24078305617920379,1.2135030296852714,-0.2202432306126544,-0.007498068972089272,-2.6038520101246077,-0.108884639163812,2.46818283785714,0.826471576571624,1.2134413937687574,-0.2202432315892585,-0.0075118285948192216,-2.6038483821997875,-0.10888392708698907,2.4681821257803174,0.826474908251239,0.00040930110509655005,-0.00024774718535043404,-0.00045281910631638867,0.000548469165215873,0.00016032960233655194,-0.0002412503684779538,-0.0006014926551046715,0.0,0.0,0.0,0.0,0.0,0.0,0.0,-6.163591651398015e-05,-9.76604075386689e-10,-1.3759622729949544e-05,3.6279248201154246e-06,7.120768229229579e-07,-7.120768228396912e-07,3.3316796150817396e-06,-0.00040930110509655005,0.00024774718535043404,0.00045281910631638867,-0.000548469165215873,-0.00016032960233655194,0.0002412503684779538,0.0006014926551046715,0.4029781222343445,19.645837783813477,0.5220611095428467,-19.983552932739258,-0.6539817452430725,-2.4758944511413574,0.22098104655742645,0
77,0.3800187110900879,-0.4029781222343445,-19.645837783813477,-0.5220611095428467,19.983552932739258,0.6539817452430725,2.4758944511413574,-0.22098104655742645,0.0,0.0,0.0,0.0,0.0,0.0,0.0,-0.38418325836297285,0.05818410391823582,-0.33285069287968805,0.22321970983472897,0.0714444651707579,0.09251048667657176,-0.24078305617920379,1.2135030296852714,-0.2202432306126544,-0.007498068972089272,-2.6038520101246077,-0.108884639163812,2.46818283785714,0.826471576571624,1.2134413937687574,-0.2202432315892585,-0.0075118285948192216,-2.6038483821997875,-0.10888392708698907,2.4681821257803174,0.826474908251239,0.00040930110509655005,-0.00024774718535043404,-0.00045281910631638867,0.000548469165215873,0.00016032960233655194,-0.0002412503684779538,-0.0006014926551046715,0.0,0.0,0.0,0.0,0.0,0.0,0.0,-6.163591651398015e-05,-9.76604075386689e-10,-1.3759622729949544e-05,3.6279248201154246e-06,7.120768229229579e-07,-7.120768228396912e-07,3.3316796150817396e-06,-0.00040930110509655005,0.00024774718535043404,0.00045281910631638867,-0.000548469165215873,-0.00016032960233655194,0.0002412503684779538,0.0006014926551046715,0.4029781222343445,19.645837783813477,0.5220611095428467,-19.983552932739258,-0.6539817452430725,-2.4758944511413574,0.22098104655742645,0
78,0.385023832321167,-0.4267818331718445,-19.645837783813477,-0.5220611095428467,20.007356643676758,0.6713767647743225,2.4694857597351074,-0.21457235515117645,0.0,0.0,0.0,0.0,0.0,0.0,0.0,-0.3862159541984018,0.061140584923164376,-0.33666305935941865,0.2232154676672327,0.07169265360050174,0.09557053841652506,-0.2397808060703607,1.2135047001211268,-0.2202432306126544,-0.007496885041303931,-2.603853680560463,-0.10888657194375992,2.468183549933963,0.826470850048458,1.2134413937687574,-0.2202432315892585,-0.0075118285948192216,-2.6038483821997875,-0.10888392708698907,2.4681821257803174,0.826474908251239,0.0005443861688727733,-0.00031167199495450395,-0.0005397677897621706,-0.0005135106633227997,-0.0005699159477458926,-5.425377244523555e-06,-0.001348899877474521,0.0,0.0,0.0,0.0,0.0,0.0,0.0,-6.330635236939663e-05,-9.76604075386689e-10,-1.4943553515290794e-05,5.29836067553191e-06,2.6448567708448056e-06,-1.4241536456793824e-06,4.058202781043185e-06,-0.0005443861688727733,0.00031167199495450395,0.0005397677897621706,0.0005135106633227997,0.0005699159477458926,5.425377244523555e-06,0.001348899877474521,0.4267818331718445,19.645837783813477,0.5220611095428467,-20.007356643676758,-0.6713767647743225,-2.4694857597351074,0.21457235515117645,0
79,0.3900148868560791,-0.4267818331718445,-19.645837783813477,-0.5220611095428467,20.007356643676758,0.6713767647743225,2.4694857597351074,-0.21457235515117645,0.0,0.0,0.0,0.0,0.0,0.0,0.0,-0.3862159541984018,0.061140584923164376,-0.33666305935941865,0.2232154676672327,0.07169265360050174,0.09557053841652506,-0.2397808060703607,1.2135047001211268,-0.2202432306126544,-0.007496885041303931,-2.603853680560463,-0.10888657194375992,2.468183549933963,0.826470850048458,1.2134413937687574,-0.2202432315892585,-0.0075118285948192216,-2.6038483821997875,-0.10888392708698907,2.4681821257803174,0.826474908251239,0.0005443861688727733,-0.00031167199495450395,-0.0005397677897621706,-0.0005135106633227997,-0.0005699159477458926,-5.425377244523555e-06,-0.001348899877474521,0.0,0.0,0.0,0.0,0.0,0.0,0.0,-6.330635236939663e-05,-9.76604075386689e-10,-1.4943553515290794e-05,5.29836067553191e-06,2.6448567708448056e-06,-1.4241536456793824e-06,4.058202781043185e-06,-0.0005443861688727733,0.00031167199495450395,0.0005397677897621706,0.0005135106633227997,0.0005699159477458926,5.425377244523555e-06,0.001348899877474521,0.4267818331718445,19.645837783813477,0.5220611095428467,-20.007356643676758,-0.6713767647743225,-2.4694857597351074,0.21457235515117645,0
