rezayati/contactInterpretation/dataset/franka_main/labeled_data/link2/f1_5.csv
index,time,tau_J0,tau_J1,tau_J2,tau_J3,tau_J4,tau_J5,tau_J6,tau_J_d0,tau_J_d1,tau_J_d2,tau_J_d3,tau_J_d4,tau_J_d5,tau_J_d6,tau_ext0,tau_ext1,tau_ext2,tau_ext3,tau_ext4,tau_ext5,tau_ext6,q0,q1,q2,q3,q4,q5,q6,q_d0,q_d1,q_d2,q_d3,q_d4,q_d5,q_d6,dq0,dq1,dq2,dq3,dq4,dq5,dq6,dq_d0,dq_d1,dq_d2,dq_d3,dq_d4,dq_d5,dq_d6,e0,e1,e2,e3,e4,e5,e6,de0,de1,de2,de3,de4,de5,de6,etau_J0,etau_J1,etau_J2,etau_J3,etau_J4,etau_J5,etau_J6,label
1,0.0,-0.7838374972343445,-46.52419662475586,-5.635891437530518,19.559053421020508,0.7491965889930725,2.4173007011413574,-0.16604940593242645,0.0,0.0,0.0,0.0,0.0,0.0,0.0,-0.8179566235767564,-0.1523452815597439,-0.44522196291947935,0.3919319258786899,0.156920291997115,0.14882828252174435,-0.14654675242847218,0.8780776530930006,0.7554712807755051,-0.2825504625904213,-1.6690974129459313,0.1414073196848233,2.4034458425264136,1.027344556959139,0.878092876070424,0.7554597494309409,-0.2825552651693207,-1.6690993614607135,0.1414185955172306,2.4034451173676383,1.0273381002308042,-0.00116852855947375,0.0010221620029677362,0.0004467122938753087,0.0008674483231550654,-0.00036407033624371443,-8.206283628998547e-06,0.0009869606607343304,0.0,0.0,0.0,0.0,0.0,0.0,0.0,1.5222977423401396e-05,-1.1531344564219559e-05,-4.802578899398835e-06,-1.9485147821907134e-06,1.1275832407287023e-05,-7.251587752499233e-07,-6.456728334880424e-06,0.00116852855947375,-0.0010221620029677362,-0.0004467122938753087,-0.0008674483231550654,0.00036407033624371443,8.206283628998547e-06,-0.0009869606607343304,0.7838374972343445,46.52419662475586,5.635891437530518,-19.559053421020508,-0.7491965889930725,-2.4173007011413574,0.16604940593242645,0
2,0.0050013065338134766,-0.8354122042655945,-46.52419662475586,-5.588284015655518,19.658235549926758,0.7491965889930725,2.4237093925476074,-0.11844198405742645,0.0,0.0,0.0,0.0,0.0,0.0,0.0,-0.8244302600145487,-0.16031390456632408,-0.4498716678253151,0.39551213487306014,0.15743660838859172,0.1496803278228205,-0.14731605032322917,0.8780837104694678,0.7554715986652165,-0.2825560257547434,-1.669104373095328,0.1414073196848233,2.403445117367712,1.0273392672455972,0.878092876070424,0.7554597494309409,-0.2825552651693207,-1.6690993614607135,0.1414185955172306,2.4034451173676383,1.0273381002308042,0.00024002743911347168,0.0005969464539216999,-0.0011363052376704313,-0.0015804830473180262,-0.0003866090168217261,-0.000406015683457614,-0.005094471648786084,0.0,0.0,0.0,0.0,0.0,0.0,0.0,9.165600956206887e-06,-1.1849234275662646e-05,7.605854226988562e-07,5.011634614637828e-06,1.1275832407287023e-05,-7.37188088351104e-14,-1.1670147930242791e-06,-0.00024002743911347168,-0.0005969464539216999,0.0011363052376704313,0.0015804830473180262,0.0003866090168217261,0.000406015683457614,0.005094471648786084,0.8354122042655945,46.52419662475586,5.588284015655518,-19.658235549926758,-0.7491965889930725,-2.4237093925476074,0.11844198405742645,0
3,0.009996652603149414,-0.8354122042655945,-46.52419662475586,-5.588284015655518,19.658235549926758,0.7491965889930725,2.4237093925476074,-0.11844198405742645,0.0,0.0,0.0,0.0,0.0,0.0,0.0,-0.8244302600145487,-0.16031390456632408,-0.4498716678253151,0.39551213487306014,0.15743660838859172,0.1496803278228205,-0.14731605032322917,0.8780837104694678,0.7554715986652165,-0.2825560257547434,-1.669104373095328,0.1414073196848233,2.403445117367712,1.0273392672455972,0.878092876070424,0.7554597494309409,-0.2825552651693207,-1.6690993614607135,0.1414185955172306,2.4034451173676383,1.0273381002308042,0.00024002743911347168,0.0005969464539216999,-0.0011363052376704313,-0.0015804830473180262,-0.0003866090168217261,-0.000406015683457614,-0.005094471648786084,0.0,0.0,0.0,0.0,0.0,0.0,0.0,9.165600956206887e-06,-1.1849234275662646e-05,7.605854226988562e-07,5.011634614637828e-06,1.1275832407287023e-05,-7.37188088351104e-14,-1.1670147930242791e-06,-0.00024002743911347168,-0.0005969464539216999,0.0011363052376704313,0.0015804830473180262,0.0003866090168217261,0.000406015683457614,0.005094471648786084,0.8354122042655945,46.52419662475586,5.588284015655518,-19.658235549926758,-0.7491965889930725,-2.4237093925476074,0.11844198405742645,0
4,0.014994382858276367,-0.8354122042655945,-46.52419662475586,-5.588284015655518,19.658235549926758,0.7491965889930725,2.4237093925476074,-0.11844198405742645,0.0,0.0,0.0,0.0,0.0,0.0,0.0,-0.8244302600145487,-0.16031390456632408,-0.4498716678253151,0.39551213487306014,0.15743660838859172,0.1496803278228205,-0.14731605032322917,0.8780837104694678,0.7554715986652165,-0.2825560257547434,-1.669104373095328,0.1414073196848233,2.403445117367712,1.0273392672455972,0.878092876070424,0.7554597494309409,-0.2825552651693207,-1.6690993614607135,0.1414185955172306,2.4034451173676383,1.0273381002308042,0.00024002743911347168,0.0005969464539216999,-0.0011363052376704313,-0.0015804830473180262,-0.0003866090168217261,-0.000406015683457614,-0.005094471648786084,0.0,0.0,0.0,0.0,0.0,0.0,0.0,9.165600956206887e-06,-1.1849234275662646e-05,7.605854226988562e-07,5.011634614637828e-06,1.1275832407287023e-05,-7.37188088351104e-14,-1.1670147930242791e-06,-0.00024002743911347168,-0.0005969464539216999,0.0011363052376704313,0.0015804830473180262,0.0003866090168217261,0.000406015683457614,0.005094471648786084,0.8354122042655945,46.52419662475586,5.588284015655518,-19.658235549926758,-0.7491965889930725,-2.4237093925476074,0.11844198405742645,0
5,0.019997596740722656,-0.8354122042655945,-46.52419662475586,-5.588284015655518,19.658235549926758,0.7491965889930725,2.4237093925476074,-0.11844198405742645,0.0,0.0,0.0,0.0,0.0,0.0,0.0,-0.8244302600145487,-0.16031390456632408,-0.4498716678253151,0.39551213487306014,0.15743660838859172,0.1496803278228205,-0.14731605032322917,0.8780837104694678,0.7554715986652165,-0.2825560257547434,-1.669104373095328,0.1414073196848233,2.403445117367712,1.0273392672455972,0.878092876070424,0.7554597494309409,-0.2825552651693207,-1.6690993614607135,0.1414185955172306,2.4034451173676383,1.0273381002308042,0.00024002743911347168,0.0005969464539216999,-0.0011363052376704313,-0.0015804830473180262,-0.0003866090168217261,-0.000406015683457614,-0.005094471648786084,0.0,0.0,0.0,0.0,0.0,0.0,0.0,9.165600956206887e-06,-1.1849234275662646e-05,7.605854226988562e-07,5.011634614637828e-06,1.1275832407287023e-05,-7.37188088351104e-14,-1.1670147930242791e-06,-0.00024002743911347168,-0.0005969464539216999,0.0011363052376704313,0.0015804830473180262,0.0003866090168217261,0.000406015683457614,0.005094471648786084,0.8354122042655945,46.52419662475586,5.588284015655518,-19.658235549926758,-0.7491965889930725,-2.4237093925476074,0.11844198405742645,0
6,0.024950504302978516,-0.8354122042655945,-46.52419662475586,-5.588284015655518,19.658235549926758,0.7491965889930725,2.4237093925476074,-0.11844198405742645,0.0,0.0,0.0,0.0,0.0,0.0,0.0,-0.8244302600145487,-0.16031390456632408,-0.4498716678253151,0.39551213487306014,0.15743660838859172,0.1496803278228205,-0.14731605032322917,0.8780837104694678,0.7554715986652165,-0.2825560257547434,-1.669104373095328,0.1414073196848233,2.403445117367712,1.0273392672455972,0.878092876070424,0.7554597494309409,-0.2825552651693207,-1.6690993614607135,0.1414185955172306,2.4034451173676383,1.0273381002308042,0.00024002743911347168,0.0005969464539216999,-0.0011363052376704313,-0.0015804830473180262,-0.0003866090168217261,-0.000406015683457614,-0.005094471648786084,0.0,0.0,0.0,0.0,0.0,0.0,0.0,9.165600956206887e-06,-1.1849234275662646e-05,7.605854226988562e-07,5.011634614637828e-06,1.1275832407287023e-05,-7.37188088351104e-14,-1.1670147930242791e-06,-0.00024002743911347168,-0.0005969464539216999,0.0011363052376704313,0.0015804830473180262,0.0003866090168217261,0.000406015683457614,0.005094471648786084,0.8354122042655945,46.52419662475586,5.588284015655518,-19.658235549926758,-0.7491965889930725,-2.4237093925476074,0.11844198405742645,0
7,0.030004501342773438,-0.8076412081718445,-46.44881820678711,-5.612087726593018,19.586824417114258,0.7308860421180725,2.4044833183288574,-0.16604940593242645,0.0,0.0,0.0,0.0,0.0,0.0,0.0,-0.8184277590040399,-0.15517881321530688,-0.44481837874270463,0.3953147142175041,0.1576082261241618,0.14896463414700659,-0.14627891897266843,0.8780795560183839,0.7554663089534692,-0.28255221278597553,-1.6690993617877623,0.14140935419003167,2.4034472535981073,1.027344556959139,0.878092876070424,0.7554597494309409,-0.2825552651693207,-1.6690993614607135,0.1414185955172306,2.4034451173676383,1.0273381002308042,-0.00017404212584019768,-0.00030011184348495185,-0.0005462157118161629,0.00032234538231779925,0.00040674769595359293,0.0003230404403868967,0.0009637727420792143,0.0,0.0,0.0,0.0,0.0,0.0,0.0,1.332005204002229e-05,-6.559522528370998e-06,-3.052383345192311e-06,3.2704883246026384e-10,9.241327198927785e-06,-2.136230468963163e-06,-6.456728334880424e-06,0.00017404212584019768,0.00030011184348495185,0.0005462157118161629,-0.00032234538231779925,-0.00040674769595359293,-0.0003230404403868967,-0.0009637727420792143,0.8076412081718445,46.44881820678711,5.612087726593018,-19.586824417114258,-0.7308860421180725,-2.4044833183288574,0.16604940593242645,0
8,0.03495979309082031,-0.8076412081718445,-46.44881820678711,-5.612087726593018,19.586824417114258,0.7308860421180725,2.4044833183288574,-0.16604940593242645,0.0,0.0,0.0,0.0,0.0,0.0,0.0,-0.8184277590040399,-0.15517881321530688,-0.44481837874270463,0.3953147142175041,0.1576082261241618,0.14896463414700659,-0.14627891897266843,0.8780795560183839,0.7554663089534692,-0.28255221278597553,-1.6690993617877623,0.14140935419003167,2.4034472535981073,1.027344556959139,0.878092876070424,0.7554597494309409,-0.2825552651693207,-1.6690993614607135,0.1414185955172306,2.4034451173676383,1.0273381002308042,-0.00017404212584019768,-0.00030011184348495185,-0.0005462157118161629,0.00032234538231779925,0.00040674769595359293,0.0003230404403868967,0.0009637727420792143,0.0,0.0,0.0,0.0,0.0,0.0,0.0,1.332005204002229e-05,-6.559522528370998e-06,-3.052383345192311e-06,3.2704883246026384e-10,9.241327198927785e-06,-2.136230468963163e-06,-6.456728334880424e-06,0.00017404212584019768,0.00030011184348495185,0.0005462157118161629,-0.00032234538231779925,-0.00040674769595359293,-0.0003230404403868967,-0.0009637727420792143,0.8076412081718445,46.44881820678711,5.612087726593018,-19.586824417114258,-0.7308860421180725,-2.4044833183288574,0.16604940593242645,0
9,0.03995037078857422,-0.8354122042655945,-46.50039291381836,-5.612087726593018,19.610628128051758,0.7610984444618225,2.4173007011413574,-0.15231649577617645,0.0,0.0,0.0,0.0,0.0,0.0,0.0,-0.8208777791167791,-0.15669343511346884,-0.4485823075964939,0.39861905012364146,0.1573983702443376,0.14889939376000721,-0.1456443497868777,0.8780813553923328,0.7554676908902782,-0.28255284627981175,-1.6691010057326643,0.14140599286853311,2.4034458294444616,1.0273430310802327,0.878092876070424,0.7554597494309409,-0.2825552651693207,-1.6690993614607135,0.1414185955172306,2.4034451173676383,1.0273381002308042,0.000491500116024024,0.0005579880315594957,-0.0004265617217417457,-0.00044354567315157956,-0.0005864240937671029,-9.213503702941702e-05,0.001006426197869031,0.0,0.0,0.0,0.0,0.0,0.0,0.0,1.1520678091181402e-05,-7.941459337357237e-06,-2.418889508970512e-06,1.6442719508180659e-06,1.2602648697485064e-05,-7.120768232837804e-07,-4.930849428541606e-06,-0.000491500116024024,-0.0005579880315594957,0.0004265617217417457,0.00044354567315157956,0.0005864240937671029,9.213503702941702e-05,-0.001006426197869031,0.8354122042655945,46.50039291381836,5.612087726593018,-19.610628128051758,-0.7610984444618225,-2.4173007011413574,0.15231649577617645,0
10,0.04499316215515137,-0.8354122042655945,-46.50039291381836,-5.612087726593018,19.610628128051758,0.7610984444618225,2.4173007011413574,-0.15231649577617645,0.0,0.0,0.0,0.0,0.0,0.0,0.0,-0.8208777791167791,-0.15669343511346884,-0.4485823075964939,0.39861905012364146,0.1573983702443376,0.14889939376000721,-0.1456443497868777,0.8780813553923328,0.7554676908902782,-0.28255284627981175,-1.6691010057326643,0.14140599286853311,2.4034458294444616,1.0273430310802327,0.878092876070424,0.7554597494309409,-0.2825552651693207,-1.6690993614607135,0.1414185955172306,2.4034451173676383,1.0273381002308042,0.000491500116024024,0.0005579880315594957,-0.0004265617217417457,-0.00044354567315157956,-0.0005864240937671029,-9.213503702941702e-05,0.001006426197869031,0.0,0.0,0.0,0.0,0.0,0.0,0.0,1.1520678091181402e-05,-7.941459337357237e-06,-2.418889508970512e-06,1.6442719508180659e-06,1.2602648697485064e-05,-7.120768232837804e-07,-4.930849428541606e-06,-0.000491500116024024,-0.0005579880315594957,0.0004265617217417457,0.00044354567315157956,0.0005864240937671029,9.213503702941702e-05,-0.001006426197869031,0.8354122042655945,46.50039291381836,5.612087726593018,-19.610628128051758,-0.7610984444618225,-2.4173007011413574,0.15231649577617645,0
11,0.04999542236328125,-0.8076412081718445,-46.47658920288086,-5.612087726593018,19.610628128051758,0.7372947335243225,2.4044833183288574,-0.12485067546367645,0.0,0.0,0.0,0.0,0.0,0.0,0.0,-0.8166498711853027,-0.15258215013113277,-0.4445199380565866,0.39802314870637534,0.15752004905840017,0.14864115982424156,-0.1438279559878856,0.8780807565344488,0.7554682479712064,-0.28255213102765053,-1.669100793804889,0.1414086377252792,2.4034472535981073,1.0273399793224203,0.878092876070424,0.7554597494309409,-0.2825552651693207,-1.6690993614607135,0.1414185955172306,2.4034451173676383,1.0273381002308042,-0.00026396043652790425,-0.00012745025123825403,-0.00014648010426076847,-0.0003388529125090058,0.0001788073378053435,0.00018191935836890408,-0.0006671889190057491,0.0,0.0,0.0,0.0,0.0,0.0,0.0,1.2119535975130269e-05,-8.498540265522436e-06,-3.134141670191326e-06,1.4323441754893196e-06,9.957791951398232e-06,-2.136230468963163e-06,-1.879091616086015e-06,0.00026396043652790425,0.00012745025123825403,0.00014648010426076847,0.0003388529125090058,-0.0001788073378053435,-0.00018191935836890408,0.0006671889190057491,0.8076412081718445,46.47658920288086,5.612087726593018,-19.610628128051758,-0.7372947335243225,-2.4044833183288574,0.12485067546367645,0
12,0.055042266845703125,-0.8076412081718445,-46.47658920288086,-5.612087726593018,19.610628128051758,0.7372947335243225,2.4044833183288574,-0.12485067546367645,0.0,0.0,0.0,0.0,0.0,0.0,0.0,-0.8166498711853027,-0.15258215013113277,-0.4445199380565866,0.39802314870637534,0.15752004905840017,0.14864115982424156,-0.1438279559878856,0.8780807565344488,0.7554682479712064,-0.28255213102765053,-1.669100793804889,0.1414086377252792,2.4034472535981073,1.0273399793224203,0.878092876070424,0.7554597494309409,-0.2825552651693207,-1.6690993614607135,0.1414185955172306,2.4034451173676383,1.0273381002308042,-0.00026396043652790425,-0.00012745025123825403,-0.00014648010426076847,-0.0003388529125090058,0.0001788073378053435,0.00018191935836890408,-0.0006671889190057491,0.0,0.0,0.0,0.0,0.0,0.0,0.0,1.2119535975130269e-05,-8.498540265522436e-06,-3.134141670191326e-06,1.4323441754893196e-06,9.957791951398232e-06,-2.136230468963163e-06,-1.879091616086015e-06,0.00026396043652790425,0.00012745025123825403,0.00014648010426076847,0.0003388529125090058,-0.0001788073378053435,-0.00018191935836890408,0.0006671889190057491,0.8076412081718445,46.47658920288086,5.612087726593018,-19.610628128051758,-0.7372947335243225,-2.4044833183288574,0.12485067546367645,0
13,0.06000041961669922,-0.8076412081718445,-46.47658920288086,-5.663662433624268,19.610628128051758,0.7427878975868225,2.4237093925476074,-0.11111776530742645,0.0,0.0,0.0,0.0,0.0,0.0,0.0,-0.8251125312179988,-0.15000621074131792,-0.4507825514787965,0.3957466946975111,0.1574258027908578,0.14787185097792133,-0.14363583201750732,0.8780809697350611,0.7554675395946264,-0.28254859023778434,-1.6691010056963256,0.14140799226983422,2.4034451173676383,1.027338453443514,0.878092876070424,0.7554597494309409,-0.2825552651693207,-1.6690993614607135,0.1414185955172306,2.4034451173676383,1.0273381002308042,-0.00021461646785548346,0.00014740566911416048,0.0011602289426134544,-0.0002062089199652155,-0.00021642807481508756,-0.0004145476453724753,-0.0012746292342219203,0.0,0.0,0.0,0.0,0.0,0.0,0.0,1.190633536285457e-05,-7.790163685572615e-06,-6.674931536387874e-06,1.6442356121082469e-06,1.0603247396379079e-05,0.0,-3.532127097471971e-07,0.00021461646785548346,-0.00014740566911416048,-0.0011602289426134544,0.0002062089199652155,0.00021642807481508756,0.0004145476453724753,0.0012746292342219203,0.8076412081718445,46.47658920288086,5.663662433624268,-19.610628128051758,-0.7427878975868225,-2.4237093925476074,0.11111776530742645,0
14,0.06499457359313965,-0.8076412081718445,-46.47658920288086,-5.663662433624268,19.610628128051758,0.7427878975868225,2.4237093925476074,-0.11111776530742645,0.0,0.0,0.0,0.0,0.0,0.0,0.0,-0.8251125312179988,-0.15000621074131792,-0.4507825514787965,0.3957466946975111,0.1574258027908578,0.14787185097792133,-0.14363583201750732,0.8780809697350611,0.7554675395946264,-0.28254859023778434,-1.6691010056963256,0.14140799226983422,2.4034451173676383,1.027338453443514,0.878092876070424,0.7554597494309409,-0.2825552651693207,-1.6690993614607135,0.1414185955172306,2.4034451173676383,1.0273381002308042,-0.00021461646785548346,0.00014740566911416048,0.0011602289426134544,-0.0002062089199652155,-0.00021642807481508756,-0.0004145476453724753,-0.0012746292342219203,0.0,0.0,0.0,0.0,0.0,0.0,0.0,1.190633536285457e-05,-7.790163685572615e-06,-6.674931536387874e-06,1.6442356121082469e-06,1.0603247396379079e-05,0.0,-3.532127097471971e-07,0.00021461646785548346,-0.00014740566911416048,-0.0011602289426134544,0.0002062089199652155,0.00021642807481508756,0.0004145476453724753,0.0012746292342219203,0.8076412081718445,46.47658920288086,5.663662433624268,-19.610628128051758,-0.7427878975868225,-2.4237093925476074,0.11111776530742645,0
15,0.06999397277832031,-0.8592159152030945,-46.44881820678711,-5.588284015655518,19.634431838989258,0.7308860421180725,2.4108920097351074,-0.11111776530742645,0.0,0.0,0.0,0.0,0.0,0.0,0.0,-0.8100491386360839,-0.14713311764195475,-0.4411451139460534,0.3949997055583325,0.15642125962596432,0.14730973953052534,-0.14317380714539402,0.87808291715004,0.7554662824611645,-0.28255380047846573,-1.669102702659423,0.14140935418995737,2.4034465415212845,1.027338453443514,0.878092876070424,0.7554597494309409,-0.2825552651693207,-1.6690993614607135,0.1414185955172306,2.4034451173676383,1.0273381002308042,0.0012885307206521725,-0.0005795061658176329,-0.0004657478100576529,-0.0008766763746281623,0.0004803478382509314,0.00014019815986995767,-0.0012169819428318376,0.0,0.0,0.0,0.0,0.0,0.0,0.0,9.958920383912329e-06,-6.533030223687675e-06,-1.4646908549909021e-06,3.3411987094833506e-06,9.24132727322946e-06,-1.4241536461234716e-06,-3.532127097471971e-07,-0.0012885307206521725,0.0005795061658176329,0.0004657478100576529,0.0008766763746281623,-0.0004803478382509314,-0.00014019815986995767,0.0012169819428318376,0.8592159152030945,46.44881820678711,5.588284015655518,-19.634431838989258,-0.7308860421180725,-2.4108920097351074,0.11111776530742645,0
16,0.07499551773071289,-0.8592159152030945,-46.44881820678711,-5.588284015655518,19.634431838989258,0.7308860421180725,2.4108920097351074,-0.11111776530742645,0.0,0.0,0.0,0.0,0.0,0.0,0.0,-0.8100491386360839,-0.14713311764195475,-0.4411451139460534,0.3949997055583325,0.15642125962596432,0.14730973953052534,-0.14317380714539402,0.87808291715004,0.7554662824611645,-0.28255380047846573,-1.669102702659423,0.14140935418995737,2.4034465415212845,1.027338453443514,0.878092876070424,0.7554597494309409,-0.2825552651693207,-1.6690993614607135,0.1414185955172306,2.4034451173676383,1.0273381002308042,0.0012885307206521725,-0.0005795061658176329,-0.0004657478100576529,-0.0008766763746281623,0.0004803478382509314,0.00014019815986995767,-0.0012169819428318376,0.0,0.0,0.0,0.0,0.0,0.0,0.0,9.958920383912329e-06,-6.533030223687675e-06,-1.4646908549909021e-06,3.3411987094833506e-06,9.24132727322946e-06,-1.4241536461234716e-06,-3.532127097471971e-07,-0.0012885307206521725,0.0005795061658176329,0.0004657478100576529,0.0008766763746281623,-0.0004803478382509314,-0.00014019815986995767,0.0012169819428318376,0.8592159152030945,46.44881820678711,5.588284015655518,-19.634431838989258,-0.7308860421180725,-2.4108920097351074,0.11111776530742645,0
17,0.08000874519348145,-0.7838374972343445,-46.50039291381836,-5.663662433624268,19.586824417114258,0.7491965889930725,2.4108920097351074,-0.16604940593242645,0.0,0.0,0.0,0.0,0.0,0.0,0.0,-0.8202972273189966,-0.1512395118308715,-0.449521897775329,0.3962226863266288,0.1571130893430757,0.1479280092301355,-0.14292906966154018,0.8780777350566352,0.7554699282311058,-0.2825492348871683,-1.6690993617877623,0.1414073196848233,2.4034465415212845,1.027344556959139,0.878092876070424,0.7554597494309409,-0.2825552651693207,-1.6690993614607135,0.1414185955172306,2.4034451173676383,1.0273381002308042,-0.0007585682681179491,0.0005181221200566164,0.0011242997265994172,0.00024500562483612703,-0.00018610125927439667,0.00013194305040410229,-0.0007425348427719217,0.0,0.0,0.0,0.0,0.0,0.0,0.0,1.5141013788744218e-05,-1.0178800164961643e-05,-6.030282152402755e-06,3.2704883246026384e-10,1.1275832407287023e-05,-1.4241536461234716e-06,-6.456728334880424e-06,0.0007585682681179491,-0.0005181221200566164,-0.0011242997265994172,-0.00024500562483612703,0.00018610125927439667,-0.00013194305040410229,0.0007425348427719217,0.7838374972343445,46.50039291381836,5.663662433624268,-19.586824417114258,-0.7491965889930725,-2.4108920097351074,0.16604940593242645,0
18,0.08500051498413086,-0.7838374972343445,-46.50039291381836,-5.663662433624268,19.586824417114258,0.7491965889930725,2.4108920097351074,-0.16604940593242645,0.0,0.0,0.0,0.0,0.0,0.0,0.0,-0.8202972273189966,-0.1512395118308715,-0.449521897775329,0.3962226863266288,0.1571130893430757,0.1479280092301355,-0.14292906966154018,0.8780777350566352,0.7554699282311058,-0.2825492348871683,-1.6690993617877623,0.1414073196848233,2.4034465415212845,1.027344556959139,0.878092876070424,0.7554597494309409,-0.2825552651693207,-1.6690993614607135,0.1414185955172306,2.4034451173676383,1.0273381002308042,-0.0007585682681179491,0.0005181221200566164,0.0011242997265994172,0.00024500562483612703,-0.00018610125927439667,0.00013194305040410229,-0.0007425348427719217,0.0,0.0,0.0,0.0,0.0,0.0,0.0,1.5141013788744218e-05,-1.0178800164961643e-05,-6.030282152402755e-06,3.2704883246026384e-10,1.1275832407287023e-05,-1.4241536461234716e-06,-6.456728334880424e-06,0.0007585682681179491,-0.0005181221200566164,-0.0011242997265994172,-0.00024500562483612703,0.00018610125927439667,-0.00013194305040410229,0.0007425348427719217,0.7838374972343445,46.50039291381836,5.663662433624268,-19.586824417114258,-0.7491965889930725,-2.4108920097351074,0.16604940593242645,0
19,0.09000015258789062,-0.8354122042655945,-46.44881820678711,-5.635891437530518,19.610628128051758,0.7427878975868225,2.4173007011413574,-0.11844198405742645,0.0,0.0,0.0,0.0,0.0,0.0,0.0,-0.817688952527829,-0.16034947246397485,-0.44863769209754273,0.3992399978505016,0.15746949503167137,0.1486676984209011,-0.14440783295395243,0.8780830145464114,0.755466279482738,-0.28255045961069336,-1.6691009527507579,0.14140803176164624,2.4034458294444616,1.0273392672455972,0.878092876070424,0.7554597494309409,-0.2825552651693207,-1.6690993614607135,0.1414185955172306,2.4034451173676383,1.0273381002308042,0.00021104182174680987,-0.00127703299776382,0.00048574773391471776,-0.0003653233865291062,-5.749122889661201e-05,-3.21556240410007e-05,-0.0011963359317558857,0.0,0.0,0.0,0.0,0.0,0.0,0.0,9.861524012610978e-06,-6.530051797182246e-06,-4.8055586273632045e-06,1.5912900444003952e-06,1.0563755584364065e-05,-7.120768232837804e-07,-1.1670147930242791e-06,-0.00021104182174680987,0.00127703299776382,-0.00048574773391471776,0.0003653233865291062,5.749122889661201e-05,3.21556240410007e-05,0.0011963359317558857,0.8354122042655945,46.44881820678711,5.635891437530518,-19.610628128051758,-0.7427878975868225,-2.4173007011413574,0.11844198405742645,0
20,0.09499096870422363,-0.8354122042655945,-46.44881820678711,-5.635891437530518,19.610628128051758,0.7427878975868225,2.4173007011413574,-0.11844198405742645,0.0,0.0,0.0,0.0,0.0,0.0,0.0,-0.817688952527829,-0.16034947246397485,-0.44863769209754273,0.3992399978505016,0.15746949503167137,0.1486676984209011,-0.14440783295395243,0.8780830145464114,0.755466279482738,-0.28255045961069336,-1.6691009527507579,0.14140803176164624,2.4034458294444616,1.0273392672455972,0.878092876070424,0.7554597494309409,-0.2825552651693207,-1.6690993614607135,0.1414185955172306,2.4034451173676383,1.0273381002308042,0.00021104182174680987,-0.00127703299776382,0.00048574773391471776,-0.0003653233865291062,-5.749122889661201e-05,-3.21556240410007e-05,-0.0011963359317558857,0.0,0.0,0.0,0.0,0.0,0.0,0.0,9.861524012610978e-06,-6.530051797182246e-06,-4.8055586273632045e-06,1.5912900444003952e-06,1.0563755584364065e-05,-7.120768232837804e-07,-1.1670147930242791e-06,-0.00021104182174680987,0.00127703299776382,-0.00048574773391471776,0.0003653233865291062,5.749122889661201e-05,3.21556240410007e-05,0.0011963359317558857,0.8354122042655945,46.44881820678711,5.635891437530518,-19.610628128051758,-0.7427878975868225,-2.4173007011413574,0.11844198405742645,0
21,0.10000014305114746,-0.8354122042655945,-46.44881820678711,-5.635891437530518,19.610628128051758,0.7427878975868225,2.4173007011413574,-0.11844198405742645,0.0,0.0,0.0,0.0,0.0,0.0,0.0,-0.817688952527829,-0.16034947246397485,-0.44863769209754273,0.3992399978505016,0.15746949503167137,0.1486676984209011,-0.14440783295395243,0.8780830145464114,0.755466279482738,-0.28255045961069336,-1.6691009527507579,0.14140803176164624,2.4034458294444616,1.0273392672455972,0.878092876070424,0.7554597494309409,-0.2825552651693207,-1.6690993614607135,0.1414185955172306,2.4034451173676383,1.0273381002308042,0.00021104182174680987,-0.00127703299776382,0.00048574773391471776,-0.0003653233865291062,-5.749122889661201e-05,-3.21556240410007e-05,-0.0011963359317558857,0.0,0.0,0.0,0.0,0.0,0.0,0.0,9.861524012610978e-06,-6.530051797182246e-06,-4.8055586273632045e-06,1.5912900444003952e-06,1.0563755584364065e-05,-7.120768232837804e-07,-1.1670147930242791e-06,-0.00021104182174680987,0.00127703299776382,-0.00048574773391471776,0.0003653233865291062,5.749122889661201e-05,3.21556240410007e-05,0.0011963359317558857,0.8354122042655945,46.44881820678711,5.635891437530518,-19.610628128051758,-0.7427878975868225,-2.4173007011413574,0.11844198405742645,0
22,0.10501527786254883,-0.8354122042655945,-46.44881820678711,-5.635891437530518,19.610628128051758,0.7427878975868225,2.4173007011413574,-0.11844198405742645,0.0,0.0,0.0,0.0,0.0,0.0,0.0,-0.817688952527829,-0.16034947246397485,-0.44863769209754273,0.3992399978505016,0.15746949503167137,0.1486676984209011,-0.14440783295395243,0.8780830145464114,0.755466279482738,-0.28255045961069336,-1.6691009527507579,0.14140803176164624,2.4034458294444616,1.0273392672455972,0.878092876070424,0.7554597494309409,-0.2825552651693207,-1.6690993614607135,0.1414185955172306,2.4034451173676383,1.0273381002308042,0.00021104182174680987,-0.00127703299776382,0.00048574773391471776,-0.0003653233865291062,-5.749122889661201e-05,-3.21556240410007e-05,-0.0011963359317558857,0.0,0.0,0.0,0.0,0.0,0.0,0.0,9.861524012610978e-06,-6.530051797182246e-06,-4.8055586273632045e-06,1.5912900444003952e-06,1.0563755584364065e-05,-7.120768232837804e-07,-1.1670147930242791e-06,-0.00021104182174680987,0.00127703299776382,-0.00048574773391471776,0.0003653233865291062,5.749122889661201e-05,3.21556240410007e-05,0.0011963359317558857,0.8354122042655945,46.44881820678711,5.635891437530518,-19.610628128051758,-0.7427878975868225,-2.4173007011413574,0.11844198405742645,0
23,0.11003923416137695,-0.8354122042655945,-46.47658920288086,-5.635891437530518,19.586824417114258,0.7427878975868225,2.4044833183288574,-0.17337362468242645,0.0,0.0,0.0,0.0,0.0,0.0,0.0,-0.8313168793147125,-0.14954965350092042,-0.4569324796310871,0.3910853109602147,0.15767738009596063,0.14840895153756056,-0.14601871218861254,0.8780815852071489,0.7554682488558,-0.2825504596066057,-1.6690993617873138,0.14140803176164624,2.4034472535981073,1.0273443111230929,0.878092876070424,0.7554597494309409,-0.2825552651693207,-1.6690993614607135,0.1414185955172306,2.4034451173676383,1.0273381002308042,-0.0002457959222502508,-0.00018805265283403815,6.688023568393528e-05,3.159033504760376e-05,7.784284769758632e-05,0.0004950877537921982,0.0010702940334855247,0.0,0.0,0.0,0.0,0.0,0.0,0.0,1.1290863275115193e-05,-8.499424859143012e-06,-4.805562715037848e-06,3.266003023583153e-10,1.0563755584364065e-05,-2.136230468963163e-06,-6.21089228869387e-06,0.0002457959222502508,0.00018805265283403815,-6.688023568393528e-05,-3.159033504760376e-05,-7.784284769758632e-05,-0.0004950877537921982,-0.0010702940334855247,0.8354122042655945,46.47658920288086,5.635891437530518,-19.586824417114258,-0.7427878975868225,-2.4044833183288574,0.17337362468242645,0
24,0.11503267288208008,-0.8354122042655945,-46.47658920288086,-5.635891437530518,19.586824417114258,0.7427878975868225,2.4044833183288574,-0.17337362468242645,0.0,0.0,0.0,0.0,0.0,0.0,0.0,-0.8313168793147125,-0.14954965350092042,-0.4569324796310871,0.3910853109602147,0.15767738009596063,0.14840895153756056,-0.14601871218861254,0.8780815852071489,0.7554682488558,-0.2825504596066057,-1.6690993617873138,0.14140803176164624,2.4034472535981073,1.0273443111230929,0.878092876070424,0.7554597494309409,-0.2825552651693207,-1.6690993614607135,0.1414185955172306,2.4034451173676383,1.0273381002308042,-0.0002457959222502508,-0.00018805265283403815,6.688023568393528e-05,3.159033504760376e-05,7.784284769758632e-05,0.0004950877537921982,0.0010702940334855247,0.0,0.0,0.0,0.0,0.0,0.0,0.0,1.1290863275115193e-05,-8.499424859143012e-06,-4.805562715037848e-06,3.266003023583153e-10,1.0563755584364065e-05,-2.136230468963163e-06,-6.21089228869387e-06,0.0002457959222502508,0.00018805265283403815,-6.688023568393528e-05,-3.159033504760376e-05,-7.784284769758632e-05,-0.0004950877537921982,-0.0010702940334855247,0.8354122042655945,46.47658920288086,5.635891437530518,-19.586824417114258,-0.7427878975868225,-2.4044833183288574,0.17337362468242645,0
25,0.12000036239624023,-0.8076412081718445,-46.44881820678711,-5.612087726593018,19.634431838989258,0.7427878975868225,2.4173007011413574,-0.14590780436992645,0.0,0.0,0.0,0.0,0.0,0.0,0.0,-0.8222093695313509,-0.15189332073045853,-0.4508004123957167,0.39475498604522674,0.15745580161936748,0.14956122129348115,-0.14619883015754764,0.8780815172512675,0.7554655672067282,-0.28255215653341414,-1.669102702659473,0.14140803176164624,2.4034458294444616,1.0273423189974282,0.878092876070424,0.7554597494309409,-0.2825552651693207,-1.6690993614607135,0.1414185955172306,2.4034451173676383,1.0273381002308042,-0.0002457936800943398,-0.0001582789468911916,-0.0006695435569586623,-0.0007584866153314768,-2.5110926201113626e-05,-0.00019734722742784617,0.00035462452576265065,0.0,0.0,0.0,0.0,0.0,0.0,0.0,1.1358819156481736e-05,-5.8177757873423275e-06,-3.1086359065790603e-06,3.3411987594433867e-06,1.0563755584364065e-05,-7.120768232837804e-07,-4.218766624042303e-06,0.0002457936800943398,0.0001582789468911916,0.0006695435569586623,0.0007584866153314768,2.5110926201113626e-05,0.00019734722742784617,-0.00035462452576265065,0.8076412081718445,46.44881820678711,5.612087726593018,-19.634431838989258,-0.7427878975868225,-2.4173007011413574,0.14590780436992645,0
26,0.12499070167541504,-0.8076412081718445,-46.44881820678711,-5.612087726593018,19.634431838989258,0.7427878975868225,2.4173007011413574,-0.14590780436992645,0.0,0.0,0.0,0.0,0.0,0.0,0.0,-0.8222093695313509,-0.15189332073045853,-0.4508004123957167,0.39475498604522674,0.15745580161936748,0.14956122129348115,-0.14619883015754764,0.8780815172512675,0.7554655672067282,-0.28255215653341414,-1.669102702659473,0.14140803176164624,2.4034458294444616,1.0273423189974282,0.878092876070424,0.7554597494309409,-0.2825552651693207,-1.6690993614607135,0.1414185955172306,2.4034451173676383,1.0273381002308042,-0.0002457936800943398,-0.0001582789468911916,-0.0006695435569586623,-0.0007584866153314768,-2.5110926201113626e-05,-0.00019734722742784617,0.00035462452576265065,0.0,0.0,0.0,0.0,0.0,0.0,0.0,1.1358819156481736e-05,-5.8177757873423275e-06,-3.1086359065790603e-06,3.3411987594433867e-06,1.0563755584364065e-05,-7.120768232837804e-07,-4.218766624042303e-06,0.0002457936800943398,0.0001582789468911916,0.0006695435569586623,0.0007584866153314768,2.5110926201113626e-05,0.00019734722742784617,-0.00035462452576265065,0.8076412081718445,46.44881820678711,5.612087726593018,-19.634431838989258,-0.7427878975868225,-2.4173007011413574,0.14590780436992645,0
27,0.1299891471862793,-0.8869869112968445,-46.47658920288086,-5.612087726593018,19.634431838989258,0.7372947335243225,2.4108920097351074,-0.13217489421367645,0.0,0.0,0.0,0.0,0.0,0.0,0.0,-0.8258680125709851,-0.16153043911518225,-0.45669150765646216,0.40312251186287446,0.15745773811955138,0.15006945432975807,-0.1450065180488549,0.8780866161753833,0.7554679397906581,-0.2825521300426105,-1.6691024642408938,0.14140864211320875,2.4034465415212845,1.0273407931245035,0.878092876070424,0.7554597494309409,-0.2825552651693207,-1.6690993614607135,0.1414185955172306,2.4034451173676383,1.0273381002308042,0.0009817562497274545,-0.00041866166879053854,-0.00043249960939208837,-0.00042871875562297757,0.00012977322453371187,0.0002893272028130161,-0.00045752014427567924,0.0,0.0,0.0,0.0,0.0,0.0,0.0,6.2598950406611564e-06,-8.190359717219486e-06,-3.135126710240854e-06,3.1027801803418242e-06,9.953404021850742e-06,-1.4241536461234716e-06,-2.692893699363097e-06,-0.0009817562497274545,0.00041866166879053854,0.00043249960939208837,0.00042871875562297757,-0.00012977322453371187,-0.0002893272028130161,0.00045752014427567924,0.8869869112968445,46.47658920288086,5.612087726593018,-19.634431838989258,-0.7372947335243225,-2.4108920097351074,0.13217489421367645,0
28,0.13500475883483887,-0.8869869112968445,-46.47658920288086,-5.612087726593018,19.634431838989258,0.7372947335243225,2.4108920097351074,-0.13217489421367645,0.0,0.0,0.0,0.0,0.0,0.0,0.0,-0.8258680125709851,-0.16153043911518225,-0.45669150765646216,0.40312251186287446,0.15745773811955138,0.15006945432975807,-0.1450065180488549,0.8780866161753833,0.7554679397906581,-0.2825521300426105,-1.6691024642408938,0.14140864211320875,2.4034465415212845,1.0273407931245035,0.878092876070424,0.7554597494309409,-0.2825552651693207,-1.6690993614607135,0.1414185955172306,2.4034451173676383,1.0273381002308042,0.0009817562497274545,-0.00041866166879053854,-0.00043249960939208837,-0.00042871875562297757,0.00012977322453371187,0.0002893272028130161,-0.00045752014427567924,0.0,0.0,0.0,0.0,0.0,0.0,0.0,6.2598950406611564e-06,-8.190359717219486e-06,-3.135126710240854e-06,3.1027801803418242e-06,9.953404021850742e-06,-1.4241536461234716e-06,-2.692893699363097e-06,-0.0009817562497274545,0.00041866166879053854,0.00043249960939208837,0.00042871875562297757,-0.00012977322453371187,-0.0002893272028130161,0.00045752014427567924,0.8869869112968445,46.47658920288086,5.612087726593018,-19.634431838989258,-0.7372947335243225,-2.4108920097351074,0.13217489421367645,0
29,0.14000415802001953,-0.8076412081718445,-46.52419662475586,-5.588284015655518,19.610628128051758,0.7546897530555725,2.4173007011413574,-0.17337362468242645,0.0,0.0,0.0,0.0,0.0,0.0,0.0,-0.8022843676804879,-0.1518924962304456,-0.43781486077126985,0.40148607074510906,0.15649835621266533,0.14896909229670213,-0.1452908490728353,0.8780786620868269,0.7554715711931161,-0.2825538269692694,-1.6691010322222717,0.14140670933326083,2.4034458294444616,1.0273453707612223,0.878092876070424,0.7554597494309409,-0.2825552651693207,-1.6690993614607135,0.1414185955172306,2.4034451173676383,1.0273381002308042,0.00014851078447926277,0.0008037719880260082,-0.0006245193226809892,-0.00023325790729333365,-0.0004049717720014943,-9.948690732833812e-05,0.0008034344926269526,0.0,0.0,0.0,0.0,0.0,0.0,0.0,1.4213983597022306e-05,-1.1821762175290296e-05,-1.4382000513291082e-06,1.6707615582145507e-06,1.188618396977259e-05,-7.120768232837804e-07,-7.270530418157506e-06,-0.00014851078447926277,-0.0008037719880260082,0.0006245193226809892,0.00023325790729333365,0.0004049717720014943,9.948690732833812e-05,-0.0008034344926269526,0.8076412081718445,46.52419662475586,5.588284015655518,-19.610628128051758,-0.7546897530555725,-2.4173007011413574,0.17337362468242645,0
30,0.14499688148498535,-0.8076412081718445,-46.52419662475586,-5.588284015655518,19.610628128051758,0.7546897530555725,2.4173007011413574,-0.17337362468242645,0.0,0.0,0.0,0.0,0.0,0.0,0.0,-0.8022843676804879,-0.1518924962304456,-0.43781486077126985,0.40148607074510906,0.15649835621266533,0.14896909229670213,-0.1452908490728353,0.8780786620868269,0.7554715711931161,-0.2825538269692694,-1.6691010322222717,0.14140670933326083,2.4034458294444616,1.0273453707612223,0.878092876070424,0.7554597494309409,-0.2825552651693207,-1.6690993614607135,0.1414185955172306,2.4034451173676383,1.0273381002308042,0.00014851078447926277,0.0008037719880260082,-0.0006245193226809892,-0.00023325790729333365,-0.0004049717720014943,-9.948690732833812e-05,0.0008034344926269526,0.0,0.0,0.0,0.0,0.0,0.0,0.0,1.4213983597022306e-05,-1.1821762175290296e-05,-1.4382000513291082e-06,1.6707615582145507e-06,1.188618396977259e-05,-7.120768232837804e-07,-7.270530418157506e-06,-0.00014851078447926277,-0.0008037719880260082,0.0006245193226809892,0.00023325790729333365,0.0004049717720014943,9.948690732833812e-05,-0.0008034344926269526,0.8076412081718445,46.52419662475586,5.588284015655518,-19.610628128051758,-0.7546897530555725,-2.4173007011413574,0.17337362468242645,0
31,0.150007963180542,-0.8076412081718445,-46.44881820678711,-5.612087726593018,19.610628128051758,0.7372947335243225,2.4044833183288574,-0.12485067546367645,0.0,0.0,0.0,0.0,0.0,0.0,0.0,-0.8245856377465023,-0.14122167995844243,-0.45343154995759805,0.3935678485873382,0.15740130669761762,0.14798152631597172,-0.146749809608818,0.8780817603157075,0.7554655927164304,-0.2825521300426105,-1.6691010322236175,0.14140540237682764,2.4034472535981073,1.0273399793224203,0.878092876070424,0.7554597494309409,-0.2825552651693207,-1.6690993614607135,0.1414185955172306,2.4034451173676383,1.0273381002308042,-2.8222232122739804e-05,-0.000550588881871243,-0.00011834861514520136,-0.0001990410651742689,2.6916931790483907e-05,0.00036909183188073736,-0.001025515223796192,0.0,0.0,0.0,0.0,0.0,0.0,0.0,1.1115754716461979e-05,-5.843285489581795e-06,-3.135126710240854e-06,1.6707629040269012e-06,1.3193140402961712e-05,-2.136230468963163e-06,-1.879091616086015e-06,2.8222232122739804e-05,0.000550588881871243,0.00011834861514520136,0.0001990410651742689,-2.6916931790483907e-05,-0.00036909183188073736,0.001025515223796192,0.8076412081718445,46.44881820678711,5.612087726593018,-19.610628128051758,-0.7372947335243225,-2.4044833183288574,0.12485067546367645,0
32,0.15499544143676758,-0.8076412081718445,-46.44881820678711,-5.612087726593018,19.610628128051758,0.7372947335243225,2.4044833183288574,-0.12485067546367645,0.0,0.0,0.0,0.0,0.0,0.0,0.0,-0.8245856377465023,-0.14122167995844243,-0.45343154995759805,0.3935678485873382,0.15740130669761762,0.14798152631597172,-0.146749809608818,0.8780817603157075,0.7554655927164304,-0.2825521300426105,-1.6691010322236175,0.14140540237682764,2.4034472535981073,1.0273399793224203,0.878092876070424,0.7554597494309409,-0.2825552651693207,-1.6690993614607135,0.1414185955172306,2.4034451173676383,1.0273381002308042,-2.8222232122739804e-05,-0.000550588881871243,-0.00011834861514520136,-0.0001990410651742689,2.6916931790483907e-05,0.00036909183188073736,-0.001025515223796192,0.0,0.0,0.0,0.0,0.0,0.0,0.0,1.1115754716461979e-05,-5.843285489581795e-06,-3.135126710240854e-06,1.6707629040269012e-06,1.3193140402961712e-05,-2.136230468963163e-06,-1.879091616086015e-06,2.8222232122739804e-05,0.000550588881871243,0.00011834861514520136,0.0001990410651742689,-2.6916931790483907e-05,-0.00036909183188073736,0.001025515223796192,0.8076412081718445,46.44881820678711,5.612087726593018,-19.610628128051758,-0.7372947335243225,-2.4044833183288574,0.12485067546367645,0
33,0.15995168685913086,-0.7560665011405945,-46.47658920288086,-5.612087726593018,19.610628128051758,0.7491965889930725,2.4237093925476074,-0.12485067546367645,0.0,0.0,0.0,0.0,0.0,0.0,0.0,-0.8344980636501986,-0.15348876212192422,-0.4622594057271369,0.40137034558232454,0.15751433778751284,0.14887387427520885,-0.1468516341862357,0.878077897949232,0.7554675156811791,-0.28255220984236945,-1.6691009527507579,0.14140731966653491,2.4034451173676383,1.0273399793224203,0.878092876070424,0.7554597494309409,-0.2825552651693207,-1.6690993614607135,0.1414185955172306,2.4034451173676383,1.0273381002308042,-0.002220769014014214,0.0001249332069897424,-0.00013742878467831504,0.00010895943230635061,-9.717099855772658e-05,-0.00025101568075157875,-0.0010430408675853181,0.0,0.0,0.0,0.0,0.0,0.0,0.0,1.4978121191999705e-05,-7.76625023823918e-06,-3.0553269512734182e-06,1.5912900444003952e-06,1.1275850695685596e-05,0.0,-1.879091616086015e-06,0.002220769014014214,-0.0001249332069897424,0.00013742878467831504,-0.00010895943230635061,9.717099855772658e-05,0.00025101568075157875,0.0010430408675853181,0.7560665011405945,46.47658920288086,5.612087726593018,-19.610628128051758,-0.7491965889930725,-2.4237093925476074,0.12485067546367645,0
34,0.1650102138519287,-0.7560665011405945,-46.47658920288086,-5.612087726593018,19.610628128051758,0.7491965889930725,2.4237093925476074,-0.12485067546367645,0.0,0.0,0.0,0.0,0.0,0.0,0.0,-0.8344980636501986,-0.15348876212192422,-0.4622594057271369,0.40137034558232454,0.15751433778751284,0.14887387427520885,-0.1468516341862357,0.878077897949232,0.7554675156811791,-0.28255220984236945,-1.6691009527507579,0.14140731966653491,2.4034451173676383,1.0273399793224203,0.878092876070424,0.7554597494309409,-0.2825552651693207,-1.6690993614607135,0.1414185955172306,2.4034451173676383,1.0273381002308042,-0.002220769014014214,0.0001249332069897424,-0.00013742878467831504,0.00010895943230635061,-9.717099855772658e-05,-0.00025101568075157875,-0.0010430408675853181,0.0,0.0,0.0,0.0,0.0,0.0,0.0,1.4978121191999705e-05,-7.76625023823918e-06,-3.0553269512734182e-06,1.5912900444003952e-06,1.1275850695685596e-05,0.0,-1.879091616086015e-06,0.002220769014014214,-0.0001249332069897424,0.00013742878467831504,-0.00010895943230635061,9.717099855772658e-05,0.00025101568075157875,0.0010430408675853181,0.7560665011405945,46.47658920288086,5.612087726593018,-19.610628128051758,-0.7491965889930725,-2.4237093925476074,0.12485067546367645,0
35,0.17000102996826172,-0.7838374972343445,-46.52419662475586,-5.564480304718018,19.559053421020508,0.7427878975868225,2.4173007011413574,-0.17337362468242645,0.0,0.0,0.0,0.0,0.0,0.0,0.0,-0.8153235897744295,-0.15332416355609016,-0.4473960075881598,0.4017065997133757,0.15764705710132268,0.14900222109374403,-0.1463509954353064,0.8780800104231098,0.7554694175743388,-0.2825557891694483,-1.6690974129454828,0.1414079922705029,2.4034458294444616,1.0273443111230929,0.878092876070424,0.7554597494309409,-0.2825552651693207,-1.6690993614607135,0.1414185955172306,2.4034451173676383,1.0273381002308042,-0.0006165462359924008,0.0010706199881060623,-0.001113854849490715,0.001050323423310429,-0.00016122093718037598,-0.00022046796250878547,0.0010289739263457068,0.0,0.0,0.0,0.0,0.0,0.0,0.0,1.2865647314175277e-05,-9.66814339797839e-06,5.240001275663708e-07,-1.9485152307208153e-06,1.060324672769175e-05,-7.120768232837804e-07,-6.21089228869387e-06,0.0006165462359924008,-0.0010706199881060623,0.001113854849490715,-0.001050323423310429,0.00016122093718037598,0.00022046796250878547,-0.0010289739263457068,0.7838374972343445,46.52419662475586,5.564480304718018,-19.559053421020508,-0.7427878975868225,-2.4173007011413574,0.17337362468242645,0
36,0.17500782012939453,-0.7838374972343445,-46.52419662475586,-5.564480304718018,19.559053421020508,0.7427878975868225,2.4173007011413574,-0.17337362468242645,0.0,0.0,0.0,0.0,0.0,0.0,0.0,-0.8153235897744295,-0.15332416355609016,-0.4473960075881598,0.4017065997133757,0.15764705710132268,0.14900222109374403,-0.1463509954353064,0.8780800104231098,0.7554694175743388,-0.2825557891694483,-1.6690974129454828,0.1414079922705029,2.4034458294444616,1.0273443111230929,0.878092876070424,0.7554597494309409,-0.2825552651693207,-1.6690993614607135,0.1414185955172306,2.4034451173676383,1.0273381002308042,-0.0006165462359924008,0.0010706199881060623,-0.001113854849490715,0.001050323423310429,-0.00016122093718037598,-0.00022046796250878547,0.0010289739263457068,0.0,0.0,0.0,0.0,0.0,0.0,0.0,1.2865647314175277e-05,-9.66814339797839e-06,5.240001275663708e-07,-1.9485152307208153e-06,1.060324672769175e-05,-7.120768232837804e-07,-6.21089228869387e-06,0.0006165462359924008,-0.0010706199881060623,0.001113854849490715,-0.001050323423310429,0.00016122093718037598,0.00022046796250878547,-0.0010289739263457068,0.7838374972343445,46.52419662475586,5.564480304718018,-19.559053421020508,-0.7427878975868225,-2.4173007011413574,0.17337362468242645,0
37,0.1799938678741455,-0.8076412081718445,-46.50039291381836,-5.612087726593018,19.559053421020508,0.7427878975868225,2.4044833183288574,-0.16604940593242645,0.0,0.0,0.0,0.0,0.0,0.0,0.0,-0.8179992521692623,-0.15225461036025403,-0.44810510306637596,0.3985526767530916,0.15748225215518805,0.1486266545389248,-0.14636609189215677,0.8780807216257428,0.7554698487459837,-0.2825542850051747,-1.6690974129459313,0.14140803176142333,2.4034472535981073,1.0273445569531574,0.878092876070424,0.7554597494309409,-0.2825552651693207,-1.6690993614607135,0.1414185955172306,2.4034451173676383,1.0273381002308042,-0.00027587790808898866,0.0004656140330847539,5.362065922402752e-05,0.0010416620106845735,4.424431449897783e-05,0.0005236331962121662,0.0011743227305983789,0.0,0.0,0.0,0.0,0.0,0.0,0.0,1.215444468116722e-05,-1.0099315042810808e-05,-9.801641460138732e-07,-1.9485147821907134e-06,1.0563755807269093e-05,-2.136230468963163e-06,-6.456722353220812e-06,0.00027587790808898866,-0.0004656140330847539,-5.362065922402752e-05,-0.0010416620106845735,-4.424431449897783e-05,-0.0005236331962121662,-0.0011743227305983789,0.8076412081718445,46.50039291381836,5.612087726593018,-19.559053421020508,-0.7427878975868225,-2.4044833183288574,0.16604940593242645,0
38,0.18510961532592773,-0.8076412081718445,-46.50039291381836,-5.612087726593018,19.559053421020508,0.7427878975868225,2.4044833183288574,-0.16604940593242645,0.0,0.0,0.0,0.0,0.0,0.0,0.0,-0.8179992521692623,-0.15225461036025403,-0.44810510306637596,0.3985526767530916,0.15748225215518805,0.1486266545389248,-0.14636609189215677,0.8780807216257428,0.7554698487459837,-0.2825542850051747,-1.6690974129459313,0.14140803176142333,2.4034472535981073,1.0273445569531574,0.878092876070424,0.7554597494309409,-0.2825552651693207,-1.6690993614607135,0.1414185955172306,2.4034451173676383,1.0273381002308042,-0.00027587790808898866,0.0004656140330847539,5.362065922402752e-05,0.0010416620106845735,4.424431449897783e-05,0.0005236331962121662,0.0011743227305983789,0.0,0.0,0.0,0.0,0.0,0.0,0.0,1.215444468116722e-05,-1.0099315042810808e-05,-9.801641460138732e-07,-1.9485147821907134e-06,1.0563755807269093e-05,-2.136230468963163e-06,-6.456722353220812e-06,0.00027587790808898866,-0.0004656140330847539,-5.362065922402752e-05,-0.0010416620106845735,-4.424431449897783e-05,-0.0005236331962121662,-0.0011743227305983789,0.8076412081718445,46.50039291381836,5.612087726593018,-19.559053421020508,-0.7427878975868225,-2.4044833183288574,0.16604940593242645,0
39,0.18999218940734863,-0.8869869112968445,-46.47658920288086,-5.588284015655518,19.610628128051758,0.7427878975868225,2.4173007011413574,-0.10470907390117645,0.0,0.0,0.0,0.0,0.0,0.0,0.0,-0.8103269638215478,-0.15046962384077595,-0.4410696052432129,0.39612092045684155,0.15722134444144426,0.14821076442986175,-0.14500001859024425,0.8780852104061102,0.7554675425027756,-0.2825538034339203,-1.6690986480378265,0.14140803176164624,2.4034461957391233,1.027337741366691,0.878092876070424,0.7554597494309409,-0.2825552651693207,-1.6690993614607135,0.1414185955172306,2.4034451173676383,1.0273381002308042,0.002197572035668187,0.0003460938511865858,-0.0006413041470470776,-0.0004303560770190438,-0.00013030657713326743,-0.00010634496399348178,-0.0017709595429400856,0.0,0.0,0.0,0.0,0.0,0.0,0.0,7.6656643137607e-06,-7.79307183473854e-06,-1.4617354004431427e-06,-7.134228869887238e-07,1.0563755584364065e-05,-1.0783714849971204e-06,3.588641130924941e-07,-0.002197572035668187,-0.0003460938511865858,0.0006413041470470776,0.0004303560770190438,0.00013030657713326743,0.00010634496399348178,0.0017709595429400856,0.8869869112968445,46.47658920288086,5.588284015655518,-19.610628128051758,-0.7427878975868225,-2.4173007011413574,0.10470907390117645,0
40,0.19501137733459473,-0.8869869112968445,-46.47658920288086,-5.588284015655518,19.610628128051758,0.7427878975868225,2.4173007011413574,-0.10470907390117645,0.0,0.0,0.0,0.0,0.0,0.0,0.0,-0.8103269638215478,-0.15046962384077595,-0.4410696052432129,0.39612092045684155,0.15722134444144426,0.14821076442986175,-0.14500001859024425,0.8780852104061102,0.7554675425027756,-0.2825538034339203,-1.6690986480378265,0.14140803176164624,2.4034461957391233,1.027337741366691,0.878092876070424,0.7554597494309409,-0.2825552651693207,-1.6690993614607135,0.1414185955172306,2.4034451173676383,1.0273381002308042,0.002197572035668187,0.0003460938511865858,-0.0006413041470470776,-0.0004303560770190438,-0.00013030657713326743,-0.00010634496399348178,-0.0017709595429400856,0.0,0.0,0.0,0.0,0.0,0.0,0.0,7.6656643137607e-06,-7.79307183473854e-06,-1.4617354004431427e-06,-7.134228869887238e-07,1.0563755584364065e-05,-1.0783714849971204e-06,3.588641130924941e-07,-0.002197572035668187,-0.0003460938511865858,0.0006413041470470776,0.0004303560770190438,0.00013030657713326743,0.00010634496399348178,0.0017709595429400856,0.8869869112968445,46.47658920288086,5.588284015655518,-19.610628128051758,-0.7427878975868225,-2.4173007011413574,0.10470907390117645,0
41,0.20004558563232422,-0.8592159152030945,-46.47658920288086,-5.588284015655518,19.586824417114258,0.7372947335243225,2.4108920097351074,-0.15964071452617645,0.0,0.0,0.0,0.0,0.0,0.0,0.0,-0.8066688704660274,-0.16654756592559783,-0.4385522730629099,0.40414686801753785,0.15692094112764993,0.14923808884495632,-0.14443121385748364,0.8780831572296173,0.7554672687956752,-0.2825538004783329,-1.6690986465185662,0.14140864211320875,2.403446541523352,1.027343844882316,0.878092876070424,0.7554597494309409,-0.2825552651693207,-1.6690993614607135,0.1414185955172306,2.4034451173676383,1.0273381002308042,0.001345962379276482,-0.0007361516195255109,-0.0003587066574377556,0.0004997282992967139,0.0001280390891658824,0.00020471557214660059,0.0007095368784870769,0.0,0.0,0.0,0.0,0.0,0.0,0.0,9.71884080669394e-06,-7.519364734309697e-06,-1.464690987829087e-06,-7.149421472618656e-07,9.953404021850742e-06,-1.4241557138028327e-06,-5.744651511818688e-06,-0.001345962379276482,0.0007361516195255109,0.0003587066574377556,-0.0004997282992967139,-0.0001280390891658824,-0.00020471557214660059,-0.0007095368784870769,0.8592159152030945,46.47658920288086,5.588284015655518,-19.586824417114258,-0.7372947335243225,-2.4108920097351074,0.15964071452617645,0
42,0.20525550842285156,-0.8592159152030945,-46.47658920288086,-5.588284015655518,19.586824417114258,0.7372947335243225,2.4108920097351074,-0.15964071452617645,0.0,0.0,0.0,0.0,0.0,0.0,0.0,-0.8066688704660274,-0.16654756592559783,-0.4385522730629099,0.40414686801753785,0.15692094112764993,0.14923808884495632,-0.14443121385748364,0.8780831572296173,0.7554672687956752,-0.2825538004783329,-1.6690986465185662,0.14140864211320875,2.403446541523352,1.027343844882316,0.878092876070424,0.7554597494309409,-0.2825552651693207,-1.6690993614607135,0.1414185955172306,2.4034451173676383,1.0273381002308042,0.001345962379276482,-0.0007361516195255109,-0.0003587066574377556,0.0004997282992967139,0.0001280390891658824,0.00020471557214660059,0.0007095368784870769,0.0,0.0,0.0,0.0,0.0,0.0,0.0,9.71884080669394e-06,-7.519364734309697e-06,-1.464690987829087e-06,-7.149421472618656e-07,9.953404021850742e-06,-1.4241557138028327e-06,-5.744651511818688e-06,-0.001345962379276482,0.0007361516195255109,0.0003587066574377556,-0.0004997282992967139,-0.0001280390891658824,-0.00020471557214660059,-0.0007095368784870769,0.8592159152030945,46.47658920288086,5.588284015655518,-19.586824417114258,-0.7372947335243225,-2.4108920097351074,0.15964071452617645,0
43,0.20999550819396973,-0.8592159152030945,-46.47658920288086,-5.588284015655518,19.586824417114258,0.7372947335243225,2.4108920097351074,-0.15964071452617645,0.0,0.0,0.0,0.0,0.0,0.0,0.0,-0.8066688704660274,-0.16654756592559783,-0.4385522730629099,0.40414686801753785,0.15692094112764993,0.14923808884495632,-0.14443121385748364,0.8780831572296173,0.7554672687956752,-0.2825538004783329,-1.6690986465185662,0.14140864211320875,2.403446541523352,1.027343844882316,0.878092876070424,0.7554597494309409,-0.2825552651693207,-1.6690993614607135,0.1414185955172306,2.4034451173676383,1.0273381002308042,0.001345962379276482,-0.0007361516195255109,-0.0003587066574377556,0.0004997282992967139,0.0001280390891658824,0.00020471557214660059,0.0007095368784870769,0.0,0.0,0.0,0.0,0.0,0.0,0.0,9.71884080669394e-06,-7.519364734309697e-06,-1.464690987829087e-06,-7.149421472618656e-07,9.953404021850742e-06,-1.4241557138028327e-06,-5.744651511818688e-06,-0.001345962379276482,0.0007361516195255109,0.0003587066574377556,-0.0004997282992967139,-0.0001280390891658824,-0.00020471557214660059,-0.0007095368784870769,0.8592159152030945,46.47658920288086,5.588284015655518,-19.586824417114258,-0.7372947335243225,-2.4108920097351074,0.15964071452617645,0
44,0.21517419815063477,-0.8592159152030945,-46.47658920288086,-5.588284015655518,19.586824417114258,0.7372947335243225,2.4108920097351074,-0.15964071452617645,0.0,0.0,0.0,0.0,0.0,0.0,0.0,-0.8066688704660274,-0.16654756592559783,-0.4385522730629099,0.40414686801753785,0.15692094112764993,0.14923808884495632,-0.14443121385748364,0.8780831572296173,0.7554672687956752,-0.2825538004783329,-1.6690986465185662,0.14140864211320875,2.403446541523352,1.027343844882316,0.878092876070424,0.7554597494309409,-0.2825552651693207,-1.6690993614607135,0.1414185955172306,2.4034451173676383,1.0273381002308042,0.001345962379276482,-0.0007361516195255109,-0.0003587066574377556,0.0004997282992967139,0.0001280390891658824,0.00020471557214660059,0.0007095368784870769,0.0,0.0,0.0,0.0,0.0,0.0,0.0,9.71884080669394e-06,-7.519364734309697e-06,-1.464690987829087e-06,-7.149421472618656e-07,9.953404021850742e-06,-1.4241557138028327e-06,-5.744651511818688e-06,-0.001345962379276482,0.0007361516195255109,0.0003587066574377556,-0.0004997282992967139,-0.0001280390891658824,-0.00020471557214660059,-0.0007095368784870769,0.8592159152030945,46.47658920288086,5.588284015655518,-19.586824417114258,-0.7372947335243225,-2.4108920097351074,0.15964071452617645,0
45,0.21999549865722656,-0.7838374972343445,-46.50039291381836,-5.635891437530518,19.610628128051758,0.7308860421180725,2.4173007011413574,-0.16604940593242645,0.0,0.0,0.0,0.0,0.0,0.0,0.0,-0.8249965111309615,-0.15329115175807728,-0.451539649945093,0.3961262437746208,0.15663761997730025,0.1481220221862338,-0.1437684721081016,0.8780769377242125,0.7554699267636316,-0.28255046843692344,-1.6691007938036926,0.14140935419003167,2.4034458294444616,1.027344556959139,0.878092876070424,0.7554597494309409,-0.2825552651693207,-1.6690993614607135,0.1414185955172306,2.4034451173676383,1.0273381002308042,-0.0007608256481957862,0.0007891338708862554,0.00021626744957444543,-0.00012359969581814573,0.00041436131419222397,-6.787044813080148e-05,0.0008470387796597516,0.0,0.0,0.0,0.0,0.0,0.0,0.0,1.5938346211497034e-05,-1.0177332690708418e-05,-4.7967323972830656e-06,1.4323429791129882e-06,9.241327198927785e-06,-7.120768232837804e-07,-6.456728334880424e-06,0.0007608256481957862,-0.0007891338708862554,-0.00021626744957444543,0.00012359969581814573,-0.00041436131419222397,6.787044813080148e-05,-0.0008470387796597516,0.7838374972343445,46.50039291381836,5.635891437530518,-19.610628128051758,-0.7308860421180725,-2.4173007011413574,0.16604940593242645,0
46,0.2249925136566162,-0.7838374972343445,-46.50039291381836,-5.635891437530518,19.610628128051758,0.7308860421180725,2.4173007011413574,-0.16604940593242645,0.0,0.0,0.0,0.0,0.0,0.0,0.0,-0.8249965111309615,-0.15329115175807728,-0.451539649945093,0.3961262437746208,0.15663761997730025,0.1481220221862338,-0.1437684721081016,0.8780769377242125,0.7554699267636316,-0.28255046843692344,-1.6691007938036926,0.14140935419003167,2.4034458294444616,1.027344556959139,0.878092876070424,0.7554597494309409,-0.2825552651693207,-1.6690993614607135,0.1414185955172306,2.4034451173676383,1.0273381002308042,-0.0007608256481957862,0.0007891338708862554,0.00021626744957444543,-0.00012359969581814573,0.00041436131419222397,-6.787044813080148e-05,0.0008470387796597516,0.0,0.0,0.0,0.0,0.0,0.0,0.0,1.5938346211497034e-05,-1.0177332690708418e-05,-4.7967323972830656e-06,1.4323429791129882e-06,9.241327198927785e-06,-7.120768232837804e-07,-6.456728334880424e-06,0.0007608256481957862,-0.0007891338708862554,-0.00021626744957444543,0.00012359969581814573,-0.00041436131419222397,6.787044813080148e-05,-0.0008470387796597516,0.7838374972343445,46.50039291381836,5.635891437530518,-19.610628128051758,-0.7308860421180725,-2.4173007011413574,0.16604940593242645,0
47,0.23001980781555176,-0.8076412081718445,-46.50039291381836,-5.663662433624268,19.610628128051758,0.7372947335243225,2.4108920097351074,-0.18710653483867645,0.0,0.0,0.0,0.0,0.0,0.0,0.0,-0.8073368394721131,-0.1569750528450819,-0.4433248336437973,0.4005356582434614,0.15622133145947087,0.1484093703462607,-0.1452677560309866,0.8780817870607276,0.7554691335025504,-0.28254851076482435,-1.6691010322222717,0.14140864211320875,2.4034465415212845,1.0273468966401285,0.878092876070424,0.7554597494309409,-0.2825552651693207,-1.6690993614607135,0.1414185955172306,2.4034451173676383,1.0273381002308042,3.984226215483415e-05,0.00044338100552708055,0.0013983397340391894,-0.00027491734710287456,0.0001255753684622743,9.541065765407751e-05,0.0018127370217920092,0.0,0.0,0.0,0.0,0.0,0.0,0.0,1.1089009696374497e-05,-9.384071609552791e-06,-6.754404496378541e-06,1.6707615582145507e-06,9.953404021850742e-06,-1.4241536461234716e-06,-8.796409324274279e-06,-3.984226215483415e-05,-0.00044338100552708055,-0.0013983397340391894,0.00027491734710287456,-0.0001255753684622743,-9.541065765407751e-05,-0.0018127370217920092,0.8076412081718445,46.50039291381836,5.663662433624268,-19.610628128051758,-0.7372947335243225,-2.4108920097351074,0.18710653483867645,0
48,0.23499751091003418,-0.8076412081718445,-46.50039291381836,-5.663662433624268,19.610628128051758,0.7372947335243225,2.4108920097351074,-0.18710653483867645,0.0,0.0,0.0,0.0,0.0,0.0,0.0,-0.8073368394721131,-0.1569750528450819,-0.4433248336437973,0.4005356582434614,0.15622133145947087,0.1484093703462607,-0.1452677560309866,0.8780817870607276,0.7554691335025504,-0.28254851076482435,-1.6691010322222717,0.14140864211320875,2.4034465415212845,1.0273468966401285,0.878092876070424,0.7554597494309409,-0.2825552651693207,-1.6690993614607135,0.1414185955172306,2.4034451173676383,1.0273381002308042,3.984226215483415e-05,0.00044338100552708055,0.0013983397340391894,-0.00027491734710287456,0.0001255753684622743,9.541065765407751e-05,0.0018127370217920092,0.0,0.0,0.0,0.0,0.0,0.0,0.0,1.1089009696374497e-05,-9.384071609552791e-06,-6.754404496378541e-06,1.6707615582145507e-06,9.953404021850742e-06,-1.4241536461234716e-06,-8.796409324274279e-06,-3.984226215483415e-05,-0.00044338100552708055,-0.0013983397340391894,0.00027491734710287456,-0.0001255753684622743,-9.541065765407751e-05,-0.0018127370217920092,0.8076412081718445,46.50039291381836,5.663662433624268,-19.610628128051758,-0.7372947335243225,-2.4108920097351074,0.18710653483867645,0
49,0.2399439811706543,-0.8076412081718445,-46.44881820678711,-5.635891437530518,19.586824417114258,0.7491965889930725,2.4044833183288574,-0.13217489421367645,0.0,0.0,0.0,0.0,0.0,0.0,0.0,-0.8140001441100668,-0.1405933193341179,-0.44636513083359447,0.39206658972843117,0.15599701333496993,0.1469216716056054,-0.14787128165810334,0.8780816836949114,0.7554634479260337,-0.28255046058775213,-1.6690993617877623,0.1414073196848233,2.4034472535981073,1.0273407931245035,0.878092876070424,0.7554597494309409,-0.2825552651693207,-1.6690993614607135,0.1414185955172306,2.4034451173676383,1.0273381002308042,-0.000357190643801361,-0.0003630173919175005,0.0005485773702703245,0.0001853017050705533,-0.0003933488333757516,0.00047520993289530575,-0.0007057623326613112,0.0,0.0,0.0,0.0,0.0,0.0,0.0,1.1192375512614205e-05,-3.6984950928520277e-06,-4.804581568595978e-06,3.2704883246026384e-10,1.1275832407287023e-05,-2.136230468963163e-06,-2.692893699363097e-06,0.000357190643801361,0.0003630173919175005,-0.0005485773702703245,-0.0001853017050705533,0.0003933488333757516,-0.00047520993289530575,0.0007057623326613112,0.8076412081718445,46.44881820678711,5.635891437530518,-19.586824417114258,-0.7491965889930725,-2.4044833183288574,0.13217489421367645,0
50,0.24494051933288574,-0.8076412081718445,-46.44881820678711,-5.635891437530518,19.586824417114258,0.7491965889930725,2.4044833183288574,-0.13217489421367645,0.0,0.0,0.0,0.0,0.0,0.0,0.0,-0.8140001441100668,-0.1405933193341179,-0.44636513083359447,0.39206658972843117,0.15599701333496993,0.1469216716056054,-0.14787128165810334,0.8780816836949114,0.7554634479260337,-0.28255046058775213,-1.6690993617877623,0.1414073196848233,2.4034472535981073,1.0273407931245035,0.878092876070424,0.7554597494309409,-0.2825552651693207,-1.6690993614607135,0.1414185955172306,2.4034451173676383,1.0273381002308042,-0.000357190643801361,-0.0003630173919175005,0.0005485773702703245,0.0001853017050705533,-0.0003933488333757516,0.00047520993289530575,-0.0007057623326613112,0.0,0.0,0.0,0.0,0.0,0.0,0.0,1.1192375512614205e-05,-3.6984950928520277e-06,-4.804581568595978e-06,3.2704883246026384e-10,1.1275832407287023e-05,-2.136230468963163e-06,-2.692893699363097e-06,0.000357190643801361,0.0003630173919175005,-0.0005485773702703245,-0.0001853017050705533,0.0003933488333757516,-0.00047520993289530575,0.0007057623326613112,0.8076412081718445,46.44881820678711,5.635891437530518,-19.586824417114258,-0.7491965889930725,-2.4044833183288574,0.13217489421367645,0
51,0.25000429153442383,-0.8076412081718445,-46.44881820678711,-5.663662433624268,19.634431838989258,0.7308860421180725,2.4173007011413574,-0.17978231608867645,0.0,0.0,0.0,0.0,0.0,0.0,0.0,-0.8153920378433194,-0.1567865739182392,-0.4475135760169024,0.40001564636529774,0.1561814861168881,0.14841962210365314,-0.14891657513511708,0.8780814611182337,0.75546622060184,-0.2825485107647911,-1.669102702659473,0.14140828792916404,2.4034458294444616,1.0273460828380452,0.878092876070424,0.7554597494309409,-0.2825552651693207,-1.6690993614607135,0.1414185955172306,2.4034451173676383,1.0273381002308042,-0.0007916235587851874,-0.0008027478752286803,0.0012056701673724625,-0.000789245722493092,0.0004595327755971789,-0.0001455727430611406,0.0012196876877016444,0.0,0.0,0.0,0.0,0.0,0.0,0.0,1.1414952190258454e-05,-6.4711708991360695e-06,-6.754404529629721e-06,3.3411987594433867e-06,1.0307588066554851e-05,-7.120768232837804e-07,-7.982607240997197e-06,0.0007916235587851874,0.0008027478752286803,-0.0012056701673724625,0.000789245722493092,-0.0004595327755971789,0.0001455727430611406,-0.0012196876877016444,0.8076412081718445,46.44881820678711,5.663662433624268,-19.634431838989258,-0.7308860421180725,-2.4173007011413574,0.17978231608867645,0
52,0.2550175189971924,-0.8076412081718445,-46.44881820678711,-5.663662433624268,19.634431838989258,0.7308860421180725,2.4173007011413574,-0.17978231608867645,0.0,0.0,0.0,0.0,0.0,0.0,0.0,-0.8153920378433194,-0.1567865739182392,-0.4475135760169024,0.40001564636529774,0.1561814861168881,0.14841962210365314,-0.14891657513511708,0.8780814611182337,0.75546622060184,-0.2825485107647911,-1.669102702659473,0.14140828792916404,2.4034458294444616,1.0273460828380452,0.878092876070424,0.7554597494309409,-0.2825552651693207,-1.6690993614607135,0.1414185955172306,2.4034451173676383,1.0273381002308042,-0.0007916235587851874,-0.0008027478752286803,0.0012056701673724625,-0.000789245722493092,0.0004595327755971789,-0.0001455727430611406,0.0012196876877016444,0.0,0.0,0.0,0.0,0.0,0.0,0.0,1.1414952190258454e-05,-6.4711708991360695e-06,-6.754404529629721e-06,3.3411987594433867e-06,1.0307588066554851e-05,-7.120768232837804e-07,-7.982607240997197e-06,0.0007916235587851874,0.0008027478752286803,-0.0012056701673724625,0.000789245722493092,-0.0004595327755971789,0.0001455727430611406,-0.0012196876877016444,0.8076412081718445,46.44881820678711,5.663662433624268,-19.634431838989258,-0.7308860421180725,-2.4173007011413574,0.17978231608867645,0
53,0.26002001762390137,-0.8354122042655945,-46.47658920288086,-5.635891437530518,19.586824417114258,0.7491965889930725,2.4173007011413574,-0.18710653483867645,0.0,0.0,0.0,0.0,0.0,0.0,0.0,-0.8313627597901534,-0.14839365821768583,-0.45556951348938624,0.39334487496281323,0.1563445540176858,0.14779869885410063,-0.14885045002840747,0.8780835012078797,0.7554682446041656,-0.2825504862065752,-1.6690993608066158,0.14140731968281697,2.4034458294444616,1.0273468966401285,0.878092876070424,0.7554597494309409,-0.2825552651693207,-1.6690993614607135,0.1414185955172306,2.4034451173676383,1.0273381002308042,-0.00034853939449238746,-2.3835187372234256e-05,0.000248229607055431,0.0005376877425894578,-0.00025262397328552194,-4.823681891272442e-05,0.0022699190216397356,0.0,0.0,0.0,0.0,0.0,0.0,0.0,9.374862544264673e-06,-8.495173224765118e-06,-4.778962745533022e-06,-6.540976649205277e-10,1.1275834413626562e-05,-7.120768232837804e-07,-8.796409324274279e-06,0.00034853939449238746,2.3835187372234256e-05,-0.000248229607055431,-0.0005376877425894578,0.00025262397328552194,4.823681891272442e-05,-0.0022699190216397356,0.8354122042655945,46.47658920288086,5.635891437530518,-19.586824417114258,-0.7491965889930725,-2.4173007011413574,0.18710653483867645,0
54,0.2650165557861328,-0.8354122042655945,-46.47658920288086,-5.635891437530518,19.586824417114258,0.7491965889930725,2.4173007011413574,-0.18710653483867645,0.0,0.0,0.0,0.0,0.0,0.0,0.0,-0.8313627597901534,-0.14839365821768583,-0.45556951348938624,0.39334487496281323,0.1563445540176858,0.14779869885410063,-0.14885045002840747,0.8780835012078797,0.7554682446041656,-0.2825504862065752,-1.6690993608066158,0.14140731968281697,2.4034458294444616,1.0273468966401285,0.878092876070424,0.7554597494309409,-0.2825552651693207,-1.6690993614607135,0.1414185955172306,2.4034451173676383,1.0273381002308042,-0.00034853939449238746,-2.3835187372234256e-05,0.000248229607055431,0.0005376877425894578,-0.00025262397328552194,-4.823681891272442e-05,0.0022699190216397356,0.0,0.0,0.0,0.0,0.0,0.0,0.0,9.374862544264673e-06,-8.495173224765118e-06,-4.778962745533022e-06,-6.540976649205277e-10,1.1275834413626562e-05,-7.120768232837804e-07,-8.796409324274279e-06,0.00034853939449238746,2.3835187372234256e-05,-0.000248229607055431,-0.0005376877425894578,0.00025262397328552194,4.823681891272442e-05,-0.0022699190216397356,0.8354122042655945,46.47658920288086,5.635891437530518,-19.586824417114258,-0.7491965889930725,-2.4173007011413574,0.18710653483867645,0
55,0.2700459957122803,-0.8592159152030945,-46.54800033569336,-5.612087726593018,19.610628128051758,0.7427878975868225,2.4173007011413574,-0.13858358561992645,0.0,0.0,0.0,0.0,0.0,0.0,0.0,-0.816081107002541,-0.15088889780618972,-0.44316046897255473,0.39408466649177804,0.15648347367747983,0.14761997364403415,-0.14717772656976486,0.8780831841647226,0.7554732426116896,-0.2825521566428809,-1.6691010322236008,0.14140803029901128,2.4034458294444616,1.0273415052013264,0.878092876070424,0.7554597494309409,-0.2825552651693207,-1.6690993614607135,0.1414185955172306,2.4034451173676383,1.0273381002308042,0.0009501279610816507,0.0014090849846164653,-0.0001544247737685112,-0.0005843481618679576,7.159650817984854e-05,-5.8370387723789515e-05,0.00016132599391382454,0.0,0.0,0.0,0.0,0.0,0.0,0.0,9.69190570132561e-06,-1.3493180748724853e-05,-3.1085264398100776e-06,1.6707628873735558e-06,1.056521821932166e-05,-7.120768232837804e-07,-3.404970522202788e-06,-0.0009501279610816507,-0.0014090849846164653,0.0001544247737685112,0.0005843481618679576,-7.159650817984854e-05,5.8370387723789515e-05,-0.00016132599391382454,0.8592159152030945,46.54800033569336,5.612087726593018,-19.610628128051758,-0.7427878975868225,-2.4173007011413574,0.13858358561992645,0
56,0.2750203609466553,-0.8592159152030945,-46.54800033569336,-5.612087726593018,19.610628128051758,0.7427878975868225,2.4173007011413574,-0.13858358561992645,0.0,0.0,0.0,0.0,0.0,0.0,0.0,-0.816081107002541,-0.15088889780618972,-0.44316046897255473,0.39408466649177804,0.15648347367747983,0.14761997364403415,-0.14717772656976486,0.8780831841647226,0.7554732426116896,-0.2825521566428809,-1.6691010322236008,0.14140803029901128,2.4034458294444616,1.0273415052013264,0.878092876070424,0.7554597494309409,-0.2825552651693207,-1.6690993614607135,0.1414185955172306,2.4034451173676383,1.0273381002308042,0.0009501279610816507,0.0014090849846164653,-0.0001544247737685112,-0.0005843481618679576,7.159650817984854e-05,-5.8370387723789515e-05,0.00016132599391382454,0.0,0.0,0.0,0.0,0.0,0.0,0.0,9.69190570132561e-06,-1.3493180748724853e-05,-3.1085264398100776e-06,1.6707628873735558e-06,1.056521821932166e-05,-7.120768232837804e-07,-3.404970522202788e-06,-0.0009501279610816507,-0.0014090849846164653,0.0001544247737685112,0.0005843481618679576,-7.159650817984854e-05,5.8370387723789515e-05,-0.00016132599391382454,0.8592159152030945,46.54800033569336,5.612087726593018,-19.610628128051758,-0.7427878975868225,-2.4173007011413574,0.13858358561992645,0
57,0.2799949645996094,-0.8076412081718445,-46.52419662475586,-5.612087726593018,19.634431838989258,0.7308860421180725,2.4108920097351074,-0.17337362468242645,0.0,0.0,0.0,0.0,0.0,0.0,0.0,-0.8139141403049006,-0.1508992227729338,-0.4436963409515887,0.39405414821165397,0.15686079198554495,0.14815505896930112,-0.1462873710341217,0.8780796451821835,0.7554715064392312,-0.2825528835992639,-1.6691019874037356,0.14140935419003076,2.403446545881935,1.0273453707612223,0.878092876070424,0.7554597494309409,-0.2825552651693207,-1.6690993614607135,0.1414185955172306,2.4034451173676383,1.0273381002308042,-6.817436187422131e-06,0.0015881220613325317,0.00014036014756486074,-0.0007889834775093095,0.00035251130259158787,0.00023704919451160076,0.0011216118290681522,0.0,0.0,0.0,0.0,0.0,0.0,0.0,1.3230888240456373e-05,-1.175700829036952e-05,-2.3815700568308174e-06,2.6259430221386992e-06,9.241327199843719e-06,-1.4285142966308229e-06,-7.270530418157506e-06,6.817436187422131e-06,-0.0015881220613325317,-0.00014036014756486074,0.0007889834775093095,-0.00035251130259158787,-0.00023704919451160076,-0.0011216118290681522,0.8076412081718445,46.52419662475586,5.612087726593018,-19.634431838989258,-0.7308860421180725,-2.4108920097351074,0.17337362468242645,0
58,0.28508448600769043,-0.8076412081718445,-46.52419662475586,-5.612087726593018,19.634431838989258,0.7308860421180725,2.4108920097351074,-0.17337362468242645,0.0,0.0,0.0,0.0,0.0,0.0,0.0,-0.8139141403049006,-0.1508992227729338,-0.4436963409515887,0.39405414821165397,0.15686079198554495,0.14815505896930112,-0.1462873710341217,0.8780796451821835,0.7554715064392312,-0.2825528835992639,-1.6691019874037356,0.14140935419003076,2.403446545881935,1.0273453707612223,0.878092876070424,0.7554597494309409,-0.2825552651693207,-1.6690993614607135,0.1414185955172306,2.4034451173676383,1.0273381002308042,-6.817436187422131e-06,0.0015881220613325317,0.00014036014756486074,-0.0007889834775093095,0.00035251130259158787,0.00023704919451160076,0.0011216118290681522,0.0,0.0,0.0,0.0,0.0,0.0,0.0,1.3230888240456373e-05,-1.175700829036952e-05,-2.3815700568308174e-06,2.6259430221386992e-06,9.241327199843719e-06,-1.4285142966308229e-06,-7.270530418157506e-06,6.817436187422131e-06,-0.0015881220613325317,-0.00014036014756486074,0.0007889834775093095,-0.00035251130259158787,-0.00023704919451160076,-0.0011216118290681522,0.8076412081718445,46.52419662475586,5.612087726593018,-19.634431838989258,-0.7308860421180725,-2.4108920097351074,0.17337362468242645,0
59,0.2899932861328125,-0.8076412081718445,-46.50039291381836,-5.663662433624268,19.559053421020508,0.7372947335243225,2.4108920097351074,-0.13217489421367645,0.0,0.0,0.0,0.0,0.0,0.0,0.0,-0.823673994613826,-0.15030432852552245,-0.451391819633782,0.39304615090823425,0.15667601581842944,0.1483406741115103,-0.1464232580213294,0.8780817821608495,0.7554698183422365,-0.2825492260247657,-1.6690974129418936,0.14140864195069378,2.4034465420058257,1.0273407931245035,0.878092876070424,0.7554597494309409,-0.2825552651693207,-1.6690993614607135,0.1414185955172306,2.4034451173676383,1.0273381002308042,2.0713582231386547e-05,0.0008809242504136307,0.0009436881035769783,0.0008801189920180126,6.675965483350497e-05,0.00032388598375157927,-0.00012405809237205827,0.0,0.0,0.0,0.0,0.0,0.0,0.0,1.1093909574433347e-05,-1.0068911295624261e-05,-6.039144555047837e-06,-1.9485188198498093e-06,9.953566536824443e-06,-1.424638187419447e-06,-2.692893699363097e-06,-2.0713582231386547e-05,-0.0008809242504136307,-0.0009436881035769783,-0.0008801189920180126,-6.675965483350497e-05,-0.00032388598375157927,0.00012405809237205827,0.8076412081718445,46.50039291381836,5.663662433624268,-19.559053421020508,-0.7372947335243225,-2.4108920097351074,0.13217489421367645,0
60,0.2949526309967041,-0.8076412081718445,-46.50039291381836,-5.663662433624268,19.559053421020508,0.7372947335243225,2.4108920097351074,-0.13217489421367645,0.0,0.0,0.0,0.0,0.0,0.0,0.0,-0.823673994613826,-0.15030432852552245,-0.451391819633782,0.39304615090823425,0.15667601581842944,0.1483406741115103,-0.1464232580213294,0.8780817821608495,0.7554698183422365,-0.2825492260247657,-1.6690974129418936,0.14140864195069378,2.4034465420058257,1.0273407931245035,0.878092876070424,0.7554597494309409,-0.2825552651693207,-1.6690993614607135,0.1414185955172306,2.4034451173676383,1.0273381002308042,2.0713582231386547e-05,0.0008809242504136307,0.0009436881035769783,0.0008801189920180126,6.675965483350497e-05,0.00032388598375157927,-0.00012405809237205827,0.0,0.0,0.0,0.0,0.0,0.0,0.0,1.1093909574433347e-05,-1.0068911295624261e-05,-6.039144555047837e-06,-1.9485188198498093e-06,9.953566536824443e-06,-1.424638187419447e-06,-2.692893699363097e-06,-2.0713582231386547e-05,-0.0008809242504136307,-0.0009436881035769783,-0.0008801189920180126,-6.675965483350497e-05,-0.00032388598375157927,0.00012405809237205827,0.8076412081718445,46.50039291381836,5.663662433624268,-19.559053421020508,-0.7372947335243225,-2.4108920097351074,0.13217489421367645,0
61,0.2999446392059326,-0.8354122042655945,-46.50039291381836,-5.612087726593018,19.586824417114258,0.7427878975868225,2.4108920097351074,-0.11111776530742645,0.0,0.0,0.0,0.0,0.0,0.0,0.0,-0.8065956151637476,-0.15760969144160275,-0.441901974880202,0.3974870307728017,0.1558790634296305,0.1492212590835417,-0.1444397974314675,0.878081567368864,0.7554677029904637,-0.28255214283774077,-1.669099335296809,0.14140803176164532,2.403446541521287,1.027338453443514,0.878092876070424,0.7554597494309409,-0.2825552651693207,-1.6690993614607135,0.1414185955172306,2.4034451173676383,1.0273381002308042,0.00068069468618735,0.0005451713881424734,-2.7064310367906095e-06,0.00020861596665911662,-2.9897310906954765e-05,0.00024710881688409623,-0.001029827138453227,0.0,0.0,0.0,0.0,0.0,0.0,0.0,1.130870155996444e-05,-7.953559522877462e-06,-3.122331579952231e-06,-2.6163904376375058e-08,1.0563755585279999e-05,-1.4241536487880069e-06,-3.532127097471971e-07,-0.00068069468618735,-0.0005451713881424734,2.7064310367906095e-06,-0.00020861596665911662,2.9897310906954765e-05,-0.00024710881688409623,0.001029827138453227,0.8354122042655945,46.50039291381836,5.612087726593018,-19.586824417114258,-0.7427878975868225,-2.4108920097351074,0.11111776530742645,0
62,0.3049960136413574,-0.8354122042655945,-46.50039291381836,-5.612087726593018,19.586824417114258,0.7427878975868225,2.4108920097351074,-0.11111776530742645,0.0,0.0,0.0,0.0,0.0,0.0,0.0,-0.8065956151637476,-0.15760969144160275,-0.441901974880202,0.3974870307728017,0.1558790634296305,0.1492212590835417,-0.1444397974314675,0.878081567368864,0.7554677029904637,-0.28255214283774077,-1.669099335296809,0.14140803176164532,2.403446541521287,1.027338453443514,0.878092876070424,0.7554597494309409,-0.2825552651693207,-1.6690993614607135,0.1414185955172306,2.4034451173676383,1.0273381002308042,0.00068069468618735,0.0005451713881424734,-2.7064310367906095e-06,0.00020861596665911662,-2.9897310906954765e-05,0.00024710881688409623,-0.001029827138453227,0.0,0.0,0.0,0.0,0.0,0.0,0.0,1.130870155996444e-05,-7.953559522877462e-06,-3.122331579952231e-06,-2.6163904376375058e-08,1.0563755585279999e-05,-1.4241536487880069e-06,-3.532127097471971e-07,-0.00068069468618735,-0.0005451713881424734,2.7064310367906095e-06,-0.00020861596665911662,2.9897310906954765e-05,-0.00024710881688409623,0.001029827138453227,0.8354122042655945,46.50039291381836,5.612087726593018,-19.586824417114258,-0.7427878975868225,-2.4108920097351074,0.11111776530742645,0
63,0.30999231338500977,-0.7838374972343445,-46.47658920288086,-5.612087726593018,19.610628128051758,0.7427878975868225,2.4108920097351074,-0.16604940593242645,0.0,0.0,0.0,0.0,0.0,0.0,0.0,-0.8081396665035477,-0.1448277358296886,-0.4419375119080466,0.3876094429043756,0.15629988824918958,0.14842756674365248,-0.14277332294309708,0.8780778589763337,0.7554680100977769,-0.28255236889717733,-1.669101032223468,0.14140767585381206,2.4034465415212845,1.027344556959139,0.878092876070424,0.7554597494309409,-0.2825552651693207,-1.6690993614607135,0.1414185955172306,2.4034451173676383,1.0273381002308042,-0.00013876796364563847,0.00024316634914094536,-1.9890151580029898e-05,-0.00042356361567477853,-0.007317822192467131,0.00012160262540579226,0.0011793472682255644,0.0,0.0,0.0,0.0,0.0,0.0,0.0,1.5017094090241656e-05,-8.260666836013009e-06,-2.896272143393386e-06,1.670762754590882e-06,1.0919663418540448e-05,-1.4241536461234716e-06,-6.456728334880424e-06,0.00013876796364563847,-0.00024316634914094536,1.9890151580029898e-05,0.00042356361567477853,0.007317822192467131,-0.00012160262540579226,-0.0011793472682255644,0.7838374972343445,46.47658920288086,5.612087726593018,-19.610628128051758,-0.7427878975868225,-2.4108920097351074,0.16604940593242645,0
64,0.3149912357330322,-0.7838374972343445,-46.47658920288086,-5.612087726593018,19.610628128051758,0.7427878975868225,2.4108920097351074,-0.16604940593242645,0.0,0.0,0.0,0.0,0.0,0.0,0.0,-0.8081396665035477,-0.1448277358296886,-0.4419375119080466,0.3876094429043756,0.15629988824918958,0.14842756674365248,-0.14277332294309708,0.8780778589763337,0.7554680100977769,-0.28255236889717733,-1.669101032223468,0.14140767585381206,2.4034465415212845,1.027344556959139,0.878092876070424,0.7554597494309409,-0.2825552651693207,-1.6690993614607135,0.1414185955172306,2.4034451173676383,1.0273381002308042,-0.00013876796364563847,0.00024316634914094536,-1.9890151580029898e-05,-0.00042356361567477853,-0.007317822192467131,0.00012160262540579226,0.0011793472682255644,0.0,0.0,0.0,0.0,0.0,0.0,0.0,1.5017094090241656e-05,-8.260666836013009e-06,-2.896272143393386e-06,1.670762754590882e-06,1.0919663418540448e-05,-1.4241536461234716e-06,-6.456728334880424e-06,0.00013876796364563847,-0.00024316634914094536,1.9890151580029898e-05,0.00042356361567477853,0.007317822192467131,-0.00012160262540579226,-0.0011793472682255644,0.7838374972343445,46.47658920288086,5.612087726593018,-19.610628128051758,-0.7427878975868225,-2.4108920097351074,0.16604940593242645,0
65,0.3199946880340576,-0.7838374972343445,-46.47658920288086,-5.612087726593018,19.610628128051758,0.7427878975868225,2.4108920097351074,-0.16604940593242645,0.0,0.0,0.0,0.0,0.0,0.0,0.0,-0.8081396665035477,-0.1448277358296886,-0.4419375119080466,0.3876094429043756,0.15629988824918958,0.14842756674365248,-0.14277332294309708,0.8780778589763337,0.7554680100977769,-0.28255236889717733,-1.669101032223468,0.14140767585381206,2.4034465415212845,1.027344556959139,0.878092876070424,0.7554597494309409,-0.2825552651693207,-1.6690993614607135,0.1414185955172306,2.4034451173676383,1.0273381002308042,-0.00013876796364563847,0.00024316634914094536,-1.9890151580029898e-05,-0.00042356361567477853,-0.007317822192467131,0.00012160262540579226,0.0011793472682255644,0.0,0.0,0.0,0.0,0.0,0.0,0.0,1.5017094090241656e-05,-8.260666836013009e-06,-2.896272143393386e-06,1.670762754590882e-06,1.0919663418540448e-05,-1.4241536461234716e-06,-6.456728334880424e-06,0.00013876796364563847,-0.00024316634914094536,1.9890151580029898e-05,0.00042356361567477853,0.007317822192467131,-0.00012160262540579226,-0.0011793472682255644,0.7838374972343445,46.47658920288086,5.612087726593018,-19.610628128051758,-0.7427878975868225,-2.4108920097351074,0.16604940593242645,0
66,0.324998140335083,-0.7838374972343445,-46.47658920288086,-5.612087726593018,19.610628128051758,0.7427878975868225,2.4108920097351074,-0.16604940593242645,0.0,0.0,0.0,0.0,0.0,0.0,0.0,-0.8081396665035477,-0.1448277358296886,-0.4419375119080466,0.3876094429043756,0.15629988824918958,0.14842756674365248,-0.14277332294309708,0.8780778589763337,0.7554680100977769,-0.28255236889717733,-1.669101032223468,0.14140767585381206,2.4034465415212845,1.027344556959139,0.878092876070424,0.7554597494309409,-0.2825552651693207,-1.6690993614607135,0.1414185955172306,2.4034451173676383,1.0273381002308042,-0.00013876796364563847,0.00024316634914094536,-1.9890151580029898e-05,-0.00042356361567477853,-0.007317822192467131,0.00012160262540579226,0.0011793472682255644,0.0,0.0,0.0,0.0,0.0,0.0,0.0,1.5017094090241656e-05,-8.260666836013009e-06,-2.896272143393386e-06,1.670762754590882e-06,1.0919663418540448e-05,-1.4241536461234716e-06,-6.456728334880424e-06,0.00013876796364563847,-0.00024316634914094536,1.9890151580029898e-05,0.00042356361567477853,0.007317822192467131,-0.00012160262540579226,-0.0011793472682255644,0.7838374972343445,46.47658920288086,5.612087726593018,-19.610628128051758,-0.7427878975868225,-2.4108920097351074,0.16604940593242645,0
67,0.33037829399108887,-0.7838374972343445,-46.50039291381836,-5.588284015655518,19.634431838989258,0.7308860421180725,2.4044833183288574,-0.12485067546367645,0.0,0.0,0.0,0.0,0.0,0.0,0.0,-0.8217687311858682,-0.14943008749652806,-0.45338051703598453,0.3900428362587032,0.15696282888259797,0.14901071775289676,-0.1423300159627717,0.8780798455792906,0.7554691065741421,-0.28255380047966455,-1.669102702659473,0.14140935418802258,2.4034472535981073,1.0273399793224203,0.878092876070424,0.7554597494309409,-0.2825552651693207,-1.6690993614607135,0.1414185955172306,2.4034451173676383,1.0273381002308042,-0.0009797051393056193,0.0011679100930064564,-0.0007656636844525292,-0.0007634940584323328,0.0072880479726952435,0.0005660322393708087,-0.0017724966271209664,0.0,0.0,0.0,0.0,0.0,0.0,0.0,1.3030491133325661e-05,-9.35714320127179e-06,-1.4646896561720801e-06,3.3411987594433867e-06,9.241329208015125e-06,-2.136230468963163e-06,-1.879091616086015e-06,0.0009797051393056193,-0.0011679100930064564,0.0007656636844525292,0.0007634940584323328,-0.0072880479726952435,-0.0005660322393708087,0.0017724966271209664,0.7838374972343445,46.50039291381836,5.588284015655518,-19.634431838989258,-0.7308860421180725,-2.4044833183288574,0.12485067546367645,0
68,0.33499741554260254,-0.7838374972343445,-46.50039291381836,-5.588284015655518,19.634431838989258,0.7308860421180725,2.4044833183288574,-0.12485067546367645,0.0,0.0,0.0,0.0,0.0,0.0,0.0,-0.8217687311858682,-0.14943008749652806,-0.45338051703598453,0.3900428362587032,0.15696282888259797,0.14901071775289676,-0.1423300159627717,0.8780798455792906,0.7554691065741421,-0.28255380047966455,-1.669102702659473,0.14140935418802258,2.4034472535981073,1.0273399793224203,0.878092876070424,0.7554597494309409,-0.2825552651693207,-1.6690993614607135,0.1414185955172306,2.4034451173676383,1.0273381002308042,-0.0009797051393056193,0.0011679100930064564,-0.0007656636844525292,-0.0007634940584323328,0.0072880479726952435,0.0005660322393708087,-0.0017724966271209664,0.0,0.0,0.0,0.0,0.0,0.0,0.0,1.3030491133325661e-05,-9.35714320127179e-06,-1.4646896561720801e-06,3.3411987594433867e-06,9.241329208015125e-06,-2.136230468963163e-06,-1.879091616086015e-06,0.0009797051393056193,-0.0011679100930064564,0.0007656636844525292,0.0007634940584323328,-0.0072880479726952435,-0.0005660322393708087,0.0017724966271209664,0.7838374972343445,46.50039291381836,5.588284015655518,-19.634431838989258,-0.7308860421180725,-2.4044833183288574,0.12485067546367645,0
69,0.33994531631469727,-0.8076412081718445,-46.42501449584961,-5.612087726593018,19.658235549926758,0.7427878975868225,2.4173007011413574,-0.13217489421367645,0.0,0.0,0.0,0.0,0.0,0.0,0.0,-0.8042468538004893,-0.15123297779954162,-0.43919525792690894,0.3934895575550537,0.15572014562068634,0.14932083367514878,-0.14323031986364315,0.8780817557531347,0.7554646266302025,-0.2825522095153206,-1.669104373095328,0.1414079132882165,2.4034458294444616,1.0273407931245035,0.878092876070424,0.7554597494309409,-0.2825552651693207,-1.6690993614607135,0.1414185955172306,2.4034451173676383,1.0273381002308042,-0.00026841976491357117,-0.0014589437819821532,9.285645203762773e-05,-0.0015346116517030218,0.0002640954613245408,2.9066258333663573e-05,-0.0005587439926343369,0.0,0.0,0.0,0.0,0.0,0.0,0.0,1.1120317289226023e-05,-4.877199261676957e-06,-3.0556540001058785e-06,5.011634614637828e-06,1.0682229014097322e-05,-7.120768232837804e-07,-2.692893699363097e-06,0.00026841976491357117,0.0014589437819821532,-9.285645203762773e-05,0.0015346116517030218,-0.0002640954613245408,-2.9066258333663573e-05,0.0005587439926343369,0.8076412081718445,46.42501449584961,5.612087726593018,-19.658235549926758,-0.7427878975868225,-2.4173007011413574,0.13217489421367645,0
70,0.3449540138244629,-0.8076412081718445,-46.42501449584961,-5.612087726593018,19.658235549926758,0.7427878975868225,2.4173007011413574,-0.13217489421367645,0.0,0.0,0.0,0.0,0.0,0.0,0.0,-0.8042468538004893,-0.15123297779954162,-0.43919525792690894,0.3934895575550537,0.15572014562068634,0.14932083367514878,-0.14323031986364315,0.8780817557531347,0.7554646266302025,-0.2825522095153206,-1.669104373095328,0.1414079132882165,2.4034458294444616,1.0273407931245035,0.878092876070424,0.7554597494309409,-0.2825552651693207,-1.6690993614607135,0.1414185955172306,2.4034451173676383,1.0273381002308042,-0.00026841976491357117,-0.0014589437819821532,9.285645203762773e-05,-0.0015346116517030218,0.0002640954613245408,2.9066258333663573e-05,-0.0005587439926343369,0.0,0.0,0.0,0.0,0.0,0.0,0.0,1.1120317289226023e-05,-4.877199261676957e-06,-3.0556540001058785e-06,5.011634614637828e-06,1.0682229014097322e-05,-7.120768232837804e-07,-2.692893699363097e-06,0.00026841976491357117,0.0014589437819821532,-9.285645203762773e-05,0.0015346116517030218,-0.0002640954613245408,-2.9066258333663573e-05,0.0005587439926343369,0.8076412081718445,46.42501449584961,5.612087726593018,-19.658235549926758,-0.7427878975868225,-2.4173007011413574,0.13217489421367645,0
71,0.3499436378479004,-0.8592159152030945,-46.50039291381836,-5.663662433624268,19.586824417114258,0.7491965889930725,2.4173007011413574,-0.17337362468242645,0.0,0.0,0.0,0.0,0.0,0.0,0.0,-0.8187716656302767,-0.14624975674125404,-0.44742807815900165,0.3907665673974996,0.15598219613179903,0.14788285151285552,-0.14296488429158422,0.8780831720677604,0.7554689715769941,-0.2825487502739649,-1.6690992823149027,0.14140696426386531,2.403445868690318,1.0273453707612223,0.878092876070424,0.7554597494309409,-0.2825552651693207,-1.6690993614607135,0.1414185955172306,2.4034451173676383,1.0273381002308042,0.0009537494682417632,0.0006282821218764078,0.0007193039464827395,-4.0929208119696567e-05,-0.00016199142230270298,-0.0002996175882504205,0.010668993665446718,0.0,0.0,0.0,0.0,0.0,0.0,0.0,9.704002663535327e-06,-9.222146053255997e-06,-6.514895355802519e-06,-7.91458107940457e-08,1.1631253365285144e-05,-7.513226796262984e-07,-7.270530418157506e-06,-0.0009537494682417632,-0.0006282821218764078,-0.0007193039464827395,4.0929208119696567e-05,0.00016199142230270298,0.0002996175882504205,-0.010668993665446718,0.8592159152030945,46.50039291381836,5.663662433624268,-19.586824417114258,-0.7491965889930725,-2.4173007011413574,0.17337362468242645,0
72,0.3549990653991699,-0.8592159152030945,-46.50039291381836,-5.663662433624268,19.586824417114258,0.7491965889930725,2.4173007011413574,-0.17337362468242645,0.0,0.0,0.0,0.0,0.0,0.0,0.0,-0.8187716656302767,-0.14624975674125404,-0.44742807815900165,0.3907665673974996,0.15598219613179903,0.14788285151285552,-0.14296488429158422,0.8780831720677604,0.7554689715769941,-0.2825487502739649,-1.6690992823149027,0.14140696426386531,2.403445868690318,1.0273453707612223,0.878092876070424,0.7554597494309409,-0.2825552651693207,-1.6690993614607135,0.1414185955172306,2.4034451173676383,1.0273381002308042,0.0009537494682417632,0.0006282821218764078,0.0007193039464827395,-4.0929208119696567e-05,-0.00016199142230270298,-0.0002996175882504205,0.010668993665446718,0.0,0.0,0.0,0.0,0.0,0.0,0.0,9.704002663535327e-06,-9.222146053255997e-06,-6.514895355802519e-06,-7.91458107940457e-08,1.1631253365285144e-05,-7.513226796262984e-07,-7.270530418157506e-06,-0.0009537494682417632,-0.0006282821218764078,-0.0007193039464827395,4.0929208119696567e-05,0.00016199142230270298,0.0002996175882504205,-0.010668993665446718,0.8592159152030945,46.50039291381836,5.663662433624268,-19.586824417114258,-0.7491965889930725,-2.4173007011413574,0.17337362468242645,0
73,0.3599967956542969,-0.8354122042655945,-46.44881820678711,-5.612087726593018,19.610628128051758,0.7427878975868225,2.4108920097351074,-0.11111776530742645,0.0,0.0,0.0,0.0,0.0,0.0,0.0,-0.8130154236758239,-0.16201492245140167,-0.4474973437228137,0.4010787807985332,0.1564287727217633,0.14878657278684992,-0.14374437474220325,0.8780833952320523,0.7554663000087348,-0.28255213004381297,-1.669101032223169,0.1414080317596399,2.4034476011596353,1.027338453443514,0.878092876070424,0.7554597494309409,-0.2825552651693207,-1.6690993614607135,0.1414185955172306,2.4034451173676383,1.0273381002308042,0.00015070785977167145,-0.0008607601301800705,-0.0007170622256639832,0.0002507517995658517,9.425829885480136e-05,0.00013956488505187202,-0.0011771815874829293,0.0,0.0,0.0,0.0,0.0,0.0,0.0,9.480838371711542e-06,-6.550577793973389e-06,-3.1351255077582962e-06,1.6707624554967992e-06,1.0563757590703604e-05,-2.4837919969655786e-06,-3.532127097471971e-07,-0.00015070785977167145,0.0008607601301800705,0.0007170622256639832,-0.0002507517995658517,-9.425829885480136e-05,-0.00013956488505187202,0.0011771815874829293,0.8354122042655945,46.44881820678711,5.612087726593018,-19.610628128051758,-0.7427878975868225,-2.4108920097351074,0.11111776530742645,0
74,0.3650357723236084,-0.8354122042655945,-46.44881820678711,-5.612087726593018,19.610628128051758,0.7427878975868225,2.4108920097351074,-0.11111776530742645,0.0,0.0,0.0,0.0,0.0,0.0,0.0,-0.8130154236758239,-0.16201492245140167,-0.4474973437228137,0.4010787807985332,0.1564287727217633,0.14878657278684992,-0.14374437474220325,0.8780833952320523,0.7554663000087348,-0.28255213004381297,-1.669101032223169,0.1414080317596399,2.4034476011596353,1.027338453443514,0.878092876070424,0.7554597494309409,-0.2825552651693207,-1.6690993614607135,0.1414185955172306,2.4034451173676383,1.0273381002308042,0.00015070785977167145,-0.0008607601301800705,-0.0007170622256639832,0.0002507517995658517,9.425829885480136e-05,0.00013956488505187202,-0.0011771815874829293,0.0,0.0,0.0,0.0,0.0,0.0,0.0,9.480838371711542e-06,-6.550577793973389e-06,-3.1351255077582962e-06,1.6707624554967992e-06,1.0563757590703604e-05,-2.4837919969655786e-06,-3.532127097471971e-07,-0.00015070785977167145,0.0008607601301800705,0.0007170622256639832,-0.0002507517995658517,-9.425829885480136e-05,-0.00013956488505187202,0.0011771815874829293,0.8354122042655945,46.44881820678711,5.612087726593018,-19.610628128051758,-0.7427878975868225,-2.4108920097351074,0.11111776530742645,0
75,0.3699991703033447,-0.8076412081718445,-46.47658920288086,-5.588284015655518,19.610628128051758,0.7491965889930725,2.4044833183288574,-0.11111776530742645,0.0,0.0,0.0,0.0,0.0,0.0,0.0,-0.8006467509156034,-0.14433373142533154,-0.4336568861359254,0.3922428676608125,0.15649557675315037,0.14714608573660104,-0.14296697224253024,0.8780817115903373,0.7554682577831706,-0.2825540388968953,-1.6691010322236175,0.1414073196848233,2.403447253600101,1.027338453443514,0.878092876070424,0.7554597494309409,-0.2825552651693207,-1.6690993614607135,0.1414185955172306,2.4034451173676383,1.0273381002308042,-0.00023231471096776322,0.00025187207485546405,0.0001730396677357982,-0.00022037473007976494,-0.0002620056554279887,0.0003489199391512016,-0.00096807175718457,0.0,0.0,0.0,0.0,0.0,0.0,0.0,1.1164480086645057e-05,-8.508352229763538e-06,-1.226272425436381e-06,1.6707629040269012e-06,1.1275832407287023e-05,-2.136232462479626e-06,-3.532127097471971e-07,0.00023231471096776322,-0.00025187207485546405,-0.0001730396677357982,0.00022037473007976494,0.0002620056554279887,-0.0003489199391512016,0.00096807175718457,0.8076412081718445,46.47658920288086,5.588284015655518,-19.610628128051758,-0.7491965889930725,-2.4044833183288574,0.11111776530742645,0
76,0.3749961853027344,-0.8076412081718445,-46.47658920288086,-5.588284015655518,19.610628128051758,0.7491965889930725,2.4044833183288574,-0.11111776530742645,0.0,0.0,0.0,0.0,0.0,0.0,0.0,-0.8006467509156034,-0.14433373142533154,-0.4336568861359254,0.3922428676608125,0.15649557675315037,0.14714608573660104,-0.14296697224253024,0.8780817115903373,0.7554682577831706,-0.2825540388968953,-1.6691010322236175,0.1414073196848233,2.403447253600101,1.027338453443514,0.878092876070424,0.7554597494309409,-0.2825552651693207,-1.6690993614607135,0.1414185955172306,2.4034451173676383,1.0273381002308042,-0.00023231471096776322,0.00025187207485546405,0.0001730396677357982,-0.00022037473007976494,-0.0002620056554279887,0.0003489199391512016,-0.00096807175718457,0.0,0.0,0.0,0.0,0.0,0.0,0.0,1.1164480086645057e-05,-8.508352229763538e-06,-1.226272425436381e-06,1.6707629040269012e-06,1.1275832407287023e-05,-2.136232462479626e-06,-3.532127097471971e-07,0.00023231471096776322,-0.00025187207485546405,-0.0001730396677357982,0.00022037473007976494,0.0002620056554279887,-0.0003489199391512016,0.00096807175718457,0.8076412081718445,46.47658920288086,5.588284015655518,-19.610628128051758,-0.7491965889930725,-2.4044833183288574,0.11111776530742645,0
77,0.3800215721130371,-0.7838374972343445,-46.50039291381836,-5.663662433624268,19.610628128051758,0.7427878975868225,2.4301180839538574,-0.15231649577617645,0.0,0.0,0.0,0.0,0.0,0.0,0.0,-0.8224828513253659,-0.14789822903674463,-0.44608983666629526,0.3923549429376417,0.15741466423546321,0.1468400636243041,-0.1419566733856133,0.8780793789293027,0.7554691765639846,-0.2825485902389801,-1.6691010322236175,0.14140804488447956,2.4034444052908155,1.0273430310802327,0.878092876070424,0.7554597494309409,-0.2825552651693207,-1.6690993614607135,0.1414185955172306,2.4034451173676383,1.0273381002308042,-0.00034771702863802895,0.0006672785437623543,0.0011516095700409906,-0.0006131936333233695,-7.341915405138925e-05,-0.0006685655327833524,-0.00012069812075725613,0.0,0.0,0.0,0.0,0.0,0.0,0.0,1.3497141121310285e-05,-9.427133043748981e-06,-6.674930340622165e-06,1.6707629040269012e-06,1.0550632751044065e-05,7.120768228396912e-07,-4.930849428541606e-06,0.00034771702863802895,-0.0006672785437623543,-0.0011516095700409906,0.0006131936333233695,7.341915405138925e-05,0.0006685655327833524,0.00012069812075725613,0.7838374972343445,46.50039291381836,5.663662433624268,-19.610628128051758,-0.7427878975868225,-2.4301180839538574,0.15231649577617645,0
78,0.3850135803222656,-0.7838374972343445,-46.50039291381836,-5.663662433624268,19.610628128051758,0.7427878975868225,2.4301180839538574,-0.15231649577617645,0.0,0.0,0.0,0.0,0.0,0.0,0.0,-0.8224828513253659,-0.14789822903674463,-0.44608983666629526,0.3923549429376417,0.15741466423546321,0.1468400636243041,-0.1419566733856133,0.8780793789293027,0.7554691765639846,-0.2825485902389801,-1.6691010322236175,0.14140804488447956,2.4034444052908155,1.0273430310802327,0.878092876070424,0.7554597494309409,-0.2825552651693207,-1.6690993614607135,0.1414185955172306,2.4034451173676383,1.0273381002308042,-0.00034771702863802895,0.0006672785437623543,0.0011516095700409906,-0.0006131936333233695,-7.341915405138925e-05,-0.0006685655327833524,-0.00012069812075725613,0.0,0.0,0.0,0.0,0.0,0.0,0.0,1.3497141121310285e-05,-9.427133043748981e-06,-6.674930340622165e-06,1.6707629040269012e-06,1.0550632751044065e-05,7.120768228396912e-07,-4.930849428541606e-06,0.00034771702863802895,-0.0006672785437623543,-0.0011516095700409906,0.0006131936333233695,7.341915405138925e-05,0.0006685655327833524,0.00012069812075725613,0.7838374972343445,46.50039291381836,5.663662433624268,-19.610628128051758,-0.7427878975868225,-2.4301180839538574,0.15231649577617645,0
79,0.3900468349456787,-0.8076412081718445,-46.50039291381836,-5.588284015655518,19.634431838989258,0.7491965889930725,2.4173007011413574,-0.17978231608867645,0.0,0.0,0.0,0.0,0.0,0.0,0.0,-0.8106700339458622,-0.15293243582620858,-0.4419452509914543,0.398512640135568,0.15759508395715666,0.14742168493114538,-0.14278783159202804,0.8780808010950376,0.755469925174457,-0.2825538008058136,-1.6691027016783264,0.1414073196848974,2.4034458294444616,1.0273460828380452,0.878092876070424,0.7554597494309409,-0.2825552651693207,-1.6690993614607135,0.1414185955172306,2.4034451173676383,1.0273381002308042,0.0001669586188475159,0.0006194022745785332,-0.000455469157802034,-0.0004693216128423907,-0.00014911865689373627,-0.00019238200604844126,0.0018700925290958102,0.0,0.0,0.0,0.0,0.0,0.0,0.0,1.2074975386355824e-05,-1.0175743516138702e-05,-1.4643635071198702e-06,3.340217612946006e-06,1.1275832333207392e-05,-7.120768232837804e-07,-7.982607240997197e-06,-0.0001669586188475159,-0.0006194022745785332,0.000455469157802034,0.0004693216128423907,0.00014911865689373627,0.00019238200604844126,-0.0018700925290958102,0.8076412081718445,46.50039291381836,5.588284015655518,-19.634431838989258,-0.7491965889930725,-2.4173007011413574,0.17978231608867645,0
80,0.3950614929199219,-0.8076412081718445,-46.50039291381836,-5.588284015655518,19.634431838989258,0.7491965889930725,2.4173007011413574,-0.17978231608867645,0.0,0.0,0.0,0.0,0.0,0.0,0.0,-0.8106700339458622,-0.15293243582620858,-0.4419452509914543,0.398512640135568,0.15759508395715666,0.14742168493114538,-0.14278783159202804,0.8780808010950376,0.755469925174457,-0.2825538008058136,-1.6691027016783264,0.1414073196848974,2.4034458294444616,1.0273460828380452,0.878092876070424,0.7554597494309409,-0.2825552651693207,-1.6690993614607135,0.1414185955172306,2.4034451173676383,1.0273381002308042,0.0001669586188475159,0.0006194022745785332,-0.000455469157802034,-0.0004693216128423907,-0.00014911865689373627,-0.00019238200604844126,0.0018700925290958102,0.0,0.0,0.0,0.0,0.0,0.0,0.0,1.2074975386355824e-05,-1.0175743516138702e-05,-1.4643635071198702e-06,3.340217612946006e-06,1.1275832333207392e-05,-7.120768232837804e-07,-7.982607240997197e-06,-0.0001669586188475159,-0.0006194022745785332,0.000455469157802034,0.0004693216128423907,0.00014911865689373627,0.00019238200604844126,-0.0018700925290958102,0.8076412081718445,46.50039291381836,5.588284015655518,-19.634431838989258,-0.7491965889930725,-2.4173007011413574,0.17978231608867645,0
