rezayati/contactInterpretation/dataset/franka_main/labeled_data/link2/f1_6.csv
index,time,tau_J0,tau_J1,tau_J2,tau_J3,tau_J4,tau_J5,tau_J6,tau_J_d0,tau_J_d1,tau_J_d2,tau_J_d3,tau_J_d4,tau_J_d5,tau_J_d6,tau_ext0,tau_ext1,tau_ext2,tau_ext3,tau_ext4,tau_ext5,tau_ext6,q0,q1,q2,q3,q4,q5,q6,q_d0,q_d1,q_d2,q_d3,q_d4,q_d5,q_d6,dq0,dq1,dq2,dq3,dq4,dq5,dq6,dq_d0,dq_d1,dq_d2,dq_d3,dq_d4,dq_d5,dq_d6,e0,e1,e2,e3,e4,e5,e6,de0,de1,de2,de3,de4,de5,de6,etau_J0,etau_J1,etau_J2,etau_J3,etau_J4,etau_J5,etau_J6,label
1,0.0,0.10880166292190552,-18.277124404907227,1.1441986560821533,18.047517776489258,0.4983420968055725,2.2360262870788574,-0.15231649577617645,0.0,0.0,0.0,0.0,0.0,0.0,0.0,0.14104008965577855,0.39964806080026466,0.3226764570080299,0.4221712806073361,0.07246301330687777,0.055059892084529494,-0.18218944697890488,-0.6091025250529364,-0.0574337105547127,-0.6666014266348723,-2.5945570598736145,-0.055622407958691555,2.5079742443715074,0.8763130721247706,-0.6090851748156966,-0.05753196718556838,-0.666603097082616,-2.5945565370258534,-0.05562143941554,2.507976027223799,0.8763108487046415,0.0006636719654686891,9.469533007071327e-05,0.0004580739599722922,3.5356715794442366e-05,-0.00018378141738514215,9.491967480064207e-05,-0.0013267825595646844,0.0,0.0,0.0,0.0,0.0,0.0,0.0,1.735023723981044e-05,-9.825663085568509e-05,-1.6704477436846332e-06,5.228477610863536e-07,9.685431515554788e-07,1.7828522915763756e-06,-2.2234201291215783e-06,-0.0006636719654686891,-9.469533007071327e-05,-0.0004580739599722922,-3.5356715794442366e-05,0.00018378141738514215,-9.491967480064207e-05,0.0013267825595646844,-0.10880166292190552,18.277124404907227,-1.1441986560821533,-18.047517776489258,-0.4983420968055725,-2.2360262870788574,0.15231649577617645,0
2,0.0050008296966552734,0.13260537385940552,-18.304895401000977,1.0926239490509033,18.023714065551758,0.4983420968055725,2.2360262870788574,-0.19351522624492645,0.0,0.0,0.0,0.0,0.0,0.0,0.0,0.1311144073738832,0.3885091162647211,0.31864895055943177,0.42433030241174147,0.07302727339253941,0.05509201501255687,-0.18129351907388178,-0.6091027807966497,-0.05743176171288156,-0.6665978083201628,-2.594555389437759,-0.0556205801368452,2.5079732181683783,0.8763176642970085,-0.6090851748156966,-0.05753196718556838,-0.666603097082616,-2.5945565370258534,-0.05562143941554,2.507976027223799,0.8763108487046415,4.4495544378863365e-05,-0.0006195025358510229,0.0004886035597310772,0.0006816544955174733,5.22359251612445e-05,-1.4474928268542237e-05,0.00032523367720847107,0.0,0.0,0.0,0.0,0.0,0.0,0.0,1.7605980953128153e-05,-0.00010020547268682622,-5.288762453203866e-06,-1.147588094330132e-06,-8.592786948022346e-07,2.809055420716078e-06,-6.8155923670376595e-06,-4.4495544378863365e-05,0.0006195025358510229,-0.0004886035597310772,-0.0006816544955174733,-5.22359251612445e-05,1.4474928268542237e-05,-0.00032523367720847107,-0.13260537385940552,18.304895401000977,-1.0926239490509033,-18.023714065551758,-0.4983420968055725,-2.2360262870788574,0.19351522624492645,0
3,0.010119199752807617,0.13260537385940552,-18.304895401000977,1.0926239490509033,18.023714065551758,0.4983420968055725,2.2360262870788574,-0.19351522624492645,0.0,0.0,0.0,0.0,0.0,0.0,0.0,0.1311144073738832,0.3885091162647211,0.31864895055943177,0.42433030241174147,0.07302727339253941,0.05509201501255687,-0.18129351907388178,-0.6091027807966497,-0.05743176171288156,-0.6665978083201628,-2.594555389437759,-0.0556205801368452,2.5079732181683783,0.8763176642970085,-0.6090851748156966,-0.05753196718556838,-0.666603097082616,-2.5945565370258534,-0.05562143941554,2.507976027223799,0.8763108487046415,4.4495544378863365e-05,-0.0006195025358510229,0.0004886035597310772,0.0006816544955174733,5.22359251612445e-05,-1.4474928268542237e-05,0.00032523367720847107,0.0,0.0,0.0,0.0,0.0,0.0,0.0,1.7605980953128153e-05,-0.00010020547268682622,-5.288762453203866e-06,-1.147588094330132e-06,-8.592786948022346e-07,2.809055420716078e-06,-6.8155923670376595e-06,-4.4495544378863365e-05,0.0006195025358510229,-0.0004886035597310772,-0.0006816544955174733,-5.22359251612445e-05,1.4474928268542237e-05,-0.00032523367720847107,-0.13260537385940552,18.304895401000977,-1.0926239490509033,-18.023714065551758,-0.4983420968055725,-2.2360262870788574,0.19351522624492645,0
4,0.015021800994873047,0.10880166292190552,-18.376306533813477,1.1441986560821533,18.071321487426758,0.5047507882118225,2.2488436698913574,-0.14590780436992645,0.0,0.0,0.0,0.0,0.0,0.0,0.0,0.1321221972317671,0.37833027388471613,0.3132554134047024,0.42428446976819734,0.07340034478667085,0.055318817149591415,-0.18064301832730953,-0.6091024730198253,-0.057426750405315766,-0.6666014266348775,-2.5945587303094695,-0.05562024203954192,2.507973289765978,0.8763123745835488,-0.6090851748156966,-0.05753196718556838,-0.666603097082616,-2.5945565370258534,-0.05562143941554,2.507976027223799,0.8763108487046415,0.00029640769291712835,0.0009303157866920113,-0.0013733964830370193,-0.0005346076780666321,-0.00024472954006041464,-0.00014241227447061515,-0.0010441714538612,0.0,0.0,0.0,0.0,0.0,0.0,0.0,1.729820412876837e-05,-0.00010521678025261771,-1.670447738466585e-06,2.19328361605875e-06,-1.1973759980812848e-06,2.7374578208672062e-06,-1.5258789073380186e-06,-0.00029640769291712835,-0.0009303157866920113,0.0013733964830370193,0.0005346076780666321,0.00024472954006041464,0.00014241227447061515,0.0010441714538612,-0.10880166292190552,18.376306533813477,-1.1441986560821533,-18.071321487426758,-0.5047507882118225,-2.2488436698913574,0.14590780436992645,0
5,0.0200040340423584,0.10880166292190552,-18.376306533813477,1.1441986560821533,18.071321487426758,0.5047507882118225,2.2488436698913574,-0.14590780436992645,0.0,0.0,0.0,0.0,0.0,0.0,0.0,0.1321221972317671,0.37833027388471613,0.3132554134047024,0.42428446976819734,0.07340034478667085,0.055318817149591415,-0.18064301832730953,-0.6091024730198253,-0.057426750405315766,-0.6666014266348775,-2.5945587303094695,-0.05562024203954192,2.507973289765978,0.8763123745835488,-0.6090851748156966,-0.05753196718556838,-0.666603097082616,-2.5945565370258534,-0.05562143941554,2.507976027223799,0.8763108487046415,0.00029640769291712835,0.0009303157866920113,-0.0013733964830370193,-0.0005346076780666321,-0.00024472954006041464,-0.00014241227447061515,-0.0010441714538612,0.0,0.0,0.0,0.0,0.0,0.0,0.0,1.729820412876837e-05,-0.00010521678025261771,-1.670447738466585e-06,2.19328361605875e-06,-1.1973759980812848e-06,2.7374578208672062e-06,-1.5258789073380186e-06,-0.00029640769291712835,-0.0009303157866920113,0.0013733964830370193,0.0005346076780666321,0.00024472954006041464,0.00014241227447061515,0.0010441714538612,-0.10880166292190552,18.376306533813477,-1.1441986560821533,-18.071321487426758,-0.5047507882118225,-2.2488436698913574,0.14590780436992645,0
6,0.025005340576171875,0.10880166292190552,-18.376306533813477,1.1441986560821533,18.071321487426758,0.5047507882118225,2.2488436698913574,-0.14590780436992645,0.0,0.0,0.0,0.0,0.0,0.0,0.0,0.1321221972317671,0.37833027388471613,0.3132554134047024,0.42428446976819734,0.07340034478667085,0.055318817149591415,-0.18064301832730953,-0.6091024730198253,-0.057426750405315766,-0.6666014266348775,-2.5945587303094695,-0.05562024203954192,2.507973289765978,0.8763123745835488,-0.6090851748156966,-0.05753196718556838,-0.666603097082616,-2.5945565370258534,-0.05562143941554,2.507976027223799,0.8763108487046415,0.00029640769291712835,0.0009303157866920113,-0.0013733964830370193,-0.0005346076780666321,-0.00024472954006041464,-0.00014241227447061515,-0.0010441714538612,0.0,0.0,0.0,0.0,0.0,0.0,0.0,1.729820412876837e-05,-0.00010521678025261771,-1.670447738466585e-06,2.19328361605875e-06,-1.1973759980812848e-06,2.7374578208672062e-06,-1.5258789073380186e-06,-0.00029640769291712835,-0.0009303157866920113,0.0013733964830370193,0.0005346076780666321,0.00024472954006041464,0.00014241227447061515,0.0010441714538612,-0.10880166292190552,18.376306533813477,-1.1441986560821533,-18.071321487426758,-0.5047507882118225,-2.2488436698913574,0.14590780436992645,0
7,0.030002832412719727,0.10880166292190552,-18.376306533813477,1.1441986560821533,18.071321487426758,0.5047507882118225,2.2488436698913574,-0.14590780436992645,0.0,0.0,0.0,0.0,0.0,0.0,0.0,0.1321221972317671,0.37833027388471613,0.3132554134047024,0.42428446976819734,0.07340034478667085,0.055318817149591415,-0.18064301832730953,-0.6091024730198253,-0.057426750405315766,-0.6666014266348775,-2.5945587303094695,-0.05562024203954192,2.507973289765978,0.8763123745835488,-0.6090851748156966,-0.05753196718556838,-0.666603097082616,-2.5945565370258534,-0.05562143941554,2.507976027223799,0.8763108487046415,0.00029640769291712835,0.0009303157866920113,-0.0013733964830370193,-0.0005346076780666321,-0.00024472954006041464,-0.00014241227447061515,-0.0010441714538612,0.0,0.0,0.0,0.0,0.0,0.0,0.0,1.729820412876837e-05,-0.00010521678025261771,-1.670447738466585e-06,2.19328361605875e-06,-1.1973759980812848e-06,2.7374578208672062e-06,-1.5258789073380186e-06,-0.00029640769291712835,-0.0009303157866920113,0.0013733964830370193,0.0005346076780666321,0.00024472954006041464,0.00014241227447061515,0.0010441714538612,-0.10880166292190552,18.376306533813477,-1.1441986560821533,-18.071321487426758,-0.5047507882118225,-2.2488436698913574,0.14590780436992645,0
8,0.03500056266784668,0.13260537385940552,-18.229516983032227,1.1164276599884033,18.047517776489258,0.4983420968055725,2.2360262870788574,-0.15964071452617645,0.0,0.0,0.0,0.0,0.0,0.0,0.0,0.14726360203460537,0.38041335900938245,0.3220958558918684,0.4196795191025072,0.07278857967394584,0.05580346445379993,-0.1800762254796476,-0.6091048313560268,-0.057437051426423226,-0.6665994779000385,-2.5945570598736145,-0.05561921462639307,2.5079736503599688,0.8763096599718707,-0.6090851748156966,-0.05753196718556838,-0.666603097082616,-2.5945565370258534,-0.05562143941554,2.507976027223799,0.8763108487046415,0.0003850120831405603,-0.001487023394194025,0.0005556522141739024,0.00017498200436154903,-0.0002019816420141887,0.0003422464733585714,-0.0011684321362637588,0.0,0.0,0.0,0.0,0.0,0.0,0.0,1.965654033020403e-05,-9.491575914515743e-05,-3.61918257751892e-06,5.228477610863536e-07,-2.224789146930417e-06,2.376863830200193e-06,1.1887327707738038e-06,-0.0003850120831405603,0.001487023394194025,-0.0005556522141739024,-0.00017498200436154903,0.0002019816420141887,-0.0003422464733585714,0.0011684321362637588,-0.13260537385940552,18.229516983032227,-1.1164276599884033,-18.047517776489258,-0.4983420968055725,-2.2360262870788574,0.15964071452617645,0
9,0.04000234603881836,0.13260537385940552,-18.229516983032227,1.1164276599884033,18.047517776489258,0.4983420968055725,2.2360262870788574,-0.15964071452617645,0.0,0.0,0.0,0.0,0.0,0.0,0.0,0.14726360203460537,0.38041335900938245,0.3220958558918684,0.4196795191025072,0.07278857967394584,0.05580346445379993,-0.1800762254796476,-0.6091048313560268,-0.057437051426423226,-0.6665994779000385,-2.5945570598736145,-0.05561921462639307,2.5079736503599688,0.8763096599718707,-0.6090851748156966,-0.05753196718556838,-0.666603097082616,-2.5945565370258534,-0.05562143941554,2.507976027223799,0.8763108487046415,0.0003850120831405603,-0.001487023394194025,0.0005556522141739024,0.00017498200436154903,-0.0002019816420141887,0.0003422464733585714,-0.0011684321362637588,0.0,0.0,0.0,0.0,0.0,0.0,0.0,1.965654033020403e-05,-9.491575914515743e-05,-3.61918257751892e-06,5.228477610863536e-07,-2.224789146930417e-06,2.376863830200193e-06,1.1887327707738038e-06,-0.0003850120831405603,0.001487023394194025,-0.0005556522141739024,-0.00017498200436154903,0.0002019816420141887,-0.0003422464733585714,0.0011684321362637588,-0.13260537385940552,18.229516983032227,-1.1164276599884033,-18.047517776489258,-0.4983420968055725,-2.2360262870788574,0.15964071452617645,0
10,0.04499650001525879,0.13260537385940552,-18.205713272094727,1.1441986560821533,18.023714065551758,0.4983420968055725,2.2232089042663574,-0.17978231608867645,0.0,0.0,0.0,0.0,0.0,0.0,0.0,0.13605836627897075,0.38490222913427874,0.3098755747376658,0.41697503702182054,0.07334655435582016,0.05535817486578995,-0.18111329705053916,-0.6091023156278217,-0.05743872186227849,-0.6666014266348728,-2.594555389437759,-0.055622750165282696,2.5079760304591563,0.8763160206566767,-0.6090851748156966,-0.05753196718556838,-0.666603097082616,-2.5945565370258534,-0.05562143941554,2.507976027223799,0.8763108487046415,1.2673795277714768e-05,-0.000324950440772267,-0.0004935099121624106,0.0004353441040595683,-0.00019734944433790193,0.0004525787435061043,-0.0005549536522411206,0.0,0.0,0.0,0.0,0.0,0.0,0.0,1.714081212511598e-05,-9.32453232898936e-05,-1.670447743240544e-06,-1.147588094330132e-06,1.3107497426959047e-06,-3.2353573153898196e-09,-5.1719520351989345e-06,-1.2673795277714768e-05,0.000324950440772267,0.0004935099121624106,-0.0004353441040595683,0.00019734944433790193,-0.0004525787435061043,0.0005549536522411206,-0.13260537385940552,18.205713272094727,-1.1441986560821533,-18.023714065551758,-0.4983420968055725,-2.2232089042663574,0.17978231608867645,0
11,0.04999852180480957,0.13260537385940552,-18.205713272094727,1.1441986560821533,18.023714065551758,0.4983420968055725,2.2232089042663574,-0.17978231608867645,0.0,0.0,0.0,0.0,0.0,0.0,0.0,0.13605836627897075,0.38490222913427874,0.3098755747376658,0.41697503702182054,0.07334655435582016,0.05535817486578995,-0.18111329705053916,-0.6091023156278217,-0.05743872186227849,-0.6666014266348728,-2.594555389437759,-0.055622750165282696,2.5079760304591563,0.8763160206566767,-0.6090851748156966,-0.05753196718556838,-0.666603097082616,-2.5945565370258534,-0.05562143941554,2.507976027223799,0.8763108487046415,1.2673795277714768e-05,-0.000324950440772267,-0.0004935099121624106,0.0004353441040595683,-0.00019734944433790193,0.0004525787435061043,-0.0005549536522411206,0.0,0.0,0.0,0.0,0.0,0.0,0.0,1.714081212511598e-05,-9.32453232898936e-05,-1.670447743240544e-06,-1.147588094330132e-06,1.3107497426959047e-06,-3.2353573153898196e-09,-5.1719520351989345e-06,-1.2673795277714768e-05,0.000324950440772267,0.0004935099121624106,-0.0004353441040595683,0.00019734944433790193,-0.0004525787435061043,0.0005549536522411206,-0.13260537385940552,18.205713272094727,-1.1441986560821533,-18.023714065551758,-0.4983420968055725,-2.2232089042663574,0.17978231608867645,0
12,0.05499863624572754,0.18418008089065552,-18.177942276000977,1.1164276599884033,18.071321487426758,0.4983420968055725,2.2360262870788574,-0.15964071452617645,0.0,0.0,0.0,0.0,0.0,0.0,0.0,0.13609919600162498,0.3927080330278964,0.30823446076182803,0.42274791993875616,0.07283118412846885,0.05551486314975184,-0.1819317173461175,-0.6091066386639972,-0.057440670704109624,-0.6665994777930411,-2.5945587303094695,-0.05562015468613407,2.5079732370665746,0.8763139004617904,-0.6090851748156966,-0.05753196718556838,-0.666603097082616,-2.5945565370258534,-0.05562143941554,2.507976027223799,0.8763108487046415,-0.0007234823891356568,-0.00015697614920332206,-0.00036071643432295067,-0.0005406896505531041,-0.00011587468219087269,0.000180888902162249,-0.00031757636237105945,0.0,0.0,0.0,0.0,0.0,0.0,0.0,2.1463848300595778e-05,-9.12964814587594e-05,-3.6192895749298515e-06,2.19328361605875e-06,-1.2847294059287195e-06,2.790157224374923e-06,-3.0517571488752893e-06,0.0007234823891356568,0.00015697614920332206,0.00036071643432295067,0.0005406896505531041,0.00011587468219087269,-0.000180888902162249,0.00031757636237105945,-0.18418008089065552,18.177942276000977,-1.1164276599884033,-18.071321487426758,-0.4983420968055725,-2.2360262870788574,0.15964071452617645,0
13,0.05999875068664551,0.18418008089065552,-18.177942276000977,1.1164276599884033,18.071321487426758,0.4983420968055725,2.2360262870788574,-0.15964071452617645,0.0,0.0,0.0,0.0,0.0,0.0,0.0,0.13609919600162498,0.3927080330278964,0.30823446076182803,0.42274791993875616,0.07283118412846885,0.05551486314975184,-0.1819317173461175,-0.6091066386639972,-0.057440670704109624,-0.6665994777930411,-2.5945587303094695,-0.05562015468613407,2.5079732370665746,0.8763139004617904,-0.6090851748156966,-0.05753196718556838,-0.666603097082616,-2.5945565370258534,-0.05562143941554,2.507976027223799,0.8763108487046415,-0.0007234823891356568,-0.00015697614920332206,-0.00036071643432295067,-0.0005406896505531041,-0.00011587468219087269,0.000180888902162249,-0.00031757636237105945,0.0,0.0,0.0,0.0,0.0,0.0,0.0,2.1463848300595778e-05,-9.12964814587594e-05,-3.6192895749298515e-06,2.19328361605875e-06,-1.2847294059287195e-06,2.790157224374923e-06,-3.0517571488752893e-06,0.0007234823891356568,0.00015697614920332206,0.00036071643432295067,0.0005406896505531041,0.00011587468219087269,-0.000180888902162249,0.00031757636237105945,-0.18418008089065552,18.177942276000977,-1.1164276599884033,-18.071321487426758,-0.4983420968055725,-2.2360262870788574,0.15964071452617645,0
14,0.06499743461608887,0.08103066682815552,-18.328699111938477,1.1164276599884033,18.047517776489258,0.4983420968055725,2.2488436698913574,-0.15964071452617645,0.0,0.0,0.0,0.0,0.0,0.0,0.0,0.138915151531662,0.3983223505439233,0.3074602759497727,0.42763405979233843,0.07245407808318445,0.05654723532529745,-0.1823233356004204,-0.60910147691697,-0.05743009127702629,-0.6665994777930411,-2.5945570598736145,-0.055620279284985044,2.507971799984534,0.876310721548067,-0.6090851748156966,-0.05753196718556838,-0.666603097082616,-2.5945565370258534,-0.05562143941554,2.507976027223799,0.8763108487046415,0.0016072429358030464,0.0017402360349953211,0.00043070598606080097,-0.00024129178164597416,1.068535656656136e-05,-0.0003050901140488465,-0.0005988217987334219,0.0,0.0,0.0,0.0,0.0,0.0,0.0,1.630210127345766e-05,-0.00010187590854209005,-3.6192895749298515e-06,5.228477610863536e-07,-1.160130554955785e-06,4.227239264853466e-06,1.2715657449202666e-07,-0.0016072429358030464,-0.0017402360349953211,-0.00043070598606080097,0.00024129178164597416,-1.068535656656136e-05,0.0003050901140488465,0.0005988217987334219,-0.08103066682815552,18.328699111938477,-1.1164276599884033,-18.047517776489258,-0.4983420968055725,-2.2488436698913574,0.15964071452617645,0
15,0.07001423835754395,0.08103066682815552,-18.328699111938477,1.1164276599884033,18.047517776489258,0.4983420968055725,2.2488436698913574,-0.15964071452617645,0.0,0.0,0.0,0.0,0.0,0.0,0.0,0.138915151531662,0.3983223505439233,0.3074602759497727,0.42763405979233843,0.07245407808318445,0.05654723532529745,-0.1823233356004204,-0.60910147691697,-0.05743009127702629,-0.6665994777930411,-2.5945570598736145,-0.055620279284985044,2.507971799984534,0.876310721548067,-0.6090851748156966,-0.05753196718556838,-0.666603097082616,-2.5945565370258534,-0.05562143941554,2.507976027223799,0.8763108487046415,0.0016072429358030464,0.0017402360349953211,0.00043070598606080097,-0.00024129178164597416,1.068535656656136e-05,-0.0003050901140488465,-0.0005988217987334219,0.0,0.0,0.0,0.0,0.0,0.0,0.0,1.630210127345766e-05,-0.00010187590854209005,-3.6192895749298515e-06,5.228477610863536e-07,-1.160130554955785e-06,4.227239264853466e-06,1.2715657449202666e-07,-0.0016072429358030464,-0.0017402360349953211,-0.00043070598606080097,0.00024129178164597416,-1.068535656656136e-05,0.0003050901140488465,0.0005988217987334219,-0.08103066682815552,18.328699111938477,-1.1164276599884033,-18.047517776489258,-0.4983420968055725,-2.2488436698913574,0.15964071452617645,0
16,0.07500743865966797,0.13260537385940552,-18.328699111938477,1.1441986560821533,18.047517776489258,0.4928489327430725,2.2424349784851074,-0.17978231608867645,0.0,0.0,0.0,0.0,0.0,0.0,0.0,0.14141554862712255,0.3945076477223002,0.3132642047498165,0.4282046470264933,0.07243964214012329,0.0575522613026063,-0.18222128573452773,-0.6091049293670303,-0.05743009127702629,-0.6666014266348722,-2.5945570598736145,-0.05561891344347785,2.5079725845775096,0.8763161384002393,-0.6090851748156966,-0.05753196718556838,-0.666603097082616,-2.5945565370258534,-0.05562143941554,2.507976027223799,0.8763108487046415,0.00017839209015999637,-0.0009180331849962659,0.0003114244682878887,-0.00019163736581577005,0.00020630285278221375,-0.00020509071427630938,-0.00017368116588497011,0.0,0.0,0.0,0.0,0.0,0.0,0.0,1.975455133373938e-05,-0.00010187590854209005,-1.6704477437956555e-06,5.228477610863536e-07,-2.525972062149273e-06,3.442646289375517e-06,-5.289695597765487e-06,-0.00017839209015999637,0.0009180331849962659,-0.0003114244682878887,0.00019163736581577005,-0.00020630285278221375,0.00020509071427630938,0.00017368116588497011,-0.13260537385940552,18.328699111938477,-1.1441986560821533,-18.047517776489258,-0.4928489327430725,-2.2424349784851074,0.17978231608867645,0
17,0.0801084041595459,0.13260537385940552,-18.328699111938477,1.1441986560821533,18.047517776489258,0.4928489327430725,2.2424349784851074,-0.17978231608867645,0.0,0.0,0.0,0.0,0.0,0.0,0.0,0.14141554862712255,0.3945076477223002,0.3132642047498165,0.4282046470264933,0.07243964214012329,0.0575522613026063,-0.18222128573452773,-0.6091049293670303,-0.05743009127702629,-0.6666014266348722,-2.5945570598736145,-0.05561891344347785,2.5079725845775096,0.8763161384002393,-0.6090851748156966,-0.05753196718556838,-0.666603097082616,-2.5945565370258534,-0.05562143941554,2.507976027223799,0.8763108487046415,0.00017839209015999637,-0.0009180331849962659,0.0003114244682878887,-0.00019163736581577005,0.00020630285278221375,-0.00020509071427630938,-0.00017368116588497011,0.0,0.0,0.0,0.0,0.0,0.0,0.0,1.975455133373938e-05,-0.00010187590854209005,-1.6704477437956555e-06,5.228477610863536e-07,-2.525972062149273e-06,3.442646289375517e-06,-5.289695597765487e-06,-0.00017839209015999637,0.0009180331849962659,-0.0003114244682878887,0.00019163736581577005,-0.00020630285278221375,0.00020509071427630938,0.00017368116588497011,-0.13260537385940552,18.328699111938477,-1.1441986560821533,-18.047517776489258,-0.4928489327430725,-2.2424349784851074,0.17978231608867645,0
18,0.08500337600708008,0.16037636995315552,-18.328699111938477,1.1441986560821533,18.071321487426758,0.4928489327430725,2.2488436698913574,-0.17337362468242645,0.0,0.0,0.0,0.0,0.0,0.0,0.0,0.14011063403206805,0.390368710347493,0.31761409839807997,0.4212318735693985,0.07236401396323368,0.0574453142762928,-0.18113898046981353,-0.6091039995606737,-0.057430012356061454,-0.6666014266348722,-2.5945587303094695,-0.05562284500890025,2.507976033100252,0.8763150598851938,-0.6090851748156966,-0.05753196718556838,-0.666603097082616,-2.5945565370258534,-0.05562143941554,2.507976027223799,0.8763108487046415,-1.0469622691872038e-05,-0.0005312720379753966,-0.00017469875669480115,-0.00015371242965361306,6.311461601451324e-05,-6.580987655511363e-05,-0.002640338585317486,0.0,0.0,0.0,0.0,0.0,0.0,0.0,1.882474497716391e-05,-0.00010195482950692974,-1.6704477437956555e-06,2.19328361605875e-06,1.4055933602527548e-06,-5.876453101905099e-09,-4.211180552271543e-06,1.0469622691872038e-05,0.0005312720379753966,0.00017469875669480115,0.00015371242965361306,-6.311461601451324e-05,6.580987655511363e-05,0.002640338585317486,-0.16037636995315552,18.328699111938477,-1.1441986560821533,-18.071321487426758,-0.4928489327430725,-2.2488436698913574,0.17337362468242645,0
19,0.09000396728515625,0.16037636995315552,-18.328699111938477,1.1441986560821533,18.071321487426758,0.4928489327430725,2.2488436698913574,-0.17337362468242645,0.0,0.0,0.0,0.0,0.0,0.0,0.0,0.14011063403206805,0.390368710347493,0.31761409839807997,0.4212318735693985,0.07236401396323368,0.0574453142762928,-0.18113898046981353,-0.6091039995606737,-0.057430012356061454,-0.6666014266348722,-2.5945587303094695,-0.05562284500890025,2.507976033100252,0.8763150598851938,-0.6090851748156966,-0.05753196718556838,-0.666603097082616,-2.5945565370258534,-0.05562143941554,2.507976027223799,0.8763108487046415,-1.0469622691872038e-05,-0.0005312720379753966,-0.00017469875669480115,-0.00015371242965361306,6.311461601451324e-05,-6.580987655511363e-05,-0.002640338585317486,0.0,0.0,0.0,0.0,0.0,0.0,0.0,1.882474497716391e-05,-0.00010195482950692974,-1.6704477437956555e-06,2.19328361605875e-06,1.4055933602527548e-06,-5.876453101905099e-09,-4.211180552271543e-06,1.0469622691872038e-05,0.0005312720379753966,0.00017469875669480115,0.00015371242965361306,-6.311461601451324e-05,6.580987655511363e-05,0.002640338585317486,-0.16037636995315552,18.328699111938477,-1.1441986560821533,-18.071321487426758,-0.4928489327430725,-2.2488436698913574,0.17337362468242645,0
20,0.09499597549438477,0.13260537385940552,-18.277124404907227,1.1441986560821533,18.099092483520508,0.4864402413368225,2.2424349784851074,-0.16604940593242645,0.0,0.0,0.0,0.0,0.0,0.0,0.0,0.14164762468404804,0.3798983841401556,0.32005188962667586,0.41751475752746653,0.07160398690868608,0.057435058232676695,-0.18233538921701836,-0.6091020478681696,-0.05743371055426719,-0.6666014266348722,-2.594560679151301,-0.05562237261619087,2.507975698590549,0.8763146120526927,-0.6090851748156966,-0.05753196718556838,-0.666603097082616,-2.5945565370258534,-0.05562143941554,2.507976027223799,0.8763108487046415,0.00013593008480224819,-0.0010264547565744012,-5.0224114130164296e-05,-0.0013017546178057608,0.0003274843191847956,5.003203050116642e-05,-0.0008090029934382479,0.0,0.0,0.0,0.0,0.0,0.0,0.0,1.687305247299875e-05,-9.825663130119677e-05,-1.6704477437956555e-06,4.142125447526013e-06,9.332006508724899e-07,3.28633249946364e-07,-3.7633480511889417e-06,-0.00013593008480224819,0.0010264547565744012,5.0224114130164296e-05,0.0013017546178057608,-0.0003274843191847956,-5.003203050116642e-05,0.0008090029934382479,-0.13260537385940552,18.277124404907227,-1.1441986560821533,-18.099092483520508,-0.4864402413368225,-2.2424349784851074,0.16604940593242645,0
21,0.10000967979431152,0.13260537385940552,-18.277124404907227,1.1441986560821533,18.099092483520508,0.4864402413368225,2.2424349784851074,-0.16604940593242645,0.0,0.0,0.0,0.0,0.0,0.0,0.0,0.14164762468404804,0.3798983841401556,0.32005188962667586,0.41751475752746653,0.07160398690868608,0.057435058232676695,-0.18233538921701836,-0.6091020478681696,-0.05743371055426719,-0.6666014266348722,-2.594560679151301,-0.05562237261619087,2.507975698590549,0.8763146120526927,-0.6090851748156966,-0.05753196718556838,-0.666603097082616,-2.5945565370258534,-0.05562143941554,2.507976027223799,0.8763108487046415,0.00013593008480224819,-0.0010264547565744012,-5.0224114130164296e-05,-0.0013017546178057608,0.0003274843191847956,5.003203050116642e-05,-0.0008090029934382479,0.0,0.0,0.0,0.0,0.0,0.0,0.0,1.687305247299875e-05,-9.825663130119677e-05,-1.6704477437956555e-06,4.142125447526013e-06,9.332006508724899e-07,3.28633249946364e-07,-3.7633480511889417e-06,-0.00013593008480224819,0.0010264547565744012,5.0224114130164296e-05,0.0013017546178057608,-0.0003274843191847956,-5.003203050116642e-05,0.0008090029934382479,-0.13260537385940552,18.277124404907227,-1.1441986560821533,-18.099092483520508,-0.4864402413368225,-2.2424349784851074,0.16604940593242645,0
22,0.10499930381774902,0.13260537385940552,-18.229516983032227,1.1441986560821533,18.023714065551758,0.4983420968055725,2.2488436698913574,-0.20083944499492645,0.0,0.0,0.0,0.0,0.0,0.0,0.0,0.13977926040551558,0.38344537815571716,0.3187517583710569,0.41376925174830054,0.07111521706946962,0.056620994298948416,-0.18275313230814477,-0.609104223360468,-0.057437051426423226,-0.6666014266348722,-2.594555389437759,-0.055623771038932526,2.5079718119540813,0.8763184780991712,-0.6090851748156966,-0.05753196718556838,-0.666603097082616,-2.5945565370258534,-0.05562143941554,2.507976027223799,0.8763108487046415,-1.0592770070136548e-05,-0.0005100357645064099,-0.0004654015524798785,-7.755253613045753e-05,5.754653180741679e-07,-0.0003935486054615086,0.0004813488006647305,0.0,0.0,0.0,0.0,0.0,0.0,0.0,1.9048544771416154e-05,-9.491575914515743e-05,-1.6704477437956555e-06,-1.147588094330132e-06,2.3316233925263496e-06,4.2152697177222365e-06,-7.629394529695688e-06,1.0592770070136548e-05,0.0005100357645064099,0.0004654015524798785,7.755253613045753e-05,-5.754653180741679e-07,0.0003935486054615086,-0.0004813488006647305,-0.13260537385940552,18.229516983032227,-1.1441986560821533,-18.023714065551758,-0.4983420968055725,-2.2488436698913574,0.20083944499492645,0
23,0.1099998950958252,0.13260537385940552,-18.229516983032227,1.1441986560821533,18.023714065551758,0.4983420968055725,2.2488436698913574,-0.20083944499492645,0.0,0.0,0.0,0.0,0.0,0.0,0.0,0.13977926040551558,0.38344537815571716,0.3187517583710569,0.41376925174830054,0.07111521706946962,0.056620994298948416,-0.18275313230814477,-0.609104223360468,-0.057437051426423226,-0.6666014266348722,-2.594555389437759,-0.055623771038932526,2.5079718119540813,0.8763184780991712,-0.6090851748156966,-0.05753196718556838,-0.666603097082616,-2.5945565370258534,-0.05562143941554,2.507976027223799,0.8763108487046415,-1.0592770070136548e-05,-0.0005100357645064099,-0.0004654015524798785,-7.755253613045753e-05,5.754653180741679e-07,-0.0003935486054615086,0.0004813488006647305,0.0,0.0,0.0,0.0,0.0,0.0,0.0,1.9048544771416154e-05,-9.491575914515743e-05,-1.6704477437956555e-06,-1.147588094330132e-06,2.3316233925263496e-06,4.2152697177222365e-06,-7.629394529695688e-06,1.0592770070136548e-05,0.0005100357645064099,0.0004654015524798785,7.755253613045753e-05,-5.754653180741679e-07,0.0003935486054615086,-0.0004813488006647305,-0.13260537385940552,18.229516983032227,-1.1441986560821533,-18.023714065551758,-0.4983420968055725,-2.2488436698913574,0.20083944499492645,0
24,0.11499881744384766,0.10880166292190552,-18.205713272094727,1.0926239490509033,18.071321487426758,0.4928489327430725,2.2360262870788574,-0.17978231608867645,0.0,0.0,0.0,0.0,0.0,0.0,0.0,0.13780989191583037,0.38646309173760773,0.3164750426660374,0.4228955705868477,0.07167589292260275,0.05778438313295012,-0.18294527050505935,-0.6091034790664327,-0.05743872186227849,-0.6665978073571858,-2.5945587303094695,-0.0556232044987119,2.5079736636489196,0.8763161384181842,-0.6090851748156966,-0.05753196718556838,-0.666603097082616,-2.5945565370258534,-0.05562143941554,2.507976027223799,0.8763108487046415,0.00036319916621920813,-0.00012746370128628628,0.00016512343953574074,-0.0004249955132429886,0.0002335979917005872,0.0003366217480457864,0.000640616275037298,0.0,0.0,0.0,0.0,0.0,0.0,0.0,1.8304250736123073e-05,-9.32453232898936e-05,-5.289725430235315e-06,2.19328361605875e-06,1.7650831719007165e-06,2.363574879371555e-06,-5.289713542744323e-06,-0.00036319916621920813,0.00012746370128628628,-0.00016512343953574074,0.0004249955132429886,-0.0002335979917005872,-0.0003366217480457864,-0.000640616275037298,-0.10880166292190552,18.205713272094727,-1.0926239490509033,-18.071321487426758,-0.4928489327430725,-2.2360262870788574,0.17978231608867645,0
25,0.11999750137329102,0.10880166292190552,-18.205713272094727,1.0926239490509033,18.071321487426758,0.4928489327430725,2.2360262870788574,-0.17978231608867645,0.0,0.0,0.0,0.0,0.0,0.0,0.0,0.13780989191583037,0.38646309173760773,0.3164750426660374,0.4228955705868477,0.07167589292260275,0.05778438313295012,-0.18294527050505935,-0.6091034790664327,-0.05743872186227849,-0.6665978073571858,-2.5945587303094695,-0.0556232044987119,2.5079736636489196,0.8763161384181842,-0.6090851748156966,-0.05753196718556838,-0.666603097082616,-2.5945565370258534,-0.05562143941554,2.507976027223799,0.8763108487046415,0.00036319916621920813,-0.00012746370128628628,0.00016512343953574074,-0.0004249955132429886,0.0002335979917005872,0.0003366217480457864,0.000640616275037298,0.0,0.0,0.0,0.0,0.0,0.0,0.0,1.8304250736123073e-05,-9.32453232898936e-05,-5.289725430235315e-06,2.19328361605875e-06,1.7650831719007165e-06,2.363574879371555e-06,-5.289713542744323e-06,-0.00036319916621920813,0.00012746370128628628,-0.00016512343953574074,0.0004249955132429886,-0.0002335979917005872,-0.0003366217480457864,-0.000640616275037298,-0.10880166292190552,18.205713272094727,-1.0926239490509033,-18.071321487426758,-0.4928489327430725,-2.2360262870788574,0.17978231608867645,0
26,0.1250002384185791,0.10880166292190552,-18.253320693969727,1.0926239490509033,18.071321487426758,0.5047507882118225,2.2552523612976074,-0.13858358561992645,0.0,0.0,0.0,0.0,0.0,0.0,0.0,0.1283443410774248,0.38859795784777584,0.30262675836195146,0.426657590224745,0.07256768663270624,0.05801290188756435,-0.18222937165337263,-0.609101360413161,-0.05743538099056796,-0.6665978073571858,-2.5945587303094695,-0.05561992223813792,2.507972455539614,0.8763115607276304,-0.6090851748156966,-0.05753196718556838,-0.666603097082616,-2.5945565370258534,-0.05562143941554,2.507976027223799,0.8763108487046415,-0.0003084932642722541,-0.00017708215545733267,-0.00020014974401152562,-0.00064523439608216,-0.00043010504475818643,-0.0007641955554411976,-0.001258043013631724,0.0,0.0,0.0,0.0,0.0,0.0,0.0,1.618559746441317e-05,-9.658619500042126e-05,-5.289725430235315e-06,2.19328361605875e-06,-1.5171774020786288e-06,3.571684184855428e-06,-7.120229889023832e-07,0.0003084932642722541,0.00017708215545733267,0.00020014974401152562,0.00064523439608216,0.00043010504475818643,0.0007641955554411976,0.001258043013631724,-0.10880166292190552,18.253320693969727,-1.0926239490509033,-18.071321487426758,-0.5047507882118225,-2.2552523612976074,0.13858358561992645,0
27,0.13000082969665527,0.10880166292190552,-18.253320693969727,1.0926239490509033,18.071321487426758,0.5047507882118225,2.2552523612976074,-0.13858358561992645,0.0,0.0,0.0,0.0,0.0,0.0,0.0,0.1283443410774248,0.38859795784777584,0.30262675836195146,0.426657590224745,0.07256768663270624,0.05801290188756435,-0.18222937165337263,-0.609101360413161,-0.05743538099056796,-0.6665978073571858,-2.5945587303094695,-0.05561992223813792,2.507972455539614,0.8763115607276304,-0.6090851748156966,-0.05753196718556838,-0.666603097082616,-2.5945565370258534,-0.05562143941554,2.507976027223799,0.8763108487046415,-0.0003084932642722541,-0.00017708215545733267,-0.00020014974401152562,-0.00064523439608216,-0.00043010504475818643,-0.0007641955554411976,-0.001258043013631724,0.0,0.0,0.0,0.0,0.0,0.0,0.0,1.618559746441317e-05,-9.658619500042126e-05,-5.289725430235315e-06,2.19328361605875e-06,-1.5171774020786288e-06,3.571684184855428e-06,-7.120229889023832e-07,0.0003084932642722541,0.00017708215545733267,0.00020014974401152562,0.00064523439608216,0.00043010504475818643,0.0007641955554411976,0.001258043013631724,-0.10880166292190552,18.253320693969727,-1.0926239490509033,-18.071321487426758,-0.5047507882118225,-2.2552523612976074,0.13858358561992645,0
28,0.13501811027526855,0.10880166292190552,-18.253320693969727,1.0926239490509033,18.071321487426758,0.5047507882118225,2.2552523612976074,-0.13858358561992645,0.0,0.0,0.0,0.0,0.0,0.0,0.0,0.1283443410774248,0.38859795784777584,0.30262675836195146,0.426657590224745,0.07256768663270624,0.05801290188756435,-0.18222937165337263,-0.609101360413161,-0.05743538099056796,-0.6665978073571858,-2.5945587303094695,-0.05561992223813792,2.507972455539614,0.8763115607276304,-0.6090851748156966,-0.05753196718556838,-0.666603097082616,-2.5945565370258534,-0.05562143941554,2.507976027223799,0.8763108487046415,-0.0003084932642722541,-0.00017708215545733267,-0.00020014974401152562,-0.00064523439608216,-0.00043010504475818643,-0.0007641955554411976,-0.001258043013631724,0.0,0.0,0.0,0.0,0.0,0.0,0.0,1.618559746441317e-05,-9.658619500042126e-05,-5.289725430235315e-06,2.19328361605875e-06,-1.5171774020786288e-06,3.571684184855428e-06,-7.120229889023832e-07,0.0003084932642722541,0.00017708215545733267,0.00020014974401152562,0.00064523439608216,0.00043010504475818643,0.0007641955554411976,0.001258043013631724,-0.10880166292190552,18.253320693969727,-1.0926239490509033,-18.071321487426758,-0.5047507882118225,-2.2552523612976074,0.13858358561992645,0
29,0.1400139331817627,0.10880166292190552,-18.253320693969727,1.0926239490509033,18.071321487426758,0.5047507882118225,2.2552523612976074,-0.13858358561992645,0.0,0.0,0.0,0.0,0.0,0.0,0.0,0.1283443410774248,0.38859795784777584,0.30262675836195146,0.426657590224745,0.07256768663270624,0.05801290188756435,-0.18222937165337263,-0.609101360413161,-0.05743538099056796,-0.6665978073571858,-2.5945587303094695,-0.05561992223813792,2.507972455539614,0.8763115607276304,-0.6090851748156966,-0.05753196718556838,-0.666603097082616,-2.5945565370258534,-0.05562143941554,2.507976027223799,0.8763108487046415,-0.0003084932642722541,-0.00017708215545733267,-0.00020014974401152562,-0.00064523439608216,-0.00043010504475818643,-0.0007641955554411976,-0.001258043013631724,0.0,0.0,0.0,0.0,0.0,0.0,0.0,1.618559746441317e-05,-9.658619500042126e-05,-5.289725430235315e-06,2.19328361605875e-06,-1.5171774020786288e-06,3.571684184855428e-06,-7.120229889023832e-07,0.0003084932642722541,0.00017708215545733267,0.00020014974401152562,0.00064523439608216,0.00043010504475818643,0.0007641955554411976,0.001258043013631724,-0.10880166292190552,18.253320693969727,-1.0926239490509033,-18.071321487426758,-0.5047507882118225,-2.2552523612976074,0.13858358561992645,0
30,0.14499878883361816,0.18418008089065552,-18.304895401000977,1.1680023670196533,18.047517776489258,0.4983420968055725,2.2424349784851074,-0.21457235515117645,0.0,0.0,0.0,0.0,0.0,0.0,0.0,0.13288990793792704,0.3916828352331104,0.30616528209937044,0.42856643920401466,0.07191466821273002,0.05831351072763602,-0.18172958457431557,-0.6091066236601282,-0.05743176171288156,-0.6666030970707274,-2.5945570598736145,-0.055623459956133756,2.50797568516941,0.8763199603715724,-0.6090851748156966,-0.05753196718556838,-0.666603097082616,-2.5945565370258534,-0.05562143941554,2.507976027223799,0.8763108487046415,-0.0015889326807074103,5.326713109788511e-05,-0.001055419856940851,0.00035166900655682066,1.661445498889943e-05,0.00012297492253730998,0.0011314612385993441,0.0,0.0,0.0,0.0,0.0,0.0,0.0,2.144884443167072e-05,-0.00010020547268682622,-1.1888601214593564e-11,5.228477610863536e-07,2.020540593755671e-06,3.420543888132954e-07,-9.111666930960993e-06,0.0015889326807074103,-5.326713109788511e-05,0.001055419856940851,-0.00035166900655682066,-1.661445498889943e-05,-0.00012297492253730998,-0.0011314612385993441,-0.18418008089065552,18.304895401000977,-1.1680023670196533,-18.047517776489258,-0.4983420968055725,-2.2424349784851074,0.21457235515117645,0
31,0.15001487731933594,0.18418008089065552,-18.304895401000977,1.1680023670196533,18.047517776489258,0.4983420968055725,2.2424349784851074,-0.21457235515117645,0.0,0.0,0.0,0.0,0.0,0.0,0.0,0.13288990793792704,0.3916828352331104,0.30616528209937044,0.42856643920401466,0.07191466821273002,0.05831351072763602,-0.18172958457431557,-0.6091066236601282,-0.05743176171288156,-0.6666030970707274,-2.5945570598736145,-0.055623459956133756,2.50797568516941,0.8763199603715724,-0.6090851748156966,-0.05753196718556838,-0.666603097082616,-2.5945565370258534,-0.05562143941554,2.507976027223799,0.8763108487046415,-0.0015889326807074103,5.326713109788511e-05,-0.001055419856940851,0.00035166900655682066,1.661445498889943e-05,0.00012297492253730998,0.0011314612385993441,0.0,0.0,0.0,0.0,0.0,0.0,0.0,2.144884443167072e-05,-0.00010020547268682622,-1.1888601214593564e-11,5.228477610863536e-07,2.020540593755671e-06,3.420543888132954e-07,-9.111666930960993e-06,0.0015889326807074103,-5.326713109788511e-05,0.001055419856940851,-0.00035166900655682066,-1.661445498889943e-05,-0.00012297492253730998,-0.0011314612385993441,-0.18418008089065552,18.304895401000977,-1.1680023670196533,-18.047517776489258,-0.4983420968055725,-2.2424349784851074,0.21457235515117645,0
32,0.15500712394714355,0.10880166292190552,-18.328699111938477,1.1680023670196533,18.047517776489258,0.4928489327430725,2.2360262870788574,-0.21457235515117645,0.0,0.0,0.0,0.0,0.0,0.0,0.0,0.13321629531399176,0.396232884735386,0.3102260812553116,0.4222093597689,0.07215073065501534,0.05804503578578006,-0.18198704001474172,-0.6091024700776483,-0.05743009127702629,-0.6666030970707274,-2.5945570598736145,-0.05562284357075623,2.5079731791500155,0.8763200025242838,-0.6090851748156966,-0.05753196718556838,-0.666603097082616,-2.5945565370258534,-0.05562143941554,2.507976027223799,0.8763108487046415,0.0009967142814570928,0.0005432267072199719,-0.000271121314957807,9.641030588167153e-05,0.0001793039248780943,0.0004087936356981664,0.0016315585741785187,0.0,0.0,0.0,0.0,0.0,0.0,0.0,1.7295261951710827e-05,-0.00010187590854209005,-1.1888601214593564e-11,5.228477610863536e-07,1.4041552162322168e-06,2.848073783479066e-06,-9.153819642282457e-06,-0.0009967142814570928,-0.0005432267072199719,0.000271121314957807,-9.641030588167153e-05,-0.0001793039248780943,-0.0004087936356981664,-0.0016315585741785187,-0.10880166292190552,18.328699111938477,-1.1680023670196533,-18.047517776489258,-0.4928489327430725,-2.2360262870788574,0.21457235515117645,0
33,0.1600024700164795,0.10880166292190552,-18.328699111938477,1.1680023670196533,18.047517776489258,0.4928489327430725,2.2360262870788574,-0.21457235515117645,0.0,0.0,0.0,0.0,0.0,0.0,0.0,0.13321629531399176,0.396232884735386,0.3102260812553116,0.4222093597689,0.07215073065501534,0.05804503578578006,-0.18198704001474172,-0.6091024700776483,-0.05743009127702629,-0.6666030970707274,-2.5945570598736145,-0.05562284357075623,2.5079731791500155,0.8763200025242838,-0.6090851748156966,-0.05753196718556838,-0.666603097082616,-2.5945565370258534,-0.05562143941554,2.507976027223799,0.8763108487046415,0.0009967142814570928,0.0005432267072199719,-0.000271121314957807,9.641030588167153e-05,0.0001793039248780943,0.0004087936356981664,0.0016315585741785187,0.0,0.0,0.0,0.0,0.0,0.0,0.0,1.7295261951710827e-05,-0.00010187590854209005,-1.1888601214593564e-11,5.228477610863536e-07,1.4041552162322168e-06,2.848073783479066e-06,-9.153819642282457e-06,-0.0009967142814570928,-0.0005432267072199719,0.000271121314957807,-9.641030588167153e-05,-0.0001793039248780943,-0.0004087936356981664,-0.0016315585741785187,-0.10880166292190552,18.328699111938477,-1.1680023670196533,-18.047517776489258,-0.4928489327430725,-2.2360262870788574,0.21457235515117645,0
34,0.16500091552734375,0.13260537385940552,-18.328699111938477,1.1918060779571533,18.071321487426758,0.5047507882118225,2.2360262870788574,-0.19351522624492645,0.0,0.0,0.0,0.0,0.0,0.0,0.0,0.13675062947139183,0.3882623312346788,0.3181895403185901,0.42150617023675474,0.07295140197416468,0.05855846793255284,-0.1813231953429486,-0.6091044343468873,-0.05743009127702629,-0.6666047675065827,-2.5945587303094695,-0.055621345533272304,2.5079767116896274,0.8763176250512312,-0.6090851748156966,-0.05753196718556838,-0.666603097082616,-2.5945565370258534,-0.05562143941554,2.507976027223799,0.8763108487046415,0.0006576982983009246,0.0005672097905413311,-0.0003962116658778754,-0.0005844710179071039,-0.00023080076542971017,0.00020632349333442963,0.0011197659589775829,0.0,0.0,0.0,0.0,0.0,0.0,0.0,1.9259531190751744e-05,-0.00010187590854209005,1.6704239667042486e-06,2.19328361605875e-06,-9.388226769602159e-08,-6.844658284599348e-07,-6.776346589743021e-06,-0.0006576982983009246,-0.0005672097905413311,0.0003962116658778754,0.0005844710179071039,0.00023080076542971017,-0.00020632349333442963,-0.0011197659589775829,-0.13260537385940552,18.328699111938477,-1.1918060779571533,-18.071321487426758,-0.5047507882118225,-2.2360262870788574,0.19351522624492645,0
35,0.17010259628295898,0.13260537385940552,-18.328699111938477,1.1918060779571533,18.071321487426758,0.5047507882118225,2.2360262870788574,-0.19351522624492645,0.0,0.0,0.0,0.0,0.0,0.0,0.0,0.13675062947139183,0.3882623312346788,0.3181895403185901,0.42150617023675474,0.07295140197416468,0.05855846793255284,-0.1813231953429486,-0.6091044343468873,-0.05743009127702629,-0.6666047675065827,-2.5945587303094695,-0.055621345533272304,2.5079767116896274,0.8763176250512312,-0.6090851748156966,-0.05753196718556838,-0.666603097082616,-2.5945565370258534,-0.05562143941554,2.507976027223799,0.8763108487046415,0.0006576982983009246,0.0005672097905413311,-0.0003962116658778754,-0.0005844710179071039,-0.00023080076542971017,0.00020632349333442963,0.0011197659589775829,0.0,0.0,0.0,0.0,0.0,0.0,0.0,1.9259531190751744e-05,-0.00010187590854209005,1.6704239667042486e-06,2.19328361605875e-06,-9.388226769602159e-08,-6.844658284599348e-07,-6.776346589743021e-06,-0.0006576982983009246,-0.0005672097905413311,0.0003962116658778754,0.0005844710179071039,0.00023080076542971017,-0.00020632349333442963,-0.0011197659589775829,-0.13260537385940552,18.328699111938477,-1.1918060779571533,-18.071321487426758,-0.5047507882118225,-2.2360262870788574,0.19351522624492645,0
36,0.17499780654907227,0.13260537385940552,-18.205713272094727,1.0926239490509033,18.023714065551758,0.4928489327430725,2.2360262870788574,-0.15231649577617645,0.0,0.0,0.0,0.0,0.0,0.0,0.0,0.13726604043197338,0.3867615471446948,0.3210289922003964,0.4189197867328045,0.07360265568450251,0.057782692155938224,-0.1808388296233401,-0.6091048474110135,-0.05743872186227849,-0.6665978073571858,-2.594555389437759,-0.05561859829536316,2.507973222582842,0.8763130866597072,-0.6090851748156966,-0.05753196718556838,-0.666603097082616,-2.5945565370258534,-0.05562143941554,2.507976027223799,0.8763108487046415,0.000350052849003631,-0.0014591820471548409,0.0015408332082425787,0.0003074930220758668,0.00027395599136155246,3.143444796883869e-05,-0.000737233908933519,0.0,0.0,0.0,0.0,0.0,0.0,0.0,1.9672595316877484e-05,-9.32453232898936e-05,-5.289725430235315e-06,-1.147588094330132e-06,-2.8411201768371863e-06,2.8046409568105446e-06,-2.2379550657092295e-06,-0.000350052849003631,0.0014591820471548409,-0.0015408332082425787,-0.0003074930220758668,-0.00027395599136155246,-3.143444796883869e-05,0.000737233908933519,-0.13260537385940552,18.205713272094727,-1.0926239490509033,-18.023714065551758,-0.4928489327430725,-2.2360262870788574,0.15231649577617645,0
37,0.17999553680419922,0.13260537385940552,-18.205713272094727,1.0926239490509033,18.023714065551758,0.4928489327430725,2.2360262870788574,-0.15231649577617645,0.0,0.0,0.0,0.0,0.0,0.0,0.0,0.13726604043197338,0.3867615471446948,0.3210289922003964,0.4189197867328045,0.07360265568450251,0.057782692155938224,-0.1808388296233401,-0.6091048474110135,-0.05743872186227849,-0.6665978073571858,-2.594555389437759,-0.05561859829536316,2.507973222582842,0.8763130866597072,-0.6090851748156966,-0.05753196718556838,-0.666603097082616,-2.5945565370258534,-0.05562143941554,2.507976027223799,0.8763108487046415,0.000350052849003631,-0.0014591820471548409,0.0015408332082425787,0.0003074930220758668,0.00027395599136155246,3.143444796883869e-05,-0.000737233908933519,0.0,0.0,0.0,0.0,0.0,0.0,0.0,1.9672595316877484e-05,-9.32453232898936e-05,-5.289725430235315e-06,-1.147588094330132e-06,-2.8411201768371863e-06,2.8046409568105446e-06,-2.2379550657092295e-06,-0.000350052849003631,0.0014591820471548409,-0.0015408332082425787,-0.0003074930220758668,-0.00027395599136155246,-3.143444796883869e-05,0.000737233908933519,-0.13260537385940552,18.205713272094727,-1.0926239490509033,-18.023714065551758,-0.4928489327430725,-2.2360262870788574,0.15231649577617645,0
38,0.18500089645385742,0.16037636995315552,-18.277124404907227,1.0688202381134033,18.023714065551758,0.4983420968055725,2.2488436698913574,-0.19351522624492645,0.0,0.0,0.0,0.0,0.0,0.0,0.0,0.13260804604617193,0.38964295140014427,0.3155143946743792,0.4193019794533368,0.07348643167180262,0.05679190413806611,-0.1811947839620094,-0.6091063802223835,-0.0574337105547127,-0.6665961369213305,-2.594555389437759,-0.0556206281118232,2.5079719136844374,0.8763176642970906,-0.6090851748156966,-0.05753196718556838,-0.666603097082616,-2.5945565370258534,-0.05562143941554,2.507976027223799,0.8763108487046415,-0.0010653424279573537,0.0008583378991023038,0.0010287219980504283,0.00012126748162733104,-0.00010708257043900403,-0.00026870476412357874,-3.1979532993544936e-05,0.0,0.0,0.0,0.0,0.0,0.0,0.0,2.1205406686930495e-05,-9.825663085568509e-05,-6.960161285540778e-06,-1.147588094330132e-06,-8.113037167981063e-07,4.113539361583207e-06,-6.815592449083141e-06,0.0010653424279573537,-0.0008583378991023038,-0.0010287219980504283,-0.00012126748162733104,0.00010708257043900403,0.00026870476412357874,3.1979532993544936e-05,-0.16037636995315552,18.277124404907227,-1.0688202381134033,-18.023714065551758,-0.4983420968055725,-2.2488436698913574,0.19351522624492645,0
39,0.18999743461608887,0.16037636995315552,-18.277124404907227,1.0688202381134033,18.023714065551758,0.4983420968055725,2.2488436698913574,-0.19351522624492645,0.0,0.0,0.0,0.0,0.0,0.0,0.0,0.13260804604617193,0.38964295140014427,0.3155143946743792,0.4193019794533368,0.07348643167180262,0.05679190413806611,-0.1811947839620094,-0.6091063802223835,-0.0574337105547127,-0.6665961369213305,-2.594555389437759,-0.0556206281118232,2.5079719136844374,0.8763176642970906,-0.6090851748156966,-0.05753196718556838,-0.666603097082616,-2.5945565370258534,-0.05562143941554,2.507976027223799,0.8763108487046415,-0.0010653424279573537,0.0008583378991023038,0.0010287219980504283,0.00012126748162733104,-0.00010708257043900403,-0.00026870476412357874,-3.1979532993544936e-05,0.0,0.0,0.0,0.0,0.0,0.0,0.0,2.1205406686930495e-05,-9.825663085568509e-05,-6.960161285540778e-06,-1.147588094330132e-06,-8.113037167981063e-07,4.113539361583207e-06,-6.815592449083141e-06,0.0010653424279573537,-0.0008583378991023038,-0.0010287219980504283,-0.00012126748162733104,0.00010708257043900403,0.00026870476412357874,3.1979532993544936e-05,-0.16037636995315552,18.277124404907227,-1.0688202381134033,-18.023714065551758,-0.4983420968055725,-2.2488436698913574,0.19351522624492645,0
40,0.19499874114990234,0.16037636995315552,-18.304895401000977,1.0688202381134033,18.047517776489258,0.5047507882118225,2.2424349784851074,-0.21457235515117645,0.0,0.0,0.0,0.0,0.0,0.0,0.0,0.14069810218784976,0.38906738208498953,0.31776100264010565,0.4283277399378546,0.07285654609387097,0.059012728349994714,-0.18154077151536738,-0.6091041755101199,-0.05743176171288156,-0.6665961369213305,-2.5945570598736145,-0.05562129317719666,2.5079725860855366,0.8763196464047196,-0.6090851748156966,-0.05753196718556838,-0.666603097082616,-2.5945565370258534,-0.05562143941554,2.507976027223799,0.8763108487046415,-0.0008254815428152843,0.0007644185908004795,0.0004904482847951844,0.0003690738213739919,-0.00031653880120475933,6.768319035004539e-05,0.001327990015764734,0.0,0.0,0.0,0.0,0.0,0.0,0.0,1.900069442328789e-05,-0.00010020547268682622,-6.960161285540778e-06,5.228477610863536e-07,-1.4623834333760133e-07,3.4411382623389386e-06,-8.797700078111426e-06,0.0008254815428152843,-0.0007644185908004795,-0.0004904482847951844,-0.0003690738213739919,0.00031653880120475933,-6.768319035004539e-05,-0.001327990015764734,-0.16037636995315552,18.304895401000977,-1.0688202381134033,-18.047517776489258,-0.5047507882118225,-2.2424349784851074,0.21457235515117645,0
41,0.20000648498535156,0.16037636995315552,-18.304895401000977,1.0688202381134033,18.047517776489258,0.5047507882118225,2.2424349784851074,-0.21457235515117645,0.0,0.0,0.0,0.0,0.0,0.0,0.0,0.14069810218784976,0.38906738208498953,0.31776100264010565,0.4283277399378546,0.07285654609387097,0.059012728349994714,-0.18154077151536738,-0.6091041755101199,-0.05743176171288156,-0.6665961369213305,-2.5945570598736145,-0.05562129317719666,2.5079725860855366,0.8763196464047196,-0.6090851748156966,-0.05753196718556838,-0.666603097082616,-2.5945565370258534,-0.05562143941554,2.507976027223799,0.8763108487046415,-0.0008254815428152843,0.0007644185908004795,0.0004904482847951844,0.0003690738213739919,-0.00031653880120475933,6.768319035004539e-05,0.001327990015764734,0.0,0.0,0.0,0.0,0.0,0.0,0.0,1.900069442328789e-05,-0.00010020547268682622,-6.960161285540778e-06,5.228477610863536e-07,-1.4623834333760133e-07,3.4411382623389386e-06,-8.797700078111426e-06,0.0008254815428152843,-0.0007644185908004795,-0.0004904482847951844,-0.0003690738213739919,0.00031653880120475933,-6.768319035004539e-05,-0.001327990015764734,-0.16037636995315552,18.304895401000977,-1.0688202381134033,-18.047517776489258,-0.5047507882118225,-2.2424349784851074,0.21457235515117645,0
42,0.20499825477600098,0.10880166292190552,-18.304895401000977,1.1164276599884033,18.023714065551758,0.4864402413368225,2.2488436698913574,-0.20083944499492645,0.0,0.0,0.0,0.0,0.0,0.0,0.0,0.13850862738404318,0.3960142667698018,0.31069151627534725,0.42176676909603694,0.07282895138932625,0.05836081512510248,-0.1806294803357902,-0.6091025528529446,-0.05743176171288156,-0.6665994777930411,-2.594555389437759,-0.05562236762391129,2.5079721079762445,0.8763184776126386,-0.6090851748156966,-0.05753196718556838,-0.666603097082616,-2.5945565370258534,-0.05562143941554,2.507976027223799,0.8763108487046415,0.0003514396653601063,0.0009316317753046417,-0.00019800741516634164,0.0005517623181798627,0.0004653429392031368,-0.00012678251848139408,0.000990239091599506,0.0,0.0,0.0,0.0,0.0,0.0,0.0,1.7378037247994804e-05,-0.00010020547268682622,-3.6192895749298515e-06,-1.147588094330132e-06,9.282083712897071e-07,3.919247554495797e-06,-7.6289079971036955e-06,-0.0003514396653601063,-0.0009316317753046417,0.00019800741516634164,-0.0005517623181798627,-0.0004653429392031368,0.00012678251848139408,-0.000990239091599506,-0.10880166292190552,18.304895401000977,-1.1164276599884033,-18.023714065551758,-0.4864402413368225,-2.2488436698913574,0.20083944499492645,0
43,0.21013522148132324,0.10880166292190552,-18.304895401000977,1.1164276599884033,18.023714065551758,0.4864402413368225,2.2488436698913574,-0.20083944499492645,0.0,0.0,0.0,0.0,0.0,0.0,0.0,0.13850862738404318,0.3960142667698018,0.31069151627534725,0.42176676909603694,0.07282895138932625,0.05836081512510248,-0.1806294803357902,-0.6091025528529446,-0.05743176171288156,-0.6665994777930411,-2.594555389437759,-0.05562236762391129,2.5079721079762445,0.8763184776126386,-0.6090851748156966,-0.05753196718556838,-0.666603097082616,-2.5945565370258534,-0.05562143941554,2.507976027223799,0.8763108487046415,0.0003514396653601063,0.0009316317753046417,-0.00019800741516634164,0.0005517623181798627,0.0004653429392031368,-0.00012678251848139408,0.000990239091599506,0.0,0.0,0.0,0.0,0.0,0.0,0.0,1.7378037247994804e-05,-0.00010020547268682622,-3.6192895749298515e-06,-1.147588094330132e-06,9.282083712897071e-07,3.919247554495797e-06,-7.6289079971036955e-06,-0.0003514396653601063,-0.0009316317753046417,0.00019800741516634164,-0.0005517623181798627,-0.0004653429392031368,0.00012678251848139408,-0.000990239091599506,-0.10880166292190552,18.304895401000977,-1.1164276599884033,-18.023714065551758,-0.4864402413368225,-2.2488436698913574,0.20083944499492645,0
44,0.21500873565673828,0.10880166292190552,-18.229516983032227,1.1441986560821533,18.099092483520508,0.4928489327430725,2.2424349784851074,-0.17978231608867645,0.0,0.0,0.0,0.0,0.0,0.0,0.0,0.13652509394837054,0.3955487334559103,0.30943361346137144,0.42496450034284394,0.0725630280148985,0.05835620539317353,-0.17976973668854154,-0.6091005305034195,-0.057437051426423226,-0.6666014266348722,-2.594560679151301,-0.05562309740491212,2.5079738796925173,0.8763161384181816,-0.6090851748156966,-0.05753196718556838,-0.666603097082616,-2.5945565370258534,-0.05562143941554,2.507976027223799,0.8763108487046415,0.0005882209646923451,-0.0008145666027648647,-0.0007356353427156673,-0.000954479772923308,0.00022535474971238875,-0.0001639900235511556,-0.001026600606934954,0.0,0.0,0.0,0.0,0.0,0.0,0.0,1.5355687722928835e-05,-9.491575914515743e-05,-1.6704477437956555e-06,4.142125447526013e-06,1.6579893721210825e-06,2.1475312816932046e-06,-5.289713540079788e-06,-0.0005882209646923451,0.0008145666027648647,0.0007356353427156673,0.000954479772923308,-0.00022535474971238875,0.0001639900235511556,0.001026600606934954,-0.10880166292190552,18.229516983032227,-1.1441986560821533,-18.099092483520508,-0.4928489327430725,-2.2424349784851074,0.17978231608867645,0
45,0.22000598907470703,0.10880166292190552,-18.229516983032227,1.1441986560821533,18.099092483520508,0.4928489327430725,2.2424349784851074,-0.17978231608867645,0.0,0.0,0.0,0.0,0.0,0.0,0.0,0.13652509394837054,0.3955487334559103,0.30943361346137144,0.42496450034284394,0.0725630280148985,0.05835620539317353,-0.17976973668854154,-0.6091005305034195,-0.057437051426423226,-0.6666014266348722,-2.594560679151301,-0.05562309740491212,2.5079738796925173,0.8763161384181816,-0.6090851748156966,-0.05753196718556838,-0.666603097082616,-2.5945565370258534,-0.05562143941554,2.507976027223799,0.8763108487046415,0.0005882209646923451,-0.0008145666027648647,-0.0007356353427156673,-0.000954479772923308,0.00022535474971238875,-0.0001639900235511556,-0.001026600606934954,0.0,0.0,0.0,0.0,0.0,0.0,0.0,1.5355687722928835e-05,-9.491575914515743e-05,-1.6704477437956555e-06,4.142125447526013e-06,1.6579893721210825e-06,2.1475312816932046e-06,-5.289713540079788e-06,-0.0005882209646923451,0.0008145666027648647,0.0007356353427156673,0.000954479772923308,-0.00022535474971238875,0.0001639900235511556,0.001026600606934954,-0.10880166292190552,18.229516983032227,-1.1441986560821533,-18.099092483520508,-0.4928489327430725,-2.2424349784851074,0.17978231608867645,0
46,0.22503328323364258,0.13260537385940552,-18.229516983032227,1.0926239490509033,18.047517776489258,0.4928489327430725,2.2360262870788574,-0.19351522624492645,0.0,0.0,0.0,0.0,0.0,0.0,0.0,0.13561896282254277,0.3964759288961134,0.31043470885913094,0.42303292377674867,0.07249012140746397,0.05693756745290462,-0.17999814246997273,-0.6091051726749976,-0.057437051426423226,-0.6665978073571858,-2.5945570598736145,-0.05562270489168515,2.5079746107253102,0.876317625051234,-0.6090851748156966,-0.05753196718556838,-0.666603097082616,-2.5945565370258534,-0.05562143941554,2.507976027223799,0.8763108487046415,0.0002486429062621672,-0.0008642724138551557,0.0009687584771743358,-0.00032067019554561887,0.00013294335091886103,6.326737572789448e-05,0.00031767174805280194,0.0,0.0,0.0,0.0,0.0,0.0,0.0,1.9997859301068566e-05,-9.491575914515743e-05,-5.289725430235315e-06,5.228477610863536e-07,1.2654761451513785e-06,1.416498488726603e-06,-6.776346592518578e-06,-0.0002486429062621672,0.0008642724138551557,-0.0009687584771743358,0.00032067019554561887,-0.00013294335091886103,-6.326737572789448e-05,-0.00031767174805280194,-0.13260537385940552,18.229516983032227,-1.0926239490509033,-18.047517776489258,-0.4928489327430725,-2.2360262870788574,0.19351522624492645,0
47,0.2299482822418213,0.13260537385940552,-18.229516983032227,1.0926239490509033,18.047517776489258,0.4928489327430725,2.2360262870788574,-0.19351522624492645,0.0,0.0,0.0,0.0,0.0,0.0,0.0,0.13561896282254277,0.3964759288961134,0.31043470885913094,0.42303292377674867,0.07249012140746397,0.05693756745290462,-0.17999814246997273,-0.6091051726749976,-0.057437051426423226,-0.6665978073571858,-2.5945570598736145,-0.05562270489168515,2.5079746107253102,0.876317625051234,-0.6090851748156966,-0.05753196718556838,-0.666603097082616,-2.5945565370258534,-0.05562143941554,2.507976027223799,0.8763108487046415,0.0002486429062621672,-0.0008642724138551557,0.0009687584771743358,-0.00032067019554561887,0.00013294335091886103,6.326737572789448e-05,0.00031767174805280194,0.0,0.0,0.0,0.0,0.0,0.0,0.0,1.9997859301068566e-05,-9.491575914515743e-05,-5.289725430235315e-06,5.228477610863536e-07,1.2654761451513785e-06,1.416498488726603e-06,-6.776346592518578e-06,-0.0002486429062621672,0.0008642724138551557,-0.0009687584771743358,0.00032067019554561887,-0.00013294335091886103,-6.326737572789448e-05,-0.00031767174805280194,-0.13260537385940552,18.229516983032227,-1.0926239490509033,-18.047517776489258,-0.4928489327430725,-2.2360262870788574,0.19351522624492645,0
48,0.2350006103515625,0.13260537385940552,-18.277124404907227,1.1164276599884033,18.071321487426758,0.4928489327430725,2.2552523612976074,-0.18710653483867645,0.0,0.0,0.0,0.0,0.0,0.0,0.0,0.13615194474066555,0.3902880230078464,0.3124077497955581,0.4291793846128333,0.0726977190253017,0.057221242212879136,-0.18023875560515049,-0.6091043553968086,-0.0574337105547127,-0.6665994777930411,-2.5945587303094695,-0.05561846832010601,2.50797422182385,0.8763169522200461,-0.6090851748156966,-0.05753196718556838,-0.666603097082616,-2.5945565370258534,-0.05562143941554,2.507976027223799,0.8763108487046415,0.0006328622450974451,-4.239532317347359e-05,0.00038883411672173033,-0.00027401788789791024,9.61881330569536e-05,-0.0007257841301949494,0.00016498869242077003,0.0,0.0,0.0,0.0,0.0,0.0,0.0,1.9180581112054895e-05,-9.825663085568509e-05,-3.6192895749298515e-06,2.19328361605875e-06,-2.9710954339914886e-06,1.8053999490952322e-06,-6.103515404642934e-06,-0.0006328622450974451,4.239532317347359e-05,-0.00038883411672173033,0.00027401788789791024,-9.61881330569536e-05,0.0007257841301949494,-0.00016498869242077003,-0.13260537385940552,18.277124404907227,-1.1164276599884033,-18.071321487426758,-0.4928489327430725,-2.2552523612976074,0.18710653483867645,0
49,0.23999762535095215,0.13260537385940552,-18.277124404907227,1.1164276599884033,18.071321487426758,0.4928489327430725,2.2552523612976074,-0.18710653483867645,0.0,0.0,0.0,0.0,0.0,0.0,0.0,0.13615194474066555,0.3902880230078464,0.3124077497955581,0.4291793846128333,0.0726977190253017,0.057221242212879136,-0.18023875560515049,-0.6091043553968086,-0.0574337105547127,-0.6665994777930411,-2.5945587303094695,-0.05561846832010601,2.50797422182385,0.8763169522200461,-0.6090851748156966,-0.05753196718556838,-0.666603097082616,-2.5945565370258534,-0.05562143941554,2.507976027223799,0.8763108487046415,0.0006328622450974451,-4.239532317347359e-05,0.00038883411672173033,-0.00027401788789791024,9.61881330569536e-05,-0.0007257841301949494,0.00016498869242077003,0.0,0.0,0.0,0.0,0.0,0.0,0.0,1.9180581112054895e-05,-9.825663085568509e-05,-3.6192895749298515e-06,2.19328361605875e-06,-2.9710954339914886e-06,1.8053999490952322e-06,-6.103515404642934e-06,-0.0006328622450974451,4.239532317347359e-05,-0.00038883411672173033,0.00027401788789791024,-9.61881330569536e-05,0.0007257841301949494,-0.00016498869242077003,-0.13260537385940552,18.277124404907227,-1.1164276599884033,-18.071321487426758,-0.4928489327430725,-2.2552523612976074,0.18710653483867645,0
50,0.24499845504760742,0.10880166292190552,-18.352502822875977,1.1441986560821533,18.023714065551758,0.4928489327430725,2.2488436698913574,-0.17978231608867645,0.0,0.0,0.0,0.0,0.0,0.0,0.0,0.13365758146077197,0.3872047972410878,0.3074166950345759,0.42739068950472614,0.07270687032544178,0.05649662528900812,-0.1804863637661917,-0.6091012695981266,-0.05742842084117103,-0.6666014266348722,-2.5945553863853035,-0.05562000903404773,2.5079718744564445,0.8763161209755813,-0.6090851748156966,-0.05753196718556838,-0.666603097082616,-2.5945565370258534,-0.05562143941554,2.507976027223799,0.8763108487046415,0.0009850166126275759,0.001168869343209413,-0.00046051575631226893,0.0005836586310257691,0.0001862143710575387,-0.00017264758146332145,-0.00035811420403061785,0.0,0.0,0.0,0.0,0.0,0.0,0.0,1.6094782430031707e-05,-0.00010354634439735388,-1.6704477437956555e-06,-1.1506405499517314e-06,-1.4303814922719815e-06,4.152767354437259e-06,-5.27227093982674e-06,-0.0009850166126275759,-0.001168869343209413,0.00046051575631226893,-0.0005836586310257691,-0.0001862143710575387,0.00017264758146332145,0.00035811420403061785,-0.10880166292190552,18.352502822875977,-1.1441986560821533,-18.023714065551758,-0.4928489327430725,-2.2488436698913574,0.17978231608867645,0
51,0.24999737739562988,0.10880166292190552,-18.352502822875977,1.1441986560821533,18.023714065551758,0.4928489327430725,2.2488436698913574,-0.17978231608867645,0.0,0.0,0.0,0.0,0.0,0.0,0.0,0.13365758146077197,0.3872047972410878,0.3074166950345759,0.42739068950472614,0.07270687032544178,0.05649662528900812,-0.1804863637661917,-0.6091012695981266,-0.05742842084117103,-0.6666014266348722,-2.5945553863853035,-0.05562000903404773,2.5079718744564445,0.8763161209755813,-0.6090851748156966,-0.05753196718556838,-0.666603097082616,-2.5945565370258534,-0.05562143941554,2.507976027223799,0.8763108487046415,0.0009850166126275759,0.001168869343209413,-0.00046051575631226893,0.0005836586310257691,0.0001862143710575387,-0.00017264758146332145,-0.00035811420403061785,0.0,0.0,0.0,0.0,0.0,0.0,0.0,1.6094782430031707e-05,-0.00010354634439735388,-1.6704477437956555e-06,-1.1506405499517314e-06,-1.4303814922719815e-06,4.152767354437259e-06,-5.27227093982674e-06,-0.0009850166126275759,-0.001168869343209413,0.00046051575631226893,-0.0005836586310257691,-0.0001862143710575387,0.00017264758146332145,0.00035811420403061785,-0.10880166292190552,18.352502822875977,-1.1441986560821533,-18.023714065551758,-0.4928489327430725,-2.2488436698913574,0.17978231608867645,0
52,0.25499963760375977,0.10880166292190552,-18.352502822875977,1.1441986560821533,18.023714065551758,0.4928489327430725,2.2488436698913574,-0.17978231608867645,0.0,0.0,0.0,0.0,0.0,0.0,0.0,0.13365758146077197,0.3872047972410878,0.3074166950345759,0.42739068950472614,0.07270687032544178,0.05649662528900812,-0.1804863637661917,-0.6091012695981266,-0.05742842084117103,-0.6666014266348722,-2.5945553863853035,-0.05562000903404773,2.5079718744564445,0.8763161209755813,-0.6090851748156966,-0.05753196718556838,-0.666603097082616,-2.5945565370258534,-0.05562143941554,2.507976027223799,0.8763108487046415,0.0009850166126275759,0.001168869343209413,-0.00046051575631226893,0.0005836586310257691,0.0001862143710575387,-0.00017264758146332145,-0.00035811420403061785,0.0,0.0,0.0,0.0,0.0,0.0,0.0,1.6094782430031707e-05,-0.00010354634439735388,-1.6704477437956555e-06,-1.1506405499517314e-06,-1.4303814922719815e-06,4.152767354437259e-06,-5.27227093982674e-06,-0.0009850166126275759,-0.001168869343209413,0.00046051575631226893,-0.0005836586310257691,-0.0001862143710575387,0.00017264758146332145,0.00035811420403061785,-0.10880166292190552,18.352502822875977,-1.1441986560821533,-18.023714065551758,-0.4928489327430725,-2.2488436698913574,0.17978231608867645,0
53,0.25999903678894043,0.10880166292190552,-18.352502822875977,1.1441986560821533,18.023714065551758,0.4928489327430725,2.2488436698913574,-0.17978231608867645,0.0,0.0,0.0,0.0,0.0,0.0,0.0,0.13365758146077197,0.3872047972410878,0.3074166950345759,0.42739068950472614,0.07270687032544178,0.05649662528900812,-0.1804863637661917,-0.6091012695981266,-0.05742842084117103,-0.6666014266348722,-2.5945553863853035,-0.05562000903404773,2.5079718744564445,0.8763161209755813,-0.6090851748156966,-0.05753196718556838,-0.666603097082616,-2.5945565370258534,-0.05562143941554,2.507976027223799,0.8763108487046415,0.0009850166126275759,0.001168869343209413,-0.00046051575631226893,0.0005836586310257691,0.0001862143710575387,-0.00017264758146332145,-0.00035811420403061785,0.0,0.0,0.0,0.0,0.0,0.0,0.0,1.6094782430031707e-05,-0.00010354634439735388,-1.6704477437956555e-06,-1.1506405499517314e-06,-1.4303814922719815e-06,4.152767354437259e-06,-5.27227093982674e-06,-0.0009850166126275759,-0.001168869343209413,0.00046051575631226893,-0.0005836586310257691,-0.0001862143710575387,0.00017264758146332145,0.00035811420403061785,-0.10880166292190552,18.352502822875977,-1.1441986560821533,-18.023714065551758,-0.4928489327430725,-2.2488436698913574,0.17978231608867645,0
54,0.26499485969543457,0.10880166292190552,-18.253320693969727,1.1164276599884033,18.071321487426758,0.4928489327430725,2.2360262870788574,-0.20724813640117645,0.0,0.0,0.0,0.0,0.0,0.0,0.0,0.13847614274717776,0.38921209602491424,0.31192502203264627,0.42400040415746915,0.07211593971874362,0.057225794475368845,-0.18003782156546547,-0.6091024612469673,-0.05743538099056796,-0.666599503793421,-2.594558730309452,-0.05562308467700463,2.5079742385553123,0.8763191885608426,-0.6090851748156966,-0.05753196718556838,-0.666603097082616,-2.5945565370258534,-0.05562143941554,2.507976027223799,0.8763108487046415,0.0006023665473062804,-0.00043307534245779064,0.0005595172748015109,-0.0004095906281519764,4.96242717068358e-05,0.00018877871919246794,0.00072585473284981,0.0,0.0,0.0,0.0,0.0,0.0,0.0,1.7286431270746583e-05,-9.658619500042126e-05,-3.5932891949697066e-06,2.1932835987392707e-06,1.645261464629233e-06,1.7886684866574853e-06,-8.339856201078355e-06,-0.0006023665473062804,0.00043307534245779064,-0.0005595172748015109,0.0004095906281519764,-4.96242717068358e-05,-0.00018877871919246794,-0.00072585473284981,-0.10880166292190552,18.253320693969727,-1.1164276599884033,-18.071321487426758,-0.4928489327430725,-2.2360262870788574,0.20724813640117645,0
55,0.2700059413909912,0.10880166292190552,-18.253320693969727,1.1164276599884033,18.071321487426758,0.4928489327430725,2.2360262870788574,-0.20724813640117645,0.0,0.0,0.0,0.0,0.0,0.0,0.0,0.13847614274717776,0.38921209602491424,0.31192502203264627,0.42400040415746915,0.07211593971874362,0.057225794475368845,-0.18003782156546547,-0.6091024612469673,-0.05743538099056796,-0.666599503793421,-2.594558730309452,-0.05562308467700463,2.5079742385553123,0.8763191885608426,-0.6090851748156966,-0.05753196718556838,-0.666603097082616,-2.5945565370258534,-0.05562143941554,2.507976027223799,0.8763108487046415,0.0006023665473062804,-0.00043307534245779064,0.0005595172748015109,-0.0004095906281519764,4.96242717068358e-05,0.00018877871919246794,0.00072585473284981,0.0,0.0,0.0,0.0,0.0,0.0,0.0,1.7286431270746583e-05,-9.658619500042126e-05,-3.5932891949697066e-06,2.1932835987392707e-06,1.645261464629233e-06,1.7886684866574853e-06,-8.339856201078355e-06,-0.0006023665473062804,0.00043307534245779064,-0.0005595172748015109,0.0004095906281519764,-4.96242717068358e-05,-0.00018877871919246794,-0.00072585473284981,-0.10880166292190552,18.253320693969727,-1.1164276599884033,-18.071321487426758,-0.4928489327430725,-2.2360262870788574,0.20724813640117645,0
56,0.2750062942504883,0.13260537385940552,-18.205713272094727,1.1164276599884033,18.023714065551758,0.5102439522743225,2.2488436698913574,-0.16604940593242645,0.0,0.0,0.0,0.0,0.0,0.0,0.0,0.14096608934012575,0.39236781541286797,0.31639587000052916,0.42360575124275274,0.07143882861503323,0.05727951269258158,-0.1800342675062961,-0.609102073607756,-0.05743872186227849,-0.6665994777931878,-2.594555389437759,-0.055624032540087964,2.5079749343292534,0.8763146125392689,-0.6090851748156966,-0.05753196718556838,-0.666603097082616,-2.5945565370258534,-0.05562143941554,2.507976027223799,0.8763108487046415,0.0003345204750133149,-0.0010180068018352487,0.0007131885507814061,0.0005863440482142246,-0.0005983854668288239,-0.0003102643598343941,-0.00016885451129622475,0.0,0.0,0.0,0.0,0.0,0.0,0.0,1.6898792059460988e-05,-9.32453232898936e-05,-3.6192894281583676e-06,-1.147588094330132e-06,2.5931245479643428e-06,1.0928945455290773e-06,-3.763834627412699e-06,-0.0003345204750133149,0.0010180068018352487,-0.0007131885507814061,-0.0005863440482142246,0.0005983854668288239,0.0003102643598343941,0.00016885451129622475,-0.13260537385940552,18.205713272094727,-1.1164276599884033,-18.023714065551758,-0.5102439522743225,-2.2488436698913574,0.16604940593242645,0
57,0.2799556255340576,0.13260537385940552,-18.205713272094727,1.1164276599884033,18.023714065551758,0.5102439522743225,2.2488436698913574,-0.16604940593242645,0.0,0.0,0.0,0.0,0.0,0.0,0.0,0.14096608934012575,0.39236781541286797,0.31639587000052916,0.42360575124275274,0.07143882861503323,0.05727951269258158,-0.1800342675062961,-0.609102073607756,-0.05743872186227849,-0.6665994777931878,-2.594555389437759,-0.055624032540087964,2.5079749343292534,0.8763146125392689,-0.6090851748156966,-0.05753196718556838,-0.666603097082616,-2.5945565370258534,-0.05562143941554,2.507976027223799,0.8763108487046415,0.0003345204750133149,-0.0010180068018352487,0.0007131885507814061,0.0005863440482142246,-0.0005983854668288239,-0.0003102643598343941,-0.00016885451129622475,0.0,0.0,0.0,0.0,0.0,0.0,0.0,1.6898792059460988e-05,-9.32453232898936e-05,-3.6192894281583676e-06,-1.147588094330132e-06,2.5931245479643428e-06,1.0928945455290773e-06,-3.763834627412699e-06,-0.0003345204750133149,0.0010180068018352487,-0.0007131885507814061,-0.0005863440482142246,0.0005983854668288239,0.0003102643598343941,0.00016885451129622475,-0.13260537385940552,18.205713272094727,-1.1164276599884033,-18.023714065551758,-0.5102439522743225,-2.2488436698913574,0.16604940593242645,0
58,0.28510499000549316,0.13260537385940552,-18.229516983032227,1.1164276599884033,18.023714065551758,0.4928489327430725,2.2488436698913574,-0.15964071452617645,0.0,0.0,0.0,0.0,0.0,0.0,0.0,0.13711567760179436,0.39361169796251533,0.314741956919627,0.42630211398223616,0.07169206542888769,0.05777160872368987,-0.1784331375157373,-0.6091049356729112,-0.057437051426423226,-0.6665994777930411,-2.594555389437759,-0.055622862713514895,2.507972108047355,0.876313900462455,-0.6090851748156966,-0.05753196718556838,-0.666603097082616,-2.5945565370258534,-0.05562143941554,2.507976027223799,0.8763108487046415,-9.823695297104778e-05,-0.00029199981188995076,0.0004005850213773563,0.0004909571646544203,0.0001230916073813767,-0.0005763411837393122,-0.0009156074449663702,0.0,0.0,0.0,0.0,0.0,0.0,0.0,1.9760857214667915e-05,-9.491575914515743e-05,-3.6192895749298515e-06,-1.147588094330132e-06,1.4232979748951546e-06,3.9191764438228915e-06,-3.051757813565814e-06,9.823695297104778e-05,0.00029199981188995076,-0.0004005850213773563,-0.0004909571646544203,-0.0001230916073813767,0.0005763411837393122,0.0009156074449663702,-0.13260537385940552,18.229516983032227,-1.1164276599884033,-18.023714065551758,-0.4928489327430725,-2.2488436698913574,0.15964071452617645,0
59,0.2900121212005615,0.13260537385940552,-18.229516983032227,1.1164276599884033,18.023714065551758,0.4928489327430725,2.2488436698913574,-0.15964071452617645,0.0,0.0,0.0,0.0,0.0,0.0,0.0,0.13711567760179436,0.39361169796251533,0.314741956919627,0.42630211398223616,0.07169206542888769,0.05777160872368987,-0.1784331375157373,-0.6091049356729112,-0.057437051426423226,-0.6665994777930411,-2.594555389437759,-0.055622862713514895,2.507972108047355,0.876313900462455,-0.6090851748156966,-0.05753196718556838,-0.666603097082616,-2.5945565370258534,-0.05562143941554,2.507976027223799,0.8763108487046415,-9.823695297104778e-05,-0.00029199981188995076,0.0004005850213773563,0.0004909571646544203,0.0001230916073813767,-0.0005763411837393122,-0.0009156074449663702,0.0,0.0,0.0,0.0,0.0,0.0,0.0,1.9760857214667915e-05,-9.491575914515743e-05,-3.6192895749298515e-06,-1.147588094330132e-06,1.4232979748951546e-06,3.9191764438228915e-06,-3.051757813565814e-06,9.823695297104778e-05,0.00029199981188995076,-0.0004005850213773563,-0.0004909571646544203,-0.0001230916073813767,0.0005763411837393122,0.0009156074449663702,-0.13260537385940552,18.229516983032227,-1.1164276599884033,-18.023714065551758,-0.4928489327430725,-2.2488436698913574,0.15964071452617645,0
60,0.29500412940979004,0.10880166292190552,-18.253320693969727,1.0688202381134033,18.099092483520508,0.4864402413368225,2.2424349784851074,-0.17978231608867645,0.0,0.0,0.0,0.0,0.0,0.0,0.0,0.13017085218044946,0.39683403993476535,0.3116652403295695,0.4273761472613981,0.07208432720435262,0.05781315230521723,-0.17825950277266445,-0.6091011180687891,-0.05743538099056796,-0.6665961369213305,-2.594560679151301,-0.05562131661102768,2.507972506302876,0.8763161384181842,-0.6090851748156966,-0.05753196718556838,-0.666603097082616,-2.5945565370258534,-0.05562143941554,2.507976027223799,0.8763108487046415,3.117056969855457e-06,-8.326388920241434e-05,0.00093975476768147,-0.0013754155090307369,0.0003793736921095803,-0.00020842763802817593,0.00027657932271409557,0.0,0.0,0.0,0.0,0.0,0.0,0.0,1.5943253092509657e-05,-9.658619500042126e-05,-6.960161285540778e-06,4.142125447526013e-06,-1.2280451232304923e-07,3.5209209228170835e-06,-5.289713542744323e-06,-3.117056969855457e-06,8.326388920241434e-05,-0.00093975476768147,0.0013754155090307369,-0.0003793736921095803,0.00020842763802817593,-0.00027657932271409557,-0.10880166292190552,18.253320693969727,-1.0688202381134033,-18.099092483520508,-0.4864402413368225,-2.2424349784851074,0.17978231608867645,0
61,0.30000758171081543,0.10880166292190552,-18.253320693969727,1.0688202381134033,18.099092483520508,0.4864402413368225,2.2424349784851074,-0.17978231608867645,0.0,0.0,0.0,0.0,0.0,0.0,0.0,0.13017085218044946,0.39683403993476535,0.3116652403295695,0.4273761472613981,0.07208432720435262,0.05781315230521723,-0.17825950277266445,-0.6091011180687891,-0.05743538099056796,-0.6665961369213305,-2.594560679151301,-0.05562131661102768,2.507972506302876,0.8763161384181842,-0.6090851748156966,-0.05753196718556838,-0.666603097082616,-2.5945565370258534,-0.05562143941554,2.507976027223799,0.8763108487046415,3.117056969855457e-06,-8.326388920241434e-05,0.00093975476768147,-0.0013754155090307369,0.0003793736921095803,-0.00020842763802817593,0.00027657932271409557,0.0,0.0,0.0,0.0,0.0,0.0,0.0,1.5943253092509657e-05,-9.658619500042126e-05,-6.960161285540778e-06,4.142125447526013e-06,-1.2280451232304923e-07,3.5209209228170835e-06,-5.289713542744323e-06,-3.117056969855457e-06,8.326388920241434e-05,-0.00093975476768147,0.0013754155090307369,-0.0003793736921095803,0.00020842763802817593,-0.00027657932271409557,-0.10880166292190552,18.253320693969727,-1.0688202381134033,-18.099092483520508,-0.4864402413368225,-2.2424349784851074,0.17978231608867645,0
62,0.30501341819763184,0.08103066682815552,-18.328699111938477,1.0926239490509033,18.071321487426758,0.4928489327430725,2.2360262870788574,-0.15231649577617645,0.0,0.0,0.0,0.0,0.0,0.0,0.0,0.131815792781283,0.3981164572345829,0.31383041792434996,0.42566977188142857,0.07171937247425739,0.05754792104511755,-0.17723350306207364,-0.6091014752453352,-0.05743009127702629,-0.6665978073571858,-2.5945587303094695,-0.05562272645316001,2.5079742387168102,0.8763120226615917,-0.6090851748156966,-0.05753196718556838,-0.666603097082616,-2.5945565370258534,-0.05562143941554,2.507976027223799,0.8763108487046415,0.0008011837638141565,0.0012303288964292836,0.0006209501136086375,-0.0004906670926323621,0.0002688484823081502,5.729597675170163e-05,-0.0008147614030270258,0.0,0.0,0.0,0.0,0.0,0.0,0.0,1.63004296386271e-05,-0.00010187590854209005,-5.289725430235315e-06,2.19328361605875e-06,1.2870376200069256e-06,1.788506988731342e-06,-1.1739569502067226e-06,-0.0008011837638141565,-0.0012303288964292836,-0.0006209501136086375,0.0004906670926323621,-0.0002688484823081502,-5.729597675170163e-05,0.0008147614030270258,-0.08103066682815552,18.328699111938477,-1.0926239490509033,-18.071321487426758,-0.4928489327430725,-2.2360262870788574,0.15231649577617645,0
63,0.3099968433380127,0.08103066682815552,-18.328699111938477,1.0926239490509033,18.071321487426758,0.4928489327430725,2.2360262870788574,-0.15231649577617645,0.0,0.0,0.0,0.0,0.0,0.0,0.0,0.131815792781283,0.3981164572345829,0.31383041792434996,0.42566977188142857,0.07171937247425739,0.05754792104511755,-0.17723350306207364,-0.6091014752453352,-0.05743009127702629,-0.6665978073571858,-2.5945587303094695,-0.05562272645316001,2.5079742387168102,0.8763120226615917,-0.6090851748156966,-0.05753196718556838,-0.666603097082616,-2.5945565370258534,-0.05562143941554,2.507976027223799,0.8763108487046415,0.0008011837638141565,0.0012303288964292836,0.0006209501136086375,-0.0004906670926323621,0.0002688484823081502,5.729597675170163e-05,-0.0008147614030270258,0.0,0.0,0.0,0.0,0.0,0.0,0.0,1.63004296386271e-05,-0.00010187590854209005,-5.289725430235315e-06,2.19328361605875e-06,1.2870376200069256e-06,1.788506988731342e-06,-1.1739569502067226e-06,-0.0008011837638141565,-0.0012303288964292836,-0.0006209501136086375,0.0004906670926323621,-0.0002688484823081502,-5.729597675170163e-05,0.0008147614030270258,-0.08103066682815552,18.328699111938477,-1.0926239490509033,-18.071321487426758,-0.4928489327430725,-2.2360262870788574,0.15231649577617645,0
64,0.31500720977783203,0.13260537385940552,-18.328699111938477,1.1680023670196533,18.023714065551758,0.4928489327430725,2.2424349784851074,-0.15964071452617645,0.0,0.0,0.0,0.0,0.0,0.0,0.0,0.1322797219879942,0.39036381954771926,0.31359415173770167,0.4263610815927085,0.07206357078990963,0.05769655489133629,-0.1773174167144044,-0.6091027629960449,-0.05743009127702629,-0.6666030970707274,-2.5945561311844494,-0.05562286270087193,2.507973531486481,0.8763128408043785,-0.6090851748156966,-0.05753196718556838,-0.666603097082616,-2.5945565370258534,-0.05562143941554,2.507976027223799,0.8763108487046415,0.0004027492761932195,0.00019444848157855742,-0.00139522463660487,0.0006965244791149989,4.6862990098682985e-05,-3.106744539268397e-05,-0.0005908435308896135,0.0,0.0,0.0,0.0,0.0,0.0,0.0,1.7588180348360183e-05,-0.00010187590854209005,-1.1888601214593564e-11,-4.0584140403865376e-07,1.4232853319320893e-06,2.4957373181422327e-06,-1.9920997370581617e-06,-0.0004027492761932195,-0.00019444848157855742,0.00139522463660487,-0.0006965244791149989,-4.6862990098682985e-05,3.106744539268397e-05,0.0005908435308896135,-0.13260537385940552,18.328699111938477,-1.1680023670196533,-18.023714065551758,-0.4928489327430725,-2.2424349784851074,0.15964071452617645,0
65,0.3199961185455322,0.13260537385940552,-18.328699111938477,1.1680023670196533,18.023714065551758,0.4928489327430725,2.2424349784851074,-0.15964071452617645,0.0,0.0,0.0,0.0,0.0,0.0,0.0,0.1322797219879942,0.39036381954771926,0.31359415173770167,0.4263610815927085,0.07206357078990963,0.05769655489133629,-0.1773174167144044,-0.6091027629960449,-0.05743009127702629,-0.6666030970707274,-2.5945561311844494,-0.05562286270087193,2.507973531486481,0.8763128408043785,-0.6090851748156966,-0.05753196718556838,-0.666603097082616,-2.5945565370258534,-0.05562143941554,2.507976027223799,0.8763108487046415,0.0004027492761932195,0.00019444848157855742,-0.00139522463660487,0.0006965244791149989,4.6862990098682985e-05,-3.106744539268397e-05,-0.0005908435308896135,0.0,0.0,0.0,0.0,0.0,0.0,0.0,1.7588180348360183e-05,-0.00010187590854209005,-1.1888601214593564e-11,-4.0584140403865376e-07,1.4232853319320893e-06,2.4957373181422327e-06,-1.9920997370581617e-06,-0.0004027492761932195,-0.00019444848157855742,0.00139522463660487,-0.0006965244791149989,-4.6862990098682985e-05,3.106744539268397e-05,0.0005908435308896135,-0.13260537385940552,18.328699111938477,-1.1680023670196533,-18.023714065551758,-0.4928489327430725,-2.2424349784851074,0.15964071452617645,0
66,0.32500171661376953,0.08103066682815552,-18.304895401000977,1.1680023670196533,18.047517776489258,0.4928489327430725,2.2424349784851074,-0.20724813640117645,0.0,0.0,0.0,0.0,0.0,0.0,0.0,0.13263481081399686,0.38653784954511994,0.31176464564628886,0.4228331125861095,0.07200994168850862,0.056912073191317636,-0.1781443249163383,-0.6091004967421328,-0.05743176171288156,-0.6666030970707274,-2.594557059877802,-0.05562282285529975,2.5079728207044263,0.876316011255627,-0.6090851748156966,-0.05753196718556838,-0.666603097082616,-2.5945565370258534,-0.05562143941554,2.507976027223799,0.8763108487046415,0.00131511008923294,-0.00024230076140223578,-0.000932782685159617,0.00015372191019510787,6.189610395705507e-05,8.76038035514076e-05,0.0010988861385588225,0.0,0.0,0.0,0.0,0.0,0.0,0.0,1.5321926436273614e-05,-0.00010020547268682622,-1.1888601214593564e-11,5.228519484035132e-07,1.3834397597500825e-06,3.2065193726893426e-06,-5.162550985482461e-06,-0.00131511008923294,0.00024230076140223578,0.000932782685159617,-0.00015372191019510787,-6.189610395705507e-05,-8.76038035514076e-05,-0.0010988861385588225,-0.08103066682815552,18.304895401000977,-1.1680023670196533,-18.047517776489258,-0.4928489327430725,-2.2424349784851074,0.20724813640117645,0
67,0.3300015926361084,0.08103066682815552,-18.304895401000977,1.1680023670196533,18.047517776489258,0.4928489327430725,2.2424349784851074,-0.20724813640117645,0.0,0.0,0.0,0.0,0.0,0.0,0.0,0.13263481081399686,0.38653784954511994,0.31176464564628886,0.4228331125861095,0.07200994168850862,0.056912073191317636,-0.1781443249163383,-0.6091004967421328,-0.05743176171288156,-0.6666030970707274,-2.594557059877802,-0.05562282285529975,2.5079728207044263,0.876316011255627,-0.6090851748156966,-0.05753196718556838,-0.666603097082616,-2.5945565370258534,-0.05562143941554,2.507976027223799,0.8763108487046415,0.00131511008923294,-0.00024230076140223578,-0.000932782685159617,0.00015372191019510787,6.189610395705507e-05,8.76038035514076e-05,0.0010988861385588225,0.0,0.0,0.0,0.0,0.0,0.0,0.0,1.5321926436273614e-05,-0.00010020547268682622,-1.1888601214593564e-11,5.228519484035132e-07,1.3834397597500825e-06,3.2065193726893426e-06,-5.162550985482461e-06,-0.00131511008923294,0.00024230076140223578,0.000932782685159617,-0.00015372191019510787,-6.189610395705507e-05,-8.76038035514076e-05,-0.0010988861385588225,-0.08103066682815552,18.304895401000977,-1.1680023670196533,-18.047517776489258,-0.4928489327430725,-2.2424349784851074,0.20724813640117645,0
68,0.33500194549560547,0.16037636995315552,-18.277124404907227,1.1441986560821533,18.023714065551758,0.4928489327430725,2.2360262870788574,-0.19351522624492645,0.0,0.0,0.0,0.0,0.0,0.0,0.0,0.13051694219363583,0.3832067642857431,0.31284254989453875,0.4226880515271074,0.07240466752554944,0.057331060494127235,-0.17967766601109916,-0.6091061619664446,-0.0574337105547127,-0.6666014266348722,-2.594555389437759,-0.05561859120767818,2.507976477024013,0.8763176511971933,-0.6090851748156966,-0.05753196718556838,-0.666603097082616,-2.5945565370258534,-0.05562143941554,2.507976027223799,0.8763108487046415,-0.0005228413441759419,0.00018169946984553608,-0.00013419458525949337,0.000725626118588773,3.654599044783362e-05,0.0003994770664575557,0.001098605765771434,0.0,0.0,0.0,0.0,0.0,0.0,0.0,2.098715074805302e-05,-9.825663085568509e-05,-1.6704477437956555e-06,-1.147588094330132e-06,-2.8482078618177753e-06,-4.498002139641244e-07,-6.802492551805095e-06,0.0005228413441759419,-0.00018169946984553608,0.00013419458525949337,-0.000725626118588773,-3.654599044783362e-05,-0.0003994770664575557,-0.001098605765771434,-0.16037636995315552,18.277124404907227,-1.1441986560821533,-18.023714065551758,-0.4928489327430725,-2.2360262870788574,0.19351522624492645,0
69,0.3399972915649414,0.16037636995315552,-18.277124404907227,1.1441986560821533,18.023714065551758,0.4928489327430725,2.2360262870788574,-0.19351522624492645,0.0,0.0,0.0,0.0,0.0,0.0,0.0,0.13051694219363583,0.3832067642857431,0.31284254989453875,0.4226880515271074,0.07240466752554944,0.057331060494127235,-0.17967766601109916,-0.6091061619664446,-0.0574337105547127,-0.6666014266348722,-2.594555389437759,-0.05561859120767818,2.507976477024013,0.8763176511971933,-0.6090851748156966,-0.05753196718556838,-0.666603097082616,-2.5945565370258534,-0.05562143941554,2.507976027223799,0.8763108487046415,-0.0005228413441759419,0.00018169946984553608,-0.00013419458525949337,0.000725626118588773,3.654599044783362e-05,0.0003994770664575557,0.001098605765771434,0.0,0.0,0.0,0.0,0.0,0.0,0.0,2.098715074805302e-05,-9.825663085568509e-05,-1.6704477437956555e-06,-1.147588094330132e-06,-2.8482078618177753e-06,-4.498002139641244e-07,-6.802492551805095e-06,0.0005228413441759419,-0.00018169946984553608,0.00013419458525949337,-0.000725626118588773,-3.654599044783362e-05,-0.0003994770664575557,-0.001098605765771434,-0.16037636995315552,18.277124404907227,-1.1441986560821533,-18.023714065551758,-0.4928489327430725,-2.2360262870788574,0.19351522624492645,0
70,0.34499692916870117,0.16037636995315552,-18.177942276000977,1.1164276599884033,18.099092483520508,0.4928489327430725,2.2360262870788574,-0.15231649577617645,0.0,0.0,0.0,0.0,0.0,0.0,0.0,0.13196342299295108,0.3864545383398827,0.31641288497023956,0.42542891021938445,0.07202168396419788,0.057629895409336704,-0.17972294676848535,-0.6091048740742528,-0.057440670704109624,-0.6665994777930411,-2.594560679151301,-0.0556216359900031,2.507974409160386,0.87631308666015,-0.6090851748156966,-0.05753196718556838,-0.666603097082616,-2.5945565370258534,-0.05562143941554,2.507976027223799,0.8763108487046415,-0.00045640047614205957,-0.0013063034061411172,0.0007452232457442269,-0.0007712333877672617,0.00012873223946690177,4.117534070239752e-05,-0.0011012545817441878,0.0,0.0,0.0,0.0,0.0,0.0,0.0,1.9699258556271637e-05,-9.12964814587594e-05,-3.6192895749298515e-06,4.142125447526013e-06,1.965744631030053e-07,1.6180634130336102e-06,-2.2379555084661718e-06,0.00045640047614205957,0.0013063034061411172,-0.0007452232457442269,0.0007712333877672617,-0.00012873223946690177,-4.117534070239752e-05,0.0011012545817441878,-0.16037636995315552,18.177942276000977,-1.1164276599884033,-18.099092483520508,-0.4928489327430725,-2.2360262870788574,0.15231649577617645,0
71,0.3500082492828369,0.16037636995315552,-18.177942276000977,1.1164276599884033,18.099092483520508,0.4928489327430725,2.2360262870788574,-0.15231649577617645,0.0,0.0,0.0,0.0,0.0,0.0,0.0,0.13196342299295108,0.3864545383398827,0.31641288497023956,0.42542891021938445,0.07202168396419788,0.057629895409336704,-0.17972294676848535,-0.6091048740742528,-0.057440670704109624,-0.6665994777930411,-2.594560679151301,-0.0556216359900031,2.507974409160386,0.87631308666015,-0.6090851748156966,-0.05753196718556838,-0.666603097082616,-2.5945565370258534,-0.05562143941554,2.507976027223799,0.8763108487046415,-0.00045640047614205957,-0.0013063034061411172,0.0007452232457442269,-0.0007712333877672617,0.00012873223946690177,4.117534070239752e-05,-0.0011012545817441878,0.0,0.0,0.0,0.0,0.0,0.0,0.0,1.9699258556271637e-05,-9.12964814587594e-05,-3.6192895749298515e-06,4.142125447526013e-06,1.965744631030053e-07,1.6180634130336102e-06,-2.2379555084661718e-06,0.00045640047614205957,0.0013063034061411172,-0.0007452232457442269,0.0007712333877672617,-0.00012873223946690177,-4.117534070239752e-05,0.0011012545817441878,-0.16037636995315552,18.177942276000977,-1.1164276599884033,-18.099092483520508,-0.4928489327430725,-2.2360262870788574,0.15231649577617645,0
72,0.3549976348876953,0.13260537385940552,-18.229516983032227,1.1164276599884033,18.023714065551758,0.4809470772743225,2.2424349784851074,-0.22098104655742645,0.0,0.0,0.0,0.0,0.0,0.0,0.0,0.13266391903742203,0.3954408973733088,0.3168407173989991,0.42503892743048494,0.0713067642627521,0.05630539006808719,-0.179569547730528,-0.6091044342392227,-0.057437051426423226,-0.6665994777930411,-2.594555389437759,-0.05562043613933172,2.5079729440956267,0.876320716054903,-0.6090851748156966,-0.05753196718556838,-0.666603097082616,-2.5945565370258534,-0.05562143941554,2.507976027223799,0.8763108487046415,0.00026493200372234774,-1.0484809896017572e-05,0.000493920814511575,0.0004761611456945263,0.0005830961515490494,-0.0004922782222644531,0.001449168673801951,0.0,0.0,0.0,0.0,0.0,0.0,0.0,1.9259423526096775e-05,-9.491575914515743e-05,-3.6192895749298515e-06,-1.147588094330132e-06,-1.0032762082778923e-06,3.083128172320926e-06,-9.867350261538732e-06,-0.00026493200372234774,1.0484809896017572e-05,-0.000493920814511575,-0.0004761611456945263,-0.0005830961515490494,0.0004922782222644531,-0.001449168673801951,-0.13260537385940552,18.229516983032227,-1.1164276599884033,-18.023714065551758,-0.4809470772743225,-2.2424349784851074,0.22098104655742645,0
73,0.35999464988708496,0.13260537385940552,-18.229516983032227,1.1164276599884033,18.023714065551758,0.4809470772743225,2.2424349784851074,-0.22098104655742645,0.0,0.0,0.0,0.0,0.0,0.0,0.0,0.13266391903742203,0.3954408973733088,0.3168407173989991,0.42503892743048494,0.0713067642627521,0.05630539006808719,-0.179569547730528,-0.6091044342392227,-0.057437051426423226,-0.6665994777930411,-2.594555389437759,-0.05562043613933172,2.5079729440956267,0.876320716054903,-0.6090851748156966,-0.05753196718556838,-0.666603097082616,-2.5945565370258534,-0.05562143941554,2.507976027223799,0.8763108487046415,0.00026493200372234774,-1.0484809896017572e-05,0.000493920814511575,0.0004761611456945263,0.0005830961515490494,-0.0004922782222644531,0.001449168673801951,0.0,0.0,0.0,0.0,0.0,0.0,0.0,1.9259423526096775e-05,-9.491575914515743e-05,-3.6192895749298515e-06,-1.147588094330132e-06,-1.0032762082778923e-06,3.083128172320926e-06,-9.867350261538732e-06,-0.00026493200372234774,1.0484809896017572e-05,-0.000493920814511575,-0.0004761611456945263,-0.0005830961515490494,0.0004922782222644531,-0.001449168673801951,-0.13260537385940552,18.229516983032227,-1.1164276599884033,-18.023714065551758,-0.4809470772743225,-2.2424349784851074,0.22098104655742645,0
74,0.3650050163269043,0.13260537385940552,-18.253320693969727,1.1441986560821533,18.047517776489258,0.4928489327430725,2.2488436698913574,-0.20083944499492645,0.0,0.0,0.0,0.0,0.0,0.0,0.0,0.13384498340724624,0.39676627645334483,0.31405903077577546,0.433666801340835,0.07120490036665218,0.05690653323672659,-0.18050438514028194,-0.6091019892336678,-0.05743538099056796,-0.6666014266348722,-2.5945570598736145,-0.055623094752655505,2.5079718773464967,0.8763184780991738,-0.6090851748156966,-0.05753196718556838,-0.666603097082616,-2.5945565370258534,-0.05562143941554,2.507976027223799,0.8763108487046415,0.00024211633362586599,-0.0002274016067067105,-0.000783143825991584,0.00047558981133582096,0.00013623865457073142,-0.0003781054316372831,0.0005058718998447482,0.0,0.0,0.0,0.0,0.0,0.0,0.0,1.681441797118932e-05,-9.658619500042126e-05,-1.6704477437956555e-06,5.228477610863536e-07,1.655337115505362e-06,4.149877302239702e-06,-7.629394532360223e-06,-0.00024211633362586599,0.0002274016067067105,0.000783143825991584,-0.00047558981133582096,-0.00013623865457073142,0.0003781054316372831,-0.0005058718998447482,-0.13260537385940552,18.253320693969727,-1.1441986560821533,-18.047517776489258,-0.4928489327430725,-2.2488436698913574,0.20083944499492645,0
75,0.3699979782104492,0.13260537385940552,-18.253320693969727,1.1441986560821533,18.047517776489258,0.4928489327430725,2.2488436698913574,-0.20083944499492645,0.0,0.0,0.0,0.0,0.0,0.0,0.0,0.13384498340724624,0.39676627645334483,0.31405903077577546,0.433666801340835,0.07120490036665218,0.05690653323672659,-0.18050438514028194,-0.6091019892336678,-0.05743538099056796,-0.6666014266348722,-2.5945570598736145,-0.055623094752655505,2.5079718773464967,0.8763184780991738,-0.6090851748156966,-0.05753196718556838,-0.666603097082616,-2.5945565370258534,-0.05562143941554,2.507976027223799,0.8763108487046415,0.00024211633362586599,-0.0002274016067067105,-0.000783143825991584,0.00047558981133582096,0.00013623865457073142,-0.0003781054316372831,0.0005058718998447482,0.0,0.0,0.0,0.0,0.0,0.0,0.0,1.681441797118932e-05,-9.658619500042126e-05,-1.6704477437956555e-06,5.228477610863536e-07,1.655337115505362e-06,4.149877302239702e-06,-7.629394532360223e-06,-0.00024211633362586599,0.0002274016067067105,0.000783143825991584,-0.00047558981133582096,-0.00013623865457073142,0.0003781054316372831,-0.0005058718998447482,-0.13260537385940552,18.253320693969727,-1.1441986560821533,-18.047517776489258,-0.4928489327430725,-2.2488436698913574,0.20083944499492645,0
76,0.37499451637268066,0.13260537385940552,-18.253320693969727,1.1441986560821533,18.047517776489258,0.4928489327430725,2.2488436698913574,-0.20083944499492645,0.0,0.0,0.0,0.0,0.0,0.0,0.0,0.13384498340724624,0.39676627645334483,0.31405903077577546,0.433666801340835,0.07120490036665218,0.05690653323672659,-0.18050438514028194,-0.6091019892336678,-0.05743538099056796,-0.6666014266348722,-2.5945570598736145,-0.055623094752655505,2.5079718773464967,0.8763184780991738,-0.6090851748156966,-0.05753196718556838,-0.666603097082616,-2.5945565370258534,-0.05562143941554,2.507976027223799,0.8763108487046415,0.00024211633362586599,-0.0002274016067067105,-0.000783143825991584,0.00047558981133582096,0.00013623865457073142,-0.0003781054316372831,0.0005058718998447482,0.0,0.0,0.0,0.0,0.0,0.0,0.0,1.681441797118932e-05,-9.658619500042126e-05,-1.6704477437956555e-06,5.228477610863536e-07,1.655337115505362e-06,4.149877302239702e-06,-7.629394532360223e-06,-0.00024211633362586599,0.0002274016067067105,0.000783143825991584,-0.00047558981133582096,-0.00013623865457073142,0.0003781054316372831,-0.0005058718998447482,-0.13260537385940552,18.253320693969727,-1.1441986560821533,-18.047517776489258,-0.4928489327430725,-2.2488436698913574,0.20083944499492645,0
77,0.3800046443939209,0.13260537385940552,-18.253320693969727,1.1441986560821533,18.047517776489258,0.4928489327430725,2.2488436698913574,-0.20083944499492645,0.0,0.0,0.0,0.0,0.0,0.0,0.0,0.13384498340724624,0.39676627645334483,0.31405903077577546,0.433666801340835,0.07120490036665218,0.05690653323672659,-0.18050438514028194,-0.6091019892336678,-0.05743538099056796,-0.6666014266348722,-2.5945570598736145,-0.055623094752655505,2.5079718773464967,0.8763184780991738,-0.6090851748156966,-0.05753196718556838,-0.666603097082616,-2.5945565370258534,-0.05562143941554,2.507976027223799,0.8763108487046415,0.00024211633362586599,-0.0002274016067067105,-0.000783143825991584,0.00047558981133582096,0.00013623865457073142,-0.0003781054316372831,0.0005058718998447482,0.0,0.0,0.0,0.0,0.0,0.0,0.0,1.681441797118932e-05,-9.658619500042126e-05,-1.6704477437956555e-06,5.228477610863536e-07,1.655337115505362e-06,4.149877302239702e-06,-7.629394532360223e-06,-0.00024211633362586599,0.0002274016067067105,0.000783143825991584,-0.00047558981133582096,-0.00013623865457073142,0.0003781054316372831,-0.0005058718998447482,-0.13260537385940552,18.253320693969727,-1.1441986560821533,-18.047517776489258,-0.4928489327430725,-2.2488436698913574,0.20083944499492645,0
78,0.384998083114624,0.13260537385940552,-18.253320693969727,1.1441986560821533,18.047517776489258,0.4928489327430725,2.2488436698913574,-0.20083944499492645,0.0,0.0,0.0,0.0,0.0,0.0,0.0,0.13384498340724624,0.39676627645334483,0.31405903077577546,0.433666801340835,0.07120490036665218,0.05690653323672659,-0.18050438514028194,-0.6091019892336678,-0.05743538099056796,-0.6666014266348722,-2.5945570598736145,-0.055623094752655505,2.5079718773464967,0.8763184780991738,-0.6090851748156966,-0.05753196718556838,-0.666603097082616,-2.5945565370258534,-0.05562143941554,2.507976027223799,0.8763108487046415,0.00024211633362586599,-0.0002274016067067105,-0.000783143825991584,0.00047558981133582096,0.00013623865457073142,-0.0003781054316372831,0.0005058718998447482,0.0,0.0,0.0,0.0,0.0,0.0,0.0,1.681441797118932e-05,-9.658619500042126e-05,-1.6704477437956555e-06,5.228477610863536e-07,1.655337115505362e-06,4.149877302239702e-06,-7.629394532360223e-06,-0.00024211633362586599,0.0002274016067067105,0.000783143825991584,-0.00047558981133582096,-0.00013623865457073142,0.0003781054316372831,-0.0005058718998447482,-0.13260537385940552,18.253320693969727,-1.1441986560821533,-18.047517776489258,-0.4928489327430725,-2.2488436698913574,0.20083944499492645,0
79,0.3899962902069092,0.13260537385940552,-18.352502822875977,1.1164276599884033,18.047517776489258,0.4928489327430725,2.2360262870788574,-0.15964071452617645,0.0,0.0,0.0,0.0,0.0,0.0,0.0,0.13783697957727517,0.3984887073064224,0.31435782691073316,0.4274995511576314,0.07104790643150095,0.056615372227994745,-0.1817497645691218,-0.6091023146306314,-0.05742842084117103,-0.6665994787560181,-2.5945570598736145,-0.05561966895766999,2.507974722749066,0.8763139003009496,-0.6090851748156966,-0.05753196718556838,-0.666603097082616,-2.5945565370258534,-0.05562143941554,2.507976027223799,0.8763108487046415,-7.411547589382865e-05,0.0012017082314234203,0.0007307892689034374,-9.371114215655882e-05,0.00018812333747407066,0.0004094568393511496,-0.0012401454992337652,0.0,0.0,0.0,0.0,0.0,0.0,0.0,1.713981493478567e-05,-0.00010354634439735388,-3.6183265978984025e-06,5.228477610863536e-07,-1.7704578700108997e-06,1.3044747331214523e-06,-3.0515963080901543e-06,7.411547589382865e-05,-0.0012017082314234203,-0.0007307892689034374,9.371114215655882e-05,-0.00018812333747407066,-0.0004094568393511496,0.0012401454992337652,-0.13260537385940552,18.352502822875977,-1.1164276599884033,-18.047517776489258,-0.4928489327430725,-2.2360262870788574,0.15964071452617645,0
