rezayati/contactInterpretation/dataset/franka_main/labeled_data/link2/f1_7.csv
index,time,tau_J0,tau_J1,tau_J2,tau_J3,tau_J4,tau_J5,tau_J6,tau_J_d0,tau_J_d1,tau_J_d2,tau_J_d3,tau_J_d4,tau_J_d5,tau_J_d6,tau_ext0,tau_ext1,tau_ext2,tau_ext3,tau_ext4,tau_ext5,tau_ext6,q0,q1,q2,q3,q4,q5,q6,q_d0,q_d1,q_d2,q_d3,q_d4,q_d5,q_d6,dq0,dq1,dq2,dq3,dq4,dq5,dq6,dq_d0,dq_d1,dq_d2,dq_d3,dq_d4,dq_d5,dq_d6,e0,e1,e2,e3,e4,e5,e6,de0,de1,de2,de3,de4,de5,de6,etau_J0,etau_J1,etau_J2,etau_J3,etau_J4,etau_J5,etau_J6,label
1,0.0,-0.17287558317184448,-12.048486709594727,1.2909882068634033,21.741060256958008,0.3912253975868225,2.5271639823913574,-0.21457235515117645,0.0,0.0,0.0,0.0,0.0,0.0,0.0,-0.181379457498078,0.3023108145697474,0.10459410971814767,0.4301337144911807,-0.141928387389926,0.12509378218376646,-0.20612223126227677,0.17308673150575285,-0.48754207684700945,-0.11147039044007918,-1.9464024784857765,0.1336092928257988,2.5955503597789336,0.9452484245217508,0.1728802376190821,-0.48752024683155326,-0.11147110072896137,-1.9463801863486305,0.1336059019074957,2.595550359778934,0.9452445589611904,0.0001400274126873579,0.0006466082931363763,-9.192261501020348e-05,-0.00045627574460078296,-0.0001340299371782519,-8.896798825578057e-05,0.000604573061849241,0.0,0.0,0.0,0.0,0.0,0.0,0.0,-0.00020649388667073887,2.1830015456192342e-05,-7.102888821830522e-07,2.2292137145996094e-05,-3.390918303119994e-06,4.440892098500626e-16,-3.865560560423198e-06,-0.0001400274126873579,-0.0006466082931363763,9.192261501020348e-05,0.00045627574460078296,0.0001340299371782519,8.896798825578057e-05,-0.000604573061849241,0.17287558317184448,12.048486709594727,-1.2909882068634033,-21.741060256958008,-0.3912253975868225,-2.5271639823913574,0.21457235515117645,0
2,0.004996299743652344,-0.17287558317184448,-12.048486709594727,1.2909882068634033,21.741060256958008,0.3912253975868225,2.5271639823913574,-0.21457235515117645,0.0,0.0,0.0,0.0,0.0,0.0,0.0,-0.181379457498078,0.3023108145697474,0.10459410971814767,0.4301337144911807,-0.141928387389926,0.12509378218376646,-0.20612223126227677,0.17308673150575285,-0.48754207684700945,-0.11147039044007918,-1.9464024784857765,0.1336092928257988,2.5955503597789336,0.9452484245217508,0.1728802376190821,-0.48752024683155326,-0.11147110072896137,-1.9463801863486305,0.1336059019074957,2.595550359778934,0.9452445589611904,0.0001400274126873579,0.0006466082931363763,-9.192261501020348e-05,-0.00045627574460078296,-0.0001340299371782519,-8.896798825578057e-05,0.000604573061849241,0.0,0.0,0.0,0.0,0.0,0.0,0.0,-0.00020649388667073887,2.1830015456192342e-05,-7.102888821830522e-07,2.2292137145996094e-05,-3.390918303119994e-06,4.440892098500626e-16,-3.865560560423198e-06,-0.0001400274126873579,-0.0006466082931363763,9.192261501020348e-05,0.00045627574460078296,0.0001340299371782519,8.896798825578057e-05,-0.000604573061849241,0.17287558317184448,12.048486709594727,-1.2909882068634033,-21.741060256958008,-0.3912253975868225,-2.5271639823913574,0.21457235515117645,0
3,0.009997844696044922,-0.17287558317184448,-12.048486709594727,1.2909882068634033,21.717256546020508,0.3912253975868225,2.5207552909851074,-0.22830526530742645,0.0,0.0,0.0,0.0,0.0,0.0,0.0,-0.18461783903321421,0.3102345296669134,0.09788184064994707,0.4249181575470291,-0.14245279120496762,0.12409251560698792,-0.20627519224065083,0.17308682911442366,-0.48754207684700945,-0.11147039044007918,-1.946400808049921,0.13360941128094853,2.595551071855757,0.9452499504006571,0.1728802376190821,-0.48752024683155326,-0.11147110072896137,-1.9463801863486305,0.1336059019074957,2.595550359778934,0.9452445589611904,-0.0007734703553954258,0.0007043908938731818,-0.0001613993035157246,-0.00016805165715383282,-2.395905568690997e-05,-8.918041475715422e-06,0.0014034639579353998,0.0,0.0,0.0,0.0,0.0,0.0,0.0,-0.00020659149534155152,2.1830015456192342e-05,-7.102888821830522e-07,2.0621701290579608e-05,-3.5093734528368614e-06,-7.120768228396912e-07,-5.3914394666509935e-06,0.0007734703553954258,-0.0007043908938731818,0.0001613993035157246,0.00016805165715383282,2.395905568690997e-05,8.918041475715422e-06,-0.0014034639579353998,0.17287558317184448,12.048486709594727,-1.2909882068634033,-21.717256546020508,-0.3912253975868225,-2.5207552909851074,0.22830526530742645,0
4,0.014997482299804688,-0.17287558317184448,-12.048486709594727,1.2909882068634033,21.717256546020508,0.3912253975868225,2.5207552909851074,-0.22830526530742645,0.0,0.0,0.0,0.0,0.0,0.0,0.0,-0.18461783903321421,0.3102345296669134,0.09788184064994707,0.4249181575470291,-0.14245279120496762,0.12409251560698792,-0.20627519224065083,0.17308682911442366,-0.48754207684700945,-0.11147039044007918,-1.946400808049921,0.13360941128094853,2.595551071855757,0.9452499504006571,0.1728802376190821,-0.48752024683155326,-0.11147110072896137,-1.9463801863486305,0.1336059019074957,2.595550359778934,0.9452445589611904,-0.0007734703553954258,0.0007043908938731818,-0.0001613993035157246,-0.00016805165715383282,-2.395905568690997e-05,-8.918041475715422e-06,0.0014034639579353998,0.0,0.0,0.0,0.0,0.0,0.0,0.0,-0.00020659149534155152,2.1830015456192342e-05,-7.102888821830522e-07,2.0621701290579608e-05,-3.5093734528368614e-06,-7.120768228396912e-07,-5.3914394666509935e-06,0.0007734703553954258,-0.0007043908938731818,0.0001613993035157246,0.00016805165715383282,2.395905568690997e-05,8.918041475715422e-06,-0.0014034639579353998,0.17287558317184448,12.048486709594727,-1.2909882068634033,-21.717256546020508,-0.3912253975868225,-2.5207552909851074,0.22830526530742645,0
5,0.020006656646728516,-0.17287558317184448,-12.000879287719727,1.2909882068634033,21.717256546020508,0.3793235421180725,2.5207552909851074,-0.17978231608867645,0.0,0.0,0.0,0.0,0.0,0.0,0.0,-0.18494419045272179,0.3079477311918129,0.09825560012868982,0.42627967711079323,-0.1424576927328196,0.12380444934375541,-0.20670247528033098,0.17308982892150981,-0.48754533824586027,-0.11147038946574628,-1.946400808049921,0.13361073226497905,2.595551071855757,0.945244558961855,0.1728802376190821,-0.48752024683155326,-0.11147110072896137,-1.9463801863486305,0.1336059019074957,2.595550359778934,0.9452445589611904,-0.0005793893453007647,-0.0001630991356383493,4.2679769946219536e-05,0.00027645841248758623,0.0003754214590527516,0.00010318696840886044,-0.0005138447489883777,0.0,0.0,0.0,0.0,0.0,0.0,0.0,-0.00020959130242770296,2.509141430701023e-05,-7.112632150890752e-07,2.0621701290579608e-05,-4.830357483359693e-06,-7.120768228396912e-07,-6.645795025406187e-13,0.0005793893453007647,0.0001630991356383493,-4.2679769946219536e-05,-0.00027645841248758623,-0.0003754214590527516,-0.00010318696840886044,0.0005138447489883777,0.17287558317184448,12.000879287719727,-1.2909882068634033,-21.717256546020508,-0.3793235421180725,-2.5207552909851074,0.17978231608867645,0
6,0.02500462532043457,-0.17287558317184448,-12.000879287719727,1.2909882068634033,21.717256546020508,0.3793235421180725,2.5207552909851074,-0.17978231608867645,0.0,0.0,0.0,0.0,0.0,0.0,0.0,-0.18494419045272179,0.3079477311918129,0.09825560012868982,0.42627967711079323,-0.1424576927328196,0.12380444934375541,-0.20670247528033098,0.17308982892150981,-0.48754533824586027,-0.11147038946574628,-1.946400808049921,0.13361073226497905,2.595551071855757,0.945244558961855,0.1728802376190821,-0.48752024683155326,-0.11147110072896137,-1.9463801863486305,0.1336059019074957,2.595550359778934,0.9452445589611904,-0.0005793893453007647,-0.0001630991356383493,4.2679769946219536e-05,0.00027645841248758623,0.0003754214590527516,0.00010318696840886044,-0.0005138447489883777,0.0,0.0,0.0,0.0,0.0,0.0,0.0,-0.00020959130242770296,2.509141430701023e-05,-7.112632150890752e-07,2.0621701290579608e-05,-4.830357483359693e-06,-7.120768228396912e-07,-6.645795025406187e-13,0.0005793893453007647,0.0001630991356383493,-4.2679769946219536e-05,-0.00027645841248758623,-0.0003754214590527516,-0.00010318696840886044,0.0005138447489883777,0.17287558317184448,12.000879287719727,-1.2909882068634033,-21.717256546020508,-0.3793235421180725,-2.5207552909851074,0.17978231608867645,0
7,0.030006885528564453,-0.14510458707809448,-12.100061416625977,1.2909882068634033,21.717256546020508,0.3976340889930725,2.5335726737976074,-0.19351522624492645,0.0,0.0,0.0,0.0,0.0,0.0,0.0,-0.18838167244350235,0.28390262862427806,0.09573935817835533,0.43606502012772996,-0.1425982276089147,0.12559660766417735,-0.2065700749575263,0.1730879598056743,-0.487538456587728,-0.11147039044007369,-1.946400808049921,0.13360763296152983,2.595549647702111,0.9452460848407613,0.1728802376190821,-0.48752024683155326,-0.11147110072896137,-1.9463801863486305,0.1336059019074957,2.595550359778934,0.9452445589611904,-0.0011983259485893471,0.0008803957648166911,0.0002823443664114535,0.00026974432053321963,-9.108729263211699e-05,-0.00018856477201491267,-1.3139010130067479e-06,0.0,0.0,0.0,0.0,0.0,0.0,0.0,-0.00020772218659217967,1.82097561747252e-05,-7.102888876786562e-07,2.0621701290579608e-05,-1.731054034143087e-06,7.120768228396912e-07,-1.5258795709183204e-06,0.0011983259485893471,-0.0008803957648166911,-0.0002823443664114535,-0.00026974432053321963,9.108729263211699e-05,0.00018856477201491267,1.3139010130067479e-06,0.14510458707809448,12.100061416625977,-1.2909882068634033,-21.717256546020508,-0.3976340889930725,-2.5335726737976074,0.19351522624492645,0
8,0.03500199317932129,-0.14510458707809448,-12.100061416625977,1.2909882068634033,21.717256546020508,0.3976340889930725,2.5335726737976074,-0.19351522624492645,0.0,0.0,0.0,0.0,0.0,0.0,0.0,-0.18838167244350235,0.28390262862427806,0.09573935817835533,0.43606502012772996,-0.1425982276089147,0.12559660766417735,-0.2065700749575263,0.1730879598056743,-0.487538456587728,-0.11147039044007369,-1.946400808049921,0.13360763296152983,2.595549647702111,0.9452460848407613,0.1728802376190821,-0.48752024683155326,-0.11147110072896137,-1.9463801863486305,0.1336059019074957,2.595550359778934,0.9452445589611904,-0.0011983259485893471,0.0008803957648166911,0.0002823443664114535,0.00026974432053321963,-9.108729263211699e-05,-0.00018856477201491267,-1.3139010130067479e-06,0.0,0.0,0.0,0.0,0.0,0.0,0.0,-0.00020772218659217967,1.82097561747252e-05,-7.102888876786562e-07,2.0621701290579608e-05,-1.731054034143087e-06,7.120768228396912e-07,-1.5258795709183204e-06,0.0011983259485893471,-0.0008803957648166911,-0.0002823443664114535,-0.00026974432053321963,9.108729263211699e-05,0.00018856477201491267,1.3139010130067479e-06,0.14510458707809448,12.100061416625977,-1.2909882068634033,-21.717256546020508,-0.3976340889930725,-2.5335726737976074,0.19351522624492645,0
9,0.04000139236450195,-0.22445029020309448,-12.100061416625977,1.3147919178009033,21.717256546020508,0.3857322335243225,2.5271639823913574,-0.20083944499492645,0.0,0.0,0.0,0.0,0.0,0.0,0.0,-0.18484202626158605,0.27769809143772517,0.09897516547060077,0.4363515389697695,-0.14250887541475415,0.1255305504741407,-0.20754499512621757,0.1730924680183366,-0.48753771582262695,-0.11147206087593445,-1.9464008080149282,0.13361001725686728,2.595550358325384,0.9452468986428446,0.1728802376190821,-0.48752024683155326,-0.11147110072896137,-1.9463801863486305,0.1336059019074957,2.595550359778934,0.9452445589611904,0.0010318874876576731,-0.00013393521002129456,-0.00043620508262702057,0.0003555080305711526,0.0002964640527223498,4.7298418602599585e-05,-2.98895596154115e-05,0.0,0.0,0.0,0.0,0.0,0.0,0.0,-0.00021223039925449827,1.7468991073688045e-05,9.601469730807777e-07,2.062166629768214e-05,-4.115349371586197e-06,1.4535501691170793e-09,-2.3396816541954024e-06,-0.0010318874876576731,0.00013393521002129456,0.00043620508262702057,-0.0003555080305711526,-0.0002964640527223498,-4.7298418602599585e-05,2.98895596154115e-05,0.22445029020309448,12.100061416625977,-1.3147919178009033,-21.717256546020508,-0.3857322335243225,-2.5271639823913574,0.20083944499492645,0
10,0.044999122619628906,-0.22445029020309448,-12.100061416625977,1.3147919178009033,21.717256546020508,0.3857322335243225,2.5271639823913574,-0.20083944499492645,0.0,0.0,0.0,0.0,0.0,0.0,0.0,-0.18484202626158605,0.27769809143772517,0.09897516547060077,0.4363515389697695,-0.14250887541475415,0.1255305504741407,-0.20754499512621757,0.1730924680183366,-0.48753771582262695,-0.11147206087593445,-1.9464008080149282,0.13361001725686728,2.595550358325384,0.9452468986428446,0.1728802376190821,-0.48752024683155326,-0.11147110072896137,-1.9463801863486305,0.1336059019074957,2.595550359778934,0.9452445589611904,0.0010318874876576731,-0.00013393521002129456,-0.00043620508262702057,0.0003555080305711526,0.0002964640527223498,4.7298418602599585e-05,-2.98895596154115e-05,0.0,0.0,0.0,0.0,0.0,0.0,0.0,-0.00021223039925449827,1.7468991073688045e-05,9.601469730807777e-07,2.062166629768214e-05,-4.115349371586197e-06,1.4535501691170793e-09,-2.3396816541954024e-06,-0.0010318874876576731,0.00013393521002129456,0.00043620508262702057,-0.0003555080305711526,-0.0002964640527223498,-4.7298418602599585e-05,2.98895596154115e-05,0.22445029020309448,12.100061416625977,-1.3147919178009033,-21.717256546020508,-0.3857322335243225,-2.5271639823913574,0.20083944499492645,0
11,0.050000905990600586,-0.19667929410934448,-12.048486709594727,1.2909882068634033,21.741060256958008,0.3912253975868225,2.5335726737976074,-0.20083944499492645,0.0,0.0,0.0,0.0,0.0,0.0,0.0,-0.1823248251382939,0.28548908265275963,0.099833002519777,0.4252984568248846,-0.14255242908726262,0.12406991201333627,-0.208479085953995,0.17309130744057827,-0.4875420764794347,-0.11147039044007918,-1.9464024784857763,0.13360941129920387,2.595549647702103,0.9452468986428446,0.1728802376190821,-0.48752024683155326,-0.11147110072896137,-1.9463801863486305,0.1336059019074957,2.595550359778934,0.9452445589611904,0.00012100882733806027,-0.0011984377943343187,0.00013544008852811725,-0.0007612011130109354,0.00021049222726379999,-0.0002928547038347378,0.00025666969331897456,0.0,0.0,0.0,0.0,0.0,0.0,0.0,-0.00021106982149615705,2.1829647881443925e-05,-7.102888821830522e-07,2.229213714577405e-05,-3.509391708178544e-06,7.12076830833297e-07,-2.3396816541954024e-06,-0.00012100882733806027,0.0011984377943343187,-0.00013544008852811725,0.0007612011130109354,-0.00021049222726379999,0.0002928547038347378,-0.00025666969331897456,0.19667929410934448,12.048486709594727,-1.2909882068634033,-21.741060256958008,-0.3912253975868225,-2.5335726737976074,0.20083944499492645,0
12,0.05499768257141113,-0.19667929410934448,-12.048486709594727,1.2909882068634033,21.741060256958008,0.3912253975868225,2.5335726737976074,-0.20083944499492645,0.0,0.0,0.0,0.0,0.0,0.0,0.0,-0.1823248251382939,0.28548908265275963,0.099833002519777,0.4252984568248846,-0.14255242908726262,0.12406991201333627,-0.208479085953995,0.17309130744057827,-0.4875420764794347,-0.11147039044007918,-1.9464024784857763,0.13360941129920387,2.595549647702103,0.9452468986428446,0.1728802376190821,-0.48752024683155326,-0.11147110072896137,-1.9463801863486305,0.1336059019074957,2.595550359778934,0.9452445589611904,0.00012100882733806027,-0.0011984377943343187,0.00013544008852811725,-0.0007612011130109354,0.00021049222726379999,-0.0002928547038347378,0.00025666969331897456,0.0,0.0,0.0,0.0,0.0,0.0,0.0,-0.00021106982149615705,2.1829647881443925e-05,-7.102888821830522e-07,2.229213714577405e-05,-3.509391708178544e-06,7.12076830833297e-07,-2.3396816541954024e-06,-0.00012100882733806027,0.0011984377943343187,-0.00013544008852811725,0.0007612011130109354,-0.00021049222726379999,0.0002928547038347378,-0.00025666969331897456,0.19667929410934448,12.048486709594727,-1.2909882068634033,-21.741060256958008,-0.3912253975868225,-2.5335726737976074,0.20083944499492645,0
13,0.059996843338012695,-0.17287558317184448,-12.048486709594727,1.2671844959259033,21.741060256958008,0.3912253975868225,2.5207552909851074,-0.24112264811992645,0.0,0.0,0.0,0.0,0.0,0.0,0.0,-0.18263589081192444,0.2792517388993017,0.10317678328388467,0.4262108499847869,-0.1421678715620231,0.12406640763069893,-0.20883762809317763,0.17308706532986826,-0.4875420729224217,-0.11146872000422392,-1.9464024784857765,0.13360939813551426,2.595551071855757,0.945251374554303,0.1728802376190821,-0.48752024683155326,-0.11147110072896137,-1.9463801863486305,0.1336059019074957,2.595550359778934,0.9452445589611904,-0.00016436028046399342,-0.00023053930419870944,0.0008154522922593989,-0.0005543814887819843,0.00013781394463901458,-0.00015887954170456717,0.0020013251817972305,0.0,0.0,0.0,0.0,0.0,0.0,0.0,-0.00020682771078614492,2.1826090868426462e-05,-2.380724737446882e-06,2.2292137145996094e-05,-3.4962280185679706e-06,-7.120768228396912e-07,-6.8155931125524205e-06,0.00016436028046399342,0.00023053930419870944,-0.0008154522922593989,0.0005543814887819843,-0.00013781394463901458,0.00015887954170456717,-0.0020013251817972305,0.17287558317184448,12.048486709594727,-1.2671844959259033,-21.741060256958008,-0.3912253975868225,-2.5207552909851074,0.24112264811992645,0
14,0.06499600410461426,-0.17287558317184448,-12.048486709594727,1.2671844959259033,21.741060256958008,0.3912253975868225,2.5207552909851074,-0.24112264811992645,0.0,0.0,0.0,0.0,0.0,0.0,0.0,-0.18263589081192444,0.2792517388993017,0.10317678328388467,0.4262108499847869,-0.1421678715620231,0.12406640763069893,-0.20883762809317763,0.17308706532986826,-0.4875420729224217,-0.11146872000422392,-1.9464024784857765,0.13360939813551426,2.595551071855757,0.945251374554303,0.1728802376190821,-0.48752024683155326,-0.11147110072896137,-1.9463801863486305,0.1336059019074957,2.595550359778934,0.9452445589611904,-0.00016436028046399342,-0.00023053930419870944,0.0008154522922593989,-0.0005543814887819843,0.00013781394463901458,-0.00015887954170456717,0.0020013251817972305,0.0,0.0,0.0,0.0,0.0,0.0,0.0,-0.00020682771078614492,2.1826090868426462e-05,-2.380724737446882e-06,2.2292137145996094e-05,-3.4962280185679706e-06,-7.120768228396912e-07,-6.8155931125524205e-06,0.00016436028046399342,0.00023053930419870944,-0.0008154522922593989,0.0005543814887819843,-0.00013781394463901458,0.00015887954170456717,-0.0020013251817972305,0.17287558317184448,12.048486709594727,-1.2671844959259033,-21.741060256958008,-0.3912253975868225,-2.5207552909851074,0.24112264811992645,0
15,0.06999659538269043,-0.24825400114059448,-12.000879287719727,1.2671844959259033,21.741060256958008,0.3857322335243225,2.5271639823913574,-0.17337362468242645,0.0,0.0,0.0,0.0,0.0,0.0,0.0,-0.18674946230572922,0.2831900231837259,0.09944882503311127,0.4248574191000114,-0.14188500648055571,0.12258423649571543,-0.20844063024422974,0.17309275749845002,-0.48754541477525853,-0.11146872000422392,-1.9464024784857765,0.13361002165071684,2.595550359778934,0.9452438468850322,0.1728802376190821,-0.48752024683155326,-0.11147110072896137,-1.9463801863486305,0.1336059019074957,2.595550359778934,0.9452445589611904,0.0016928736334250454,-0.00035491019248620764,0.00039441530350120486,-0.0006785836190268488,0.00010146315404294569,-0.00028234315136584136,-0.000984633932966701,0.0,0.0,0.0,0.0,0.0,0.0,0.0,-0.00021251987936790617,2.51679437052732e-05,-2.380724737446882e-06,2.2292137145996094e-05,-4.119743221148164e-06,0.0,7.120761582601887e-07,-0.0016928736334250454,0.00035491019248620764,-0.00039441530350120486,0.0006785836190268488,-0.00010146315404294569,0.00028234315136584136,0.000984633932966701,0.24825400114059448,12.000879287719727,-1.2671844959259033,-21.741060256958008,-0.3857322335243225,-2.5271639823913574,0.17337362468242645,0
16,0.07499504089355469,-0.24825400114059448,-12.000879287719727,1.2671844959259033,21.741060256958008,0.3857322335243225,2.5271639823913574,-0.17337362468242645,0.0,0.0,0.0,0.0,0.0,0.0,0.0,-0.18674946230572922,0.2831900231837259,0.09944882503311127,0.4248574191000114,-0.14188500648055571,0.12258423649571543,-0.20844063024422974,0.17309275749845002,-0.48754541477525853,-0.11146872000422392,-1.9464024784857765,0.13361002165071684,2.595550359778934,0.9452438468850322,0.1728802376190821,-0.48752024683155326,-0.11147110072896137,-1.9463801863486305,0.1336059019074957,2.595550359778934,0.9452445589611904,0.0016928736334250454,-0.00035491019248620764,0.00039441530350120486,-0.0006785836190268488,0.00010146315404294569,-0.00028234315136584136,-0.000984633932966701,0.0,0.0,0.0,0.0,0.0,0.0,0.0,-0.00021251987936790617,2.51679437052732e-05,-2.380724737446882e-06,2.2292137145996094e-05,-4.119743221148164e-06,0.0,7.120761582601887e-07,-0.0016928736334250454,0.00035491019248620764,-0.00039441530350120486,0.0006785836190268488,-0.00010146315404294569,0.00028234315136584136,0.000984633932966701,0.24825400114059448,12.000879287719727,-1.2671844959259033,-21.741060256958008,-0.3857322335243225,-2.5271639823913574,0.17337362468242645,0
17,0.07999992370605469,-0.19667929410934448,-12.000879287719727,1.2909882068634033,21.693452835083008,0.3857322335243225,2.5143465995788574,-0.17978231608867645,0.0,0.0,0.0,0.0,0.0,0.0,0.0,-0.1855624969812128,0.28868329338602094,0.10269052317347252,0.4266532895281187,-0.14243335691278936,0.12221322747037257,-0.2082128337833006,0.17309063311840728,-0.4875454177186701,-0.11147039044007918,-1.9463991121042592,0.13361001580025142,2.5955517839325797,0.945244558961855,0.1728802376190821,-0.48752024683155326,-0.11147110072896137,-1.9463801863486305,0.1336059019074957,2.595550359778934,0.9452445589611904,0.0002690683877148723,0.0001315560586346115,-7.665043861958878e-05,0.0004308699588717697,0.0002070395823975,0.0001554533713919676,-0.0006398836545833684,0.0,0.0,0.0,0.0,0.0,0.0,0.0,-0.00021039549932516666,2.5170887116843232e-05,-7.102888821830522e-07,1.8925755628673713e-05,-4.113892755730486e-06,-1.4241536456793824e-06,-6.645795025406187e-13,-0.0002690683877148723,-0.0001315560586346115,7.665043861958878e-05,-0.0004308699588717697,-0.0002070395823975,-0.0001554533713919676,0.0006398836545833684,0.19667929410934448,12.000879287719727,-1.2909882068634033,-21.693452835083008,-0.3857322335243225,-2.5143465995788574,0.17978231608867645,0
18,0.08503127098083496,-0.19667929410934448,-12.000879287719727,1.2909882068634033,21.693452835083008,0.3857322335243225,2.5143465995788574,-0.17978231608867645,0.0,0.0,0.0,0.0,0.0,0.0,0.0,-0.1855624969812128,0.28868329338602094,0.10269052317347252,0.4266532895281187,-0.14243335691278936,0.12221322747037257,-0.2082128337833006,0.17309063311840728,-0.4875454177186701,-0.11147039044007918,-1.9463991121042592,0.13361001580025142,2.5955517839325797,0.945244558961855,0.1728802376190821,-0.48752024683155326,-0.11147110072896137,-1.9463801863486305,0.1336059019074957,2.595550359778934,0.9452445589611904,0.0002690683877148723,0.0001315560586346115,-7.665043861958878e-05,0.0004308699588717697,0.0002070395823975,0.0001554533713919676,-0.0006398836545833684,0.0,0.0,0.0,0.0,0.0,0.0,0.0,-0.00021039549932516666,2.5170887116843232e-05,-7.102888821830522e-07,1.8925755628673713e-05,-4.113892755730486e-06,-1.4241536456793824e-06,-6.645795025406187e-13,-0.0002690683877148723,-0.0001315560586346115,7.665043861958878e-05,-0.0004308699588717697,-0.0002070395823975,-0.0001554533713919676,0.0006398836545833684,0.19667929410934448,12.000879287719727,-1.2909882068634033,-21.693452835083008,-0.3857322335243225,-2.5143465995788574,0.17978231608867645,0
19,0.09004616737365723,-0.17287558317184448,-12.000879287719727,1.2671844959259033,21.717256546020508,0.3912253975868225,2.5143465995788574,-0.15964071452617645,0.0,0.0,0.0,0.0,0.0,0.0,0.0,-0.18639227484902546,0.2768209284784387,0.10474278109584187,0.4411301084394452,-0.142480244007073,0.12325520278114921,-0.20864735356636002,0.17308706104534963,-0.48754517930014085,-0.11146872000422392,-1.9464008080498731,0.13360621251661473,2.5955517839325797,0.9452423210061258,0.1728802376190821,-0.48752024683155326,-0.11147110072896137,-1.9463801863486305,0.1336059019074957,2.595550359778934,0.9452445589611904,-4.2512769038948404e-05,-0.00041698398911666287,0.0007956748051910173,0.0003280867121899557,-3.5664928116589e-05,0.0004360580641244408,-0.0010661902291308897,0.0,0.0,0.0,0.0,0.0,0.0,0.0,-0.00020682342626751615,2.4932468587590684e-05,-2.380724737446882e-06,2.0621701242617974e-05,-3.106091190363536e-07,-1.4241536456793824e-06,2.2379550645990065e-06,4.2512769038948404e-05,0.00041698398911666287,-0.0007956748051910173,-0.0003280867121899557,3.5664928116589e-05,-0.0004360580641244408,0.0010661902291308897,0.17287558317184448,12.000879287719727,-1.2671844959259033,-21.717256546020508,-0.3912253975868225,-2.5143465995788574,0.15964071452617645,0
20,0.09502172470092773,-0.17287558317184448,-12.000879287719727,1.2671844959259033,21.717256546020508,0.3912253975868225,2.5143465995788574,-0.15964071452617645,0.0,0.0,0.0,0.0,0.0,0.0,0.0,-0.18639227484902546,0.2768209284784387,0.10474278109584187,0.4411301084394452,-0.142480244007073,0.12325520278114921,-0.20864735356636002,0.17308706104534963,-0.48754517930014085,-0.11146872000422392,-1.9464008080498731,0.13360621251661473,2.5955517839325797,0.9452423210061258,0.1728802376190821,-0.48752024683155326,-0.11147110072896137,-1.9463801863486305,0.1336059019074957,2.595550359778934,0.9452445589611904,-4.2512769038948404e-05,-0.00041698398911666287,0.0007956748051910173,0.0003280867121899557,-3.5664928116589e-05,0.0004360580641244408,-0.0010661902291308897,0.0,0.0,0.0,0.0,0.0,0.0,0.0,-0.00020682342626751615,2.4932468587590684e-05,-2.380724737446882e-06,2.0621701242617974e-05,-3.106091190363536e-07,-1.4241536456793824e-06,2.2379550645990065e-06,4.2512769038948404e-05,0.00041698398911666287,-0.0007956748051910173,-0.0003280867121899557,3.5664928116589e-05,-0.0004360580641244408,0.0010661902291308897,0.17287558317184448,12.000879287719727,-1.2671844959259033,-21.717256546020508,-0.3912253975868225,-2.5143465995788574,0.15964071452617645,0
21,0.10000252723693848,-0.17287558317184448,-12.000879287719727,1.2671844959259033,21.717256546020508,0.3912253975868225,2.5143465995788574,-0.15964071452617645,0.0,0.0,0.0,0.0,0.0,0.0,0.0,-0.18639227484902546,0.2768209284784387,0.10474278109584187,0.4411301084394452,-0.142480244007073,0.12325520278114921,-0.20864735356636002,0.17308706104534963,-0.48754517930014085,-0.11146872000422392,-1.9464008080498731,0.13360621251661473,2.5955517839325797,0.9452423210061258,0.1728802376190821,-0.48752024683155326,-0.11147110072896137,-1.9463801863486305,0.1336059019074957,2.595550359778934,0.9452445589611904,-4.2512769038948404e-05,-0.00041698398911666287,0.0007956748051910173,0.0003280867121899557,-3.5664928116589e-05,0.0004360580641244408,-0.0010661902291308897,0.0,0.0,0.0,0.0,0.0,0.0,0.0,-0.00020682342626751615,2.4932468587590684e-05,-2.380724737446882e-06,2.0621701242617974e-05,-3.106091190363536e-07,-1.4241536456793824e-06,2.2379550645990065e-06,4.2512769038948404e-05,0.00041698398911666287,-0.0007956748051910173,-0.0003280867121899557,3.5664928116589e-05,-0.0004360580641244408,0.0010661902291308897,0.17287558317184448,12.000879287719727,-1.2671844959259033,-21.717256546020508,-0.3912253975868225,-2.5143465995788574,0.15964071452617645,0
22,0.10500764846801758,-0.17287558317184448,-12.000879287719727,1.2671844959259033,21.717256546020508,0.3912253975868225,2.5143465995788574,-0.15964071452617645,0.0,0.0,0.0,0.0,0.0,0.0,0.0,-0.18639227484902546,0.2768209284784387,0.10474278109584187,0.4411301084394452,-0.142480244007073,0.12325520278114921,-0.20864735356636002,0.17308706104534963,-0.48754517930014085,-0.11146872000422392,-1.9464008080498731,0.13360621251661473,2.5955517839325797,0.9452423210061258,0.1728802376190821,-0.48752024683155326,-0.11147110072896137,-1.9463801863486305,0.1336059019074957,2.595550359778934,0.9452445589611904,-4.2512769038948404e-05,-0.00041698398911666287,0.0007956748051910173,0.0003280867121899557,-3.5664928116589e-05,0.0004360580641244408,-0.0010661902291308897,0.0,0.0,0.0,0.0,0.0,0.0,0.0,-0.00020682342626751615,2.4932468587590684e-05,-2.380724737446882e-06,2.0621701242617974e-05,-3.106091190363536e-07,-1.4241536456793824e-06,2.2379550645990065e-06,4.2512769038948404e-05,0.00041698398911666287,-0.0007956748051910173,-0.0003280867121899557,3.5664928116589e-05,-0.0004360580641244408,0.0010661902291308897,0.17287558317184448,12.000879287719727,-1.2671844959259033,-21.717256546020508,-0.3912253975868225,-2.5143465995788574,0.15964071452617645,0
23,0.11000204086303711,-0.24825400114059448,-12.024682998657227,1.2671844959259033,21.768831253051758,0.4031272530555725,2.5271639823913574,-0.20724813640117645,0.0,0.0,0.0,0.0,0.0,0.0,0.0,-0.18619158752420698,0.28213172588434154,0.10751911562936582,0.44078590828982595,-0.1421525807452183,0.12307234561045909,-0.20792098406629833,0.17309518848079594,-0.48754374728151884,-0.11146871957118708,-1.9464044273276075,0.13360808836524102,2.595550355418283,0.9452476107196676,0.1728802376190821,-0.48752024683155326,-0.11147110072896137,-1.9463801863486305,0.1336059019074957,2.595550359778934,0.9452445589611904,0.001543286752241878,-0.00045720866492777703,0.0013111047229585548,-0.001122933398077255,-0.00033187346082174144,-0.0002620835028240801,0.0007353709589606989,0.0,0.0,0.0,0.0,0.0,0.0,0.0,-0.0002149508617138307,2.3500449965574433e-05,-2.3811577742893775e-06,2.4240978977019267e-05,-2.1864577453289957e-06,4.360650951440448e-09,-3.051758477146116e-06,-0.001543286752241878,0.00045720866492777703,-0.0013111047229585548,0.001122933398077255,0.00033187346082174144,0.0002620835028240801,-0.0007353709589606989,0.24825400114059448,12.024682998657227,-1.2671844959259033,-21.768831253051758,-0.4031272530555725,-2.5271639823913574,0.20724813640117645,0
24,0.11499667167663574,-0.24825400114059448,-12.024682998657227,1.2671844959259033,21.768831253051758,0.4031272530555725,2.5271639823913574,-0.20724813640117645,0.0,0.0,0.0,0.0,0.0,0.0,0.0,-0.18619158752420698,0.28213172588434154,0.10751911562936582,0.44078590828982595,-0.1421525807452183,0.12307234561045909,-0.20792098406629833,0.17309518848079594,-0.48754374728151884,-0.11146871957118708,-1.9464044273276075,0.13360808836524102,2.595550355418283,0.9452476107196676,0.1728802376190821,-0.48752024683155326,-0.11147110072896137,-1.9463801863486305,0.1336059019074957,2.595550359778934,0.9452445589611904,0.001543286752241878,-0.00045720866492777703,0.0013111047229585548,-0.001122933398077255,-0.00033187346082174144,-0.0002620835028240801,0.0007353709589606989,0.0,0.0,0.0,0.0,0.0,0.0,0.0,-0.0002149508617138307,2.3500449965574433e-05,-2.3811577742893775e-06,2.4240978977019267e-05,-2.1864577453289957e-06,4.360650951440448e-09,-3.051758477146116e-06,-0.001543286752241878,0.00045720866492777703,-0.0013111047229585548,0.001122933398077255,0.00033187346082174144,0.0002620835028240801,-0.0007353709589606989,0.24825400114059448,12.024682998657227,-1.2671844959259033,-21.768831253051758,-0.4031272530555725,-2.5271639823913574,0.20724813640117645,0
25,0.12000036239624023,-0.17287558317184448,-12.072290420532227,1.3147919178009033,21.741060256958008,0.3793235421180725,2.5335726737976074,-0.15964071452617645,0.0,0.0,0.0,0.0,0.0,0.0,0.0,-0.19216462654238212,0.2890452977162191,0.10019777795107854,0.43749671034387166,-0.14098653930812788,0.12234346181934787,-0.20606878841714957,0.1730898294428701,-0.4875403799202009,-0.111472060875932,-1.946402477540969,0.13361071991383683,2.5955496477020867,0.9452423210061258,0.1728802376190821,-0.48752024683155326,-0.11147110072896137,-1.9463801863486305,0.1336059019074957,2.595550359778934,0.9452445589611904,-0.0004150328274888504,0.0005082723060710597,-0.000631584904607246,-0.0004827710247445596,0.0005414738127012665,-0.0004700822771217923,-0.0014651922774700777,0.0,0.0,0.0,0.0,0.0,0.0,0.0,-0.00020959182378799124,2.0133088647622532e-05,9.60146970638287e-07,2.2291192338430577e-05,-4.818006341139602e-06,7.120768472645977e-07,2.2379550645990065e-06,0.0004150328274888504,-0.0005082723060710597,0.000631584904607246,0.0004827710247445596,-0.0005414738127012665,0.0004700822771217923,0.0014651922774700777,0.17287558317184448,12.072290420532227,-1.3147919178009033,-21.741060256958008,-0.3793235421180725,-2.5335726737976074,0.15964071452617645,0
26,0.12499785423278809,-0.17287558317184448,-12.072290420532227,1.3147919178009033,21.741060256958008,0.3793235421180725,2.5335726737976074,-0.15964071452617645,0.0,0.0,0.0,0.0,0.0,0.0,0.0,-0.19216462654238212,0.2890452977162191,0.10019777795107854,0.43749671034387166,-0.14098653930812788,0.12234346181934787,-0.20606878841714957,0.1730898294428701,-0.4875403799202009,-0.111472060875932,-1.946402477540969,0.13361071991383683,2.5955496477020867,0.9452423210061258,0.1728802376190821,-0.48752024683155326,-0.11147110072896137,-1.9463801863486305,0.1336059019074957,2.595550359778934,0.9452445589611904,-0.0004150328274888504,0.0005082723060710597,-0.000631584904607246,-0.0004827710247445596,0.0005414738127012665,-0.0004700822771217923,-0.0014651922774700777,0.0,0.0,0.0,0.0,0.0,0.0,0.0,-0.00020959182378799124,2.0133088647622532e-05,9.60146970638287e-07,2.2291192338430577e-05,-4.818006341139602e-06,7.120768472645977e-07,2.2379550645990065e-06,0.0004150328274888504,-0.0005082723060710597,0.000631584904607246,0.0004827710247445596,-0.0005414738127012665,0.0004700822771217923,0.0014651922774700777,0.17287558317184448,12.072290420532227,-1.3147919178009033,-21.741060256958008,-0.3793235421180725,-2.5335726737976074,0.15964071452617645,0
27,0.12999939918518066,-0.17287558317184448,-12.048486709594727,1.3147919178009033,21.741060256958008,0.4031272530555725,2.5207552909851074,-0.19351522624492645,0.0,0.0,0.0,0.0,0.0,0.0,0.0,-0.18795351972869573,0.29208591373964476,0.10557998623769588,0.4343389768699921,-0.14149722807460366,0.12223667792461658,-0.205909999539415,0.1730896680802321,-0.48754207390342064,-0.11147206087593445,-1.9464024529759645,0.13360808887076525,2.595551071855757,0.9452460848407613,0.1728802376190821,-0.48752024683155326,-0.11147110072896137,-1.9463801863486305,0.1336059019074957,2.595550359778934,0.9452445589611904,6.935035146623309e-05,-9.085329878832803e-05,-0.0003722830151597243,-0.0006016112302107885,-0.0004074004555542989,0.00017225596512210665,0.00016032038204881818,0.0,0.0,0.0,0.0,0.0,0.0,0.0,-0.00020943046114998976,2.1827071867375203e-05,9.601469730807777e-07,2.226662733395557e-05,-2.1869632695625807e-06,-7.120768228396912e-07,-1.5258795709183204e-06,-6.935035146623309e-05,9.085329878832803e-05,0.0003722830151597243,0.0006016112302107885,0.0004074004555542989,-0.00017225596512210665,-0.00016032038204881818,0.17287558317184448,12.048486709594727,-1.3147919178009033,-21.741060256958008,-0.4031272530555725,-2.5207552909851074,0.19351522624492645,0
28,0.13502764701843262,-0.17287558317184448,-12.048486709594727,1.3147919178009033,21.741060256958008,0.4031272530555725,2.5207552909851074,-0.19351522624492645,0.0,0.0,0.0,0.0,0.0,0.0,0.0,-0.18795351972869573,0.29208591373964476,0.10557998623769588,0.4343389768699921,-0.14149722807460366,0.12223667792461658,-0.205909999539415,0.1730896680802321,-0.48754207390342064,-0.11147206087593445,-1.9464024529759645,0.13360808887076525,2.595551071855757,0.9452460848407613,0.1728802376190821,-0.48752024683155326,-0.11147110072896137,-1.9463801863486305,0.1336059019074957,2.595550359778934,0.9452445589611904,6.935035146623309e-05,-9.085329878832803e-05,-0.0003722830151597243,-0.0006016112302107885,-0.0004074004555542989,0.00017225596512210665,0.00016032038204881818,0.0,0.0,0.0,0.0,0.0,0.0,0.0,-0.00020943046114998976,2.1827071867375203e-05,9.601469730807777e-07,2.226662733395557e-05,-2.1869632695625807e-06,-7.120768228396912e-07,-1.5258795709183204e-06,-6.935035146623309e-05,9.085329878832803e-05,0.0003722830151597243,0.0006016112302107885,0.0004074004555542989,-0.00017225596512210665,-0.00016032038204881818,0.17287558317184448,12.048486709594727,-1.3147919178009033,-21.741060256958008,-0.4031272530555725,-2.5207552909851074,0.19351522624492645,0
29,0.1399977207183838,-0.14510458707809448,-12.024682998657227,1.3147919178009033,21.717256546020508,0.4031272530555725,2.5207552909851074,-0.21457235515117645,0.0,0.0,0.0,0.0,0.0,0.0,0.0,-0.18507596558234105,0.29634862925642724,0.10365440210073988,0.4318165914051928,-0.1413890500749536,0.1223968776246466,-0.20599596020875965,0.17308768438727704,-0.4875437472828481,-0.11147206087593445,-1.946400808049777,0.13360808887084322,2.595551071855757,0.9452484245217508,0.1728802376190821,-0.48752024683155326,-0.11147110072896137,-1.9463801863486305,0.1336059019074957,2.595550359778934,0.9452445589611904,-0.0007166271493522588,0.00018705720166188865,-0.00037450296565464514,0.0003201030635826498,-0.0004394485394069274,0.00010715470235293801,0.0005282672715198009,0.0,0.0,0.0,0.0,0.0,0.0,0.0,-0.00020744676819492436,2.350045129484446e-05,9.601469730807777e-07,2.062170114647266e-05,-2.1869633475279926e-06,-7.120768228396912e-07,-3.865560560423198e-06,0.0007166271493522588,-0.00018705720166188865,0.00037450296565464514,-0.0003201030635826498,0.0004394485394069274,-0.00010715470235293801,-0.0005282672715198009,0.14510458707809448,12.024682998657227,-1.3147919178009033,-21.717256546020508,-0.4031272530555725,-2.5207552909851074,0.21457235515117645,0
30,0.14499759674072266,-0.14510458707809448,-12.024682998657227,1.3147919178009033,21.717256546020508,0.4031272530555725,2.5207552909851074,-0.21457235515117645,0.0,0.0,0.0,0.0,0.0,0.0,0.0,-0.18507596558234105,0.29634862925642724,0.10365440210073988,0.4318165914051928,-0.1413890500749536,0.1223968776246466,-0.20599596020875965,0.17308768438727704,-0.4875437472828481,-0.11147206087593445,-1.946400808049777,0.13360808887084322,2.595551071855757,0.9452484245217508,0.1728802376190821,-0.48752024683155326,-0.11147110072896137,-1.9463801863486305,0.1336059019074957,2.595550359778934,0.9452445589611904,-0.0007166271493522588,0.00018705720166188865,-0.00037450296565464514,0.0003201030635826498,-0.0004394485394069274,0.00010715470235293801,0.0005282672715198009,0.0,0.0,0.0,0.0,0.0,0.0,0.0,-0.00020744676819492436,2.350045129484446e-05,9.601469730807777e-07,2.062170114647266e-05,-2.1869633475279926e-06,-7.120768228396912e-07,-3.865560560423198e-06,0.0007166271493522588,-0.00018705720166188865,0.00037450296565464514,-0.0003201030635826498,0.0004394485394069274,-0.00010715470235293801,-0.0005282672715198009,0.14510458707809448,12.024682998657227,-1.3147919178009033,-21.717256546020508,-0.4031272530555725,-2.5207552909851074,0.21457235515117645,0
31,0.15001606941223145,-0.17287558317184448,-12.072290420532227,1.3147919178009033,21.693452835083008,0.3857322335243225,2.5271639823913574,-0.22830526530742645,0.0,0.0,0.0,0.0,0.0,0.0,0.0,-0.18202566744017948,0.28003294920957406,0.1025881934524741,0.43910033334709453,-0.14114482422279515,0.12327833661068034,-0.2062455693009795,0.17308963448899145,-0.48754040641115415,-0.11147135058725087,-1.946399137614066,0.1336100201881562,2.595550359778934,0.9452499504006571,0.1728802376190821,-0.48752024683155326,-0.11147110072896137,-1.9463801863486305,0.1336059019074957,2.595550359778934,0.9452445589611904,-4.1018431401285984e-05,0.00032446832676759005,-0.00023298001485817855,0.0005380229322362154,0.0005075540384209679,-0.0001415246524766974,0.001463074334010646,0.0,0.0,0.0,0.0,0.0,0.0,0.0,-0.0002093968699093396,2.015957960088688e-05,2.498582895027468e-07,1.8951265435385167e-05,-4.118280660520002e-06,0.0,-5.3914394666509935e-06,4.1018431401285984e-05,-0.00032446832676759005,0.00023298001485817855,-0.0005380229322362154,-0.0005075540384209679,0.0001415246524766974,-0.001463074334010646,0.17287558317184448,12.072290420532227,-1.3147919178009033,-21.693452835083008,-0.3857322335243225,-2.5271639823913574,0.22830526530742645,0
32,0.15500640869140625,-0.17287558317184448,-12.072290420532227,1.3147919178009033,21.693452835083008,0.3857322335243225,2.5271639823913574,-0.22830526530742645,0.0,0.0,0.0,0.0,0.0,0.0,0.0,-0.18202566744017948,0.28003294920957406,0.1025881934524741,0.43910033334709453,-0.14114482422279515,0.12327833661068034,-0.2062455693009795,0.17308963448899145,-0.48754040641115415,-0.11147135058725087,-1.946399137614066,0.1336100201881562,2.595550359778934,0.9452499504006571,0.1728802376190821,-0.48752024683155326,-0.11147110072896137,-1.9463801863486305,0.1336059019074957,2.595550359778934,0.9452445589611904,-4.1018431401285984e-05,0.00032446832676759005,-0.00023298001485817855,0.0005380229322362154,0.0005075540384209679,-0.0001415246524766974,0.001463074334010646,0.0,0.0,0.0,0.0,0.0,0.0,0.0,-0.0002093968699093396,2.015957960088688e-05,2.498582895027468e-07,1.8951265435385167e-05,-4.118280660520002e-06,0.0,-5.3914394666509935e-06,4.1018431401285984e-05,-0.00032446832676759005,0.00023298001485817855,-0.0005380229322362154,-0.0005075540384209679,0.0001415246524766974,-0.001463074334010646,0.17287558317184448,12.072290420532227,-1.3147919178009033,-21.693452835083008,-0.3857322335243225,-2.5271639823913574,0.22830526530742645,0
33,0.1600039005279541,-0.17287558317184448,-12.100061416625977,1.3147919178009033,21.741060256958008,0.3912253975868225,2.5335726737976074,-0.23471395671367645,0.0,0.0,0.0,0.0,0.0,0.0,0.0,-0.18393915113730355,0.2633952119932129,0.09832127518317436,0.4423879531747625,-0.14074859390660283,0.12425456930646295,-0.20666266347734366,0.17308704398049835,-0.48753774227724694,-0.11147206087192485,-1.9464024784857765,0.1336094112992204,2.595549647702111,0.9452506232868044,0.1728802376190821,-0.48752024683155326,-0.11147110072896137,-1.9463801863486305,0.1336059019074957,2.595550359778934,0.9452445589611904,-0.0004509196098018912,-0.00035967102768081786,-0.0005127060392679114,-0.00019382069845006052,-1.846394273506668e-05,-0.0004283789973274984,0.0015347455368148342,0.0,0.0,0.0,0.0,0.0,0.0,0.0,-0.0002068063614162341,1.7495445693682665e-05,9.601429634825687e-07,2.2292137145996094e-05,-3.5093917247208672e-06,7.120768228396912e-07,-6.064325614008048e-06,0.0004509196098018912,0.00035967102768081786,0.0005127060392679114,0.00019382069845006052,1.846394273506668e-05,0.0004283789973274984,-0.0015347455368148342,0.17287558317184448,12.100061416625977,-1.3147919178009033,-21.741060256958008,-0.3912253975868225,-2.5335726737976074,0.23471395671367645,0
34,0.16500115394592285,-0.17287558317184448,-12.100061416625977,1.3147919178009033,21.741060256958008,0.3912253975868225,2.5335726737976074,-0.23471395671367645,0.0,0.0,0.0,0.0,0.0,0.0,0.0,-0.18393915113730355,0.2633952119932129,0.09832127518317436,0.4423879531747625,-0.14074859390660283,0.12425456930646295,-0.20666266347734366,0.17308704398049835,-0.48753774227724694,-0.11147206087192485,-1.9464024784857765,0.1336094112992204,2.595549647702111,0.9452506232868044,0.1728802376190821,-0.48752024683155326,-0.11147110072896137,-1.9463801863486305,0.1336059019074957,2.595550359778934,0.9452445589611904,-0.0004509196098018912,-0.00035967102768081786,-0.0005127060392679114,-0.00019382069845006052,-1.846394273506668e-05,-0.0004283789973274984,0.0015347455368148342,0.0,0.0,0.0,0.0,0.0,0.0,0.0,-0.0002068063614162341,1.7495445693682665e-05,9.601429634825687e-07,2.2292137145996094e-05,-3.5093917247208672e-06,7.120768228396912e-07,-6.064325614008048e-06,0.0004509196098018912,0.00035967102768081786,0.0005127060392679114,0.00019382069845006052,1.846394273506668e-05,0.0004283789973274984,-0.0015347455368148342,0.17287558317184448,12.100061416625977,-1.3147919178009033,-21.741060256958008,-0.3912253975868225,-2.5335726737976074,0.23471395671367645,0
35,0.17002487182617188,-0.19667929410934448,-12.100061416625977,1.3147919178009033,21.693452835083008,0.3857322335243225,2.5271639823913574,-0.17337362468242645,0.0,0.0,0.0,0.0,0.0,0.0,0.0,-0.18068264291545136,0.28187116154242514,0.10607916995262713,0.4283953561605609,-0.1418530549449554,0.1229195575910307,-0.20725173149334372,0.17309076242778207,-0.4875384546218459,-0.11147206076767521,-1.946399137614066,0.13361001720871468,2.595547180864546,0.9452438468848109,0.1728802376190821,-0.48752024683155326,-0.11147110072896137,-1.9463801863486305,0.1336059019074957,2.595550359778934,0.9452445589611904,-1.4915183999563912e-06,0.0007672964075495013,-0.0002688263059106704,0.0012327742858823296,0.00032808302780475303,7.71135849330779e-05,-0.001103915776989972,0.0,0.0,0.0,0.0,0.0,0.0,0.0,-0.00021052480869995782,1.8207790292656956e-05,9.600387138458677e-07,1.8951265435385167e-05,-4.115301218993173e-06,3.178914388168863e-06,7.120763795276375e-07,1.4915183999563912e-06,-0.0007672964075495013,0.0002688263059106704,-0.0012327742858823296,-0.00032808302780475303,-7.71135849330779e-05,0.001103915776989972,0.19667929410934448,12.100061416625977,-1.3147919178009033,-21.693452835083008,-0.3857322335243225,-2.5271639823913574,0.17337362468242645,0
36,0.1750025749206543,-0.19667929410934448,-12.100061416625977,1.3147919178009033,21.693452835083008,0.3857322335243225,2.5271639823913574,-0.17337362468242645,0.0,0.0,0.0,0.0,0.0,0.0,0.0,-0.18068264291545136,0.28187116154242514,0.10607916995262713,0.4283953561605609,-0.1418530549449554,0.1229195575910307,-0.20725173149334372,0.17309076242778207,-0.4875384546218459,-0.11147206076767521,-1.946399137614066,0.13361001720871468,2.595547180864546,0.9452438468848109,0.1728802376190821,-0.48752024683155326,-0.11147110072896137,-1.9463801863486305,0.1336059019074957,2.595550359778934,0.9452445589611904,-1.4915183999563912e-06,0.0007672964075495013,-0.0002688263059106704,0.0012327742858823296,0.00032808302780475303,7.71135849330779e-05,-0.001103915776989972,0.0,0.0,0.0,0.0,0.0,0.0,0.0,-0.00021052480869995782,1.8207790292656956e-05,9.600387138458677e-07,1.8951265435385167e-05,-4.115301218993173e-06,3.178914388168863e-06,7.120763795276375e-07,1.4915183999563912e-06,-0.0007672964075495013,0.0002688263059106704,-0.0012327742858823296,-0.00032808302780475303,-7.71135849330779e-05,0.001103915776989972,0.19667929410934448,12.100061416625977,-1.3147919178009033,-21.693452835083008,-0.3857322335243225,-2.5271639823913574,0.17337362468242645,0
37,0.18000030517578125,-0.14510458707809448,-11.973108291625977,1.3425629138946533,21.669649124145508,0.3912253975868225,2.5207552909851074,-0.20724813640117645,0.0,0.0,0.0,0.0,0.0,0.0,0.0,-0.17746049310863293,0.2898608536659111,0.11251868958355662,0.42293413510420386,-0.14208582514940607,0.1227263456232565,-0.20773127201783256,0.17308772063832717,-0.48754736656053443,-0.11147400971776499,-1.9463974671432178,0.13360939813548917,2.5955510718378116,0.9452476107196676,0.1728802376190821,-0.48752024683155326,-0.11147110072896137,-1.9463801863486305,0.1336059019074957,2.595550359778934,0.9452445589611904,-0.0006351472305091561,-0.0009859976168775009,-0.0006120894480921645,0.0010995116164525724,7.123942856871914e-05,-9.57979249863094e-06,0.00012184626614494789,0.0,0.0,0.0,0.0,0.0,0.0,0.0,-0.0002074830192450583,2.7119728981173097e-05,2.9089888036182288e-06,1.7280794587293258e-05,-3.4962279934769303e-06,-7.120588776388104e-07,-3.051758477146116e-06,0.0006351472305091561,0.0009859976168775009,0.0006120894480921645,-0.0010995116164525724,-7.123942856871914e-05,9.57979249863094e-06,-0.00012184626614494789,0.14510458707809448,11.973108291625977,-1.3425629138946533,-21.669649124145508,-0.3912253975868225,-2.5207552909851074,0.20724813640117645,0
38,0.1849992275238037,-0.14510458707809448,-11.973108291625977,1.3425629138946533,21.669649124145508,0.3912253975868225,2.5207552909851074,-0.20724813640117645,0.0,0.0,0.0,0.0,0.0,0.0,0.0,-0.17746049310863293,0.2898608536659111,0.11251868958355662,0.42293413510420386,-0.14208582514940607,0.1227263456232565,-0.20773127201783256,0.17308772063832717,-0.48754736656053443,-0.11147400971776499,-1.9463974671432178,0.13360939813548917,2.5955510718378116,0.9452476107196676,0.1728802376190821,-0.48752024683155326,-0.11147110072896137,-1.9463801863486305,0.1336059019074957,2.595550359778934,0.9452445589611904,-0.0006351472305091561,-0.0009859976168775009,-0.0006120894480921645,0.0010995116164525724,7.123942856871914e-05,-9.57979249863094e-06,0.00012184626614494789,0.0,0.0,0.0,0.0,0.0,0.0,0.0,-0.0002074830192450583,2.7119728981173097e-05,2.9089888036182288e-06,1.7280794587293258e-05,-3.4962279934769303e-06,-7.120588776388104e-07,-3.051758477146116e-06,0.0006351472305091561,0.0009859976168775009,0.0006120894480921645,-0.0010995116164525724,-7.123942856871914e-05,9.57979249863094e-06,-0.00012184626614494789,0.14510458707809448,11.973108291625977,-1.3425629138946533,-21.669649124145508,-0.3912253975868225,-2.5207552909851074,0.20724813640117645,0
39,0.19070124626159668,-0.22445029020309448,-11.973108291625977,1.3425629138946533,21.717256546020508,0.3857322335243225,2.5271639823913574,-0.17337362468242645,0.0,0.0,0.0,0.0,0.0,0.0,0.0,-0.1810301281890103,0.2857164723397479,0.10297576659661813,0.4317446943773064,-0.14067169395010456,0.12351943517536632,-0.207636106583808,0.17309108610523355,-0.4875473665605511,-0.1114740097177656,-1.9464008080499209,0.13361002165071684,2.595550359778934,0.9452438468850322,0.1728802376190821,-0.48752024683155326,-0.11147110072896137,-1.9463801863486305,0.1336059019074957,2.595550359778934,0.9452445589611904,0.0009340859453099691,0.0003163993931549525,-0.000748057434166516,0.00015353086442922045,0.00021286822814480105,-0.0003903627934308895,-0.0008528395823544884,0.0,0.0,0.0,0.0,0.0,0.0,0.0,-0.00021084848615143814,2.7119728997826442e-05,2.9089888042288514e-06,2.0621701290357564e-05,-4.119743221148164e-06,0.0,7.120761582601887e-07,-0.0009340859453099691,-0.0003163993931549525,0.000748057434166516,-0.00015353086442922045,-0.00021286822814480105,0.0003903627934308895,0.0008528395823544884,0.22445029020309448,11.973108291625977,-1.3425629138946533,-21.717256546020508,-0.3857322335243225,-2.5271639823913574,0.17337362468242645,0
40,0.19499993324279785,-0.22445029020309448,-11.973108291625977,1.3425629138946533,21.717256546020508,0.3857322335243225,2.5271639823913574,-0.17337362468242645,0.0,0.0,0.0,0.0,0.0,0.0,0.0,-0.1810301281890103,0.2857164723397479,0.10297576659661813,0.4317446943773064,-0.14067169395010456,0.12351943517536632,-0.207636106583808,0.17309108610523355,-0.4875473665605511,-0.1114740097177656,-1.9464008080499209,0.13361002165071684,2.595550359778934,0.9452438468850322,0.1728802376190821,-0.48752024683155326,-0.11147110072896137,-1.9463801863486305,0.1336059019074957,2.595550359778934,0.9452445589611904,0.0009340859453099691,0.0003163993931549525,-0.000748057434166516,0.00015353086442922045,0.00021286822814480105,-0.0003903627934308895,-0.0008528395823544884,0.0,0.0,0.0,0.0,0.0,0.0,0.0,-0.00021084848615143814,2.7119728997826442e-05,2.9089888042288514e-06,2.0621701290357564e-05,-4.119743221148164e-06,0.0,7.120761582601887e-07,-0.0009340859453099691,-0.0003163993931549525,0.000748057434166516,-0.00015353086442922045,-0.00021286822814480105,0.0003903627934308895,0.0008528395823544884,0.22445029020309448,11.973108291625977,-1.3425629138946533,-21.717256546020508,-0.3857322335243225,-2.5271639823913574,0.17337362468242645,0
41,0.20000147819519043,-0.19667929410934448,-12.000879287719727,1.2671844959259033,21.717256546020508,0.3976340889930725,2.5207552909851074,-0.16604940593242645,0.0,0.0,0.0,0.0,0.0,0.0,0.0,-0.17899483124018803,0.29372357653446035,0.10665957485776667,0.4355337928734688,-0.14100054934782397,0.12341742729564231,-0.20653855242534658,0.17308866565702158,-0.48754541771871995,-0.11146872000422392,-1.946400808049921,0.13360869873486075,2.595551071855757,0.9452430330829488,0.1728802376190821,-0.48752024683155326,-0.11147110072896137,-1.9463801863486305,0.1336059019074957,2.595550359778934,0.9452445589611904,0.0009277091955734086,0.00116693367422501,0.0005534128218467769,0.00019435690518264777,-0.00026968095795652217,7.687376265275331e-05,-0.0010377530051905728,0.0,0.0,0.0,0.0,0.0,0.0,0.0,-0.00020842803793946763,2.5170887166692246e-05,-2.380724737446882e-06,2.0621701290579608e-05,-2.7968273650647024e-06,-7.120768228396912e-07,1.525878241648293e-06,-0.0009277091955734086,-0.00116693367422501,-0.0005534128218467769,-0.00019435690518264777,0.00026968095795652217,-7.687376265275331e-05,0.0010377530051905728,0.19667929410934448,12.000879287719727,-1.2671844959259033,-21.717256546020508,-0.3976340889930725,-2.5207552909851074,0.16604940593242645,0
42,0.20501065254211426,-0.19667929410934448,-12.000879287719727,1.2671844959259033,21.717256546020508,0.3976340889930725,2.5207552909851074,-0.16604940593242645,0.0,0.0,0.0,0.0,0.0,0.0,0.0,-0.17899483124018803,0.29372357653446035,0.10665957485776667,0.4355337928734688,-0.14100054934782397,0.12341742729564231,-0.20653855242534658,0.17308866565702158,-0.48754541771871995,-0.11146872000422392,-1.946400808049921,0.13360869873486075,2.595551071855757,0.9452430330829488,0.1728802376190821,-0.48752024683155326,-0.11147110072896137,-1.9463801863486305,0.1336059019074957,2.595550359778934,0.9452445589611904,0.0009277091955734086,0.00116693367422501,0.0005534128218467769,0.00019435690518264777,-0.00026968095795652217,7.687376265275331e-05,-0.0010377530051905728,0.0,0.0,0.0,0.0,0.0,0.0,0.0,-0.00020842803793946763,2.5170887166692246e-05,-2.380724737446882e-06,2.0621701290579608e-05,-2.7968273650647024e-06,-7.120768228396912e-07,1.525878241648293e-06,-0.0009277091955734086,-0.00116693367422501,-0.0005534128218467769,-0.00019435690518264777,0.00026968095795652217,-7.687376265275331e-05,0.0010377530051905728,0.19667929410934448,12.000879287719727,-1.2671844959259033,-21.717256546020508,-0.3976340889930725,-2.5207552909851074,0.16604940593242645,0
43,0.20999932289123535,-0.12130087614059448,-12.100061416625977,1.2671844959259033,21.693452835083008,0.3857322335243225,2.5207552909851074,-0.22098104655742645,0.0,0.0,0.0,0.0,0.0,0.0,0.0,-0.1736607788991135,0.27125654139815325,0.11180571396341528,0.4511286100552537,-0.14111364276074068,0.1256532503906434,-0.20618028933731217,0.17308523531489003,-0.487538457569323,-0.11146872000422392,-1.946399137614066,0.1336100216507884,2.595551071855757,0.9452491365985738,0.1728802376190821,-0.48752024683155326,-0.11147110072896137,-1.9463801863486305,0.1336059019074957,2.595550359778934,0.9452445589611904,-0.0008025922794050606,0.0006214352227664679,0.0010312071024924988,0.0008381202530096821,0.0004703534154716307,6.601582951339098e-05,0.001353458860719046,0.0,0.0,0.0,0.0,0.0,0.0,0.0,-0.0002049976958079236,1.8210737769752683e-05,-2.380724737446882e-06,1.8951265435385167e-05,-4.119743292702038e-06,-7.120768228396912e-07,-4.5776373833739115e-06,0.0008025922794050606,-0.0006214352227664679,-0.0010312071024924988,-0.0008381202530096821,-0.0004703534154716307,-6.601582951339098e-05,-0.001353458860719046,0.12130087614059448,12.100061416625977,-1.2671844959259033,-21.693452835083008,-0.3857322335243225,-2.5207552909851074,0.22098104655742645,0
44,0.21501898765563965,-0.12130087614059448,-12.100061416625977,1.2671844959259033,21.693452835083008,0.3857322335243225,2.5207552909851074,-0.22098104655742645,0.0,0.0,0.0,0.0,0.0,0.0,0.0,-0.1736607788991135,0.27125654139815325,0.11180571396341528,0.4511286100552537,-0.14111364276074068,0.1256532503906434,-0.20618028933731217,0.17308523531489003,-0.487538457569323,-0.11146872000422392,-1.946399137614066,0.1336100216507884,2.595551071855757,0.9452491365985738,0.1728802376190821,-0.48752024683155326,-0.11147110072896137,-1.9463801863486305,0.1336059019074957,2.595550359778934,0.9452445589611904,-0.0008025922794050606,0.0006214352227664679,0.0010312071024924988,0.0008381202530096821,0.0004703534154716307,6.601582951339098e-05,0.001353458860719046,0.0,0.0,0.0,0.0,0.0,0.0,0.0,-0.0002049976958079236,1.8210737769752683e-05,-2.380724737446882e-06,1.8951265435385167e-05,-4.119743292702038e-06,-7.120768228396912e-07,-4.5776373833739115e-06,0.0008025922794050606,-0.0006214352227664679,-0.0010312071024924988,-0.0008381202530096821,-0.0004703534154716307,-6.601582951339098e-05,-0.001353458860719046,0.12130087614059448,12.100061416625977,-1.2671844959259033,-21.693452835083008,-0.3857322335243225,-2.5207552909851074,0.22098104655742645,0
45,0.22043585777282715,-0.17287558317184448,-12.072290420532227,1.2909882068634033,21.768831253051758,0.3857322335243225,2.5335726737976074,-0.17978231608867645,0.0,0.0,0.0,0.0,0.0,0.0,0.0,-0.1795425692830255,0.2943375735069595,0.09943059072037495,0.43594176235173177,-0.14063769948029411,0.12375924042878868,-0.20749037350187274,0.17308980221924736,-0.48754037697676167,-0.11147039011530155,-1.9464044273276075,0.13361002165079114,2.595549647702111,0.945244558961855,0.1728802376190821,-0.48752024683155326,-0.11147110072896137,-1.9463801863486305,0.1336059019074957,2.595550359778934,0.9452445589611904,-0.0002674188517897693,-0.00028403645785587115,-0.00016035806945504728,-0.00041805868001311636,8.626807934165354e-05,-0.0002655335114099584,-0.0008600436578147169,0.0,0.0,0.0,0.0,0.0,0.0,0.0,-0.00020956460016524625,2.0130145208407946e-05,-7.106136598183932e-07,2.4240978977019267e-05,-4.11974329544984e-06,7.120768228396912e-07,-6.645795025406187e-13,0.0002674188517897693,0.00028403645785587115,0.00016035806945504728,0.00041805868001311636,-8.626807934165354e-05,0.0002655335114099584,0.0008600436578147169,0.17287558317184448,12.072290420532227,-1.2909882068634033,-21.768831253051758,-0.3857322335243225,-2.5335726737976074,0.17978231608867645,0
46,0.2250056266784668,-0.17287558317184448,-12.072290420532227,1.2909882068634033,21.768831253051758,0.3857322335243225,2.5335726737976074,-0.17978231608867645,0.0,0.0,0.0,0.0,0.0,0.0,0.0,-0.1795425692830255,0.2943375735069595,0.09943059072037495,0.43594176235173177,-0.14063769948029411,0.12375924042878868,-0.20749037350187274,0.17308980221924736,-0.48754037697676167,-0.11147039011530155,-1.9464044273276075,0.13361002165079114,2.595549647702111,0.945244558961855,0.1728802376190821,-0.48752024683155326,-0.11147110072896137,-1.9463801863486305,0.1336059019074957,2.595550359778934,0.9452445589611904,-0.0002674188517897693,-0.00028403645785587115,-0.00016035806945504728,-0.00041805868001311636,8.626807934165354e-05,-0.0002655335114099584,-0.0008600436578147169,0.0,0.0,0.0,0.0,0.0,0.0,0.0,-0.00020956460016524625,2.0130145208407946e-05,-7.106136598183932e-07,2.4240978977019267e-05,-4.11974329544984e-06,7.120768228396912e-07,-6.645795025406187e-13,0.0002674188517897693,0.00028403645785587115,0.00016035806945504728,0.00041805868001311636,-8.626807934165354e-05,0.0002655335114099584,0.0008600436578147169,0.17287558317184448,12.072290420532227,-1.2909882068634033,-21.768831253051758,-0.3857322335243225,-2.5335726737976074,0.17978231608867645,0
47,0.23000025749206543,-0.17287558317184448,-12.072290420532227,1.2909882068634033,21.768831253051758,0.3857322335243225,2.5335726737976074,-0.17978231608867645,0.0,0.0,0.0,0.0,0.0,0.0,0.0,-0.1795425692830255,0.2943375735069595,0.09943059072037495,0.43594176235173177,-0.14063769948029411,0.12375924042878868,-0.20749037350187274,0.17308980221924736,-0.48754037697676167,-0.11147039011530155,-1.9464044273276075,0.13361002165079114,2.595549647702111,0.945244558961855,0.1728802376190821,-0.48752024683155326,-0.11147110072896137,-1.9463801863486305,0.1336059019074957,2.595550359778934,0.9452445589611904,-0.0002674188517897693,-0.00028403645785587115,-0.00016035806945504728,-0.00041805868001311636,8.626807934165354e-05,-0.0002655335114099584,-0.0008600436578147169,0.0,0.0,0.0,0.0,0.0,0.0,0.0,-0.00020956460016524625,2.0130145208407946e-05,-7.106136598183932e-07,2.4240978977019267e-05,-4.11974329544984e-06,7.120768228396912e-07,-6.645795025406187e-13,0.0002674188517897693,0.00028403645785587115,0.00016035806945504728,0.00041805868001311636,-8.626807934165354e-05,0.0002655335114099584,0.0008600436578147169,0.17287558317184448,12.072290420532227,-1.2909882068634033,-21.768831253051758,-0.3857322335243225,-2.5335726737976074,0.17978231608867645,0
48,0.23499846458435059,-0.17287558317184448,-12.072290420532227,1.2909882068634033,21.768831253051758,0.3857322335243225,2.5335726737976074,-0.17978231608867645,0.0,0.0,0.0,0.0,0.0,0.0,0.0,-0.1795425692830255,0.2943375735069595,0.09943059072037495,0.43594176235173177,-0.14063769948029411,0.12375924042878868,-0.20749037350187274,0.17308980221924736,-0.48754037697676167,-0.11147039011530155,-1.9464044273276075,0.13361002165079114,2.595549647702111,0.945244558961855,0.1728802376190821,-0.48752024683155326,-0.11147110072896137,-1.9463801863486305,0.1336059019074957,2.595550359778934,0.9452445589611904,-0.0002674188517897693,-0.00028403645785587115,-0.00016035806945504728,-0.00041805868001311636,8.626807934165354e-05,-0.0002655335114099584,-0.0008600436578147169,0.0,0.0,0.0,0.0,0.0,0.0,0.0,-0.00020956460016524625,2.0130145208407946e-05,-7.106136598183932e-07,2.4240978977019267e-05,-4.11974329544984e-06,7.120768228396912e-07,-6.645795025406187e-13,0.0002674188517897693,0.00028403645785587115,0.00016035806945504728,0.00041805868001311636,-8.626807934165354e-05,0.0002655335114099584,0.0008600436578147169,0.17287558317184448,12.072290420532227,-1.2909882068634033,-21.768831253051758,-0.3857322335243225,-2.5335726737976074,0.17978231608867645,0
49,0.23999905586242676,-0.12130087614059448,-12.000879287719727,1.3147919178009033,21.717256546020508,0.3912253975868225,2.5207552909851074,-0.20724813640117645,0.0,0.0,0.0,0.0,0.0,0.0,0.0,-0.1717713755350633,0.3033900553730222,0.11469055101816364,0.42416257271952484,-0.14192636313935947,0.12210906298790944,-0.20825256417415672,0.17308602648097457,-0.48754541768221504,-0.11147205990159971,-1.946400808049921,0.13360941129922865,2.595551071855757,0.9452479727626951,0.1728802376190821,-0.48752024683155326,-0.11147110072896137,-1.9463801863486305,0.1336059019074957,2.595550359778934,0.9452445589611904,-0.0009617202283435413,-0.0012047920792991687,1.1819103139695489e-05,-0.00030063531040530524,4.5308736510038504e-05,0.00030189232497784975,0.0003798444975414936,0.0,0.0,0.0,0.0,0.0,0.0,0.0,-0.0002057888618924586,2.517085066178204e-05,9.591726383428867e-07,2.0621701290579608e-05,-3.509391732964273e-06,-7.120768228396912e-07,-3.4138015047036063e-06,0.0009617202283435413,0.0012047920792991687,-1.1819103139695489e-05,0.00030063531040530524,-4.5308736510038504e-05,-0.00030189232497784975,-0.0003798444975414936,0.12130087614059448,12.000879287719727,-1.3147919178009033,-21.717256546020508,-0.3912253975868225,-2.5207552909851074,0.20724813640117645,0
50,0.2449965476989746,-0.12130087614059448,-12.000879287719727,1.3147919178009033,21.717256546020508,0.3912253975868225,2.5207552909851074,-0.20724813640117645,0.0,0.0,0.0,0.0,0.0,0.0,0.0,-0.1717713755350633,0.3033900553730222,0.11469055101816364,0.42416257271952484,-0.14192636313935947,0.12210906298790944,-0.20825256417415672,0.17308602648097457,-0.48754541768221504,-0.11147205990159971,-1.946400808049921,0.13360941129922865,2.595551071855757,0.9452479727626951,0.1728802376190821,-0.48752024683155326,-0.11147110072896137,-1.9463801863486305,0.1336059019074957,2.595550359778934,0.9452445589611904,-0.0009617202283435413,-0.0012047920792991687,1.1819103139695489e-05,-0.00030063531040530524,4.5308736510038504e-05,0.00030189232497784975,0.0003798444975414936,0.0,0.0,0.0,0.0,0.0,0.0,0.0,-0.0002057888618924586,2.517085066178204e-05,9.591726383428867e-07,2.0621701290579608e-05,-3.509391732964273e-06,-7.120768228396912e-07,-3.4138015047036063e-06,0.0009617202283435413,0.0012047920792991687,-1.1819103139695489e-05,0.00030063531040530524,-4.5308736510038504e-05,-0.00030189232497784975,-0.0003798444975414936,0.12130087614059448,12.000879287719727,-1.3147919178009033,-21.717256546020508,-0.3912253975868225,-2.5207552909851074,0.20724813640117645,0
51,0.2502727508544922,-0.14510458707809448,-12.048486709594727,1.3147919178009033,21.741060256958008,0.3793235421180725,2.5143465995788574,-0.23471395671367645,0.0,0.0,0.0,0.0,0.0,0.0,0.0,-0.17292371758558528,0.30077684594507365,0.10890274368997496,0.42411561446680457,-0.14191223183279322,0.122571932649091,-0.20831904257277353,0.17308583001739647,-0.487542050356056,-0.11147206087592895,-1.9464024784857765,0.1336107335650991,2.5955517839325797,0.9452506624795237,0.1728802376190821,-0.48752024683155326,-0.11147110072896137,-1.9463801863486305,0.1336059019074957,2.595550359778934,0.9452445589611904,-0.0001111702950879294,0.0011985039631822088,-0.00043194920736246346,-0.0009077988365998714,0.0003313440989300062,8.530880102356436e-06,0.0015715847162095392,0.0,0.0,0.0,0.0,0.0,0.0,0.0,-0.00020559239831435816,2.1803524502761462e-05,9.601469675851737e-07,2.2292137145996094e-05,-4.831657603399098e-06,-1.4241536456793824e-06,-6.103518333300251e-06,0.0001111702950879294,-0.0011985039631822088,0.00043194920736246346,0.0009077988365998714,-0.0003313440989300062,-8.530880102356436e-06,-0.0015715847162095392,0.14510458707809448,12.048486709594727,-1.3147919178009033,-21.741060256958008,-0.3793235421180725,-2.5143465995788574,0.23471395671367645,0
52,0.25501298904418945,-0.14510458707809448,-12.048486709594727,1.3147919178009033,21.741060256958008,0.3793235421180725,2.5143465995788574,-0.23471395671367645,0.0,0.0,0.0,0.0,0.0,0.0,0.0,-0.17292371758558528,0.30077684594507365,0.10890274368997496,0.42411561446680457,-0.14191223183279322,0.122571932649091,-0.20831904257277353,0.17308583001739647,-0.487542050356056,-0.11147206087592895,-1.9464024784857765,0.1336107335650991,2.5955517839325797,0.9452506624795237,0.1728802376190821,-0.48752024683155326,-0.11147110072896137,-1.9463801863486305,0.1336059019074957,2.595550359778934,0.9452445589611904,-0.0001111702950879294,0.0011985039631822088,-0.00043194920736246346,-0.0009077988365998714,0.0003313440989300062,8.530880102356436e-06,0.0015715847162095392,0.0,0.0,0.0,0.0,0.0,0.0,0.0,-0.00020559239831435816,2.1803524502761462e-05,9.601469675851737e-07,2.2292137145996094e-05,-4.831657603399098e-06,-1.4241536456793824e-06,-6.103518333300251e-06,0.0001111702950879294,-0.0011985039631822088,0.00043194920736246346,0.0009077988365998714,-0.0003313440989300062,-8.530880102356436e-06,-0.0015715847162095392,0.14510458707809448,12.048486709594727,-1.3147919178009033,-21.741060256958008,-0.3793235421180725,-2.5143465995788574,0.23471395671367645,0
53,0.2599985599517822,-0.19667929410934448,-12.024682998657227,1.2671844959259033,21.741060256958008,0.3976340889930725,2.5271639823913574,-0.19351522624492645,0.0,0.0,0.0,0.0,0.0,0.0,0.0,-0.1748067770089982,0.2828378660222558,0.10343336241110196,0.4346322945469745,-0.14212695704445238,0.1232492787720102,-0.20891044578524473,0.17308918164354864,-0.48754374728271516,-0.11146872000422392,-1.9464024784857765,0.13360869922240481,2.595550359778934,0.9452460848407613,0.1728802376190821,-0.48752024683155326,-0.11147110072896137,-1.9463801863486305,0.1336059019074957,2.595550359778934,0.9452445589611904,0.00021649745426617541,-8.490089358314781e-05,0.000530478859367053,-0.0004920300620514316,-0.00041034256753675214,-0.00011103386837331402,-0.00039397647226717517,0.0,0.0,0.0,0.0,0.0,0.0,0.0,-0.0002089440244665286,2.3500451161895253e-05,-2.380724737446882e-06,2.2292137145996094e-05,-2.7973149091253813e-06,0.0,-1.5258795709183204e-06,-0.00021649745426617541,8.490089358314781e-05,-0.000530478859367053,0.0004920300620514316,0.00041034256753675214,0.00011103386837331402,0.00039397647226717517,0.19667929410934448,12.024682998657227,-1.2671844959259033,-21.741060256958008,-0.3976340889930725,-2.5271639823913574,0.19351522624492645,0
54,0.2649977207183838,-0.19667929410934448,-12.024682998657227,1.2671844959259033,21.741060256958008,0.3976340889930725,2.5271639823913574,-0.19351522624492645,0.0,0.0,0.0,0.0,0.0,0.0,0.0,-0.1748067770089982,0.2828378660222558,0.10343336241110196,0.4346322945469745,-0.14212695704445238,0.1232492787720102,-0.20891044578524473,0.17308918164354864,-0.48754374728271516,-0.11146872000422392,-1.9464024784857765,0.13360869922240481,2.595550359778934,0.9452460848407613,0.1728802376190821,-0.48752024683155326,-0.11147110072896137,-1.9463801863486305,0.1336059019074957,2.595550359778934,0.9452445589611904,0.00021649745426617541,-8.490089358314781e-05,0.000530478859367053,-0.0004920300620514316,-0.00041034256753675214,-0.00011103386837331402,-0.00039397647226717517,0.0,0.0,0.0,0.0,0.0,0.0,0.0,-0.0002089440244665286,2.3500451161895253e-05,-2.380724737446882e-06,2.2292137145996094e-05,-2.7973149091253813e-06,0.0,-1.5258795709183204e-06,-0.00021649745426617541,8.490089358314781e-05,-0.000530478859367053,0.0004920300620514316,0.00041034256753675214,0.00011103386837331402,0.00039397647226717517,0.19667929410934448,12.024682998657227,-1.2671844959259033,-21.741060256958008,-0.3976340889930725,-2.5271639823913574,0.19351522624492645,0
55,0.26999783515930176,-0.24825400114059448,-12.123865127563477,1.2909882068634033,21.693452835083008,0.3976340889930725,2.5207552909851074,-0.21457235515117645,0.0,0.0,0.0,0.0,0.0,0.0,0.0,-0.17370826119355398,0.26638022641797493,0.11125463484051941,0.4425997938268371,-0.14264002934478398,0.12466825617059947,-0.21042274655978158,0.17309518949140112,-0.48753678713346776,-0.11147039040399279,-1.946399137614066,0.13360869873486075,2.595551071855757,0.9452484245217508,0.1728802376190821,-0.48752024683155326,-0.11147110072896137,-1.9463801863486305,0.1336059019074957,2.595550359778934,0.9452445589611904,0.0014849255247815388,0.0009323001285536995,-9.427413550812829e-05,0.0007098624669785707,-6.46718812929296e-05,0.00026404431058856133,0.0008101603583753004,0.0,0.0,0.0,0.0,0.0,0.0,0.0,-0.00021495187231901358,1.654030191450273e-05,-7.103249685808111e-07,1.8951265435385167e-05,-2.7968273650647024e-06,-7.120768228396912e-07,-3.865560560423198e-06,-0.0014849255247815388,-0.0009323001285536995,9.427413550812829e-05,-0.0007098624669785707,6.46718812929296e-05,-0.00026404431058856133,-0.0008101603583753004,0.24825400114059448,12.123865127563477,-1.2909882068634033,-21.693452835083008,-0.3976340889930725,-2.5207552909851074,0.21457235515117645,0
56,0.27542829513549805,-0.24825400114059448,-12.123865127563477,1.2909882068634033,21.693452835083008,0.3976340889930725,2.5207552909851074,-0.21457235515117645,0.0,0.0,0.0,0.0,0.0,0.0,0.0,-0.17370826119355398,0.26638022641797493,0.11125463484051941,0.4425997938268371,-0.14264002934478398,0.12466825617059947,-0.21042274655978158,0.17309518949140112,-0.48753678713346776,-0.11147039040399279,-1.946399137614066,0.13360869873486075,2.595551071855757,0.9452484245217508,0.1728802376190821,-0.48752024683155326,-0.11147110072896137,-1.9463801863486305,0.1336059019074957,2.595550359778934,0.9452445589611904,0.0014849255247815388,0.0009323001285536995,-9.427413550812829e-05,0.0007098624669785707,-6.46718812929296e-05,0.00026404431058856133,0.0008101603583753004,0.0,0.0,0.0,0.0,0.0,0.0,0.0,-0.00021495187231901358,1.654030191450273e-05,-7.103249685808111e-07,1.8951265435385167e-05,-2.7968273650647024e-06,-7.120768228396912e-07,-3.865560560423198e-06,-0.0014849255247815388,-0.0009323001285536995,9.427413550812829e-05,-0.0007098624669785707,6.46718812929296e-05,-0.00026404431058856133,-0.0008101603583753004,0.24825400114059448,12.123865127563477,-1.2909882068634033,-21.693452835083008,-0.3976340889930725,-2.5207552909851074,0.21457235515117645,0
57,0.28000640869140625,-0.14510458707809448,-12.147668838500977,1.2909882068634033,21.741060256958008,0.3976340889930725,2.5207552909851074,-0.20724813640117645,0.0,0.0,0.0,0.0,0.0,0.0,0.0,-0.17787764629656078,0.2689986187734876,0.10977598419627682,0.4346711888191707,-0.1419973073113201,0.12362200402577035,-0.2099458865513673,0.17308713740585094,-0.4875328816460767,-0.11147039044007898,-1.9464024784857765,0.13360869922240298,2.595551071855757,0.9452476107196676,0.1728802376190821,-0.48752024683155326,-0.11147110072896137,-1.9463801863486305,0.1336059019074957,2.595550359778934,0.9452445589611904,-0.00044645137532735974,0.0007026324429086345,-0.00010491988366623914,-0.00027418327279148775,-0.0002004214036319554,0.00012881680359633032,0.0007754557380746081,0.0,0.0,0.0,0.0,0.0,0.0,0.0,-0.00020689978676882714,1.2634814523460047e-05,-7.10288882391219e-07,2.2292137145996094e-05,-2.7973149072935133e-06,-7.120768228396912e-07,-3.051758477146116e-06,0.00044645137532735974,-0.0007026324429086345,0.00010491988366623914,0.00027418327279148775,0.0002004214036319554,-0.00012881680359633032,-0.0007754557380746081,0.14510458707809448,12.147668838500977,-1.2909882068634033,-21.741060256958008,-0.3976340889930725,-2.5207552909851074,0.20724813640117645,0
58,0.2850182056427002,-0.14510458707809448,-12.147668838500977,1.2909882068634033,21.741060256958008,0.3976340889930725,2.5207552909851074,-0.20724813640117645,0.0,0.0,0.0,0.0,0.0,0.0,0.0,-0.17787764629656078,0.2689986187734876,0.10977598419627682,0.4346711888191707,-0.1419973073113201,0.12362200402577035,-0.2099458865513673,0.17308713740585094,-0.4875328816460767,-0.11147039044007898,-1.9464024784857765,0.13360869922240298,2.595551071855757,0.9452476107196676,0.1728802376190821,-0.48752024683155326,-0.11147110072896137,-1.9463801863486305,0.1336059019074957,2.595550359778934,0.9452445589611904,-0.00044645137532735974,0.0007026324429086345,-0.00010491988366623914,-0.00027418327279148775,-0.0002004214036319554,0.00012881680359633032,0.0007754557380746081,0.0,0.0,0.0,0.0,0.0,0.0,0.0,-0.00020689978676882714,1.2634814523460047e-05,-7.10288882391219e-07,2.2292137145996094e-05,-2.7973149072935133e-06,-7.120768228396912e-07,-3.051758477146116e-06,0.00044645137532735974,-0.0007026324429086345,0.00010491988366623914,0.00027418327279148775,0.0002004214036319554,-0.00012881680359633032,-0.0007754557380746081,0.14510458707809448,12.147668838500977,-1.2909882068634033,-21.741060256958008,-0.3976340889930725,-2.5207552909851074,0.20724813640117645,0
59,0.29000067710876465,-0.19667929410934448,-12.048486709594727,1.3425629138946533,21.741060256958008,0.3912253975868225,2.5271639823913574,-0.17337362468242645,0.0,0.0,0.0,0.0,0.0,0.0,0.0,-0.17379866591843926,0.2876614881574895,0.11057666796289276,0.41875378389884094,-0.14199082469307023,0.1207864617329167,-0.20886727781518133,0.17308866545014956,-0.4875419973615328,-0.11147398341077731,-1.9464024784857765,0.13360941129922865,2.595550359778934,0.9452438468850322,0.1728802376190821,-0.48752024683155326,-0.11147110072896137,-1.9463801863486305,0.1336059019074957,2.595550359778934,0.9452445589611904,0.000737439952384528,-0.0004934498599142279,-0.0009331603535548962,-0.0006985129147531838,0.00027501255882589326,-9.042508097256638e-05,0.0007392270128949551,0.0,0.0,0.0,0.0,0.0,0.0,0.0,-0.0002084278310674481,2.1750529979547295e-05,2.8826818159466416e-06,2.2292137145996094e-05,-3.509391732964273e-06,0.0,7.120761582601887e-07,-0.000737439952384528,0.0004934498599142279,0.0009331603535548962,0.0006985129147531838,-0.00027501255882589326,9.042508097256638e-05,-0.0007392270128949551,0.19667929410934448,12.048486709594727,-1.3425629138946533,-21.741060256958008,-0.3912253975868225,-2.5271639823913574,0.17337362468242645,0
60,0.2950143814086914,-0.19667929410934448,-12.048486709594727,1.3425629138946533,21.741060256958008,0.3912253975868225,2.5271639823913574,-0.17337362468242645,0.0,0.0,0.0,0.0,0.0,0.0,0.0,-0.17379866591843926,0.2876614881574895,0.11057666796289276,0.41875378389884094,-0.14199082469307023,0.1207864617329167,-0.20886727781518133,0.17308866545014956,-0.4875419973615328,-0.11147398341077731,-1.9464024784857765,0.13360941129922865,2.595550359778934,0.9452438468850322,0.1728802376190821,-0.48752024683155326,-0.11147110072896137,-1.9463801863486305,0.1336059019074957,2.595550359778934,0.9452445589611904,0.000737439952384528,-0.0004934498599142279,-0.0009331603535548962,-0.0006985129147531838,0.00027501255882589326,-9.042508097256638e-05,0.0007392270128949551,0.0,0.0,0.0,0.0,0.0,0.0,0.0,-0.0002084278310674481,2.1750529979547295e-05,2.8826818159466416e-06,2.2292137145996094e-05,-3.509391732964273e-06,0.0,7.120761582601887e-07,-0.000737439952384528,0.0004934498599142279,0.0009331603535548962,0.0006985129147531838,-0.00027501255882589326,9.042508097256638e-05,-0.0007392270128949551,0.19667929410934448,12.048486709594727,-1.3425629138946533,-21.741060256958008,-0.3912253975868225,-2.5271639823913574,0.17337362468242645,0
61,0.29999780654907227,-0.17287558317184448,-11.949304580688477,1.2671844959259033,21.693452835083008,0.3912253975868225,2.5143465995788574,-0.22830526530742645,0.0,0.0,0.0,0.0,0.0,0.0,0.0,-0.18033025059672203,0.2873759723763288,0.09968965032578755,0.41859577765787576,-0.14073941973144785,0.12191656991015798,-0.20703772103978418,0.17308885844481992,-0.48754903601481125,-0.11146872000407541,-1.946399137614066,0.13360941129922865,2.5955517839325797,0.9452499504006571,0.1728802376190821,-0.48752024683155326,-0.11147110072896137,-1.9463801863486305,0.1336059019074957,2.595550359778934,0.9452445589611904,-0.0005698865999842325,-0.0011883113597585641,0.000674179022564783,0.00010313787999547925,0.0002070692416961997,0.0002649618975624849,0.0018527351885560064,0.0,0.0,0.0,0.0,0.0,0.0,0.0,-0.00020862082573780416,2.87891832579934e-05,-2.3807248859530894e-06,1.8951265435385167e-05,-3.509391732964273e-06,-1.4241536456793824e-06,-5.3914394666509935e-06,0.0005698865999842325,0.0011883113597585641,-0.000674179022564783,-0.00010313787999547925,-0.0002070692416961997,-0.0002649618975624849,-0.0018527351885560064,0.17287558317184448,11.949304580688477,-1.2671844959259033,-21.693452835083008,-0.3912253975868225,-2.5143465995788574,0.22830526530742645,0
62,0.305034875869751,-0.17287558317184448,-11.949304580688477,1.2671844959259033,21.693452835083008,0.3912253975868225,2.5143465995788574,-0.22830526530742645,0.0,0.0,0.0,0.0,0.0,0.0,0.0,-0.18033025059672203,0.2873759723763288,0.09968965032578755,0.41859577765787576,-0.14073941973144785,0.12191656991015798,-0.20703772103978418,0.17308885844481992,-0.48754903601481125,-0.11146872000407541,-1.946399137614066,0.13360941129922865,2.5955517839325797,0.9452499504006571,0.1728802376190821,-0.48752024683155326,-0.11147110072896137,-1.9463801863486305,0.1336059019074957,2.595550359778934,0.9452445589611904,-0.0005698865999842325,-0.0011883113597585641,0.000674179022564783,0.00010313787999547925,0.0002070692416961997,0.0002649618975624849,0.0018527351885560064,0.0,0.0,0.0,0.0,0.0,0.0,0.0,-0.00020862082573780416,2.87891832579934e-05,-2.3807248859530894e-06,1.8951265435385167e-05,-3.509391732964273e-06,-1.4241536456793824e-06,-5.3914394666509935e-06,0.0005698865999842325,0.0011883113597585641,-0.000674179022564783,-0.00010313787999547925,-0.0002070692416961997,-0.0002649618975624849,-0.0018527351885560064,0.17287558317184448,11.949304580688477,-1.2671844959259033,-21.693452835083008,-0.3912253975868225,-2.5143465995788574,0.22830526530742645,0
63,0.3099968433380127,-0.17287558317184448,-11.973108291625977,1.2909882068634033,21.693452835083008,0.3857322335243225,2.5207552909851074,-0.19351522624492645,0.0,0.0,0.0,0.0,0.0,0.0,0.0,-0.17492395125783247,0.2833698364462041,0.11277143325189952,0.4281152678023792,-0.14090700501528275,0.12325592726313514,-0.20659609426660658,0.17308704480417014,-0.48754736656054554,-0.1114696801513956,-1.946399137579073,0.13361002116324616,2.595551071855757,0.9452460848407613,0.1728802376190821,-0.48752024683155326,-0.11147110072896137,-1.9463801863486305,0.1336059019074957,2.595550359778934,0.9452445589611904,-0.0001382673759737066,0.00037923038694135123,0.00029096686577681415,0.000787644823671237,0.00042271673326016,-0.00016765319595061088,-0.0004570543994003835,0.0,0.0,0.0,0.0,0.0,0.0,0.0,-0.00020680718508803153,2.7119728992275327e-05,-1.420577565761083e-06,1.89512304424877e-05,-4.1192557504732275e-06,-7.120768228396912e-07,-1.5258795709183204e-06,0.0001382673759737066,-0.00037923038694135123,-0.00029096686577681415,-0.000787644823671237,-0.00042271673326016,0.00016765319595061088,0.0004570543994003835,0.17287558317184448,11.973108291625977,-1.2909882068634033,-21.693452835083008,-0.3857322335243225,-2.5207552909851074,0.19351522624492645,0
64,0.3150348663330078,-0.17287558317184448,-11.973108291625977,1.2909882068634033,21.693452835083008,0.3857322335243225,2.5207552909851074,-0.19351522624492645,0.0,0.0,0.0,0.0,0.0,0.0,0.0,-0.17492395125783247,0.2833698364462041,0.11277143325189952,0.4281152678023792,-0.14090700501528275,0.12325592726313514,-0.20659609426660658,0.17308704480417014,-0.48754736656054554,-0.1114696801513956,-1.946399137579073,0.13361002116324616,2.595551071855757,0.9452460848407613,0.1728802376190821,-0.48752024683155326,-0.11147110072896137,-1.9463801863486305,0.1336059019074957,2.595550359778934,0.9452445589611904,-0.0001382673759737066,0.00037923038694135123,0.00029096686577681415,0.000787644823671237,0.00042271673326016,-0.00016765319595061088,-0.0004570543994003835,0.0,0.0,0.0,0.0,0.0,0.0,0.0,-0.00020680718508803153,2.7119728992275327e-05,-1.420577565761083e-06,1.89512304424877e-05,-4.1192557504732275e-06,-7.120768228396912e-07,-1.5258795709183204e-06,0.0001382673759737066,-0.00037923038694135123,-0.00029096686577681415,-0.000787644823671237,-0.00042271673326016,0.00016765319595061088,0.0004570543994003835,0.17287558317184448,11.973108291625977,-1.2909882068634033,-21.693452835083008,-0.3857322335243225,-2.5207552909851074,0.19351522624492645,0
65,0.3199939727783203,-0.17287558317184448,-12.024682998657227,1.2909882068634033,21.717256546020508,0.3857322335243225,2.5143465995788574,-0.20724813640117645,0.0,0.0,0.0,0.0,0.0,0.0,0.0,-0.18456254682343368,0.2769247895318883,0.09853140219290508,0.43864997589579996,-0.14005261107317496,0.12415972798651465,-0.20705983714394163,0.17308979065229718,-0.4875437472828647,-0.1114703641290813,-1.9464008080499209,0.1336100216507884,2.5955517839325797,0.9452476107196676,0.1728802376190821,-0.48752024683155326,-0.11147110072896137,-1.9463801863486305,0.1336059019074957,2.595550359778934,0.9452445589611904,-0.0007439264374103087,0.0007894144277066215,2.7692394721275896e-05,0.0002073834235267721,0.0002291940294902688,0.0003892503881369559,0.00014512304911690294,0.0,0.0,0.0,0.0,0.0,0.0,0.0,-0.0002095530332150708,2.3500451311442294e-05,-7.36599880063471e-07,2.0621701290357564e-05,-4.119743292702038e-06,-1.4241536456793824e-06,-3.051758477146116e-06,0.0007439264374103087,-0.0007894144277066215,-2.7692394721275896e-05,-0.0002073834235267721,-0.0002291940294902688,-0.0003892503881369559,-0.00014512304911690294,0.17287558317184448,12.024682998657227,-1.2909882068634033,-21.717256546020508,-0.3857322335243225,-2.5143465995788574,0.20724813640117645,0
66,0.3249952793121338,-0.17287558317184448,-12.024682998657227,1.2909882068634033,21.717256546020508,0.3857322335243225,2.5143465995788574,-0.20724813640117645,0.0,0.0,0.0,0.0,0.0,0.0,0.0,-0.18456254682343368,0.2769247895318883,0.09853140219290508,0.43864997589579996,-0.14005261107317496,0.12415972798651465,-0.20705983714394163,0.17308979065229718,-0.4875437472828647,-0.1114703641290813,-1.9464008080499209,0.1336100216507884,2.5955517839325797,0.9452476107196676,0.1728802376190821,-0.48752024683155326,-0.11147110072896137,-1.9463801863486305,0.1336059019074957,2.595550359778934,0.9452445589611904,-0.0007439264374103087,0.0007894144277066215,2.7692394721275896e-05,0.0002073834235267721,0.0002291940294902688,0.0003892503881369559,0.00014512304911690294,0.0,0.0,0.0,0.0,0.0,0.0,0.0,-0.0002095530332150708,2.3500451311442294e-05,-7.36599880063471e-07,2.0621701290357564e-05,-4.119743292702038e-06,-1.4241536456793824e-06,-3.051758477146116e-06,0.0007439264374103087,-0.0007894144277066215,-2.7692394721275896e-05,-0.0002073834235267721,-0.0002291940294902688,-0.0003892503881369559,-0.00014512304911690294,0.17287558317184448,12.024682998657227,-1.2909882068634033,-21.717256546020508,-0.3857322335243225,-2.5143465995788574,0.20724813640117645,0
67,0.3299996852874756,-0.17287558317184448,-12.072290420532227,1.3147919178009033,21.768831253051758,0.3976340889930725,2.5271639823913574,-0.23471395671367645,0.0,0.0,0.0,0.0,0.0,0.0,0.0,-0.1820970154260768,0.26858129591932167,0.10566230568806025,0.4460268682884375,-0.14076173913508275,0.12505240448105223,-0.2087299538063408,0.17308986933279288,-0.48754040641115415,-0.11147205795278722,-1.9464044273276075,0.133608580748976,2.595550359778934,0.94525066247748,0.1728802376190821,-0.48752024683155326,-0.11147110072896137,-1.9463801863486305,0.1336059019074957,2.595550359778934,0.9452445589611904,-0.000638618088466698,-0.0003063003823295744,-0.0005489197830122368,-0.001130929612711804,-0.0002325960133994753,-8.350706004636271e-05,0.0013015831851370314,0.0,0.0,0.0,0.0,0.0,0.0,0.0,-0.00020963171371077283,2.015957960088688e-05,9.572238258565013e-07,2.4240978977019267e-05,-2.6788414803080585e-06,0.0,-6.103516289601707e-06,0.000638618088466698,0.0003063003823295744,0.0005489197830122368,0.001130929612711804,0.0002325960133994753,8.350706004636271e-05,-0.0013015831851370314,0.17287558317184448,12.072290420532227,-1.3147919178009033,-21.768831253051758,-0.3976340889930725,-2.5271639823913574,0.23471395671367645,0
68,0.33499956130981445,-0.17287558317184448,-12.072290420532227,1.3147919178009033,21.768831253051758,0.3976340889930725,2.5271639823913574,-0.23471395671367645,0.0,0.0,0.0,0.0,0.0,0.0,0.0,-0.1820970154260768,0.26858129591932167,0.10566230568806025,0.4460268682884375,-0.14076173913508275,0.12505240448105223,-0.2087299538063408,0.17308986933279288,-0.48754040641115415,-0.11147205795278722,-1.9464044273276075,0.133608580748976,2.595550359778934,0.94525066247748,0.1728802376190821,-0.48752024683155326,-0.11147110072896137,-1.9463801863486305,0.1336059019074957,2.595550359778934,0.9452445589611904,-0.000638618088466698,-0.0003063003823295744,-0.0005489197830122368,-0.001130929612711804,-0.0002325960133994753,-8.350706004636271e-05,0.0013015831851370314,0.0,0.0,0.0,0.0,0.0,0.0,0.0,-0.00020963171371077283,2.015957960088688e-05,9.572238258565013e-07,2.4240978977019267e-05,-2.6788414803080585e-06,0.0,-6.103516289601707e-06,0.000638618088466698,0.0003063003823295744,0.0005489197830122368,0.001130929612711804,0.0002325960133994753,8.350706004636271e-05,-0.0013015831851370314,0.17287558317184448,12.072290420532227,-1.3147919178009033,-21.768831253051758,-0.3976340889930725,-2.5271639823913574,0.23471395671367645,0
69,0.34003257751464844,-0.17287558317184448,-12.072290420532227,1.3147919178009033,21.768831253051758,0.3976340889930725,2.5271639823913574,-0.23471395671367645,0.0,0.0,0.0,0.0,0.0,0.0,0.0,-0.1820970154260768,0.26858129591932167,0.10566230568806025,0.4460268682884375,-0.14076173913508275,0.12505240448105223,-0.2087299538063408,0.17308986933279288,-0.48754040641115415,-0.11147205795278722,-1.9464044273276075,0.133608580748976,2.595550359778934,0.94525066247748,0.1728802376190821,-0.48752024683155326,-0.11147110072896137,-1.9463801863486305,0.1336059019074957,2.595550359778934,0.9452445589611904,-0.000638618088466698,-0.0003063003823295744,-0.0005489197830122368,-0.001130929612711804,-0.0002325960133994753,-8.350706004636271e-05,0.0013015831851370314,0.0,0.0,0.0,0.0,0.0,0.0,0.0,-0.00020963171371077283,2.015957960088688e-05,9.572238258565013e-07,2.4240978977019267e-05,-2.6788414803080585e-06,0.0,-6.103516289601707e-06,0.000638618088466698,0.0003063003823295744,0.0005489197830122368,0.001130929612711804,0.0002325960133994753,8.350706004636271e-05,-0.0013015831851370314,0.17287558317184448,12.072290420532227,-1.3147919178009033,-21.768831253051758,-0.3976340889930725,-2.5271639823913574,0.23471395671367645,0
70,0.34499621391296387,-0.17287558317184448,-12.072290420532227,1.3147919178009033,21.768831253051758,0.3976340889930725,2.5271639823913574,-0.23471395671367645,0.0,0.0,0.0,0.0,0.0,0.0,0.0,-0.1820970154260768,0.26858129591932167,0.10566230568806025,0.4460268682884375,-0.14076173913508275,0.12505240448105223,-0.2087299538063408,0.17308986933279288,-0.48754040641115415,-0.11147205795278722,-1.9464044273276075,0.133608580748976,2.595550359778934,0.94525066247748,0.1728802376190821,-0.48752024683155326,-0.11147110072896137,-1.9463801863486305,0.1336059019074957,2.595550359778934,0.9452445589611904,-0.000638618088466698,-0.0003063003823295744,-0.0005489197830122368,-0.001130929612711804,-0.0002325960133994753,-8.350706004636271e-05,0.0013015831851370314,0.0,0.0,0.0,0.0,0.0,0.0,0.0,-0.00020963171371077283,2.015957960088688e-05,9.572238258565013e-07,2.4240978977019267e-05,-2.6788414803080585e-06,0.0,-6.103516289601707e-06,0.000638618088466698,0.0003063003823295744,0.0005489197830122368,0.001130929612711804,0.0002325960133994753,8.350706004636271e-05,-0.0013015831851370314,0.17287558317184448,12.072290420532227,-1.3147919178009033,-21.768831253051758,-0.3976340889930725,-2.5271639823913574,0.23471395671367645,0
71,0.34999561309814453,-0.17287558317184448,-12.072290420532227,1.3147919178009033,21.768831253051758,0.3976340889930725,2.5271639823913574,-0.23471395671367645,0.0,0.0,0.0,0.0,0.0,0.0,0.0,-0.1820970154260768,0.26858129591932167,0.10566230568806025,0.4460268682884375,-0.14076173913508275,0.12505240448105223,-0.2087299538063408,0.17308986933279288,-0.48754040641115415,-0.11147205795278722,-1.9464044273276075,0.133608580748976,2.595550359778934,0.94525066247748,0.1728802376190821,-0.48752024683155326,-0.11147110072896137,-1.9463801863486305,0.1336059019074957,2.595550359778934,0.9452445589611904,-0.000638618088466698,-0.0003063003823295744,-0.0005489197830122368,-0.001130929612711804,-0.0002325960133994753,-8.350706004636271e-05,0.0013015831851370314,0.0,0.0,0.0,0.0,0.0,0.0,0.0,-0.00020963171371077283,2.015957960088688e-05,9.572238258565013e-07,2.4240978977019267e-05,-2.6788414803080585e-06,0.0,-6.103516289601707e-06,0.000638618088466698,0.0003063003823295744,0.0005489197830122368,0.001130929612711804,0.0002325960133994753,8.350706004636271e-05,-0.0013015831851370314,0.17287558317184448,12.072290420532227,-1.3147919178009033,-21.768831253051758,-0.3976340889930725,-2.5271639823913574,0.23471395671367645,0
72,0.35500192642211914,-0.14510458707809448,-12.100061416625977,1.3147919178009033,21.741060256958008,0.3857322335243225,2.5207552909851074,-0.17978231608867645,0.0,0.0,0.0,0.0,0.0,0.0,0.0,-0.1777328306222549,0.2870249552310128,0.1124169038083341,0.4314281130725665,-0.14129919232693772,0.12294191579737312,-0.20979536993304543,0.17308486152115785,-0.48753845658817657,-0.11147206087591795,-1.9464024784857765,0.1336089553892547,2.595551071855757,0.9452442057491452,0.1728802376190821,-0.48752024683155326,-0.11147110072896137,-1.9463801863486305,0.1336059019074957,2.595550359778934,0.9452445589611904,-0.0003643915490040409,0.0001976327781963517,-7.23246053279937e-06,-0.0007324194024032895,0.00018860591749293173,7.080219894990723e-05,-0.0008523006369679143,0.0,0.0,0.0,0.0,0.0,0.0,0.0,-0.00020462390207573455,1.8209756623310813e-05,9.60146956580088e-07,2.2292137145996094e-05,-3.0534817590244234e-06,-7.120768228396912e-07,3.5321204516769455e-07,0.0003643915490040409,-0.0001976327781963517,7.23246053279937e-06,0.0007324194024032895,-0.00018860591749293173,-7.080219894990723e-05,0.0008523006369679143,0.14510458707809448,12.100061416625977,-1.3147919178009033,-21.741060256958008,-0.3857322335243225,-2.5207552909851074,0.17978231608867645,0
73,0.35500192642211914,-0.14510458707809448,-12.100061416625977,1.3147919178009033,21.741060256958008,0.3857322335243225,2.5207552909851074,-0.17978231608867645,0.0,0.0,0.0,0.0,0.0,0.0,0.0,-0.1777328306222549,0.2870249552310128,0.1124169038083341,0.4314281130725665,-0.14129919232693772,0.12294191579737312,-0.20979536993304543,0.17308486152115785,-0.48753845658817657,-0.11147206087591795,-1.9464024784857765,0.1336089553892547,2.595551071855757,0.9452442057491452,0.1728802376190821,-0.48752024683155326,-0.11147110072896137,-1.9463801863486305,0.1336059019074957,2.595550359778934,0.9452445589611904,-0.0003643915490040409,0.0001976327781963517,-7.23246053279937e-06,-0.0007324194024032895,0.00018860591749293173,7.080219894990723e-05,-0.0008523006369679143,0.0,0.0,0.0,0.0,0.0,0.0,0.0,-0.00020462390207573455,1.8209756623310813e-05,9.60146956580088e-07,2.2292137145996094e-05,-3.0534817590244234e-06,-7.120768228396912e-07,3.5321204516769455e-07,0.0003643915490040409,-0.0001976327781963517,7.23246053279937e-06,0.0007324194024032895,-0.00018860591749293173,-7.080219894990723e-05,0.0008523006369679143,0.14510458707809448,12.100061416625977,-1.3147919178009033,-21.741060256958008,-0.3857322335243225,-2.5207552909851074,0.17978231608867645,0
74,0.36500000953674316,-0.14510458707809448,-12.072290420532227,1.2909882068634033,21.717256546020508,0.3976340889930725,2.5271639823913574,-0.22830526530742645,0.0,0.0,0.0,0.0,0.0,0.0,0.0,-0.1810727827705472,0.30245631655629684,0.10434003330563776,0.41763313379247885,-0.1410925003646164,0.12127973577290233,-0.20956647777627513,0.17308508734623113,-0.4875404064111486,-0.11147039044007918,-1.946400808049921,0.13360869921638666,2.595550359778934,0.9452499373167109,0.1728802376190821,-0.48752024683155326,-0.11147110072896137,-1.9463801863486305,0.1336059019074957,2.595550359778934,0.9452445589611904,-0.0007306532591810616,0.0007932383717777682,0.000308014786769145,-0.00013587164206327212,-2.5199385242996728e-05,-4.8736248254089854e-05,0.0015406271275421705,0.0,0.0,0.0,0.0,0.0,0.0,0.0,-0.00020484972714901462,2.0159579595335764e-05,-7.102888821830522e-07,2.0621701290579608e-05,-2.7973088909671873e-06,0.0,-5.378355520502254e-06,0.0007306532591810616,-0.0007932383717777682,-0.000308014786769145,0.00013587164206327212,2.5199385242996728e-05,4.8736248254089854e-05,-0.0015406271275421705,0.14510458707809448,12.072290420532227,-1.2909882068634033,-21.717256546020508,-0.3976340889930725,-2.5271639823913574,0.22830526530742645,0
75,0.37000036239624023,-0.14510458707809448,-12.072290420532227,1.2909882068634033,21.717256546020508,0.3976340889930725,2.5271639823913574,-0.22830526530742645,0.0,0.0,0.0,0.0,0.0,0.0,0.0,-0.1810727827705472,0.30245631655629684,0.10434003330563776,0.41763313379247885,-0.1410925003646164,0.12127973577290233,-0.20956647777627513,0.17308508734623113,-0.4875404064111486,-0.11147039044007918,-1.946400808049921,0.13360869921638666,2.595550359778934,0.9452499373167109,0.1728802376190821,-0.48752024683155326,-0.11147110072896137,-1.9463801863486305,0.1336059019074957,2.595550359778934,0.9452445589611904,-0.0007306532591810616,0.0007932383717777682,0.000308014786769145,-0.00013587164206327212,-2.5199385242996728e-05,-4.8736248254089854e-05,0.0015406271275421705,0.0,0.0,0.0,0.0,0.0,0.0,0.0,-0.00020484972714901462,2.0159579595335764e-05,-7.102888821830522e-07,2.0621701290579608e-05,-2.7973088909671873e-06,0.0,-5.378355520502254e-06,0.0007306532591810616,-0.0007932383717777682,-0.000308014786769145,0.00013587164206327212,2.5199385242996728e-05,4.8736248254089854e-05,-0.0015406271275421705,0.14510458707809448,12.072290420532227,-1.2909882068634033,-21.717256546020508,-0.3976340889930725,-2.5271639823913574,0.22830526530742645,0
76,0.37500524520874023,-0.17287558317184448,-12.000879287719727,1.3425629138946533,21.717256546020508,0.3912253975868225,2.5271639823913574,-0.19351522624492645,0.0,0.0,0.0,0.0,0.0,0.0,0.0,-0.1736148269137643,0.28716943094386177,0.11049696210291658,0.4242365395660141,-0.14102801890049482,0.12260659183199289,-0.20861555493204928,0.17308672890982446,-0.48754541771871995,-0.11147400679476689,-1.946400808049921,0.13360941129922863,2.595550359778934,0.9452460848406875,0.1728802376190821,-0.48752024683155326,-0.11147110072896137,-1.9463801863486305,0.1336059019074957,2.595550359778934,0.9452445589611904,-0.00020014735555428634,-0.0005464720293653334,-0.0007362759587622779,-0.0002158126739630055,0.00013928796724031604,-0.0002752894618518177,5.089101007509735e-05,0.0,0.0,0.0,0.0,0.0,0.0,0.0,-0.00020649129074234995,2.5170887166692246e-05,2.90606580552466e-06,2.0621701290579608e-05,-3.5093917329365176e-06,0.0,-1.5258794970884892e-06,0.00020014735555428634,0.0005464720293653334,0.0007362759587622779,0.0002158126739630055,-0.00013928796724031604,0.0002752894618518177,-5.089101007509735e-05,0.17287558317184448,12.000879287719727,-1.3425629138946533,-21.717256546020508,-0.3912253975868225,-2.5271639823913574,0.19351522624492645,0
77,0.37999534606933594,-0.17287558317184448,-12.000879287719727,1.3425629138946533,21.717256546020508,0.3912253975868225,2.5271639823913574,-0.19351522624492645,0.0,0.0,0.0,0.0,0.0,0.0,0.0,-0.1736148269137643,0.28716943094386177,0.11049696210291658,0.4242365395660141,-0.14102801890049482,0.12260659183199289,-0.20861555493204928,0.17308672890982446,-0.48754541771871995,-0.11147400679476689,-1.946400808049921,0.13360941129922863,2.595550359778934,0.9452460848406875,0.1728802376190821,-0.48752024683155326,-0.11147110072896137,-1.9463801863486305,0.1336059019074957,2.595550359778934,0.9452445589611904,-0.00020014735555428634,-0.0005464720293653334,-0.0007362759587622779,-0.0002158126739630055,0.00013928796724031604,-0.0002752894618518177,5.089101007509735e-05,0.0,0.0,0.0,0.0,0.0,0.0,0.0,-0.00020649129074234995,2.5170887166692246e-05,2.90606580552466e-06,2.0621701290579608e-05,-3.5093917329365176e-06,0.0,-1.5258794970884892e-06,0.00020014735555428634,0.0005464720293653334,0.0007362759587622779,0.0002158126739630055,-0.00013928796724031604,0.0002752894618518177,-5.089101007509735e-05,0.17287558317184448,12.000879287719727,-1.3425629138946533,-21.717256546020508,-0.3912253975868225,-2.5271639823913574,0.19351522624492645,0
78,0.3849971294403076,-0.22445029020309448,-12.024682998657227,1.2909882068634033,21.717256546020508,0.3912253975868225,2.5143465995788574,-0.21457235515117645,0.0,0.0,0.0,0.0,0.0,0.0,0.0,-0.18075121835125024,0.275391367989294,0.10179443115881036,0.42871540884405945,-0.14024333168658493,0.1233308183648148,-0.20733231889856726,0.17309325541835452,-0.4875435088642856,-0.11147039044007369,-1.946400808049921,0.13360941129922865,2.5955517839325797,0.9452484245217508,0.1728802376190821,-0.48752024683155326,-0.11147110072896137,-1.9463801863486305,0.1336059019074957,2.595550359778934,0.9452445589611904,0.0004888824497863184,-0.0004085430670759538,0.0002166965392231853,-0.00048289028914468766,5.6030612537056644e-05,0.0001234427859224667,0.0007002250681117174,0.0,0.0,0.0,0.0,0.0,0.0,0.0,-0.00021301779927240805,2.326203273234073e-05,-7.102888876786562e-07,2.0621701290579608e-05,-3.509391732964273e-06,-1.4241536456793824e-06,-3.865560560423198e-06,-0.0004888824497863184,0.0004085430670759538,-0.0002166965392231853,0.00048289028914468766,-5.6030612537056644e-05,-0.0001234427859224667,-0.0007002250681117174,0.22445029020309448,12.024682998657227,-1.2909882068634033,-21.717256546020508,-0.3912253975868225,-2.5143465995788574,0.21457235515117645,0
79,0.3900034427642822,-0.22445029020309448,-12.024682998657227,1.2909882068634033,21.717256546020508,0.3912253975868225,2.5143465995788574,-0.21457235515117645,0.0,0.0,0.0,0.0,0.0,0.0,0.0,-0.18075121835125024,0.275391367989294,0.10179443115881036,0.42871540884405945,-0.14024333168658493,0.1233308183648148,-0.20733231889856726,0.17309325541835452,-0.4875435088642856,-0.11147039044007369,-1.946400808049921,0.13360941129922865,2.5955517839325797,0.9452484245217508,0.1728802376190821,-0.48752024683155326,-0.11147110072896137,-1.9463801863486305,0.1336059019074957,2.595550359778934,0.9452445589611904,0.0004888824497863184,-0.0004085430670759538,0.0002166965392231853,-0.00048289028914468766,5.6030612537056644e-05,0.0001234427859224667,0.0007002250681117174,0.0,0.0,0.0,0.0,0.0,0.0,0.0,-0.00021301779927240805,2.326203273234073e-05,-7.102888876786562e-07,2.0621701290579608e-05,-3.509391732964273e-06,-1.4241536456793824e-06,-3.865560560423198e-06,-0.0004888824497863184,0.0004085430670759538,-0.0002166965392231853,0.00048289028914468766,-5.6030612537056644e-05,-0.0001234427859224667,-0.0007002250681117174,0.22445029020309448,12.024682998657227,-1.2909882068634033,-21.717256546020508,-0.3912253975868225,-2.5143465995788574,0.21457235515117645,0
