rezayati/contactInterpretation/dataset/franka_main/labeled_data/link2/f1_8.csv
index,time,tau_J0,tau_J1,tau_J2,tau_J3,tau_J4,tau_J5,tau_J6,tau_J_d0,tau_J_d1,tau_J_d2,tau_J_d3,tau_J_d4,tau_J_d5,tau_J_d6,tau_ext0,tau_ext1,tau_ext2,tau_ext3,tau_ext4,tau_ext5,tau_ext6,q0,q1,q2,q3,q4,q5,q6,q_d0,q_d1,q_d2,q_d3,q_d4,q_d5,q_d6,dq0,dq1,dq2,dq3,dq4,dq5,dq6,dq_d0,dq_d1,dq_d2,dq_d3,dq_d4,dq_d5,dq_d6,e0,e1,e2,e3,e4,e5,e6,de0,de1,de2,de3,de4,de5,de6,etau_J0,etau_J1,etau_J2,etau_J3,etau_J4,etau_J5,etau_J6,label
1,0.0,-0.3514034152030945,-22.672876358032227,-0.09756157547235489,14.230989456176758,0.1293845772743225,2.1655306816101074,-0.26217979192733765,0.0,0.0,0.0,0.0,0.0,0.0,0.0,-0.3365260803350512,0.13077421906364348,-0.2270873952625903,0.35270038784364643,-0.10912709230034356,-0.016992560643027572,-0.23830863371000863,1.6755248143840253,0.05213258112575103,0.029973802430849322,-2.752411570074825,0.03425079934974348,2.766364611168666,0.7691623412701818,1.6754973547542302,0.052104326824870026,0.029969505109285054,-2.752394845125968,0.0342448039870148,2.7663679543071322,0.7691630533470046,0.0003042760064377501,0.0007258496524188625,-0.001248636059592742,-0.0003413629749983283,-0.00022849060391743727,5.708071071304851e-05,0.0010782720417238172,0.0,0.0,0.0,0.0,0.0,0.0,0.0,-2.7459629795112406e-05,-2.8254300881006e-05,-4.297321564268597e-06,1.6724948856960964e-05,-5.995362728682119e-06,3.3431384660609353e-06,7.120768228396912e-07,-0.0003042760064377501,-0.0007258496524188625,0.001248636059592742,0.0003413629749983283,0.00022849060391743727,-5.708071071304851e-05,-0.0010782720417238172,0.3514034152030945,22.672876358032227,0.09756157547235489,-14.230989456176758,-0.1293845772743225,-2.1655306816101074,0.26217979192733765,0
2,0.00500035285949707,-0.3514034152030945,-22.672876358032227,-0.09756157547235489,14.230989456176758,0.1293845772743225,2.1655306816101074,-0.26217979192733765,0.0,0.0,0.0,0.0,0.0,0.0,0.0,-0.3365260803350512,0.13077421906364348,-0.2270873952625903,0.35270038784364643,-0.10912709230034356,-0.016992560643027572,-0.23830863371000863,1.6755248143840253,0.05213258112575103,0.029973802430849322,-2.752411570074825,0.03425079934974348,2.766364611168666,0.7691623412701818,1.6754973547542302,0.052104326824870026,0.029969505109285054,-2.752394845125968,0.0342448039870148,2.7663679543071322,0.7691630533470046,0.0003042760064377501,0.0007258496524188625,-0.001248636059592742,-0.0003413629749983283,-0.00022849060391743727,5.708071071304851e-05,0.0010782720417238172,0.0,0.0,0.0,0.0,0.0,0.0,0.0,-2.7459629795112406e-05,-2.8254300881006e-05,-4.297321564268597e-06,1.6724948856960964e-05,-5.995362728682119e-06,3.3431384660609353e-06,7.120768228396912e-07,-0.0003042760064377501,-0.0007258496524188625,0.001248636059592742,0.0003413629749983283,0.00022849060391743727,-5.708071071304851e-05,-0.0010782720417238172,0.3514034152030945,22.672876358032227,0.09756157547235489,-14.230989456176758,-0.1293845772743225,-2.1655306816101074,0.26217979192733765,0
3,0.009998559951782227,-0.3236324191093445,-22.672876358032227,-0.1491362750530243,14.179414749145508,0.12389141321182251,2.1719393730163574,-0.26217979192733765,0.0,0.0,0.0,0.0,0.0,0.0,0.0,-0.33945624842883276,0.1275618783985277,-0.23047184722340222,0.35458755611602727,-0.10870733888597654,-0.01686428461509386,-0.236893000272701,1.6755228655421943,0.05213255478282689,0.029977421708012878,-2.7524071998973203,0.034251532033520354,2.766361335453685,0.7691623412701818,1.6754973547542302,0.052104326824870026,0.029969505109285054,-2.752394845125968,0.0342448039870148,2.7663679543071322,0.7691630533470046,-0.0005541381652824814,-0.0004980848681258257,0.00022134054840108053,0.0009510186668661708,-8.470364779909717e-05,9.146079046444429e-05,0.0008467992640868892,0.0,0.0,0.0,0.0,0.0,0.0,0.0,-2.5510787964089232e-05,-2.8227957956865335e-05,-7.916598727824437e-06,1.2354771352196536e-05,-6.728046505553864e-06,6.618853447104556e-06,7.120768228396912e-07,0.0005541381652824814,0.0004980848681258257,-0.00022134054840108053,-0.0009510186668661708,8.470364779909717e-05,-9.146079046444429e-05,-0.0008467992640868892,0.3236324191093445,22.672876358032227,0.1491362750530243,-14.179414749145508,-0.12389141321182251,-2.1719393730163574,0.26217979192733765,0
4,0.014997482299804688,-0.3236324191093445,-22.672876358032227,-0.1491362750530243,14.179414749145508,0.12389141321182251,2.1719393730163574,-0.26217979192733765,0.0,0.0,0.0,0.0,0.0,0.0,0.0,-0.33945624842883276,0.1275618783985277,-0.23047184722340222,0.35458755611602727,-0.10870733888597654,-0.01686428461509386,-0.236893000272701,1.6755228655421943,0.05213255478282689,0.029977421708012878,-2.7524071998973203,0.034251532033520354,2.766361335453685,0.7691623412701818,1.6754973547542302,0.052104326824870026,0.029969505109285054,-2.752394845125968,0.0342448039870148,2.7663679543071322,0.7691630533470046,-0.0005541381652824814,-0.0004980848681258257,0.00022134054840108053,0.0009510186668661708,-8.470364779909717e-05,9.146079046444429e-05,0.0008467992640868892,0.0,0.0,0.0,0.0,0.0,0.0,0.0,-2.5510787964089232e-05,-2.8227957956865335e-05,-7.916598727824437e-06,1.2354771352196536e-05,-6.728046505553864e-06,6.618853447104556e-06,7.120768228396912e-07,0.0005541381652824814,0.0004980848681258257,-0.00022134054840108053,-0.0009510186668661708,8.470364779909717e-05,-9.146079046444429e-05,-0.0008467992640868892,0.3236324191093445,22.672876358032227,0.1491362750530243,-14.179414749145508,-0.12389141321182251,-2.1719393730163574,0.26217979192733765,0
5,0.019998788833618164,-0.3752071261405945,-22.672876358032227,-0.1729399859905243,14.207185745239258,0.12389141321182251,2.1655306816101074,-0.24844686686992645,0.0,0.0,0.0,0.0,0.0,0.0,0.0,-0.35197772852460374,0.1189915870076216,-0.24171560327910893,0.3556700903320163,-0.1076818523920759,-0.015903293064904046,-0.23842027191949267,1.6755264848198808,0.052134767528778846,0.029979092143868142,-2.7524091487349125,0.034250414636764266,2.7663655572476933,0.7691608153896198,1.6754973547542302,0.052104326824870026,0.029969505109285054,-2.752394845125968,0.0342448039870148,2.7663679543071322,0.7691630533470046,-0.0008760378716118969,-0.0011260773307029018,0.0001148850240253583,0.0005442639814873285,-0.0001386107292872989,-0.0002262511761967325,0.00011907592329595696,0.0,0.0,0.0,0.0,0.0,0.0,0.0,-2.913006565052889e-05,-3.0440703908819755e-05,-9.587034583088266e-06,1.4303608944388202e-05,-5.610649749465679e-06,2.397059438941085e-06,2.2379573848541057e-06,0.0008760378716118969,0.0011260773307029018,-0.0001148850240253583,-0.0005442639814873285,0.0001386107292872989,0.0002262511761967325,-0.00011907592329595696,0.3752071261405945,22.672876358032227,0.1729399859905243,-14.207185745239258,-0.12389141321182251,-2.1655306816101074,0.24844686686992645,0
6,0.025072813034057617,-0.3752071261405945,-22.672876358032227,-0.1729399859905243,14.207185745239258,0.12389141321182251,2.1655306816101074,-0.24844686686992645,0.0,0.0,0.0,0.0,0.0,0.0,0.0,-0.35197772852460374,0.1189915870076216,-0.24171560327910893,0.3556700903320163,-0.1076818523920759,-0.015903293064904046,-0.23842027191949267,1.6755264848198808,0.052134767528778846,0.029979092143868142,-2.7524091487349125,0.034250414636764266,2.7663655572476933,0.7691608153896198,1.6754973547542302,0.052104326824870026,0.029969505109285054,-2.752394845125968,0.0342448039870148,2.7663679543071322,0.7691630533470046,-0.0008760378716118969,-0.0011260773307029018,0.0001148850240253583,0.0005442639814873285,-0.0001386107292872989,-0.0002262511761967325,0.00011907592329595696,0.0,0.0,0.0,0.0,0.0,0.0,0.0,-2.913006565052889e-05,-3.0440703908819755e-05,-9.587034583088266e-06,1.4303608944388202e-05,-5.610649749465679e-06,2.397059438941085e-06,2.2379573848541057e-06,0.0008760378716118969,0.0011260773307029018,-0.0001148850240253583,-0.0005442639814873285,0.0001386107292872989,0.0002262511761967325,-0.00011907592329595696,0.3752071261405945,22.672876358032227,0.1729399859905243,-14.207185745239258,-0.12389141321182251,-2.1655306816101074,0.24844686686992645,0
7,0.030021190643310547,-0.4505855441093445,-22.696680068969727,-0.2007109820842743,14.230989456176758,0.12389141321182251,2.1719393730163574,-0.23471395671367645,0.0,0.0,0.0,0.0,0.0,0.0,0.0,-0.35709203686883445,0.12752302914760696,-0.24266364847534075,0.3476628290666944,-0.10867545618600061,-0.018161926275621798,-0.24116734027738093,1.6755317745334224,0.05213422793750474,0.029981040985699283,-2.7524108192084524,0.034248331506717876,2.7663614569650594,0.7691592895107136,1.6754973547542302,0.052104326824870026,0.029969505109285054,-2.752394845125968,0.0342448039870148,2.7663679543071322,0.7691630533470046,0.0010919698253243008,0.0007025699524975061,-0.00025731165032941974,-0.00029169441666009017,7.00904928614067e-05,-0.00015783562352462968,-0.0007575304607266027,0.0,0.0,0.0,0.0,0.0,0.0,0.0,-3.441977919216299e-05,-2.99011126347129e-05,-1.1535876414229401e-05,1.5974082484326857e-05,-3.52751970307541e-06,6.4973420728087206e-06,3.763836291081901e-06,-0.0010919698253243008,-0.0007025699524975061,0.00025731165032941974,0.00029169441666009017,-7.00904928614067e-05,0.00015783562352462968,0.0007575304607266027,0.4505855441093445,22.696680068969727,0.2007109820842743,-14.230989456176758,-0.12389141321182251,-2.1719393730163574,0.23471395671367645,0
8,0.035024404525756836,-0.4505855441093445,-22.696680068969727,-0.2007109820842743,14.230989456176758,0.12389141321182251,2.1719393730163574,-0.23471395671367645,0.0,0.0,0.0,0.0,0.0,0.0,0.0,-0.35709203686883445,0.12752302914760696,-0.24266364847534075,0.3476628290666944,-0.10867545618600061,-0.018161926275621798,-0.24116734027738093,1.6755317745334224,0.05213422793750474,0.029981040985699283,-2.7524108192084524,0.034248331506717876,2.7663614569650594,0.7691592895107136,1.6754973547542302,0.052104326824870026,0.029969505109285054,-2.752394845125968,0.0342448039870148,2.7663679543071322,0.7691630533470046,0.0010919698253243008,0.0007025699524975061,-0.00025731165032941974,-0.00029169441666009017,7.00904928614067e-05,-0.00015783562352462968,-0.0007575304607266027,0.0,0.0,0.0,0.0,0.0,0.0,0.0,-3.441977919216299e-05,-2.99011126347129e-05,-1.1535876414229401e-05,1.5974082484326857e-05,-3.52751970307541e-06,6.4973420728087206e-06,3.763836291081901e-06,-0.0010919698253243008,-0.0007025699524975061,0.00025731165032941974,0.00029169441666009017,-7.00904928614067e-05,0.00015783562352462968,0.0007575304607266027,0.4505855441093445,22.696680068969727,0.2007109820842743,-14.230989456176758,-0.12389141321182251,-2.1719393730163574,0.23471395671367645,0
9,0.04000973701477051,-0.2998287081718445,-22.672876358032227,-0.1491362750530243,14.230989456176758,0.11748272180557251,2.1783480644226074,-0.22098104655742645,0.0,0.0,0.0,0.0,0.0,0.0,0.0,-0.3544902657095888,0.12083243733781523,-0.23710767660969354,0.3512672956147356,-0.10982819971281294,-0.017914116125803813,-0.24416967449735713,1.6755211951063391,0.0521325544940023,0.029977421708012878,-2.7524130444108397,0.03424900876644511,2.766360954341851,0.7691577636318073,1.6754973547542302,0.052104326824870026,0.029969505109285054,-2.752394845125968,0.0342448039870148,2.7663679543071322,0.7691630533470046,-0.0018613554810627405,0.00023359500865333455,-0.00021297329763747156,-0.000126504776052353,0.00012962200232013616,-0.00042276370416235824,-0.0010655432690121719,0.0,0.0,0.0,0.0,0.0,0.0,0.0,-2.384035210889479e-05,-2.822766913227609e-05,-7.916598727824437e-06,1.81992848715673e-05,-4.204779430312666e-06,6.999965281195841e-06,5.289715197309697e-06,0.0018613554810627405,-0.00023359500865333455,0.00021297329763747156,0.000126504776052353,-0.00012962200232013616,0.00042276370416235824,0.0010655432690121719,0.2998287081718445,22.672876358032227,0.1491362750530243,-14.230989456176758,-0.11748272180557251,-2.1783480644226074,0.22098104655742645,0
10,0.04500246047973633,-0.2998287081718445,-22.672876358032227,-0.1491362750530243,14.230989456176758,0.11748272180557251,2.1783480644226074,-0.22098104655742645,0.0,0.0,0.0,0.0,0.0,0.0,0.0,-0.3544902657095888,0.12083243733781523,-0.23710767660969354,0.3512672956147356,-0.10982819971281294,-0.017914116125803813,-0.24416967449735713,1.6755211951063391,0.0521325544940023,0.029977421708012878,-2.7524130444108397,0.03424900876644511,2.766360954341851,0.7691577636318073,1.6754973547542302,0.052104326824870026,0.029969505109285054,-2.752394845125968,0.0342448039870148,2.7663679543071322,0.7691630533470046,-0.0018613554810627405,0.00023359500865333455,-0.00021297329763747156,-0.000126504776052353,0.00012962200232013616,-0.00042276370416235824,-0.0010655432690121719,0.0,0.0,0.0,0.0,0.0,0.0,0.0,-2.384035210889479e-05,-2.822766913227609e-05,-7.916598727824437e-06,1.81992848715673e-05,-4.204779430312666e-06,6.999965281195841e-06,5.289715197309697e-06,0.0018613554810627405,-0.00023359500865333455,0.00021297329763747156,0.000126504776052353,-0.00012962200232013616,0.00042276370416235824,0.0010655432690121719,0.2998287081718445,22.672876358032227,0.1491362750530243,-14.230989456176758,-0.11748272180557251,-2.1783480644226074,0.22098104655742645,0
11,0.05000448226928711,-0.2720577120780945,-22.672876358032227,-0.1253325641155243,14.230989456176758,0.12389141321182251,2.1655306816101074,-0.22098104655742645,0.0,0.0,0.0,0.0,0.0,0.0,0.0,-0.3505436958645195,0.12191902331444524,-0.23560482293399224,0.35245971776985086,-0.10949403839746544,-0.017796601958113004,-0.24476296455754207,1.6755192462645079,0.052132642147859856,0.029975751272157614,-2.7524108192963834,0.03424725317889053,2.766361464159739,0.7691577636318073,1.6754973547542302,0.052104326824870026,0.029969505109285054,-2.752394845125968,0.0342448039870148,2.7663679543071322,0.7691630533470046,-0.0006672669512414274,0.0002993513915584089,0.00032086657592155865,-0.00022162620947596863,6.011891604072449e-05,0.00013117620825248285,-0.0004384070315471117,0.0,0.0,0.0,0.0,0.0,0.0,0.0,-2.1891510277649573e-05,-2.8315322989830305e-05,-6.246162872560607e-06,1.5974170415322675e-05,-2.4491918757321707e-06,6.490147393289902e-06,5.289715197309697e-06,0.0006672669512414274,-0.0002993513915584089,-0.00032086657592155865,0.00022162620947596863,-6.011891604072449e-05,-0.00013117620825248285,0.0004384070315471117,0.2720577120780945,22.672876358032227,0.1253325641155243,-14.230989456176758,-0.12389141321182251,-2.1655306816101074,0.22098104655742645,0
12,0.05500149726867676,-0.2720577120780945,-22.672876358032227,-0.1253325641155243,14.230989456176758,0.12389141321182251,2.1655306816101074,-0.22098104655742645,0.0,0.0,0.0,0.0,0.0,0.0,0.0,-0.3505436958645195,0.12191902331444524,-0.23560482293399224,0.35245971776985086,-0.10949403839746544,-0.017796601958113004,-0.24476296455754207,1.6755192462645079,0.052132642147859856,0.029975751272157614,-2.7524108192963834,0.03424725317889053,2.766361464159739,0.7691577636318073,1.6754973547542302,0.052104326824870026,0.029969505109285054,-2.752394845125968,0.0342448039870148,2.7663679543071322,0.7691630533470046,-0.0006672669512414274,0.0002993513915584089,0.00032086657592155865,-0.00022162620947596863,6.011891604072449e-05,0.00013117620825248285,-0.0004384070315471117,0.0,0.0,0.0,0.0,0.0,0.0,0.0,-2.1891510277649573e-05,-2.8315322989830305e-05,-6.246162872560607e-06,1.5974170415322675e-05,-2.4491918757321707e-06,6.490147393289902e-06,5.289715197309697e-06,0.0006672669512414274,-0.0002993513915584089,-0.00032086657592155865,0.00022162620947596863,-6.011891604072449e-05,-0.00013117620825248285,0.0004384070315471117,0.2720577120780945,22.672876358032227,0.1253325641155243,-14.230989456176758,-0.12389141321182251,-2.1655306816101074,0.22098104655742645,0
13,0.05999565124511719,-0.2720577120780945,-22.672876358032227,-0.1253325641155243,14.207185745239258,0.1412864327430725,2.1655306816101074,-0.22830526530742645,0.0,0.0,0.0,0.0,0.0,0.0,0.0,-0.33903817338520253,0.13277564210899787,-0.23192773347974038,0.3492700697723091,-0.1089028239690586,-0.018271916031570447,-0.24149893770082453,1.6755192462645079,0.05213258985915573,0.029975751272157614,-2.7524091517873686,0.034246227659370014,2.766362531544975,0.7691585774338906,1.6754973547542302,0.052104326824870026,0.029969505109285054,-2.752394845125968,0.0342448039870148,2.7663679543071322,0.7691630533470046,0.00022976225317281648,0.0005386505503972823,0.0008438433312876591,0.0004485998239770304,-0.0007705333143331096,6.783919316491059e-05,-0.00012828252809014452,0.0,0.0,0.0,0.0,0.0,0.0,0.0,-2.1891510277649573e-05,-2.8263034285706812e-05,-6.246162872560607e-06,1.430666140045389e-05,-1.4236723552135677e-06,5.4227621570923645e-06,4.475913114032615e-06,-0.00022976225317281648,-0.0005386505503972823,-0.0008438433312876591,-0.0004485998239770304,0.0007705333143331096,-6.783919316491059e-05,0.00012828252809014452,0.2720577120780945,22.672876358032227,0.1253325641155243,-14.207185745239258,-0.1412864327430725,-2.1655306816101074,0.22830526530742645,0
14,0.06578683853149414,-0.2720577120780945,-22.672876358032227,-0.1253325641155243,14.207185745239258,0.1412864327430725,2.1655306816101074,-0.22830526530742645,0.0,0.0,0.0,0.0,0.0,0.0,0.0,-0.33903817338520253,0.13277564210899787,-0.23192773347974038,0.3492700697723091,-0.1089028239690586,-0.018271916031570447,-0.24149893770082453,1.6755192462645079,0.05213258985915573,0.029975751272157614,-2.7524091517873686,0.034246227659370014,2.766362531544975,0.7691585774338906,1.6754973547542302,0.052104326824870026,0.029969505109285054,-2.752394845125968,0.0342448039870148,2.7663679543071322,0.7691630533470046,0.00022976225317281648,0.0005386505503972823,0.0008438433312876591,0.0004485998239770304,-0.0007705333143331096,6.783919316491059e-05,-0.00012828252809014452,0.0,0.0,0.0,0.0,0.0,0.0,0.0,-2.1891510277649573e-05,-2.8263034285706812e-05,-6.246162872560607e-06,1.430666140045389e-05,-1.4236723552135677e-06,5.4227621570923645e-06,4.475913114032615e-06,-0.00022976225317281648,-0.0005386505503972823,-0.0008438433312876591,-0.0004485998239770304,0.0007705333143331096,-6.783919316491059e-05,0.00012828252809014452,0.2720577120780945,22.672876358032227,0.1253325641155243,-14.207185745239258,-0.1412864327430725,-2.1655306816101074,0.22830526530742645,0
15,0.07078742980957031,-0.3236324191093445,-22.720483779907227,-0.1491362750530243,14.230989456176758,0.12389141321182251,2.1719393730163574,-0.21457235515117645,0.0,0.0,0.0,0.0,0.0,0.0,0.0,-0.3345686061306244,0.12274157297908006,-0.23202936685465317,0.3580085648387204,-0.10802568888865298,-0.016568347819237137,-0.24007864487529704,1.6755228400323876,0.052136211338446085,0.029977421708012878,-2.7524108191707852,0.034247152497055136,2.7663646446913392,0.7691570515549844,1.6754973547542302,0.052104326824870026,0.029969505109285054,-2.752394845125968,0.0342448039870148,2.7663679543071322,0.7691630533470046,0.00034506135950869096,0.0007213255624486738,0.00030634044719739814,0.00022875406375461719,5.572623969756264e-05,6.586486706748532e-05,-0.0015622521573073638,0.0,0.0,0.0,0.0,0.0,0.0,0.0,-2.5485278157377778e-05,-3.188451357605954e-05,-7.916598727824437e-06,1.5974044817124167e-05,-2.348510040335594e-06,3.3096157929790593e-06,6.00179202026041e-06,-0.00034506135950869096,-0.0007213255624486738,-0.00030634044719739814,-0.00022875406375461719,-5.572623969756264e-05,-6.586486706748532e-05,0.0015622521573073638,0.3236324191093445,22.720483779907227,0.1491362750530243,-14.230989456176758,-0.12389141321182251,-2.1719393730163574,0.21457235515117645,0
16,0.07499504089355469,-0.3236324191093445,-22.720483779907227,-0.1491362750530243,14.230989456176758,0.12389141321182251,2.1719393730163574,-0.21457235515117645,0.0,0.0,0.0,0.0,0.0,0.0,0.0,-0.3345686061306244,0.12274157297908006,-0.23202936685465317,0.3580085648387204,-0.10802568888865298,-0.016568347819237137,-0.24007864487529704,1.6755228400323876,0.052136211338446085,0.029977421708012878,-2.7524108191707852,0.034247152497055136,2.7663646446913392,0.7691570515549844,1.6754973547542302,0.052104326824870026,0.029969505109285054,-2.752394845125968,0.0342448039870148,2.7663679543071322,0.7691630533470046,0.00034506135950869096,0.0007213255624486738,0.00030634044719739814,0.00022875406375461719,5.572623969756264e-05,6.586486706748532e-05,-0.0015622521573073638,0.0,0.0,0.0,0.0,0.0,0.0,0.0,-2.5485278157377778e-05,-3.188451357605954e-05,-7.916598727824437e-06,1.5974044817124167e-05,-2.348510040335594e-06,3.3096157929790593e-06,6.00179202026041e-06,-0.00034506135950869096,-0.0007213255624486738,-0.00030634044719739814,-0.00022875406375461719,-5.572623969756264e-05,-6.586486706748532e-05,0.0015622521573073638,0.3236324191093445,22.720483779907227,0.1491362750530243,-14.230989456176758,-0.12389141321182251,-2.1719393730163574,0.21457235515117645,0
17,0.07999706268310547,-0.3236324191093445,-22.720483779907227,-0.1491362750530243,14.230989456176758,0.12389141321182251,2.1719393730163574,-0.21457235515117645,0.0,0.0,0.0,0.0,0.0,0.0,0.0,-0.3345686061306244,0.12274157297908006,-0.23202936685465317,0.3580085648387204,-0.10802568888865298,-0.016568347819237137,-0.24007864487529704,1.6755228400323876,0.052136211338446085,0.029977421708012878,-2.7524108191707852,0.034247152497055136,2.7663646446913392,0.7691570515549844,1.6754973547542302,0.052104326824870026,0.029969505109285054,-2.752394845125968,0.0342448039870148,2.7663679543071322,0.7691630533470046,0.00034506135950869096,0.0007213255624486738,0.00030634044719739814,0.00022875406375461719,5.572623969756264e-05,6.586486706748532e-05,-0.0015622521573073638,0.0,0.0,0.0,0.0,0.0,0.0,0.0,-2.5485278157377778e-05,-3.188451357605954e-05,-7.916598727824437e-06,1.5974044817124167e-05,-2.348510040335594e-06,3.3096157929790593e-06,6.00179202026041e-06,-0.00034506135950869096,-0.0007213255624486738,-0.00030634044719739814,-0.00022875406375461719,-5.572623969756264e-05,-6.586486706748532e-05,0.0015622521573073638,0.3236324191093445,22.720483779907227,0.1491362750530243,-14.230989456176758,-0.12389141321182251,-2.1719393730163574,0.21457235515117645,0
18,0.08499622344970703,-0.4029781222343445,-22.696680068969727,-0.1729399859905243,14.230989456176758,0.1293845772743225,2.1655306816101074,-0.21457235515117645,0.0,0.0,0.0,0.0,0.0,0.0,0.0,-0.34060513430734535,0.12163519632223817,-0.238154422644289,0.3538555934621723,-0.10737037158262634,-0.016908748313626397,-0.24237570499234917,1.6755284336615677,0.05213425120252614,0.029979092143868142,-2.752410819170768,0.03424735576190328,2.76636558386096,0.7691566983422746,1.6754973547542302,0.052104326824870026,0.029969505109285054,-2.752394845125968,0.0342448039870148,2.7663679543071322,0.7691630533470046,0.00028580091575198423,-0.00019990533667370425,-0.0005425912545822871,-2.2466552411253484e-05,-0.0001776039325870335,0.0001122545831116133,-0.0015767228403836095,0.0,0.0,0.0,0.0,0.0,0.0,0.0,-3.1078907337445116e-05,-2.992437765611533e-05,-9.587034583088266e-06,1.5974044799804688e-05,-2.5517748884762437e-06,2.370446172239582e-06,6.355004730007607e-06,-0.00028580091575198423,0.00019990533667370425,0.0005425912545822871,2.2466552411253484e-05,0.0001776039325870335,-0.0001122545831116133,0.0015767228403836095,0.4029781222343445,22.696680068969727,0.1729399859905243,-14.230989456176758,-0.1293845772743225,-2.1655306816101074,0.21457235515117645,0
19,0.09071516990661621,-0.4029781222343445,-22.696680068969727,-0.1729399859905243,14.230989456176758,0.1293845772743225,2.1655306816101074,-0.21457235515117645,0.0,0.0,0.0,0.0,0.0,0.0,0.0,-0.34060513430734535,0.12163519632223817,-0.238154422644289,0.3538555934621723,-0.10737037158262634,-0.016908748313626397,-0.24237570499234917,1.6755284336615677,0.05213425120252614,0.029979092143868142,-2.752410819170768,0.03424735576190328,2.76636558386096,0.7691566983422746,1.6754973547542302,0.052104326824870026,0.029969505109285054,-2.752394845125968,0.0342448039870148,2.7663679543071322,0.7691630533470046,0.00028580091575198423,-0.00019990533667370425,-0.0005425912545822871,-2.2466552411253484e-05,-0.0001776039325870335,0.0001122545831116133,-0.0015767228403836095,0.0,0.0,0.0,0.0,0.0,0.0,0.0,-3.1078907337445116e-05,-2.992437765611533e-05,-9.587034583088266e-06,1.5974044799804688e-05,-2.5517748884762437e-06,2.370446172239582e-06,6.355004730007607e-06,-0.00028580091575198423,0.00019990533667370425,0.0005425912545822871,2.2466552411253484e-05,0.0001776039325870335,-0.0001122545831116133,0.0015767228403836095,0.4029781222343445,22.696680068969727,0.1729399859905243,-14.230989456176758,-0.1293845772743225,-2.1655306816101074,0.21457235515117645,0
20,0.09519267082214355,-0.4029781222343445,-22.696680068969727,-0.1729399859905243,14.230989456176758,0.1293845772743225,2.1655306816101074,-0.21457235515117645,0.0,0.0,0.0,0.0,0.0,0.0,0.0,-0.34060513430734535,0.12163519632223817,-0.238154422644289,0.3538555934621723,-0.10737037158262634,-0.016908748313626397,-0.24237570499234917,1.6755284336615677,0.05213425120252614,0.029979092143868142,-2.752410819170768,0.03424735576190328,2.76636558386096,0.7691566983422746,1.6754973547542302,0.052104326824870026,0.029969505109285054,-2.752394845125968,0.0342448039870148,2.7663679543071322,0.7691630533470046,0.00028580091575198423,-0.00019990533667370425,-0.0005425912545822871,-2.2466552411253484e-05,-0.0001776039325870335,0.0001122545831116133,-0.0015767228403836095,0.0,0.0,0.0,0.0,0.0,0.0,0.0,-3.1078907337445116e-05,-2.992437765611533e-05,-9.587034583088266e-06,1.5974044799804688e-05,-2.5517748884762437e-06,2.370446172239582e-06,6.355004730007607e-06,-0.00028580091575198423,0.00019990533667370425,0.0005425912545822871,2.2466552411253484e-05,0.0001776039325870335,-0.0001122545831116133,0.0015767228403836095,0.4029781222343445,22.696680068969727,0.1729399859905243,-14.230989456176758,-0.1293845772743225,-2.1655306816101074,0.21457235515117645,0
21,0.10000753402709961,-0.4029781222343445,-22.696680068969727,-0.1729399859905243,14.230989456176758,0.1293845772743225,2.1655306816101074,-0.21457235515117645,0.0,0.0,0.0,0.0,0.0,0.0,0.0,-0.34060513430734535,0.12163519632223817,-0.238154422644289,0.3538555934621723,-0.10737037158262634,-0.016908748313626397,-0.24237570499234917,1.6755284336615677,0.05213425120252614,0.029979092143868142,-2.752410819170768,0.03424735576190328,2.76636558386096,0.7691566983422746,1.6754973547542302,0.052104326824870026,0.029969505109285054,-2.752394845125968,0.0342448039870148,2.7663679543071322,0.7691630533470046,0.00028580091575198423,-0.00019990533667370425,-0.0005425912545822871,-2.2466552411253484e-05,-0.0001776039325870335,0.0001122545831116133,-0.0015767228403836095,0.0,0.0,0.0,0.0,0.0,0.0,0.0,-3.1078907337445116e-05,-2.992437765611533e-05,-9.587034583088266e-06,1.5974044799804688e-05,-2.5517748884762437e-06,2.370446172239582e-06,6.355004730007607e-06,-0.00028580091575198423,0.00019990533667370425,0.0005425912545822871,2.2466552411253484e-05,0.0001776039325870335,-0.0001122545831116133,0.0015767228403836095,0.4029781222343445,22.696680068969727,0.1729399859905243,-14.230989456176758,-0.1293845772743225,-2.1655306816101074,0.21457235515117645,0
22,0.10500192642211914,-0.4267818331718445,-22.672876358032227,-0.2245146930217743,14.254793167114258,0.1293845772743225,2.1719393730163574,-0.21457235515117645,0.0,0.0,0.0,0.0,0.0,0.0,0.0,-0.341645321818277,0.1218418215704457,-0.23122769553810207,0.348518322648218,-0.10874878141574194,-0.01788614499807924,-0.2439236027956821,1.6755301040975672,0.052132659722086756,0.029982711421554547,-2.7524124896443074,0.03424937826507664,2.7663606434615886,0.76915705302471,1.6754973547542302,0.052104326824870026,0.029969505109285054,-2.752394845125968,0.0342448039870148,2.7663679543071322,0.7691630533470046,0.00032356366874834285,-0.0002718202019158329,0.0013227762766340855,-0.001282239205225599,-0.00027397872513294466,-0.00011708854243395505,-0.0016649220383645315,0.0,0.0,0.0,0.0,0.0,0.0,0.0,-3.274934333696855e-05,-2.8332897216730435e-05,-1.3206312269493231e-05,1.7644518339299253e-05,-4.574278061837689e-06,7.310845543617717e-06,6.000322294585914e-06,-0.00032356366874834285,0.0002718202019158329,-0.0013227762766340855,0.001282239205225599,0.00027397872513294466,0.00011708854243395505,0.0016649220383645315,0.4267818331718445,22.672876358032227,0.2245146930217743,-14.254793167114258,-0.1293845772743225,-2.1719393730163574,0.21457235515117645,0
23,0.10994362831115723,-0.4267818331718445,-22.672876358032227,-0.2245146930217743,14.254793167114258,0.1293845772743225,2.1719393730163574,-0.21457235515117645,0.0,0.0,0.0,0.0,0.0,0.0,0.0,-0.341645321818277,0.1218418215704457,-0.23122769553810207,0.348518322648218,-0.10874878141574194,-0.01788614499807924,-0.2439236027956821,1.6755301040975672,0.052132659722086756,0.029982711421554547,-2.7524124896443074,0.03424937826507664,2.7663606434615886,0.76915705302471,1.6754973547542302,0.052104326824870026,0.029969505109285054,-2.752394845125968,0.0342448039870148,2.7663679543071322,0.7691630533470046,0.00032356366874834285,-0.0002718202019158329,0.0013227762766340855,-0.001282239205225599,-0.00027397872513294466,-0.00011708854243395505,-0.0016649220383645315,0.0,0.0,0.0,0.0,0.0,0.0,0.0,-3.274934333696855e-05,-2.8332897216730435e-05,-1.3206312269493231e-05,1.7644518339299253e-05,-4.574278061837689e-06,7.310845543617717e-06,6.000322294585914e-06,-0.00032356366874834285,0.0002718202019158329,-0.0013227762766340855,0.001282239205225599,0.00027397872513294466,0.00011708854243395505,0.0016649220383645315,0.4267818331718445,22.672876358032227,0.2245146930217743,-14.254793167114258,-0.1293845772743225,-2.1719393730163574,0.21457235515117645,0
24,0.11678934097290039,-0.3236324191093445,-22.696680068969727,-0.1491362750530243,14.254793167114258,0.12389141321182251,2.1655306816101074,-0.21457235515117645,0.0,0.0,0.0,0.0,0.0,0.0,0.0,-0.3476643873046118,0.11627352386897734,-0.23168660387889034,0.34958002684144923,-0.10957619717665348,-0.017460932616001606,-0.24413048247633792,1.6755228655421943,0.05213425412433518,0.029977421708012878,-2.75241273685552,0.034251361679629735,2.7663646159354145,0.7691570515549927,1.6754973547542302,0.052104326824870026,0.029969505109285054,-2.752394845125968,0.0342448039870148,2.7663679543071322,0.7691630533470046,-0.0011161303267646849,0.0003654251444579482,-0.0007838945565470719,-0.0007753543042040875,0.00010444549088051765,9.511785672110975e-05,-0.001333917705413505,0.0,0.0,0.0,0.0,0.0,0.0,0.0,-2.5510787964089232e-05,-2.99272994651531e-05,-7.916598727824437e-06,1.789172955168894e-05,-6.55769261493494e-06,3.3383717177315475e-06,6.0017920119337376e-06,0.0011161303267646849,-0.0003654251444579482,0.0007838945565470719,0.0007753543042040875,-0.00010444549088051765,-9.511785672110975e-05,0.001333917705413505,0.3236324191093445,22.696680068969727,0.1491362750530243,-14.254793167114258,-0.12389141321182251,-2.1655306816101074,0.21457235515117645,0
25,0.11999988555908203,-0.3236324191093445,-22.696680068969727,-0.1491362750530243,14.254793167114258,0.12389141321182251,2.1655306816101074,-0.21457235515117645,0.0,0.0,0.0,0.0,0.0,0.0,0.0,-0.3476643873046118,0.11627352386897734,-0.23168660387889034,0.34958002684144923,-0.10957619717665348,-0.017460932616001606,-0.24413048247633792,1.6755228655421943,0.05213425412433518,0.029977421708012878,-2.75241273685552,0.034251361679629735,2.7663646159354145,0.7691570515549927,1.6754973547542302,0.052104326824870026,0.029969505109285054,-2.752394845125968,0.0342448039870148,2.7663679543071322,0.7691630533470046,-0.0011161303267646849,0.0003654251444579482,-0.0007838945565470719,-0.0007753543042040875,0.00010444549088051765,9.511785672110975e-05,-0.001333917705413505,0.0,0.0,0.0,0.0,0.0,0.0,0.0,-2.5510787964089232e-05,-2.99272994651531e-05,-7.916598727824437e-06,1.789172955168894e-05,-6.55769261493494e-06,3.3383717177315475e-06,6.0017920119337376e-06,0.0011161303267646849,-0.0003654251444579482,0.0007838945565470719,0.0007753543042040875,-0.00010444549088051765,-9.511785672110975e-05,0.001333917705413505,0.3236324191093445,22.696680068969727,0.1491362750530243,-14.254793167114258,-0.12389141321182251,-2.1655306816101074,0.21457235515117645,0
26,0.12499761581420898,-0.3752071261405945,-22.672876358032227,-0.1491362750530243,14.230989456176758,0.11748272180557251,2.1783480644226074,-0.22098104655742645,0.0,0.0,0.0,0.0,0.0,0.0,0.0,-0.35335602061889954,0.11450252901822275,-0.23706458124204602,0.349288362956996,-0.10878825397302043,-0.017590126806968715,-0.24301654401633208,1.6755264848198808,0.052132580765052006,0.029977421708012878,-2.7524108191721637,0.0342508241281307,2.7663595761746897,0.7691609822826252,1.6754973547542302,0.052104326824870026,0.029969505109285054,-2.752394845125968,0.0342448039870148,2.7663679543071322,0.7691630533470046,0.0006914416529081257,-0.00022491603350350192,9.893789940217995e-07,-0.0001892401129905165,2.3976768819706465e-05,-0.00035147578520156617,-0.0010546321673817205,0.0,0.0,0.0,0.0,0.0,0.0,0.0,-2.913006565052889e-05,-2.8253940181979798e-05,-7.916598727824437e-06,1.5974046195577074e-05,-6.020141115899158e-06,8.378132442476982e-06,2.071064379438603e-06,-0.0006914416529081257,0.00022491603350350192,-9.893789940217995e-07,0.0001892401129905165,-2.3976768819706465e-05,0.00035147578520156617,0.0010546321673817205,0.3752071261405945,22.672876358032227,0.1491362750530243,-14.230989456176758,-0.11748272180557251,-2.1783480644226074,0.22098104655742645,0
27,0.12999343872070312,-0.3752071261405945,-22.672876358032227,-0.1491362750530243,14.230989456176758,0.11748272180557251,2.1783480644226074,-0.22098104655742645,0.0,0.0,0.0,0.0,0.0,0.0,0.0,-0.35335602061889954,0.11450252901822275,-0.23706458124204602,0.349288362956996,-0.10878825397302043,-0.017590126806968715,-0.24301654401633208,1.6755264848198808,0.052132580765052006,0.029977421708012878,-2.7524108191721637,0.0342508241281307,2.7663595761746897,0.7691609822826252,1.6754973547542302,0.052104326824870026,0.029969505109285054,-2.752394845125968,0.0342448039870148,2.7663679543071322,0.7691630533470046,0.0006914416529081257,-0.00022491603350350192,9.893789940217995e-07,-0.0001892401129905165,2.3976768819706465e-05,-0.00035147578520156617,-0.0010546321673817205,0.0,0.0,0.0,0.0,0.0,0.0,0.0,-2.913006565052889e-05,-2.8253940181979798e-05,-7.916598727824437e-06,1.5974046195577074e-05,-6.020141115899158e-06,8.378132442476982e-06,2.071064379438603e-06,-0.0006914416529081257,0.00022491603350350192,-9.893789940217995e-07,0.0001892401129905165,-2.3976768819706465e-05,0.00035147578520156617,0.0010546321673817205,0.3752071261405945,22.672876358032227,0.1491362750530243,-14.230989456176758,-0.11748272180557251,-2.1783480644226074,0.22098104655742645,0
28,0.13499689102172852,-0.3752071261405945,-22.672876358032227,-0.1253325641155243,14.179414749145508,0.12389141321182251,2.1655306816101074,-0.23471395671367645,0.0,0.0,0.0,0.0,0.0,0.0,0.0,-0.3554089656687135,0.1128092202148185,-0.24002690090656292,0.35237035821562046,-0.10811315030696389,-0.01679890277531763,-0.24281266815612534,1.6755264848198808,0.052132794143940446,0.029975751272157614,-2.7524071998930815,0.03425105752607314,2.766362064522046,0.7691594087381725,1.6754973547542302,0.052104326824870026,0.029969505109285054,-2.752394845125968,0.0342448039870148,2.7663679543071322,0.7691630533470046,0.0008807778893952462,-0.0004129601719812206,-0.0004765918315545057,0.0013060312588449251,7.763908790934133e-05,1.3007649768688491e-05,-0.0005585779013134938,0.0,0.0,0.0,0.0,0.0,0.0,0.0,-2.913006565052889e-05,-2.846731907042016e-05,-6.246162872560607e-06,1.2354767113365028e-05,-6.253539058337365e-06,5.8897850863104395e-06,3.6446088321762105e-06,-0.0008807778893952462,0.0004129601719812206,0.0004765918315545057,-0.0013060312588449251,-7.763908790934133e-05,-1.3007649768688491e-05,0.0005585779013134938,0.3752071261405945,22.672876358032227,0.1253325641155243,-14.179414749145508,-0.12389141321182251,-2.1655306816101074,0.23471395671367645,0
29,0.13999581336975098,-0.3752071261405945,-22.672876358032227,-0.1253325641155243,14.179414749145508,0.12389141321182251,2.1655306816101074,-0.23471395671367645,0.0,0.0,0.0,0.0,0.0,0.0,0.0,-0.3554089656687135,0.1128092202148185,-0.24002690090656292,0.35237035821562046,-0.10811315030696389,-0.01679890277531763,-0.24281266815612534,1.6755264848198808,0.052132794143940446,0.029975751272157614,-2.7524071998930815,0.03425105752607314,2.766362064522046,0.7691594087381725,1.6754973547542302,0.052104326824870026,0.029969505109285054,-2.752394845125968,0.0342448039870148,2.7663679543071322,0.7691630533470046,0.0008807778893952462,-0.0004129601719812206,-0.0004765918315545057,0.0013060312588449251,7.763908790934133e-05,1.3007649768688491e-05,-0.0005585779013134938,0.0,0.0,0.0,0.0,0.0,0.0,0.0,-2.913006565052889e-05,-2.846731907042016e-05,-6.246162872560607e-06,1.2354767113365028e-05,-6.253539058337365e-06,5.8897850863104395e-06,3.6446088321762105e-06,-0.0008807778893952462,0.0004129601719812206,0.0004765918315545057,-0.0013060312588449251,-7.763908790934133e-05,-1.3007649768688491e-05,0.0005585779013134938,0.3752071261405945,22.672876358032227,0.1253325641155243,-14.179414749145508,-0.12389141321182251,-2.1655306816101074,0.23471395671367645,0
30,0.14499735832214355,-0.3236324191093445,-22.672876358032227,-0.1491362750530243,14.207185745239258,0.1412864327430725,2.1719393730163574,-0.22830526530742645,0.0,0.0,0.0,0.0,0.0,0.0,0.0,-0.346720923838414,0.11382104680827038,-0.23322249327326686,0.3525725323708687,-0.10829880271962286,-0.017137669752855973,-0.2430903354331138,1.6755228655421943,0.052133291054923606,0.029977421708012878,-2.752409151787368,0.0342460484577218,2.7663649604859524,0.7691585774345636,1.6754973547542302,0.052104326824870026,0.029969505109285054,-2.752394845125968,0.0342448039870148,2.7663679543071322,0.7691630533470046,0.00033247430098501976,0.00012898076149617385,0.0005239371292156177,0.00042157709025295286,-0.00050631952499368,-0.0001305115109934756,-0.0009958661669888012,0.0,0.0,0.0,0.0,0.0,0.0,0.0,-2.5510787964089232e-05,-2.896423005357973e-05,-7.916598727824437e-06,1.4306661400009801e-05,-1.2444707069986238e-06,2.993821179853029e-06,4.475912441015417e-06,-0.00033247430098501976,-0.00012898076149617385,-0.0005239371292156177,-0.00042157709025295286,0.00050631952499368,0.0001305115109934756,0.0009958661669888012,0.3236324191093445,22.672876358032227,0.1491362750530243,-14.207185745239258,-0.1412864327430725,-2.1719393730163574,0.22830526530742645,0
31,0.1500074863433838,-0.3236324191093445,-22.672876358032227,-0.1491362750530243,14.207185745239258,0.1412864327430725,2.1719393730163574,-0.22830526530742645,0.0,0.0,0.0,0.0,0.0,0.0,0.0,-0.346720923838414,0.11382104680827038,-0.23322249327326686,0.3525725323708687,-0.10829880271962286,-0.017137669752855973,-0.2430903354331138,1.6755228655421943,0.052133291054923606,0.029977421708012878,-2.752409151787368,0.0342460484577218,2.7663649604859524,0.7691585774345636,1.6754973547542302,0.052104326824870026,0.029969505109285054,-2.752394845125968,0.0342448039870148,2.7663679543071322,0.7691630533470046,0.00033247430098501976,0.00012898076149617385,0.0005239371292156177,0.00042157709025295286,-0.00050631952499368,-0.0001305115109934756,-0.0009958661669888012,0.0,0.0,0.0,0.0,0.0,0.0,0.0,-2.5510787964089232e-05,-2.896423005357973e-05,-7.916598727824437e-06,1.4306661400009801e-05,-1.2444707069986238e-06,2.993821179853029e-06,4.475912441015417e-06,-0.00033247430098501976,-0.00012898076149617385,-0.0005239371292156177,-0.00042157709025295286,0.00050631952499368,0.0001305115109934756,0.0009958661669888012,0.3236324191093445,22.672876358032227,0.1491362750530243,-14.207185745239258,-0.1412864327430725,-2.1719393730163574,0.22830526530742645,0
32,0.15500187873840332,-0.3514034152030945,-22.696680068969727,-0.1491362750530243,14.207185745239258,0.1357932686805725,2.1582064628601074,-0.22098104655742645,0.0,0.0,0.0,0.0,0.0,0.0,0.0,-0.34553870297308575,0.11415623121316025,-0.23120752905073638,0.3502750239216234,-0.1076504359173827,-0.01700248163491405,-0.2435020813381367,1.6755248143840253,0.052134227856997194,0.029977421708012878,-2.7524091578922962,0.034247012474761,2.766365299803709,0.7691577636318073,1.6754973547542302,0.052104326824870026,0.029969505109285054,-2.752394845125968,0.0342448039870148,2.7663679543071322,0.7691630533470046,0.0008924413993194213,0.000270142142491781,0.0005895880808748863,0.00014928909326261994,-0.0004352126450063929,0.0004978526343041605,-0.0007070383598386793,0.0,0.0,0.0,0.0,0.0,0.0,0.0,-2.7459629795112406e-05,-2.9901032127167826e-05,-7.916598727824437e-06,1.431276632812839e-05,-2.2084877462011376e-06,2.6545034232938747e-06,5.289715197309697e-06,-0.0008924413993194213,-0.000270142142491781,-0.0005895880808748863,-0.00014928909326261994,0.0004352126450063929,-0.0004978526343041605,0.0007070383598386793,0.3514034152030945,22.696680068969727,0.1491362750530243,-14.207185745239258,-0.1357932686805725,-2.1582064628601074,0.22098104655742645,0
33,0.1600043773651123,-0.3514034152030945,-22.696680068969727,-0.1491362750530243,14.207185745239258,0.1357932686805725,2.1582064628601074,-0.22098104655742645,0.0,0.0,0.0,0.0,0.0,0.0,0.0,-0.34553870297308575,0.11415623121316025,-0.23120752905073638,0.3502750239216234,-0.1076504359173827,-0.01700248163491405,-0.2435020813381367,1.6755248143840253,0.052134227856997194,0.029977421708012878,-2.7524091578922962,0.034247012474761,2.766365299803709,0.7691577636318073,1.6754973547542302,0.052104326824870026,0.029969505109285054,-2.752394845125968,0.0342448039870148,2.7663679543071322,0.7691630533470046,0.0008924413993194213,0.000270142142491781,0.0005895880808748863,0.00014928909326261994,-0.0004352126450063929,0.0004978526343041605,-0.0007070383598386793,0.0,0.0,0.0,0.0,0.0,0.0,0.0,-2.7459629795112406e-05,-2.9901032127167826e-05,-7.916598727824437e-06,1.431276632812839e-05,-2.2084877462011376e-06,2.6545034232938747e-06,5.289715197309697e-06,-0.0008924413993194213,-0.000270142142491781,-0.0005895880808748863,-0.00014928909326261994,0.0004352126450063929,-0.0004978526343041605,0.0007070383598386793,0.3514034152030945,22.696680068969727,0.1491362750530243,-14.207185745239258,-0.1357932686805725,-2.1582064628601074,0.22098104655742645,0
34,0.16579866409301758,-0.2998287081718445,-22.672876358032227,-0.1491362750530243,14.207185745239258,0.11748272180557251,2.1783480644226074,-0.26217979192733765,0.0,0.0,0.0,0.0,0.0,0.0,0.0,-0.33767288127804723,0.10940190338371499,-0.22470044780619206,0.3503458028699463,-0.1080698838288575,-0.016562407482384255,-0.24170169434536076,1.6755211866030701,0.05213279414380867,0.029977421708012878,-2.752409899639021,0.034251731214973685,2.7663610561034475,0.7691612816320524,1.6754973547542302,0.052104326824870026,0.029969505109285054,-2.752394845125968,0.0342448039870148,2.7663679543071322,0.7691630533470046,0.00014290640056385695,-0.0010435172000044222,0.0006093572659765741,-2.0631788005594732e-05,0.00028055228815178823,-0.00047311626486258167,0.0010016982728493567,0.0,0.0,0.0,0.0,0.0,0.0,0.0,-2.3831848839916958e-05,-2.8467318938643627e-05,-7.916598727824437e-06,1.5054513053058827e-05,-6.92722795888473e-06,6.898203684713167e-06,1.7717149521923048e-06,-0.00014290640056385695,0.0010435172000044222,-0.0006093572659765741,2.0631788005594732e-05,-0.00028055228815178823,0.00047311626486258167,-0.0010016982728493567,0.2998287081718445,22.672876358032227,0.1491362750530243,-14.207185745239258,-0.11748272180557251,-2.1783480644226074,0.26217979192733765,0
35,0.1699542999267578,-0.2998287081718445,-22.672876358032227,-0.1491362750530243,14.207185745239258,0.11748272180557251,2.1783480644226074,-0.26217979192733765,0.0,0.0,0.0,0.0,0.0,0.0,0.0,-0.33767288127804723,0.10940190338371499,-0.22470044780619206,0.3503458028699463,-0.1080698838288575,-0.016562407482384255,-0.24170169434536076,1.6755211866030701,0.05213279414380867,0.029977421708012878,-2.752409899639021,0.034251731214973685,2.7663610561034475,0.7691612816320524,1.6754973547542302,0.052104326824870026,0.029969505109285054,-2.752394845125968,0.0342448039870148,2.7663679543071322,0.7691630533470046,0.00014290640056385695,-0.0010435172000044222,0.0006093572659765741,-2.0631788005594732e-05,0.00028055228815178823,-0.00047311626486258167,0.0010016982728493567,0.0,0.0,0.0,0.0,0.0,0.0,0.0,-2.3831848839916958e-05,-2.8467318938643627e-05,-7.916598727824437e-06,1.5054513053058827e-05,-6.92722795888473e-06,6.898203684713167e-06,1.7717149521923048e-06,-0.00014290640056385695,0.0010435172000044222,-0.0006093572659765741,2.0631788005594732e-05,-0.00028055228815178823,0.00047311626486258167,-0.0010016982728493567,0.2998287081718445,22.672876358032227,0.1491362750530243,-14.207185745239258,-0.11748272180557251,-2.1783480644226074,0.26217979192733765,0
36,0.17499852180480957,-0.2998287081718445,-22.696680068969727,-0.1253325641155243,14.230989456176758,0.12389141321182251,2.1719393730163574,-0.27591270208358765,0.0,0.0,0.0,0.0,0.0,0.0,0.0,-0.33585079968857756,0.11127975458255773,-0.22866438190602206,0.3479907332688452,-0.10738525939716832,-0.017433036206784443,-0.2402870507614222,1.6755211951062912,0.052134331422170666,0.029975751272157614,-2.7524108191750067,0.03425147795583971,2.7663645986619585,0.7691638671431064,1.6754973547542302,0.052104326824870026,0.029969505109285054,-2.752394845125968,0.0342448039870148,2.7663679543071322,0.7691630533470046,-0.00028837588721216935,-3.0319943557602028e-05,-0.000322135198167345,-0.0002747076176338306,7.975225276003522e-06,-0.00021666617872310277,0.0016322335228961698,0.0,0.0,0.0,0.0,0.0,0.0,0.0,-2.3840352060933157e-05,-3.0004597300639646e-05,-6.246162872560607e-06,1.5974049038636196e-05,-6.673968824907894e-06,3.355645173730437e-06,-8.137961017284923e-07,0.00028837588721216935,3.0319943557602028e-05,0.000322135198167345,0.0002747076176338306,-7.975225276003522e-06,0.00021666617872310277,-0.0016322335228961698,0.2998287081718445,22.696680068969727,0.1253325641155243,-14.230989456176758,-0.12389141321182251,-2.1719393730163574,0.27591270208358765,0
37,0.17999744415283203,-0.2998287081718445,-22.696680068969727,-0.1253325641155243,14.230989456176758,0.12389141321182251,2.1719393730163574,-0.27591270208358765,0.0,0.0,0.0,0.0,0.0,0.0,0.0,-0.33585079968857756,0.11127975458255773,-0.22866438190602206,0.3479907332688452,-0.10738525939716832,-0.017433036206784443,-0.2402870507614222,1.6755211951062912,0.052134331422170666,0.029975751272157614,-2.7524108191750067,0.03425147795583971,2.7663645986619585,0.7691638671431064,1.6754973547542302,0.052104326824870026,0.029969505109285054,-2.752394845125968,0.0342448039870148,2.7663679543071322,0.7691630533470046,-0.00028837588721216935,-3.0319943557602028e-05,-0.000322135198167345,-0.0002747076176338306,7.975225276003522e-06,-0.00021666617872310277,0.0016322335228961698,0.0,0.0,0.0,0.0,0.0,0.0,0.0,-2.3840352060933157e-05,-3.0004597300639646e-05,-6.246162872560607e-06,1.5974049038636196e-05,-6.673968824907894e-06,3.355645173730437e-06,-8.137961017284923e-07,0.00028837588721216935,3.0319943557602028e-05,0.000322135198167345,0.0002747076176338306,-7.975225276003522e-06,0.00021666617872310277,-0.0016322335228961698,0.2998287081718445,22.696680068969727,0.1253325641155243,-14.230989456176758,-0.12389141321182251,-2.1719393730163574,0.27591270208358765,0
38,0.18499493598937988,-0.3752071261405945,-22.672876358032227,-0.2007109820842743,14.278596878051758,0.11748272180557251,2.1719393730163574,-0.28232139348983765,0.0,0.0,0.0,0.0,0.0,0.0,0.0,-0.33609082734656875,0.11180547295957949,-0.22968410560772223,0.35013541130701453,-0.10685093214800033,-0.017429579756502375,-0.2399145404106392,1.6755264848198808,0.05213281893575262,0.029981040985699283,-2.7524141610599635,0.034248916763877535,2.7663639267070415,0.769164579225911,1.6754973547542302,0.052104326824870026,0.029969505109285054,-2.752394845125968,0.0342448039870148,2.7663679543071322,0.7691630533470046,0.000389486827558706,5.050362310978028e-05,0.0012475962670608725,-0.0009599091323923863,0.0003594167134566716,-0.0001651308111866717,0.001444581485967062,0.0,0.0,0.0,0.0,0.0,0.0,0.0,-2.913006565052889e-05,-2.849211088259279e-05,-1.1535876414229401e-05,1.931593399540077e-05,-4.112776862734424e-06,4.02760009077241e-06,-1.5258789063388178e-06,-0.000389486827558706,-5.050362310978028e-05,-0.0012475962670608725,0.0009599091323923863,-0.0003594167134566716,0.0001651308111866717,-0.001444581485967062,0.3752071261405945,22.672876358032227,0.2007109820842743,-14.278596878051758,-0.11748272180557251,-2.1719393730163574,0.28232139348983765,0
39,0.18999767303466797,-0.3752071261405945,-22.672876358032227,-0.2007109820842743,14.278596878051758,0.11748272180557251,2.1719393730163574,-0.28232139348983765,0.0,0.0,0.0,0.0,0.0,0.0,0.0,-0.33609082734656875,0.11180547295957949,-0.22968410560772223,0.35013541130701453,-0.10685093214800033,-0.017429579756502375,-0.2399145404106392,1.6755264848198808,0.05213281893575262,0.029981040985699283,-2.7524141610599635,0.034248916763877535,2.7663639267070415,0.769164579225911,1.6754973547542302,0.052104326824870026,0.029969505109285054,-2.752394845125968,0.0342448039870148,2.7663679543071322,0.7691630533470046,0.000389486827558706,5.050362310978028e-05,0.0012475962670608725,-0.0009599091323923863,0.0003594167134566716,-0.0001651308111866717,0.001444581485967062,0.0,0.0,0.0,0.0,0.0,0.0,0.0,-2.913006565052889e-05,-2.849211088259279e-05,-1.1535876414229401e-05,1.931593399540077e-05,-4.112776862734424e-06,4.02760009077241e-06,-1.5258789063388178e-06,-0.000389486827558706,-5.050362310978028e-05,-0.0012475962670608725,0.0009599091323923863,-0.0003594167134566716,0.0001651308111866717,-0.001444581485967062,0.3752071261405945,22.672876358032227,0.2007109820842743,-14.278596878051758,-0.11748272180557251,-2.1719393730163574,0.28232139348983765,0
40,0.19499659538269043,-0.4783565402030945,-22.672876358032227,-0.1729399859905243,14.207185745239258,0.12389141321182251,2.1719393730163574,-0.22830526530742645,0.0,0.0,0.0,0.0,0.0,0.0,0.0,-0.3506986241315173,0.11882609116891311,-0.23634596326906285,0.3472216960043009,-0.10658183423520816,-0.018123874783003455,-0.24116251674331976,1.6755330346104693,0.052132563228387795,0.029979092143868142,-2.7524091487349183,0.03424794176108294,2.7663648409325177,0.7691585774338906,1.6754973547542302,0.052104326824870026,0.029969505109285054,-2.752394845125968,0.0342448039870148,2.7663679543071322,0.7691630533470046,0.000990284162588011,0.00037843975103376757,-8.763057401266017e-05,0.0002718205392262975,-9.297610004424944e-05,-0.00012862248480286317,-0.0007015206782556528,0.0,0.0,0.0,0.0,0.0,0.0,0.0,-3.567985623909031e-05,-2.8236403517768738e-05,-9.587034583088266e-06,1.4303608950161362e-05,-3.1377740681362565e-06,3.1133746145606267e-06,4.475913114032615e-06,-0.000990284162588011,-0.00037843975103376757,8.763057401266017e-05,-0.0002718205392262975,9.297610004424944e-05,0.00012862248480286317,0.0007015206782556528,0.4783565402030945,22.672876358032227,0.1729399859905243,-14.207185745239258,-0.12389141321182251,-2.1719393730163574,0.22830526530742645,0
41,0.2000126838684082,-0.4783565402030945,-22.672876358032227,-0.1729399859905243,14.207185745239258,0.12389141321182251,2.1719393730163574,-0.22830526530742645,0.0,0.0,0.0,0.0,0.0,0.0,0.0,-0.3506986241315173,0.11882609116891311,-0.23634596326906285,0.3472216960043009,-0.10658183423520816,-0.018123874783003455,-0.24116251674331976,1.6755330346104693,0.052132563228387795,0.029979092143868142,-2.7524091487349183,0.03424794176108294,2.7663648409325177,0.7691585774338906,1.6754973547542302,0.052104326824870026,0.029969505109285054,-2.752394845125968,0.0342448039870148,2.7663679543071322,0.7691630533470046,0.000990284162588011,0.00037843975103376757,-8.763057401266017e-05,0.0002718205392262975,-9.297610004424944e-05,-0.00012862248480286317,-0.0007015206782556528,0.0,0.0,0.0,0.0,0.0,0.0,0.0,-3.567985623909031e-05,-2.8236403517768738e-05,-9.587034583088266e-06,1.4303608950161362e-05,-3.1377740681362565e-06,3.1133746145606267e-06,4.475913114032615e-06,-0.000990284162588011,-0.00037843975103376757,8.763057401266017e-05,-0.0002718205392262975,9.297610004424944e-05,0.00012862248480286317,0.0007015206782556528,0.4783565402030945,22.672876358032227,0.1729399859905243,-14.207185745239258,-0.12389141321182251,-2.1719393730163574,0.22830526530742645,0
42,0.2050189971923828,-0.3752071261405945,-22.672876358032227,-0.2007109820842743,14.179414749145508,0.1293845772743225,2.1847567558288574,-0.24844686686992645,0.0,0.0,0.0,0.0,0.0,0.0,0.0,-0.35472724526127974,0.12158318727158808,-0.22845503167450149,0.3486858539405499,-0.10866760331319703,-0.017827666011823895,-0.24090383998113904,1.6755264848159928,0.052132554457948226,0.029981040985699283,-2.752407209050448,0.034250789153106934,2.7663621671076677,0.7691608153896198,1.6754973547542302,0.052104326824870026,0.029969505109285054,-2.752394845125968,0.0342448039870148,2.7663679543071322,0.7691630533470046,-0.0007007844729229238,0.00029920287704999257,0.0005905895809121785,0.0006948614667539834,-0.00019310029910584502,-0.000675036780900721,0.00021204866228553915,0.0,0.0,0.0,0.0,0.0,0.0,0.0,-2.913006176252786e-05,-2.82276330781997e-05,-1.1535876414229401e-05,1.2363924479785737e-05,-5.985166092133121e-06,5.78719946453532e-06,2.2379573848541057e-06,0.0007007844729229238,-0.00029920287704999257,-0.0005905895809121785,-0.0006948614667539834,0.00019310029910584502,0.000675036780900721,-0.00021204866228553915,0.3752071261405945,22.672876358032227,0.2007109820842743,-14.179414749145508,-0.1293845772743225,-2.1847567558288574,0.24844686686992645,0
43,0.21000242233276367,-0.3752071261405945,-22.672876358032227,-0.2007109820842743,14.179414749145508,0.1293845772743225,2.1847567558288574,-0.24844686686992645,0.0,0.0,0.0,0.0,0.0,0.0,0.0,-0.35472724526127974,0.12158318727158808,-0.22845503167450149,0.3486858539405499,-0.10866760331319703,-0.017827666011823895,-0.24090383998113904,1.6755264848159928,0.052132554457948226,0.029981040985699283,-2.752407209050448,0.034250789153106934,2.7663621671076677,0.7691608153896198,1.6754973547542302,0.052104326824870026,0.029969505109285054,-2.752394845125968,0.0342448039870148,2.7663679543071322,0.7691630533470046,-0.0007007844729229238,0.00029920287704999257,0.0005905895809121785,0.0006948614667539834,-0.00019310029910584502,-0.000675036780900721,0.00021204866228553915,0.0,0.0,0.0,0.0,0.0,0.0,0.0,-2.913006176252786e-05,-2.82276330781997e-05,-1.1535876414229401e-05,1.2363924479785737e-05,-5.985166092133121e-06,5.78719946453532e-06,2.2379573848541057e-06,0.0007007844729229238,-0.00029920287704999257,-0.0005905895809121785,-0.0006948614667539834,0.00019310029910584502,0.000675036780900721,-0.00021204866228553915,0.3752071261405945,22.672876358032227,0.2007109820842743,-14.179414749145508,-0.1293845772743225,-2.1847567558288574,0.24844686686992645,0
44,0.21500062942504883,-0.3752071261405945,-22.672876358032227,-0.2007109820842743,14.179414749145508,0.1293845772743225,2.1847567558288574,-0.24844686686992645,0.0,0.0,0.0,0.0,0.0,0.0,0.0,-0.35472724526127974,0.12158318727158808,-0.22845503167450149,0.3486858539405499,-0.10866760331319703,-0.017827666011823895,-0.24090383998113904,1.6755264848159928,0.052132554457948226,0.029981040985699283,-2.752407209050448,0.034250789153106934,2.7663621671076677,0.7691608153896198,1.6754973547542302,0.052104326824870026,0.029969505109285054,-2.752394845125968,0.0342448039870148,2.7663679543071322,0.7691630533470046,-0.0007007844729229238,0.00029920287704999257,0.0005905895809121785,0.0006948614667539834,-0.00019310029910584502,-0.000675036780900721,0.00021204866228553915,0.0,0.0,0.0,0.0,0.0,0.0,0.0,-2.913006176252786e-05,-2.82276330781997e-05,-1.1535876414229401e-05,1.2363924479785737e-05,-5.985166092133121e-06,5.78719946453532e-06,2.2379573848541057e-06,0.0007007844729229238,-0.00029920287704999257,-0.0005905895809121785,-0.0006948614667539834,0.00019310029910584502,0.000675036780900721,-0.00021204866228553915,0.3752071261405945,22.672876358032227,0.2007109820842743,-14.179414749145508,-0.1293845772743225,-2.1847567558288574,0.24844686686992645,0
45,0.22001218795776367,-0.3752071261405945,-22.672876358032227,-0.2007109820842743,14.179414749145508,0.1293845772743225,2.1847567558288574,-0.24844686686992645,0.0,0.0,0.0,0.0,0.0,0.0,0.0,-0.35472724526127974,0.12158318727158808,-0.22845503167450149,0.3486858539405499,-0.10866760331319703,-0.017827666011823895,-0.24090383998113904,1.6755264848159928,0.052132554457948226,0.029981040985699283,-2.752407209050448,0.034250789153106934,2.7663621671076677,0.7691608153896198,1.6754973547542302,0.052104326824870026,0.029969505109285054,-2.752394845125968,0.0342448039870148,2.7663679543071322,0.7691630533470046,-0.0007007844729229238,0.00029920287704999257,0.0005905895809121785,0.0006948614667539834,-0.00019310029910584502,-0.000675036780900721,0.00021204866228553915,0.0,0.0,0.0,0.0,0.0,0.0,0.0,-2.913006176252786e-05,-2.82276330781997e-05,-1.1535876414229401e-05,1.2363924479785737e-05,-5.985166092133121e-06,5.78719946453532e-06,2.2379573848541057e-06,0.0007007844729229238,-0.00029920287704999257,-0.0005905895809121785,-0.0006948614667539834,0.00019310029910584502,0.000675036780900721,-0.00021204866228553915,0.3752071261405945,22.672876358032227,0.2007109820842743,-14.179414749145508,-0.1293845772743225,-2.1847567558288574,0.24844686686992645,0
46,0.2249922752380371,-0.3236324191093445,-22.672876358032227,-0.1491362750530243,14.155611038208008,0.11198955774307251,2.1719393730163574,-0.28232139348983765,0.0,0.0,0.0,0.0,0.0,0.0,0.0,-0.3602815568113711,0.11584905441907781,-0.23235087414899022,0.3544328122388566,-0.10931541191762954,-0.016341149247771233,-0.24002682819093513,1.6755228655421943,0.05213255489093556,0.029977421708012878,-2.7524055294572776,0.03425238142322561,2.7663617724860545,0.769164579225911,1.6754973547542302,0.052104326824870026,0.029969505109285054,-2.752394845125968,0.0342448039870148,2.7663679543071322,0.7691630533470046,-0.0009103362995142604,-0.00045199345355559026,-0.0001203657130969468,0.00158356749977629,0.0003973005052253212,-4.15408354460637e-05,0.0012914833729160816,0.0,0.0,0.0,0.0,0.0,0.0,0.0,-2.5510787964089232e-05,-2.8228066065533186e-05,-7.916598727824437e-06,1.0684331309462891e-05,-7.577436210812194e-06,6.181821077699823e-06,-1.5258789063388178e-06,0.0009103362995142604,0.00045199345355559026,0.0001203657130969468,-0.00158356749977629,-0.0003973005052253212,4.15408354460637e-05,-0.0012914833729160816,0.3236324191093445,22.672876358032227,0.1491362750530243,-14.155611038208008,-0.11198955774307251,-2.1719393730163574,0.28232139348983765,0
47,0.2300422191619873,-0.3236324191093445,-22.672876358032227,-0.1491362750530243,14.155611038208008,0.11198955774307251,2.1719393730163574,-0.28232139348983765,0.0,0.0,0.0,0.0,0.0,0.0,0.0,-0.3602815568113711,0.11584905441907781,-0.23235087414899022,0.3544328122388566,-0.10931541191762954,-0.016341149247771233,-0.24002682819093513,1.6755228655421943,0.05213255489093556,0.029977421708012878,-2.7524055294572776,0.03425238142322561,2.7663617724860545,0.769164579225911,1.6754973547542302,0.052104326824870026,0.029969505109285054,-2.752394845125968,0.0342448039870148,2.7663679543071322,0.7691630533470046,-0.0009103362995142604,-0.00045199345355559026,-0.0001203657130969468,0.00158356749977629,0.0003973005052253212,-4.15408354460637e-05,0.0012914833729160816,0.0,0.0,0.0,0.0,0.0,0.0,0.0,-2.5510787964089232e-05,-2.8228066065533186e-05,-7.916598727824437e-06,1.0684331309462891e-05,-7.577436210812194e-06,6.181821077699823e-06,-1.5258789063388178e-06,0.0009103362995142604,0.00045199345355559026,0.0001203657130969468,-0.00158356749977629,-0.0003973005052253212,4.15408354460637e-05,-0.0012914833729160816,0.3236324191093445,22.672876358032227,0.1491362750530243,-14.155611038208008,-0.11198955774307251,-2.1719393730163574,0.28232139348983765,0
48,0.23499608039855957,-0.24825400114059448,-22.672876358032227,-0.1253325641155243,14.207185745239258,0.11748272180557251,2.1783480644226074,-0.26217979192733765,0.0,0.0,0.0,0.0,0.0,0.0,0.0,-0.3526925635359756,0.12476397878788902,-0.2306272218136953,0.34755851832716966,-0.10988446836896999,-0.017408176073875,-0.24164147409689105,1.6755175758286527,0.05213256322689726,0.029975751272157614,-2.7524091487349125,0.034247820637000805,2.7663632320030325,0.7691623412701818,1.6754973547542302,0.052104326824870026,0.029969505109285054,-2.752394845125968,0.0342448039870148,2.7663679543071322,0.7691630533470046,-0.001185210078392692,1.4803091013097026e-05,-0.00022569488094089556,0.0004803641041586272,0.00017098213653898904,-0.0002681103662509914,0.00026150884706809175,0.0,0.0,0.0,0.0,0.0,0.0,0.0,-2.0221074422455132e-05,-2.8236402027231877e-05,-6.246162872560607e-06,1.4303608944388202e-05,-3.0166499860040386e-06,4.722304099757935e-06,7.120768228396912e-07,0.001185210078392692,-1.4803091013097026e-05,0.00022569488094089556,-0.0004803641041586272,-0.00017098213653898904,0.0002681103662509914,-0.00026150884706809175,0.24825400114059448,22.672876358032227,0.1253325641155243,-14.207185745239258,-0.11748272180557251,-2.1783480644226074,0.26217979192733765,0
49,0.23999977111816406,-0.24825400114059448,-22.672876358032227,-0.1253325641155243,14.207185745239258,0.11748272180557251,2.1783480644226074,-0.26217979192733765,0.0,0.0,0.0,0.0,0.0,0.0,0.0,-0.3526925635359756,0.12476397878788902,-0.2306272218136953,0.34755851832716966,-0.10988446836896999,-0.017408176073875,-0.24164147409689105,1.6755175758286527,0.05213256322689726,0.029975751272157614,-2.7524091487349125,0.034247820637000805,2.7663632320030325,0.7691623412701818,1.6754973547542302,0.052104326824870026,0.029969505109285054,-2.752394845125968,0.0342448039870148,2.7663679543071322,0.7691630533470046,-0.001185210078392692,1.4803091013097026e-05,-0.00022569488094089556,0.0004803641041586272,0.00017098213653898904,-0.0002681103662509914,0.00026150884706809175,0.0,0.0,0.0,0.0,0.0,0.0,0.0,-2.0221074422455132e-05,-2.8236402027231877e-05,-6.246162872560607e-06,1.4303608944388202e-05,-3.0166499860040386e-06,4.722304099757935e-06,7.120768228396912e-07,0.001185210078392692,-1.4803091013097026e-05,0.00022569488094089556,-0.0004803641041586272,-0.00017098213653898904,0.0002681103662509914,-0.00026150884706809175,0.24825400114059448,22.672876358032227,0.1253325641155243,-14.207185745239258,-0.11748272180557251,-2.1783480644226074,0.26217979192733765,0
50,0.24500417709350586,-0.2720577120780945,-22.649072647094727,-0.09756157547235489,14.254793167114258,0.12389141321182251,2.1655306816101074,-0.26217979192733765,0.0,0.0,0.0,0.0,0.0,0.0,0.0,-0.3501733765007265,0.11615108767090472,-0.23733257233352617,0.3511780807374289,-0.1083438049766963,-0.016160970006078367,-0.2444210784552909,1.6755192462645079,0.052130910365167635,0.029973802430849322,-2.752412489606623,0.03424722708171365,2.7663653057982267,0.7691623412701818,1.6754973547542302,0.052104326824870026,0.029969505109285054,-2.752394845125968,0.0342448039870148,2.7663679543071322,0.7691630533470046,-0.0012224839760358848,-0.001423353802603316,-0.0007626915209929951,-0.0009103194478193362,-2.766851910209359e-05,0.00013272584811637868,0.00048559303621484784,0.0,0.0,0.0,0.0,0.0,0.0,0.0,-2.1891510277649573e-05,-2.65835402976089e-05,-4.297321564268597e-06,1.7644480654777084e-05,-2.4230946988473834e-06,2.6485089055228173e-06,7.120768228396912e-07,0.0012224839760358848,0.001423353802603316,0.0007626915209929951,0.0009103194478193362,2.766851910209359e-05,-0.00013272584811637868,-0.00048559303621484784,0.2720577120780945,22.649072647094727,0.09756157547235489,-14.254793167114258,-0.12389141321182251,-2.1655306816101074,0.26217979192733765,0
51,0.24999475479125977,-0.2720577120780945,-22.649072647094727,-0.09756157547235489,14.254793167114258,0.12389141321182251,2.1655306816101074,-0.26217979192733765,0.0,0.0,0.0,0.0,0.0,0.0,0.0,-0.3501733765007265,0.11615108767090472,-0.23733257233352617,0.3511780807374289,-0.1083438049766963,-0.016160970006078367,-0.2444210784552909,1.6755192462645079,0.052130910365167635,0.029973802430849322,-2.752412489606623,0.03424722708171365,2.7663653057982267,0.7691623412701818,1.6754973547542302,0.052104326824870026,0.029969505109285054,-2.752394845125968,0.0342448039870148,2.7663679543071322,0.7691630533470046,-0.0012224839760358848,-0.001423353802603316,-0.0007626915209929951,-0.0009103194478193362,-2.766851910209359e-05,0.00013272584811637868,0.00048559303621484784,0.0,0.0,0.0,0.0,0.0,0.0,0.0,-2.1891510277649573e-05,-2.65835402976089e-05,-4.297321564268597e-06,1.7644480654777084e-05,-2.4230946988473834e-06,2.6485089055228173e-06,7.120768228396912e-07,0.0012224839760358848,0.001423353802603316,0.0007626915209929951,0.0009103194478193362,2.766851910209359e-05,-0.00013272584811637868,-0.00048559303621484784,0.2720577120780945,22.649072647094727,0.09756157547235489,-14.254793167114258,-0.12389141321182251,-2.1655306816101074,0.26217979192733765,0
52,0.25499439239501953,-0.3514034152030945,-22.672876358032227,-0.1491362750530243,14.230989456176758,0.1357932686805725,2.1719393730163574,-0.22830526530742645,0.0,0.0,0.0,0.0,0.0,0.0,0.0,-0.34518882791565875,0.12351610281670652,-0.23509769528664085,0.3428816144007041,-0.10793675584031302,-0.017426167229673776,-0.2452104320055332,1.6755248143840253,0.052133264746730995,0.029977421708012878,-2.752411589407043,0.03425016584480267,2.7663607652352282,0.7691585774338906,1.6754973547542302,0.052104326824870026,0.029969505109285054,-2.752394845125968,0.0342448039870148,2.7663679543071322,0.7691630533470046,6.444104606363433e-05,0.00011026976957639695,-2.830231649907872e-05,-0.0007405495846494559,-0.00036800650107906055,-9.265331279592508e-05,-0.0003503633948977518,0.0,0.0,0.0,0.0,0.0,0.0,0.0,-2.7459629795112406e-05,-2.8937921860969218e-05,-7.916598727824437e-06,1.674428107500958e-05,-5.3618577878708495e-06,7.1890719040013096e-06,4.475913114032615e-06,-6.444104606363433e-05,-0.00011026976957639695,2.830231649907872e-05,0.0007405495846494559,0.00036800650107906055,9.265331279592508e-05,0.0003503633948977518,0.3514034152030945,22.672876358032227,0.1491362750530243,-14.230989456176758,-0.1357932686805725,-2.1719393730163574,0.22830526530742645,0
53,0.2599916458129883,-0.3514034152030945,-22.672876358032227,-0.1491362750530243,14.230989456176758,0.1357932686805725,2.1719393730163574,-0.22830526530742645,0.0,0.0,0.0,0.0,0.0,0.0,0.0,-0.34518882791565875,0.12351610281670652,-0.23509769528664085,0.3428816144007041,-0.10793675584031302,-0.017426167229673776,-0.2452104320055332,1.6755248143840253,0.052133264746730995,0.029977421708012878,-2.752411589407043,0.03425016584480267,2.7663607652352282,0.7691585774338906,1.6754973547542302,0.052104326824870026,0.029969505109285054,-2.752394845125968,0.0342448039870148,2.7663679543071322,0.7691630533470046,6.444104606363433e-05,0.00011026976957639695,-2.830231649907872e-05,-0.0007405495846494559,-0.00036800650107906055,-9.265331279592508e-05,-0.0003503633948977518,0.0,0.0,0.0,0.0,0.0,0.0,0.0,-2.7459629795112406e-05,-2.8937921860969218e-05,-7.916598727824437e-06,1.674428107500958e-05,-5.3618577878708495e-06,7.1890719040013096e-06,4.475913114032615e-06,-6.444104606363433e-05,-0.00011026976957639695,2.830231649907872e-05,0.0007405495846494559,0.00036800650107906055,9.265331279592508e-05,0.0003503633948977518,0.3514034152030945,22.672876358032227,0.1491362750530243,-14.230989456176758,-0.1357932686805725,-2.1719393730163574,0.22830526530742645,0
54,0.26500844955444336,-0.3752071261405945,-22.621301651000977,-0.1253325641155243,14.230989456176758,0.12389141321182251,2.1783480644226074,-0.25485557317733765,0.0,0.0,0.0,0.0,0.0,0.0,0.0,-0.34343839874887994,0.12056490983548164,-0.23147736068921437,0.3477864571253969,-0.10794304568327198,-0.01646994147935608,-0.24322080985672934,1.6755264848198808,0.052128961499229395,0.029975751272157614,-2.7524108466559114,0.034248334922442336,2.7663642334994423,0.7691615274680984,1.6754973547542302,0.052104326824870026,0.029969505109285054,-2.752394845125968,0.0342448039870148,2.7663679543071322,0.7691630533470046,0.0001844772313338616,-0.0010159393223636269,-0.0009219759711669487,-0.00010291436836930236,-8.891933155392768e-05,-0.0003018641480947128,0.0006766875302878954,0.0,0.0,0.0,0.0,0.0,0.0,0.0,-2.913006565052889e-05,-2.46346743593695e-05,-6.246162872560607e-06,1.6001529943299175e-05,-3.530935427535631e-06,3.7208076899553078e-06,1.5258789062277955e-06,-0.0001844772313338616,0.0010159393223636269,0.0009219759711669487,0.00010291436836930236,8.891933155392768e-05,0.0003018641480947128,-0.0006766875302878954,0.3752071261405945,22.621301651000977,0.1253325641155243,-14.230989456176758,-0.12389141321182251,-2.1783480644226074,0.25485557317733765,0
55,0.2700014114379883,-0.3752071261405945,-22.621301651000977,-0.1253325641155243,14.230989456176758,0.12389141321182251,2.1783480644226074,-0.25485557317733765,0.0,0.0,0.0,0.0,0.0,0.0,0.0,-0.34343839874887994,0.12056490983548164,-0.23147736068921437,0.3477864571253969,-0.10794304568327198,-0.01646994147935608,-0.24322080985672934,1.6755264848198808,0.052128961499229395,0.029975751272157614,-2.7524108466559114,0.034248334922442336,2.7663642334994423,0.7691615274680984,1.6754973547542302,0.052104326824870026,0.029969505109285054,-2.752394845125968,0.0342448039870148,2.7663679543071322,0.7691630533470046,0.0001844772313338616,-0.0010159393223636269,-0.0009219759711669487,-0.00010291436836930236,-8.891933155392768e-05,-0.0003018641480947128,0.0006766875302878954,0.0,0.0,0.0,0.0,0.0,0.0,0.0,-2.913006565052889e-05,-2.46346743593695e-05,-6.246162872560607e-06,1.6001529943299175e-05,-3.530935427535631e-06,3.7208076899553078e-06,1.5258789062277955e-06,-0.0001844772313338616,0.0010159393223636269,0.0009219759711669487,0.00010291436836930236,8.891933155392768e-05,0.0003018641480947128,-0.0006766875302878954,0.3752071261405945,22.621301651000977,0.1253325641155243,-14.230989456176758,-0.12389141321182251,-2.1783480644226074,0.25485557317733765,0
56,0.27504563331604004,-0.3236324191093445,-22.672876358032227,-0.1729399859905243,14.179414749145508,0.12389141321182251,2.1655306816101074,-0.24112264811992645,0.0,0.0,0.0,0.0,0.0,0.0,0.0,-0.3401438142128682,0.11917412810571827,-0.22528046014574404,0.3491966803726798,-0.10941587163006884,-0.01630613542143014,-0.2426731688562954,1.6755228655421943,0.05213327384040554,0.029979092143868142,-2.752407200006187,0.03425041445031877,2.7663657112907845,0.7691600015875365,1.6754973547542302,0.052104326824870026,0.029969505109285054,-2.752394845125968,0.0342448039870148,2.7663679543071322,0.7691630533470046,-0.0009449529214427126,2.2141451689810416e-05,0.0007022715643263615,0.0011276724666601586,7.037942132949401e-05,0.00015634895491824333,-0.000406713759783944,0.0,0.0,0.0,0.0,0.0,0.0,0.0,-2.5510787964089232e-05,-2.8947015535511766e-05,-9.587034583088266e-06,1.2354880218889974e-05,-5.61046330396775e-06,2.2430163477693554e-06,3.0517594681311877e-06,0.0009449529214427126,-2.2141451689810416e-05,-0.0007022715643263615,-0.0011276724666601586,-7.037942132949401e-05,-0.00015634895491824333,0.000406713759783944,0.3236324191093445,22.672876358032227,0.1729399859905243,-14.179414749145508,-0.12389141321182251,-2.1655306816101074,0.24112264811992645,0
57,0.2800638675689697,-0.3236324191093445,-22.672876358032227,-0.1729399859905243,14.179414749145508,0.12389141321182251,2.1655306816101074,-0.24112264811992645,0.0,0.0,0.0,0.0,0.0,0.0,0.0,-0.3401438142128682,0.11917412810571827,-0.22528046014574404,0.3491966803726798,-0.10941587163006884,-0.01630613542143014,-0.2426731688562954,1.6755228655421943,0.05213327384040554,0.029979092143868142,-2.752407200006187,0.03425041445031877,2.7663657112907845,0.7691600015875365,1.6754973547542302,0.052104326824870026,0.029969505109285054,-2.752394845125968,0.0342448039870148,2.7663679543071322,0.7691630533470046,-0.0009449529214427126,2.2141451689810416e-05,0.0007022715643263615,0.0011276724666601586,7.037942132949401e-05,0.00015634895491824333,-0.000406713759783944,0.0,0.0,0.0,0.0,0.0,0.0,0.0,-2.5510787964089232e-05,-2.8947015535511766e-05,-9.587034583088266e-06,1.2354880218889974e-05,-5.61046330396775e-06,2.2430163477693554e-06,3.0517594681311877e-06,0.0009449529214427126,-2.2141451689810416e-05,-0.0007022715643263615,-0.0011276724666601586,-7.037942132949401e-05,-0.00015634895491824333,0.000406713759783944,0.3236324191093445,22.672876358032227,0.1729399859905243,-14.179414749145508,-0.12389141321182251,-2.1655306816101074,0.24112264811992645,0
58,0.2850637435913086,-0.3514034152030945,-22.672876358032227,-0.1491362750530243,14.207185745239258,0.12389141321182251,2.1719393730163574,-0.23471395671367645,0.0,0.0,0.0,0.0,0.0,0.0,0.0,-0.34913162712151,0.12326069836003761,-0.23134258880489936,0.34895078246822525,-0.10866412577207829,-0.017193603438554233,-0.24391073738148938,1.6755248143840253,0.05213258989880806,0.029977421708012878,-2.7524095058722087,0.03425034837581833,2.7663649473707514,0.7691592895107136,1.6754973547542302,0.052104326824870026,0.029969505109285054,-2.752394845125968,0.0342448039870148,2.7663679543071322,0.7691630533470046,-0.00027948445953338843,-5.473779524820631e-05,-0.0005095881790937328,0.0004786013258464687,-5.40882920395038e-06,-0.00016253937927854608,-0.00026563216678921424,0.0,0.0,0.0,0.0,0.0,0.0,0.0,-2.7459629795112406e-05,-2.8263073938036842e-05,-7.916598727824437e-06,1.4660746240569011e-05,-5.544388803527256e-06,3.0069363807783134e-06,3.763836291081901e-06,0.00027948445953338843,5.473779524820631e-05,0.0005095881790937328,-0.0004786013258464687,5.40882920395038e-06,0.00016253937927854608,0.00026563216678921424,0.3514034152030945,22.672876358032227,0.1491362750530243,-14.207185745239258,-0.12389141321182251,-2.1719393730163574,0.23471395671367645,0
59,0.29002976417541504,-0.3514034152030945,-22.672876358032227,-0.1491362750530243,14.207185745239258,0.12389141321182251,2.1719393730163574,-0.23471395671367645,0.0,0.0,0.0,0.0,0.0,0.0,0.0,-0.34913162712151,0.12326069836003761,-0.23134258880489936,0.34895078246822525,-0.10866412577207829,-0.017193603438554233,-0.24391073738148938,1.6755248143840253,0.05213258989880806,0.029977421708012878,-2.7524095058722087,0.03425034837581833,2.7663649473707514,0.7691592895107136,1.6754973547542302,0.052104326824870026,0.029969505109285054,-2.752394845125968,0.0342448039870148,2.7663679543071322,0.7691630533470046,-0.00027948445953338843,-5.473779524820631e-05,-0.0005095881790937328,0.0004786013258464687,-5.40882920395038e-06,-0.00016253937927854608,-0.00026563216678921424,0.0,0.0,0.0,0.0,0.0,0.0,0.0,-2.7459629795112406e-05,-2.8263073938036842e-05,-7.916598727824437e-06,1.4660746240569011e-05,-5.544388803527256e-06,3.0069363807783134e-06,3.763836291081901e-06,0.00027948445953338843,5.473779524820631e-05,0.0005095881790937328,-0.0004786013258464687,5.40882920395038e-06,0.00016253937927854608,0.00026563216678921424,0.3514034152030945,22.672876358032227,0.1491362750530243,-14.207185745239258,-0.12389141321182251,-2.1719393730163574,0.23471395671367645,0
60,0.29503345489501953,-0.3752071261405945,-22.672876358032227,-0.1729399859905243,14.230989456176758,0.1293845772743225,2.1719393730163574,-0.24844686686992645,0.0,0.0,0.0,0.0,0.0,0.0,0.0,-0.3523011507741084,0.12306213856544992,-0.23544529246004764,0.34681201503504755,-0.10883046344505563,-0.01787347172095977,-0.2430109923091416,1.6755264848198808,0.05213255456635799,0.029979092143868142,-2.7524115640096145,0.03425050823403972,2.766361432255282,0.7691608153896198,1.6754973547542302,0.052104326824870026,0.029969505109285054,-2.752394845125968,0.0342448039870148,2.7663679543071322,0.7691630533470046,0.0001427714326850968,-0.00029463074226525457,0.00014147535637221446,-0.00043685934638654596,-0.00037342209379440344,-6.912861011565703e-05,0.00014046579351132877,0.0,0.0,0.0,0.0,0.0,0.0,0.0,-2.913006565052889e-05,-2.8227741487966973e-05,-9.587034583088266e-06,1.6718883646404947e-05,-5.70424702491662e-06,6.522051850144095e-06,2.2379573848541057e-06,-0.0001427714326850968,0.00029463074226525457,-0.00014147535637221446,0.00043685934638654596,0.00037342209379440344,6.912861011565703e-05,-0.00014046579351132877,0.3752071261405945,22.672876358032227,0.1729399859905243,-14.230989456176758,-0.1293845772743225,-2.1719393730163574,0.24844686686992645,0
61,0.3000144958496094,-0.3752071261405945,-22.672876358032227,-0.1729399859905243,14.230989456176758,0.1293845772743225,2.1719393730163574,-0.24844686686992645,0.0,0.0,0.0,0.0,0.0,0.0,0.0,-0.3523011507741084,0.12306213856544992,-0.23544529246004764,0.34681201503504755,-0.10883046344505563,-0.01787347172095977,-0.2430109923091416,1.6755264848198808,0.05213255456635799,0.029979092143868142,-2.7524115640096145,0.03425050823403972,2.766361432255282,0.7691608153896198,1.6754973547542302,0.052104326824870026,0.029969505109285054,-2.752394845125968,0.0342448039870148,2.7663679543071322,0.7691630533470046,0.0001427714326850968,-0.00029463074226525457,0.00014147535637221446,-0.00043685934638654596,-0.00037342209379440344,-6.912861011565703e-05,0.00014046579351132877,0.0,0.0,0.0,0.0,0.0,0.0,0.0,-2.913006565052889e-05,-2.8227741487966973e-05,-9.587034583088266e-06,1.6718883646404947e-05,-5.70424702491662e-06,6.522051850144095e-06,2.2379573848541057e-06,-0.0001427714326850968,0.00029463074226525457,-0.00014147535637221446,0.00043685934638654596,0.00037342209379440344,6.912861011565703e-05,-0.00014046579351132877,0.3752071261405945,22.672876358032227,0.1729399859905243,-14.230989456176758,-0.1293845772743225,-2.1719393730163574,0.24844686686992645,0
62,0.30501627922058105,-0.3752071261405945,-22.696680068969727,-0.1253325641155243,14.230989456176758,0.12389141321182251,2.1719393730163574,-0.20724813640117645,0.0,0.0,0.0,0.0,0.0,0.0,0.0,-0.3570664494098035,0.12012970577672283,-0.23686027571597623,0.35056984843320993,-0.10896553937149642,-0.01713498462438036,-0.2431146828922112,1.6755264848198808,0.05213446169273511,0.029975751272157614,-2.7524108191721695,0.03424833636587138,2.766361354385246,0.7691562377529011,1.6754973547542302,0.052104326824870026,0.029969505109285054,-2.752394845125968,0.0342448039870148,2.7663679543071322,0.7691630533470046,-0.0003025252107432002,0.0003736362601270288,-0.0006662591616278035,-5.881970950933766e-05,5.441863199373145e-05,-0.00018828028669300856,-0.001817485786261746,0.0,0.0,0.0,0.0,0.0,0.0,0.0,-2.913006565052889e-05,-3.0134867865086457e-05,-6.246162872560607e-06,1.5974046201350234e-05,-3.5323788565785885e-06,6.599921886341065e-06,6.815594103537492e-06,0.0003025252107432002,-0.0003736362601270288,0.0006662591616278035,5.881970950933766e-05,-5.441863199373145e-05,0.00018828028669300856,0.001817485786261746,0.3752071261405945,22.696680068969727,0.1253325641155243,-14.230989456176758,-0.12389141321182251,-2.1719393730163574,0.20724813640117645,0
63,0.3100266456604004,-0.3752071261405945,-22.696680068969727,-0.1253325641155243,14.230989456176758,0.12389141321182251,2.1719393730163574,-0.20724813640117645,0.0,0.0,0.0,0.0,0.0,0.0,0.0,-0.3570664494098035,0.12012970577672283,-0.23686027571597623,0.35056984843320993,-0.10896553937149642,-0.01713498462438036,-0.2431146828922112,1.6755264848198808,0.05213446169273511,0.029975751272157614,-2.7524108191721695,0.03424833636587138,2.766361354385246,0.7691562377529011,1.6754973547542302,0.052104326824870026,0.029969505109285054,-2.752394845125968,0.0342448039870148,2.7663679543071322,0.7691630533470046,-0.0003025252107432002,0.0003736362601270288,-0.0006662591616278035,-5.881970950933766e-05,5.441863199373145e-05,-0.00018828028669300856,-0.001817485786261746,0.0,0.0,0.0,0.0,0.0,0.0,0.0,-2.913006565052889e-05,-3.0134867865086457e-05,-6.246162872560607e-06,1.5974046201350234e-05,-3.5323788565785885e-06,6.599921886341065e-06,6.815594103537492e-06,0.0003025252107432002,-0.0003736362601270288,0.0006662591616278035,5.881970950933766e-05,-5.441863199373145e-05,0.00018828028669300856,0.001817485786261746,0.3752071261405945,22.696680068969727,0.1253325641155243,-14.230989456176758,-0.12389141321182251,-2.1719393730163574,0.20724813640117645,0
64,0.3150010108947754,-0.3514034152030945,-22.696680068969727,-0.1729399859905243,14.207185745239258,0.1412864327430725,2.1655306816101074,-0.21457235515117645,0.0,0.0,0.0,0.0,0.0,0.0,0.0,-0.35777945067956707,0.11920676730095668,-0.23064625762088073,0.3513590812046728,-0.10957327065316565,-0.017391633090439573,-0.24402768977240147,1.6755248143840253,0.052134462018849276,0.029979092143868142,-2.7524091497523977,0.03424817297524765,2.7663646551852845,0.7691570515549844,1.6754973547542302,0.052104326824870026,0.029969505109285054,-2.752394845125968,0.0342448039870148,2.7663679543071322,0.7691630533470046,-0.000147449107193876,0.00043467983685354766,0.0008837584950456665,0.0003705279520015261,-0.0007536613712602843,0.00025812779355556764,-0.0012449586903934455,0.0,0.0,0.0,0.0,0.0,0.0,0.0,-2.7459629795112406e-05,-3.0135193979249908e-05,-9.587034583088266e-06,1.4304626429595402e-05,-3.3689882328463705e-06,3.299121847710751e-06,6.00179202026041e-06,0.000147449107193876,-0.00043467983685354766,-0.0008837584950456665,-0.0003705279520015261,0.0007536613712602843,-0.00025812779355556764,0.0012449586903934455,0.3514034152030945,22.696680068969727,0.1729399859905243,-14.207185745239258,-0.1412864327430725,-2.1655306816101074,0.21457235515117645,0
65,0.31999659538269043,-0.3514034152030945,-22.696680068969727,-0.1729399859905243,14.207185745239258,0.1412864327430725,2.1655306816101074,-0.21457235515117645,0.0,0.0,0.0,0.0,0.0,0.0,0.0,-0.35777945067956707,0.11920676730095668,-0.23064625762088073,0.3513590812046728,-0.10957327065316565,-0.017391633090439573,-0.24402768977240147,1.6755248143840253,0.052134462018849276,0.029979092143868142,-2.7524091497523977,0.03424817297524765,2.7663646551852845,0.7691570515549844,1.6754973547542302,0.052104326824870026,0.029969505109285054,-2.752394845125968,0.0342448039870148,2.7663679543071322,0.7691630533470046,-0.000147449107193876,0.00043467983685354766,0.0008837584950456665,0.0003705279520015261,-0.0007536613712602843,0.00025812779355556764,-0.0012449586903934455,0.0,0.0,0.0,0.0,0.0,0.0,0.0,-2.7459629795112406e-05,-3.0135193979249908e-05,-9.587034583088266e-06,1.4304626429595402e-05,-3.3689882328463705e-06,3.299121847710751e-06,6.00179202026041e-06,0.000147449107193876,-0.00043467983685354766,-0.0008837584950456665,-0.0003705279520015261,0.0007536613712602843,-0.00025812779355556764,0.0012449586903934455,0.3514034152030945,22.696680068969727,0.1729399859905243,-14.207185745239258,-0.1412864327430725,-2.1655306816101074,0.21457235515117645,0
66,0.32504844665527344,-0.3514034152030945,-22.696680068969727,-0.1729399859905243,14.207185745239258,0.1412864327430725,2.1655306816101074,-0.21457235515117645,0.0,0.0,0.0,0.0,0.0,0.0,0.0,-0.35777945067956707,0.11920676730095668,-0.23064625762088073,0.3513590812046728,-0.10957327065316565,-0.017391633090439573,-0.24402768977240147,1.6755248143840253,0.052134462018849276,0.029979092143868142,-2.7524091497523977,0.03424817297524765,2.7663646551852845,0.7691570515549844,1.6754973547542302,0.052104326824870026,0.029969505109285054,-2.752394845125968,0.0342448039870148,2.7663679543071322,0.7691630533470046,-0.000147449107193876,0.00043467983685354766,0.0008837584950456665,0.0003705279520015261,-0.0007536613712602843,0.00025812779355556764,-0.0012449586903934455,0.0,0.0,0.0,0.0,0.0,0.0,0.0,-2.7459629795112406e-05,-3.0135193979249908e-05,-9.587034583088266e-06,1.4304626429595402e-05,-3.3689882328463705e-06,3.299121847710751e-06,6.00179202026041e-06,0.000147449107193876,-0.00043467983685354766,-0.0008837584950456665,-0.0003705279520015261,0.0007536613712602843,-0.00025812779355556764,0.0012449586903934455,0.3514034152030945,22.696680068969727,0.1729399859905243,-14.207185745239258,-0.1412864327430725,-2.1655306816101074,0.21457235515117645,0
67,0.33000659942626953,-0.3514034152030945,-22.696680068969727,-0.1729399859905243,14.207185745239258,0.1412864327430725,2.1655306816101074,-0.21457235515117645,0.0,0.0,0.0,0.0,0.0,0.0,0.0,-0.35777945067956707,0.11920676730095668,-0.23064625762088073,0.3513590812046728,-0.10957327065316565,-0.017391633090439573,-0.24402768977240147,1.6755248143840253,0.052134462018849276,0.029979092143868142,-2.7524091497523977,0.03424817297524765,2.7663646551852845,0.7691570515549844,1.6754973547542302,0.052104326824870026,0.029969505109285054,-2.752394845125968,0.0342448039870148,2.7663679543071322,0.7691630533470046,-0.000147449107193876,0.00043467983685354766,0.0008837584950456665,0.0003705279520015261,-0.0007536613712602843,0.00025812779355556764,-0.0012449586903934455,0.0,0.0,0.0,0.0,0.0,0.0,0.0,-2.7459629795112406e-05,-3.0135193979249908e-05,-9.587034583088266e-06,1.4304626429595402e-05,-3.3689882328463705e-06,3.299121847710751e-06,6.00179202026041e-06,0.000147449107193876,-0.00043467983685354766,-0.0008837584950456665,-0.0003705279520015261,0.0007536613712602843,-0.00025812779355556764,0.0012449586903934455,0.3514034152030945,22.696680068969727,0.1729399859905243,-14.207185745239258,-0.1412864327430725,-2.1655306816101074,0.21457235515117645,0
68,0.33504247665405273,-0.2998287081718445,-22.696680068969727,-0.1253325641155243,14.254793167114258,0.1293845772743225,2.1655306816101074,-0.26217979192733765,0.0,0.0,0.0,0.0,0.0,0.0,0.0,-0.35680420300007476,0.12234222962039848,-0.2288160399813522,0.3500022697465067,-0.10980285404064857,-0.017748805792932656,-0.24298529489629817,1.6755211950013604,0.052134233664088654,0.029975751272157614,-2.7524124896066287,0.03424934179380086,2.766365310589553,0.7691623412701818,1.6754973547542302,0.052104326824870026,0.029969505109285054,-2.752394845125968,0.0342448039870148,2.7663679543071322,0.7691630533470046,-0.0002705112447831024,0.0007511659933574034,-0.0006120932328489148,-0.0009681593634900353,-0.000314298309991769,3.298032946833307e-05,0.0013846873585700314,0.0,0.0,0.0,0.0,0.0,0.0,0.0,-2.3840247130202386e-05,-2.99068392186283e-05,-6.246162872560607e-06,1.7644480660550244e-05,-4.537806786060472e-06,2.6437175790761103e-06,7.120768228396912e-07,0.0002705112447831024,-0.0007511659933574034,0.0006120932328489148,0.0009681593634900353,0.000314298309991769,-3.298032946833307e-05,-0.0013846873585700314,0.2998287081718445,22.696680068969727,0.1253325641155243,-14.254793167114258,-0.1293845772743225,-2.1655306816101074,0.26217979192733765,0
69,0.34001970291137695,-0.2998287081718445,-22.696680068969727,-0.1253325641155243,14.254793167114258,0.1293845772743225,2.1655306816101074,-0.26217979192733765,0.0,0.0,0.0,0.0,0.0,0.0,0.0,-0.35680420300007476,0.12234222962039848,-0.2288160399813522,0.3500022697465067,-0.10980285404064857,-0.017748805792932656,-0.24298529489629817,1.6755211950013604,0.052134233664088654,0.029975751272157614,-2.7524124896066287,0.03424934179380086,2.766365310589553,0.7691623412701818,1.6754973547542302,0.052104326824870026,0.029969505109285054,-2.752394845125968,0.0342448039870148,2.7663679543071322,0.7691630533470046,-0.0002705112447831024,0.0007511659933574034,-0.0006120932328489148,-0.0009681593634900353,-0.000314298309991769,3.298032946833307e-05,0.0013846873585700314,0.0,0.0,0.0,0.0,0.0,0.0,0.0,-2.3840247130202386e-05,-2.99068392186283e-05,-6.246162872560607e-06,1.7644480660550244e-05,-4.537806786060472e-06,2.6437175790761103e-06,7.120768228396912e-07,0.0002705112447831024,-0.0007511659933574034,0.0006120932328489148,0.0009681593634900353,0.000314298309991769,-3.298032946833307e-05,-0.0013846873585700314,0.2998287081718445,22.696680068969727,0.1253325641155243,-14.254793167114258,-0.1293845772743225,-2.1655306816101074,0.26217979192733765,0
70,0.34502744674682617,-0.2998287081718445,-22.621301651000977,-0.09756157547235489,14.254793167114258,0.1293845772743225,2.1719393730163574,-0.24844686686992645,0.0,0.0,0.0,0.0,0.0,0.0,0.0,-0.35079773012323584,0.12045322933749902,-0.2299399858128775,0.3535569318095236,-0.10948360363048391,-0.017577701059754824,-0.24219489634289926,1.6755211951063385,0.05212893615459473,0.029973802430849322,-2.752412489606623,0.03424650063819944,2.7663646073992374,0.7691608153896198,1.6754973547542302,0.052104326824870026,0.029969505109285054,-2.752394845125968,0.0342448039870148,2.7663679543071322,0.7691630533470046,-0.000228497814674147,-0.0009848105138802656,-0.0009513262141130987,-0.0007978088017216025,-0.0001786930275571431,-0.0001495062310323424,5.186677162693392e-05,0.0,0.0,0.0,0.0,0.0,0.0,0.0,-2.3840352108228657e-05,-2.4609329724700757e-05,-4.297321564268597e-06,1.7644480654777084e-05,-1.6966511846364107e-06,3.3469078948300535e-06,2.2379573848541057e-06,0.000228497814674147,0.0009848105138802656,0.0009513262141130987,0.0007978088017216025,0.0001786930275571431,0.0001495062310323424,-5.186677162693392e-05,0.2998287081718445,22.621301651000977,0.09756157547235489,-14.254793167114258,-0.1293845772743225,-2.1719393730163574,0.24844686686992645,0
71,0.3500094413757324,-0.2998287081718445,-22.621301651000977,-0.09756157547235489,14.254793167114258,0.1293845772743225,2.1719393730163574,-0.24844686686992645,0.0,0.0,0.0,0.0,0.0,0.0,0.0,-0.35079773012323584,0.12045322933749902,-0.2299399858128775,0.3535569318095236,-0.10948360363048391,-0.017577701059754824,-0.24219489634289926,1.6755211951063385,0.05212893615459473,0.029973802430849322,-2.752412489606623,0.03424650063819944,2.7663646073992374,0.7691608153896198,1.6754973547542302,0.052104326824870026,0.029969505109285054,-2.752394845125968,0.0342448039870148,2.7663679543071322,0.7691630533470046,-0.000228497814674147,-0.0009848105138802656,-0.0009513262141130987,-0.0007978088017216025,-0.0001786930275571431,-0.0001495062310323424,5.186677162693392e-05,0.0,0.0,0.0,0.0,0.0,0.0,0.0,-2.3840352108228657e-05,-2.4609329724700757e-05,-4.297321564268597e-06,1.7644480654777084e-05,-1.6966511846364107e-06,3.3469078948300535e-06,2.2379573848541057e-06,0.000228497814674147,0.0009848105138802656,0.0009513262141130987,0.0007978088017216025,0.0001786930275571431,0.0001495062310323424,-5.186677162693392e-05,0.2998287081718445,22.621301651000977,0.09756157547235489,-14.254793167114258,-0.1293845772743225,-2.1719393730163574,0.24844686686992645,0
72,0.3549928665161133,-0.3514034152030945,-22.649072647094727,-0.1491362750530243,14.230989456176758,0.12389141321182251,2.1719393730163574,-0.28232139348983765,0.0,0.0,0.0,0.0,0.0,0.0,0.0,-0.3406993856943357,0.12531247495703215,-0.22733648779731852,0.35430924077601683,-0.10938295872665378,-0.01776905858776669,-0.24289023905118573,1.6755241218400105,0.0521330239818734,0.029977421708012878,-2.752411560917458,0.034251493144197245,2.766364480294394,0.769164579225911,1.6754973547542302,0.052104326824870026,0.029969505109285054,-2.752394845125968,0.0342448039870148,2.7663679543071322,0.7691630533470046,0.0006517986898704056,4.2018128239440315e-06,0.0005881967978487983,8.055630268666521e-05,-5.931034313645323e-05,-7.759041623216444e-05,0.001973110110182797,0.0,0.0,0.0,0.0,0.0,0.0,0.0,-2.6767085780310396e-05,-2.8697157003376716e-05,-7.916598727824437e-06,1.6715791490096166e-05,-6.689157182444838e-06,3.4740127383692254e-06,-1.5258789063388178e-06,-0.0006517986898704056,-4.2018128239440315e-06,-0.0005881967978487983,-8.055630268666521e-05,5.931034313645323e-05,7.759041623216444e-05,-0.001973110110182797,0.3514034152030945,22.649072647094727,0.1491362750530243,-14.230989456176758,-0.12389141321182251,-2.1719393730163574,0.28232139348983765,0
73,0.36000895500183105,-0.3514034152030945,-22.649072647094727,-0.1491362750530243,14.230989456176758,0.12389141321182251,2.1719393730163574,-0.28232139348983765,0.0,0.0,0.0,0.0,0.0,0.0,0.0,-0.3406993856943357,0.12531247495703215,-0.22733648779731852,0.35430924077601683,-0.10938295872665378,-0.01776905858776669,-0.24289023905118573,1.6755241218400105,0.0521330239818734,0.029977421708012878,-2.752411560917458,0.034251493144197245,2.766364480294394,0.769164579225911,1.6754973547542302,0.052104326824870026,0.029969505109285054,-2.752394845125968,0.0342448039870148,2.7663679543071322,0.7691630533470046,0.0006517986898704056,4.2018128239440315e-06,0.0005881967978487983,8.055630268666521e-05,-5.931034313645323e-05,-7.759041623216444e-05,0.001973110110182797,0.0,0.0,0.0,0.0,0.0,0.0,0.0,-2.6767085780310396e-05,-2.8697157003376716e-05,-7.916598727824437e-06,1.6715791490096166e-05,-6.689157182444838e-06,3.4740127383692254e-06,-1.5258789063388178e-06,-0.0006517986898704056,-4.2018128239440315e-06,-0.0005881967978487983,-8.055630268666521e-05,5.931034313645323e-05,7.759041623216444e-05,-0.001973110110182797,0.3514034152030945,22.649072647094727,0.1491362750530243,-14.230989456176758,-0.12389141321182251,-2.1719393730163574,0.28232139348983765,0
74,0.3650054931640625,-0.3752071261405945,-22.621301651000977,-0.1729399859905243,14.207185745239258,0.12389141321182251,2.1719393730163574,-0.27591270208358765,0.0,0.0,0.0,0.0,0.0,0.0,0.0,-0.34390123038228404,0.12492944151819131,-0.23259996468954194,0.3588741828308576,-0.10811649695382493,-0.016843432854072072,-0.24203737453858387,1.6755264848159712,0.05213106609442958,0.029979092143868142,-2.75240989048579,0.034250296200967874,2.766364596631531,0.769163867149088,1.6754973547542302,0.052104326824870026,0.029969505109285054,-2.752394845125968,0.0342448039870148,2.7663679543071322,0.7691630533470046,0.0003050223491151229,-0.0011290918306380603,6.797978442164817e-05,0.0007656766819068028,4.067811690624101e-05,-4.6575110006306744e-05,0.0016521970369646867,0.0,0.0,0.0,0.0,0.0,0.0,0.0,-2.9130061740989532e-05,-2.673926955955308e-05,-9.587034583088266e-06,1.504535982199684e-05,-5.4922139530733105e-06,3.35767560111222e-06,-8.138020833881043e-07,-0.0003050223491151229,0.0011290918306380603,-6.797978442164817e-05,-0.0007656766819068028,-4.067811690624101e-05,4.6575110006306744e-05,-0.0016521970369646867,0.3752071261405945,22.621301651000977,0.1729399859905243,-14.207185745239258,-0.12389141321182251,-2.1719393730163574,0.27591270208358765,0
75,0.3700118064880371,-0.3752071261405945,-22.621301651000977,-0.1729399859905243,14.207185745239258,0.12389141321182251,2.1719393730163574,-0.27591270208358765,0.0,0.0,0.0,0.0,0.0,0.0,0.0,-0.34390123038228404,0.12492944151819131,-0.23259996468954194,0.3588741828308576,-0.10811649695382493,-0.016843432854072072,-0.24203737453858387,1.6755264848159712,0.05213106609442958,0.029979092143868142,-2.75240989048579,0.034250296200967874,2.766364596631531,0.769163867149088,1.6754973547542302,0.052104326824870026,0.029969505109285054,-2.752394845125968,0.0342448039870148,2.7663679543071322,0.7691630533470046,0.0003050223491151229,-0.0011290918306380603,6.797978442164817e-05,0.0007656766819068028,4.067811690624101e-05,-4.6575110006306744e-05,0.0016521970369646867,0.0,0.0,0.0,0.0,0.0,0.0,0.0,-2.9130061740989532e-05,-2.673926955955308e-05,-9.587034583088266e-06,1.504535982199684e-05,-5.4922139530733105e-06,3.35767560111222e-06,-8.138020833881043e-07,-0.0003050223491151229,0.0011290918306380603,-6.797978442164817e-05,-0.0007656766819068028,-4.067811690624101e-05,4.6575110006306744e-05,-0.0016521970369646867,0.3752071261405945,22.621301651000977,0.1729399859905243,-14.207185745239258,-0.12389141321182251,-2.1719393730163574,0.27591270208358765,0
76,0.37505292892456055,-0.4029781222343445,-22.672876358032227,-0.1729399859905243,14.230989456176758,0.12389141321182251,2.1719393730163574,-0.26217979192733765,0.0,0.0,0.0,0.0,0.0,0.0,0.0,-0.3798530775053415,0.12219472120474491,-0.26719078262477564,0.36485708666890004,-0.10483139884601633,-0.01524946851195312,-0.24154615694682371,1.6755263673673595,0.05213327352760746,0.029979092143868142,-2.7524108191749552,0.0342481734476012,2.7663648465889947,0.7691623412701818,1.6754973547542302,0.052104326824870026,0.029969505109285054,-2.752394845125968,0.0342448039870148,2.7663679543071322,0.7691630533470046,0.000582455587094005,-0.0005626831477632824,0.0009927295187309535,0.0004654832547864968,-1.4593237524914448e-05,0.00015798623651584092,0.0007040326773586288,0.0,0.0,0.0,0.0,0.0,0.0,0.0,-2.901261312926451e-05,-2.894670273743266e-05,-9.587034583088266e-06,1.5974048987121847e-05,-3.369460586398476e-06,3.107718137496107e-06,7.120768228396912e-07,-0.000582455587094005,0.0005626831477632824,-0.0009927295187309535,-0.0004654832547864968,1.4593237524914448e-05,-0.00015798623651584092,-0.0007040326773586288,0.4029781222343445,22.672876358032227,0.1729399859905243,-14.230989456176758,-0.12389141321182251,-2.1719393730163574,0.26217979192733765,0
77,0.38001513481140137,-0.4029781222343445,-22.672876358032227,-0.1729399859905243,14.230989456176758,0.12389141321182251,2.1719393730163574,-0.26217979192733765,0.0,0.0,0.0,0.0,0.0,0.0,0.0,-0.3798530775053415,0.12219472120474491,-0.26719078262477564,0.36485708666890004,-0.10483139884601633,-0.01524946851195312,-0.24154615694682371,1.6755263673673595,0.05213327352760746,0.029979092143868142,-2.7524108191749552,0.0342481734476012,2.7663648465889947,0.7691623412701818,1.6754973547542302,0.052104326824870026,0.029969505109285054,-2.752394845125968,0.0342448039870148,2.7663679543071322,0.7691630533470046,0.000582455587094005,-0.0005626831477632824,0.0009927295187309535,0.0004654832547864968,-1.4593237524914448e-05,0.00015798623651584092,0.0007040326773586288,0.0,0.0,0.0,0.0,0.0,0.0,0.0,-2.901261312926451e-05,-2.894670273743266e-05,-9.587034583088266e-06,1.5974048987121847e-05,-3.369460586398476e-06,3.107718137496107e-06,7.120768228396912e-07,-0.000582455587094005,0.0005626831477632824,-0.0009927295187309535,-0.0004654832547864968,1.4593237524914448e-05,-0.00015798623651584092,-0.0007040326773586288,0.4029781222343445,22.672876358032227,0.1729399859905243,-14.230989456176758,-0.12389141321182251,-2.1719393730163574,0.26217979192733765,0
78,0.3850526809692383,-0.3514034152030945,-22.672876358032227,-0.1491362750530243,14.230989456176758,0.1357932686805725,2.1719393730163574,-0.24112264811992645,0.0,0.0,0.0,0.0,0.0,0.0,0.0,-0.35408975548322813,0.1260818740313413,-0.2385724454801936,0.355362485566084,-0.10848588694974678,-0.016190323295974588,-0.24201234568943067,1.6755248143723611,0.05213289656106474,0.029977421708012878,-2.752411560917458,0.0342469591581846,2.766361414758275,0.7691600015875365,1.6754973547542302,0.052104326824870026,0.029969505109285054,-2.752394845125968,0.0342448039870148,2.7663679543071322,0.7691630533470046,-0.0006707369482241376,-0.00023566477129855127,-0.0006114909760682025,-0.00048026799507703866,-0.0005420430565489218,-0.0002426312394412135,9.225118458229649e-05,0.0,0.0,0.0,0.0,0.0,0.0,0.0,-2.7459618130887264e-05,-2.8569736194715423e-05,-7.916598727824437e-06,1.6715791490096166e-05,-2.1551711697972986e-06,6.539548857098509e-06,3.0517594681311877e-06,0.0006707369482241376,0.00023566477129855127,0.0006114909760682025,0.00048026799507703866,0.0005420430565489218,0.0002426312394412135,-9.225118458229649e-05,0.3514034152030945,22.672876358032227,0.1491362750530243,-14.230989456176758,-0.1357932686805725,-2.1719393730163574,0.24112264811992645,0
79,0.3900146484375,-0.3514034152030945,-22.672876358032227,-0.1491362750530243,14.230989456176758,0.1357932686805725,2.1719393730163574,-0.24112264811992645,0.0,0.0,0.0,0.0,0.0,0.0,0.0,-0.35408975548322813,0.1260818740313413,-0.2385724454801936,0.355362485566084,-0.10848588694974678,-0.016190323295974588,-0.24201234568943067,1.6755248143723611,0.05213289656106474,0.029977421708012878,-2.752411560917458,0.0342469591581846,2.766361414758275,0.7691600015875365,1.6754973547542302,0.052104326824870026,0.029969505109285054,-2.752394845125968,0.0342448039870148,2.7663679543071322,0.7691630533470046,-0.0006707369482241376,-0.00023566477129855127,-0.0006114909760682025,-0.00048026799507703866,-0.0005420430565489218,-0.0002426312394412135,9.225118458229649e-05,0.0,0.0,0.0,0.0,0.0,0.0,0.0,-2.7459618130887264e-05,-2.8569736194715423e-05,-7.916598727824437e-06,1.6715791490096166e-05,-2.1551711697972986e-06,6.539548857098509e-06,3.0517594681311877e-06,0.0006707369482241376,0.00023566477129855127,0.0006114909760682025,0.00048026799507703866,0.0005420430565489218,0.0002426312394412135,-9.225118458229649e-05,0.3514034152030945,22.672876358032227,0.1491362750530243,-14.230989456176758,-0.1357932686805725,-2.1719393730163574,0.24112264811992645,0
