rezayati/contactInterpretation/dataset/franka_main/labeled_data/link2/f2_1.csv
index,time,tau_J0,tau_J1,tau_J2,tau_J3,tau_J4,tau_J5,tau_J6,tau_J_d0,tau_J_d1,tau_J_d2,tau_J_d3,tau_J_d4,tau_J_d5,tau_J_d6,tau_ext0,tau_ext1,tau_ext2,tau_ext3,tau_ext4,tau_ext5,tau_ext6,q0,q1,q2,q3,q4,q5,q6,q_d0,q_d1,q_d2,q_d3,q_d4,q_d5,q_d6,dq0,dq1,dq2,dq3,dq4,dq5,dq6,dq_d0,dq_d1,dq_d2,dq_d3,dq_d4,dq_d5,dq_d6,e0,e1,e2,e3,e4,e5,e6,de0,de1,de2,de3,de4,de5,de6,etau_J0,etau_J1,etau_J2,etau_J3,etau_J4,etau_J5,etau_J6,label
1,0.0,-0.5537349581718445,-47.24624252319336,-1.2679107189178467,20.947603225708008,0.5523582100868225,2.3202548027038574,-0.29605430364608765,0.0,0.0,0.0,0.0,0.0,0.0,0.0,-0.5315514724042124,-0.43432294223619833,-0.3809269702386425,0.5373015069433315,-0.015901555602614494,0.10691775714754244,-0.3229156001220754,0.06228653807733079,0.6882316048358836,-0.07863932252332959,-1.62094477588252,0.02816866666953423,2.28783377399013,0.8466321161521806,0.06226373270833701,0.6884179775783729,-0.07863937525950354,-1.6210372792796082,0.028167345702647853,2.2878312372101677,0.8466366937888992,0.00015466053931010662,7.704067200529152e-05,0.0002499528991858135,-1.2475165664874537e-05,5.319088352708451e-05,0.0002947473759919597,-0.0013505291631987978,0.0,0.0,0.0,0.0,0.0,0.0,0.0,-2.2805368993780717e-05,0.00018637274248922697,-5.273617395551433e-08,-9.25033970882172e-05,-1.3209668863756185e-06,-2.5367799625364285e-06,4.577636718572364e-06,-0.00015466053931010662,-7.704067200529152e-05,-0.0002499528991858135,1.2475165664874537e-05,-5.319088352708451e-05,-0.0002947473759919597,0.0013505291631987978,0.5537349581718445,47.24624252319336,1.2679107189178467,-20.947603225708008,-0.5523582100868225,-2.3202548027038574,0.29605430364608765,0
2,0.004508495330810547,-0.5815059542655945,-47.27004623413086,-1.2679107189178467,20.975374221801758,0.5578513741493225,2.3266634941101074,-0.30337852239608765,0.0,0.0,0.0,0.0,0.0,0.0,0.0,-0.531001652942559,-0.41790340675239074,-0.37870500630867754,0.521745286270306,-0.017248260673237557,0.10466765770295756,-0.32262416135465705,0.06229063308054691,0.6882333532724386,-0.07863940162781348,-1.6209467247243512,0.028168057779462824,2.287831949349798,0.8466328907084072,0.06226373270833701,0.6884179775783729,-0.07863937525950354,-1.6210372792796082,0.028167345702647853,2.2878312372101677,0.8466366937888992,0.0012978899889498578,0.0006885422864481425,0.00012641353239711814,-0.0011465896761387849,4.0788916257195824e-05,0.0003794459817725549,-0.0010513044374630244,0.0,0.0,0.0,0.0,0.0,0.0,0.0,-2.690037220989816e-05,0.0001846243059342445,2.6368309938296086e-08,-9.055455525697198e-05,-7.120768149709855e-07,-7.121396303766403e-07,3.803080491970867e-06,-0.0012978899889498578,-0.0006885422864481425,-0.00012641353239711814,0.0011465896761387849,-4.0788916257195824e-05,-0.0003794459817725549,0.0010513044374630244,0.5815059542655945,47.27004623413086,1.2679107189178467,-20.975374221801758,-0.5578513741493225,-2.3266634941101074,0.30337852239608765,0
3,0.009509086608886719,-0.5815059542655945,-47.27004623413086,-1.2679107189178467,20.975374221801758,0.5578513741493225,2.3266634941101074,-0.30337852239608765,0.0,0.0,0.0,0.0,0.0,0.0,0.0,-0.531001652942559,-0.41790340675239074,-0.37870500630867754,0.521745286270306,-0.017248260673237557,0.10466765770295756,-0.32262416135465705,0.06229063308054691,0.6882333532724386,-0.07863940162781348,-1.6209467247243512,0.028168057779462824,2.287831949349798,0.8466328907084072,0.06226373270833701,0.6884179775783729,-0.07863937525950354,-1.6210372792796082,0.028167345702647853,2.2878312372101677,0.8466366937888992,0.0012978899889498578,0.0006885422864481425,0.00012641353239711814,-0.0011465896761387849,4.0788916257195824e-05,0.0003794459817725549,-0.0010513044374630244,0.0,0.0,0.0,0.0,0.0,0.0,0.0,-2.690037220989816e-05,0.0001846243059342445,2.6368309938296086e-08,-9.055455525697198e-05,-7.120768149709855e-07,-7.121396303766403e-07,3.803080491970867e-06,-0.0012978899889498578,-0.0006885422864481425,-0.00012641353239711814,0.0011465896761387849,-4.0788916257195824e-05,-0.0003794459817725549,0.0010513044374630244,0.5815059542655945,47.27004623413086,1.2679107189178467,-20.975374221801758,-0.5578513741493225,-2.3266634941101074,0.30337852239608765,0
4,0.014510154724121094,-0.5299312472343445,-47.19466781616211,-1.2679107189178467,20.923799514770508,0.5697532296180725,2.3394808769226074,-0.31711143255233765,0.0,0.0,0.0,0.0,0.0,0.0,0.0,-0.5327193741960015,-0.40977203483974356,-0.3804466353905755,0.5177857921467913,-0.017549485909612396,0.1052597638241357,-0.32267790861720014,0.0622859082358262,0.6882301002557726,-0.07863932252333022,-1.6209431054466648,0.028167800370189875,2.287830525133345,0.8466344558329486,0.06226373270833701,0.6884179775783729,-0.07863937525950354,-1.6210372792796082,0.028167345702647853,2.2878312372101677,0.8466366937888992,-0.00031713595732676774,-0.00027854108727675157,0.00034778456632400935,0.0007993179200301635,-0.0002206771000333589,-0.00044987085433846743,-0.00040203638093267477,0.0,0.0,0.0,0.0,0.0,0.0,0.0,-2.2175527489190494e-05,0.00018787732260028278,-5.273617331713609e-08,-9.417383294341164e-05,-4.546675420220858e-07,7.120768228396912e-07,2.23795595055698e-06,0.00031713595732676774,0.00027854108727675157,-0.00034778456632400935,-0.0007993179200301635,0.0002206771000333589,0.00044987085433846743,0.00040203638093267477,0.5299312472343445,47.19466781616211,1.2679107189178467,-20.923799514770508,-0.5697532296180725,-2.3394808769226074,0.31711143255233765,0
5,0.019507408142089844,-0.5299312472343445,-47.19466781616211,-1.2679107189178467,20.923799514770508,0.5697532296180725,2.3394808769226074,-0.31711143255233765,0.0,0.0,0.0,0.0,0.0,0.0,0.0,-0.5327193741960015,-0.40977203483974356,-0.3804466353905755,0.5177857921467913,-0.017549485909612396,0.1052597638241357,-0.32267790861720014,0.0622859082358262,0.6882301002557726,-0.07863932252333022,-1.6209431054466648,0.028167800370189875,2.287830525133345,0.8466344558329486,0.06226373270833701,0.6884179775783729,-0.07863937525950354,-1.6210372792796082,0.028167345702647853,2.2878312372101677,0.8466366937888992,-0.00031713595732676774,-0.00027854108727675157,0.00034778456632400935,0.0007993179200301635,-0.0002206771000333589,-0.00044987085433846743,-0.00040203638093267477,0.0,0.0,0.0,0.0,0.0,0.0,0.0,-2.2175527489190494e-05,0.00018787732260028278,-5.273617331713609e-08,-9.417383294341164e-05,-4.546675420220858e-07,7.120768228396912e-07,2.23795595055698e-06,0.00031713595732676774,0.00027854108727675157,-0.00034778456632400935,-0.0007993179200301635,0.0002206771000333589,0.00044987085433846743,0.00040203638093267477,0.5299312472343445,47.19466781616211,1.2679107189178467,-20.923799514770508,-0.5697532296180725,-2.3394808769226074,0.31711143255233765,0
6,0.024529695510864258,-0.5537349581718445,-47.19466781616211,-1.2401397228240967,20.975374221801758,0.5642600655555725,2.3202548027038574,-0.30978721380233765,0.0,0.0,0.0,0.0,0.0,0.0,0.0,-0.5449509914223507,-0.4154642265865232,-0.389298434131755,0.5235389138281205,-0.01718824436160407,0.10574933464760526,-0.32243128832108187,0.06228893212209681,0.6882279884586254,-0.07864135032496254,-1.6209467247243512,0.028167341324162175,2.287832661363814,0.8466336420310868,0.06226373270833701,0.6884179775783729,-0.07863937525950354,-1.6210372792796082,0.028167345702647853,2.2878312372101677,0.8466366937888992,0.0002658898255005583,-9.599863687602383e-05,-0.0008804294345072096,-0.000795264063763348,-0.00012485218047095998,0.00015662389556297306,-0.0009412643344805921,0.0,0.0,0.0,0.0,0.0,0.0,0.0,-2.519941375980078e-05,0.0001899891197474357,1.9750654590006134e-06,-9.055455525697198e-05,4.378485678191435e-09,-1.4241536461234716e-06,3.0517578123445688e-06,-0.0002658898255005583,9.599863687602383e-05,0.0008804294345072096,0.000795264063763348,0.00012485218047095998,-0.00015662389556297306,0.0009412643344805921,0.5537349581718445,47.19466781616211,1.2401397228240967,-20.975374221801758,-0.5642600655555725,-2.3202548027038574,0.30978721380233765,0
7,0.029516935348510742,-0.5537349581718445,-47.19466781616211,-1.2401397228240967,20.975374221801758,0.5642600655555725,2.3202548027038574,-0.30978721380233765,0.0,0.0,0.0,0.0,0.0,0.0,0.0,-0.5449509914223507,-0.4154642265865232,-0.389298434131755,0.5235389138281205,-0.01718824436160407,0.10574933464760526,-0.32243128832108187,0.06228893212209681,0.6882279884586254,-0.07864135032496254,-1.6209467247243512,0.028167341324162175,2.287832661363814,0.8466336420310868,0.06226373270833701,0.6884179775783729,-0.07863937525950354,-1.6210372792796082,0.028167345702647853,2.2878312372101677,0.8466366937888992,0.0002658898255005583,-9.599863687602383e-05,-0.0008804294345072096,-0.000795264063763348,-0.00012485218047095998,0.00015662389556297306,-0.0009412643344805921,0.0,0.0,0.0,0.0,0.0,0.0,0.0,-2.519941375980078e-05,0.0001899891197474357,1.9750654590006134e-06,-9.055455525697198e-05,4.378485678191435e-09,-1.4241536461234716e-06,3.0517578123445688e-06,-0.0002658898255005583,9.599863687602383e-05,0.0008804294345072096,0.000795264063763348,0.00012485218047095998,-0.00015662389556297306,0.0009412643344805921,0.5537349581718445,47.19466781616211,1.2401397228240967,-20.975374221801758,-0.5642600655555725,-2.3202548027038574,0.30978721380233765,0
8,0.03451108932495117,-0.5299312472343445,-47.19466781616211,-1.2401397228240967,20.975374221801758,0.5697532296180725,2.3266634941101074,-0.32352012395858765,0.0,0.0,0.0,0.0,0.0,0.0,0.0,-0.5377741338227868,-0.4171507514715674,-0.3845442629526125,0.5292799326785779,-0.016948188970330087,0.10602147388816952,-0.3237727618288948,0.06228804202627493,0.6882301177315986,-0.07864111315530097,-1.6209467247243512,0.028166735351060943,2.2878320866474886,0.846635167909993,0.06226373270833701,0.6884179775783729,-0.07863937525950354,-1.6210372792796082,0.028167345702647853,2.2878312372101677,0.8466366937888992,-0.0003111882977737705,1.6259590267250583e-05,-5.9278898204463054e-05,-0.0004609157160625326,-0.00028162071965644083,-4.7064733536163616e-05,6.198245235162745e-05,0.0,0.0,0.0,0.0,0.0,0.0,0.0,-2.4309317937919184e-05,0.00018785984677427425,1.737895797424005e-06,-9.055455525697198e-05,6.103515869104736e-07,-8.494373209266826e-07,1.5258789061167732e-06,0.0003111882977737705,-1.6259590267250583e-05,5.9278898204463054e-05,0.0004609157160625326,0.00028162071965644083,4.7064733536163616e-05,-6.198245235162745e-05,0.5299312472343445,47.19466781616211,1.2401397228240967,-20.975374221801758,-0.5697532296180725,-2.3266634941101074,0.32352012395858765,0
9,0.03951096534729004,-0.5299312472343445,-47.19466781616211,-1.2401397228240967,20.975374221801758,0.5697532296180725,2.3266634941101074,-0.32352012395858765,0.0,0.0,0.0,0.0,0.0,0.0,0.0,-0.5377741338227868,-0.4171507514715674,-0.3845442629526125,0.5292799326785779,-0.016948188970330087,0.10602147388816952,-0.3237727618288948,0.06228804202627493,0.6882301177315986,-0.07864111315530097,-1.6209467247243512,0.028166735351060943,2.2878320866474886,0.846635167909993,0.06226373270833701,0.6884179775783729,-0.07863937525950354,-1.6210372792796082,0.028167345702647853,2.2878312372101677,0.8466366937888992,-0.0003111882977737705,1.6259590267250583e-05,-5.9278898204463054e-05,-0.0004609157160625326,-0.00028162071965644083,-4.7064733536163616e-05,6.198245235162745e-05,0.0,0.0,0.0,0.0,0.0,0.0,0.0,-2.4309317937919184e-05,0.00018785984677427425,1.737895797424005e-06,-9.055455525697198e-05,6.103515869104736e-07,-8.494373209266826e-07,1.5258789061167732e-06,0.0003111882977737705,-1.6259590267250583e-05,5.9278898204463054e-05,0.0004609157160625326,0.00028162071965644083,4.7064733536163616e-05,-6.198245235162745e-05,0.5299312472343445,47.19466781616211,1.2401397228240967,-20.975374221801758,-0.5697532296180725,-2.3266634941101074,0.32352012395858765,0
10,0.04450798034667969,-0.5299312472343445,-47.21847152709961,-1.2401397228240967,20.923799514770508,0.5578513741493225,2.3330721855163574,-0.30978721380233765,0.0,0.0,0.0,0.0,0.0,0.0,0.0,-0.538253476692074,-0.4294986385819462,-0.3847793901660556,0.536230578646852,-0.016213806988780572,0.10630619566036016,-0.3229219749316193,0.06228556899334959,0.6882296560056483,-0.0786413241004416,-1.6209430789557115,0.028168057779471074,2.2878323498309787,0.8466336420310868,0.06226373270833701,0.6884179775783729,-0.07863937525950354,-1.6210372792796082,0.028167345702647853,2.2878312372101677,0.8466366937888992,0.00011560109743074977,8.392335199356567e-05,-8.885263893959952e-05,3.20002174903336e-05,0.0002446691723496109,-0.00041415862205929717,-0.0006149691167436186,0.0,0.0,0.0,0.0,0.0,0.0,0.0,-2.183628501258028e-05,0.00018832157272452577,1.948840938056917e-06,-9.420032389662047e-05,-7.120768232213304e-07,-1.1126208110390223e-06,3.0517578123445688e-06,-0.00011560109743074977,-8.392335199356567e-05,8.885263893959952e-05,-3.20002174903336e-05,-0.0002446691723496109,0.00041415862205929717,0.0006149691167436186,0.5299312472343445,47.21847152709961,1.2401397228240967,-20.923799514770508,-0.5578513741493225,-2.3330721855163574,0.30978721380233765,0
11,0.049508094787597656,-0.5299312472343445,-47.21847152709961,-1.2401397228240967,20.923799514770508,0.5578513741493225,2.3330721855163574,-0.30978721380233765,0.0,0.0,0.0,0.0,0.0,0.0,0.0,-0.538253476692074,-0.4294986385819462,-0.3847793901660556,0.536230578646852,-0.016213806988780572,0.10630619566036016,-0.3229219749316193,0.06228556899334959,0.6882296560056483,-0.0786413241004416,-1.6209430789557115,0.028168057779471074,2.2878323498309787,0.8466336420310868,0.06226373270833701,0.6884179775783729,-0.07863937525950354,-1.6210372792796082,0.028167345702647853,2.2878312372101677,0.8466366937888992,0.00011560109743074977,8.392335199356567e-05,-8.885263893959952e-05,3.20002174903336e-05,0.0002446691723496109,-0.00041415862205929717,-0.0006149691167436186,0.0,0.0,0.0,0.0,0.0,0.0,0.0,-2.183628501258028e-05,0.00018832157272452577,1.948840938056917e-06,-9.420032389662047e-05,-7.120768232213304e-07,-1.1126208110390223e-06,3.0517578123445688e-06,-0.00011560109743074977,-8.392335199356567e-05,8.885263893959952e-05,-3.20002174903336e-05,-0.0002446691723496109,0.00041415862205929717,0.0006149691167436186,0.5299312472343445,47.21847152709961,1.2401397228240967,-20.923799514770508,-0.5578513741493225,-2.3330721855163574,0.30978721380233765,0
12,0.05450916290283203,-0.5299312472343445,-47.17086410522461,-1.2401397228240967,20.947603225708008,0.5523582100868225,2.3202548027038574,-0.35098594427108765,0.0,0.0,0.0,0.0,0.0,0.0,0.0,-0.5436348033479697,-0.42807069115029034,-0.38934573381967563,0.5346767164776141,-0.016290716681010477,0.10661071767738989,-0.3217684039602505,0.06228519773052225,0.6882263152288993,-0.0786413504696446,-1.6209447768632177,0.028168668131033577,2.2878360543565437,0.8466382196678056,0.06226373270833701,0.6884179775783729,-0.07863937525950354,-1.6210372792796082,0.028167345702647853,2.2878312372101677,0.8466366937888992,-0.00034027307322751654,-0.0012991445435351979,5.616867419368139e-05,-0.0001960534638371779,0.0047735680972081215,0.00020538332111574053,0.000999922871095869,0.0,0.0,0.0,0.0,0.0,0.0,0.0,-2.1465022185238047e-05,0.00019166234947354255,1.9752101410586143e-06,-9.250241639047196e-05,-1.3224283857242447e-06,-4.817146376012715e-06,-1.5258789064498401e-06,0.00034027307322751654,0.0012991445435351979,-5.616867419368139e-05,0.0001960534638371779,-0.0047735680972081215,-0.00020538332111574053,-0.000999922871095869,0.5299312472343445,47.17086410522461,1.2401397228240967,-20.947603225708008,-0.5523582100868225,-2.3202548027038574,0.35098594427108765,0
13,0.060002803802490234,-0.5299312472343445,-47.17086410522461,-1.2401397228240967,20.947603225708008,0.5523582100868225,2.3202548027038574,-0.35098594427108765,0.0,0.0,0.0,0.0,0.0,0.0,0.0,-0.5436348033479697,-0.42807069115029034,-0.38934573381967563,0.5346767164776141,-0.016290716681010477,0.10661071767738989,-0.3217684039602505,0.06228519773052225,0.6882263152288993,-0.0786413504696446,-1.6209447768632177,0.028168668131033577,2.2878360543565437,0.8466382196678056,0.06226373270833701,0.6884179775783729,-0.07863937525950354,-1.6210372792796082,0.028167345702647853,2.2878312372101677,0.8466366937888992,-0.00034027307322751654,-0.0012991445435351979,5.616867419368139e-05,-0.0001960534638371779,0.0047735680972081215,0.00020538332111574053,0.000999922871095869,0.0,0.0,0.0,0.0,0.0,0.0,0.0,-2.1465022185238047e-05,0.00019166234947354255,1.9752101410586143e-06,-9.250241639047196e-05,-1.3224283857242447e-06,-4.817146376012715e-06,-1.5258789064498401e-06,0.00034027307322751654,0.0012991445435351979,-5.616867419368139e-05,0.0001960534638371779,-0.0047735680972081215,-0.00020538332111574053,-0.000999922871095869,0.5299312472343445,47.17086410522461,1.2401397228240967,-20.947603225708008,-0.5523582100868225,-2.3202548027038574,0.35098594427108765,0
14,0.06541943550109863,-0.5299312472343445,-47.17086410522461,-1.2679107189178467,20.975374221801758,0.5697532296180725,2.3266634941101074,-0.35831016302108765,0.0,0.0,0.0,0.0,0.0,0.0,0.0,-0.5371259069932821,-0.42661075198599446,-0.3839130785449052,0.5341923234051179,-0.01564911329701449,0.10641327523554586,-0.3217694813419676,0.06228801640401854,0.6882263180108329,-0.07863937229396736,-1.620946724724353,0.02816673535108566,2.287831953872058,0.8466390334698889,0.06226373270833701,0.6884179775783729,-0.07863937525950354,-1.6210372792796082,0.028167345702647853,2.2878312372101677,0.8466366937888992,9.176095284697712e-05,-0.0010443941950655626,0.0005598867394087934,-0.0008073084426411706,-0.00013482014145089582,-0.00017503571672014459,0.0017376982803629824,0.0,0.0,0.0,0.0,0.0,0.0,0.0,-2.4283695681533157e-05,0.00019165956753997015,-2.965536177734762e-09,-9.055455525519562e-05,6.103515621941336e-07,-7.166618902765265e-07,-2.339680989726922e-06,-9.176095284697712e-05,0.0010443941950655626,-0.0005598867394087934,0.0008073084426411706,0.00013482014145089582,0.00017503571672014459,-0.0017376982803629824,0.5299312472343445,47.17086410522461,1.2679107189178467,-20.975374221801758,-0.5697532296180725,-2.3266634941101074,0.35831016302108765,0
15,0.06951069831848145,-0.5299312472343445,-47.17086410522461,-1.2679107189178467,20.975374221801758,0.5697532296180725,2.3266634941101074,-0.35831016302108765,0.0,0.0,0.0,0.0,0.0,0.0,0.0,-0.5371259069932821,-0.42661075198599446,-0.3839130785449052,0.5341923234051179,-0.01564911329701449,0.10641327523554586,-0.3217694813419676,0.06228801640401854,0.6882263180108329,-0.07863937229396736,-1.620946724724353,0.02816673535108566,2.287831953872058,0.8466390334698889,0.06226373270833701,0.6884179775783729,-0.07863937525950354,-1.6210372792796082,0.028167345702647853,2.2878312372101677,0.8466366937888992,9.176095284697712e-05,-0.0010443941950655626,0.0005598867394087934,-0.0008073084426411706,-0.00013482014145089582,-0.00017503571672014459,0.0017376982803629824,0.0,0.0,0.0,0.0,0.0,0.0,0.0,-2.4283695681533157e-05,0.00019165956753997015,-2.965536177734762e-09,-9.055455525519562e-05,6.103515621941336e-07,-7.166618902765265e-07,-2.339680989726922e-06,-9.176095284697712e-05,0.0010443941950655626,-0.0005598867394087934,0.0008073084426411706,0.00013482014145089582,0.00017503571672014459,-0.0017376982803629824,0.5299312472343445,47.17086410522461,1.2679107189178467,-20.975374221801758,-0.5697532296180725,-2.3266634941101074,0.35831016302108765,0
16,0.0745089054107666,-0.5815059542655945,-47.19466781616211,-1.2401397228240967,20.975374221801758,0.5523582100868225,2.3266634941101074,-0.32352012395858765,0.0,0.0,0.0,0.0,0.0,0.0,0.0,-0.5474402721635104,-0.42470206427056567,-0.39176739630193974,0.5332045734334204,-0.015340004477308735,0.10623107765475774,-0.3219651887886251,0.062291325163371485,0.6882279856647706,-0.07864135046992558,-1.6209467247243512,0.028168668131033577,2.2878323203299424,0.846635167909993,0.06226373270833701,0.6884179775783729,-0.07863937525950354,-1.6210372792796082,0.028167345702647853,2.2878312372101677,0.8466366937888992,0.0006954090976183935,-0.0008462863594251337,-6.864380418927266e-05,-0.0008522961301397446,0.0002487210517700089,0.0003036058410753785,7.645429510170259e-05,0.0,0.0,0.0,0.0,0.0,0.0,0.0,-2.7592455034475272e-05,0.00018999191360224987,1.975210422042184e-06,-9.055455525697198e-05,-1.3224283857242447e-06,-1.0831197747585009e-06,1.5258789061167732e-06,-0.0006954090976183935,0.0008462863594251337,6.864380418927266e-05,0.0008522961301397446,-0.0002487210517700089,-0.0003036058410753785,-7.645429510170259e-05,0.5815059542655945,47.19466781616211,1.2401397228240967,-20.975374221801758,-0.5523582100868225,-2.3266634941101074,0.32352012395858765,0
17,0.07950758934020996,-0.5815059542655945,-47.19466781616211,-1.2401397228240967,20.975374221801758,0.5523582100868225,2.3266634941101074,-0.32352012395858765,0.0,0.0,0.0,0.0,0.0,0.0,0.0,-0.5474402721635104,-0.42470206427056567,-0.39176739630193974,0.5332045734334204,-0.015340004477308735,0.10623107765475774,-0.3219651887886251,0.062291325163371485,0.6882279856647706,-0.07864135046992558,-1.6209467247243512,0.028168668131033577,2.2878323203299424,0.846635167909993,0.06226373270833701,0.6884179775783729,-0.07863937525950354,-1.6210372792796082,0.028167345702647853,2.2878312372101677,0.8466366937888992,0.0006954090976183935,-0.0008462863594251337,-6.864380418927266e-05,-0.0008522961301397446,0.0002487210517700089,0.0003036058410753785,7.645429510170259e-05,0.0,0.0,0.0,0.0,0.0,0.0,0.0,-2.7592455034475272e-05,0.00018999191360224987,1.975210422042184e-06,-9.055455525697198e-05,-1.3224283857242447e-06,-1.0831197747585009e-06,1.5258789061167732e-06,-0.0006954090976183935,0.0008462863594251337,6.864380418927266e-05,0.0008522961301397446,-0.0002487210517700089,-0.0003036058410753785,-7.645429510170259e-05,0.5815059542655945,47.19466781616211,1.2401397228240967,-20.975374221801758,-0.5523582100868225,-2.3266634941101074,0.32352012395858765,0
18,0.08450818061828613,-0.5815059542655945,-47.19466781616211,-1.2401397228240967,20.975374221801758,0.5523582100868225,2.3266634941101074,-0.32352012395858765,0.0,0.0,0.0,0.0,0.0,0.0,0.0,-0.5474402721635104,-0.42470206427056567,-0.39176739630193974,0.5332045734334204,-0.015340004477308735,0.10623107765475774,-0.3219651887886251,0.062291325163371485,0.6882279856647706,-0.07864135046992558,-1.6209467247243512,0.028168668131033577,2.2878323203299424,0.846635167909993,0.06226373270833701,0.6884179775783729,-0.07863937525950354,-1.6210372792796082,0.028167345702647853,2.2878312372101677,0.8466366937888992,0.0006954090976183935,-0.0008462863594251337,-6.864380418927266e-05,-0.0008522961301397446,0.0002487210517700089,0.0003036058410753785,7.645429510170259e-05,0.0,0.0,0.0,0.0,0.0,0.0,0.0,-2.7592455034475272e-05,0.00018999191360224987,1.975210422042184e-06,-9.055455525697198e-05,-1.3224283857242447e-06,-1.0831197747585009e-06,1.5258789061167732e-06,-0.0006954090976183935,0.0008462863594251337,6.864380418927266e-05,0.0008522961301397446,-0.0002487210517700089,-0.0003036058410753785,-7.645429510170259e-05,0.5815059542655945,47.19466781616211,1.2401397228240967,-20.975374221801758,-0.5523582100868225,-2.3266634941101074,0.32352012395858765,0
19,0.08950948715209961,-0.5815059542655945,-47.19466781616211,-1.2401397228240967,20.975374221801758,0.5523582100868225,2.3266634941101074,-0.32352012395858765,0.0,0.0,0.0,0.0,0.0,0.0,0.0,-0.5474402721635104,-0.42470206427056567,-0.39176739630193974,0.5332045734334204,-0.015340004477308735,0.10623107765475774,-0.3219651887886251,0.062291325163371485,0.6882279856647706,-0.07864135046992558,-1.6209467247243512,0.028168668131033577,2.2878323203299424,0.846635167909993,0.06226373270833701,0.6884179775783729,-0.07863937525950354,-1.6210372792796082,0.028167345702647853,2.2878312372101677,0.8466366937888992,0.0006954090976183935,-0.0008462863594251337,-6.864380418927266e-05,-0.0008522961301397446,0.0002487210517700089,0.0003036058410753785,7.645429510170259e-05,0.0,0.0,0.0,0.0,0.0,0.0,0.0,-2.7592455034475272e-05,0.00018999191360224987,1.975210422042184e-06,-9.055455525697198e-05,-1.3224283857242447e-06,-1.0831197747585009e-06,1.5258789061167732e-06,-0.0006954090976183935,0.0008462863594251337,6.864380418927266e-05,0.0008522961301397446,-0.0002487210517700089,-0.0003036058410753785,-7.645429510170259e-05,0.5815059542655945,47.19466781616211,1.2401397228240967,-20.975374221801758,-0.5523582100868225,-2.3266634941101074,0.32352012395858765,0
20,0.09452462196350098,-0.5537349581718445,-47.19466781616211,-1.2917144298553467,20.923799514770508,0.5642600655555725,2.3330721855163574,-0.34457725286483765,0.0,0.0,0.0,0.0,0.0,0.0,0.0,-0.5425877231083692,-0.4188601954119094,-0.3848084121148989,0.5298867332967702,-0.016028715909018994,0.1065498064704736,-0.32142722133942087,0.0622889301835788,0.6882279884466885,-0.07863701924803661,-1.6209431054466648,0.02816734570264816,2.287831731710056,0.8466375075909827,0.06226373270833701,0.6884179775783729,-0.07863937525950354,-1.6210372792796082,0.028167345702647853,2.2878312372101677,0.8466366937888992,3.699183570442702e-05,-0.0005045612999470063,0.0007331325066973232,0.0005834764664283779,-0.00019525658865170105,-0.0002213677963427415,0.0009534509955406832,0.0,0.0,0.0,0.0,0.0,0.0,0.0,-2.5197475241788003e-05,0.00018998913168433162,-2.3560114669335386e-06,-9.417383294341164e-05,-3.0531133177191805e-16,-4.944998881484253e-07,-8.138020834991266e-07,-3.699183570442702e-05,0.0005045612999470063,-0.0007331325066973232,-0.0005834764664283779,0.00019525658865170105,0.0002213677963427415,-0.0009534509955406832,0.5537349581718445,47.19466781616211,1.2917144298553467,-20.923799514770508,-0.5642600655555725,-2.3330721855163574,0.34457725286483765,0
21,0.09951615333557129,-0.5537349581718445,-47.19466781616211,-1.2917144298553467,20.923799514770508,0.5642600655555725,2.3330721855163574,-0.34457725286483765,0.0,0.0,0.0,0.0,0.0,0.0,0.0,-0.5425877231083692,-0.4188601954119094,-0.3848084121148989,0.5298867332967702,-0.016028715909018994,0.1065498064704736,-0.32142722133942087,0.0622889301835788,0.6882279884466885,-0.07863701924803661,-1.6209431054466648,0.02816734570264816,2.287831731710056,0.8466375075909827,0.06226373270833701,0.6884179775783729,-0.07863937525950354,-1.6210372792796082,0.028167345702647853,2.2878312372101677,0.8466366937888992,3.699183570442702e-05,-0.0005045612999470063,0.0007331325066973232,0.0005834764664283779,-0.00019525658865170105,-0.0002213677963427415,0.0009534509955406832,0.0,0.0,0.0,0.0,0.0,0.0,0.0,-2.5197475241788003e-05,0.00018998913168433162,-2.3560114669335386e-06,-9.417383294341164e-05,-3.0531133177191805e-16,-4.944998881484253e-07,-8.138020834991266e-07,-3.699183570442702e-05,0.0005045612999470063,-0.0007331325066973232,-0.0005834764664283779,0.00019525658865170105,0.0002213677963427415,-0.0009534509955406832,0.5537349581718445,47.19466781616211,1.2917144298553467,-20.923799514770508,-0.5642600655555725,-2.3330721855163574,0.34457725286483765,0
22,0.10600733757019043,-0.5537349581718445,-47.24624252319336,-1.2917144298553467,20.947603225708008,0.5642600655555725,2.3330721855163574,-0.34457725286483765,0.0,0.0,0.0,0.0,0.0,0.0,0.0,-0.540584672619563,-0.432877699203117,-0.3836930665810567,0.5367708572880533,-0.016730336948049724,0.10778038230827613,-0.3212161057863766,0.062289011736332646,0.6882323068457202,-0.07863770482007588,-1.6209447768636664,0.02816734570264816,2.2878345888091163,0.8466375075909827,0.06226373270833701,0.6884179775783729,-0.07863937525950354,-1.6210372792796082,0.028167345702647853,2.2878312372101677,0.8466366937888992,0.0003413569951879633,0.0005486354381677919,0.0005712409695212061,0.00015465450394855956,-7.168050840354701e-05,-0.00020811837523199622,0.0005231204613865453,0.0,0.0,0.0,0.0,0.0,0.0,0.0,-2.5279027995636638e-05,0.0001856707326526319,-1.6704394276562118e-06,-9.250241594171982e-05,-3.0531133177191805e-16,-3.3515989485977116e-06,-8.138020834991266e-07,-0.0003413569951879633,-0.0005486354381677919,-0.0005712409695212061,-0.00015465450394855956,7.168050840354701e-05,0.00020811837523199622,-0.0005231204613865453,0.5537349581718445,47.24624252319336,1.2917144298553467,-20.947603225708008,-0.5642600655555725,-2.3330721855163574,0.34457725286483765,0
23,0.10950446128845215,-0.5537349581718445,-47.24624252319336,-1.2917144298553467,20.947603225708008,0.5642600655555725,2.3330721855163574,-0.34457725286483765,0.0,0.0,0.0,0.0,0.0,0.0,0.0,-0.540584672619563,-0.432877699203117,-0.3836930665810567,0.5367708572880533,-0.016730336948049724,0.10778038230827613,-0.3212161057863766,0.062289011736332646,0.6882323068457202,-0.07863770482007588,-1.6209447768636664,0.02816734570264816,2.2878345888091163,0.8466375075909827,0.06226373270833701,0.6884179775783729,-0.07863937525950354,-1.6210372792796082,0.028167345702647853,2.2878312372101677,0.8466366937888992,0.0003413569951879633,0.0005486354381677919,0.0005712409695212061,0.00015465450394855956,-7.168050840354701e-05,-0.00020811837523199622,0.0005231204613865453,0.0,0.0,0.0,0.0,0.0,0.0,0.0,-2.5279027995636638e-05,0.0001856707326526319,-1.6704394276562118e-06,-9.250241594171982e-05,-3.0531133177191805e-16,-3.3515989485977116e-06,-8.138020834991266e-07,-0.0003413569951879633,-0.0005486354381677919,-0.0005712409695212061,-0.00015465450394855956,7.168050840354701e-05,0.00020811837523199622,-0.0005231204613865453,0.5537349581718445,47.24624252319336,1.2917144298553467,-20.947603225708008,-0.5642600655555725,-2.3330721855163574,0.34457725286483765,0
24,0.11468100547790527,-0.5815059542655945,-47.21847152709961,-1.2679107189178467,20.923799514770508,0.5523582100868225,2.3330721855163574,-0.28964561223983765,0.0,0.0,0.0,0.0,0.0,0.0,0.0,-0.5440613772629668,-0.4275992096945736,-0.3880776593462861,0.5325226002613196,-0.01661625844517307,0.10718682540026464,-0.3227135170552103,0.06228944935221097,0.688229655997575,-0.07863726568649514,-1.6209431054466703,0.028168668131033577,2.2878312799634646,0.8466314040753576,0.06226373270833701,0.6884179775783729,-0.07863937525950354,-1.6210372792796082,0.028167345702647853,2.2878312372101677,0.8466366937888992,0.0007816340112975987,0.00015954960304029943,-0.0001431765800121965,0.0006544382578112411,0.00033244907481651113,-0.0005066807563446961,-0.001598025643174802,0.0,0.0,0.0,0.0,0.0,0.0,0.0,-2.5716643873963108e-05,0.00018832158079784556,-2.1095730084047526e-06,-9.417383293786052e-05,-1.3224283857242447e-06,-4.275329690273111e-08,5.289713541523078e-06,-0.0007816340112975987,-0.00015954960304029943,0.0001431765800121965,-0.0006544382578112411,-0.00033244907481651113,0.0005066807563446961,0.001598025643174802,0.5815059542655945,47.21847152709961,1.2679107189178467,-20.923799514770508,-0.5523582100868225,-2.3330721855163574,0.28964561223983765,0
25,0.11951375007629395,-0.5815059542655945,-47.21847152709961,-1.2679107189178467,20.923799514770508,0.5523582100868225,2.3330721855163574,-0.28964561223983765,0.0,0.0,0.0,0.0,0.0,0.0,0.0,-0.5440613772629668,-0.4275992096945736,-0.3880776593462861,0.5325226002613196,-0.01661625844517307,0.10718682540026464,-0.3227135170552103,0.06228944935221097,0.688229655997575,-0.07863726568649514,-1.6209431054466703,0.028168668131033577,2.2878312799634646,0.8466314040753576,0.06226373270833701,0.6884179775783729,-0.07863937525950354,-1.6210372792796082,0.028167345702647853,2.2878312372101677,0.8466366937888992,0.0007816340112975987,0.00015954960304029943,-0.0001431765800121965,0.0006544382578112411,0.00033244907481651113,-0.0005066807563446961,-0.001598025643174802,0.0,0.0,0.0,0.0,0.0,0.0,0.0,-2.5716643873963108e-05,0.00018832158079784556,-2.1095730084047526e-06,-9.417383293786052e-05,-1.3224283857242447e-06,-4.275329690273111e-08,5.289713541523078e-06,-0.0007816340112975987,-0.00015954960304029943,0.0001431765800121965,-0.0006544382578112411,-0.00033244907481651113,0.0005066807563446961,0.001598025643174802,0.5815059542655945,47.21847152709961,1.2679107189178467,-20.923799514770508,-0.5523582100868225,-2.3330721855163574,0.28964561223983765,0
26,0.12446188926696777,-0.5537349581718445,-47.24624252319336,-1.2401397228240967,20.975374221801758,0.5642600655555725,2.3330721855163574,-0.34457725286483765,0.0,0.0,0.0,0.0,0.0,0.0,0.0,-0.5327688286823143,-0.4277364288728665,-0.3820355734053253,0.5322382691814262,-0.016081945312695266,0.10665128770989905,-0.3219114658637461,0.06228687205712888,0.6882316048354433,-0.07864135045803372,-1.6209467247243512,0.02816734570264816,2.2878346986949647,0.8466375075909827,0.06226373270833701,0.6884179775783729,-0.07863937525950354,-1.6210372792796082,0.028167345702647853,2.2878312372101677,0.8466366937888992,0.00046175757240186644,0.0009125280471182062,-0.0005529618696325728,-0.0006100169889450913,0.009578275890806943,-0.00036909744049777035,0.0008409812444914916,0.0,0.0,0.0,0.0,0.0,0.0,0.0,-2.3139348791868797e-05,0.00018637274292954142,1.9751985301796893e-06,-9.055455525697198e-05,-3.0531133177191805e-16,-3.461484797018244e-06,-8.138020834991266e-07,-0.00046175757240186644,-0.0009125280471182062,0.0005529618696325728,0.0006100169889450913,-0.009578275890806943,0.00036909744049777035,-0.0008409812444914916,0.5537349581718445,47.24624252319336,1.2401397228240967,-20.975374221801758,-0.5642600655555725,-2.3330721855163574,0.34457725286483765,0
27,0.12950968742370605,-0.5537349581718445,-47.24624252319336,-1.2401397228240967,20.975374221801758,0.5642600655555725,2.3330721855163574,-0.34457725286483765,0.0,0.0,0.0,0.0,0.0,0.0,0.0,-0.5327688286823143,-0.4277364288728665,-0.3820355734053253,0.5322382691814262,-0.016081945312695266,0.10665128770989905,-0.3219114658637461,0.06228687205712888,0.6882316048354433,-0.07864135045803372,-1.6209467247243512,0.02816734570264816,2.2878346986949647,0.8466375075909827,0.06226373270833701,0.6884179775783729,-0.07863937525950354,-1.6210372792796082,0.028167345702647853,2.2878312372101677,0.8466366937888992,0.00046175757240186644,0.0009125280471182062,-0.0005529618696325728,-0.0006100169889450913,0.009578275890806943,-0.00036909744049777035,0.0008409812444914916,0.0,0.0,0.0,0.0,0.0,0.0,0.0,-2.3139348791868797e-05,0.00018637274292954142,1.9751985301796893e-06,-9.055455525697198e-05,-3.0531133177191805e-16,-3.461484797018244e-06,-8.138020834991266e-07,-0.00046175757240186644,-0.0009125280471182062,0.0005529618696325728,0.0006100169889450913,-0.009578275890806943,0.00036909744049777035,-0.0008409812444914916,0.5537349581718445,47.24624252319336,1.2401397228240967,-20.975374221801758,-0.5642600655555725,-2.3330721855163574,0.34457725286483765,0
28,0.13451886177062988,-0.5299312472343445,-47.17086410522461,-1.2679107189178467,20.947603225708008,0.5578513741493225,2.3202548027038574,-0.34457725286483765,0.0,0.0,0.0,0.0,0.0,0.0,0.0,-0.5453743637304131,-0.4295323122670434,-0.391917031343891,0.5336827280389045,-0.016254877038186923,0.10685933610908577,-0.3220397682757603,0.062285209308036354,0.6882265491253219,-0.07863940162825982,-1.62094477588252,0.028168057779471074,2.287832702630584,0.8466375075909827,0.06226373270833701,0.6884179775783729,-0.07863937525950354,-1.6210372792796082,0.028167345702647853,2.2878312372101677,0.8466366937888992,-0.00029653740868932585,-0.0009847376561246647,-1.3059319425381882e-05,0.0001858128862895023,0.0006976463765523114,0.00022507339390702132,0.0008416733720588501,0.0,0.0,0.0,0.0,0.0,0.0,0.0,-2.1476599699345178e-05,0.0001914284530509791,2.636875627570756e-08,-9.25033970882172e-05,-7.120768232213304e-07,-1.4654204161246298e-06,-8.138020834991266e-07,0.00029653740868932585,0.0009847376561246647,1.3059319425381882e-05,-0.0001858128862895023,-0.0006976463765523114,-0.00022507339390702132,-0.0008416733720588501,0.5299312472343445,47.17086410522461,1.2679107189178467,-20.947603225708008,-0.5578513741493225,-2.3202548027038574,0.34457725286483765,0
29,0.13953137397766113,-0.5299312472343445,-47.17086410522461,-1.2679107189178467,20.947603225708008,0.5578513741493225,2.3202548027038574,-0.34457725286483765,0.0,0.0,0.0,0.0,0.0,0.0,0.0,-0.5453743637304131,-0.4295323122670434,-0.391917031343891,0.5336827280389045,-0.016254877038186923,0.10685933610908577,-0.3220397682757603,0.062285209308036354,0.6882265491253219,-0.07863940162825982,-1.62094477588252,0.028168057779471074,2.287832702630584,0.8466375075909827,0.06226373270833701,0.6884179775783729,-0.07863937525950354,-1.6210372792796082,0.028167345702647853,2.2878312372101677,0.8466366937888992,-0.00029653740868932585,-0.0009847376561246647,-1.3059319425381882e-05,0.0001858128862895023,0.0006976463765523114,0.00022507339390702132,0.0008416733720588501,0.0,0.0,0.0,0.0,0.0,0.0,0.0,-2.1476599699345178e-05,0.0001914284530509791,2.636875627570756e-08,-9.25033970882172e-05,-7.120768232213304e-07,-1.4654204161246298e-06,-8.138020834991266e-07,0.00029653740868932585,0.0009847376561246647,1.3059319425381882e-05,-0.0001858128862895023,-0.0006976463765523114,-0.00022507339390702132,-0.0008416733720588501,0.5299312472343445,47.17086410522461,1.2679107189178467,-20.947603225708008,-0.5578513741493225,-2.3202548027038574,0.34457725286483765,0
30,0.14450621604919434,-0.5299312472343445,-47.19466781616211,-1.2679107189178467,20.947603225708008,0.5697532296180725,2.3330721855163574,-0.29605430364608765,0.0,0.0,0.0,0.0,0.0,0.0,0.0,-0.5587394025359113,-0.4289551300147242,-0.40203551440672114,0.5344962400970745,-0.015717472880878543,0.10729174275827508,-0.32212771602201096,0.06228511999431743,0.6882279885576482,-0.07863936647051345,-1.62094477588252,0.02816673535108566,2.2878312372108662,0.8466321161521806,0.06226373270833701,0.6884179775783729,-0.07863937525950354,-1.6210372792796082,0.028167345702647853,2.2878312372101677,0.8466366937888992,-0.0012323795658774925,-0.0006389864622254872,-0.000415593530896722,5.6518714065881555e-05,-0.00046244404069232744,-0.00022901808124226709,-0.001117572875269749,0.0,0.0,0.0,0.0,0.0,0.0,0.0,-2.1387285980417614e-05,0.00018998902072464574,-8.788990091268545e-09,-9.25033970882172e-05,6.103515621941336e-07,-6.985523270941485e-13,4.577636718572364e-06,0.0012323795658774925,0.0006389864622254872,0.000415593530896722,-5.6518714065881555e-05,0.00046244404069232744,0.00022901808124226709,0.001117572875269749,0.5299312472343445,47.19466781616211,1.2679107189178467,-20.947603225708008,-0.5697532296180725,-2.3330721855163574,0.29605430364608765,0
31,0.14951109886169434,-0.5299312472343445,-47.19466781616211,-1.2679107189178467,20.947603225708008,0.5697532296180725,2.3330721855163574,-0.29605430364608765,0.0,0.0,0.0,0.0,0.0,0.0,0.0,-0.5587394025359113,-0.4289551300147242,-0.40203551440672114,0.5344962400970745,-0.015717472880878543,0.10729174275827508,-0.32212771602201096,0.06228511999431743,0.6882279885576482,-0.07863936647051345,-1.62094477588252,0.02816673535108566,2.2878312372108662,0.8466321161521806,0.06226373270833701,0.6884179775783729,-0.07863937525950354,-1.6210372792796082,0.028167345702647853,2.2878312372101677,0.8466366937888992,-0.0012323795658774925,-0.0006389864622254872,-0.000415593530896722,5.6518714065881555e-05,-0.00046244404069232744,-0.00022901808124226709,-0.001117572875269749,0.0,0.0,0.0,0.0,0.0,0.0,0.0,-2.1387285980417614e-05,0.00018998902072464574,-8.788990091268545e-09,-9.25033970882172e-05,6.103515621941336e-07,-6.985523270941485e-13,4.577636718572364e-06,0.0012323795658774925,0.0006389864622254872,0.000415593530896722,-5.6518714065881555e-05,0.00046244404069232744,0.00022901808124226709,0.001117572875269749,0.5299312472343445,47.19466781616211,1.2679107189178467,-20.947603225708008,-0.5697532296180725,-2.3330721855163574,0.29605430364608765,0
32,0.15451693534851074,-0.5537349581718445,-47.17086410522461,-1.2679107189178467,20.923799514770508,0.5697532296180725,2.3138461112976074,-0.35831016302108765,0.0,0.0,0.0,0.0,0.0,0.0,0.0,-0.5323634952894092,-0.40717865346339327,-0.38446381518751915,0.5261237894243804,-0.01619361395953122,0.10651984565965421,-0.322030796867579,0.06228724068676788,0.6882263160967729,-0.07863932252326407,-1.6209431054466648,0.02816673535108566,2.287833387346267,0.8466390334698889,0.06226373270833701,0.6884179775783729,-0.07863937525950354,-1.6210372792796082,0.028167345702647853,2.2878312372101677,0.8466366937888992,0.0005307734289866566,-0.0002091838833806511,0.00012093676961908822,0.0002097572818471139,-0.00021223706881771134,0.00036331291272007066,0.0016162643351873124,0.0,0.0,0.0,0.0,0.0,0.0,0.0,-2.3507978430870047e-05,0.00019166148159999175,-5.273623947255057e-08,-9.417383294341164e-05,6.103515621941336e-07,-2.150136099388078e-06,-2.339680989726922e-06,-0.0005307734289866566,0.0002091838833806511,-0.00012093676961908822,-0.0002097572818471139,0.00021223706881771134,-0.00036331291272007066,-0.0016162643351873124,0.5537349581718445,47.17086410522461,1.2679107189178467,-20.923799514770508,-0.5697532296180725,-2.3138461112976074,0.35831016302108765,0
33,0.15951013565063477,-0.5537349581718445,-47.17086410522461,-1.2679107189178467,20.923799514770508,0.5697532296180725,2.3138461112976074,-0.35831016302108765,0.0,0.0,0.0,0.0,0.0,0.0,0.0,-0.5323634952894092,-0.40717865346339327,-0.38446381518751915,0.5261237894243804,-0.01619361395953122,0.10651984565965421,-0.322030796867579,0.06228724068676788,0.6882263160967729,-0.07863932252326407,-1.6209431054466648,0.02816673535108566,2.287833387346267,0.8466390334698889,0.06226373270833701,0.6884179775783729,-0.07863937525950354,-1.6210372792796082,0.028167345702647853,2.2878312372101677,0.8466366937888992,0.0005307734289866566,-0.0002091838833806511,0.00012093676961908822,0.0002097572818471139,-0.00021223706881771134,0.00036331291272007066,0.0016162643351873124,0.0,0.0,0.0,0.0,0.0,0.0,0.0,-2.3507978430870047e-05,0.00019166148159999175,-5.273623947255057e-08,-9.417383294341164e-05,6.103515621941336e-07,-2.150136099388078e-06,-2.339680989726922e-06,-0.0005307734289866566,0.0002091838833806511,-0.00012093676961908822,-0.0002097572818471139,0.00021223706881771134,-0.00036331291272007066,-0.0016162643351873124,0.5537349581718445,47.17086410522461,1.2679107189178467,-20.923799514770508,-0.5697532296180725,-2.3138461112976074,0.35831016302108765,0
34,0.164536714553833,-0.5021602511405945,-47.14706039428711,-1.2401397228240967,20.975374221801758,0.5697532296180725,2.3138461112976074,-0.32352012395858765,0.0,0.0,0.0,0.0,0.0,0.0,0.0,-0.5300552089049884,-0.41120200893536385,-0.38447251522933096,0.5317994257943663,-0.01592624068278316,0.1067632094918904,-0.32271700575715606,0.06228538108189183,0.6882267508238313,-0.07864134168020798,-1.6209467247243512,0.02816673535108566,2.287833428384914,0.846635167909993,0.06226373270833701,0.6884179775783729,-0.07863937525950354,-1.6210372792796082,0.028167345702647853,2.2878312372101677,0.8466366937888992,-0.00041865415297623896,-0.00014096364825042206,6.47183145764366e-05,-0.000965757402022289,-0.0003309294482380844,0.00030460811715188443,-0.0003824832930853033,0.0,0.0,0.0,0.0,0.0,0.0,0.0,-2.1648373554818134e-05,0.00019122675454152915,1.966420704435645e-06,-9.055455525697198e-05,6.103515621941336e-07,-2.191174746535296e-06,1.5258789061167732e-06,0.00041865415297623896,0.00014096364825042206,-6.47183145764366e-05,0.000965757402022289,0.0003309294482380844,-0.00030460811715188443,0.0003824832930853033,0.5021602511405945,47.14706039428711,1.2401397228240967,-20.975374221801758,-0.5697532296180725,-2.3138461112976074,0.32352012395858765,0
35,0.16953563690185547,-0.5021602511405945,-47.14706039428711,-1.2401397228240967,20.975374221801758,0.5697532296180725,2.3138461112976074,-0.32352012395858765,0.0,0.0,0.0,0.0,0.0,0.0,0.0,-0.5300552089049884,-0.41120200893536385,-0.38447251522933096,0.5317994257943663,-0.01592624068278316,0.1067632094918904,-0.32271700575715606,0.06228538108189183,0.6882267508238313,-0.07864134168020798,-1.6209467247243512,0.02816673535108566,2.287833428384914,0.846635167909993,0.06226373270833701,0.6884179775783729,-0.07863937525950354,-1.6210372792796082,0.028167345702647853,2.2878312372101677,0.8466366937888992,-0.00041865415297623896,-0.00014096364825042206,6.47183145764366e-05,-0.000965757402022289,-0.0003309294482380844,0.00030460811715188443,-0.0003824832930853033,0.0,0.0,0.0,0.0,0.0,0.0,0.0,-2.1648373554818134e-05,0.00019122675454152915,1.966420704435645e-06,-9.055455525697198e-05,6.103515621941336e-07,-2.191174746535296e-06,1.5258789061167732e-06,0.00041865415297623896,0.00014096364825042206,-6.47183145764366e-05,0.000965757402022289,0.0003309294482380844,-0.00030460811715188443,0.0003824832930853033,0.5021602511405945,47.14706039428711,1.2401397228240967,-20.975374221801758,-0.5697532296180725,-2.3138461112976074,0.32352012395858765,0
36,0.17450928688049316,-0.4505855441093445,-47.17086410522461,-1.2163360118865967,20.923799514770508,0.5697532296180725,2.3202548027038574,-0.34457725286483765,0.0,0.0,0.0,0.0,0.0,0.0,0.0,-0.5263264468392742,-0.4199488020844913,-0.3850981407169169,0.5384932276715444,-0.01583420997062449,0.10658373136256442,-0.32356271224864785,0.06228240184259445,0.6882263151337908,-0.07864088409618829,-1.6209431054466648,0.02816673535108566,2.287832707716226,0.8466375075909827,0.06226373270833701,0.6884179775783729,-0.07863937525950354,-1.6210372792796082,0.028167345702647853,2.2878312372101677,0.8466366937888992,-0.0010699436606146713,-0.00013521966679159124,-0.00016521379387954087,0.0003667913200865072,-0.0003981687160324741,8.64478782067881e-05,0.0011209501530810267,0.0,0.0,0.0,0.0,0.0,0.0,0.0,-1.8669134257437436e-05,0.0001916624445820192,1.5088366847465506e-06,-9.417383294341164e-05,6.103515621941336e-07,-1.4705060582542728e-06,-8.138020834991266e-07,0.0010699436606146713,0.00013521966679159124,0.00016521379387954087,-0.0003667913200865072,0.0003981687160324741,-8.64478782067881e-05,-0.0011209501530810267,0.4505855441093445,47.17086410522461,1.2163360118865967,-20.923799514770508,-0.5697532296180725,-2.3202548027038574,0.34457725286483765,0
37,0.1795203685760498,-0.4505855441093445,-47.17086410522461,-1.2163360118865967,20.923799514770508,0.5697532296180725,2.3202548027038574,-0.34457725286483765,0.0,0.0,0.0,0.0,0.0,0.0,0.0,-0.5263264468392742,-0.4199488020844913,-0.3850981407169169,0.5384932276715444,-0.01583420997062449,0.10658373136256442,-0.32356271224864785,0.06228240184259445,0.6882263151337908,-0.07864088409618829,-1.6209431054466648,0.02816673535108566,2.287832707716226,0.8466375075909827,0.06226373270833701,0.6884179775783729,-0.07863937525950354,-1.6210372792796082,0.028167345702647853,2.2878312372101677,0.8466366937888992,-0.0010699436606146713,-0.00013521966679159124,-0.00016521379387954087,0.0003667913200865072,-0.0003981687160324741,8.64478782067881e-05,0.0011209501530810267,0.0,0.0,0.0,0.0,0.0,0.0,0.0,-1.8669134257437436e-05,0.0001916624445820192,1.5088366847465506e-06,-9.417383294341164e-05,6.103515621941336e-07,-1.4705060582542728e-06,-8.138020834991266e-07,0.0010699436606146713,0.00013521966679159124,0.00016521379387954087,-0.0003667913200865072,0.0003981687160324741,-8.64478782067881e-05,-0.0011209501530810267,0.4505855441093445,47.17086410522461,1.2163360118865967,-20.923799514770508,-0.5697532296180725,-2.3202548027038574,0.34457725286483765,0
38,0.18451428413391113,-0.5299312472343445,-47.21847152709961,-1.2401397228240967,20.923799514770508,0.5578513741493225,2.3266634941101074,-0.36471885442733765,0.0,0.0,0.0,0.0,0.0,0.0,0.0,-0.5364466622571938,-0.42966596346976293,-0.39129473363375183,0.5415050323901744,-0.016450224506809212,0.10680053431764552,-0.3237983494227582,0.06228583000590058,0.6882296559936122,-0.07864135013249413,-1.6209431054466648,0.028168057779471074,2.2878319630233017,0.8466397455467118,0.06226373270833701,0.6884179775783729,-0.07863937525950354,-1.6210372792796082,0.028167345702647853,2.2878312372101677,0.8466366937888992,0.00042008239335302854,-0.0002557397435813623,0.0009881004598348171,0.00040050305435181425,-2.766474504338617e-05,-0.00023822063388513026,0.0017917711935462942,0.0,0.0,0.0,0.0,0.0,0.0,0.0,-2.2097297563569707e-05,0.00018832158476067562,1.9748729905844087e-06,-9.417383294341164e-05,-7.120768232213304e-07,-7.258131340392993e-07,-3.0517578126776357e-06,-0.00042008239335302854,0.0002557397435813623,-0.0009881004598348171,-0.00040050305435181425,2.766474504338617e-05,0.00023822063388513026,-0.0017917711935462942,0.5299312472343445,47.21847152709961,1.2401397228240967,-20.923799514770508,-0.5578513741493225,-2.3266634941101074,0.36471885442733765,0
39,0.18950414657592773,-0.5299312472343445,-47.21847152709961,-1.2401397228240967,20.923799514770508,0.5578513741493225,2.3266634941101074,-0.36471885442733765,0.0,0.0,0.0,0.0,0.0,0.0,0.0,-0.5364466622571938,-0.42966596346976293,-0.39129473363375183,0.5415050323901744,-0.016450224506809212,0.10680053431764552,-0.3237983494227582,0.06228583000590058,0.6882296559936122,-0.07864135013249413,-1.6209431054466648,0.028168057779471074,2.2878319630233017,0.8466397455467118,0.06226373270833701,0.6884179775783729,-0.07863937525950354,-1.6210372792796082,0.028167345702647853,2.2878312372101677,0.8466366937888992,0.00042008239335302854,-0.0002557397435813623,0.0009881004598348171,0.00040050305435181425,-2.766474504338617e-05,-0.00023822063388513026,0.0017917711935462942,0.0,0.0,0.0,0.0,0.0,0.0,0.0,-2.2097297563569707e-05,0.00018832158476067562,1.9748729905844087e-06,-9.417383294341164e-05,-7.120768232213304e-07,-7.258131340392993e-07,-3.0517578126776357e-06,-0.00042008239335302854,0.0002557397435813623,-0.0009881004598348171,-0.00040050305435181425,2.766474504338617e-05,0.00023822063388513026,-0.0017917711935462942,0.5299312472343445,47.21847152709961,1.2401397228240967,-20.923799514770508,-0.5578513741493225,-2.3266634941101074,0.36471885442733765,0
40,0.1945173740386963,-0.5299312472343445,-47.24624252319336,-1.2163360118865967,20.923799514770508,0.5642600655555725,2.3394808769226074,-0.28964561223983765,0.0,0.0,0.0,0.0,0.0,0.0,0.0,-0.5301925114791025,-0.4304795911879203,-0.38301404162346825,0.5390853780198491,-0.017215057159705425,0.10626948093259457,-0.3233721489697794,0.062285180413468755,0.6882316828365833,-0.07864302090594072,-1.6209431054466648,0.02816734570264816,2.2878305258119007,0.8466314040753576,0.06226373270833701,0.6884179775783729,-0.07863937525950354,-1.6210372792796082,0.028167345702647853,2.2878312372101677,0.8466366937888992,0.0007186253648548364,-0.00012834064156005943,-0.0006737382442779046,0.00033378675654820617,4.784272424382364e-05,-0.00022313612610015338,-0.0014190189580086782,0.0,0.0,0.0,0.0,0.0,0.0,0.0,-2.1447705131745487e-05,0.00018629474178954997,3.6456464371781294e-06,-9.417383294341164e-05,-3.0531133177191805e-16,7.113982669615382e-07,5.289713541523078e-06,-0.0007186253648548364,0.00012834064156005943,0.0006737382442779046,-0.00033378675654820617,-4.784272424382364e-05,0.00022313612610015338,0.0014190189580086782,0.5299312472343445,47.24624252319336,1.2163360118865967,-20.923799514770508,-0.5642600655555725,-2.3394808769226074,0.28964561223983765,0
41,0.19951796531677246,-0.5299312472343445,-47.24624252319336,-1.2163360118865967,20.923799514770508,0.5642600655555725,2.3394808769226074,-0.28964561223983765,0.0,0.0,0.0,0.0,0.0,0.0,0.0,-0.5301925114791025,-0.4304795911879203,-0.38301404162346825,0.5390853780198491,-0.017215057159705425,0.10626948093259457,-0.3233721489697794,0.062285180413468755,0.6882316828365833,-0.07864302090594072,-1.6209431054466648,0.02816734570264816,2.2878305258119007,0.8466314040753576,0.06226373270833701,0.6884179775783729,-0.07863937525950354,-1.6210372792796082,0.028167345702647853,2.2878312372101677,0.8466366937888992,0.0007186253648548364,-0.00012834064156005943,-0.0006737382442779046,0.00033378675654820617,4.784272424382364e-05,-0.00022313612610015338,-0.0014190189580086782,0.0,0.0,0.0,0.0,0.0,0.0,0.0,-2.1447705131745487e-05,0.00018629474178954997,3.6456464371781294e-06,-9.417383294341164e-05,-3.0531133177191805e-16,7.113982669615382e-07,5.289713541523078e-06,-0.0007186253648548364,0.00012834064156005943,0.0006737382442779046,-0.00033378675654820617,-4.784272424382364e-05,0.00022313612610015338,0.0014190189580086782,0.5299312472343445,47.24624252319336,1.2163360118865967,-20.923799514770508,-0.5642600655555725,-2.3394808769226074,0.28964561223983765,0
42,0.20451855659484863,-0.6053096652030945,-47.27004623413086,-1.2401397228240967,20.975374221801758,0.5697532296180725,2.3330721855163574,-0.34457725286483765,0.0,0.0,0.0,0.0,0.0,0.0,0.0,-0.5329249998241845,-0.43469605758799673,-0.38622616995805514,0.5351984626722804,-0.016732776245335704,0.10790584781097229,-0.3224698107593599,0.0622930772094403,0.6882332752714454,-0.07864135047009117,-1.6209467247243512,0.02816673535108566,2.2878312372101686,0.8466375075909827,0.06226373270833701,0.6884179775783729,-0.07863937525950354,-1.6210372792796082,0.028167345702647853,2.2878312372101677,0.8466366937888992,0.00167600964933405,0.000254479163829171,-0.00018013805988021083,-0.00036419398807498876,-0.0002566570343270928,-7.893677905989719e-05,0.0015322330383121016,0.0,0.0,0.0,0.0,0.0,0.0,0.0,-2.9344501103291398e-05,0.00018470230692746448,1.975210587631948e-06,-9.055455525697198e-05,6.103515621941336e-07,-8.881784197001252e-16,-8.138020834991266e-07,-0.00167600964933405,-0.000254479163829171,0.00018013805988021083,0.00036419398807498876,0.0002566570343270928,7.893677905989719e-05,-0.0015322330383121016,0.6053096652030945,47.27004623413086,1.2401397228240967,-20.975374221801758,-0.5697532296180725,-2.3330721855163574,0.34457725286483765,0
43,0.20950794219970703,-0.6053096652030945,-47.27004623413086,-1.2401397228240967,20.975374221801758,0.5697532296180725,2.3330721855163574,-0.34457725286483765,0.0,0.0,0.0,0.0,0.0,0.0,0.0,-0.5329249998241845,-0.43469605758799673,-0.38622616995805514,0.5351984626722804,-0.016732776245335704,0.10790584781097229,-0.3224698107593599,0.0622930772094403,0.6882332752714454,-0.07864135047009117,-1.6209467247243512,0.02816673535108566,2.2878312372101686,0.8466375075909827,0.06226373270833701,0.6884179775783729,-0.07863937525950354,-1.6210372792796082,0.028167345702647853,2.2878312372101677,0.8466366937888992,0.00167600964933405,0.000254479163829171,-0.00018013805988021083,-0.00036419398807498876,-0.0002566570343270928,-7.893677905989719e-05,0.0015322330383121016,0.0,0.0,0.0,0.0,0.0,0.0,0.0,-2.9344501103291398e-05,0.00018470230692746448,1.975210587631948e-06,-9.055455525697198e-05,6.103515621941336e-07,-8.881784197001252e-16,-8.138020834991266e-07,-0.00167600964933405,-0.000254479163829171,0.00018013805988021083,0.00036419398807498876,0.0002566570343270928,7.893677905989719e-05,-0.0015322330383121016,0.6053096652030945,47.27004623413086,1.2401397228240967,-20.975374221801758,-0.5697532296180725,-2.3330721855163574,0.34457725286483765,0
44,0.2145066261291504,-0.6053096652030945,-47.27004623413086,-1.2401397228240967,20.975374221801758,0.5697532296180725,2.3330721855163574,-0.34457725286483765,0.0,0.0,0.0,0.0,0.0,0.0,0.0,-0.5329249998241845,-0.43469605758799673,-0.38622616995805514,0.5351984626722804,-0.016732776245335704,0.10790584781097229,-0.3224698107593599,0.0622930772094403,0.6882332752714454,-0.07864135047009117,-1.6209467247243512,0.02816673535108566,2.2878312372101686,0.8466375075909827,0.06226373270833701,0.6884179775783729,-0.07863937525950354,-1.6210372792796082,0.028167345702647853,2.2878312372101677,0.8466366937888992,0.00167600964933405,0.000254479163829171,-0.00018013805988021083,-0.00036419398807498876,-0.0002566570343270928,-7.893677905989719e-05,0.0015322330383121016,0.0,0.0,0.0,0.0,0.0,0.0,0.0,-2.9344501103291398e-05,0.00018470230692746448,1.975210587631948e-06,-9.055455525697198e-05,6.103515621941336e-07,-8.881784197001252e-16,-8.138020834991266e-07,-0.00167600964933405,-0.000254479163829171,0.00018013805988021083,0.00036419398807498876,0.0002566570343270928,7.893677905989719e-05,-0.0015322330383121016,0.6053096652030945,47.27004623413086,1.2401397228240967,-20.975374221801758,-0.5697532296180725,-2.3330721855163574,0.34457725286483765,0
45,0.21951699256896973,-0.6053096652030945,-47.27004623413086,-1.2401397228240967,20.975374221801758,0.5697532296180725,2.3330721855163574,-0.34457725286483765,0.0,0.0,0.0,0.0,0.0,0.0,0.0,-0.5329249998241845,-0.43469605758799673,-0.38622616995805514,0.5351984626722804,-0.016732776245335704,0.10790584781097229,-0.3224698107593599,0.0622930772094403,0.6882332752714454,-0.07864135047009117,-1.6209467247243512,0.02816673535108566,2.2878312372101686,0.8466375075909827,0.06226373270833701,0.6884179775783729,-0.07863937525950354,-1.6210372792796082,0.028167345702647853,2.2878312372101677,0.8466366937888992,0.00167600964933405,0.000254479163829171,-0.00018013805988021083,-0.00036419398807498876,-0.0002566570343270928,-7.893677905989719e-05,0.0015322330383121016,0.0,0.0,0.0,0.0,0.0,0.0,0.0,-2.9344501103291398e-05,0.00018470230692746448,1.975210587631948e-06,-9.055455525697198e-05,6.103515621941336e-07,-8.881784197001252e-16,-8.138020834991266e-07,-0.00167600964933405,-0.000254479163829171,0.00018013805988021083,0.00036419398807498876,0.0002566570343270928,7.893677905989719e-05,-0.0015322330383121016,0.6053096652030945,47.27004623413086,1.2401397228240967,-20.975374221801758,-0.5697532296180725,-2.3330721855163574,0.34457725286483765,0
46,0.22450566291809082,-0.5299312472343445,-47.21847152709961,-1.2401397228240967,20.975374221801758,0.5761619210243225,2.3266634941101074,-0.34457725286483765,0.0,0.0,0.0,0.0,0.0,0.0,0.0,-0.5220039749580804,-0.4332552879490798,-0.37738369675778694,0.5295974782095749,-0.015825720080721473,0.10833358525065308,-0.32209279920142764,0.06228513086688572,0.6882299256628486,-0.0786413494934871,-1.620948870491563,0.028166023274262743,2.2878323218561443,0.8466375075909827,0.06226373270833701,0.6884179775783729,-0.07863937525950354,-1.6210372792796082,0.028167345702647853,2.2878312372101677,0.8466366937888992,-0.00015751145452699557,-0.0006881671207560385,-0.00046416260256238774,-0.0006505334465788147,-0.0002482920440905014,-7.30741454753096e-05,-0.0003229633323345776,0.0,0.0,0.0,0.0,0.0,0.0,0.0,-2.1398158548707746e-05,0.0001880519155242899,1.9742339835565614e-06,-8.840878804505792e-05,1.3224283851101526e-06,-1.0846459765900818e-06,-8.138020834991266e-07,0.00015751145452699557,0.0006881671207560385,0.00046416260256238774,0.0006505334465788147,0.0002482920440905014,7.30741454753096e-05,0.0003229633323345776,0.5299312472343445,47.21847152709961,1.2401397228240967,-20.975374221801758,-0.5761619210243225,-2.3266634941101074,0.34457725286483765,0
47,0.22951960563659668,-0.5299312472343445,-47.21847152709961,-1.2401397228240967,20.975374221801758,0.5761619210243225,2.3266634941101074,-0.34457725286483765,0.0,0.0,0.0,0.0,0.0,0.0,0.0,-0.5220039749580804,-0.4332552879490798,-0.37738369675778694,0.5295974782095749,-0.015825720080721473,0.10833358525065308,-0.32209279920142764,0.06228513086688572,0.6882299256628486,-0.0786413494934871,-1.620948870491563,0.028166023274262743,2.2878323218561443,0.8466375075909827,0.06226373270833701,0.6884179775783729,-0.07863937525950354,-1.6210372792796082,0.028167345702647853,2.2878312372101677,0.8466366937888992,-0.00015751145452699557,-0.0006881671207560385,-0.00046416260256238774,-0.0006505334465788147,-0.0002482920440905014,-7.30741454753096e-05,-0.0003229633323345776,0.0,0.0,0.0,0.0,0.0,0.0,0.0,-2.1398158548707746e-05,0.0001880519155242899,1.9742339835565614e-06,-8.840878804505792e-05,1.3224283851101526e-06,-1.0846459765900818e-06,-8.138020834991266e-07,0.00015751145452699557,0.0006881671207560385,0.00046416260256238774,0.0006505334465788147,0.0002482920440905014,7.30741454753096e-05,0.0003229633323345776,0.5299312472343445,47.21847152709961,1.2401397228240967,-20.975374221801758,-0.5761619210243225,-2.3266634941101074,0.34457725286483765,0
48,0.23452043533325195,-0.5299312472343445,-47.21847152709961,-1.2679107189178467,20.923799514770508,0.5642600655555725,2.3266634941101074,-0.34457725286483765,0.0,0.0,0.0,0.0,0.0,0.0,0.0,-0.5243179798261856,-0.4209344794824195,-0.3784510452316585,0.5240229020035304,-0.015330651166443453,0.10721965336425374,-0.32376633266380445,0.06228488499522072,0.6882296588840655,-0.07863940065165044,-1.6209431054587777,0.02816734570264816,2.2878319492890933,0.8466375075909827,0.06226373270833701,0.6884179775783729,-0.07863937525950354,-1.6210372792796082,0.028167345702647853,2.2878312372101677,0.8466366937888992,-0.0002415889399800595,0.00042707198814206373,0.00045889836749087574,0.0004273844862289436,-0.00018922928906099607,4.284926764309153e-05,0.0007829030728601728,0.0,0.0,0.0,0.0,0.0,0.0,0.0,-2.1152286883707738e-05,0.00018831869430735448,2.539214689900593e-08,-9.417382083043435e-05,-3.0531133177191805e-16,-7.120789256020998e-07,-8.138020834991266e-07,0.0002415889399800595,-0.00042707198814206373,-0.00045889836749087574,-0.0004273844862289436,0.00018922928906099607,-4.284926764309153e-05,-0.0007829030728601728,0.5299312472343445,47.21847152709961,1.2679107189178467,-20.923799514770508,-0.5642600655555725,-2.3266634941101074,0.34457725286483765,0
49,0.2395167350769043,-0.5299312472343445,-47.21847152709961,-1.2679107189178467,20.923799514770508,0.5642600655555725,2.3266634941101074,-0.34457725286483765,0.0,0.0,0.0,0.0,0.0,0.0,0.0,-0.5243179798261856,-0.4209344794824195,-0.3784510452316585,0.5240229020035304,-0.015330651166443453,0.10721965336425374,-0.32376633266380445,0.06228488499522072,0.6882296588840655,-0.07863940065165044,-1.6209431054587777,0.02816734570264816,2.2878319492890933,0.8466375075909827,0.06226373270833701,0.6884179775783729,-0.07863937525950354,-1.6210372792796082,0.028167345702647853,2.2878312372101677,0.8466366937888992,-0.0002415889399800595,0.00042707198814206373,0.00045889836749087574,0.0004273844862289436,-0.00018922928906099607,4.284926764309153e-05,0.0007829030728601728,0.0,0.0,0.0,0.0,0.0,0.0,0.0,-2.1152286883707738e-05,0.00018831869430735448,2.539214689900593e-08,-9.417382083043435e-05,-3.0531133177191805e-16,-7.120789256020998e-07,-8.138020834991266e-07,0.0002415889399800595,-0.00042707198814206373,-0.00045889836749087574,-0.0004273844862289436,0.00018922928906099607,-4.284926764309153e-05,-0.0007829030728601728,0.5299312472343445,47.21847152709961,1.2679107189178467,-20.923799514770508,-0.5642600655555725,-2.3266634941101074,0.34457725286483765,0
50,0.2445218563079834,-0.5537349581718445,-47.17086410522461,-1.2917144298553467,20.947603225708008,0.5578513741493225,2.3202548027038574,-0.33725303411483765,0.0,0.0,0.0,0.0,0.0,0.0,0.0,-0.5366741747716613,-0.4249473855257441,-0.3888084699202682,0.5325689241582225,-0.015695021322621298,0.10725187857402901,-0.323471396704261,0.06228656549779464,0.6882263151219179,-0.07863765176193477,-1.62094477588252,0.028168057129915807,2.287836004311347,0.8466366937888993,0.06226373270833701,0.6884179775783729,-0.07863937525950354,-1.6210372792796082,0.028167345702647853,2.2878312372101677,0.8466366937888992,0.0001739942379232757,0.00023843461125359875,0.000470253544074028,5.06559888347681e-05,0.00025244905286472396,-1.4980442615997533e-05,0.0005937326358180893,0.0,0.0,0.0,0.0,0.0,0.0,0.0,-2.283278945763162e-05,0.00019166245645496627,-1.7234975687729914e-06,-9.25033970882172e-05,-7.114272679541178e-07,-4.767101179137256e-06,-1.1102230246251565e-16,-0.0001739942379232757,-0.00023843461125359875,-0.000470253544074028,-5.06559888347681e-05,-0.00025244905286472396,1.4980442615997533e-05,-0.0005937326358180893,0.5537349581718445,47.17086410522461,1.2917144298553467,-20.947603225708008,-0.5578513741493225,-2.3202548027038574,0.33725303411483765,0
51,0.24950909614562988,-0.5537349581718445,-47.17086410522461,-1.2917144298553467,20.947603225708008,0.5578513741493225,2.3202548027038574,-0.33725303411483765,0.0,0.0,0.0,0.0,0.0,0.0,0.0,-0.5366741747716613,-0.4249473855257441,-0.3888084699202682,0.5325689241582225,-0.015695021322621298,0.10725187857402901,-0.323471396704261,0.06228656549779464,0.6882263151219179,-0.07863765176193477,-1.62094477588252,0.028168057129915807,2.287836004311347,0.8466366937888993,0.06226373270833701,0.6884179775783729,-0.07863937525950354,-1.6210372792796082,0.028167345702647853,2.2878312372101677,0.8466366937888992,0.0001739942379232757,0.00023843461125359875,0.000470253544074028,5.06559888347681e-05,0.00025244905286472396,-1.4980442615997533e-05,0.0005937326358180893,0.0,0.0,0.0,0.0,0.0,0.0,0.0,-2.283278945763162e-05,0.00019166245645496627,-1.7234975687729914e-06,-9.25033970882172e-05,-7.114272679541178e-07,-4.767101179137256e-06,-1.1102230246251565e-16,-0.0001739942379232757,-0.00023843461125359875,-0.000470253544074028,-5.06559888347681e-05,-0.00025244905286472396,1.4980442615997533e-05,-0.0005937326358180893,0.5537349581718445,47.17086410522461,1.2917144298553467,-20.947603225708008,-0.5578513741493225,-2.3202548027038574,0.33725303411483765,0
52,0.25450778007507324,-0.5537349581718445,-47.14706039428711,-1.2679107189178467,20.947603225708008,0.5459495186805725,2.3266634941101074,-0.33725303411483765,0.0,0.0,0.0,0.0,0.0,0.0,0.0,-0.5419927443523267,-0.43725265517032325,-0.3932353013800931,0.5442686587618691,-0.015536704017304417,0.10720280462416706,-0.32312893810875415,0.06228900317050625,0.6882248786894666,-0.07863726568619561,-1.62094477588252,0.028169380207852826,2.2878320866663597,0.8466366937888993,0.06226373270833701,0.6884179775783729,-0.07863937525950354,-1.6210372792796082,0.028167345702647853,2.2878312372101677,0.8466366937888992,-0.0005195979111387385,-0.0010067261989505593,-0.00020739079970321752,7.393895455878852e-05,0.0006245281468662934,-6.624892750981801e-05,0.000848966099994127,0.0,0.0,0.0,0.0,0.0,0.0,0.0,-2.5270462169241226e-05,0.00019309888890628457,-2.109573307929047e-06,-9.25033970882172e-05,-2.0345052049730583e-06,-8.494561920535659e-07,-1.1102230246251565e-16,0.0005195979111387385,0.0010067261989505593,0.00020739079970321752,-7.393895455878852e-05,-0.0006245281468662934,6.624892750981801e-05,-0.000848966099994127,0.5537349581718445,47.14706039428711,1.2679107189178467,-20.947603225708008,-0.5459495186805725,-2.3266634941101074,0.33725303411483765,0
53,0.2595081329345703,-0.5537349581718445,-47.14706039428711,-1.2679107189178467,20.947603225708008,0.5459495186805725,2.3266634941101074,-0.33725303411483765,0.0,0.0,0.0,0.0,0.0,0.0,0.0,-0.5419927443523267,-0.43725265517032325,-0.3932353013800931,0.5442686587618691,-0.015536704017304417,0.10720280462416706,-0.32312893810875415,0.06228900317050625,0.6882248786894666,-0.07863726568619561,-1.62094477588252,0.028169380207852826,2.2878320866663597,0.8466366937888993,0.06226373270833701,0.6884179775783729,-0.07863937525950354,-1.6210372792796082,0.028167345702647853,2.2878312372101677,0.8466366937888992,-0.0005195979111387385,-0.0010067261989505593,-0.00020739079970321752,7.393895455878852e-05,0.0006245281468662934,-6.624892750981801e-05,0.000848966099994127,0.0,0.0,0.0,0.0,0.0,0.0,0.0,-2.5270462169241226e-05,0.00019309888890628457,-2.109573307929047e-06,-9.25033970882172e-05,-2.0345052049730583e-06,-8.494561920535659e-07,-1.1102230246251565e-16,0.0005195979111387385,0.0010067261989505593,0.00020739079970321752,-7.393895455878852e-05,-0.0006245281468662934,6.624892750981801e-05,-0.000848966099994127,0.5537349581718445,47.14706039428711,1.2679107189178467,-20.947603225708008,-0.5459495186805725,-2.3266634941101074,0.33725303411483765,0
54,0.26450538635253906,-0.5537349581718445,-47.24624252319336,-1.2917144298553467,20.947603225708008,0.5761619210243225,2.3202548027038574,-0.35098594427108765,0.0,0.0,0.0,0.0,0.0,0.0,0.0,-0.5471633129310398,-0.4215110323693723,-0.3976376972966072,0.5390557368061257,-0.016293399078444792,0.10583758839061574,-0.32313176549338773,0.062289617013993534,0.6882318388401845,-0.07863773118034731,-1.62094477588252,0.028166023274262743,2.287832789567721,0.8466382196678056,0.06226373270833701,0.6884179775783729,-0.07863937525950354,-1.6210372792796082,0.028167345702647853,2.2878312372101677,0.8466366937888992,-0.00046826626819955616,0.0014968473900243003,-0.00025585746138185017,-3.2488465541466316e-05,-0.00047886998958673876,0.00031042276481891635,0.0013119958106105286,0.0,0.0,0.0,0.0,0.0,0.0,0.0,-2.588430565652472e-05,0.00018613873818840165,-1.6440791562322143e-06,-9.25033970882172e-05,1.3224283851101526e-06,-1.5523575531695144e-06,-1.5258789064498401e-06,0.00046826626819955616,-0.0014968473900243003,0.00025585746138185017,3.2488465541466316e-05,0.00047886998958673876,-0.00031042276481891635,-0.0013119958106105286,0.5537349581718445,47.24624252319336,1.2917144298553467,-20.947603225708008,-0.5761619210243225,-2.3202548027038574,0.35098594427108765,0
55,0.2695345878601074,-0.5537349581718445,-47.24624252319336,-1.2917144298553467,20.947603225708008,0.5761619210243225,2.3202548027038574,-0.35098594427108765,0.0,0.0,0.0,0.0,0.0,0.0,0.0,-0.5471633129310398,-0.4215110323693723,-0.3976376972966072,0.5390557368061257,-0.016293399078444792,0.10583758839061574,-0.32313176549338773,0.062289617013993534,0.6882318388401845,-0.07863773118034731,-1.62094477588252,0.028166023274262743,2.287832789567721,0.8466382196678056,0.06226373270833701,0.6884179775783729,-0.07863937525950354,-1.6210372792796082,0.028167345702647853,2.2878312372101677,0.8466366937888992,-0.00046826626819955616,0.0014968473900243003,-0.00025585746138185017,-3.2488465541466316e-05,-0.00047886998958673876,0.00031042276481891635,0.0013119958106105286,0.0,0.0,0.0,0.0,0.0,0.0,0.0,-2.588430565652472e-05,0.00018613873818840165,-1.6440791562322143e-06,-9.25033970882172e-05,1.3224283851101526e-06,-1.5523575531695144e-06,-1.5258789064498401e-06,0.00046826626819955616,-0.0014968473900243003,0.00025585746138185017,3.2488465541466316e-05,0.00047886998958673876,-0.00031042276481891635,-0.0013119958106105286,0.5537349581718445,47.24624252319336,1.2917144298553467,-20.947603225708008,-0.5761619210243225,-2.3202548027038574,0.35098594427108765,0
56,0.2745177745819092,-0.5815059542655945,-47.21847152709961,-1.2679107189178467,20.923799514770508,0.5523582100868225,2.3330721855163574,-0.34457725286483765,0.0,0.0,0.0,0.0,0.0,0.0,0.0,-0.5431082189692842,-0.42220874180596385,-0.39587220679870994,0.5408380065290385,-0.016070513586055456,0.10605633479116848,-0.32307727213024634,0.06228943506541192,0.6882296819953131,-0.07863845236910243,-1.6209431054466648,0.028168707576185587,2.287831237210891,0.8466375075909827,0.06226373270833701,0.6884179775783729,-0.07863937525950354,-1.6210372792796082,0.028167345702647853,2.2878312372101677,0.8466366937888992,0.000468871509542212,7.21228352349532e-05,-0.00045546846349799015,0.0004757499005823987,0.00024579689630630034,-0.00015643523456769439,0.005785379587431963,0.0,0.0,0.0,0.0,0.0,0.0,0.0,-2.570235707491375e-05,0.00018829558305977212,-9.228904011143735e-07,-9.417383294341164e-05,-1.3618735377335378e-06,-7.23421322845752e-13,-8.138020834991266e-07,-0.000468871509542212,-7.21228352349532e-05,0.00045546846349799015,-0.0004757499005823987,-0.00024579689630630034,0.00015643523456769439,-0.005785379587431963,0.5815059542655945,47.21847152709961,1.2679107189178467,-20.923799514770508,-0.5523582100868225,-2.3330721855163574,0.34457725286483765,0
57,0.27951741218566895,-0.5815059542655945,-47.21847152709961,-1.2679107189178467,20.923799514770508,0.5523582100868225,2.3330721855163574,-0.34457725286483765,0.0,0.0,0.0,0.0,0.0,0.0,0.0,-0.5431082189692842,-0.42220874180596385,-0.39587220679870994,0.5408380065290385,-0.016070513586055456,0.10605633479116848,-0.32307727213024634,0.06228943506541192,0.6882296819953131,-0.07863845236910243,-1.6209431054466648,0.028168707576185587,2.287831237210891,0.8466375075909827,0.06226373270833701,0.6884179775783729,-0.07863937525950354,-1.6210372792796082,0.028167345702647853,2.2878312372101677,0.8466366937888992,0.000468871509542212,7.21228352349532e-05,-0.00045546846349799015,0.0004757499005823987,0.00024579689630630034,-0.00015643523456769439,0.005785379587431963,0.0,0.0,0.0,0.0,0.0,0.0,0.0,-2.570235707491375e-05,0.00018829558305977212,-9.228904011143735e-07,-9.417383294341164e-05,-1.3618735377335378e-06,-7.23421322845752e-13,-8.138020834991266e-07,-0.000468871509542212,-7.21228352349532e-05,0.00045546846349799015,-0.0004757499005823987,-0.00024579689630630034,0.00015643523456769439,-0.005785379587431963,0.5815059542655945,47.21847152709961,1.2679107189178467,-20.923799514770508,-0.5523582100868225,-2.3330721855163574,0.34457725286483765,0
58,0.2845115661621094,-0.5537349581718445,-47.24624252319336,-1.2679107189178467,20.999177932739258,0.5697532296180725,2.3522982597351074,-0.31711143255233765,0.0,0.0,0.0,0.0,0.0,0.0,0.0,-0.5239823574079786,-0.4135245529168452,-0.3783434429250131,0.5349792570835501,-0.01651337902909463,0.10659097950155251,-0.32306081079164506,0.06228652999402778,0.6882316048355901,-0.07863940158673091,-1.6209483951602064,0.028166735351308328,2.287830213599735,0.8466344558331701,0.06226373270833701,0.6884179775783729,-0.07863937525950354,-1.6210372792796082,0.028167345702647853,2.2878312372101677,0.8466366937888992,0.0010675947436542485,0.0009256397909172381,0.0009688448426280446,-0.0013864259990447757,-0.00019378341673928826,-0.0006218705468126922,0.0001381017516929671,0.0,0.0,0.0,0.0,0.0,0.0,0.0,-2.2797285690767666e-05,0.00018637274278276994,2.6327227370392947e-08,-8.888411940177754e-05,6.103513395250282e-07,1.0236104328598117e-06,2.2379557290674867e-06,-0.0010675947436542485,-0.0009256397909172381,-0.0009688448426280446,0.0013864259990447757,0.00019378341673928826,0.0006218705468126922,-0.0001381017516929671,0.5537349581718445,47.24624252319336,1.2679107189178467,-20.999177932739258,-0.5697532296180725,-2.3522982597351074,0.31711143255233765,0
59,0.2895982265472412,-0.5537349581718445,-47.24624252319336,-1.2679107189178467,20.999177932739258,0.5697532296180725,2.3522982597351074,-0.31711143255233765,0.0,0.0,0.0,0.0,0.0,0.0,0.0,-0.5239823574079786,-0.4135245529168452,-0.3783434429250131,0.5349792570835501,-0.01651337902909463,0.10659097950155251,-0.32306081079164506,0.06228652999402778,0.6882316048355901,-0.07863940158673091,-1.6209483951602064,0.028166735351308328,2.287830213599735,0.8466344558331701,0.06226373270833701,0.6884179775783729,-0.07863937525950354,-1.6210372792796082,0.028167345702647853,2.2878312372101677,0.8466366937888992,0.0010675947436542485,0.0009256397909172381,0.0009688448426280446,-0.0013864259990447757,-0.00019378341673928826,-0.0006218705468126922,0.0001381017516929671,0.0,0.0,0.0,0.0,0.0,0.0,0.0,-2.2797285690767666e-05,0.00018637274278276994,2.6327227370392947e-08,-8.888411940177754e-05,6.103513395250282e-07,1.0236104328598117e-06,2.2379557290674867e-06,-0.0010675947436542485,-0.0009256397909172381,-0.0009688448426280446,0.0013864259990447757,0.00019378341673928826,0.0006218705468126922,-0.0001381017516929671,0.5537349581718445,47.24624252319336,1.2679107189178467,-20.999177932739258,-0.5697532296180725,-2.3522982597351074,0.31711143255233765,0
60,0.2945108413696289,-0.5537349581718445,-47.24624252319336,-1.2679107189178467,20.999177932739258,0.5697532296180725,2.3522982597351074,-0.31711143255233765,0.0,0.0,0.0,0.0,0.0,0.0,0.0,-0.5239823574079786,-0.4135245529168452,-0.3783434429250131,0.5349792570835501,-0.01651337902909463,0.10659097950155251,-0.32306081079164506,0.06228652999402778,0.6882316048355901,-0.07863940158673091,-1.6209483951602064,0.028166735351308328,2.287830213599735,0.8466344558331701,0.06226373270833701,0.6884179775783729,-0.07863937525950354,-1.6210372792796082,0.028167345702647853,2.2878312372101677,0.8466366937888992,0.0010675947436542485,0.0009256397909172381,0.0009688448426280446,-0.0013864259990447757,-0.00019378341673928826,-0.0006218705468126922,0.0001381017516929671,0.0,0.0,0.0,0.0,0.0,0.0,0.0,-2.2797285690767666e-05,0.00018637274278276994,2.6327227370392947e-08,-8.888411940177754e-05,6.103513395250282e-07,1.0236104328598117e-06,2.2379557290674867e-06,-0.0010675947436542485,-0.0009256397909172381,-0.0009688448426280446,0.0013864259990447757,0.00019378341673928826,0.0006218705468126922,-0.0001381017516929671,0.5537349581718445,47.24624252319336,1.2679107189178467,-20.999177932739258,-0.5697532296180725,-2.3522982597351074,0.31711143255233765,0
61,0.29950761795043945,-0.5021602511405945,-47.24624252319336,-1.2163360118865967,20.923799514770508,0.5642600655555725,2.3266634941101074,-0.35831016302108765,0.0,0.0,0.0,0.0,0.0,0.0,0.0,-0.5278817552024411,-0.42607559238808884,-0.37906111564112144,0.5366074855447753,-0.015322277941081978,0.10851726101612474,-0.3235703840031723,0.0622832263948028,0.6882316057984204,-0.07864294180101641,-1.6209431054466648,0.02816734570264816,2.2878319906710014,0.8466390334698889,0.06226373270833701,0.6884179775783729,-0.07863937525950354,-1.6210372792796082,0.028167345702647853,2.2878312372101677,0.8466366937888992,0.00021701323913750012,-0.00015787267914636418,-0.0001046205273617017,0.0003290655994008948,-8.456941987964555e-05,5.802606589514701e-05,0.0013063279434628536,0.0,0.0,0.0,0.0,0.0,0.0,0.0,-1.949368646578936e-05,0.00018637177995250997,3.566541512872723e-06,-9.417383294341164e-05,-3.0531133177191805e-16,-7.534608337245174e-07,-2.339680989726922e-06,-0.00021701323913750012,0.00015787267914636418,0.0001046205273617017,-0.0003290655994008948,8.456941987964555e-05,-5.802606589514701e-05,-0.0013063279434628536,0.5021602511405945,47.24624252319336,1.2163360118865967,-20.923799514770508,-0.5642600655555725,-2.3266634941101074,0.35831016302108765,0
62,0.3045229911804199,-0.5021602511405945,-47.24624252319336,-1.2163360118865967,20.923799514770508,0.5642600655555725,2.3266634941101074,-0.35831016302108765,0.0,0.0,0.0,0.0,0.0,0.0,0.0,-0.5278817552024411,-0.42607559238808884,-0.37906111564112144,0.5366074855447753,-0.015322277941081978,0.10851726101612474,-0.3235703840031723,0.0622832263948028,0.6882316057984204,-0.07864294180101641,-1.6209431054466648,0.02816734570264816,2.2878319906710014,0.8466390334698889,0.06226373270833701,0.6884179775783729,-0.07863937525950354,-1.6210372792796082,0.028167345702647853,2.2878312372101677,0.8466366937888992,0.00021701323913750012,-0.00015787267914636418,-0.0001046205273617017,0.0003290655994008948,-8.456941987964555e-05,5.802606589514701e-05,0.0013063279434628536,0.0,0.0,0.0,0.0,0.0,0.0,0.0,-1.949368646578936e-05,0.00018637177995250997,3.566541512872723e-06,-9.417383294341164e-05,-3.0531133177191805e-16,-7.534608337245174e-07,-2.339680989726922e-06,-0.00021701323913750012,0.00015787267914636418,0.0001046205273617017,-0.0003290655994008948,8.456941987964555e-05,-5.802606589514701e-05,-0.0013063279434628536,0.5021602511405945,47.24624252319336,1.2163360118865967,-20.923799514770508,-0.5642600655555725,-2.3266634941101074,0.35831016302108765,0
63,0.30951380729675293,-0.5021602511405945,-47.24624252319336,-1.2401397228240967,20.899995803833008,0.5642600655555725,2.3266634941101074,-0.34457725286483765,0.0,0.0,0.0,0.0,0.0,0.0,0.0,-0.5377264730706505,-0.4171132834585103,-0.38518210851917206,0.5274246668117408,-0.015233139789208377,0.10752720139081992,-0.32523880378306624,0.062282934060628625,0.6882337108662308,-0.07864063816357127,-1.6209414350108093,0.028167345756756734,2.2878352871473315,0.8466375075909827,0.06226373270833701,0.6884179775783729,-0.07863937525950354,-1.6210372792796082,0.028167345702647853,2.2878312372101677,0.8466366937888992,0.00014633634440397404,0.00047046403146477856,0.00032515098822233015,0.0009686219273399228,-0.0001603247156892003,-3.923668656518829e-05,0.000737922466314328,0.0,0.0,0.0,0.0,0.0,0.0,0.0,-1.920135229161596e-05,0.00018426671214211154,1.2629040677253345e-06,-9.584426879882812e-05,-5.410888057055807e-11,-4.049937163852491e-06,-8.138020834991266e-07,-0.00014633634440397404,-0.00047046403146477856,-0.00032515098822233015,-0.0009686219273399228,0.0001603247156892003,3.923668656518829e-05,-0.000737922466314328,0.5021602511405945,47.24624252319336,1.2401397228240967,-20.899995803833008,-0.5642600655555725,-2.3266634941101074,0.34457725286483765,0
64,0.31452035903930664,-0.5021602511405945,-47.24624252319336,-1.2401397228240967,20.899995803833008,0.5642600655555725,2.3266634941101074,-0.34457725286483765,0.0,0.0,0.0,0.0,0.0,0.0,0.0,-0.5377264730706505,-0.4171132834585103,-0.38518210851917206,0.5274246668117408,-0.015233139789208377,0.10752720139081992,-0.32523880378306624,0.062282934060628625,0.6882337108662308,-0.07864063816357127,-1.6209414350108093,0.028167345756756734,2.2878352871473315,0.8466375075909827,0.06226373270833701,0.6884179775783729,-0.07863937525950354,-1.6210372792796082,0.028167345702647853,2.2878312372101677,0.8466366937888992,0.00014633634440397404,0.00047046403146477856,0.00032515098822233015,0.0009686219273399228,-0.0001603247156892003,-3.923668656518829e-05,0.000737922466314328,0.0,0.0,0.0,0.0,0.0,0.0,0.0,-1.920135229161596e-05,0.00018426671214211154,1.2629040677253345e-06,-9.584426879882812e-05,-5.410888057055807e-11,-4.049937163852491e-06,-8.138020834991266e-07,-0.00014633634440397404,-0.00047046403146477856,-0.00032515098822233015,-0.0009686219273399228,0.0001603247156892003,3.923668656518829e-05,-0.000737922466314328,0.5021602511405945,47.24624252319336,1.2401397228240967,-20.899995803833008,-0.5642600655555725,-2.3266634941101074,0.34457725286483765,0
65,0.31952929496765137,-0.5815059542655945,-47.24624252319336,-1.2401397228240967,20.947603225708008,0.5578513741493225,2.3266634941101074,-0.30337852239608765,0.0,0.0,0.0,0.0,0.0,0.0,0.0,-0.5358557637922596,-0.4302288567749232,-0.3851366520376434,0.5316595604046488,-0.015013450455996313,0.10815461601853035,-0.3262628392002539,0.06229095201216608,0.6882316048394062,-0.07864134743042707,-1.620945014301099,0.028168057779471175,2.287831963029321,0.8466329299542639,0.06226373270833701,0.6884179775783729,-0.07863937525950354,-1.6210372792796082,0.028167345702647853,2.2878312372101677,0.8466366937888992,0.0014703185508539742,0.0009174831245654942,6.071848142546837e-05,-8.771747598453007e-05,8.983030949589488e-05,-0.00010138030893087964,-0.0014130895189563139,0.0,0.0,0.0,0.0,0.0,0.0,0.0,-2.721930382906801e-05,0.00018637273896671136,1.9721709235281937e-06,-9.226497850911564e-05,-7.120768233219443e-07,-7.258191532244496e-07,3.7638346352952823e-06,-0.0014703185508539742,-0.0009174831245654942,-6.071848142546837e-05,8.771747598453007e-05,-8.983030949589488e-05,0.00010138030893087964,0.0014130895189563139,0.5815059542655945,47.24624252319336,1.2401397228240967,-20.947603225708008,-0.5578513741493225,-2.3266634941101074,0.30337852239608765,0
66,0.32451510429382324,-0.5815059542655945,-47.24624252319336,-1.2401397228240967,20.947603225708008,0.5578513741493225,2.3266634941101074,-0.30337852239608765,0.0,0.0,0.0,0.0,0.0,0.0,0.0,-0.5358557637922596,-0.4302288567749232,-0.3851366520376434,0.5316595604046488,-0.015013450455996313,0.10815461601853035,-0.3262628392002539,0.06229095201216608,0.6882316048394062,-0.07864134743042707,-1.620945014301099,0.028168057779471175,2.287831963029321,0.8466329299542639,0.06226373270833701,0.6884179775783729,-0.07863937525950354,-1.6210372792796082,0.028167345702647853,2.2878312372101677,0.8466366937888992,0.0014703185508539742,0.0009174831245654942,6.071848142546837e-05,-8.771747598453007e-05,8.983030949589488e-05,-0.00010138030893087964,-0.0014130895189563139,0.0,0.0,0.0,0.0,0.0,0.0,0.0,-2.721930382906801e-05,0.00018637273896671136,1.9721709235281937e-06,-9.226497850911564e-05,-7.120768233219443e-07,-7.258191532244496e-07,3.7638346352952823e-06,-0.0014703185508539742,-0.0009174831245654942,-6.071848142546837e-05,8.771747598453007e-05,-8.983030949589488e-05,0.00010138030893087964,0.0014130895189563139,0.5815059542655945,47.24624252319336,1.2401397228240967,-20.947603225708008,-0.5578513741493225,-2.3266634941101074,0.30337852239608765,0
67,0.3295125961303711,-0.5815059542655945,-47.24624252319336,-1.2401397228240967,20.947603225708008,0.5578513741493225,2.3266634941101074,-0.30337852239608765,0.0,0.0,0.0,0.0,0.0,0.0,0.0,-0.5358557637922596,-0.4302288567749232,-0.3851366520376434,0.5316595604046488,-0.015013450455996313,0.10815461601853035,-0.3262628392002539,0.06229095201216608,0.6882316048394062,-0.07864134743042707,-1.620945014301099,0.028168057779471175,2.287831963029321,0.8466329299542639,0.06226373270833701,0.6884179775783729,-0.07863937525950354,-1.6210372792796082,0.028167345702647853,2.2878312372101677,0.8466366937888992,0.0014703185508539742,0.0009174831245654942,6.071848142546837e-05,-8.771747598453007e-05,8.983030949589488e-05,-0.00010138030893087964,-0.0014130895189563139,0.0,0.0,0.0,0.0,0.0,0.0,0.0,-2.721930382906801e-05,0.00018637273896671136,1.9721709235281937e-06,-9.226497850911564e-05,-7.120768233219443e-07,-7.258191532244496e-07,3.7638346352952823e-06,-0.0014703185508539742,-0.0009174831245654942,-6.071848142546837e-05,8.771747598453007e-05,-8.983030949589488e-05,0.00010138030893087964,0.0014130895189563139,0.5815059542655945,47.24624252319336,1.2401397228240967,-20.947603225708008,-0.5578513741493225,-2.3266634941101074,0.30337852239608765,0
68,0.33452892303466797,-0.5815059542655945,-47.24624252319336,-1.2401397228240967,20.947603225708008,0.5578513741493225,2.3266634941101074,-0.30337852239608765,0.0,0.0,0.0,0.0,0.0,0.0,0.0,-0.5358557637922596,-0.4302288567749232,-0.3851366520376434,0.5316595604046488,-0.015013450455996313,0.10815461601853035,-0.3262628392002539,0.06229095201216608,0.6882316048394062,-0.07864134743042707,-1.620945014301099,0.028168057779471175,2.287831963029321,0.8466329299542639,0.06226373270833701,0.6884179775783729,-0.07863937525950354,-1.6210372792796082,0.028167345702647853,2.2878312372101677,0.8466366937888992,0.0014703185508539742,0.0009174831245654942,6.071848142546837e-05,-8.771747598453007e-05,8.983030949589488e-05,-0.00010138030893087964,-0.0014130895189563139,0.0,0.0,0.0,0.0,0.0,0.0,0.0,-2.721930382906801e-05,0.00018637273896671136,1.9721709235281937e-06,-9.226497850911564e-05,-7.120768233219443e-07,-7.258191532244496e-07,3.7638346352952823e-06,-0.0014703185508539742,-0.0009174831245654942,-6.071848142546837e-05,8.771747598453007e-05,-8.983030949589488e-05,0.00010138030893087964,0.0014130895189563139,0.5815059542655945,47.24624252319336,1.2401397228240967,-20.947603225708008,-0.5578513741493225,-2.3266634941101074,0.30337852239608765,0
69,0.3395237922668457,-0.5021602511405945,-47.19466781616211,-1.3155181407928467,20.923799514770508,0.5642600655555725,2.3266634941101074,-0.28964561223983765,0.0,0.0,0.0,0.0,0.0,0.0,0.0,-0.531921177126991,-0.4301767014794943,-0.3832647360709601,0.53387866578381,-0.01567872959811549,0.10716847625184708,-0.32612779459419095,0.06228365652260938,0.6882279855577569,-0.07863606075653234,-1.6209431054480106,0.02816734570264816,2.287831967601801,0.8466314040753576,0.06226373270833701,0.6884179775783729,-0.07863937525950354,-1.6210372792796082,0.028167345702647853,2.2878312372101677,0.8466366937888992,-0.00026942123257840076,-0.00019569190215123876,0.0016036230338902359,0.0007513029744437611,-0.0001243879977172696,-8.805373685815322e-05,-0.000425932819755159,0.0,0.0,0.0,0.0,0.0,0.0,0.0,-1.9923814272369833e-05,0.00018999202061598108,-3.314502971196731e-06,-9.417383159759929e-05,-3.0531133177191805e-16,-7.303916333967209e-07,5.289713541523078e-06,0.00026942123257840076,0.00019569190215123876,-0.0016036230338902359,-0.0007513029744437611,0.0001243879977172696,8.805373685815322e-05,0.000425932819755159,0.5021602511405945,47.19466781616211,1.3155181407928467,-20.923799514770508,-0.5642600655555725,-2.3266634941101074,0.28964561223983765,0
70,0.34451794624328613,-0.5021602511405945,-47.19466781616211,-1.3155181407928467,20.923799514770508,0.5642600655555725,2.3266634941101074,-0.28964561223983765,0.0,0.0,0.0,0.0,0.0,0.0,0.0,-0.531921177126991,-0.4301767014794943,-0.3832647360709601,0.53387866578381,-0.01567872959811549,0.10716847625184708,-0.32612779459419095,0.06228365652260938,0.6882279855577569,-0.07863606075653234,-1.6209431054480106,0.02816734570264816,2.287831967601801,0.8466314040753576,0.06226373270833701,0.6884179775783729,-0.07863937525950354,-1.6210372792796082,0.028167345702647853,2.2878312372101677,0.8466366937888992,-0.00026942123257840076,-0.00019569190215123876,0.0016036230338902359,0.0007513029744437611,-0.0001243879977172696,-8.805373685815322e-05,-0.000425932819755159,0.0,0.0,0.0,0.0,0.0,0.0,0.0,-1.9923814272369833e-05,0.00018999202061598108,-3.314502971196731e-06,-9.417383159759929e-05,-3.0531133177191805e-16,-7.303916333967209e-07,5.289713541523078e-06,0.00026942123257840076,0.00019569190215123876,-0.0016036230338902359,-0.0007513029744437611,0.0001243879977172696,8.805373685815322e-05,0.000425932819755159,0.5021602511405945,47.19466781616211,1.3155181407928467,-20.923799514770508,-0.5642600655555725,-2.3266634941101074,0.28964561223983765,0
71,0.3495140075683594,-0.5299312472343445,-47.19466781616211,-1.2401397228240967,20.975374221801758,0.5578513741493225,2.3202548027038574,-0.30337852239608765,0.0,0.0,0.0,0.0,0.0,0.0,0.0,-0.5227389984405981,-0.4290666209879383,-0.3803352597091234,0.5330532688809935,-0.01586841276297871,0.10668524622902166,-0.3243736055896638,0.06228778591171805,0.6882279855577569,-0.07864135047009117,-1.620946733554669,0.028168057779471074,2.2878359992240243,0.8466318703161345,0.06226373270833701,0.6884179775783729,-0.07863937525950354,-1.6210372792796082,0.028167345702647853,2.2878312372101677,0.8466366937888992,0.00014826896609072785,-0.00017041208254533447,-0.0006059632431316,-0.0011994468351289188,6.200019235259672e-05,0.00029880298291601234,-0.0007721185624238496,0.0,0.0,0.0,0.0,0.0,0.0,0.0,-2.405320338103728e-05,0.00018999202061598108,1.975210587631948e-06,-9.054572493916169e-05,-7.120768232213304e-07,-4.762013856574043e-06,4.823472764647896e-06,-0.00014826896609072785,0.00017041208254533447,0.0006059632431316,0.0011994468351289188,-6.200019235259672e-05,-0.00029880298291601234,0.0007721185624238496,0.5299312472343445,47.19466781616211,1.2401397228240967,-20.975374221801758,-0.5578513741493225,-2.3202548027038574,0.30337852239608765,0
72,0.3545525074005127,-0.5299312472343445,-47.19466781616211,-1.2401397228240967,20.975374221801758,0.5578513741493225,2.3202548027038574,-0.30337852239608765,0.0,0.0,0.0,0.0,0.0,0.0,0.0,-0.5227389984405981,-0.4290666209879383,-0.3803352597091234,0.5330532688809935,-0.01586841276297871,0.10668524622902166,-0.3243736055896638,0.06228778591171805,0.6882279855577569,-0.07864135047009117,-1.620946733554669,0.028168057779471074,2.2878359992240243,0.8466318703161345,0.06226373270833701,0.6884179775783729,-0.07863937525950354,-1.6210372792796082,0.028167345702647853,2.2878312372101677,0.8466366937888992,0.00014826896609072785,-0.00017041208254533447,-0.0006059632431316,-0.0011994468351289188,6.200019235259672e-05,0.00029880298291601234,-0.0007721185624238496,0.0,0.0,0.0,0.0,0.0,0.0,0.0,-2.405320338103728e-05,0.00018999202061598108,1.975210587631948e-06,-9.054572493916169e-05,-7.120768232213304e-07,-4.762013856574043e-06,4.823472764647896e-06,-0.00014826896609072785,0.00017041208254533447,0.0006059632431316,0.0011994468351289188,-6.200019235259672e-05,-0.00029880298291601234,0.0007721185624238496,0.5299312472343445,47.19466781616211,1.2401397228240967,-20.975374221801758,-0.5578513741493225,-2.3202548027038574,0.30337852239608765,0
73,0.35956430435180664,-0.5021602511405945,-47.21847152709961,-1.3155181407928467,20.923799514770508,0.5523582100868225,2.3330721855163574,-0.26217979192733765,0.0,0.0,0.0,0.0,0.0,0.0,0.0,-0.5300984300429067,-0.4251978964113755,-0.3851863835796753,0.5323259695812924,-0.0163020991924225,0.10694463660354174,-0.3239464423569742,0.06228364349797585,0.6882296646604055,-0.0786360607565495,-1.6209431054467145,0.028168654977539436,2.2878312509650596,0.8466283523115635,0.06226373270833701,0.6884179775783729,-0.07863937525950354,-1.6210372792796082,0.028167345702647853,2.2878312372101677,0.8466366937888992,-0.0008752488888598028,0.0007847463375589336,0.001405346813639068,0.00054615749357191,0.00016839317366121426,-0.0002464740584523287,-0.0026068069390289476,0.0,0.0,0.0,0.0,0.0,0.0,0.0,-1.991078963883841e-05,0.00018831291796739258,-3.3145029540437854e-06,-9.417383289367365e-05,-1.3092748915831398e-06,-1.375489189214818e-08,8.341477335638281e-06,0.0008752488888598028,-0.0007847463375589336,-0.001405346813639068,-0.00054615749357191,-0.00016839317366121426,0.0002464740584523287,0.0026068069390289476,0.5021602511405945,47.21847152709961,1.3155181407928467,-20.923799514770508,-0.5523582100868225,-2.3330721855163574,0.26217979192733765,0
74,0.3645303249359131,-0.5021602511405945,-47.21847152709961,-1.3155181407928467,20.923799514770508,0.5523582100868225,2.3330721855163574,-0.26217979192733765,0.0,0.0,0.0,0.0,0.0,0.0,0.0,-0.5300984300429067,-0.4251978964113755,-0.3851863835796753,0.5323259695812924,-0.0163020991924225,0.10694463660354174,-0.3239464423569742,0.06228364349797585,0.6882296646604055,-0.0786360607565495,-1.6209431054467145,0.028168654977539436,2.2878312509650596,0.8466283523115635,0.06226373270833701,0.6884179775783729,-0.07863937525950354,-1.6210372792796082,0.028167345702647853,2.2878312372101677,0.8466366937888992,-0.0008752488888598028,0.0007847463375589336,0.001405346813639068,0.00054615749357191,0.00016839317366121426,-0.0002464740584523287,-0.0026068069390289476,0.0,0.0,0.0,0.0,0.0,0.0,0.0,-1.991078963883841e-05,0.00018831291796739258,-3.3145029540437854e-06,-9.417383289367365e-05,-1.3092748915831398e-06,-1.375489189214818e-08,8.341477335638281e-06,0.0008752488888598028,-0.0007847463375589336,-0.001405346813639068,-0.00054615749357191,-0.00016839317366121426,0.0002464740584523287,0.0026068069390289476,0.5021602511405945,47.21847152709961,1.3155181407928467,-20.923799514770508,-0.5523582100868225,-2.3330721855163574,0.26217979192733765,0
75,0.3695187568664551,-0.6053096652030945,-47.21847152709961,-1.2679107189178467,20.923799514770508,0.5578513741493225,2.3202548027038574,-0.30337852239608765,0.0,0.0,0.0,0.0,0.0,0.0,0.0,-0.541116552401278,-0.4204645073163118,-0.3916442244020965,0.530884088359997,-0.016428668246908407,0.10689876673417403,-0.3224686681743284,0.062292367176909204,0.688229655993661,-0.07863939273031181,-1.6209431054466648,0.02816805777939682,2.287832661363891,0.8466329299542639,0.06226373270833701,0.6884179775783729,-0.07863937525950354,-1.6210372792796082,0.028167345702647853,2.2878312372101677,0.8466366937888992,0.0009345570712667179,0.0005418576479282425,-0.00019673104231311212,0.0001559251120619628,0.00013612649646710452,0.00016455470595311877,-0.0007624997855687684,0.0,0.0,0.0,0.0,0.0,0.0,0.0,-2.8634468572194538e-05,0.0001883215847118258,1.7470808272301852e-08,-9.417383294341164e-05,-7.120767489682267e-07,-1.4241537233949941e-06,3.7638346352952823e-06,-0.0009345570712667179,-0.0005418576479282425,0.00019673104231311212,-0.0001559251120619628,-0.00013612649646710452,-0.00016455470595311877,0.0007624997855687684,0.6053096652030945,47.21847152709961,1.2679107189178467,-20.923799514770508,-0.5578513741493225,-2.3202548027038574,0.30337852239608765,0
76,0.3745088577270508,-0.6053096652030945,-47.21847152709961,-1.2679107189178467,20.923799514770508,0.5578513741493225,2.3202548027038574,-0.30337852239608765,0.0,0.0,0.0,0.0,0.0,0.0,0.0,-0.541116552401278,-0.4204645073163118,-0.3916442244020965,0.530884088359997,-0.016428668246908407,0.10689876673417403,-0.3224686681743284,0.062292367176909204,0.688229655993661,-0.07863939273031181,-1.6209431054466648,0.02816805777939682,2.287832661363891,0.8466329299542639,0.06226373270833701,0.6884179775783729,-0.07863937525950354,-1.6210372792796082,0.028167345702647853,2.2878312372101677,0.8466366937888992,0.0009345570712667179,0.0005418576479282425,-0.00019673104231311212,0.0001559251120619628,0.00013612649646710452,0.00016455470595311877,-0.0007624997855687684,0.0,0.0,0.0,0.0,0.0,0.0,0.0,-2.8634468572194538e-05,0.0001883215847118258,1.7470808272301852e-08,-9.417383294341164e-05,-7.120767489682267e-07,-1.4241537233949941e-06,3.7638346352952823e-06,-0.0009345570712667179,-0.0005418576479282425,0.00019673104231311212,-0.0001559251120619628,-0.00013612649646710452,-0.00016455470595311877,0.0007624997855687684,0.6053096652030945,47.21847152709961,1.2679107189178467,-20.923799514770508,-0.5578513741493225,-2.3202548027038574,0.30337852239608765,0
77,0.37952733039855957,-0.5537349581718445,-47.21847152709961,-1.2917144298553467,20.947603225708008,0.5697532296180725,2.3330721855163574,-0.28964561223983765,0.0,0.0,0.0,0.0,0.0,0.0,0.0,-0.5437043069819412,-0.43364849554057455,-0.39356329031356496,0.5398738681587454,-0.01637061450715952,0.10788896717859105,-0.32133678626537737,0.062287266705081036,0.6882296559936122,-0.07863701631817417,-1.62094477588252,0.02816673535108566,2.287831241788851,0.8466314040753576,0.06226373270833701,0.6884179775783729,-0.07863937525950354,-1.6210372792796082,0.028167345702647853,2.2878312372101677,0.8466366937888992,-0.0006893776303571435,-0.00025741242098279403,7.484134221683035e-05,2.2489905369665734e-06,-0.0003148996586437626,-0.00012496315811321066,-0.0011379069319476219,0.0,0.0,0.0,0.0,0.0,0.0,0.0,-2.3533996744026786e-05,0.00018832158476067562,-2.358941329369535e-06,-9.25033970882172e-05,6.103515621941336e-07,-4.578683210354484e-09,5.289713541523078e-06,0.0006893776303571435,0.00025741242098279403,-7.484134221683035e-05,-2.2489905369665734e-06,0.0003148996586437626,0.00012496315811321066,0.0011379069319476219,0.5537349581718445,47.21847152709961,1.2917144298553467,-20.947603225708008,-0.5697532296180725,-2.3330721855163574,0.28964561223983765,0
78,0.3845102787017822,-0.5537349581718445,-47.21847152709961,-1.2917144298553467,20.947603225708008,0.5697532296180725,2.3330721855163574,-0.28964561223983765,0.0,0.0,0.0,0.0,0.0,0.0,0.0,-0.5437043069819412,-0.43364849554057455,-0.39356329031356496,0.5398738681587454,-0.01637061450715952,0.10788896717859105,-0.32133678626537737,0.062287266705081036,0.6882296559936122,-0.07863701631817417,-1.62094477588252,0.02816673535108566,2.287831241788851,0.8466314040753576,0.06226373270833701,0.6884179775783729,-0.07863937525950354,-1.6210372792796082,0.028167345702647853,2.2878312372101677,0.8466366937888992,-0.0006893776303571435,-0.00025741242098279403,7.484134221683035e-05,2.2489905369665734e-06,-0.0003148996586437626,-0.00012496315811321066,-0.0011379069319476219,0.0,0.0,0.0,0.0,0.0,0.0,0.0,-2.3533996744026786e-05,0.00018832158476067562,-2.358941329369535e-06,-9.25033970882172e-05,6.103515621941336e-07,-4.578683210354484e-09,5.289713541523078e-06,0.0006893776303571435,0.00025741242098279403,-7.484134221683035e-05,-2.2489905369665734e-06,0.0003148996586437626,0.00012496315811321066,0.0011379069319476219,0.5537349581718445,47.21847152709961,1.2917144298553467,-20.947603225708008,-0.5697532296180725,-2.3330721855163574,0.28964561223983765,0
79,0.3895304203033447,-0.5815059542655945,-47.21847152709961,-1.2917144298553467,20.975374221801758,0.5697532296180725,2.3266634941101074,-0.29605430364608765,0.0,0.0,0.0,0.0,0.0,0.0,0.0,-0.5358166809631968,-0.42308961368232917,-0.38686204768915233,0.532449638576619,-0.01656829527544014,0.10708269815268497,-0.32027336730247336,0.06229096046051419,0.6882296559936122,-0.07863772988623051,-1.6209467247243512,0.02816673535108566,2.287831955561508,0.8466321161521806,0.06226373270833701,0.6884179775783729,-0.07863937525950354,-1.6210372792796082,0.028167345702647853,2.2878312372101677,0.8466366937888992,0.0004650139436916751,-0.00010865414186018936,0.00033873936447579846,-0.0009524214513718164,-0.00015993317458962007,5.500788809985951e-05,-0.0012363334104757552,0.0,0.0,0.0,0.0,0.0,0.0,0.0,-2.7227752177179376e-05,0.00018832158476067562,-1.645373273032047e-06,-9.055455525697198e-05,6.103515621941336e-07,-7.183513401898267e-07,4.577636718572364e-06,-0.0004650139436916751,0.00010865414186018936,-0.00033873936447579846,0.0009524214513718164,0.00015993317458962007,-5.500788809985951e-05,0.0012363334104757552,0.5815059542655945,47.21847152709961,1.2917144298553467,-20.975374221801758,-0.5697532296180725,-2.3266634941101074,0.29605430364608765,0
