rezayati/contactInterpretation/dataset/franka_main/labeled_data/link2/f2_4.csv
index,time,tau_J0,tau_J1,tau_J2,tau_J3,tau_J4,tau_J5,tau_J6,tau_J_d0,tau_J_d1,tau_J_d2,tau_J_d3,tau_J_d4,tau_J_d5,tau_J_d6,tau_ext0,tau_ext1,tau_ext2,tau_ext3,tau_ext4,tau_ext5,tau_ext6,q0,q1,q2,q3,q4,q5,q6,q_d0,q_d1,q_d2,q_d3,q_d4,q_d5,q_d6,dq0,dq1,dq2,dq3,dq4,dq5,dq6,dq_d0,dq_d1,dq_d2,dq_d3,dq_d4,dq_d5,dq_d6,e0,e1,e2,e3,e4,e5,e6,de0,de1,de2,de3,de4,de5,de6,etau_J0,etau_J1,etau_J2,etau_J3,etau_J4,etau_J5,etau_J6,label
1,0.0,-0.3752071261405945,-19.717248916625977,-0.5220611095428467,19.931978225708008,0.6832786202430725,2.4630770683288574,-0.22098104655742645,0.0,0.0,0.0,0.0,0.0,0.0,0.0,-0.3364857728350416,0.03210852251144033,-0.29642577377228907,0.18052399735118227,0.09631318603439978,0.09269429081145768,-0.2463423801528634,1.2134343148226385,-0.2201198896888534,-0.007473479059508492,-2.603894313609242,-0.1088878943801583,2.4681842620107863,0.8264744012325093,1.2134413937687574,-0.2202432315892585,-0.0075118285948192216,-2.6038483821997875,-0.10888392708698907,2.4681821257803174,0.826474908251239,0.0006601367762477596,2.6988634057886622e-05,0.00047842159621025806,0.000604269084904551,-6.690093072361596e-05,7.609525294315149e-05,-0.0011172108383787408,0.0,0.0,0.0,0.0,0.0,0.0,0.0,7.078946118843632e-06,-0.00012334190040508286,-3.834953531072979e-05,4.5931409454524896e-05,3.9672931692325e-06,-2.136230468963163e-06,5.070187297784301e-07,-0.0006601367762477596,-2.6988634057886622e-05,-0.00047842159621025806,-0.000604269084904551,6.690093072361596e-05,-7.609525294315149e-05,0.0011172108383787408,0.3752071261405945,19.717248916625977,0.5220611095428467,-19.931978225708008,-0.6832786202430725,-2.4630770683288574,0.22098104655742645,0
2,0.0049974918365478516,-0.3752071261405945,-19.717248916625977,-0.5220611095428467,19.931978225708008,0.6832786202430725,2.4630770683288574,-0.22098104655742645,0.0,0.0,0.0,0.0,0.0,0.0,0.0,-0.3364857728350416,0.03210852251144033,-0.29642577377228907,0.18052399735118227,0.09631318603439978,0.09269429081145768,-0.2463423801528634,1.2134343148226385,-0.2201198896888534,-0.007473479059508492,-2.603894313609242,-0.1088878943801583,2.4681842620107863,0.8264744012325093,1.2134413937687574,-0.2202432315892585,-0.0075118285948192216,-2.6038483821997875,-0.10888392708698907,2.4681821257803174,0.826474908251239,0.0006601367762477596,2.6988634057886622e-05,0.00047842159621025806,0.000604269084904551,-6.690093072361596e-05,7.609525294315149e-05,-0.0011172108383787408,0.0,0.0,0.0,0.0,0.0,0.0,0.0,7.078946118843632e-06,-0.00012334190040508286,-3.834953531072979e-05,4.5931409454524896e-05,3.9672931692325e-06,-2.136230468963163e-06,5.070187297784301e-07,-0.0006601367762477596,-2.6988634057886622e-05,-0.00047842159621025806,-0.000604269084904551,6.690093072361596e-05,-7.609525294315149e-05,0.0011172108383787408,0.3752071261405945,19.717248916625977,0.5220611095428467,-19.931978225708008,-0.6832786202430725,-2.4630770683288574,0.22098104655742645,0
3,0.009997367858886719,-0.3514034152030945,-19.693445205688477,-0.5220611095428467,19.931978225708008,0.6896873116493225,2.4566683769226074,-0.26217979192733765,0.0,0.0,0.0,0.0,0.0,0.0,0.0,-0.33575341261875696,0.034143641129089436,-0.2940026840227056,0.18092552252977098,0.0961270154184229,0.09281704820703196,-0.24743584506617153,1.2134344810825055,-0.2201215396874257,-0.007473479059508494,-2.603894077880814,-0.10888860644896829,2.4681849745721256,0.8264758275919721,1.2134413937687574,-0.2202432315892585,-0.0075118285948192216,-2.6038483821997875,-0.10888392708698907,2.4681821257803174,0.826474908251239,0.0005709549859339916,6.509377549836269e-05,0.000313824692747388,0.0010586271482900208,-0.00031320419858829043,0.00014299603804888777,0.0003686219165072829,0.0,0.0,0.0,0.0,0.0,0.0,0.0,6.912686251858702e-06,-0.00012169190183278222,-3.834953531072719e-05,4.569568102663624e-05,4.679361979217922e-06,-2.8487918082298336e-06,-9.193407330965186e-07,-0.0005709549859339916,-6.509377549836269e-05,-0.000313824692747388,-0.0010586271482900208,0.00031320419858829043,-0.00014299603804888777,-0.0003686219165072829,0.3514034152030945,19.693445205688477,0.5220611095428467,-19.931978225708008,-0.6896873116493225,-2.4566683769226074,0.26217979192733765,0
4,0.014998674392700195,-0.3514034152030945,-19.693445205688477,-0.5220611095428467,19.931978225708008,0.6896873116493225,2.4566683769226074,-0.26217979192733765,0.0,0.0,0.0,0.0,0.0,0.0,0.0,-0.33575341261875696,0.034143641129089436,-0.2940026840227056,0.18092552252977098,0.0961270154184229,0.09281704820703196,-0.24743584506617153,1.2134344810825055,-0.2201215396874257,-0.007473479059508494,-2.603894077880814,-0.10888860644896829,2.4681849745721256,0.8264758275919721,1.2134413937687574,-0.2202432315892585,-0.0075118285948192216,-2.6038483821997875,-0.10888392708698907,2.4681821257803174,0.826474908251239,0.0005709549859339916,6.509377549836269e-05,0.000313824692747388,0.0010586271482900208,-0.00031320419858829043,0.00014299603804888777,0.0003686219165072829,0.0,0.0,0.0,0.0,0.0,0.0,0.0,6.912686251858702e-06,-0.00012169190183278222,-3.834953531072719e-05,4.569568102663624e-05,4.679361979217922e-06,-2.8487918082298336e-06,-9.193407330965186e-07,-0.0005709549859339916,-6.509377549836269e-05,-0.000313824692747388,-0.0010586271482900208,0.00031320419858829043,-0.00014299603804888777,-0.0003686219165072829,0.3514034152030945,19.693445205688477,0.5220611095428467,-19.931978225708008,-0.6896873116493225,-2.4566683769226074,0.26217979192733765,0
5,0.020048141479492188,-0.3514034152030945,-19.693445205688477,-0.5220611095428467,19.931978225708008,0.6896873116493225,2.4566683769226074,-0.26217979192733765,0.0,0.0,0.0,0.0,0.0,0.0,0.0,-0.33575341261875696,0.034143641129089436,-0.2940026840227056,0.18092552252977098,0.0961270154184229,0.09281704820703196,-0.24743584506617153,1.2134344810825055,-0.2201215396874257,-0.007473479059508494,-2.603894077880814,-0.10888860644896829,2.4681849745721256,0.8264758275919721,1.2134413937687574,-0.2202432315892585,-0.0075118285948192216,-2.6038483821997875,-0.10888392708698907,2.4681821257803174,0.826474908251239,0.0005709549859339916,6.509377549836269e-05,0.000313824692747388,0.0010586271482900208,-0.00031320419858829043,0.00014299603804888777,0.0003686219165072829,0.0,0.0,0.0,0.0,0.0,0.0,0.0,6.912686251858702e-06,-0.00012169190183278222,-3.834953531072719e-05,4.569568102663624e-05,4.679361979217922e-06,-2.8487918082298336e-06,-9.193407330965186e-07,-0.0005709549859339916,-6.509377549836269e-05,-0.000313824692747388,-0.0010586271482900208,0.00031320419858829043,-0.00014299603804888777,-0.0003686219165072829,0.3514034152030945,19.693445205688477,0.5220611095428467,-19.931978225708008,-0.6896873116493225,-2.4566683769226074,0.26217979192733765,0
6,0.025015830993652344,-0.3514034152030945,-19.693445205688477,-0.5220611095428467,19.931978225708008,0.6896873116493225,2.4566683769226074,-0.26217979192733765,0.0,0.0,0.0,0.0,0.0,0.0,0.0,-0.33575341261875696,0.034143641129089436,-0.2940026840227056,0.18092552252977098,0.0961270154184229,0.09281704820703196,-0.24743584506617153,1.2134344810825055,-0.2201215396874257,-0.007473479059508494,-2.603894077880814,-0.10888860644896829,2.4681849745721256,0.8264758275919721,1.2134413937687574,-0.2202432315892585,-0.0075118285948192216,-2.6038483821997875,-0.10888392708698907,2.4681821257803174,0.826474908251239,0.0005709549859339916,6.509377549836269e-05,0.000313824692747388,0.0010586271482900208,-0.00031320419858829043,0.00014299603804888777,0.0003686219165072829,0.0,0.0,0.0,0.0,0.0,0.0,0.0,6.912686251858702e-06,-0.00012169190183278222,-3.834953531072719e-05,4.569568102663624e-05,4.679361979217922e-06,-2.8487918082298336e-06,-9.193407330965186e-07,-0.0005709549859339916,-6.509377549836269e-05,-0.000313824692747388,-0.0010586271482900208,0.00031320419858829043,-0.00014299603804888777,-0.0003686219165072829,0.3514034152030945,19.693445205688477,0.5220611095428467,-19.931978225708008,-0.6896873116493225,-2.4566683769226074,0.26217979192733765,0
7,0.02995157241821289,-0.3514034152030945,-19.669641494750977,-0.5220611095428467,19.955781936645508,0.6832786202430725,2.4630770683288574,-0.23471395671367645,0.0,0.0,0.0,0.0,0.0,0.0,0.0,-0.3420086485854335,0.03988727001857762,-0.30108044821919044,0.17846432452284913,0.096661202048615,0.09181076670155268,-0.247271223072107,1.2134324147985216,-0.22012228277627802,-0.007473479059508494,-2.603898194349693,-0.1088878958325091,2.4681846152234987,0.826472658077145,1.2134413937687574,-0.2202432315892585,-0.0075118285948192216,-2.6038483821997875,-0.10888392708698907,2.4681821257803174,0.826474908251239,0.00012557011848419937,-5.716441695769989e-05,0.00020976073323692265,0.00010318630187209069,7.595348672576975e-05,-5.6668567561255874e-05,-0.0003536005674292633,0.0,0.0,0.0,0.0,0.0,0.0,0.0,8.978970235773431e-06,-0.00012094881298047033,-3.834953531072719e-05,4.981214990529281e-05,3.968745520027683e-06,-2.489443181374895e-06,2.250174094053925e-06,-0.00012557011848419937,5.716441695769989e-05,-0.00020976073323692265,-0.00010318630187209069,-7.595348672576975e-05,5.6668567561255874e-05,0.0003536005674292633,0.3514034152030945,19.669641494750977,0.5220611095428467,-19.955781936645508,-0.6832786202430725,-2.4630770683288574,0.23471395671367645,0
8,0.03495168685913086,-0.3514034152030945,-19.669641494750977,-0.5220611095428467,19.955781936645508,0.6832786202430725,2.4630770683288574,-0.23471395671367645,0.0,0.0,0.0,0.0,0.0,0.0,0.0,-0.3420086485854335,0.03988727001857762,-0.30108044821919044,0.17846432452284913,0.096661202048615,0.09181076670155268,-0.247271223072107,1.2134324147985216,-0.22012228277627802,-0.007473479059508494,-2.603898194349693,-0.1088878958325091,2.4681846152234987,0.826472658077145,1.2134413937687574,-0.2202432315892585,-0.0075118285948192216,-2.6038483821997875,-0.10888392708698907,2.4681821257803174,0.826474908251239,0.00012557011848419937,-5.716441695769989e-05,0.00020976073323692265,0.00010318630187209069,7.595348672576975e-05,-5.6668567561255874e-05,-0.0003536005674292633,0.0,0.0,0.0,0.0,0.0,0.0,0.0,8.978970235773431e-06,-0.00012094881298047033,-3.834953531072719e-05,4.981214990529281e-05,3.968745520027683e-06,-2.489443181374895e-06,2.250174094053925e-06,-0.00012557011848419937,5.716441695769989e-05,-0.00020976073323692265,-0.00010318630187209069,-7.595348672576975e-05,5.6668567561255874e-05,0.0003536005674292633,0.3514034152030945,19.669641494750977,0.5220611095428467,-19.955781936645508,-0.6832786202430725,-2.4630770683288574,0.23471395671367645,0
9,0.03999638557434082,-0.3236324191093445,-19.693445205688477,-0.4982573688030243,19.983552932739258,0.6832786202430725,2.4566683769226074,-0.26217979192733765,0.0,0.0,0.0,0.0,0.0,0.0,0.0,-0.33434509151391156,0.03381780869424993,-0.29304478341058926,0.18513161456441915,0.09700993292403146,0.09307485290094601,-0.24612231335616208,1.213430466050005,-0.22011925764116327,-0.007475149497455149,-2.6039001672481294,-0.10888789437215358,2.468188153003991,0.8264767680743627,1.2134413937687574,-0.2202432315892585,-0.0075118285948192216,-2.6038483821997875,-0.10888392708698907,2.4681821257803174,0.826474908251239,0.00029618357798204335,-0.00025977848675227743,0.0005175719921856445,-0.0005855251773169586,0.00942309695490203,0.0003242653742309775,0.0009662688500012994,0.0,0.0,0.0,0.0,0.0,0.0,0.0,1.092771875232934e-05,-0.0001239739480952129,-3.667909736407293e-05,5.178504834191244e-05,3.967285164510614e-06,-6.02722367348818e-06,-1.8598231236177654e-06,-0.00029618357798204335,0.00025977848675227743,-0.0005175719921856445,0.0005855251773169586,-0.00942309695490203,-0.0003242653742309775,-0.0009662688500012994,0.3236324191093445,19.693445205688477,0.4982573688030243,-19.983552932739258,-0.6832786202430725,-2.4566683769226074,0.26217979192733765,0
10,0.044996023178100586,-0.3236324191093445,-19.693445205688477,-0.4982573688030243,19.983552932739258,0.6832786202430725,2.4566683769226074,-0.26217979192733765,0.0,0.0,0.0,0.0,0.0,0.0,0.0,-0.33434509151391156,0.03381780869424993,-0.29304478341058926,0.18513161456441915,0.09700993292403146,0.09307485290094601,-0.24612231335616208,1.213430466050005,-0.22011925764116327,-0.007475149497455149,-2.6039001672481294,-0.10888789437215358,2.468188153003991,0.8264767680743627,1.2134413937687574,-0.2202432315892585,-0.0075118285948192216,-2.6038483821997875,-0.10888392708698907,2.4681821257803174,0.826474908251239,0.00029618357798204335,-0.00025977848675227743,0.0005175719921856445,-0.0005855251773169586,0.00942309695490203,0.0003242653742309775,0.0009662688500012994,0.0,0.0,0.0,0.0,0.0,0.0,0.0,1.092771875232934e-05,-0.0001239739480952129,-3.667909736407293e-05,5.178504834191244e-05,3.967285164510614e-06,-6.02722367348818e-06,-1.8598231236177654e-06,-0.00029618357798204335,0.00025977848675227743,-0.0005175719921856445,0.0005855251773169586,-0.00942309695490203,-0.0003242653742309775,-0.0009662688500012994,0.3236324191093445,19.693445205688477,0.4982573688030243,-19.983552932739258,-0.6832786202430725,-2.4566683769226074,0.26217979192733765,0
11,0.04999399185180664,-0.3752071261405945,-19.768823623657227,-0.5220611095428467,19.983552932739258,0.6832786202430725,2.4758944511413574,-0.26858848333358765,0.0,0.0,0.0,0.0,0.0,0.0,0.0,-0.3439573191208556,0.039987943430608894,-0.3036995495930194,0.183099395453523,0.09742518306788978,0.09208538766523923,-0.24440605813673738,1.2134340852227146,-0.22011529929352083,-0.007473479059508494,-2.603899922976416,-0.10888895946411632,2.468182837910976,0.8264765072061546,1.2134413937687574,-0.2202432315892585,-0.0075118285948192216,-2.6038483821997875,-0.10888392708698907,2.4681821257803174,0.826474908251239,0.0007554542665405019,0.0013713011941681329,0.0007724437340881255,-0.000447671234382844,-0.001348192013492848,-0.000514340305632751,0.0009851546525784685,0.0,0.0,0.0,0.0,0.0,0.0,0.0,7.30854604280573e-06,-0.00012793229573765386,-3.834953531072719e-05,5.1540776628389295e-05,5.032377127248133e-06,-7.121306584423337e-07,-1.5989549155825955e-06,-0.0007554542665405019,-0.0013713011941681329,-0.0007724437340881255,0.000447671234382844,0.001348192013492848,0.000514340305632751,-0.0009851546525784685,0.3752071261405945,19.768823623657227,0.5220611095428467,-19.983552932739258,-0.6832786202430725,-2.4758944511413574,0.26858848333358765,0
12,0.055032968521118164,-0.3752071261405945,-19.768823623657227,-0.5220611095428467,19.983552932739258,0.6832786202430725,2.4758944511413574,-0.26858848333358765,0.0,0.0,0.0,0.0,0.0,0.0,0.0,-0.3439573191208556,0.039987943430608894,-0.3036995495930194,0.183099395453523,0.09742518306788978,0.09208538766523923,-0.24440605813673738,1.2134340852227146,-0.22011529929352083,-0.007473479059508494,-2.603899922976416,-0.10888895946411632,2.468182837910976,0.8264765072061546,1.2134413937687574,-0.2202432315892585,-0.0075118285948192216,-2.6038483821997875,-0.10888392708698907,2.4681821257803174,0.826474908251239,0.0007554542665405019,0.0013713011941681329,0.0007724437340881255,-0.000447671234382844,-0.001348192013492848,-0.000514340305632751,0.0009851546525784685,0.0,0.0,0.0,0.0,0.0,0.0,0.0,7.30854604280573e-06,-0.00012793229573765386,-3.834953531072719e-05,5.1540776628389295e-05,5.032377127248133e-06,-7.121306584423337e-07,-1.5989549155825955e-06,-0.0007554542665405019,-0.0013713011941681329,-0.0007724437340881255,0.000447671234382844,0.001348192013492848,0.000514340305632751,-0.0009851546525784685,0.3752071261405945,19.768823623657227,0.5220611095428467,-19.983552932739258,-0.6832786202430725,-2.4758944511413574,0.26858848333358765,0
13,0.060003042221069336,-0.3236324191093445,-19.717248916625977,-0.4704863727092743,19.955781936645508,0.6777854561805725,2.4630770683288574,-0.25485557317733765,0.0,0.0,0.0,0.0,0.0,0.0,0.0,-0.33744970164465043,0.035695534901238495,-0.2954301655471126,0.1866816321557545,0.09646158822208134,0.09240728815315243,-0.24274042520221498,1.2134304659450263,-0.22011678990253564,-0.007477098339286289,-2.603897451599014,-0.10888728402258697,2.468184266371437,0.8264783876409956,1.2134413937687574,-0.2202432315892585,-0.0075118285948192216,-2.6038483821997875,-0.10888392708698907,2.4681821257803174,0.826474908251239,-0.00016489619495505564,7.16393889088529e-06,-0.0003122357520270605,0.000546578002251683,5.57520957331196e-05,-5.109071459856488e-05,0.0004803532919309743,0.0,0.0,0.0,0.0,0.0,0.0,0.0,1.0927823731021746e-05,-0.00012644168672285017,-3.4730255532932665e-05,4.90693992265534e-05,3.3569355979007343e-06,-2.140591119470514e-06,-3.47938975653328e-06,0.00016489619495505564,-7.16393889088529e-06,0.0003122357520270605,-0.000546578002251683,-5.57520957331196e-05,5.109071459856488e-05,-0.0004803532919309743,0.3236324191093445,19.717248916625977,0.4704863727092743,-19.955781936645508,-0.6777854561805725,-2.4630770683288574,0.25485557317733765,0
14,0.06494903564453125,-0.3236324191093445,-19.717248916625977,-0.4704863727092743,19.955781936645508,0.6777854561805725,2.4630770683288574,-0.25485557317733765,0.0,0.0,0.0,0.0,0.0,0.0,0.0,-0.33744970164465043,0.035695534901238495,-0.2954301655471126,0.1866816321557545,0.09646158822208134,0.09240728815315243,-0.24274042520221498,1.2134304659450263,-0.22011678990253564,-0.007477098339286289,-2.603897451599014,-0.10888728402258697,2.468184266371437,0.8264783876409956,1.2134413937687574,-0.2202432315892585,-0.0075118285948192216,-2.6038483821997875,-0.10888392708698907,2.4681821257803174,0.826474908251239,-0.00016489619495505564,7.16393889088529e-06,-0.0003122357520270605,0.000546578002251683,5.57520957331196e-05,-5.109071459856488e-05,0.0004803532919309743,0.0,0.0,0.0,0.0,0.0,0.0,0.0,1.0927823731021746e-05,-0.00012644168672285017,-3.4730255532932665e-05,4.90693992265534e-05,3.3569355979007343e-06,-2.140591119470514e-06,-3.47938975653328e-06,0.00016489619495505564,-7.16393889088529e-06,0.0003122357520270605,-0.000546578002251683,-5.57520957331196e-05,5.109071459856488e-05,-0.0004803532919309743,0.3236324191093445,19.717248916625977,0.4704863727092743,-19.955781936645508,-0.6777854561805725,-2.4630770683288574,0.25485557317733765,0
15,0.06995129585266113,-0.3236324191093445,-19.745019912719727,-0.4982573688030243,19.983552932739258,0.6777854561805725,2.4630770683288574,-0.26217979192733765,0.0,0.0,0.0,0.0,0.0,0.0,0.0,-0.3359807769154438,0.03883309873255011,-0.29726929081440207,0.17994510871112732,0.096024893823373,0.09090914359073361,-0.24141091369351209,1.2134304659450263,-0.22011484190875374,-0.007475123194299472,-2.6039001706732385,-0.10888728402058283,2.4681843012566675,0.8264793142295871,1.2134413937687574,-0.2202432315892585,-0.0075118285948192216,-2.6038483821997875,-0.10888392708698907,2.4681821257803174,0.826474908251239,0.00020112362609811676,0.0005935572895366326,-7.054901444372028e-06,-0.0007441027172296786,0.00022820093430085073,-3.388579037588339e-05,0.0007161512830948985,0.0,0.0,0.0,0.0,0.0,0.0,0.0,1.0927823731021746e-05,-0.00012838968050474242,-3.67054005197499e-05,5.1788473450997685e-05,3.3569335937538858e-06,-2.1754763501746766e-06,-4.40597834805434e-06,-0.00020112362609811676,-0.0005935572895366326,7.054901444372028e-06,0.0007441027172296786,-0.00022820093430085073,3.388579037588339e-05,-0.0007161512830948985,0.3236324191093445,19.745019912719727,0.4982573688030243,-19.983552932739258,-0.6777854561805725,-2.4630770683288574,0.26217979192733765,0
16,0.07503986358642578,-0.3236324191093445,-19.745019912719727,-0.4982573688030243,19.983552932739258,0.6777854561805725,2.4630770683288574,-0.26217979192733765,0.0,0.0,0.0,0.0,0.0,0.0,0.0,-0.3359807769154438,0.03883309873255011,-0.29726929081440207,0.17994510871112732,0.096024893823373,0.09090914359073361,-0.24141091369351209,1.2134304659450263,-0.22011484190875374,-0.007475123194299472,-2.6039001706732385,-0.10888728402058283,2.4681843012566675,0.8264793142295871,1.2134413937687574,-0.2202432315892585,-0.0075118285948192216,-2.6038483821997875,-0.10888392708698907,2.4681821257803174,0.826474908251239,0.00020112362609811676,0.0005935572895366326,-7.054901444372028e-06,-0.0007441027172296786,0.00022820093430085073,-3.388579037588339e-05,0.0007161512830948985,0.0,0.0,0.0,0.0,0.0,0.0,0.0,1.0927823731021746e-05,-0.00012838968050474242,-3.67054005197499e-05,5.1788473450997685e-05,3.3569335937538858e-06,-2.1754763501746766e-06,-4.40597834805434e-06,-0.00020112362609811676,-0.0005935572895366326,7.054901444372028e-06,0.0007441027172296786,-0.00022820093430085073,3.388579037588339e-05,-0.0007161512830948985,0.3236324191093445,19.745019912719727,0.4982573688030243,-19.983552932739258,-0.6777854561805725,-2.4630770683288574,0.26217979192733765,0
17,0.07999277114868164,-0.3514034152030945,-19.693445205688477,-0.4704863727092743,19.955781936645508,0.6713767647743225,2.4493441581726074,-0.27591270208358765,0.0,0.0,0.0,0.0,0.0,0.0,0.0,-0.32858585601645873,0.04199524368665045,-0.2946433151484918,0.1763436053546292,0.09591937823675108,0.09050383306675316,-0.24069512491567202,1.2134326443751187,-0.22012066485038007,-0.007477098339137807,-2.6038959965579993,-0.10888657194375992,2.468188966858137,0.8264782949426493,1.2134413937687574,-0.2202432315892585,-0.0075118285948192216,-2.6038483821997875,-0.10888392708698907,2.4681821257803174,0.826474908251239,0.0009576581219932729,0.0001877890005696131,-6.429758756190363e-05,-0.00016588301696767287,0.00038306450333491836,0.0004789872505485545,0.0014964327835177006,0.0,0.0,0.0,0.0,0.0,0.0,0.0,8.749393638707303e-06,-0.0001225667388784213,-3.4730255681414586e-05,4.761435821176718e-05,2.6448567708448056e-06,-6.8410778197858235e-06,-3.386691410312004e-06,-0.0009576581219932729,-0.0001877890005696131,6.429758756190363e-05,0.00016588301696767287,-0.00038306450333491836,-0.0004789872505485545,-0.0014964327835177006,0.3514034152030945,19.693445205688477,0.4704863727092743,-19.955781936645508,-0.6713767647743225,-2.4493441581726074,0.27591270208358765,0
18,0.08499360084533691,-0.3514034152030945,-19.693445205688477,-0.4704863727092743,19.955781936645508,0.6713767647743225,2.4493441581726074,-0.27591270208358765,0.0,0.0,0.0,0.0,0.0,0.0,0.0,-0.32858585601645873,0.04199524368665045,-0.2946433151484918,0.1763436053546292,0.09591937823675108,0.09050383306675316,-0.24069512491567202,1.2134326443751187,-0.22012066485038007,-0.007477098339137807,-2.6038959965579993,-0.10888657194375992,2.468188966858137,0.8264782949426493,1.2134413937687574,-0.2202432315892585,-0.0075118285948192216,-2.6038483821997875,-0.10888392708698907,2.4681821257803174,0.826474908251239,0.0009576581219932729,0.0001877890005696131,-6.429758756190363e-05,-0.00016588301696767287,0.00038306450333491836,0.0004789872505485545,0.0014964327835177006,0.0,0.0,0.0,0.0,0.0,0.0,0.0,8.749393638707303e-06,-0.0001225667388784213,-3.4730255681414586e-05,4.761435821176718e-05,2.6448567708448056e-06,-6.8410778197858235e-06,-3.386691410312004e-06,-0.0009576581219932729,-0.0001877890005696131,6.429758756190363e-05,0.00016588301696767287,-0.00038306450333491836,-0.0004789872505485545,-0.0014964327835177006,0.3514034152030945,19.693445205688477,0.4704863727092743,-19.955781936645508,-0.6713767647743225,-2.4493441581726074,0.27591270208358765,0
19,0.08999276161193848,-0.2998287081718445,-19.693445205688477,-0.4982573688030243,19.955781936645508,0.6777854561805725,2.4630770683288574,-0.27591270208358765,0.0,0.0,0.0,0.0,0.0,0.0,0.0,-0.32851357474653303,0.033828785590416896,-0.29443289575759585,0.18125325635881565,0.0960785771475177,0.09118328723429224,-0.24159924067356078,1.2134287955096033,-0.2201192739061961,-0.007475149497455149,-2.6038982218315683,-0.10888728402058283,2.4681842620167678,0.8264775962150824,1.2134413937687574,-0.2202432315892585,-0.0075118285948192216,-2.6038483821997875,-0.10888392708698907,2.4681821257803174,0.826474908251239,-0.0006147564850370076,-2.3937287903590692e-05,0.00023347708813738997,-8.571168724576856e-05,0.0002618837113602919,0.00014349191039054473,0.001336120582181781,0.0,0.0,0.0,0.0,0.0,0.0,0.0,1.2598259154117386e-05,-0.0001239576830623923,-3.667909736407293e-05,4.9839631780734805e-05,3.3569335937538858e-06,-2.1362364504007303e-06,-2.6879638433952024e-06,0.0006147564850370076,2.3937287903590692e-05,-0.00023347708813738997,8.571168724576856e-05,-0.0002618837113602919,-0.00014349191039054473,-0.001336120582181781,0.2998287081718445,19.693445205688477,0.4982573688030243,-19.955781936645508,-0.6777854561805725,-2.4630770683288574,0.27591270208358765,0
20,0.09502196311950684,-0.2998287081718445,-19.693445205688477,-0.4982573688030243,19.955781936645508,0.6777854561805725,2.4630770683288574,-0.27591270208358765,0.0,0.0,0.0,0.0,0.0,0.0,0.0,-0.32851357474653303,0.033828785590416896,-0.29443289575759585,0.18125325635881565,0.0960785771475177,0.09118328723429224,-0.24159924067356078,1.2134287955096033,-0.2201192739061961,-0.007475149497455149,-2.6038982218315683,-0.10888728402058283,2.4681842620167678,0.8264775962150824,1.2134413937687574,-0.2202432315892585,-0.0075118285948192216,-2.6038483821997875,-0.10888392708698907,2.4681821257803174,0.826474908251239,-0.0006147564850370076,-2.3937287903590692e-05,0.00023347708813738997,-8.571168724576856e-05,0.0002618837113602919,0.00014349191039054473,0.001336120582181781,0.0,0.0,0.0,0.0,0.0,0.0,0.0,1.2598259154117386e-05,-0.0001239576830623923,-3.667909736407293e-05,4.9839631780734805e-05,3.3569335937538858e-06,-2.1362364504007303e-06,-2.6879638433952024e-06,0.0006147564850370076,2.3937287903590692e-05,-0.00023347708813738997,8.571168724576856e-05,-0.0002618837113602919,-0.00014349191039054473,-0.001336120582181781,0.2998287081718445,19.693445205688477,0.4982573688030243,-19.955781936645508,-0.6777854561805725,-2.4630770683288574,0.27591270208358765,0
21,0.10003328323364258,-0.3514034152030945,-19.717248916625977,-0.5220611095428467,19.983552932739258,0.6832786202430725,2.4630770683288574,-0.22098104655742645,0.0,0.0,0.0,0.0,0.0,0.0,0.0,-0.33316607920996205,0.03654591265638294,-0.2981413217203117,0.18052503770800488,0.09662364913904234,0.09147256797822839,-0.24185535320309487,1.2134324147868574,-0.2201175259218614,-0.007473478085317543,-2.603900170677586,-0.10888801266161012,2.4681842752542438,0.8264746367630872,1.2134413937687574,-0.2202432315892585,-0.0075118285948192216,-2.6038483821997875,-0.10888392708698907,2.4681821257803174,0.826474908251239,1.6976137857182502e-05,0.000304018366010802,0.0005629819508763786,-0.0005681393444780765,-2.0979757632798763e-05,0.00020077849996037102,-0.0009930735180781478,0.0,0.0,0.0,0.0,0.0,0.0,0.0,8.978981899998573e-06,-0.00012570566739708577,-3.835050950167819e-05,5.178847779863105e-05,4.085574621046084e-06,-2.1494739264049656e-06,2.7148815184840913e-07,-1.6976137857182502e-05,-0.000304018366010802,-0.0005629819508763786,0.0005681393444780765,2.0979757632798763e-05,-0.00020077849996037102,0.0009930735180781478,0.3514034152030945,19.717248916625977,0.5220611095428467,-19.983552932739258,-0.6832786202430725,-2.4630770683288574,0.22098104655742645,0
22,0.1050417423248291,-0.3514034152030945,-19.717248916625977,-0.5220611095428467,19.983552932739258,0.6832786202430725,2.4630770683288574,-0.22098104655742645,0.0,0.0,0.0,0.0,0.0,0.0,0.0,-0.33316607920996205,0.03654591265638294,-0.2981413217203117,0.18052503770800488,0.09662364913904234,0.09147256797822839,-0.24185535320309487,1.2134324147868574,-0.2201175259218614,-0.007473478085317543,-2.603900170677586,-0.10888801266161012,2.4681842752542438,0.8264746367630872,1.2134413937687574,-0.2202432315892585,-0.0075118285948192216,-2.6038483821997875,-0.10888392708698907,2.4681821257803174,0.826474908251239,1.6976137857182502e-05,0.000304018366010802,0.0005629819508763786,-0.0005681393444780765,-2.0979757632798763e-05,0.00020077849996037102,-0.0009930735180781478,0.0,0.0,0.0,0.0,0.0,0.0,0.0,8.978981899998573e-06,-0.00012570566739708577,-3.835050950167819e-05,5.178847779863105e-05,4.085574621046084e-06,-2.1494739264049656e-06,2.7148815184840913e-07,-1.6976137857182502e-05,-0.000304018366010802,-0.0005629819508763786,0.0005681393444780765,2.0979757632798763e-05,-0.00020077849996037102,0.0009930735180781478,0.3514034152030945,19.717248916625977,0.5220611095428467,-19.983552932739258,-0.6832786202430725,-2.4630770683288574,0.22098104655742645,0
23,0.11002397537231445,-0.4029781222343445,-19.693445205688477,-0.5696685314178467,19.955781936645508,0.6832786202430725,2.4630770683288574,-0.25485557317733765,0.0,0.0,0.0,0.0,0.0,0.0,0.0,-0.3343289094825375,0.03967987015090294,-0.29815308023975573,0.17971940411547277,0.09662964410758612,0.09186680093836966,-0.24133954106041708,1.2134361105939642,-0.22011855069227845,-0.0074701381877924685,-2.603898218444138,-0.10888789437281308,2.468184262010861,0.8264748569692973,1.2134413937687574,-0.2202432315892585,-0.0075118285948192216,-2.6038483821997875,-0.10888392708698907,2.4681821257803174,0.826474908251239,0.001489830972614665,-0.0001661562405353273,0.0012801477681227314,5.28260103917072e-05,2.444411667668624e-05,0.00023763412071026047,0.0008647020857427992,0.0,0.0,0.0,0.0,0.0,0.0,0.0,5.283174793202505e-06,-0.00012468089698003393,-4.169040702675306e-05,4.983624435039857e-05,3.967285824010847e-06,-2.13623054357015e-06,5.12819416931265e-08,-0.001489830972614665,0.0001661562405353273,-0.0012801477681227314,-5.28260103917072e-05,-2.444411667668624e-05,-0.00023763412071026047,-0.0008647020857427992,0.4029781222343445,19.693445205688477,0.5696685314178467,-19.955781936645508,-0.6832786202430725,-2.4630770683288574,0.25485557317733765,0
24,0.11504173278808594,-0.4029781222343445,-19.693445205688477,-0.5696685314178467,19.955781936645508,0.6832786202430725,2.4630770683288574,-0.25485557317733765,0.0,0.0,0.0,0.0,0.0,0.0,0.0,-0.3343289094825375,0.03967987015090294,-0.29815308023975573,0.17971940411547277,0.09662964410758612,0.09186680093836966,-0.24133954106041708,1.2134361105939642,-0.22011855069227845,-0.0074701381877924685,-2.603898218444138,-0.10888789437281308,2.468184262010861,0.8264748569692973,1.2134413937687574,-0.2202432315892585,-0.0075118285948192216,-2.6038483821997875,-0.10888392708698907,2.4681821257803174,0.826474908251239,0.001489830972614665,-0.0001661562405353273,0.0012801477681227314,5.28260103917072e-05,2.444411667668624e-05,0.00023763412071026047,0.0008647020857427992,0.0,0.0,0.0,0.0,0.0,0.0,0.0,5.283174793202505e-06,-0.00012468089698003393,-4.169040702675306e-05,4.983624435039857e-05,3.967285824010847e-06,-2.13623054357015e-06,5.12819416931265e-08,-0.001489830972614665,0.0001661562405353273,-0.0012801477681227314,-5.28260103917072e-05,-2.444411667668624e-05,-0.00023763412071026047,-0.0008647020857427992,0.4029781222343445,19.693445205688477,0.5696685314178467,-19.955781936645508,-0.6832786202430725,-2.4630770683288574,0.25485557317733765,0
25,0.12003588676452637,-0.3236324191093445,-19.693445205688477,-0.4704863727092743,19.983552932739258,0.6832786202430725,2.4694857597351074,-0.23471395671367645,0.0,0.0,0.0,0.0,0.0,0.0,0.0,-0.3329303669980865,0.04090470551547729,-0.29512360427238477,0.18095349068172495,0.09678264002221929,0.09254535701338915,-0.24030720740040212,1.2134304659454584,-0.22011877559491547,-0.007477098339286289,-2.60390015745026,-0.10888789437214534,2.4681835499339635,0.8264740709270988,1.2134413937687574,-0.2202432315892585,-0.0075118285948192216,-2.6038483821997875,-0.10888392708698907,2.4681821257803174,0.826474908251239,-0.00048131897815879783,7.805200487657422e-05,-0.0006254882853835194,-0.0005013834764887663,-0.00015831329949889873,-0.00023544602189468105,-0.0004153835929484848,0.0,0.0,0.0,0.0,0.0,0.0,0.0,1.0927823298922945e-05,-0.00012445599434302013,-3.4730255532932665e-05,5.1775250472285705e-05,3.9672851562672085e-06,-1.4241536461234716e-06,8.373241402459541e-07,0.00048131897815879783,-7.805200487657422e-05,0.0006254882853835194,0.0005013834764887663,0.00015831329949889873,0.00023544602189468105,0.0004153835929484848,0.3236324191093445,19.693445205688477,0.4704863727092743,-19.983552932739258,-0.6832786202430725,-2.4694857597351074,0.23471395671367645,0
26,0.12503385543823242,-0.3236324191093445,-19.693445205688477,-0.4704863727092743,19.983552932739258,0.6832786202430725,2.4694857597351074,-0.23471395671367645,0.0,0.0,0.0,0.0,0.0,0.0,0.0,-0.3329303669980865,0.04090470551547729,-0.29512360427238477,0.18095349068172495,0.09678264002221929,0.09254535701338915,-0.24030720740040212,1.2134304659454584,-0.22011877559491547,-0.007477098339286289,-2.60390015745026,-0.10888789437214534,2.4681835499339635,0.8264740709270988,1.2134413937687574,-0.2202432315892585,-0.0075118285948192216,-2.6038483821997875,-0.10888392708698907,2.4681821257803174,0.826474908251239,-0.00048131897815879783,7.805200487657422e-05,-0.0006254882853835194,-0.0005013834764887663,-0.00015831329949889873,-0.00023544602189468105,-0.0004153835929484848,0.0,0.0,0.0,0.0,0.0,0.0,0.0,1.0927823298922945e-05,-0.00012445599434302013,-3.4730255532932665e-05,5.1775250472285705e-05,3.9672851562672085e-06,-1.4241536461234716e-06,8.373241402459541e-07,0.00048131897815879783,-7.805200487657422e-05,0.0006254882853835194,0.0005013834764887663,0.00015831329949889873,0.00023544602189468105,0.0004153835929484848,0.3236324191093445,19.693445205688477,0.4704863727092743,-19.983552932739258,-0.6832786202430725,-2.4694857597351074,0.23471395671367645,0
27,0.13002729415893555,-0.3236324191093445,-19.745019912719727,-0.4704863727092743,19.955781936645508,0.6713767647743225,2.4694857597351074,-0.24112264811992645,0.0,0.0,0.0,0.0,0.0,0.0,0.0,-0.3355531676316915,0.03702210552991267,-0.2945328353018142,0.18502093507662856,0.09681974223787086,0.0930687204095196,-0.24048729600857427,1.2134304659450263,-0.2201150891382326,-0.007476388154083002,-2.6038982218356805,-0.10888657194375992,2.4681835499339635,0.8264733421131425,1.2134413937687574,-0.2202432315892585,-0.0075118285948192216,-2.6038483821997875,-0.10888392708698907,2.4681821257803174,0.826474908251239,-0.00015931827634273654,0.0008454085028229253,-0.0003264896857081086,3.916096793111931e-05,0.00035376626896597724,-0.0003470490276656222,-0.00020171812779393617,0.0,0.0,0.0,0.0,0.0,0.0,0.0,1.0927823731021746e-05,-0.00012814245102588107,-3.544044073621952e-05,4.983963589300089e-05,2.6448567708448056e-06,-1.4241536461234716e-06,1.566138096542602e-06,0.00015931827634273654,-0.0008454085028229253,0.0003264896857081086,-3.916096793111931e-05,-0.00035376626896597724,0.0003470490276656222,0.00020171812779393617,0.3236324191093445,19.745019912719727,0.4704863727092743,-19.955781936645508,-0.6713767647743225,-2.4694857597351074,0.24112264811992645,0
28,0.13503360748291016,-0.3236324191093445,-19.745019912719727,-0.4704863727092743,19.955781936645508,0.6713767647743225,2.4694857597351074,-0.24112264811992645,0.0,0.0,0.0,0.0,0.0,0.0,0.0,-0.3355531676316915,0.03702210552991267,-0.2945328353018142,0.18502093507662856,0.09681974223787086,0.0930687204095196,-0.24048729600857427,1.2134304659450263,-0.2201150891382326,-0.007476388154083002,-2.6038982218356805,-0.10888657194375992,2.4681835499339635,0.8264733421131425,1.2134413937687574,-0.2202432315892585,-0.0075118285948192216,-2.6038483821997875,-0.10888392708698907,2.4681821257803174,0.826474908251239,-0.00015931827634273654,0.0008454085028229253,-0.0003264896857081086,3.916096793111931e-05,0.00035376626896597724,-0.0003470490276656222,-0.00020171812779393617,0.0,0.0,0.0,0.0,0.0,0.0,0.0,1.0927823731021746e-05,-0.00012814245102588107,-3.544044073621952e-05,4.983963589300089e-05,2.6448567708448056e-06,-1.4241536461234716e-06,1.566138096542602e-06,0.00015931827634273654,-0.0008454085028229253,0.0003264896857081086,-3.916096793111931e-05,-0.00035376626896597724,0.0003470490276656222,0.00020171812779393617,0.3236324191093445,19.745019912719727,0.4704863727092743,-19.955781936645508,-0.6713767647743225,-2.4694857597351074,0.24112264811992645,0
29,0.14003443717956543,-0.3236324191093445,-19.745019912719727,-0.4704863727092743,19.955781936645508,0.6713767647743225,2.4694857597351074,-0.24112264811992645,0.0,0.0,0.0,0.0,0.0,0.0,0.0,-0.3355531676316915,0.03702210552991267,-0.2945328353018142,0.18502093507662856,0.09681974223787086,0.0930687204095196,-0.24048729600857427,1.2134304659450263,-0.2201150891382326,-0.007476388154083002,-2.6038982218356805,-0.10888657194375992,2.4681835499339635,0.8264733421131425,1.2134413937687574,-0.2202432315892585,-0.0075118285948192216,-2.6038483821997875,-0.10888392708698907,2.4681821257803174,0.826474908251239,-0.00015931827634273654,0.0008454085028229253,-0.0003264896857081086,3.916096793111931e-05,0.00035376626896597724,-0.0003470490276656222,-0.00020171812779393617,0.0,0.0,0.0,0.0,0.0,0.0,0.0,1.0927823731021746e-05,-0.00012814245102588107,-3.544044073621952e-05,4.983963589300089e-05,2.6448567708448056e-06,-1.4241536461234716e-06,1.566138096542602e-06,0.00015931827634273654,-0.0008454085028229253,0.0003264896857081086,-3.916096793111931e-05,-0.00035376626896597724,0.0003470490276656222,0.00020171812779393617,0.3236324191093445,19.745019912719727,0.4704863727092743,-19.955781936645508,-0.6713767647743225,-2.4694857597351074,0.24112264811992645,0
30,0.145033597946167,-0.3236324191093445,-19.745019912719727,-0.4704863727092743,19.955781936645508,0.6713767647743225,2.4694857597351074,-0.24112264811992645,0.0,0.0,0.0,0.0,0.0,0.0,0.0,-0.3355531676316915,0.03702210552991267,-0.2945328353018142,0.18502093507662856,0.09681974223787086,0.0930687204095196,-0.24048729600857427,1.2134304659450263,-0.2201150891382326,-0.007476388154083002,-2.6038982218356805,-0.10888657194375992,2.4681835499339635,0.8264733421131425,1.2134413937687574,-0.2202432315892585,-0.0075118285948192216,-2.6038483821997875,-0.10888392708698907,2.4681821257803174,0.826474908251239,-0.00015931827634273654,0.0008454085028229253,-0.0003264896857081086,3.916096793111931e-05,0.00035376626896597724,-0.0003470490276656222,-0.00020171812779393617,0.0,0.0,0.0,0.0,0.0,0.0,0.0,1.0927823731021746e-05,-0.00012814245102588107,-3.544044073621952e-05,4.983963589300089e-05,2.6448567708448056e-06,-1.4241536461234716e-06,1.566138096542602e-06,0.00015931827634273654,-0.0008454085028229253,0.0003264896857081086,-3.916096793111931e-05,-0.00035376626896597724,0.0003470490276656222,0.00020171812779393617,0.3236324191093445,19.745019912719727,0.4704863727092743,-19.955781936645508,-0.6713767647743225,-2.4694857597351074,0.24112264811992645,0
31,0.15003228187561035,-0.3236324191093445,-19.717248916625977,-0.4704863727092743,19.955781936645508,0.6832786202430725,2.4630770683288574,-0.24844686686992645,0.0,0.0,0.0,0.0,0.0,0.0,0.0,-0.3346609890508697,0.041155291937027765,-0.2930241543589585,0.18173851022390264,0.09669711511145987,0.09197444530923345,-0.24092718659731416,1.2134325322393784,-0.22011973055466605,-0.007477098335277273,-2.6038981394194565,-0.10888789437214534,2.4681853216489156,0.8264753294066571,1.2134413937687574,-0.2202432315892585,-0.0075118285948192216,-2.6038483821997875,-0.10888392708698907,2.4681821257803174,0.826474908251239,0.000280123790491112,0.0005651932899602498,-0.00048789797684108875,0.00019194554687959443,-0.00010045776131219756,1.5953007646234345e-05,0.0004608756630280585,0.0,0.0,0.0,0.0,0.0,0.0,0.0,8.861529378956234e-06,-0.0001235010345924381,-3.4730259541948874e-05,4.975721966893332e-05,3.9672851562672085e-06,-3.195868598204754e-06,-4.2115541809550905e-07,-0.000280123790491112,-0.0005651932899602498,0.00048789797684108875,-0.00019194554687959443,0.00010045776131219756,-1.5953007646234345e-05,-0.0004608756630280585,0.3236324191093445,19.717248916625977,0.4704863727092743,-19.955781936645508,-0.6832786202430725,-2.4630770683288574,0.24844686686992645,0
32,0.15503430366516113,-0.3236324191093445,-19.717248916625977,-0.4704863727092743,19.955781936645508,0.6832786202430725,2.4630770683288574,-0.24844686686992645,0.0,0.0,0.0,0.0,0.0,0.0,0.0,-0.3346609890508697,0.041155291937027765,-0.2930241543589585,0.18173851022390264,0.09669711511145987,0.09197444530923345,-0.24092718659731416,1.2134325322393784,-0.22011973055466605,-0.007477098335277273,-2.6038981394194565,-0.10888789437214534,2.4681853216489156,0.8264753294066571,1.2134413937687574,-0.2202432315892585,-0.0075118285948192216,-2.6038483821997875,-0.10888392708698907,2.4681821257803174,0.826474908251239,0.000280123790491112,0.0005651932899602498,-0.00048789797684108875,0.00019194554687959443,-0.00010045776131219756,1.5953007646234345e-05,0.0004608756630280585,0.0,0.0,0.0,0.0,0.0,0.0,0.0,8.861529378956234e-06,-0.0001235010345924381,-3.4730259541948874e-05,4.975721966893332e-05,3.9672851562672085e-06,-3.195868598204754e-06,-4.2115541809550905e-07,-0.000280123790491112,-0.0005651932899602498,0.00048789797684108875,-0.00019194554687959443,0.00010045776131219756,-1.5953007646234345e-05,-0.0004608756630280585,0.3236324191093445,19.717248916625977,0.4704863727092743,-19.955781936645508,-0.6832786202430725,-2.4630770683288574,0.24844686686992645,0
33,0.16002464294433594,-0.3236324191093445,-19.768823623657227,-0.4704863727092743,19.983552932739258,0.6777854561805725,2.4630770683288574,-0.28232139348983765,0.0,0.0,0.0,0.0,0.0,0.0,0.0,-0.3332205225116709,0.03723855900743793,-0.2954331151401069,0.17813697454170738,0.09632529681706425,0.09127389294366553,-0.24089104995744814,1.2134304659566906,-0.2201134155849989,-0.007477098339286266,-2.6039001693204744,-0.10888728402058283,2.4681842620167678,0.8264779072602424,1.2134413937687574,-0.2202432315892585,-0.0075118285948192216,-2.6038483821997875,-0.10888392708698907,2.4681821257803174,0.826474908251239,-2.7464453938316982e-05,0.0011030951459105054,-0.00034242090265578884,-0.0012874424117757524,0.000244737674892344,-0.00016324428655107583,0.0013066845061323108,0.0,0.0,0.0,0.0,0.0,0.0,0.0,1.0927812066796605e-05,-0.0001298160042595975,-3.4730255532955216e-05,5.1787120686874744e-05,3.3569335937538858e-06,-2.1362364504007303e-06,-2.999009003357145e-06,2.7464453938316982e-05,-0.0011030951459105054,0.00034242090265578884,0.0012874424117757524,-0.000244737674892344,0.00016324428655107583,-0.0013066845061323108,0.3236324191093445,19.768823623657227,0.4704863727092743,-19.983552932739258,-0.6777854561805725,-2.4630770683288574,0.28232139348983765,0
34,0.16503500938415527,-0.3236324191093445,-19.768823623657227,-0.4704863727092743,19.983552932739258,0.6777854561805725,2.4630770683288574,-0.28232139348983765,0.0,0.0,0.0,0.0,0.0,0.0,0.0,-0.3332205225116709,0.03723855900743793,-0.2954331151401069,0.17813697454170738,0.09632529681706425,0.09127389294366553,-0.24089104995744814,1.2134304659566906,-0.2201134155849989,-0.007477098339286266,-2.6039001693204744,-0.10888728402058283,2.4681842620167678,0.8264779072602424,1.2134413937687574,-0.2202432315892585,-0.0075118285948192216,-2.6038483821997875,-0.10888392708698907,2.4681821257803174,0.826474908251239,-2.7464453938316982e-05,0.0011030951459105054,-0.00034242090265578884,-0.0012874424117757524,0.000244737674892344,-0.00016324428655107583,0.0013066845061323108,0.0,0.0,0.0,0.0,0.0,0.0,0.0,1.0927812066796605e-05,-0.0001298160042595975,-3.4730255532955216e-05,5.1787120686874744e-05,3.3569335937538858e-06,-2.1362364504007303e-06,-2.999009003357145e-06,2.7464453938316982e-05,-0.0011030951459105054,0.00034242090265578884,0.0012874424117757524,-0.000244737674892344,0.00016324428655107583,-0.0013066845061323108,0.3236324191093445,19.768823623657227,0.4704863727092743,-19.983552932739258,-0.6777854561805725,-2.4630770683288574,0.28232139348983765,0
35,0.17002296447753906,-0.3236324191093445,-19.745019912719727,-0.4982573688030243,19.955781936645508,0.6777854561805725,2.4566683769226074,-0.26858848333358765,0.0,0.0,0.0,0.0,0.0,0.0,0.0,-0.3279309881883442,0.03074243895862181,-0.28944512269677003,0.1809090893141126,0.09603507201244466,0.09187903239106016,-0.24175487726889702,1.2134304659450263,-0.22011507722107906,-0.007475149497455149,-2.603897479071572,-0.10888728402058283,2.4681849755411593,0.826476495774429,1.2134413937687574,-0.2202432315892585,-0.0075118285948192216,-2.6038483821997875,-0.10888392708698907,2.4681821257803174,0.826474908251239,0.00017210065990318443,0.00036184360693996767,0.0004600197927128612,0.0004861906598679786,-0.00012947423363669322,0.0004134287145444983,0.0011964756309227086,0.0,0.0,0.0,0.0,0.0,0.0,0.0,1.0927823731021746e-05,-0.00012815436817942283,-3.667909736407293e-05,4.909687178455968e-05,3.3569335937538858e-06,-2.849760841971971e-06,-1.5875231900164266e-06,-0.00017210065990318443,-0.00036184360693996767,-0.0004600197927128612,-0.0004861906598679786,0.00012947423363669322,-0.0004134287145444983,-0.0011964756309227086,0.3236324191093445,19.745019912719727,0.4982573688030243,-19.955781936645508,-0.6777854561805725,-2.4566683769226074,0.26858848333358765,0
36,0.175032377243042,-0.3236324191093445,-19.745019912719727,-0.4982573688030243,19.955781936645508,0.6777854561805725,2.4566683769226074,-0.26858848333358765,0.0,0.0,0.0,0.0,0.0,0.0,0.0,-0.3279309881883442,0.03074243895862181,-0.28944512269677003,0.1809090893141126,0.09603507201244466,0.09187903239106016,-0.24175487726889702,1.2134304659450263,-0.22011507722107906,-0.007475149497455149,-2.603897479071572,-0.10888728402058283,2.4681849755411593,0.826476495774429,1.2134413937687574,-0.2202432315892585,-0.0075118285948192216,-2.6038483821997875,-0.10888392708698907,2.4681821257803174,0.826474908251239,0.00017210065990318443,0.00036184360693996767,0.0004600197927128612,0.0004861906598679786,-0.00012947423363669322,0.0004134287145444983,0.0011964756309227086,0.0,0.0,0.0,0.0,0.0,0.0,0.0,1.0927823731021746e-05,-0.00012815436817942283,-3.667909736407293e-05,4.909687178455968e-05,3.3569335937538858e-06,-2.849760841971971e-06,-1.5875231900164266e-06,-0.00017210065990318443,-0.00036184360693996767,-0.0004600197927128612,-0.0004861906598679786,0.00012947423363669322,-0.0004134287145444983,-0.0011964756309227086,0.3236324191093445,19.745019912719727,0.4982573688030243,-19.955781936645508,-0.6777854561805725,-2.4566683769226074,0.26858848333358765,0
37,0.18002057075500488,-0.2998287081718445,-19.717248916625977,-0.4704863727092743,19.931978225708008,0.6777854561805725,2.4566683769226074,-0.22098104655742645,0.0,0.0,0.0,0.0,0.0,0.0,0.0,-0.32608892105459186,0.03591610781594704,-0.2878140916267187,0.17326967545465355,0.09493537670932921,0.09093122293829153,-0.24216871942261767,1.2134287955091712,-0.22011680238065645,-0.007477098339286289,-2.6038963010943545,-0.10888728548094659,2.4681849799018183,0.826474795198446,1.2134413937687574,-0.2202432315892585,-0.0075118285948192216,-2.6038483821997875,-0.10888392708698907,2.4681821257803174,0.826474908251239,-0.0007616225789979672,0.00034570982474942206,-0.00011960589295411246,4.847237497489179e-05,-9.056122539954126e-05,0.0003430932261418227,-0.0007849464099269658,0.0,0.0,0.0,0.0,0.0,0.0,0.0,1.2598259586216187e-05,-0.00012642920860203577,-3.4730255532932665e-05,4.7918894567011705e-05,3.3583939575143607e-06,-2.8541215009170173e-06,1.1305279301598858e-07,0.0007616225789979672,-0.00034570982474942206,0.00011960589295411246,-4.847237497489179e-05,9.056122539954126e-05,-0.0003430932261418227,0.0007849464099269658,0.2998287081718445,19.717248916625977,0.4704863727092743,-19.931978225708008,-0.6777854561805725,-2.4566683769226074,0.22098104655742645,0
38,0.18502187728881836,-0.2998287081718445,-19.717248916625977,-0.4704863727092743,19.931978225708008,0.6777854561805725,2.4566683769226074,-0.22098104655742645,0.0,0.0,0.0,0.0,0.0,0.0,0.0,-0.32608892105459186,0.03591610781594704,-0.2878140916267187,0.17326967545465355,0.09493537670932921,0.09093122293829153,-0.24216871942261767,1.2134287955091712,-0.22011680238065645,-0.007477098339286289,-2.6038963010943545,-0.10888728548094659,2.4681849799018183,0.826474795198446,1.2134413937687574,-0.2202432315892585,-0.0075118285948192216,-2.6038483821997875,-0.10888392708698907,2.4681821257803174,0.826474908251239,-0.0007616225789979672,0.00034570982474942206,-0.00011960589295411246,4.847237497489179e-05,-9.056122539954126e-05,0.0003430932261418227,-0.0007849464099269658,0.0,0.0,0.0,0.0,0.0,0.0,0.0,1.2598259586216187e-05,-0.00012642920860203577,-3.4730255532932665e-05,4.7918894567011705e-05,3.3583939575143607e-06,-2.8541215009170173e-06,1.1305279301598858e-07,0.0007616225789979672,-0.00034570982474942206,0.00011960589295411246,-4.847237497489179e-05,9.056122539954126e-05,-0.0003430932261418227,0.0007849464099269658,0.2998287081718445,19.717248916625977,0.4704863727092743,-19.931978225708008,-0.6777854561805725,-2.4566683769226074,0.22098104655742645,0
39,0.190018892288208,-0.2998287081718445,-19.693445205688477,-0.4704863727092743,19.955781936645508,0.6777854561805725,2.4630770683288574,-0.22098104655742645,0.0,0.0,0.0,0.0,0.0,0.0,0.0,-0.3282767983003923,0.033086183227888415,-0.2911368042122841,0.18103339440163796,0.09476525368652956,0.09219485054270961,-0.24203097580245017,1.2134287955091712,-0.22011854312771395,-0.007477098339286289,-2.6038982218343425,-0.10888728402059107,2.4681842620108188,0.8264754967451237,1.2134413937687574,-0.2202432315892585,-0.0075118285948192216,-2.6038483821997875,-0.10888392708698907,2.4681821257803174,0.826474908251239,-0.0005287754067114255,0.00014764818789008994,-0.0007327175332814697,0.00022491398727791822,0.00016039658461302895,5.874518165176684e-05,-0.0007991443193245258,0.0,0.0,0.0,0.0,0.0,0.0,0.0,1.2598259586216187e-05,-0.0001246884615445365,-3.4730255532932665e-05,4.98396345549601e-05,3.3569336019972917e-06,-2.136230501381675e-06,-5.884938846234533e-07,0.0005287754067114255,-0.00014764818789008994,0.0007327175332814697,-0.00022491398727791822,-0.00016039658461302895,-5.874518165176684e-05,0.0007991443193245258,0.2998287081718445,19.693445205688477,0.4704863727092743,-19.955781936645508,-0.6777854561805725,-2.4630770683288574,0.22098104655742645,0
40,0.19501733779907227,-0.2998287081718445,-19.693445205688477,-0.4704863727092743,19.955781936645508,0.6777854561805725,2.4630770683288574,-0.22098104655742645,0.0,0.0,0.0,0.0,0.0,0.0,0.0,-0.3282767983003923,0.033086183227888415,-0.2911368042122841,0.18103339440163796,0.09476525368652956,0.09219485054270961,-0.24203097580245017,1.2134287955091712,-0.22011854312771395,-0.007477098339286289,-2.6038982218343425,-0.10888728402059107,2.4681842620108188,0.8264754967451237,1.2134413937687574,-0.2202432315892585,-0.0075118285948192216,-2.6038483821997875,-0.10888392708698907,2.4681821257803174,0.826474908251239,-0.0005287754067114255,0.00014764818789008994,-0.0007327175332814697,0.00022491398727791822,0.00016039658461302895,5.874518165176684e-05,-0.0007991443193245258,0.0,0.0,0.0,0.0,0.0,0.0,0.0,1.2598259586216187e-05,-0.0001246884615445365,-3.4730255532932665e-05,4.98396345549601e-05,3.3569336019972917e-06,-2.136230501381675e-06,-5.884938846234533e-07,0.0005287754067114255,-0.00014764818789008994,0.0007327175332814697,-0.00022491398727791822,-0.00016039658461302895,-5.874518165176684e-05,0.0007991443193245258,0.2998287081718445,19.693445205688477,0.4704863727092743,-19.955781936645508,-0.6777854561805725,-2.4630770683288574,0.22098104655742645,0
41,0.20001864433288574,-0.3752071261405945,-19.717248916625977,-0.4982573688030243,19.955781936645508,0.6777854561805725,2.4630770683288574,-0.26217979192733765,0.0,0.0,0.0,0.0,0.0,0.0,0.0,-0.3321657909570103,0.04087355920474266,-0.2964658436196746,0.1761917405124064,0.09538423985247726,0.09136711825639766,-0.24159250308747326,1.2134340852227128,-0.22011689602173704,-0.007475149497455149,-2.603897480089065,-0.10888728402058283,2.4681842620107863,0.8264793550415922,1.2134413937687574,-0.2202432315892585,-0.0075118285948192216,-2.6038483821997875,-0.10888392708698907,2.4681821257803174,0.826474908251239,0.0008167754650795651,0.001063118843633114,-0.0002627325530373549,-0.0004861484358651265,0.00015837436133006756,7.260756773354138e-05,0.00038343252688207585,0.0,0.0,0.0,0.0,0.0,0.0,0.0,7.308546044582087e-06,-0.0001263355675214517,-3.667909736407293e-05,4.90978892773164e-05,3.3569335937538858e-06,-2.136230468963163e-06,-4.446790353163088e-06,-0.0008167754650795651,-0.001063118843633114,0.0002627325530373549,0.0004861484358651265,-0.00015837436133006756,-7.260756773354138e-05,-0.00038343252688207585,0.3752071261405945,19.717248916625977,0.4982573688030243,-19.955781936645508,-0.6777854561805725,-2.4630770683288574,0.26217979192733765,0
42,0.2050333023071289,-0.3752071261405945,-19.717248916625977,-0.4982573688030243,19.955781936645508,0.6777854561805725,2.4630770683288574,-0.26217979192733765,0.0,0.0,0.0,0.0,0.0,0.0,0.0,-0.3321657909570103,0.04087355920474266,-0.2964658436196746,0.1761917405124064,0.09538423985247726,0.09136711825639766,-0.24159250308747326,1.2134340852227128,-0.22011689602173704,-0.007475149497455149,-2.603897480089065,-0.10888728402058283,2.4681842620107863,0.8264793550415922,1.2134413937687574,-0.2202432315892585,-0.0075118285948192216,-2.6038483821997875,-0.10888392708698907,2.4681821257803174,0.826474908251239,0.0008167754650795651,0.001063118843633114,-0.0002627325530373549,-0.0004861484358651265,0.00015837436133006756,7.260756773354138e-05,0.00038343252688207585,0.0,0.0,0.0,0.0,0.0,0.0,0.0,7.308546044582087e-06,-0.0001263355675214517,-3.667909736407293e-05,4.90978892773164e-05,3.3569335937538858e-06,-2.136230468963163e-06,-4.446790353163088e-06,-0.0008167754650795651,-0.001063118843633114,0.0002627325530373549,0.0004861484358651265,-0.00015837436133006756,-7.260756773354138e-05,-0.00038343252688207585,0.3752071261405945,19.717248916625977,0.4982573688030243,-19.955781936645508,-0.6777854561805725,-2.4630770683288574,0.26217979192733765,0
43,0.2100214958190918,-0.3514034152030945,-19.717248916625977,-0.4982573688030243,19.955781936645508,0.6777854561805725,2.4694857597351074,-0.26217979192733765,0.0,0.0,0.0,0.0,0.0,0.0,0.0,-0.3305448696817127,0.035974791604340174,-0.29491995392858883,0.17984040329709652,0.09559003296724569,0.09274699488900785,-0.2425023421925131,1.2134324147868574,-0.22011891661417862,-0.007475149389211709,-2.60389821127987,-0.10888729716385669,2.4681835499339635,0.8264802955383758,1.2134413937687574,-0.2202432315892585,-0.0075118285948192216,-2.6038483821997875,-0.10888392708698907,2.4681821257803174,0.826474908251239,-1.8808501808585367e-05,0.00045176943929140976,1.3785029452675065e-05,-0.00032471061267140723,0.00019627335459200684,-0.00014991118557540042,0.0006138676472519552,0.0,0.0,0.0,0.0,0.0,0.0,0.0,8.978981899998573e-06,-0.00012431497507986444,-3.667920560751232e-05,4.9829080082552935e-05,3.3700768676120374e-06,-1.4241536461234716e-06,-5.387287136726648e-06,1.8808501808585367e-05,-0.00045176943929140976,-1.3785029452675065e-05,0.00032471061267140723,-0.00019627335459200684,0.00014991118557540042,-0.0006138676472519552,0.3514034152030945,19.717248916625977,0.4982573688030243,-19.955781936645508,-0.6777854561805725,-2.4694857597351074,0.26217979192733765,0
44,0.2150256633758545,-0.3514034152030945,-19.717248916625977,-0.4982573688030243,19.955781936645508,0.6777854561805725,2.4694857597351074,-0.26217979192733765,0.0,0.0,0.0,0.0,0.0,0.0,0.0,-0.3305448696817127,0.035974791604340174,-0.29491995392858883,0.17984040329709652,0.09559003296724569,0.09274699488900785,-0.2425023421925131,1.2134324147868574,-0.22011891661417862,-0.007475149389211709,-2.60389821127987,-0.10888729716385669,2.4681835499339635,0.8264802955383758,1.2134413937687574,-0.2202432315892585,-0.0075118285948192216,-2.6038483821997875,-0.10888392708698907,2.4681821257803174,0.826474908251239,-1.8808501808585367e-05,0.00045176943929140976,1.3785029452675065e-05,-0.00032471061267140723,0.00019627335459200684,-0.00014991118557540042,0.0006138676472519552,0.0,0.0,0.0,0.0,0.0,0.0,0.0,8.978981899998573e-06,-0.00012431497507986444,-3.667920560751232e-05,4.9829080082552935e-05,3.3700768676120374e-06,-1.4241536461234716e-06,-5.387287136726648e-06,1.8808501808585367e-05,-0.00045176943929140976,-1.3785029452675065e-05,0.00032471061267140723,-0.00019627335459200684,0.00014991118557540042,-0.0006138676472519552,0.3514034152030945,19.717248916625977,0.4982573688030243,-19.955781936645508,-0.6777854561805725,-2.4694857597351074,0.26217979192733765,0
45,0.22002243995666504,-0.3514034152030945,-19.717248916625977,-0.4704863727092743,20.007356643676758,0.6951804757118225,2.4694857597351074,-0.22830526530742645,0.0,0.0,0.0,0.0,0.0,0.0,0.0,-0.3346746412484468,0.03840442867867759,-0.2951143713224181,0.17842021575134914,0.09529770984619884,0.09294833647263508,-0.24342345736374224,1.2134324147868574,-0.22011749853153434,-0.007477098339285678,-2.603901099366692,-0.10888921680060494,2.4681846095720927,0.8264754899425489,1.2134413937687574,-0.2202432315892585,-0.0075118285948192216,-2.6038483821997875,-0.10888392708698907,2.4681821257803174,0.826474908251239,5.412061135035462e-06,0.0003315362754269075,-0.000561254470721296,-0.0009969391376328507,-0.0005942679007950422,-5.872033523880168e-05,-0.0003365514968108966,0.0,0.0,0.0,0.0,0.0,0.0,0.0,8.978981899998573e-06,-0.00012573305772414778,-3.473025553354329e-05,5.27171669042481e-05,5.289713615866387e-06,-2.483791775365063e-06,-5.816913098977139e-07,-5.412061135035462e-06,-0.0003315362754269075,0.000561254470721296,0.0009969391376328507,0.0005942679007950422,5.872033523880168e-05,0.0003365514968108966,0.3514034152030945,19.717248916625977,0.4704863727092743,-20.007356643676758,-0.6951804757118225,-2.4694857597351074,0.22830526530742645,0
46,0.22503399848937988,-0.3514034152030945,-19.717248916625977,-0.4704863727092743,20.007356643676758,0.6951804757118225,2.4694857597351074,-0.22830526530742645,0.0,0.0,0.0,0.0,0.0,0.0,0.0,-0.3346746412484468,0.03840442867867759,-0.2951143713224181,0.17842021575134914,0.09529770984619884,0.09294833647263508,-0.24342345736374224,1.2134324147868574,-0.22011749853153434,-0.007477098339285678,-2.603901099366692,-0.10888921680060494,2.4681846095720927,0.8264754899425489,1.2134413937687574,-0.2202432315892585,-0.0075118285948192216,-2.6038483821997875,-0.10888392708698907,2.4681821257803174,0.826474908251239,5.412061135035462e-06,0.0003315362754269075,-0.000561254470721296,-0.0009969391376328507,-0.0005942679007950422,-5.872033523880168e-05,-0.0003365514968108966,0.0,0.0,0.0,0.0,0.0,0.0,0.0,8.978981899998573e-06,-0.00012573305772414778,-3.473025553354329e-05,5.27171669042481e-05,5.289713615866387e-06,-2.483791775365063e-06,-5.816913098977139e-07,-5.412061135035462e-06,-0.0003315362754269075,0.000561254470721296,0.0009969391376328507,0.0005942679007950422,5.872033523880168e-05,0.0003365514968108966,0.3514034152030945,19.717248916625977,0.4704863727092743,-20.007356643676758,-0.6951804757118225,-2.4694857597351074,0.22830526530742645,0
47,0.23002290725708008,-0.2998287081718445,-19.717248916625977,-0.4704863727092743,19.955781936645508,0.6713767647743225,2.4694857597351074,-0.22830526530742645,0.0,0.0,0.0,0.0,0.0,0.0,0.0,-0.3364331234539032,0.03817694754931775,-0.29367165203351653,0.1767133225476997,0.0953264490727034,0.09317430694493953,-0.24256391674167002,1.2134308618035232,-0.22011690383776603,-0.007477098339286289,-2.6038982218315683,-0.10888657194375992,2.4681867289081683,0.8264734703093541,1.2134413937687574,-0.2202432315892585,-0.0075118285948192216,-2.6038483821997875,-0.10888392708698907,2.4681821257803174,0.826474908251239,-0.0009145436602957275,0.00029118290521153926,-0.000462788366086955,-8.432574623592496e-05,0.0005822285203437733,-0.0002616460480235359,-0.0005733882009632735,0.0,0.0,0.0,0.0,0.0,0.0,0.0,1.0531965234150675e-05,-0.000126327751492461,-3.4730255532932665e-05,4.9839631780734805e-05,2.6448567708448056e-06,-4.6031278508884554e-06,1.437941884896432e-06,0.0009145436602957275,-0.00029118290521153926,0.000462788366086955,8.432574623592496e-05,-0.0005822285203437733,0.0002616460480235359,0.0005733882009632735,0.2998287081718445,19.717248916625977,0.4704863727092743,-19.955781936645508,-0.6713767647743225,-2.4694857597351074,0.22830526530742645,0
48,0.23503398895263672,-0.2998287081718445,-19.717248916625977,-0.4704863727092743,19.955781936645508,0.6713767647743225,2.4694857597351074,-0.22830526530742645,0.0,0.0,0.0,0.0,0.0,0.0,0.0,-0.3364331234539032,0.03817694754931775,-0.29367165203351653,0.1767133225476997,0.0953264490727034,0.09317430694493953,-0.24256391674167002,1.2134308618035232,-0.22011690383776603,-0.007477098339286289,-2.6038982218315683,-0.10888657194375992,2.4681867289081683,0.8264734703093541,1.2134413937687574,-0.2202432315892585,-0.0075118285948192216,-2.6038483821997875,-0.10888392708698907,2.4681821257803174,0.826474908251239,-0.0009145436602957275,0.00029118290521153926,-0.000462788366086955,-8.432574623592496e-05,0.0005822285203437733,-0.0002616460480235359,-0.0005733882009632735,0.0,0.0,0.0,0.0,0.0,0.0,0.0,1.0531965234150675e-05,-0.000126327751492461,-3.4730255532932665e-05,4.9839631780734805e-05,2.6448567708448056e-06,-4.6031278508884554e-06,1.437941884896432e-06,0.0009145436602957275,-0.00029118290521153926,0.000462788366086955,8.432574623592496e-05,-0.0005822285203437733,0.0002616460480235359,0.0005733882009632735,0.2998287081718445,19.717248916625977,0.4704863727092743,-19.955781936645508,-0.6713767647743225,-2.4694857597351074,0.22830526530742645,0
49,0.24001789093017578,-0.3514034152030945,-19.693445205688477,-0.4982573688030243,19.983552932739258,0.6713767647743225,2.4758944511413574,-0.20724813640117645,0.0,0.0,0.0,0.0,0.0,0.0,0.0,-0.33930659316196354,0.035715197273314424,-0.29552331398045956,0.1802652884854583,0.09608640120450694,0.09323207514399984,-0.24232746109225906,1.2134324147985216,-0.22011943141269374,-0.007475149497455149,-2.6038979450983533,-0.10888658524929641,2.4681860211501245,0.8264727440577369,1.2134413937687574,-0.2202432315892585,-0.0075118285948192216,-2.6038483821997875,-0.10888392708698907,2.4681821257803174,0.826474908251239,0.000504295769710681,-0.0005125334319154481,0.0003267449935567929,-0.0003107171969608495,0.00029643628111044717,-0.00039989335359750725,-0.0014695310482044555,0.0,0.0,0.0,0.0,0.0,0.0,0.0,8.978970235773431e-06,-0.0001238001765647423,-3.667909736407293e-05,4.956289856572482e-05,2.658162307336842e-06,-3.8953698071608756e-06,2.164193502185441e-06,-0.000504295769710681,0.0005125334319154481,-0.0003267449935567929,0.0003107171969608495,-0.00029643628111044717,0.00039989335359750725,0.0014695310482044555,0.3514034152030945,19.693445205688477,0.4982573688030243,-19.983552932739258,-0.6713767647743225,-2.4758944511413574,0.20724813640117645,0
50,0.24503278732299805,-0.3514034152030945,-19.693445205688477,-0.4982573688030243,19.983552932739258,0.6713767647743225,2.4758944511413574,-0.20724813640117645,0.0,0.0,0.0,0.0,0.0,0.0,0.0,-0.33930659316196354,0.035715197273314424,-0.29552331398045956,0.1802652884854583,0.09608640120450694,0.09323207514399984,-0.24232746109225906,1.2134324147985216,-0.22011943141269374,-0.007475149497455149,-2.6038979450983533,-0.10888658524929641,2.4681860211501245,0.8264727440577369,1.2134413937687574,-0.2202432315892585,-0.0075118285948192216,-2.6038483821997875,-0.10888392708698907,2.4681821257803174,0.826474908251239,0.000504295769710681,-0.0005125334319154481,0.0003267449935567929,-0.0003107171969608495,0.00029643628111044717,-0.00039989335359750725,-0.0014695310482044555,0.0,0.0,0.0,0.0,0.0,0.0,0.0,8.978970235773431e-06,-0.0001238001765647423,-3.667909736407293e-05,4.956289856572482e-05,2.658162307336842e-06,-3.8953698071608756e-06,2.164193502185441e-06,-0.000504295769710681,0.0005125334319154481,-0.0003267449935567929,0.0003107171969608495,-0.00029643628111044717,0.00039989335359750725,0.0014695310482044555,0.3514034152030945,19.693445205688477,0.4982573688030243,-19.983552932739258,-0.6713767647743225,-2.4758944511413574,0.20724813640117645,0
51,0.25002241134643555,-0.4029781222343445,-19.717248916625977,-0.4704863727092743,19.931978225708008,0.6777854561805725,2.4630770683288574,-0.27591270208358765,0.0,0.0,0.0,0.0,0.0,0.0,0.0,-0.3345008697837081,0.03889617727007226,-0.2895975776238489,0.1797855612622884,0.09514752616764885,0.09256762300091081,-0.24239654932473023,1.2134360340645438,-0.22011899546406805,-0.007477098339286289,-2.6038965503698512,-0.10888728402065793,2.468184262028756,0.8264773660675727,1.2134413937687574,-0.2202432315892585,-0.0075118285948192216,-2.6038483821997875,-0.10888392708698907,2.4681821257803174,0.826474908251239,0.0022659214837958638,0.00048419056232730474,-0.00031984054359344435,0.0009099830454484724,-5.726109343178718e-05,-6.997594258106139e-05,0.0012387889178305418,0.0,0.0,0.0,0.0,0.0,0.0,0.0,5.3597042135589135e-06,-0.00012423612519044114,-3.4730255532932665e-05,4.8168170063700444e-05,3.3569336688604734e-06,-2.13624843858895e-06,-2.4578163336785863e-06,-0.0022659214837958638,-0.00048419056232730474,0.00031984054359344435,-0.0009099830454484724,5.726109343178718e-05,6.997594258106139e-05,-0.0012387889178305418,0.4029781222343445,19.717248916625977,0.4704863727092743,-19.931978225708008,-0.6777854561805725,-2.4630770683288574,0.27591270208358765,0
52,0.2550325393676758,-0.4029781222343445,-19.717248916625977,-0.4704863727092743,19.931978225708008,0.6777854561805725,2.4630770683288574,-0.27591270208358765,0.0,0.0,0.0,0.0,0.0,0.0,0.0,-0.3345008697837081,0.03889617727007226,-0.2895975776238489,0.1797855612622884,0.09514752616764885,0.09256762300091081,-0.24239654932473023,1.2134360340645438,-0.22011899546406805,-0.007477098339286289,-2.6038965503698512,-0.10888728402065793,2.468184262028756,0.8264773660675727,1.2134413937687574,-0.2202432315892585,-0.0075118285948192216,-2.6038483821997875,-0.10888392708698907,2.4681821257803174,0.826474908251239,0.0022659214837958638,0.00048419056232730474,-0.00031984054359344435,0.0009099830454484724,-5.726109343178718e-05,-6.997594258106139e-05,0.0012387889178305418,0.0,0.0,0.0,0.0,0.0,0.0,0.0,5.3597042135589135e-06,-0.00012423612519044114,-3.4730255532932665e-05,4.8168170063700444e-05,3.3569336688604734e-06,-2.13624843858895e-06,-2.4578163336785863e-06,-0.0022659214837958638,-0.00048419056232730474,0.00031984054359344435,-0.0009099830454484724,5.726109343178718e-05,6.997594258106139e-05,-0.0012387889178305418,0.4029781222343445,19.717248916625977,0.4704863727092743,-19.931978225708008,-0.6777854561805725,-2.4630770683288574,0.27591270208358765,0
53,0.2599940299987793,-0.4029781222343445,-19.717248916625977,-0.4704863727092743,19.931978225708008,0.6777854561805725,2.4630770683288574,-0.27591270208358765,0.0,0.0,0.0,0.0,0.0,0.0,0.0,-0.3345008697837081,0.03889617727007226,-0.2895975776238489,0.1797855612622884,0.09514752616764885,0.09256762300091081,-0.24239654932473023,1.2134360340645438,-0.22011899546406805,-0.007477098339286289,-2.6038965503698512,-0.10888728402065793,2.468184262028756,0.8264773660675727,1.2134413937687574,-0.2202432315892585,-0.0075118285948192216,-2.6038483821997875,-0.10888392708698907,2.4681821257803174,0.826474908251239,0.0022659214837958638,0.00048419056232730474,-0.00031984054359344435,0.0009099830454484724,-5.726109343178718e-05,-6.997594258106139e-05,0.0012387889178305418,0.0,0.0,0.0,0.0,0.0,0.0,0.0,5.3597042135589135e-06,-0.00012423612519044114,-3.4730255532932665e-05,4.8168170063700444e-05,3.3569336688604734e-06,-2.13624843858895e-06,-2.4578163336785863e-06,-0.0022659214837958638,-0.00048419056232730474,0.00031984054359344435,-0.0009099830454484724,5.726109343178718e-05,6.997594258106139e-05,-0.0012387889178305418,0.4029781222343445,19.717248916625977,0.4704863727092743,-19.931978225708008,-0.6777854561805725,-2.4630770683288574,0.27591270208358765,0
54,0.265033483505249,-0.4029781222343445,-19.717248916625977,-0.4704863727092743,19.931978225708008,0.6777854561805725,2.4630770683288574,-0.27591270208358765,0.0,0.0,0.0,0.0,0.0,0.0,0.0,-0.3345008697837081,0.03889617727007226,-0.2895975776238489,0.1797855612622884,0.09514752616764885,0.09256762300091081,-0.24239654932473023,1.2134360340645438,-0.22011899546406805,-0.007477098339286289,-2.6038965503698512,-0.10888728402065793,2.468184262028756,0.8264773660675727,1.2134413937687574,-0.2202432315892585,-0.0075118285948192216,-2.6038483821997875,-0.10888392708698907,2.4681821257803174,0.826474908251239,0.0022659214837958638,0.00048419056232730474,-0.00031984054359344435,0.0009099830454484724,-5.726109343178718e-05,-6.997594258106139e-05,0.0012387889178305418,0.0,0.0,0.0,0.0,0.0,0.0,0.0,5.3597042135589135e-06,-0.00012423612519044114,-3.4730255532932665e-05,4.8168170063700444e-05,3.3569336688604734e-06,-2.13624843858895e-06,-2.4578163336785863e-06,-0.0022659214837958638,-0.00048419056232730474,0.00031984054359344435,-0.0009099830454484724,5.726109343178718e-05,6.997594258106139e-05,-0.0012387889178305418,0.4029781222343445,19.717248916625977,0.4704863727092743,-19.931978225708008,-0.6777854561805725,-2.4630770683288574,0.27591270208358765,0
55,0.2700166702270508,-0.4029781222343445,-19.717248916625977,-0.4704863727092743,19.931978225708008,0.6777854561805725,2.4630770683288574,-0.27591270208358765,0.0,0.0,0.0,0.0,0.0,0.0,0.0,-0.3345008697837081,0.03889617727007226,-0.2895975776238489,0.1797855612622884,0.09514752616764885,0.09256762300091081,-0.24239654932473023,1.2134360340645438,-0.22011899546406805,-0.007477098339286289,-2.6038965503698512,-0.10888728402065793,2.468184262028756,0.8264773660675727,1.2134413937687574,-0.2202432315892585,-0.0075118285948192216,-2.6038483821997875,-0.10888392708698907,2.4681821257803174,0.826474908251239,0.0022659214837958638,0.00048419056232730474,-0.00031984054359344435,0.0009099830454484724,-5.726109343178718e-05,-6.997594258106139e-05,0.0012387889178305418,0.0,0.0,0.0,0.0,0.0,0.0,0.0,5.3597042135589135e-06,-0.00012423612519044114,-3.4730255532932665e-05,4.8168170063700444e-05,3.3569336688604734e-06,-2.13624843858895e-06,-2.4578163336785863e-06,-0.0022659214837958638,-0.00048419056232730474,0.00031984054359344435,-0.0009099830454484724,5.726109343178718e-05,6.997594258106139e-05,-0.0012387889178305418,0.4029781222343445,19.717248916625977,0.4704863727092743,-19.931978225708008,-0.6777854561805725,-2.4630770683288574,0.27591270208358765,0
56,0.27503299713134766,-0.3236324191093445,-19.693445205688477,-0.4704863727092743,19.955781936645508,0.6832786202430725,2.4758944511413574,-0.22098104655742645,0.0,0.0,0.0,0.0,0.0,0.0,0.0,-0.33852813733219156,0.03740456228906375,-0.29519384404036436,0.18035331216286138,0.09478589572599706,0.09244595438145638,-0.24304451276844388,1.2134304659450263,-0.2201209274274989,-0.007477098303205142,-2.603895996218832,-0.10888789437214534,2.4681828378571407,0.8264714834729526,1.2134413937687574,-0.2202432315892585,-0.0075118285948192216,-2.6038483821997875,-0.10888392708698907,2.4681821257803174,0.826474908251239,-0.0002628635558060518,-6.171117130531194e-05,-0.0006784230416981472,-5.495944176790914e-06,-0.00011609269260413179,-0.0004625260346908793,-0.0010030690302511318,0.0,0.0,0.0,0.0,0.0,0.0,0.0,1.0927823731021746e-05,-0.00012230416175959546,-3.4730291614079416e-05,4.761401904440632e-05,3.9672851562672085e-06,-7.120768232837804e-07,3.4247782864094134e-06,0.0002628635558060518,6.171117130531194e-05,0.0006784230416981472,5.495944176790914e-06,0.00011609269260413179,0.0004625260346908793,0.0010030690302511318,0.3236324191093445,19.693445205688477,0.4704863727092743,-19.955781936645508,-0.6832786202430725,-2.4758944511413574,0.22098104655742645,0
57,0.2800111770629883,-0.3236324191093445,-19.693445205688477,-0.4704863727092743,19.955781936645508,0.6832786202430725,2.4758944511413574,-0.22098104655742645,0.0,0.0,0.0,0.0,0.0,0.0,0.0,-0.33852813733219156,0.03740456228906375,-0.29519384404036436,0.18035331216286138,0.09478589572599706,0.09244595438145638,-0.24304451276844388,1.2134304659450263,-0.2201209274274989,-0.007477098303205142,-2.603895996218832,-0.10888789437214534,2.4681828378571407,0.8264714834729526,1.2134413937687574,-0.2202432315892585,-0.0075118285948192216,-2.6038483821997875,-0.10888392708698907,2.4681821257803174,0.826474908251239,-0.0002628635558060518,-6.171117130531194e-05,-0.0006784230416981472,-5.495944176790914e-06,-0.00011609269260413179,-0.0004625260346908793,-0.0010030690302511318,0.0,0.0,0.0,0.0,0.0,0.0,0.0,1.0927823731021746e-05,-0.00012230416175959546,-3.4730291614079416e-05,4.761401904440632e-05,3.9672851562672085e-06,-7.120768232837804e-07,3.4247782864094134e-06,0.0002628635558060518,6.171117130531194e-05,0.0006784230416981472,5.495944176790914e-06,0.00011609269260413179,0.0004625260346908793,0.0010030690302511318,0.3236324191093445,19.693445205688477,0.4704863727092743,-19.955781936645508,-0.6832786202430725,-2.4758944511413574,0.22098104655742645,0
58,0.285017728805542,-0.3752071261405945,-19.669641494750977,-0.5220611095428467,19.983552932739258,0.6896873116493225,2.4694857597351074,-0.27591270208358765,0.0,0.0,0.0,0.0,0.0,0.0,0.0,-0.33249965055170055,0.04161669002123819,-0.28923511803304924,0.1765205026393692,0.09450987491035005,0.0919699144102906,-0.24338182279603973,1.2134340852227128,-0.2201201316002199,-0.0074734780853173395,-2.603900170665023,-0.10889180026451746,2.4681836676715334,0.8264782648304118,1.2134413937687574,-0.2202432315892585,-0.0075118285948192216,-2.6038483821997875,-0.10888392708698907,2.4681821257803174,0.826474908251239,0.001149776168340571,-0.00029650299687111834,0.000824230474167981,-0.0008603360711006089,-0.0005155311349741501,-0.00018130595432415736,0.0013771888573946847,0.0,0.0,0.0,0.0,0.0,0.0,0.0,7.308546044582087e-06,-0.00012309998903858865,-3.835050950188202e-05,5.17884652353473e-05,7.873177528386344e-06,-1.541891216039204e-06,-3.356579172719698e-06,-0.001149776168340571,0.00029650299687111834,-0.000824230474167981,0.0008603360711006089,0.0005155311349741501,0.00018130595432415736,-0.0013771888573946847,0.3752071261405945,19.669641494750977,0.5220611095428467,-19.983552932739258,-0.6896873116493225,-2.4694857597351074,0.27591270208358765,0
59,0.29001355171203613,-0.3752071261405945,-19.669641494750977,-0.5220611095428467,19.983552932739258,0.6896873116493225,2.4694857597351074,-0.27591270208358765,0.0,0.0,0.0,0.0,0.0,0.0,0.0,-0.33249965055170055,0.04161669002123819,-0.28923511803304924,0.1765205026393692,0.09450987491035005,0.0919699144102906,-0.24338182279603973,1.2134340852227128,-0.2201201316002199,-0.0074734780853173395,-2.603900170665023,-0.10889180026451746,2.4681836676715334,0.8264782648304118,1.2134413937687574,-0.2202432315892585,-0.0075118285948192216,-2.6038483821997875,-0.10888392708698907,2.4681821257803174,0.826474908251239,0.001149776168340571,-0.00029650299687111834,0.000824230474167981,-0.0008603360711006089,-0.0005155311349741501,-0.00018130595432415736,0.0013771888573946847,0.0,0.0,0.0,0.0,0.0,0.0,0.0,7.308546044582087e-06,-0.00012309998903858865,-3.835050950188202e-05,5.17884652353473e-05,7.873177528386344e-06,-1.541891216039204e-06,-3.356579172719698e-06,-0.001149776168340571,0.00029650299687111834,-0.000824230474167981,0.0008603360711006089,0.0005155311349741501,0.00018130595432415736,-0.0013771888573946847,0.3752071261405945,19.669641494750977,0.5220611095428467,-19.983552932739258,-0.6896873116493225,-2.4694857597351074,0.27591270208358765,0
60,0.29503583908081055,-0.3236324191093445,-19.693445205688477,-0.5458648204803467,19.931978225708008,0.6777854561805725,2.4566683769226074,-0.26858848333358765,0.0,0.0,0.0,0.0,0.0,0.0,0.0,-0.337638546457368,0.040518525502821444,-0.2943336621976655,0.1793970304944855,0.09495764196978529,0.09245555983355803,-0.24300711749086484,1.2134304659450263,-0.22012058715744637,-0.007471571895246636,-2.6038942437435293,-0.10888834864379507,2.4681853273009833,0.8264774772498944,1.2134413937687574,-0.2202432315892585,-0.0075118285948192216,-2.6038483821997875,-0.10888392708698907,2.4681821257803174,0.826474908251239,-0.0003253453394155646,3.908397871839089e-06,0.001041096323478833,0.0006193419506250334,3.09981540527901e-05,0.00017709730545301802,0.0012639115014783336,0.0,0.0,0.0,0.0,0.0,0.0,0.0,1.0927823731021746e-05,-0.00012264443181211893,-4.0256699572585423e-05,4.586154374175422e-05,4.421556805994653e-06,-3.201520665907509e-06,-2.5689986553611988e-06,0.0003253453394155646,-3.908397871839089e-06,-0.001041096323478833,-0.0006193419506250334,-3.09981540527901e-05,-0.00017709730545301802,-0.0012639115014783336,0.3236324191093445,19.693445205688477,0.5458648204803467,-19.931978225708008,-0.6777854561805725,-2.4566683769226074,0.26858848333358765,0
61,0.30002450942993164,-0.3236324191093445,-19.693445205688477,-0.5458648204803467,19.931978225708008,0.6777854561805725,2.4566683769226074,-0.26858848333358765,0.0,0.0,0.0,0.0,0.0,0.0,0.0,-0.337638546457368,0.040518525502821444,-0.2943336621976655,0.1793970304944855,0.09495764196978529,0.09245555983355803,-0.24300711749086484,1.2134304659450263,-0.22012058715744637,-0.007471571895246636,-2.6038942437435293,-0.10888834864379507,2.4681853273009833,0.8264774772498944,1.2134413937687574,-0.2202432315892585,-0.0075118285948192216,-2.6038483821997875,-0.10888392708698907,2.4681821257803174,0.826474908251239,-0.0003253453394155646,3.908397871839089e-06,0.001041096323478833,0.0006193419506250334,3.09981540527901e-05,0.00017709730545301802,0.0012639115014783336,0.0,0.0,0.0,0.0,0.0,0.0,0.0,1.0927823731021746e-05,-0.00012264443181211893,-4.0256699572585423e-05,4.586154374175422e-05,4.421556805994653e-06,-3.201520665907509e-06,-2.5689986553611988e-06,0.0003253453394155646,-3.908397871839089e-06,-0.001041096323478833,-0.0006193419506250334,-3.09981540527901e-05,-0.00017709730545301802,-0.0012639115014783336,0.3236324191093445,19.693445205688477,0.5458648204803467,-19.931978225708008,-0.6777854561805725,-2.4566683769226074,0.26858848333358765,0
62,0.305039644241333,-0.3236324191093445,-19.717248916625977,-0.4704863727092743,19.908174514770508,0.6896873116493225,2.4630770683288574,-0.25485557317733765,0.0,0.0,0.0,0.0,0.0,0.0,0.0,-0.3351198555012039,0.040154693323468334,-0.2915664593544245,0.180701981240663,0.09498595671676872,0.09263860988059817,-0.24210951546528026,1.2134304659800192,-0.22011752866544848,-0.00747709833794995,-2.6038923250282653,-0.10888860645497807,2.4681843012586366,0.826474969901709,1.2134413937687574,-0.2202432315892585,-0.0075118285948192216,-2.6038483821997875,-0.10888392708698907,2.4681821257803174,0.826474908251239,-0.0003109701941536774,0.0002109300855557632,-0.00039059310980199796,0.0011943826189553164,-0.00029461657479693123,9.240211861950028e-05,0.0005575709598945102,0.0,0.0,0.0,0.0,0.0,0.0,0.0,1.0927788738124278e-05,-0.00012570292381000603,-3.473025686927169e-05,4.3942828477749885e-05,4.679367988993932e-06,-2.175478319266233e-06,-6.165046995132428e-08,0.0003109701941536774,-0.0002109300855557632,0.00039059310980199796,-0.0011943826189553164,0.00029461657479693123,-9.240211861950028e-05,-0.0005575709598945102,0.3236324191093445,19.717248916625977,0.4704863727092743,-19.908174514770508,-0.6896873116493225,-2.4630770683288574,0.25485557317733765,0
63,0.3100254535675049,-0.3236324191093445,-19.717248916625977,-0.4704863727092743,19.908174514770508,0.6896873116493225,2.4630770683288574,-0.25485557317733765,0.0,0.0,0.0,0.0,0.0,0.0,0.0,-0.3351198555012039,0.040154693323468334,-0.2915664593544245,0.180701981240663,0.09498595671676872,0.09263860988059817,-0.24210951546528026,1.2134304659800192,-0.22011752866544848,-0.00747709833794995,-2.6038923250282653,-0.10888860645497807,2.4681843012586366,0.826474969901709,1.2134413937687574,-0.2202432315892585,-0.0075118285948192216,-2.6038483821997875,-0.10888392708698907,2.4681821257803174,0.826474908251239,-0.0003109701941536774,0.0002109300855557632,-0.00039059310980199796,0.0011943826189553164,-0.00029461657479693123,9.240211861950028e-05,0.0005575709598945102,0.0,0.0,0.0,0.0,0.0,0.0,0.0,1.0927788738124278e-05,-0.00012570292381000603,-3.473025686927169e-05,4.3942828477749885e-05,4.679367988993932e-06,-2.175478319266233e-06,-6.165046995132428e-08,0.0003109701941536774,-0.0002109300855557632,0.00039059310980199796,-0.0011943826189553164,0.00029461657479693123,-9.240211861950028e-05,-0.0005575709598945102,0.3236324191093445,19.717248916625977,0.4704863727092743,-19.908174514770508,-0.6896873116493225,-2.4630770683288574,0.25485557317733765,0
64,0.3150339126586914,-0.3514034152030945,-19.717248916625977,-0.4982573688030243,19.955781936645508,0.6832786202430725,2.4630770683288574,-0.21457235515117645,0.0,0.0,0.0,0.0,0.0,0.0,0.0,-0.33497252795341154,0.04504355535433055,-0.29161009242547964,0.1785743108621427,0.09535955387428563,0.0923781060534729,-0.24133454563662873,1.2134324232901266,-0.22011679071875292,-0.007475149497455141,-2.6038982123247987,-0.10888789437214537,2.468187445447552,0.8264740811297209,1.2134413937687574,-0.2202432315892585,-0.0075118285948192216,-2.6038483821997875,-0.10888392708698907,2.4681821257803174,0.826474908251239,0.00024690376657487316,0.00040099254671979105,0.0003553924025354857,0.00020254762691233956,8.26102261844051e-05,5.9108057487657535e-05,-0.0009323527190595204,0.0,0.0,0.0,0.0,0.0,0.0,0.0,8.970478630798695e-06,-0.00012644087050556196,-3.667909736408074e-05,4.9830125011141035e-05,3.967285156294964e-06,-5.319667234715553e-06,8.271215181654412e-07,-0.00024690376657487316,-0.00040099254671979105,-0.0003553924025354857,-0.00020254762691233956,-8.26102261844051e-05,-5.9108057487657535e-05,0.0009323527190595204,0.3514034152030945,19.717248916625977,0.4982573688030243,-19.955781936645508,-0.6832786202430725,-2.4630770683288574,0.21457235515117645,0
65,0.3200249671936035,-0.3514034152030945,-19.717248916625977,-0.4982573688030243,19.955781936645508,0.6832786202430725,2.4630770683288574,-0.21457235515117645,0.0,0.0,0.0,0.0,0.0,0.0,0.0,-0.33497252795341154,0.04504355535433055,-0.29161009242547964,0.1785743108621427,0.09535955387428563,0.0923781060534729,-0.24133454563662873,1.2134324232901266,-0.22011679071875292,-0.007475149497455141,-2.6038982123247987,-0.10888789437214537,2.468187445447552,0.8264740811297209,1.2134413937687574,-0.2202432315892585,-0.0075118285948192216,-2.6038483821997875,-0.10888392708698907,2.4681821257803174,0.826474908251239,0.00024690376657487316,0.00040099254671979105,0.0003553924025354857,0.00020254762691233956,8.26102261844051e-05,5.9108057487657535e-05,-0.0009323527190595204,0.0,0.0,0.0,0.0,0.0,0.0,0.0,8.970478630798695e-06,-0.00012644087050556196,-3.667909736408074e-05,4.9830125011141035e-05,3.967285156294964e-06,-5.319667234715553e-06,8.271215181654412e-07,-0.00024690376657487316,-0.00040099254671979105,-0.0003553924025354857,-0.00020254762691233956,-8.26102261844051e-05,-5.9108057487657535e-05,0.0009323527190595204,0.3514034152030945,19.717248916625977,0.4982573688030243,-19.955781936645508,-0.6832786202430725,-2.4630770683288574,0.21457235515117645,0
66,0.32503437995910645,-0.3752071261405945,-19.717248916625977,-0.4704863727092743,19.931978225708008,0.6777854561805725,2.4758944511413574,-0.24844686686992645,0.0,0.0,0.0,0.0,0.0,0.0,0.0,-0.3423570425596468,0.039707904210238634,-0.29868863502737153,0.18169062268436492,0.0957993798496026,0.09224576112349643,-0.24044940576110094,1.2134347739875448,-0.220116798491081,-0.007476861610885194,-2.6038964689835473,-0.10888728402058283,2.468183936759097,0.8264742973529721,1.2134413937687574,-0.2202432315892585,-0.0075118285948192216,-2.6038483821997875,-0.10888392708698907,2.4681821257803174,0.826474908251239,0.00038117553353460683,0.00015902769447919416,-0.0008902807606781195,0.0008330993559390128,0.00013251965970232724,-0.0005770271451836532,0.0006481201301386101,0.0,0.0,0.0,0.0,0.0,0.0,0.0,6.6197812125246e-06,-0.00012643309817747528,-3.4966983934027994e-05,4.808678375978204e-05,3.3569335937538858e-06,-1.8109787798259447e-06,6.108982669728036e-07,-0.00038117553353460683,-0.00015902769447919416,0.0008902807606781195,-0.0008330993559390128,-0.00013251965970232724,0.0005770271451836532,-0.0006481201301386101,0.3752071261405945,19.717248916625977,0.4704863727092743,-19.931978225708008,-0.6777854561805725,-2.4758944511413574,0.24844686686992645,0
67,0.33000946044921875,-0.3752071261405945,-19.717248916625977,-0.4704863727092743,19.931978225708008,0.6777854561805725,2.4758944511413574,-0.24844686686992645,0.0,0.0,0.0,0.0,0.0,0.0,0.0,-0.3423570425596468,0.039707904210238634,-0.29868863502737153,0.18169062268436492,0.0957993798496026,0.09224576112349643,-0.24044940576110094,1.2134347739875448,-0.220116798491081,-0.007476861610885194,-2.6038964689835473,-0.10888728402058283,2.468183936759097,0.8264742973529721,1.2134413937687574,-0.2202432315892585,-0.0075118285948192216,-2.6038483821997875,-0.10888392708698907,2.4681821257803174,0.826474908251239,0.00038117553353460683,0.00015902769447919416,-0.0008902807606781195,0.0008330993559390128,0.00013251965970232724,-0.0005770271451836532,0.0006481201301386101,0.0,0.0,0.0,0.0,0.0,0.0,0.0,6.6197812125246e-06,-0.00012643309817747528,-3.4966983934027994e-05,4.808678375978204e-05,3.3569335937538858e-06,-1.8109787798259447e-06,6.108982669728036e-07,-0.00038117553353460683,-0.00015902769447919416,0.0008902807606781195,-0.0008330993559390128,-0.00013251965970232724,0.0005770271451836532,-0.0006481201301386101,0.3752071261405945,19.717248916625977,0.4704863727092743,-19.931978225708008,-0.6777854561805725,-2.4758944511413574,0.24844686686992645,0
68,0.3350343704223633,-0.3236324191093445,-19.745019912719727,-0.4982573688030243,19.955781936645508,0.6832786202430725,2.4630770683288574,-0.24112264811992645,0.0,0.0,0.0,0.0,0.0,0.0,0.0,-0.3391610306683328,0.03951077011645305,-0.29547054458808986,0.17666474923948788,0.0955172219924106,0.09134277749014319,-0.2402217164722857,1.213430466053893,-0.22011697003994093,-0.00747514949611881,-2.6038981389667755,-0.10888789437214534,2.4681842620169894,0.8264737960441654,1.2134413937687574,-0.2202432315892585,-0.0075118285948192216,-2.6038483821997875,-0.10888392708698907,2.4681821257803174,0.826474908251239,-0.0004611182137768553,0.0003252444039938703,-0.00012108496454586765,-0.00030305602397761867,-0.00012122596237724677,0.00012115928269875751,4.048980301454599e-05,0.0,0.0,0.0,0.0,0.0,0.0,0.0,1.0927714864328308e-05,-0.0001262615493175523,-3.667909870041196e-05,4.9756766987929524e-05,3.9672851562672085e-06,-2.136236672001246e-06,1.112207073661331e-06,0.0004611182137768553,-0.0003252444039938703,0.00012108496454586765,0.00030305602397761867,0.00012122596237724677,-0.00012115928269875751,-4.048980301454599e-05,0.3236324191093445,19.745019912719727,0.4982573688030243,-19.955781936645508,-0.6832786202430725,-2.4630770683288574,0.24112264811992645,0
69,0.34002089500427246,-0.3236324191093445,-19.745019912719727,-0.4982573688030243,19.955781936645508,0.6832786202430725,2.4630770683288574,-0.24112264811992645,0.0,0.0,0.0,0.0,0.0,0.0,0.0,-0.3391610306683328,0.03951077011645305,-0.29547054458808986,0.17666474923948788,0.0955172219924106,0.09134277749014319,-0.2402217164722857,1.213430466053893,-0.22011697003994093,-0.00747514949611881,-2.6038981389667755,-0.10888789437214534,2.4681842620169894,0.8264737960441654,1.2134413937687574,-0.2202432315892585,-0.0075118285948192216,-2.6038483821997875,-0.10888392708698907,2.4681821257803174,0.826474908251239,-0.0004611182137768553,0.0003252444039938703,-0.00012108496454586765,-0.00030305602397761867,-0.00012122596237724677,0.00012115928269875751,4.048980301454599e-05,0.0,0.0,0.0,0.0,0.0,0.0,0.0,1.0927714864328308e-05,-0.0001262615493175523,-3.667909870041196e-05,4.9756766987929524e-05,3.9672851562672085e-06,-2.136236672001246e-06,1.112207073661331e-06,0.0004611182137768553,-0.0003252444039938703,0.00012108496454586765,0.00030305602397761867,0.00012122596237724677,-0.00012115928269875751,-4.048980301454599e-05,0.3236324191093445,19.745019912719727,0.4982573688030243,-19.955781936645508,-0.6832786202430725,-2.4630770683288574,0.24112264811992645,0
70,0.3450338840484619,-0.3236324191093445,-19.717248916625977,-0.4704863727092743,19.955781936645508,0.6777854561805725,2.4823031425476074,-0.20724813640117645,0.0,0.0,0.0,0.0,0.0,0.0,0.0,-0.33705492070299914,0.04260989008849051,-0.29411847927339313,0.17366128282972962,0.09545935054555467,0.09077275015157926,-0.24181190023347413,1.213430465945027,-0.2201168025353506,-0.007477098339286281,-2.603897396654813,-0.10888728402058283,2.468182478993027,0.8264695671290505,1.2134413937687574,-0.2202432315892585,-0.0075118285948192216,-2.6038483821997875,-0.10888392708698907,2.4681821257803174,0.826474908251239,-0.00023427369490733237,0.0005666290932832301,0.00010202775008440764,-0.0004219541976452555,4.349274945907296e-05,-0.0006705210726294854,-0.0017423713390129995,0.0,0.0,0.0,0.0,0.0,0.0,0.0,1.0927823730355612e-05,-0.0001264290539078894,-3.473025553294047e-05,4.901445502536461e-05,3.3569335937538858e-06,-3.532127097471971e-07,5.341122188529113e-06,0.00023427369490733237,-0.0005666290932832301,-0.00010202775008440764,0.0004219541976452555,-4.349274945907296e-05,0.0006705210726294854,0.0017423713390129995,0.3236324191093445,19.717248916625977,0.4704863727092743,-19.955781936645508,-0.6777854561805725,-2.4823031425476074,0.20724813640117645,0
71,0.3500185012817383,-0.3236324191093445,-19.717248916625977,-0.4704863727092743,19.955781936645508,0.6777854561805725,2.4823031425476074,-0.20724813640117645,0.0,0.0,0.0,0.0,0.0,0.0,0.0,-0.33705492070299914,0.04260989008849051,-0.29411847927339313,0.17366128282972962,0.09545935054555467,0.09077275015157926,-0.24181190023347413,1.213430465945027,-0.2201168025353506,-0.007477098339286281,-2.603897396654813,-0.10888728402058283,2.468182478993027,0.8264695671290505,1.2134413937687574,-0.2202432315892585,-0.0075118285948192216,-2.6038483821997875,-0.10888392708698907,2.4681821257803174,0.826474908251239,-0.00023427369490733237,0.0005666290932832301,0.00010202775008440764,-0.0004219541976452555,4.349274945907296e-05,-0.0006705210726294854,-0.0017423713390129995,0.0,0.0,0.0,0.0,0.0,0.0,0.0,1.0927823730355612e-05,-0.0001264290539078894,-3.473025553294047e-05,4.901445502536461e-05,3.3569335937538858e-06,-3.532127097471971e-07,5.341122188529113e-06,0.00023427369490733237,-0.0005666290932832301,-0.00010202775008440764,0.0004219541976452555,-4.349274945907296e-05,0.0006705210726294854,0.0017423713390129995,0.3236324191093445,19.717248916625977,0.4704863727092743,-19.955781936645508,-0.6777854561805725,-2.4823031425476074,0.20724813640117645,0
72,0.35503292083740234,-0.2998287081718445,-19.693445205688477,-0.4982573688030243,19.931978225708008,0.6777854561805725,2.4758944511413574,-0.25485557317733765,0.0,0.0,0.0,0.0,0.0,0.0,0.0,-0.33334654091705784,0.036237877753983974,-0.2902654938667482,0.17708969599542637,0.09545763233384678,0.09177550757667421,-0.2429379191651705,1.2134287955091712,-0.22011940513045297,-0.007475149497455149,-2.6038965513952417,-0.10888732393719233,2.468182837859134,0.8264791457300463,1.2134413937687574,-0.2202432315892585,-0.0075118285948192216,-2.6038483821997875,-0.10888392708698907,2.4681821257803174,0.826474908251239,0.00011478039713616997,-0.00029597466249758864,0.00020024570664945886,0.00033131742197677576,-3.492848957124066e-05,-0.0003483808200573734,0.0008887057476554193,0.0,0.0,0.0,0.0,0.0,0.0,0.0,1.2598259586216187e-05,-0.0001238264588055149,-3.667909736407293e-05,4.816919545413967e-05,3.3968502032577508e-06,-7.120788168002434e-07,-4.237478807289641e-06,-0.00011478039713616997,0.00029597466249758864,-0.00020024570664945886,-0.00033131742197677576,3.492848957124066e-05,0.0003483808200573734,-0.0008887057476554193,0.2998287081718445,19.693445205688477,0.4982573688030243,-19.931978225708008,-0.6777854561805725,-2.4758944511413574,0.25485557317733765,0
73,0.3600199222564697,-0.2998287081718445,-19.693445205688477,-0.4982573688030243,19.931978225708008,0.6777854561805725,2.4758944511413574,-0.25485557317733765,0.0,0.0,0.0,0.0,0.0,0.0,0.0,-0.33334654091705784,0.036237877753983974,-0.2902654938667482,0.17708969599542637,0.09545763233384678,0.09177550757667421,-0.2429379191651705,1.2134287955091712,-0.22011940513045297,-0.007475149497455149,-2.6038965513952417,-0.10888732393719233,2.468182837859134,0.8264791457300463,1.2134413937687574,-0.2202432315892585,-0.0075118285948192216,-2.6038483821997875,-0.10888392708698907,2.4681821257803174,0.826474908251239,0.00011478039713616997,-0.00029597466249758864,0.00020024570664945886,0.00033131742197677576,-3.492848957124066e-05,-0.0003483808200573734,0.0008887057476554193,0.0,0.0,0.0,0.0,0.0,0.0,0.0,1.2598259586216187e-05,-0.0001238264588055149,-3.667909736407293e-05,4.816919545413967e-05,3.3968502032577508e-06,-7.120788168002434e-07,-4.237478807289641e-06,-0.00011478039713616997,0.00029597466249758864,-0.00020024570664945886,-0.00033131742197677576,3.492848957124066e-05,0.0003483808200573734,-0.0008887057476554193,0.2998287081718445,19.693445205688477,0.4982573688030243,-19.931978225708008,-0.6777854561805725,-2.4758944511413574,0.25485557317733765,0
74,0.3650329113006592,-0.3236324191093445,-19.717248916625977,-0.4982573688030243,19.931978225708008,0.6896873116493225,2.4630770683288574,-0.27591270208358765,0.0,0.0,0.0,0.0,0.0,0.0,0.0,-0.3347392097890607,0.03684269932503063,-0.294766881049992,0.17924556566380873,0.09531080211370571,0.09248787086330777,-0.24201476207276365,1.2134304659450263,-0.22011678974785423,-0.007475149497455149,-2.603896520875345,-0.10888860644919357,2.4681842624953028,0.8264787223977348,1.2134413937687574,-0.2202432315892585,-0.0075118285948192216,-2.6038483821997875,-0.10888392708698907,2.4681821257803174,0.826474908251239,-0.00040224829490843986,0.0005146437127321536,0.0004073079100912777,0.0004935785821662859,-0.0002358470783829145,-5.48736095703944e-06,0.0015981851215158343,0.0,0.0,0.0,0.0,0.0,0.0,0.0,1.0927823731021746e-05,-0.00012644184140425674,-3.667909736407293e-05,4.8138675557307664e-05,4.6793622044960514e-06,-2.1367149853901424e-06,-3.8141464957508475e-06,0.00040224829490843986,-0.0005146437127321536,-0.0004073079100912777,-0.0004935785821662859,0.0002358470783829145,5.48736095703944e-06,-0.0015981851215158343,0.3236324191093445,19.717248916625977,0.4982573688030243,-19.931978225708008,-0.6896873116493225,-2.4630770683288574,0.27591270208358765,0
75,0.37002038955688477,-0.3236324191093445,-19.717248916625977,-0.4982573688030243,19.931978225708008,0.6896873116493225,2.4630770683288574,-0.27591270208358765,0.0,0.0,0.0,0.0,0.0,0.0,0.0,-0.3347392097890607,0.03684269932503063,-0.294766881049992,0.17924556566380873,0.09531080211370571,0.09248787086330777,-0.24201476207276365,1.2134304659450263,-0.22011678974785423,-0.007475149497455149,-2.603896520875345,-0.10888860644919357,2.4681842624953028,0.8264787223977348,1.2134413937687574,-0.2202432315892585,-0.0075118285948192216,-2.6038483821997875,-0.10888392708698907,2.4681821257803174,0.826474908251239,-0.00040224829490843986,0.0005146437127321536,0.0004073079100912777,0.0004935785821662859,-0.0002358470783829145,-5.48736095703944e-06,0.0015981851215158343,0.0,0.0,0.0,0.0,0.0,0.0,0.0,1.0927823731021746e-05,-0.00012644184140425674,-3.667909736407293e-05,4.8138675557307664e-05,4.6793622044960514e-06,-2.1367149853901424e-06,-3.8141464957508475e-06,0.00040224829490843986,-0.0005146437127321536,-0.0004073079100912777,-0.0004935785821662859,0.0002358470783829145,5.48736095703944e-06,-0.0015981851215158343,0.3236324191093445,19.717248916625977,0.4982573688030243,-19.931978225708008,-0.6896873116493225,-2.4630770683288574,0.27591270208358765,0
76,0.37502431869506836,-0.3236324191093445,-19.717248916625977,-0.4982573688030243,19.931978225708008,0.6713767647743225,2.4630770683288574,-0.26217979192733765,0.0,0.0,0.0,0.0,0.0,0.0,0.0,-0.3291200859151546,0.03778849900105957,-0.2886611911362759,0.17968343348833613,0.0954976091962653,0.09225105609631602,-0.24273043611925538,1.2134304659450263,-0.2201168027393453,-0.007475070587988117,-2.603896304150831,-0.10888657194375992,2.468184262010789,0.8264788999564492,1.2134413937687574,-0.2202432315892585,-0.0075118285948192216,-2.6038483821997875,-0.10888392708698907,2.4681821257803174,0.826474908251239,5.146550190914085e-05,0.0002666610264356226,4.3040327162812664e-05,0.0004991414834599913,0.00015878469253367798,1.3380715911841488e-05,0.0009260321201048988,0.0,0.0,0.0,0.0,0.0,0.0,0.0,1.0927823731021746e-05,-0.00012642884991317938,-3.675800683110471e-05,4.792195104341701e-05,2.6448567708448056e-06,-2.136230471627698e-06,-3.991705210149021e-06,-5.146550190914085e-05,-0.0002666610264356226,-4.3040327162812664e-05,-0.0004991414834599913,-0.00015878469253367798,-1.3380715911841488e-05,-0.0009260321201048988,0.3236324191093445,19.717248916625977,0.4982573688030243,-19.931978225708008,-0.6713767647743225,-2.4630770683288574,0.26217979192733765,0
77,0.3800199031829834,-0.3236324191093445,-19.717248916625977,-0.4982573688030243,19.931978225708008,0.6713767647743225,2.4630770683288574,-0.26217979192733765,0.0,0.0,0.0,0.0,0.0,0.0,0.0,-0.3291200859151546,0.03778849900105957,-0.2886611911362759,0.17968343348833613,0.0954976091962653,0.09225105609631602,-0.24273043611925538,1.2134304659450263,-0.2201168027393453,-0.007475070587988117,-2.603896304150831,-0.10888657194375992,2.468184262010789,0.8264788999564492,1.2134413937687574,-0.2202432315892585,-0.0075118285948192216,-2.6038483821997875,-0.10888392708698907,2.4681821257803174,0.826474908251239,5.146550190914085e-05,0.0002666610264356226,4.3040327162812664e-05,0.0004991414834599913,0.00015878469253367798,1.3380715911841488e-05,0.0009260321201048988,0.0,0.0,0.0,0.0,0.0,0.0,0.0,1.0927823731021746e-05,-0.00012642884991317938,-3.675800683110471e-05,4.792195104341701e-05,2.6448567708448056e-06,-2.136230471627698e-06,-3.991705210149021e-06,-5.146550190914085e-05,-0.0002666610264356226,-4.3040327162812664e-05,-0.0004991414834599913,-0.00015878469253367798,-1.3380715911841488e-05,-0.0009260321201048988,0.3236324191093445,19.717248916625977,0.4982573688030243,-19.931978225708008,-0.6713767647743225,-2.4630770683288574,0.26217979192733765,0
78,0.38503241539001465,-0.3236324191093445,-19.717248916625977,-0.4982573688030243,19.931978225708008,0.6713767647743225,2.4630770683288574,-0.26217979192733765,0.0,0.0,0.0,0.0,0.0,0.0,0.0,-0.3291200859151546,0.03778849900105957,-0.2886611911362759,0.17968343348833613,0.0954976091962653,0.09225105609631602,-0.24273043611925538,1.2134304659450263,-0.2201168027393453,-0.007475070587988117,-2.603896304150831,-0.10888657194375992,2.468184262010789,0.8264788999564492,1.2134413937687574,-0.2202432315892585,-0.0075118285948192216,-2.6038483821997875,-0.10888392708698907,2.4681821257803174,0.826474908251239,5.146550190914085e-05,0.0002666610264356226,4.3040327162812664e-05,0.0004991414834599913,0.00015878469253367798,1.3380715911841488e-05,0.0009260321201048988,0.0,0.0,0.0,0.0,0.0,0.0,0.0,1.0927823731021746e-05,-0.00012642884991317938,-3.675800683110471e-05,4.792195104341701e-05,2.6448567708448056e-06,-2.136230471627698e-06,-3.991705210149021e-06,-5.146550190914085e-05,-0.0002666610264356226,-4.3040327162812664e-05,-0.0004991414834599913,-0.00015878469253367798,-1.3380715911841488e-05,-0.0009260321201048988,0.3236324191093445,19.717248916625977,0.4982573688030243,-19.931978225708008,-0.6713767647743225,-2.4630770683288574,0.26217979192733765,0
79,0.39001989364624023,-0.3236324191093445,-19.717248916625977,-0.4982573688030243,19.931978225708008,0.6713767647743225,2.4630770683288574,-0.26217979192733765,0.0,0.0,0.0,0.0,0.0,0.0,0.0,-0.3291200859151546,0.03778849900105957,-0.2886611911362759,0.17968343348833613,0.0954976091962653,0.09225105609631602,-0.24273043611925538,1.2134304659450263,-0.2201168027393453,-0.007475070587988117,-2.603896304150831,-0.10888657194375992,2.468184262010789,0.8264788999564492,1.2134413937687574,-0.2202432315892585,-0.0075118285948192216,-2.6038483821997875,-0.10888392708698907,2.4681821257803174,0.826474908251239,5.146550190914085e-05,0.0002666610264356226,4.3040327162812664e-05,0.0004991414834599913,0.00015878469253367798,1.3380715911841488e-05,0.0009260321201048988,0.0,0.0,0.0,0.0,0.0,0.0,0.0,1.0927823731021746e-05,-0.00012642884991317938,-3.675800683110471e-05,4.792195104341701e-05,2.6448567708448056e-06,-2.136230471627698e-06,-3.991705210149021e-06,-5.146550190914085e-05,-0.0002666610264356226,-4.3040327162812664e-05,-0.0004991414834599913,-0.00015878469253367798,-1.3380715911841488e-05,-0.0009260321201048988,0.3236324191093445,19.717248916625977,0.4982573688030243,-19.931978225708008,-0.6713767647743225,-2.4630770683288574,0.26217979192733765,0
