rezayati/contactInterpretation/dataset/franka_main/labeled_data/link2/f2_5.csv
index,time,tau_J0,tau_J1,tau_J2,tau_J3,tau_J4,tau_J5,tau_J6,tau_J_d0,tau_J_d1,tau_J_d2,tau_J_d3,tau_J_d4,tau_J_d5,tau_J_d6,tau_ext0,tau_ext1,tau_ext2,tau_ext3,tau_ext4,tau_ext5,tau_ext6,q0,q1,q2,q3,q4,q5,q6,q_d0,q_d1,q_d2,q_d3,q_d4,q_d5,q_d6,dq0,dq1,dq2,dq3,dq4,dq5,dq6,dq_d0,dq_d1,dq_d2,dq_d3,dq_d4,dq_d5,dq_d6,e0,e1,e2,e3,e4,e5,e6,de0,de1,de2,de3,de4,de5,de6,etau_J0,etau_J1,etau_J2,etau_J3,etau_J4,etau_J5,etau_J6,label
1,0.0,-0.6568843722343445,-46.52419662475586,-5.588284015655518,19.535249710083008,0.7730002999305725,2.3724398612976074,-0.22830526530742645,0.0,0.0,0.0,0.0,0.0,0.0,0.0,-0.6430079554575886,-0.23456337720440218,-0.39185371585707846,0.31694891807590636,0.19019725887159553,0.10337142834380474,-0.1873161352510653,0.8780264485969879,0.7554211598920544,-0.2824963117984792,-1.6690574763285622,0.14140943897460603,2.4035719688791084,1.0273514742768473,0.878092876070424,0.7554597494309409,-0.2825552651693207,-1.6690993614607135,0.1414185955172306,2.4034451173676383,1.0273381002308042,0.0009806573306157143,-2.320735722012448e-05,0.0005924441827482172,-0.0005216798768155797,0.00022103308767299097,-0.0001965503082620312,0.0017650213341527184,0.0,0.0,0.0,0.0,0.0,0.0,0.0,6.642747343610367e-05,3.8589538886468766e-05,-5.895337084149688e-05,-4.188513215130918e-05,9.156542624566555e-06,-0.0001268515114700719,-1.3374046043068688e-05,-0.0009806573306157143,2.320735722012448e-05,-0.0005924441827482172,0.0005216798768155797,-0.00022103308767299097,0.0001965503082620312,-0.0017650213341527184,0.6568843722343445,46.52419662475586,5.588284015655518,-19.535249710083008,-0.7730002999305725,-2.3724398612976074,0.22830526530742645,0
2,0.004870176315307617,-0.6568843722343445,-46.52419662475586,-5.588284015655518,19.535249710083008,0.7730002999305725,2.3724398612976074,-0.22830526530742645,0.0,0.0,0.0,0.0,0.0,0.0,0.0,-0.6430079554575886,-0.23456337720440218,-0.39185371585707846,0.31694891807590636,0.19019725887159553,0.10337142834380474,-0.1873161352510653,0.8780264485969879,0.7554211598920544,-0.2824963117984792,-1.6690574763285622,0.14140943897460603,2.4035719688791084,1.0273514742768473,0.878092876070424,0.7554597494309409,-0.2825552651693207,-1.6690993614607135,0.1414185955172306,2.4034451173676383,1.0273381002308042,0.0009806573306157143,-2.320735722012448e-05,0.0005924441827482172,-0.0005216798768155797,0.00022103308767299097,-0.0001965503082620312,0.0017650213341527184,0.0,0.0,0.0,0.0,0.0,0.0,0.0,6.642747343610367e-05,3.8589538886468766e-05,-5.895337084149688e-05,-4.188513215130918e-05,9.156542624566555e-06,-0.0001268515114700719,-1.3374046043068688e-05,-0.0009806573306157143,2.320735722012448e-05,-0.0005924441827482172,0.0005216798768155797,-0.00022103308767299097,0.0001965503082620312,-0.0017650213341527184,0.6568843722343445,46.52419662475586,5.588284015655518,-19.535249710083008,-0.7730002999305725,-2.3724398612976074,0.22830526530742645,0
3,0.009818077087402344,-0.6291133761405945,-46.50039291381836,-5.512905597686768,19.535249710083008,0.7730002999305725,2.3596224784851074,-0.16604940593242645,0.0,0.0,0.0,0.0,0.0,0.0,0.0,-0.648360056681906,-0.21985572336927414,-0.3972751178416675,0.3143286427434063,0.19066737839544265,0.10309338975312676,-0.18836971358916588,0.8780244997551566,0.7554187874499012,-0.282501601511972,-1.6690575528575504,0.14140932049994998,2.4035753479550417,1.027344556959139,0.878092876070424,0.7554597494309409,-0.2825552651693207,-1.6690993614607135,0.1414185955172306,2.4034451173676383,1.0273381002308042,-0.00045042515870580063,0.0005436014436513105,-0.0012332216608226577,-0.00025333339615037163,-4.452157141054867e-05,0.00043702401191073064,-0.0008641059340847516,0.0,0.0,0.0,0.0,0.0,0.0,0.0,6.837631526734889e-05,4.0961981039644435e-05,-5.366365734871259e-05,-4.180860316305157e-05,9.275017280624409e-06,-0.00013023058740335713,-6.456728334880424e-06,0.00045042515870580063,-0.0005436014436513105,0.0012332216608226577,0.00025333339615037163,4.452157141054867e-05,-0.00043702401191073064,0.0008641059340847516,0.6291133761405945,46.50039291381836,5.512905597686768,-19.535249710083008,-0.7730002999305725,-2.3596224784851074,0.16604940593242645,0
4,0.014873504638671875,-0.6291133761405945,-46.50039291381836,-5.512905597686768,19.535249710083008,0.7730002999305725,2.3596224784851074,-0.16604940593242645,0.0,0.0,0.0,0.0,0.0,0.0,0.0,-0.648360056681906,-0.21985572336927414,-0.3972751178416675,0.3143286427434063,0.19066737839544265,0.10309338975312676,-0.18836971358916588,0.8780244997551566,0.7554187874499012,-0.282501601511972,-1.6690575528575504,0.14140932049994998,2.4035753479550417,1.027344556959139,0.878092876070424,0.7554597494309409,-0.2825552651693207,-1.6690993614607135,0.1414185955172306,2.4034451173676383,1.0273381002308042,-0.00045042515870580063,0.0005436014436513105,-0.0012332216608226577,-0.00025333339615037163,-4.452157141054867e-05,0.00043702401191073064,-0.0008641059340847516,0.0,0.0,0.0,0.0,0.0,0.0,0.0,6.837631526734889e-05,4.0961981039644435e-05,-5.366365734871259e-05,-4.180860316305157e-05,9.275017280624409e-06,-0.00013023058740335713,-6.456728334880424e-06,0.00045042515870580063,-0.0005436014436513105,0.0012332216608226577,0.00025333339615037163,4.452157141054867e-05,-0.00043702401191073064,0.0008641059340847516,0.6291133761405945,46.50039291381836,5.512905597686768,-19.535249710083008,-0.7730002999305725,-2.3596224784851074,0.16604940593242645,0
5,0.01986837387084961,-0.6291133761405945,-46.50039291381836,-5.512905597686768,19.535249710083008,0.7730002999305725,2.3596224784851074,-0.16604940593242645,0.0,0.0,0.0,0.0,0.0,0.0,0.0,-0.648360056681906,-0.21985572336927414,-0.3972751178416675,0.3143286427434063,0.19066737839544265,0.10309338975312676,-0.18836971358916588,0.8780244997551566,0.7554187874499012,-0.282501601511972,-1.6690575528575504,0.14140932049994998,2.4035753479550417,1.027344556959139,0.878092876070424,0.7554597494309409,-0.2825552651693207,-1.6690993614607135,0.1414185955172306,2.4034451173676383,1.0273381002308042,-0.00045042515870580063,0.0005436014436513105,-0.0012332216608226577,-0.00025333339615037163,-4.452157141054867e-05,0.00043702401191073064,-0.0008641059340847516,0.0,0.0,0.0,0.0,0.0,0.0,0.0,6.837631526734889e-05,4.0961981039644435e-05,-5.366365734871259e-05,-4.180860316305157e-05,9.275017280624409e-06,-0.00013023058740335713,-6.456728334880424e-06,0.00045042515870580063,-0.0005436014436513105,0.0012332216608226577,0.00025333339615037163,4.452157141054867e-05,-0.00043702401191073064,0.0008641059340847516,0.6291133761405945,46.50039291381836,5.512905597686768,-19.535249710083008,-0.7730002999305725,-2.3596224784851074,0.16604940593242645,0
6,0.02486562728881836,-0.6291133761405945,-46.50039291381836,-5.512905597686768,19.535249710083008,0.7730002999305725,2.3596224784851074,-0.16604940593242645,0.0,0.0,0.0,0.0,0.0,0.0,0.0,-0.648360056681906,-0.21985572336927414,-0.3972751178416675,0.3143286427434063,0.19066737839544265,0.10309338975312676,-0.18836971358916588,0.8780244997551566,0.7554187874499012,-0.282501601511972,-1.6690575528575504,0.14140932049994998,2.4035753479550417,1.027344556959139,0.878092876070424,0.7554597494309409,-0.2825552651693207,-1.6690993614607135,0.1414185955172306,2.4034451173676383,1.0273381002308042,-0.00045042515870580063,0.0005436014436513105,-0.0012332216608226577,-0.00025333339615037163,-4.452157141054867e-05,0.00043702401191073064,-0.0008641059340847516,0.0,0.0,0.0,0.0,0.0,0.0,0.0,6.837631526734889e-05,4.0961981039644435e-05,-5.366365734871259e-05,-4.180860316305157e-05,9.275017280624409e-06,-0.00013023058740335713,-6.456728334880424e-06,0.00045042515870580063,-0.0005436014436513105,0.0012332216608226577,0.00025333339615037163,4.452157141054867e-05,-0.00043702401191073064,0.0008641059340847516,0.6291133761405945,46.50039291381836,5.512905597686768,-19.535249710083008,-0.7730002999305725,-2.3596224784851074,0.16604940593242645,0
7,0.02984619140625,-0.7322627902030945,-46.57577133178711,-5.564480304718018,19.535249710083008,0.7730002999305725,2.3724398612976074,-0.15964071452617645,0.0,0.0,0.0,0.0,0.0,0.0,0.0,-0.6517356389394556,-0.24543979618607845,-0.40369750359792106,0.3331526436991771,0.19067430675200206,0.10540201794749157,-0.18816216336231353,0.8780317383105295,0.75542407715948,-0.28249798223428557,-1.6690574763285622,0.1414094384427707,2.4035722735483858,1.027343844882316,0.878092876070424,0.7554597494309409,-0.2825552651693207,-1.6690993614607135,0.1414185955172306,2.4034451173676383,1.0273381002308042,0.001810423231636231,0.0009624096062531872,-0.0006696689127864562,2.7576155376384378e-05,-3.564971598075358e-05,-9.082932976927678e-05,-0.0012392659308378972,0.0,0.0,0.0,0.0,0.0,0.0,0.0,6.113775989446957e-05,3.56722714608404e-05,-5.728293503515225e-05,-4.188513215130918e-05,9.157074459892334e-06,-0.00012715618074743418,-5.744651511818688e-06,-0.001810423231636231,-0.0009624096062531872,0.0006696689127864562,-2.7576155376384378e-05,3.564971598075358e-05,9.082932976927678e-05,0.0012392659308378972,0.7322627902030945,46.57577133178711,5.564480304718018,-19.535249710083008,-0.7730002999305725,-2.3724398612976074,0.15964071452617645,0
8,0.03487706184387207,-0.7322627902030945,-46.57577133178711,-5.564480304718018,19.535249710083008,0.7730002999305725,2.3724398612976074,-0.15964071452617645,0.0,0.0,0.0,0.0,0.0,0.0,0.0,-0.6517356389394556,-0.24543979618607845,-0.40369750359792106,0.3331526436991771,0.19067430675200206,0.10540201794749157,-0.18816216336231353,0.8780317383105295,0.75542407715948,-0.28249798223428557,-1.6690574763285622,0.1414094384427707,2.4035722735483858,1.027343844882316,0.878092876070424,0.7554597494309409,-0.2825552651693207,-1.6690993614607135,0.1414185955172306,2.4034451173676383,1.0273381002308042,0.001810423231636231,0.0009624096062531872,-0.0006696689127864562,2.7576155376384378e-05,-3.564971598075358e-05,-9.082932976927678e-05,-0.0012392659308378972,0.0,0.0,0.0,0.0,0.0,0.0,0.0,6.113775989446957e-05,3.56722714608404e-05,-5.728293503515225e-05,-4.188513215130918e-05,9.157074459892334e-06,-0.00012715618074743418,-5.744651511818688e-06,-0.001810423231636231,-0.0009624096062531872,0.0006696689127864562,-2.7576155376384378e-05,3.564971598075358e-05,9.082932976927678e-05,0.0012392659308378972,0.7322627902030945,46.57577133178711,5.564480304718018,-19.535249710083008,-0.7730002999305725,-2.3724398612976074,0.15964071452617645,0
9,0.03982877731323242,-0.6568843722343445,-46.59957504272461,-5.612087726593018,19.535249710083008,0.7665916085243225,2.3660311698913574,-0.18710653483867645,0.0,0.0,0.0,0.0,0.0,0.0,0.0,-0.647839656001413,-0.23406745060607126,-0.396994916538842,0.32773270386720005,0.1903391120591074,0.10471228681760873,-0.1883115459319976,0.8780264485969879,0.7554257485583123,-0.2824946413982409,-1.66905747632813,0.1414091026377177,2.403571452228054,1.0273468966401285,0.878092876070424,0.7554597494309409,-0.2825552651693207,-1.6690993614607135,0.1414185955172306,2.4034451173676383,1.0273381002308042,-0.0004836192976297823,0.0005782497208463649,0.0006716554669425313,-0.00019012259065456314,0.00045079339320859796,0.00015843129989134039,0.00022373635785297795,0.0,0.0,0.0,0.0,0.0,0.0,0.0,6.642747343610367e-05,3.400087262850349e-05,-6.062377107984851e-05,-4.188513258340798e-05,9.492879512906782e-06,-0.00012633486041568887,-8.796409324274279e-06,0.0004836192976297823,-0.0005782497208463649,-0.0006716554669425313,0.00019012259065456314,-0.00045079339320859796,-0.00015843129989134039,-0.00022373635785297795,0.6568843722343445,46.59957504272461,5.612087726593018,-19.535249710083008,-0.7665916085243225,-2.3660311698913574,0.18710653483867645,0
10,0.04486441612243652,-0.6568843722343445,-46.59957504272461,-5.612087726593018,19.535249710083008,0.7665916085243225,2.3660311698913574,-0.18710653483867645,0.0,0.0,0.0,0.0,0.0,0.0,0.0,-0.647839656001413,-0.23406745060607126,-0.396994916538842,0.32773270386720005,0.1903391120591074,0.10471228681760873,-0.1883115459319976,0.8780264485969879,0.7554257485583123,-0.2824946413982409,-1.66905747632813,0.1414091026377177,2.403571452228054,1.0273468966401285,0.878092876070424,0.7554597494309409,-0.2825552651693207,-1.6690993614607135,0.1414185955172306,2.4034451173676383,1.0273381002308042,-0.0004836192976297823,0.0005782497208463649,0.0006716554669425313,-0.00019012259065456314,0.00045079339320859796,0.00015843129989134039,0.00022373635785297795,0.0,0.0,0.0,0.0,0.0,0.0,0.0,6.642747343610367e-05,3.400087262850349e-05,-6.062377107984851e-05,-4.188513258340798e-05,9.492879512906782e-06,-0.00012633486041568887,-8.796409324274279e-06,0.0004836192976297823,-0.0005782497208463649,-0.0006716554669425313,0.00019012259065456314,-0.00045079339320859796,-0.00015843129989134039,-0.00022373635785297795,0.6568843722343445,46.59957504272461,5.612087726593018,-19.535249710083008,-0.7665916085243225,-2.3660311698913574,0.18710653483867645,0
11,0.04986286163330078,-0.6806880831718445,-46.64718246459961,-5.612087726593018,19.511445999145508,0.7665916085243225,2.3788485527038574,-0.20083944499492645,0.0,0.0,0.0,0.0,0.0,0.0,0.0,-0.6603988604307169,-0.22759297265757564,-0.4027241330712671,0.3216676982998077,0.19057009253842974,0.10400808960533114,-0.18765693677485712,0.8780281190328431,0.7554290885740487,-0.28249464168356764,-1.6690558058922749,0.14140538692585086,2.4035714786012274,1.0273484225190348,0.878092876070424,0.7554597494309409,-0.2825552651693207,-1.6690993614607135,0.1414185955172306,2.4034451173676383,1.0273381002308042,-0.0005649915255762149,0.0014433974765141004,0.0006727163068067221,0.0006644600418281663,0.0003804242727895098,-0.00031393547461735903,0.0007808884846647934,0.0,0.0,0.0,0.0,0.0,0.0,0.0,6.475703758090923e-05,3.066085689218401e-05,-6.062348575308629e-05,-4.355556843860242e-05,1.3208591379737511e-05,-0.00012636123358911178,-1.0322288230613097e-05,0.0005649915255762149,-0.0014433974765141004,-0.0006727163068067221,-0.0006644600418281663,-0.0003804242727895098,0.00031393547461735903,-0.0007808884846647934,0.6806880831718445,46.64718246459961,5.612087726593018,-19.511445999145508,-0.7665916085243225,-2.3788485527038574,0.20083944499492645,0
12,0.054871320724487305,-0.6806880831718445,-46.64718246459961,-5.612087726593018,19.511445999145508,0.7665916085243225,2.3788485527038574,-0.20083944499492645,0.0,0.0,0.0,0.0,0.0,0.0,0.0,-0.6603988604307169,-0.22759297265757564,-0.4027241330712671,0.3216676982998077,0.19057009253842974,0.10400808960533114,-0.18765693677485712,0.8780281190328431,0.7554290885740487,-0.28249464168356764,-1.6690558058922749,0.14140538692585086,2.4035714786012274,1.0273484225190348,0.878092876070424,0.7554597494309409,-0.2825552651693207,-1.6690993614607135,0.1414185955172306,2.4034451173676383,1.0273381002308042,-0.0005649915255762149,0.0014433974765141004,0.0006727163068067221,0.0006644600418281663,0.0003804242727895098,-0.00031393547461735903,0.0007808884846647934,0.0,0.0,0.0,0.0,0.0,0.0,0.0,6.475703758090923e-05,3.066085689218401e-05,-6.062348575308629e-05,-4.355556843860242e-05,1.3208591379737511e-05,-0.00012636123358911178,-1.0322288230613097e-05,0.0005649915255762149,-0.0014433974765141004,-0.0006727163068067221,-0.0006644600418281663,-0.0003804242727895098,0.00031393547461735903,-0.0007808884846647934,0.6806880831718445,46.64718246459961,5.612087726593018,-19.511445999145508,-0.7665916085243225,-2.3788485527038574,0.20083944499492645,0
13,0.05986475944519043,-0.6806880831718445,-46.52419662475586,-5.536709308624268,19.559053421020508,0.7730002999305725,2.3724398612976074,-0.17337362468242645,0.0,0.0,0.0,0.0,0.0,0.0,0.0,-0.647163090235573,-0.22805168105905085,-0.3903372614080172,0.3207553631174455,0.18997020351272872,0.10391064093250847,-0.18805667752894656,0.8780281190328431,0.755421185892435,-0.2825020399958317,-1.6690591467639855,0.14140941676117075,2.403575332239001,1.0273453707612223,0.878092876070424,0.7554597494309409,-0.2825552651693207,-1.6690993614607135,0.1414185955172306,2.4034451173676383,1.0273381002308042,0.0001356736703240351,-0.0014798233573698701,-0.0013258264237499635,-0.0006058966649192723,9.858068339927433e-05,-5.131505022538779e-05,-0.00024326481296442262,0.0,0.0,0.0,0.0,0.0,0.0,0.0,6.475703758090923e-05,3.856353850584249e-05,-5.322517348904654e-05,-4.0214696727991495e-05,9.178756059852189e-06,-0.00013021487136288812,-7.270530418157506e-06,-0.0001356736703240351,0.0014798233573698701,0.0013258264237499635,0.0006058966649192723,-9.858068339927433e-05,5.131505022538779e-05,0.00024326481296442262,0.6806880831718445,46.52419662475586,5.536709308624268,-19.559053421020508,-0.7730002999305725,-2.3724398612976074,0.17337362468242645,0
14,0.06486630439758301,-0.6806880831718445,-46.52419662475586,-5.536709308624268,19.559053421020508,0.7730002999305725,2.3724398612976074,-0.17337362468242645,0.0,0.0,0.0,0.0,0.0,0.0,0.0,-0.647163090235573,-0.22805168105905085,-0.3903372614080172,0.3207553631174455,0.18997020351272872,0.10391064093250847,-0.18805667752894656,0.8780281190328431,0.755421185892435,-0.2825020399958317,-1.6690591467639855,0.14140941676117075,2.403575332239001,1.0273453707612223,0.878092876070424,0.7554597494309409,-0.2825552651693207,-1.6690993614607135,0.1414185955172306,2.4034451173676383,1.0273381002308042,0.0001356736703240351,-0.0014798233573698701,-0.0013258264237499635,-0.0006058966649192723,9.858068339927433e-05,-5.131505022538779e-05,-0.00024326481296442262,0.0,0.0,0.0,0.0,0.0,0.0,0.0,6.475703758090923e-05,3.856353850584249e-05,-5.322517348904654e-05,-4.0214696727991495e-05,9.178756059852189e-06,-0.00013021487136288812,-7.270530418157506e-06,-0.0001356736703240351,0.0014798233573698701,0.0013258264237499635,0.0006058966649192723,-9.858068339927433e-05,5.131505022538779e-05,0.00024326481296442262,0.6806880831718445,46.52419662475586,5.536709308624268,-19.559053421020508,-0.7730002999305725,-2.3724398612976074,0.17337362468242645,0
15,0.07029509544372559,-0.6568843722343445,-46.54800033569336,-5.564480304718018,19.487642288208008,0.7730002999305725,2.3788485527038574,-0.15231649577617645,0.0,0.0,0.0,0.0,0.0,0.0,0.0,-0.6657783261806628,-0.2287817944316327,-0.4024455661666632,0.3192086632141798,0.18992249393385494,0.10368192071409629,-0.18733580775196507,0.8780264485969879,0.7554221283217585,-0.2824979822461905,-1.669054367879104,0.14140589679041515,2.4035732496973714,1.0273430310802327,0.878092876070424,0.7554597494309409,-0.2825552651693207,-1.6690993614607135,0.1414185955172306,2.4034451173676383,1.0273381002308042,-0.0007971377608299814,-0.00011361140058062872,-0.0002942980895521626,0.001043072646087686,1.940231387849053e-05,-0.00020038068497195088,-0.0015065330167528777,0.0,0.0,0.0,0.0,0.0,0.0,0.0,6.642747343610367e-05,3.762110918237305e-05,-5.7282923130230756e-05,-4.499358160936495e-05,1.2698726815446593e-05,-0.0001281323297330772,-4.930849428541606e-06,0.0007971377608299814,0.00011361140058062872,0.0002942980895521626,-0.001043072646087686,-1.940231387849053e-05,0.00020038068497195088,0.0015065330167528777,0.6568843722343445,46.54800033569336,5.564480304718018,-19.487642288208008,-0.7730002999305725,-2.3788485527038574,0.15231649577617645,0
16,0.07515358924865723,-0.6568843722343445,-46.54800033569336,-5.564480304718018,19.487642288208008,0.7730002999305725,2.3788485527038574,-0.15231649577617645,0.0,0.0,0.0,0.0,0.0,0.0,0.0,-0.6657783261806628,-0.2287817944316327,-0.4024455661666632,0.3192086632141798,0.18992249393385494,0.10368192071409629,-0.18733580775196507,0.8780264485969879,0.7554221283217585,-0.2824979822461905,-1.669054367879104,0.14140589679041515,2.4035732496973714,1.0273430310802327,0.878092876070424,0.7554597494309409,-0.2825552651693207,-1.6690993614607135,0.1414185955172306,2.4034451173676383,1.0273381002308042,-0.0007971377608299814,-0.00011361140058062872,-0.0002942980895521626,0.001043072646087686,1.940231387849053e-05,-0.00020038068497195088,-0.0015065330167528777,0.0,0.0,0.0,0.0,0.0,0.0,0.0,6.642747343610367e-05,3.762110918237305e-05,-5.7282923130230756e-05,-4.499358160936495e-05,1.2698726815446593e-05,-0.0001281323297330772,-4.930849428541606e-06,0.0007971377608299814,0.00011361140058062872,0.0002942980895521626,-0.001043072646087686,-1.940231387849053e-05,0.00020038068497195088,0.0015065330167528777,0.6568843722343445,46.54800033569336,5.564480304718018,-19.487642288208008,-0.7730002999305725,-2.3788485527038574,0.15231649577617645,0
17,0.07986807823181152,-0.6568843722343445,-46.57577133178711,-5.564480304718018,19.511445999145508,0.7784934639930725,2.3724398612976074,-0.22098104655742645,0.0,0.0,0.0,0.0,0.0,0.0,0.0,-0.6630346015415295,-0.23751146003578125,-0.4022393801912977,0.32454449728951107,0.1900974387109482,0.10505029767859501,-0.18597599541427565,0.8780264485969879,0.7554240772664775,-0.2824979822342856,-1.669055805893587,0.14140418420899073,2.403575096450848,1.027350660474764,0.878092876070424,0.7554597494309409,-0.2825552651693207,-1.6690993614607135,0.1414185955172306,2.4034451173676383,1.0273381002308042,0.00027487004844201416,0.0005667072097692943,-0.0004624161980612207,0.0002564568932914365,-1.5868489589494495e-06,-0.00024880427229404147,0.0016090202485225461,0.0,0.0,0.0,0.0,0.0,0.0,0.0,6.642747343610367e-05,3.5672164463318445e-05,-5.728293503509674e-05,-4.355556712654085e-05,1.4411308239870024e-05,-0.00012997908320988572,-1.2560243959791606e-05,-0.00027487004844201416,-0.0005667072097692943,0.0004624161980612207,-0.0002564568932914365,1.5868489589494495e-06,0.00024880427229404147,-0.0016090202485225461,0.6568843722343445,46.57577133178711,5.564480304718018,-19.511445999145508,-0.7784934639930725,-2.3724398612976074,0.22098104655742645,0
18,0.08487081527709961,-0.6568843722343445,-46.57577133178711,-5.564480304718018,19.511445999145508,0.7784934639930725,2.3724398612976074,-0.22098104655742645,0.0,0.0,0.0,0.0,0.0,0.0,0.0,-0.6630346015415295,-0.23751146003578125,-0.4022393801912977,0.32454449728951107,0.1900974387109482,0.10505029767859501,-0.18597599541427565,0.8780264485969879,0.7554240772664775,-0.2824979822342856,-1.669055805893587,0.14140418420899073,2.403575096450848,1.027350660474764,0.878092876070424,0.7554597494309409,-0.2825552651693207,-1.6690993614607135,0.1414185955172306,2.4034451173676383,1.0273381002308042,0.00027487004844201416,0.0005667072097692943,-0.0004624161980612207,0.0002564568932914365,-1.5868489589494495e-06,-0.00024880427229404147,0.0016090202485225461,0.0,0.0,0.0,0.0,0.0,0.0,0.0,6.642747343610367e-05,3.5672164463318445e-05,-5.728293503509674e-05,-4.355556712654085e-05,1.4411308239870024e-05,-0.00012997908320988572,-1.2560243959791606e-05,-0.00027487004844201416,-0.0005667072097692943,0.0004624161980612207,-0.0002564568932914365,1.5868489589494495e-06,0.00024880427229404147,-0.0016090202485225461,0.6568843722343445,46.57577133178711,5.564480304718018,-19.511445999145508,-0.7784934639930725,-2.3724398612976074,0.22098104655742645,0
19,0.08986663818359375,-0.5537349581718445,-46.50039291381836,-5.564480304718018,19.535249710083008,0.7784934639930725,2.3660311698913574,-0.17337362468242645,0.0,0.0,0.0,0.0,0.0,0.0,0.0,-0.6316760760264984,-0.23653427925073478,-0.38156345557433147,0.32625888500088623,0.18967696369549916,0.10482055876893455,-0.1855463611966366,0.878019210041615,0.7554187874459402,-0.28249798223428557,-1.66905747632813,0.1414051405508495,2.4035760619855373,1.0273453707612223,0.878092876070424,0.7554597494309409,-0.2825552651693207,-1.6690993614607135,0.1414185955172306,2.4034451173676383,1.0273381002308042,-0.0014194843580314983,-0.0012094650955451465,0.000941656127831075,-0.0001545084118612212,-0.00012071999445994365,0.00014444620760166815,-1.44951421637538e-05,0.0,0.0,0.0,0.0,0.0,0.0,0.0,7.366602880898299e-05,4.096198500069814e-05,-5.728293503515225e-05,-4.188513258340798e-05,1.34549663811101e-05,-0.00013094461789897593,-7.270530418157506e-06,0.0014194843580314983,0.0012094650955451465,-0.000941656127831075,0.0001545084118612212,0.00012071999445994365,-0.00014444620760166815,1.44951421637538e-05,0.5537349581718445,46.50039291381836,5.564480304718018,-19.535249710083008,-0.7784934639930725,-2.3660311698913574,0.17337362468242645,0
20,0.09486269950866699,-0.5537349581718445,-46.50039291381836,-5.564480304718018,19.535249710083008,0.7784934639930725,2.3660311698913574,-0.17337362468242645,0.0,0.0,0.0,0.0,0.0,0.0,0.0,-0.6316760760264984,-0.23653427925073478,-0.38156345557433147,0.32625888500088623,0.18967696369549916,0.10482055876893455,-0.1855463611966366,0.878019210041615,0.7554187874459402,-0.28249798223428557,-1.66905747632813,0.1414051405508495,2.4035760619855373,1.0273453707612223,0.878092876070424,0.7554597494309409,-0.2825552651693207,-1.6690993614607135,0.1414185955172306,2.4034451173676383,1.0273381002308042,-0.0014194843580314983,-0.0012094650955451465,0.000941656127831075,-0.0001545084118612212,-0.00012071999445994365,0.00014444620760166815,-1.44951421637538e-05,0.0,0.0,0.0,0.0,0.0,0.0,0.0,7.366602880898299e-05,4.096198500069814e-05,-5.728293503515225e-05,-4.188513258340798e-05,1.34549663811101e-05,-0.00013094461789897593,-7.270530418157506e-06,0.0014194843580314983,0.0012094650955451465,-0.000941656127831075,0.0001545084118612212,0.00012071999445994365,-0.00014444620760166815,1.44951421637538e-05,0.5537349581718445,46.50039291381836,5.564480304718018,-19.535249710083008,-0.7784934639930725,-2.3660311698913574,0.17337362468242645,0
21,0.09986424446105957,-0.6053096652030945,-46.54800033569336,-5.588284015655518,19.559053421020508,0.7784934639930725,2.3724398612976074,-0.19351522624492645,0.0,0.0,0.0,0.0,0.0,0.0,0.0,-0.6530675770136372,-0.2468544735780325,-0.4011260889991517,0.3306495824508121,0.19071314598917746,0.10531683581975956,-0.18438767889955587,0.8780228293193014,0.7554221283176489,-0.2824963117984303,-1.6690591467639855,0.14140514498317747,2.403574403599734,1.0273476087169515,0.878092876070424,0.7554597494309409,-0.2825552651693207,-1.6690993614607135,0.1414185955172306,2.4034451173676383,1.0273381002308042,8.423835312976614e-05,-0.00025295850562307386,0.0010448486470524666,-0.000489063918938596,-6.06997673370496e-06,-3.48610381970818e-05,0.00040203558864392215,0.0,0.0,0.0,0.0,0.0,0.0,0.0,7.004675112254333e-05,3.7621113291974595e-05,-5.89533708904022e-05,-4.0214696727991495e-05,1.3450534053133234e-05,-0.00012928623209562673,-9.508486147336015e-06,-8.423835312976614e-05,0.00025295850562307386,-0.0010448486470524666,0.000489063918938596,6.06997673370496e-06,3.48610381970818e-05,-0.00040203558864392215,0.6053096652030945,46.54800033569336,5.588284015655518,-19.559053421020508,-0.7784934639930725,-2.3724398612976074,0.19351522624492645,0
22,0.10487771034240723,-0.6053096652030945,-46.54800033569336,-5.588284015655518,19.559053421020508,0.7784934639930725,2.3724398612976074,-0.19351522624492645,0.0,0.0,0.0,0.0,0.0,0.0,0.0,-0.6530675770136372,-0.2468544735780325,-0.4011260889991517,0.3306495824508121,0.19071314598917746,0.10531683581975956,-0.18438767889955587,0.8780228293193014,0.7554221283176489,-0.2824963117984303,-1.6690591467639855,0.14140514498317747,2.403574403599734,1.0273476087169515,0.878092876070424,0.7554597494309409,-0.2825552651693207,-1.6690993614607135,0.1414185955172306,2.4034451173676383,1.0273381002308042,8.423835312976614e-05,-0.00025295850562307386,0.0010448486470524666,-0.000489063918938596,-6.06997673370496e-06,-3.48610381970818e-05,0.00040203558864392215,0.0,0.0,0.0,0.0,0.0,0.0,0.0,7.004675112254333e-05,3.7621113291974595e-05,-5.89533708904022e-05,-4.0214696727991495e-05,1.3450534053133234e-05,-0.00012928623209562673,-9.508486147336015e-06,-8.423835312976614e-05,0.00025295850562307386,-0.0010448486470524666,0.000489063918938596,6.06997673370496e-06,3.48610381970818e-05,-0.00040203558864392215,0.6053096652030945,46.54800033569336,5.588284015655518,-19.559053421020508,-0.7784934639930725,-2.3724398612976074,0.19351522624492645,0
23,0.10987091064453125,-0.6053096652030945,-46.52419662475586,-5.564480304718018,19.559053421020508,0.7784934639930725,2.3724398612976074,-0.20083944499492645,0.0,0.0,0.0,0.0,0.0,0.0,0.0,-0.6525452564696104,-0.22571570528600604,-0.40196453345790856,0.3201616040141571,0.1909686142851317,0.10327013898406169,-0.18407506068633503,0.8780228293193014,0.7554204578817937,-0.28249798223428557,-1.6690591467639855,0.14140411038550438,2.403570895531626,1.0273484225190348,0.878092876070424,0.7554597494309409,-0.2825552651693207,-1.6690993614607135,0.1414185955172306,2.4034451173676383,1.0273381002308042,-0.0002538815205054988,-0.0006489912785368523,-2.3045964829727967e-05,-0.0007041560900529201,-0.00020216663314846217,2.1636955826655062e-05,0.00030529123003024465,0.0,0.0,0.0,0.0,0.0,0.0,0.0,7.004675112254333e-05,3.9291549147169036e-05,-5.728293503515225e-05,-4.0214696727991495e-05,1.448513172622179e-05,-0.0001257781639876221,-1.0322288230613097e-05,0.0002538815205054988,0.0006489912785368523,2.3045964829727967e-05,0.0007041560900529201,0.00020216663314846217,-2.1636955826655062e-05,-0.00030529123003024465,0.6053096652030945,46.52419662475586,5.564480304718018,-19.559053421020508,-0.7784934639930725,-2.3724398612976074,0.20083944499492645,0
24,0.11564397811889648,-0.6053096652030945,-46.52419662475586,-5.564480304718018,19.559053421020508,0.7784934639930725,2.3724398612976074,-0.20083944499492645,0.0,0.0,0.0,0.0,0.0,0.0,0.0,-0.6525452564696104,-0.22571570528600604,-0.40196453345790856,0.3201616040141571,0.1909686142851317,0.10327013898406169,-0.18407506068633503,0.8780228293193014,0.7554204578817937,-0.28249798223428557,-1.6690591467639855,0.14140411038550438,2.403570895531626,1.0273484225190348,0.878092876070424,0.7554597494309409,-0.2825552651693207,-1.6690993614607135,0.1414185955172306,2.4034451173676383,1.0273381002308042,-0.0002538815205054988,-0.0006489912785368523,-2.3045964829727967e-05,-0.0007041560900529201,-0.00020216663314846217,2.1636955826655062e-05,0.00030529123003024465,0.0,0.0,0.0,0.0,0.0,0.0,0.0,7.004675112254333e-05,3.9291549147169036e-05,-5.728293503515225e-05,-4.0214696727991495e-05,1.448513172622179e-05,-0.0001257781639876221,-1.0322288230613097e-05,0.0002538815205054988,0.0006489912785368523,2.3045964829727967e-05,0.0007041560900529201,0.00020216663314846217,-2.1636955826655062e-05,-0.00030529123003024465,0.6053096652030945,46.52419662475586,5.564480304718018,-19.559053421020508,-0.7784934639930725,-2.3724398612976074,0.20083944499492645,0
25,0.11989092826843262,-0.6568843722343445,-46.57577133178711,-5.564480304718018,19.511445999145508,0.7665916085243225,2.3660311698913574,-0.17978231608867645,0.0,0.0,0.0,0.0,0.0,0.0,0.0,-0.6324227813636787,-0.23731599343662282,-0.39017720316062476,0.3290518683473534,0.1903866349662886,0.10448696537462408,-0.18488207519020297,0.8780264485969879,0.7554248051701207,-0.28250008858605996,-1.6690558058922749,0.14140857769775353,2.4035751193660397,1.0273460828380452,0.878092876070424,0.7554597494309409,-0.2825552651693207,-1.6690993614607135,0.1414185955172306,2.4034451173676383,1.0273381002308042,0.0009692957478767898,-0.00020386936950891204,0.0006024098080999792,0.0009805684442173391,0.0003642066305758158,0.0003334747805589642,-0.00021156667206450328,0.0,0.0,0.0,0.0,0.0,0.0,0.0,6.642747343610367e-05,3.4944260820179984e-05,-5.5176583260763135e-05,-4.355556843860242e-05,1.0017819477070589e-05,-0.0001300019984014078,-7.982607240997197e-06,-0.0009692957478767898,0.00020386936950891204,-0.0006024098080999792,-0.0009805684442173391,-0.0003642066305758158,-0.0003334747805589642,0.00021156667206450328,0.6568843722343445,46.57577133178711,5.564480304718018,-19.511445999145508,-0.7665916085243225,-2.3660311698913574,0.17978231608867645,0
26,0.1248631477355957,-0.6568843722343445,-46.57577133178711,-5.564480304718018,19.511445999145508,0.7665916085243225,2.3660311698913574,-0.17978231608867645,0.0,0.0,0.0,0.0,0.0,0.0,0.0,-0.6324227813636787,-0.23731599343662282,-0.39017720316062476,0.3290518683473534,0.1903866349662886,0.10448696537462408,-0.18488207519020297,0.8780264485969879,0.7554248051701207,-0.28250008858605996,-1.6690558058922749,0.14140857769775353,2.4035751193660397,1.0273460828380452,0.878092876070424,0.7554597494309409,-0.2825552651693207,-1.6690993614607135,0.1414185955172306,2.4034451173676383,1.0273381002308042,0.0009692957478767898,-0.00020386936950891204,0.0006024098080999792,0.0009805684442173391,0.0003642066305758158,0.0003334747805589642,-0.00021156667206450328,0.0,0.0,0.0,0.0,0.0,0.0,0.0,6.642747343610367e-05,3.4944260820179984e-05,-5.5176583260763135e-05,-4.355556843860242e-05,1.0017819477070589e-05,-0.0001300019984014078,-7.982607240997197e-06,-0.0009692957478767898,0.00020386936950891204,-0.0006024098080999792,-0.0009805684442173391,-0.0003642066305758158,-0.0003334747805589642,0.00021156667206450328,0.6568843722343445,46.57577133178711,5.564480304718018,-19.511445999145508,-0.7665916085243225,-2.3660311698913574,0.17978231608867645,0
27,0.12986350059509277,-0.7322627902030945,-46.57577133178711,-5.612087726593018,19.535249710083008,0.7730002999305725,2.3660311698913574,-0.19351522624492645,0.0,0.0,0.0,0.0,0.0,0.0,0.0,-0.6500337878430874,-0.22776333064423912,-0.4011013238628821,0.32201057265575306,0.19025370321009227,0.10408693293489786,-0.18452066399875267,0.8780317383105295,0.7554247791738503,-0.2824946413744655,-1.66905747632813,0.14140468116446586,2.403576044328337,1.0273476087169515,0.878092876070424,0.7554597494309409,-0.2825552651693207,-1.6690993614607135,0.1414185955172306,2.4034451173676383,1.0273381002308042,0.001756502396274916,0.00028762708803564343,0.0010719690519857537,-0.00024834701600554904,-1.5446854505941748e-05,0.00019646299060926663,0.00045779359005537203,0.0,0.0,0.0,0.0,0.0,0.0,0.0,6.113775989446957e-05,3.497025709053858e-05,-6.062379485521907e-05,-4.188513258340798e-05,1.3914352764737847e-05,-0.00013092696069882948,-9.508486147336015e-06,-0.001756502396274916,-0.00028762708803564343,-0.0010719690519857537,0.00024834701600554904,1.5446854505941748e-05,-0.00019646299060926663,-0.00045779359005537203,0.7322627902030945,46.57577133178711,5.612087726593018,-19.535249710083008,-0.7730002999305725,-2.3660311698913574,0.19351522624492645,0
28,0.13486742973327637,-0.7322627902030945,-46.57577133178711,-5.612087726593018,19.535249710083008,0.7730002999305725,2.3660311698913574,-0.19351522624492645,0.0,0.0,0.0,0.0,0.0,0.0,0.0,-0.6500337878430874,-0.22776333064423912,-0.4011013238628821,0.32201057265575306,0.19025370321009227,0.10408693293489786,-0.18452066399875267,0.8780317383105295,0.7554247791738503,-0.2824946413744655,-1.66905747632813,0.14140468116446586,2.403576044328337,1.0273476087169515,0.878092876070424,0.7554597494309409,-0.2825552651693207,-1.6690993614607135,0.1414185955172306,2.4034451173676383,1.0273381002308042,0.001756502396274916,0.00028762708803564343,0.0010719690519857537,-0.00024834701600554904,-1.5446854505941748e-05,0.00019646299060926663,0.00045779359005537203,0.0,0.0,0.0,0.0,0.0,0.0,0.0,6.113775989446957e-05,3.497025709053858e-05,-6.062379485521907e-05,-4.188513258340798e-05,1.3914352764737847e-05,-0.00013092696069882948,-9.508486147336015e-06,-0.001756502396274916,-0.00028762708803564343,-0.0010719690519857537,0.00024834701600554904,1.5446854505941748e-05,-0.00019646299060926663,-0.00045779359005537203,0.7322627902030945,46.57577133178711,5.612087726593018,-19.535249710083008,-0.7730002999305725,-2.3660311698913574,0.19351522624492645,0
29,0.1398906707763672,-0.7322627902030945,-46.57577133178711,-5.612087726593018,19.535249710083008,0.7730002999305725,2.3660311698913574,-0.19351522624492645,0.0,0.0,0.0,0.0,0.0,0.0,0.0,-0.6500337878430874,-0.22776333064423912,-0.4011013238628821,0.32201057265575306,0.19025370321009227,0.10408693293489786,-0.18452066399875267,0.8780317383105295,0.7554247791738503,-0.2824946413744655,-1.66905747632813,0.14140468116446586,2.403576044328337,1.0273476087169515,0.878092876070424,0.7554597494309409,-0.2825552651693207,-1.6690993614607135,0.1414185955172306,2.4034451173676383,1.0273381002308042,0.001756502396274916,0.00028762708803564343,0.0010719690519857537,-0.00024834701600554904,-1.5446854505941748e-05,0.00019646299060926663,0.00045779359005537203,0.0,0.0,0.0,0.0,0.0,0.0,0.0,6.113775989446957e-05,3.497025709053858e-05,-6.062379485521907e-05,-4.188513258340798e-05,1.3914352764737847e-05,-0.00013092696069882948,-9.508486147336015e-06,-0.001756502396274916,-0.00028762708803564343,-0.0010719690519857537,0.00024834701600554904,1.5446854505941748e-05,-0.00019646299060926663,-0.00045779359005537203,0.7322627902030945,46.57577133178711,5.612087726593018,-19.535249710083008,-0.7730002999305725,-2.3660311698913574,0.19351522624492645,0
30,0.1448807716369629,-0.7322627902030945,-46.57577133178711,-5.612087726593018,19.535249710083008,0.7730002999305725,2.3660311698913574,-0.19351522624492645,0.0,0.0,0.0,0.0,0.0,0.0,0.0,-0.6500337878430874,-0.22776333064423912,-0.4011013238628821,0.32201057265575306,0.19025370321009227,0.10408693293489786,-0.18452066399875267,0.8780317383105295,0.7554247791738503,-0.2824946413744655,-1.66905747632813,0.14140468116446586,2.403576044328337,1.0273476087169515,0.878092876070424,0.7554597494309409,-0.2825552651693207,-1.6690993614607135,0.1414185955172306,2.4034451173676383,1.0273381002308042,0.001756502396274916,0.00028762708803564343,0.0010719690519857537,-0.00024834701600554904,-1.5446854505941748e-05,0.00019646299060926663,0.00045779359005537203,0.0,0.0,0.0,0.0,0.0,0.0,0.0,6.113775989446957e-05,3.497025709053858e-05,-6.062379485521907e-05,-4.188513258340798e-05,1.3914352764737847e-05,-0.00013092696069882948,-9.508486147336015e-06,-0.001756502396274916,-0.00028762708803564343,-0.0010719690519857537,0.00024834701600554904,1.5446854505941748e-05,-0.00019646299060926663,-0.00045779359005537203,0.7322627902030945,46.57577133178711,5.612087726593018,-19.535249710083008,-0.7730002999305725,-2.3660311698913574,0.19351522624492645,0
31,0.14986729621887207,-0.7322627902030945,-46.57577133178711,-5.612087726593018,19.535249710083008,0.7730002999305725,2.3660311698913574,-0.19351522624492645,0.0,0.0,0.0,0.0,0.0,0.0,0.0,-0.6500337878430874,-0.22776333064423912,-0.4011013238628821,0.32201057265575306,0.19025370321009227,0.10408693293489786,-0.18452066399875267,0.8780317383105295,0.7554247791738503,-0.2824946413744655,-1.66905747632813,0.14140468116446586,2.403576044328337,1.0273476087169515,0.878092876070424,0.7554597494309409,-0.2825552651693207,-1.6690993614607135,0.1414185955172306,2.4034451173676383,1.0273381002308042,0.001756502396274916,0.00028762708803564343,0.0010719690519857537,-0.00024834701600554904,-1.5446854505941748e-05,0.00019646299060926663,0.00045779359005537203,0.0,0.0,0.0,0.0,0.0,0.0,0.0,6.113775989446957e-05,3.497025709053858e-05,-6.062379485521907e-05,-4.188513258340798e-05,1.3914352764737847e-05,-0.00013092696069882948,-9.508486147336015e-06,-0.001756502396274916,-0.00028762708803564343,-0.0010719690519857537,0.00024834701600554904,1.5446854505941748e-05,-0.00019646299060926663,-0.00045779359005537203,0.7322627902030945,46.57577133178711,5.612087726593018,-19.535249710083008,-0.7730002999305725,-2.3660311698913574,0.19351522624492645,0
32,0.15486836433410645,-0.7322627902030945,-46.57577133178711,-5.612087726593018,19.535249710083008,0.7730002999305725,2.3660311698913574,-0.19351522624492645,0.0,0.0,0.0,0.0,0.0,0.0,0.0,-0.6500337878430874,-0.22776333064423912,-0.4011013238628821,0.32201057265575306,0.19025370321009227,0.10408693293489786,-0.18452066399875267,0.8780317383105295,0.7554247791738503,-0.2824946413744655,-1.66905747632813,0.14140468116446586,2.403576044328337,1.0273476087169515,0.878092876070424,0.7554597494309409,-0.2825552651693207,-1.6690993614607135,0.1414185955172306,2.4034451173676383,1.0273381002308042,0.001756502396274916,0.00028762708803564343,0.0010719690519857537,-0.00024834701600554904,-1.5446854505941748e-05,0.00019646299060926663,0.00045779359005537203,0.0,0.0,0.0,0.0,0.0,0.0,0.0,6.113775989446957e-05,3.497025709053858e-05,-6.062379485521907e-05,-4.188513258340798e-05,1.3914352764737847e-05,-0.00013092696069882948,-9.508486147336015e-06,-0.001756502396274916,-0.00028762708803564343,-0.0010719690519857537,0.00024834701600554904,1.5446854505941748e-05,-0.00019646299060926663,-0.00045779359005537203,0.7322627902030945,46.57577133178711,5.612087726593018,-19.535249710083008,-0.7730002999305725,-2.3660311698913574,0.19351522624492645,0
33,0.15987753868103027,-0.7322627902030945,-46.57577133178711,-5.612087726593018,19.535249710083008,0.7730002999305725,2.3660311698913574,-0.19351522624492645,0.0,0.0,0.0,0.0,0.0,0.0,0.0,-0.6500337878430874,-0.22776333064423912,-0.4011013238628821,0.32201057265575306,0.19025370321009227,0.10408693293489786,-0.18452066399875267,0.8780317383105295,0.7554247791738503,-0.2824946413744655,-1.66905747632813,0.14140468116446586,2.403576044328337,1.0273476087169515,0.878092876070424,0.7554597494309409,-0.2825552651693207,-1.6690993614607135,0.1414185955172306,2.4034451173676383,1.0273381002308042,0.001756502396274916,0.00028762708803564343,0.0010719690519857537,-0.00024834701600554904,-1.5446854505941748e-05,0.00019646299060926663,0.00045779359005537203,0.0,0.0,0.0,0.0,0.0,0.0,0.0,6.113775989446957e-05,3.497025709053858e-05,-6.062379485521907e-05,-4.188513258340798e-05,1.3914352764737847e-05,-0.00013092696069882948,-9.508486147336015e-06,-0.001756502396274916,-0.00028762708803564343,-0.0010719690519857537,0.00024834701600554904,1.5446854505941748e-05,-0.00019646299060926663,-0.00045779359005537203,0.7322627902030945,46.57577133178711,5.612087726593018,-19.535249710083008,-0.7730002999305725,-2.3660311698913574,0.19351522624492645,0
34,0.1648108959197998,-0.6806880831718445,-46.57577133178711,-5.588284015655518,19.535249710083008,0.7665916085243225,2.3788485527038574,-0.15231649577617645,0.0,0.0,0.0,0.0,0.0,0.0,0.0,-0.6427720212065525,-0.23334587071025262,-0.38824043527063584,0.32598166739912204,0.19055567639769305,0.10405379109496352,-0.18615126756169684,0.8780281190328431,0.755424077278366,-0.2824963898352364,-1.6690574772729376,0.14140587317175707,2.4035712610001108,1.0273430310822764,0.878092876070424,0.7554597494309409,-0.2825552651693207,-1.6690993614607135,0.1414185955172306,2.4034451173676383,1.0273381002308042,0.00027321377568508785,0.0007124785437079812,0.00043260849961187007,0.0003477725074846989,0.00048037193498461013,-0.00028198776333826357,-0.0015908523438197381,0.0,0.0,0.0,0.0,0.0,0.0,0.0,6.475703758090923e-05,3.567215257482825e-05,-5.8875334084329545e-05,-4.188418777584246e-05,1.272234547353146e-05,-0.00012614363247243077,-4.93085147224015e-06,-0.00027321377568508785,-0.0007124785437079812,-0.00043260849961187007,-0.0003477725074846989,-0.00048037193498461013,0.00028198776333826357,0.0015908523438197381,0.6806880831718445,46.57577133178711,5.588284015655518,-19.535249710083008,-0.7665916085243225,-2.3788485527038574,0.15231649577617645,0
35,0.16986584663391113,-0.6806880831718445,-46.57577133178711,-5.588284015655518,19.535249710083008,0.7665916085243225,2.3788485527038574,-0.15231649577617645,0.0,0.0,0.0,0.0,0.0,0.0,0.0,-0.6427720212065525,-0.23334587071025262,-0.38824043527063584,0.32598166739912204,0.19055567639769305,0.10405379109496352,-0.18615126756169684,0.8780281190328431,0.755424077278366,-0.2824963898352364,-1.6690574772729376,0.14140587317175707,2.4035712610001108,1.0273430310822764,0.878092876070424,0.7554597494309409,-0.2825552651693207,-1.6690993614607135,0.1414185955172306,2.4034451173676383,1.0273381002308042,0.00027321377568508785,0.0007124785437079812,0.00043260849961187007,0.0003477725074846989,0.00048037193498461013,-0.00028198776333826357,-0.0015908523438197381,0.0,0.0,0.0,0.0,0.0,0.0,0.0,6.475703758090923e-05,3.567215257482825e-05,-5.8875334084329545e-05,-4.188418777584246e-05,1.272234547353146e-05,-0.00012614363247243077,-4.93085147224015e-06,-0.00027321377568508785,-0.0007124785437079812,-0.00043260849961187007,-0.0003477725074846989,-0.00048037193498461013,0.00028198776333826357,0.0015908523438197381,0.6806880831718445,46.57577133178711,5.588284015655518,-19.535249710083008,-0.7665916085243225,-2.3788485527038574,0.15231649577617645,0
36,0.17489171028137207,-0.6568843722343445,-46.54800033569336,-5.612087726593018,19.535249710083008,0.7849021553993225,2.3724398612976074,-0.22098104655742645,0.0,0.0,0.0,0.0,0.0,0.0,0.0,-0.6627173964518847,-0.229610112670278,-0.3996990608093568,0.32431894251462745,0.19090840991237074,0.10332642629742901,-0.1866210792985899,0.8780264485969879,0.7554221283176495,-0.2824946413630156,-1.6690574763281354,0.14140690010369514,2.4035739702611925,1.0273517466038464,0.878092876070424,0.7554597494309409,-0.2825552651693207,-1.6690993614607135,0.1414185955172306,2.4034451173676383,1.0273381002308042,-0.00044675241762866133,-0.0003762809532787993,0.00038914999910169166,-0.00013565150859359308,-0.0005156474654660363,-6.552513407676071e-05,0.0014280067595630495,0.0,0.0,0.0,0.0,0.0,0.0,0.0,6.642747343610367e-05,3.762111329130846e-05,-6.062380630511566e-05,-4.188513257807891e-05,1.1695413535461885e-05,-0.0001288528935541322,-1.3646373042242033e-05,0.00044675241762866133,0.0003762809532787993,-0.00038914999910169166,0.00013565150859359308,0.0005156474654660363,6.552513407676071e-05,-0.0014280067595630495,0.6568843722343445,46.54800033569336,5.612087726593018,-19.535249710083008,-0.7849021553993225,-2.3724398612976074,0.22098104655742645,0
37,0.17986679077148438,-0.6568843722343445,-46.54800033569336,-5.612087726593018,19.535249710083008,0.7849021553993225,2.3724398612976074,-0.22098104655742645,0.0,0.0,0.0,0.0,0.0,0.0,0.0,-0.6627173964518847,-0.229610112670278,-0.3996990608093568,0.32431894251462745,0.19090840991237074,0.10332642629742901,-0.1866210792985899,0.8780264485969879,0.7554221283176495,-0.2824946413630156,-1.6690574763281354,0.14140690010369514,2.4035739702611925,1.0273517466038464,0.878092876070424,0.7554597494309409,-0.2825552651693207,-1.6690993614607135,0.1414185955172306,2.4034451173676383,1.0273381002308042,-0.00044675241762866133,-0.0003762809532787993,0.00038914999910169166,-0.00013565150859359308,-0.0005156474654660363,-6.552513407676071e-05,0.0014280067595630495,0.0,0.0,0.0,0.0,0.0,0.0,0.0,6.642747343610367e-05,3.762111329130846e-05,-6.062380630511566e-05,-4.188513257807891e-05,1.1695413535461885e-05,-0.0001288528935541322,-1.3646373042242033e-05,0.00044675241762866133,0.0003762809532787993,-0.00038914999910169166,0.00013565150859359308,0.0005156474654660363,6.552513407676071e-05,-0.0014280067595630495,0.6568843722343445,46.54800033569336,5.612087726593018,-19.535249710083008,-0.7849021553993225,-2.3724398612976074,0.22098104655742645,0
38,0.18488097190856934,-0.6568843722343445,-46.54800033569336,-5.588284015655518,19.535249710083008,0.7784934639930725,2.3724398612976074,-0.17337362468242645,0.0,0.0,0.0,0.0,0.0,0.0,0.0,-0.6487898026052975,-0.23320498423109096,-0.3942047034223835,0.32960364831567035,0.19037927291863965,0.10337972672035185,-0.18678093384562447,0.8780264485969879,0.7554221283176489,-0.2824963117984303,-1.66905747632813,0.141407770211834,2.40357502964142,1.0273453707673537,0.878092876070424,0.7554597494309409,-0.2825552651693207,-1.6690993614607135,0.1414185955172306,2.4034451173676383,1.0273381002308042,0.00010171084484777677,-0.00044571010977230614,0.00019870280409662596,-7.508955152587792e-06,-0.00016809693707564355,-0.0001421543113770252,-0.00018746673770235237,0.0,0.0,0.0,0.0,0.0,0.0,0.0,6.642747343610367e-05,3.7621113291974595e-05,-5.89533708904022e-05,-4.188513258340798e-05,1.0825305396588991e-05,-0.0001299122737816738,-7.270536549475182e-06,-0.00010171084484777677,0.00044571010977230614,-0.00019870280409662596,7.508955152587792e-06,0.00016809693707564355,0.0001421543113770252,0.00018746673770235237,0.6568843722343445,46.54800033569336,5.588284015655518,-19.535249710083008,-0.7784934639930725,-2.3724398612976074,0.17337362468242645,0
39,0.18981671333312988,-0.6568843722343445,-46.54800033569336,-5.588284015655518,19.535249710083008,0.7784934639930725,2.3724398612976074,-0.17337362468242645,0.0,0.0,0.0,0.0,0.0,0.0,0.0,-0.6487898026052975,-0.23320498423109096,-0.3942047034223835,0.32960364831567035,0.19037927291863965,0.10337972672035185,-0.18678093384562447,0.8780264485969879,0.7554221283176489,-0.2824963117984303,-1.66905747632813,0.141407770211834,2.40357502964142,1.0273453707673537,0.878092876070424,0.7554597494309409,-0.2825552651693207,-1.6690993614607135,0.1414185955172306,2.4034451173676383,1.0273381002308042,0.00010171084484777677,-0.00044571010977230614,0.00019870280409662596,-7.508955152587792e-06,-0.00016809693707564355,-0.0001421543113770252,-0.00018746673770235237,0.0,0.0,0.0,0.0,0.0,0.0,0.0,6.642747343610367e-05,3.7621113291974595e-05,-5.89533708904022e-05,-4.188513258340798e-05,1.0825305396588991e-05,-0.0001299122737816738,-7.270536549475182e-06,-0.00010171084484777677,0.00044571010977230614,-0.00019870280409662596,7.508955152587792e-06,0.00016809693707564355,0.0001421543113770252,0.00018746673770235237,0.6568843722343445,46.54800033569336,5.588284015655518,-19.535249710083008,-0.7784934639930725,-2.3724398612976074,0.17337362468242645,0
40,0.194868803024292,-0.6053096652030945,-46.52419662475586,-5.536709308624268,19.535249710083008,0.7730002999305725,2.3596224784851074,-0.17978231608867645,0.0,0.0,0.0,0.0,0.0,0.0,0.0,-0.6516855670340568,-0.22157547927119864,-0.3969428464953507,0.3244613208338444,0.19052837398821226,0.10257119865628565,-0.18590182870629327,0.8780228293193014,0.7554204578817937,-0.28249993428604014,-1.66905747632813,0.14140800075817048,2.4035736207777814,1.0273461230650482,0.878092876070424,0.7554597494309409,-0.2825552651693207,-1.6690993614607135,0.1414185955172306,2.4034451173676383,1.0273381002308042,-0.0008265313228967238,-0.00040749127985954364,-0.0005917634705013896,-5.960127822470291e-07,0.00019308416607190593,0.00031670429708000194,-0.00046301207440837655,0.0,0.0,0.0,0.0,0.0,0.0,0.0,7.004675112254333e-05,3.9291549147169036e-05,-5.533088328057989e-05,-4.188513258340798e-05,1.0594759060122971e-05,-0.00012850341014303268,-8.02283424405914e-06,0.0008265313228967238,0.00040749127985954364,0.0005917634705013896,5.960127822470291e-07,-0.00019308416607190593,-0.00031670429708000194,0.00046301207440837655,0.6053096652030945,46.52419662475586,5.536709308624268,-19.535249710083008,-0.7730002999305725,-2.3596224784851074,0.17978231608867645,0
41,0.19986653327941895,-0.6053096652030945,-46.52419662475586,-5.536709308624268,19.535249710083008,0.7730002999305725,2.3596224784851074,-0.17978231608867645,0.0,0.0,0.0,0.0,0.0,0.0,0.0,-0.6516855670340568,-0.22157547927119864,-0.3969428464953507,0.3244613208338444,0.19052837398821226,0.10257119865628565,-0.18590182870629327,0.8780228293193014,0.7554204578817937,-0.28249993428604014,-1.66905747632813,0.14140800075817048,2.4035736207777814,1.0273461230650482,0.878092876070424,0.7554597494309409,-0.2825552651693207,-1.6690993614607135,0.1414185955172306,2.4034451173676383,1.0273381002308042,-0.0008265313228967238,-0.00040749127985954364,-0.0005917634705013896,-5.960127822470291e-07,0.00019308416607190593,0.00031670429708000194,-0.00046301207440837655,0.0,0.0,0.0,0.0,0.0,0.0,0.0,7.004675112254333e-05,3.9291549147169036e-05,-5.533088328057989e-05,-4.188513258340798e-05,1.0594759060122971e-05,-0.00012850341014303268,-8.02283424405914e-06,0.0008265313228967238,0.00040749127985954364,0.0005917634705013896,5.960127822470291e-07,-0.00019308416607190593,-0.00031670429708000194,0.00046301207440837655,0.6053096652030945,46.52419662475586,5.536709308624268,-19.535249710083008,-0.7730002999305725,-2.3596224784851074,0.17978231608867645,0
42,0.2048637866973877,-0.6568843722343445,-46.52419662475586,-5.564480304718018,19.487642288208008,0.7784934639930725,2.3788485527038574,-0.17978231608867645,0.0,0.0,0.0,0.0,0.0,0.0,0.0,-0.6512714778303693,-0.22496713014139003,-0.39699962122617655,0.3263948482417875,0.19045206736786513,0.10199126740518023,-0.1853522084107936,0.8780264485969879,0.7554204588447707,-0.2824980111236511,-1.6690541354564197,0.1414056018484362,2.403574618725124,1.0273460828387264,0.878092876070424,0.7554597494309409,-0.2825552651693207,-1.6690993614607135,0.1414185955172306,2.4034451173676383,1.0273381002308042,0.0007350841400372181,-0.0007266296785894042,0.00038806086921437227,0.0007872059112131007,-0.00018272328390906767,-0.0003569470636771381,-0.00032534344791819105,0.0,0.0,0.0,0.0,0.0,0.0,0.0,6.642747343610367e-05,3.929058617013759e-05,-5.725404566964132e-05,-4.522600429379686e-05,1.2993668794397673e-05,-0.000129501357485573,-7.982607922230045e-06,-0.0007350841400372181,0.0007266296785894042,-0.00038806086921437227,-0.0007872059112131007,0.00018272328390906767,0.0003569470636771381,0.00032534344791819105,0.6568843722343445,46.52419662475586,5.564480304718018,-19.487642288208008,-0.7784934639930725,-2.3788485527038574,0.17978231608867645,0
43,0.20987510681152344,-0.6568843722343445,-46.52419662475586,-5.564480304718018,19.487642288208008,0.7784934639930725,2.3788485527038574,-0.17978231608867645,0.0,0.0,0.0,0.0,0.0,0.0,0.0,-0.6512714778303693,-0.22496713014139003,-0.39699962122617655,0.3263948482417875,0.19045206736786513,0.10199126740518023,-0.1853522084107936,0.8780264485969879,0.7554204588447707,-0.2824980111236511,-1.6690541354564197,0.1414056018484362,2.403574618725124,1.0273460828387264,0.878092876070424,0.7554597494309409,-0.2825552651693207,-1.6690993614607135,0.1414185955172306,2.4034451173676383,1.0273381002308042,0.0007350841400372181,-0.0007266296785894042,0.00038806086921437227,0.0007872059112131007,-0.00018272328390906767,-0.0003569470636771381,-0.00032534344791819105,0.0,0.0,0.0,0.0,0.0,0.0,0.0,6.642747343610367e-05,3.929058617013759e-05,-5.725404566964132e-05,-4.522600429379686e-05,1.2993668794397673e-05,-0.000129501357485573,-7.982607922230045e-06,-0.0007350841400372181,0.0007266296785894042,-0.00038806086921437227,-0.0007872059112131007,0.00018272328390906767,0.0003569470636771381,0.00032534344791819105,0.6568843722343445,46.52419662475586,5.564480304718018,-19.487642288208008,-0.7784934639930725,-2.3788485527038574,0.17978231608867645,0
44,0.21488404273986816,-0.6053096652030945,-46.54800033569336,-5.536709308624268,19.535249710083008,0.7730002999305725,2.3660311698913574,-0.20083944499492645,0.0,0.0,0.0,0.0,0.0,0.0,0.0,-0.6483747316193588,-0.23119307402615358,-0.39610484656999195,0.32904920672748533,0.19051770279277686,0.1032497427275451,-0.18557775964114795,0.8780228293193014,0.7554221283295393,-0.28249993107617105,-1.66905747632813,0.14140468996990668,2.4035715690145114,1.0273484225190348,0.878092876070424,0.7554597494309409,-0.2825552651693207,-1.6690993614607135,0.1414185955172306,2.4034451173676383,1.0273381002308042,-0.0006012409446241274,0.00022130236160972647,-0.0005243622526122341,-0.0001857822927653554,4.588703106064479e-05,0.00014011686743681977,0.000553802106330622,0.0,0.0,0.0,0.0,0.0,0.0,0.0,7.004675112254333e-05,3.7621101401597024e-05,-5.5334093149672636e-05,-4.188513258340798e-05,1.3905547323916911e-05,-0.00012645164687308252,-1.0322288230613097e-05,0.0006012409446241274,-0.00022130236160972647,0.0005243622526122341,0.0001857822927653554,-4.588703106064479e-05,-0.00014011686743681977,-0.000553802106330622,0.6053096652030945,46.54800033569336,5.536709308624268,-19.535249710083008,-0.7730002999305725,-2.3660311698913574,0.20083944499492645,0
45,0.21988391876220703,-0.6053096652030945,-46.54800033569336,-5.536709308624268,19.535249710083008,0.7730002999305725,2.3660311698913574,-0.20083944499492645,0.0,0.0,0.0,0.0,0.0,0.0,0.0,-0.6483747316193588,-0.23119307402615358,-0.39610484656999195,0.32904920672748533,0.19051770279277686,0.1032497427275451,-0.18557775964114795,0.8780228293193014,0.7554221283295393,-0.28249993107617105,-1.66905747632813,0.14140468996990668,2.4035715690145114,1.0273484225190348,0.878092876070424,0.7554597494309409,-0.2825552651693207,-1.6690993614607135,0.1414185955172306,2.4034451173676383,1.0273381002308042,-0.0006012409446241274,0.00022130236160972647,-0.0005243622526122341,-0.0001857822927653554,4.588703106064479e-05,0.00014011686743681977,0.000553802106330622,0.0,0.0,0.0,0.0,0.0,0.0,0.0,7.004675112254333e-05,3.7621101401597024e-05,-5.5334093149672636e-05,-4.188513258340798e-05,1.3905547323916911e-05,-0.00012645164687308252,-1.0322288230613097e-05,0.0006012409446241274,-0.00022130236160972647,0.0005243622526122341,0.0001857822927653554,-4.588703106064479e-05,-0.00014011686743681977,-0.000553802106330622,0.6053096652030945,46.54800033569336,5.536709308624268,-19.535249710083008,-0.7730002999305725,-2.3660311698913574,0.20083944499492645,0
46,0.22491025924682617,-0.6291133761405945,-46.57577133178711,-5.612087726593018,19.535249710083008,0.7665916085243225,2.3724398612976074,-0.19351522624492645,0.0,0.0,0.0,0.0,0.0,0.0,0.0,-0.6461415944081591,-0.23934400778302076,-0.3965717946784454,0.33329353207847684,0.1907498975074869,0.1042314807402292,-0.18622601735491712,0.8780244997551566,0.7554247791697407,-0.28249464136257507,-1.66905747632813,0.1414090875979591,2.403571803172981,1.0273476092135811,0.878092876070424,0.7554597494309409,-0.2825552651693207,-1.6690993614607135,0.1414185955172306,2.4034451173676383,1.0273381002308042,-0.00047994266882639983,0.0001063413112251577,0.0014639289967631384,0.0002636412589476059,0.00035527945176579877,1.0495379371429421e-05,0.0006591354416148413,0.0,0.0,0.0,0.0,0.0,0.0,0.0,6.837631526734889e-05,3.497026120014013e-05,-6.0623806745652153e-05,-4.188513258340798e-05,9.507919271511955e-06,-0.00012668580534258567,-9.508982776962327e-06,0.00047994266882639983,-0.0001063413112251577,-0.0014639289967631384,-0.0002636412589476059,-0.00035527945176579877,-1.0495379371429421e-05,-0.0006591354416148413,0.6291133761405945,46.57577133178711,5.612087726593018,-19.535249710083008,-0.7665916085243225,-2.3724398612976074,0.19351522624492645,0
47,0.22991633415222168,-0.6291133761405945,-46.57577133178711,-5.612087726593018,19.535249710083008,0.7665916085243225,2.3724398612976074,-0.19351522624492645,0.0,0.0,0.0,0.0,0.0,0.0,0.0,-0.6461415944081591,-0.23934400778302076,-0.3965717946784454,0.33329353207847684,0.1907498975074869,0.1042314807402292,-0.18622601735491712,0.8780244997551566,0.7554247791697407,-0.28249464136257507,-1.66905747632813,0.1414090875979591,2.403571803172981,1.0273476092135811,0.878092876070424,0.7554597494309409,-0.2825552651693207,-1.6690993614607135,0.1414185955172306,2.4034451173676383,1.0273381002308042,-0.00047994266882639983,0.0001063413112251577,0.0014639289967631384,0.0002636412589476059,0.00035527945176579877,1.0495379371429421e-05,0.0006591354416148413,0.0,0.0,0.0,0.0,0.0,0.0,0.0,6.837631526734889e-05,3.497026120014013e-05,-6.0623806745652153e-05,-4.188513258340798e-05,9.507919271511955e-06,-0.00012668580534258567,-9.508982776962327e-06,0.00047994266882639983,-0.0001063413112251577,-0.0014639289967631384,-0.0002636412589476059,-0.00035527945176579877,-1.0495379371429421e-05,-0.0006591354416148413,0.6291133761405945,46.57577133178711,5.612087726593018,-19.535249710083008,-0.7665916085243225,-2.3724398612976074,0.19351522624492645,0
48,0.234910249710083,-0.6806880831718445,-46.59957504272461,-5.536709308624268,19.535249710083008,0.7784934639930725,2.3724398612976074,-0.15964071452617645,0.0,0.0,0.0,0.0,0.0,0.0,0.0,-0.6376512331280693,-0.2394489774834911,-0.38936586596540984,0.3321311523214254,0.19027936120519703,0.10346784571929518,-0.18625579458219782,0.8780281190328431,0.7554257562660915,-0.2825000090772568,-1.66905747632813,0.14140454339979136,2.4035707842396,1.027343844882319,0.878092876070424,0.7554597494309409,-0.2825552651693207,-1.6690993614607135,0.1414185955172306,2.4034451173676383,1.0273381002308042,0.0010308667980388777,0.00037417715399625537,-0.0006379951863491735,3.322287159910578e-05,-0.0002898924892075408,-0.0002727768713067715,-0.001013657188866567,0.0,0.0,0.0,0.0,0.0,0.0,0.0,6.475703758090923e-05,3.399316484931081e-05,-5.5256092063915574e-05,-4.188513258340798e-05,1.4052117439239398e-05,-0.00012566687196180482,-5.744651514705268e-06,-0.0010308667980388777,-0.00037417715399625537,0.0006379951863491735,-3.322287159910578e-05,0.0002898924892075408,0.0002727768713067715,0.001013657188866567,0.6806880831718445,46.59957504272461,5.536709308624268,-19.535249710083008,-0.7784934639930725,-2.3724398612976074,0.15964071452617645,0
49,0.2398972511291504,-0.6806880831718445,-46.59957504272461,-5.536709308624268,19.535249710083008,0.7784934639930725,2.3724398612976074,-0.15964071452617645,0.0,0.0,0.0,0.0,0.0,0.0,0.0,-0.6376512331280693,-0.2394489774834911,-0.38936586596540984,0.3321311523214254,0.19027936120519703,0.10346784571929518,-0.18625579458219782,0.8780281190328431,0.7554257562660915,-0.2825000090772568,-1.66905747632813,0.14140454339979136,2.4035707842396,1.027343844882319,0.878092876070424,0.7554597494309409,-0.2825552651693207,-1.6690993614607135,0.1414185955172306,2.4034451173676383,1.0273381002308042,0.0010308667980388777,0.00037417715399625537,-0.0006379951863491735,3.322287159910578e-05,-0.0002898924892075408,-0.0002727768713067715,-0.001013657188866567,0.0,0.0,0.0,0.0,0.0,0.0,0.0,6.475703758090923e-05,3.399316484931081e-05,-5.5256092063915574e-05,-4.188513258340798e-05,1.4052117439239398e-05,-0.00012566687196180482,-5.744651514705268e-06,-0.0010308667980388777,-0.00037417715399625537,0.0006379951863491735,-3.322287159910578e-05,0.0002898924892075408,0.0002727768713067715,0.001013657188866567,0.6806880831718445,46.59957504272461,5.536709308624268,-19.535249710083008,-0.7784934639930725,-2.3724398612976074,0.15964071452617645,0
50,0.24486684799194336,-0.6291133761405945,-46.54800033569336,-5.564480304718018,19.535249710083008,0.7849021553993225,2.3724398612976074,-0.22098104655742645,0.0,0.0,0.0,0.0,0.0,0.0,0.0,-0.6381769872443624,-0.23734788590412859,-0.38906002629169095,0.32971630797743584,0.18960249627988318,0.10251572271158847,-0.18545439360036314,0.8780244997551566,0.7554221283176978,-0.28250008826550793,-1.66905747632813,0.1414044211842395,2.4035707954315684,1.027350660474764,0.878092876070424,0.7554597494309409,-0.2825552651693207,-1.6690993614607135,0.1414185955172306,2.4034451173676383,1.0273381002308042,-6.213009961809217e-05,-0.00047026888281489603,-0.00022727867307000232,0.00029359934608230937,-0.0004278375095020612,-0.00011044381919064636,0.0016011387192681856,0.0,0.0,0.0,0.0,0.0,0.0,0.0,6.837631526734889e-05,3.762111324301376e-05,-5.51769038127925e-05,-4.188513258340798e-05,1.4174332991112593e-05,-0.00012567806393004588,-1.2560243959791606e-05,6.213009961809217e-05,0.00047026888281489603,0.00022727867307000232,-0.00029359934608230937,0.0004278375095020612,0.00011044381919064636,-0.0016011387192681856,0.6291133761405945,46.54800033569336,5.564480304718018,-19.535249710083008,-0.7849021553993225,-2.3724398612976074,0.22098104655742645,0
51,0.2500574588775635,-0.6291133761405945,-46.54800033569336,-5.564480304718018,19.535249710083008,0.7849021553993225,2.3724398612976074,-0.22098104655742645,0.0,0.0,0.0,0.0,0.0,0.0,0.0,-0.6381769872443624,-0.23734788590412859,-0.38906002629169095,0.32971630797743584,0.18960249627988318,0.10251572271158847,-0.18545439360036314,0.8780244997551566,0.7554221283176978,-0.28250008826550793,-1.66905747632813,0.1414044211842395,2.4035707954315684,1.027350660474764,0.878092876070424,0.7554597494309409,-0.2825552651693207,-1.6690993614607135,0.1414185955172306,2.4034451173676383,1.0273381002308042,-6.213009961809217e-05,-0.00047026888281489603,-0.00022727867307000232,0.00029359934608230937,-0.0004278375095020612,-0.00011044381919064636,0.0016011387192681856,0.0,0.0,0.0,0.0,0.0,0.0,0.0,6.837631526734889e-05,3.762111324301376e-05,-5.51769038127925e-05,-4.188513258340798e-05,1.4174332991112593e-05,-0.00012567806393004588,-1.2560243959791606e-05,6.213009961809217e-05,0.00047026888281489603,0.00022727867307000232,-0.00029359934608230937,0.0004278375095020612,0.00011044381919064636,-0.0016011387192681856,0.6291133761405945,46.54800033569336,5.564480304718018,-19.535249710083008,-0.7849021553993225,-2.3724398612976074,0.22098104655742645,0
52,0.2548670768737793,-0.6568843722343445,-46.54800033569336,-5.536709308624268,19.511445999145508,0.7849021553993225,2.3660311698913574,-0.15964071452617645,0.0,0.0,0.0,0.0,0.0,0.0,0.0,-0.6493112507954061,-0.23155912616331253,-0.3974392994204638,0.3244936720237158,0.1900397393195597,0.10212236794197439,-0.18564485977699918,0.8780264485969879,0.7554221283176489,-0.28250016509142556,-1.6690558058922749,0.14140347051120025,2.4035714527042265,1.027343844882316,0.878092876070424,0.7554597494309409,-0.2825552651693207,-1.6690993614607135,0.1414185955172306,2.4034451173676383,1.0273381002308042,0.00035463056518989796,-0.00018927742556303757,-0.001006994729350817,0.000571484132167666,-0.00037301301100999343,0.0001956962270592223,-0.0012387416877639122,0.0,0.0,0.0,0.0,0.0,0.0,0.0,6.642747343610367e-05,3.7621113291974595e-05,-5.510007789516491e-05,-4.355556843860242e-05,1.512500603034761e-05,-0.00012633533658812368,-5.744651511818688e-06,-0.00035463056518989796,0.00018927742556303757,0.001006994729350817,-0.000571484132167666,0.00037301301100999343,-0.0001956962270592223,0.0012387416877639122,0.6568843722343445,46.54800033569336,5.536709308624268,-19.511445999145508,-0.7849021553993225,-2.3660311698913574,0.15964071452617645,0
53,0.25982046127319336,-0.6568843722343445,-46.54800033569336,-5.536709308624268,19.511445999145508,0.7849021553993225,2.3660311698913574,-0.15964071452617645,0.0,0.0,0.0,0.0,0.0,0.0,0.0,-0.6493112507954061,-0.23155912616331253,-0.3974392994204638,0.3244936720237158,0.1900397393195597,0.10212236794197439,-0.18564485977699918,0.8780264485969879,0.7554221283176489,-0.28250016509142556,-1.6690558058922749,0.14140347051120025,2.4035714527042265,1.027343844882316,0.878092876070424,0.7554597494309409,-0.2825552651693207,-1.6690993614607135,0.1414185955172306,2.4034451173676383,1.0273381002308042,0.00035463056518989796,-0.00018927742556303757,-0.001006994729350817,0.000571484132167666,-0.00037301301100999343,0.0001956962270592223,-0.0012387416877639122,0.0,0.0,0.0,0.0,0.0,0.0,0.0,6.642747343610367e-05,3.7621113291974595e-05,-5.510007789516491e-05,-4.355556843860242e-05,1.512500603034761e-05,-0.00012633533658812368,-5.744651511818688e-06,-0.00035463056518989796,0.00018927742556303757,0.001006994729350817,-0.000571484132167666,0.00037301301100999343,-0.0001956962270592223,0.0012387416877639122,0.6568843722343445,46.54800033569336,5.536709308624268,-19.511445999145508,-0.7849021553993225,-2.3660311698913574,0.15964071452617645,0
54,0.26487112045288086,-0.6291133761405945,-46.52419662475586,-5.536709308624268,19.535249710083008,0.7665916085243225,2.3724398612976074,-0.20083944499492645,0.0,0.0,0.0,0.0,0.0,0.0,0.0,-0.6464239228981468,-0.22428953001706176,-0.39350006809920096,0.319700454537652,0.19044424539244492,0.10238308431904605,-0.18595252392772918,0.8780244997551566,0.7554204578817937,-0.2824999310774377,-1.66905747632813,0.1414099936680768,2.4035722697619533,1.0273484359280358,0.878092876070424,0.7554597494309409,-0.2825552651693207,-1.6690993614607135,0.1414185955172306,2.4034451173676383,1.0273381002308042,-0.0007028212354365788,-0.00017876175362443328,-0.0007569228666379534,-9.72607576930137e-05,0.00041100070292706217,-0.00013035531320682476,7.433554197321004e-05,0.0,0.0,0.0,0.0,0.0,0.0,0.0,6.837631526734889e-05,3.9291549147169036e-05,-5.533409188301919e-05,-4.188513258340798e-05,8.601849153799801e-06,-0.0001271523943149333,-1.0335697231633745e-05,0.0007028212354365788,0.00017876175362443328,0.0007569228666379534,9.72607576930137e-05,-0.00041100070292706217,0.00013035531320682476,-7.433554197321004e-05,0.6291133761405945,46.52419662475586,5.536709308624268,-19.535249710083008,-0.7665916085243225,-2.3724398612976074,0.20083944499492645,0
55,0.26990628242492676,-0.6291133761405945,-46.52419662475586,-5.536709308624268,19.535249710083008,0.7665916085243225,2.3724398612976074,-0.20083944499492645,0.0,0.0,0.0,0.0,0.0,0.0,0.0,-0.6464239228981468,-0.22428953001706176,-0.39350006809920096,0.319700454537652,0.19044424539244492,0.10238308431904605,-0.18595252392772918,0.8780244997551566,0.7554204578817937,-0.2824999310774377,-1.66905747632813,0.1414099936680768,2.4035722697619533,1.0273484359280358,0.878092876070424,0.7554597494309409,-0.2825552651693207,-1.6690993614607135,0.1414185955172306,2.4034451173676383,1.0273381002308042,-0.0007028212354365788,-0.00017876175362443328,-0.0007569228666379534,-9.72607576930137e-05,0.00041100070292706217,-0.00013035531320682476,7.433554197321004e-05,0.0,0.0,0.0,0.0,0.0,0.0,0.0,6.837631526734889e-05,3.9291549147169036e-05,-5.533409188301919e-05,-4.188513258340798e-05,8.601849153799801e-06,-0.0001271523943149333,-1.0335697231633745e-05,0.0007028212354365788,0.00017876175362443328,0.0007569228666379534,9.72607576930137e-05,-0.00041100070292706217,0.00013035531320682476,-7.433554197321004e-05,0.6291133761405945,46.52419662475586,5.536709308624268,-19.535249710083008,-0.7665916085243225,-2.3724398612976074,0.20083944499492645,0
56,0.27485084533691406,-0.6291133761405945,-46.52419662475586,-5.536709308624268,19.535249710083008,0.7665916085243225,2.3724398612976074,-0.20083944499492645,0.0,0.0,0.0,0.0,0.0,0.0,0.0,-0.6464239228981468,-0.22428953001706176,-0.39350006809920096,0.319700454537652,0.19044424539244492,0.10238308431904605,-0.18595252392772918,0.8780244997551566,0.7554204578817937,-0.2824999310774377,-1.66905747632813,0.1414099936680768,2.4035722697619533,1.0273484359280358,0.878092876070424,0.7554597494309409,-0.2825552651693207,-1.6690993614607135,0.1414185955172306,2.4034451173676383,1.0273381002308042,-0.0007028212354365788,-0.00017876175362443328,-0.0007569228666379534,-9.72607576930137e-05,0.00041100070292706217,-0.00013035531320682476,7.433554197321004e-05,0.0,0.0,0.0,0.0,0.0,0.0,0.0,6.837631526734889e-05,3.9291549147169036e-05,-5.533409188301919e-05,-4.188513258340798e-05,8.601849153799801e-06,-0.0001271523943149333,-1.0335697231633745e-05,0.0007028212354365788,0.00017876175362443328,0.0007569228666379534,9.72607576930137e-05,-0.00041100070292706217,0.00013035531320682476,-7.433554197321004e-05,0.6291133761405945,46.52419662475586,5.536709308624268,-19.535249710083008,-0.7665916085243225,-2.3724398612976074,0.20083944499492645,0
57,0.27982425689697266,-0.6291133761405945,-46.52419662475586,-5.536709308624268,19.535249710083008,0.7665916085243225,2.3724398612976074,-0.20083944499492645,0.0,0.0,0.0,0.0,0.0,0.0,0.0,-0.6464239228981468,-0.22428953001706176,-0.39350006809920096,0.319700454537652,0.19044424539244492,0.10238308431904605,-0.18595252392772918,0.8780244997551566,0.7554204578817937,-0.2824999310774377,-1.66905747632813,0.1414099936680768,2.4035722697619533,1.0273484359280358,0.878092876070424,0.7554597494309409,-0.2825552651693207,-1.6690993614607135,0.1414185955172306,2.4034451173676383,1.0273381002308042,-0.0007028212354365788,-0.00017876175362443328,-0.0007569228666379534,-9.72607576930137e-05,0.00041100070292706217,-0.00013035531320682476,7.433554197321004e-05,0.0,0.0,0.0,0.0,0.0,0.0,0.0,6.837631526734889e-05,3.9291549147169036e-05,-5.533409188301919e-05,-4.188513258340798e-05,8.601849153799801e-06,-0.0001271523943149333,-1.0335697231633745e-05,0.0007028212354365788,0.00017876175362443328,0.0007569228666379534,9.72607576930137e-05,-0.00041100070292706217,0.00013035531320682476,-7.433554197321004e-05,0.6291133761405945,46.52419662475586,5.536709308624268,-19.535249710083008,-0.7665916085243225,-2.3724398612976074,0.20083944499492645,0
58,0.28487730026245117,-0.6291133761405945,-46.54800033569336,-5.564480304718018,19.511445999145508,0.7665916085243225,2.3660311698913574,-0.19351522624492645,0.0,0.0,0.0,0.0,0.0,0.0,0.0,-0.6531252752507684,-0.2296281510616806,-0.3958662494096521,0.322441151518055,0.19074172495141953,0.10309309704796639,-0.18683590481532186,0.8780244997551566,0.7554221283176489,-0.28249798234128304,-1.6690558058922749,0.14140579589885066,2.4035729217673314,1.0273476087170272,0.878092876070424,0.7554597494309409,-0.2825552651693207,-1.6690993614607135,0.1414185955172306,2.4034451173676383,1.0273381002308042,-0.0007257821239015265,0.00010100579434315561,-2.1443121769258032e-05,0.00017217384497773613,0.00020637314715592157,0.00010333865146284071,6.649181811729035e-05,0.0,0.0,0.0,0.0,0.0,0.0,0.0,6.837631526734889e-05,3.7621113291974595e-05,-5.728282803768581e-05,-4.355556843860242e-05,1.2799618379938371e-05,-0.00012780439969306556,-9.508486223053225e-06,0.0007257821239015265,-0.00010100579434315561,2.1443121769258032e-05,-0.00017217384497773613,-0.00020637314715592157,-0.00010333865146284071,-6.649181811729035e-05,0.6291133761405945,46.54800033569336,5.564480304718018,-19.511445999145508,-0.7665916085243225,-2.3660311698913574,0.19351522624492645,0
59,0.28986573219299316,-0.6291133761405945,-46.54800033569336,-5.564480304718018,19.511445999145508,0.7665916085243225,2.3660311698913574,-0.19351522624492645,0.0,0.0,0.0,0.0,0.0,0.0,0.0,-0.6531252752507684,-0.2296281510616806,-0.3958662494096521,0.322441151518055,0.19074172495141953,0.10309309704796639,-0.18683590481532186,0.8780244997551566,0.7554221283176489,-0.28249798234128304,-1.6690558058922749,0.14140579589885066,2.4035729217673314,1.0273476087170272,0.878092876070424,0.7554597494309409,-0.2825552651693207,-1.6690993614607135,0.1414185955172306,2.4034451173676383,1.0273381002308042,-0.0007257821239015265,0.00010100579434315561,-2.1443121769258032e-05,0.00017217384497773613,0.00020637314715592157,0.00010333865146284071,6.649181811729035e-05,0.0,0.0,0.0,0.0,0.0,0.0,0.0,6.837631526734889e-05,3.7621113291974595e-05,-5.728282803768581e-05,-4.355556843860242e-05,1.2799618379938371e-05,-0.00012780439969306556,-9.508486223053225e-06,0.0007257821239015265,-0.00010100579434315561,2.1443121769258032e-05,-0.00017217384497773613,-0.00020637314715592157,-0.00010333865146284071,-6.649181811729035e-05,0.6291133761405945,46.54800033569336,5.564480304718018,-19.511445999145508,-0.7665916085243225,-2.3660311698913574,0.19351522624492645,0
60,0.29489684104919434,-0.6291133761405945,-46.54800033569336,-5.564480304718018,19.487642288208008,0.7730002999305725,2.3724398612976074,-0.17978231608867645,0.0,0.0,0.0,0.0,0.0,0.0,0.0,-0.6488821928193557,-0.2279317926879833,-0.3903959599865111,0.32346441863797004,0.19012921734421498,0.10270467793753567,-0.18668451163074037,0.8780244997551566,0.7554221283176489,-0.282498008270332,-1.6690541354564197,0.14140790326337044,2.4035754627894548,1.0273460828380452,0.878092876070424,0.7554597494309409,-0.2825552651693207,-1.6690993614607135,0.1414185955172306,2.4034451173676383,1.0273381002308042,-0.0008288827246407353,0.00025131773180034567,-1.3147678275011404e-05,0.0008924709511898901,0.00021824807305844112,-0.00028136168580379775,-0.00022537068612441197,0.0,0.0,0.0,0.0,0.0,0.0,0.0,6.837631526734889e-05,3.7621113291974595e-05,-5.725689898872233e-05,-4.522600429379686e-05,1.0692253860161705e-05,-0.00013034542181644682,-7.982607240997197e-06,0.0008288827246407353,-0.00025131773180034567,1.3147678275011404e-05,-0.0008924709511898901,-0.00021824807305844112,0.00028136168580379775,0.00022537068612441197,0.6291133761405945,46.54800033569336,5.564480304718018,-19.487642288208008,-0.7730002999305725,-2.3724398612976074,0.17978231608867645,0
61,0.2998788356781006,-0.6291133761405945,-46.54800033569336,-5.564480304718018,19.487642288208008,0.7730002999305725,2.3724398612976074,-0.17978231608867645,0.0,0.0,0.0,0.0,0.0,0.0,0.0,-0.6488821928193557,-0.2279317926879833,-0.3903959599865111,0.32346441863797004,0.19012921734421498,0.10270467793753567,-0.18668451163074037,0.8780244997551566,0.7554221283176489,-0.282498008270332,-1.6690541354564197,0.14140790326337044,2.4035754627894548,1.0273460828380452,0.878092876070424,0.7554597494309409,-0.2825552651693207,-1.6690993614607135,0.1414185955172306,2.4034451173676383,1.0273381002308042,-0.0008288827246407353,0.00025131773180034567,-1.3147678275011404e-05,0.0008924709511898901,0.00021824807305844112,-0.00028136168580379775,-0.00022537068612441197,0.0,0.0,0.0,0.0,0.0,0.0,0.0,6.837631526734889e-05,3.7621113291974595e-05,-5.725689898872233e-05,-4.522600429379686e-05,1.0692253860161705e-05,-0.00013034542181644682,-7.982607240997197e-06,0.0008288827246407353,-0.00025131773180034567,1.3147678275011404e-05,-0.0008924709511898901,-0.00021824807305844112,0.00028136168580379775,0.00022537068612441197,0.6291133761405945,46.54800033569336,5.564480304718018,-19.487642288208008,-0.7730002999305725,-2.3724398612976074,0.17978231608867645,0
62,0.30486583709716797,-0.6568843722343445,-46.54800033569336,-5.564480304718018,19.535249710083008,0.7730002999305725,2.3788485527038574,-0.17337362468242645,0.0,0.0,0.0,0.0,0.0,0.0,0.0,-0.6531448784650844,-0.2300293041519216,-0.39281598340448803,0.3247930212876415,0.19006289739436788,0.10273193064559819,-0.18618268027871795,0.8780264485969879,0.7554221283176489,-0.2824979822343346,-1.66905747632813,0.14140614669759238,2.4035747883081275,1.0273453707612223,0.878092876070424,0.7554597494309409,-0.2825552651693207,-1.6690993614607135,0.1414185955172306,2.4034451173676383,1.0273381002308042,-1.961410750605262e-05,-0.00018329451950288233,3.725007062656737e-05,-2.1394678811040715e-05,-4.5713826192655725e-06,-0.00022673280539559394,-0.0007084416069124658,0.0,0.0,0.0,0.0,0.0,0.0,0.0,6.642747343610367e-05,3.7621113291974595e-05,-5.72829349861359e-05,-4.188513258340798e-05,1.2448819638216646e-05,-0.00012967094048921268,-7.270530418157506e-06,1.961410750605262e-05,0.00018329451950288233,-3.725007062656737e-05,2.1394678811040715e-05,4.5713826192655725e-06,0.00022673280539559394,0.0007084416069124658,0.6568843722343445,46.54800033569336,5.564480304718018,-19.535249710083008,-0.7730002999305725,-2.3788485527038574,0.17337362468242645,0
63,0.30987071990966797,-0.6568843722343445,-46.54800033569336,-5.564480304718018,19.535249710083008,0.7730002999305725,2.3788485527038574,-0.17337362468242645,0.0,0.0,0.0,0.0,0.0,0.0,0.0,-0.6531448784650844,-0.2300293041519216,-0.39281598340448803,0.3247930212876415,0.19006289739436788,0.10273193064559819,-0.18618268027871795,0.8780264485969879,0.7554221283176489,-0.2824979822343346,-1.66905747632813,0.14140614669759238,2.4035747883081275,1.0273453707612223,0.878092876070424,0.7554597494309409,-0.2825552651693207,-1.6690993614607135,0.1414185955172306,2.4034451173676383,1.0273381002308042,-1.961410750605262e-05,-0.00018329451950288233,3.725007062656737e-05,-2.1394678811040715e-05,-4.5713826192655725e-06,-0.00022673280539559394,-0.0007084416069124658,0.0,0.0,0.0,0.0,0.0,0.0,0.0,6.642747343610367e-05,3.7621113291974595e-05,-5.72829349861359e-05,-4.188513258340798e-05,1.2448819638216646e-05,-0.00012967094048921268,-7.270530418157506e-06,1.961410750605262e-05,0.00018329451950288233,-3.725007062656737e-05,2.1394678811040715e-05,4.5713826192655725e-06,0.00022673280539559394,0.0007084416069124658,0.6568843722343445,46.54800033569336,5.564480304718018,-19.535249710083008,-0.7730002999305725,-2.3788485527038574,0.17337362468242645,0
64,0.3148617744445801,-0.6568843722343445,-46.59957504272461,-5.564480304718018,19.511445999145508,0.7665916085243225,2.3724398612976074,-0.20724813640117645,0.0,0.0,0.0,0.0,0.0,0.0,0.0,-0.6535472890991464,-0.22771176155309364,-0.39119806928272777,0.3229149107092632,0.18986241990660158,0.10260438585454583,-0.18731132277422116,0.8780264485969879,0.7554257475953353,-0.28249798223428557,-1.6690558058922749,0.14140579831130842,2.4035751143866535,1.0273491345958576,0.878092876070424,0.7554597494309409,-0.2825552651693207,-1.6690993614607135,0.1414185955172306,2.4034451173676383,1.0273381002308042,0.0002013746418252993,0.0005538882158989041,-9.451634132514724e-06,0.0003291683735290924,0.0004203939880691714,-0.00010737852104456428,0.0009788014621256848,0.0,0.0,0.0,0.0,0.0,0.0,0.0,6.642747343610367e-05,3.4001835605534936e-05,-5.728293503515225e-05,-4.355556843860242e-05,1.2797205922177035e-05,-0.00012999701901517113,-1.1034365053452788e-05,-0.0002013746418252993,-0.0005538882158989041,9.451634132514724e-06,-0.0003291683735290924,-0.0004203939880691714,0.00010737852104456428,-0.0009788014621256848,0.6568843722343445,46.59957504272461,5.564480304718018,-19.511445999145508,-0.7665916085243225,-2.3724398612976074,0.20724813640117645,0
65,0.3198854923248291,-0.6568843722343445,-46.59957504272461,-5.564480304718018,19.511445999145508,0.7665916085243225,2.3724398612976074,-0.20724813640117645,0.0,0.0,0.0,0.0,0.0,0.0,0.0,-0.6535472890991464,-0.22771176155309364,-0.39119806928272777,0.3229149107092632,0.18986241990660158,0.10260438585454583,-0.18731132277422116,0.8780264485969879,0.7554257475953353,-0.28249798223428557,-1.6690558058922749,0.14140579831130842,2.4035751143866535,1.0273491345958576,0.878092876070424,0.7554597494309409,-0.2825552651693207,-1.6690993614607135,0.1414185955172306,2.4034451173676383,1.0273381002308042,0.0002013746418252993,0.0005538882158989041,-9.451634132514724e-06,0.0003291683735290924,0.0004203939880691714,-0.00010737852104456428,0.0009788014621256848,0.0,0.0,0.0,0.0,0.0,0.0,0.0,6.642747343610367e-05,3.4001835605534936e-05,-5.728293503515225e-05,-4.355556843860242e-05,1.2797205922177035e-05,-0.00012999701901517113,-1.1034365053452788e-05,-0.0002013746418252993,-0.0005538882158989041,9.451634132514724e-06,-0.0003291683735290924,-0.0004203939880691714,0.00010737852104456428,-0.0009788014621256848,0.6568843722343445,46.59957504272461,5.564480304718018,-19.511445999145508,-0.7665916085243225,-2.3724398612976074,0.20724813640117645,0
66,0.32486534118652344,-0.6568843722343445,-46.59957504272461,-5.564480304718018,19.511445999145508,0.7730002999305725,2.3724398612976074,-0.20724813640117645,0.0,0.0,0.0,0.0,0.0,0.0,0.0,-0.6371959517940178,-0.28808637806031806,-0.3878389678415473,0.36895183507447255,0.19090303584136717,0.11022040565473443,-0.18693845827039435,0.8780264485969879,0.7554257475953353,-0.28249798223428557,-1.6690558058922749,0.14140473169598594,2.4035712159627147,1.0273491345958576,0.878092876070424,0.7554597494309409,-0.2825552651693207,-1.6690993614607135,0.1414185955172306,2.4034451173676383,1.0273381002308042,0.0003757331747025012,0.0008478953069937057,0.00016346074283303186,-0.0008244713438573516,0.0001031152988529244,1.5400130037628257e-05,0.0008808757833134116,0.0,0.0,0.0,0.0,0.0,0.0,0.0,6.642747343610367e-05,3.4001835605534936e-05,-5.728293503515225e-05,-4.355556843860242e-05,1.3863821244658459e-05,-0.00012609859507639598,-1.1034365053452788e-05,-0.0003757331747025012,-0.0008478953069937057,-0.00016346074283303186,0.0008244713438573516,-0.0001031152988529244,-1.5400130037628257e-05,-0.0008808757833134116,0.6568843722343445,46.59957504272461,5.564480304718018,-19.511445999145508,-0.7730002999305725,-2.3724398612976074,0.20724813640117645,0
67,0.3298673629760742,-0.6568843722343445,-46.59957504272461,-5.564480304718018,19.511445999145508,0.7730002999305725,2.3724398612976074,-0.20724813640117645,0.0,0.0,0.0,0.0,0.0,0.0,0.0,-0.6371959517940178,-0.28808637806031806,-0.3878389678415473,0.36895183507447255,0.19090303584136717,0.11022040565473443,-0.18693845827039435,0.8780264485969879,0.7554257475953353,-0.28249798223428557,-1.6690558058922749,0.14140473169598594,2.4035712159627147,1.0273491345958576,0.878092876070424,0.7554597494309409,-0.2825552651693207,-1.6690993614607135,0.1414185955172306,2.4034451173676383,1.0273381002308042,0.0003757331747025012,0.0008478953069937057,0.00016346074283303186,-0.0008244713438573516,0.0001031152988529244,1.5400130037628257e-05,0.0008808757833134116,0.0,0.0,0.0,0.0,0.0,0.0,0.0,6.642747343610367e-05,3.4001835605534936e-05,-5.728293503515225e-05,-4.355556843860242e-05,1.3863821244658459e-05,-0.00012609859507639598,-1.1034365053452788e-05,-0.0003757331747025012,-0.0008478953069937057,-0.00016346074283303186,0.0008244713438573516,-0.0001031152988529244,-1.5400130037628257e-05,-0.0008808757833134116,0.6568843722343445,46.59957504272461,5.564480304718018,-19.511445999145508,-0.7730002999305725,-2.3724398612976074,0.20724813640117645,0
68,0.3348667621612549,-0.6568843722343445,-46.54800033569336,-5.564480304718018,19.535249710083008,0.7849021553993225,2.3660311698913574,-0.15231649577617645,0.0,0.0,0.0,0.0,0.0,0.0,0.0,-0.6515596316049727,-0.23564301730290765,-0.39228473431987326,0.3266258282306004,0.19061206521237878,0.10426790415576037,-0.18739036363004022,0.8780264485969879,0.7554221283176489,-0.2825000882650676,-1.66905747632813,0.1414070274413574,2.4035726868245946,1.0273433931232603,0.878092876070424,0.7554597494309409,-0.2825552651693207,-1.6690993614607135,0.1414185955172306,2.4034451173676383,1.0273381002308042,0.00017326048891074314,-0.0005534357300099518,-0.00015876018929388938,-0.00045959077617279483,-0.00019714420290911432,9.994685888617209e-05,-0.001140334287916269,0.0,0.0,0.0,0.0,0.0,0.0,0.0,6.642747343610367e-05,3.7621113291974595e-05,-5.517690425310695e-05,-4.188513258340798e-05,1.1568075873186201e-05,-0.00012756945695624466,-5.292892456099096e-06,-0.00017326048891074314,0.0005534357300099518,0.00015876018929388938,0.00045959077617279483,0.00019714420290911432,-9.994685888617209e-05,0.001140334287916269,0.6568843722343445,46.54800033569336,5.564480304718018,-19.535249710083008,-0.7849021553993225,-2.3660311698913574,0.15231649577617645,0
69,0.33986902236938477,-0.6568843722343445,-46.54800033569336,-5.564480304718018,19.535249710083008,0.7849021553993225,2.3660311698913574,-0.15231649577617645,0.0,0.0,0.0,0.0,0.0,0.0,0.0,-0.6515596316049727,-0.23564301730290765,-0.39228473431987326,0.3266258282306004,0.19061206521237878,0.10426790415576037,-0.18739036363004022,0.8780264485969879,0.7554221283176489,-0.2825000882650676,-1.66905747632813,0.1414070274413574,2.4035726868245946,1.0273433931232603,0.878092876070424,0.7554597494309409,-0.2825552651693207,-1.6690993614607135,0.1414185955172306,2.4034451173676383,1.0273381002308042,0.00017326048891074314,-0.0005534357300099518,-0.00015876018929388938,-0.00045959077617279483,-0.00019714420290911432,9.994685888617209e-05,-0.001140334287916269,0.0,0.0,0.0,0.0,0.0,0.0,0.0,6.642747343610367e-05,3.7621113291974595e-05,-5.517690425310695e-05,-4.188513258340798e-05,1.1568075873186201e-05,-0.00012756945695624466,-5.292892456099096e-06,-0.00017326048891074314,0.0005534357300099518,0.00015876018929388938,0.00045959077617279483,0.00019714420290911432,-9.994685888617209e-05,0.001140334287916269,0.6568843722343445,46.54800033569336,5.564480304718018,-19.535249710083008,-0.7849021553993225,-2.3660311698913574,0.15231649577617645,0
70,0.3448185920715332,-0.6291133761405945,-46.57577133178711,-5.564480304718018,19.559053421020508,0.7730002999305725,2.3724398612976074,-0.19351522624492645,0.0,0.0,0.0,0.0,0.0,0.0,0.0,-0.6425326363439335,-0.21149151623399848,-0.3849463331848563,0.3093861820628255,0.19053148091129837,0.1018880995157633,-0.1871721474180721,0.8780244997551566,0.7554241031598601,-0.2824980082465542,-1.6690591552672545,0.14140788141041852,2.4035707826793478,1.0273476087189952,0.878092876070424,0.7554597494309409,-0.2825552651693207,-1.6690993614607135,0.1414185955172306,2.4034451173676383,1.0273381002308042,-0.0001137758604752422,0.0006820894326478492,0.00032078936181997956,-0.0009950742690283813,-1.1786339813918375e-05,-9.314654551658298e-05,0.00015966056516600376,0.0,0.0,0.0,0.0,0.0,0.0,0.0,6.837631526734889e-05,3.564627108076923e-05,-5.725692276653538e-05,-4.020619345901366e-05,1.0714106812081958e-05,-0.00012566531170943307,-9.508488191034559e-06,0.0001137758604752422,-0.0006820894326478492,-0.00032078936181997956,0.0009950742690283813,1.1786339813918375e-05,9.314654551658298e-05,-0.00015966056516600376,0.6291133761405945,46.57577133178711,5.564480304718018,-19.559053421020508,-0.7730002999305725,-2.3724398612976074,0.19351522624492645,0
71,0.3498678207397461,-0.6291133761405945,-46.57577133178711,-5.564480304718018,19.559053421020508,0.7730002999305725,2.3724398612976074,-0.19351522624492645,0.0,0.0,0.0,0.0,0.0,0.0,0.0,-0.6425326363439335,-0.21149151623399848,-0.3849463331848563,0.3093861820628255,0.19053148091129837,0.1018880995157633,-0.1871721474180721,0.8780244997551566,0.7554241031598601,-0.2824980082465542,-1.6690591552672545,0.14140788141041852,2.4035707826793478,1.0273476087189952,0.878092876070424,0.7554597494309409,-0.2825552651693207,-1.6690993614607135,0.1414185955172306,2.4034451173676383,1.0273381002308042,-0.0001137758604752422,0.0006820894326478492,0.00032078936181997956,-0.0009950742690283813,-1.1786339813918375e-05,-9.314654551658298e-05,0.00015966056516600376,0.0,0.0,0.0,0.0,0.0,0.0,0.0,6.837631526734889e-05,3.564627108076923e-05,-5.725692276653538e-05,-4.020619345901366e-05,1.0714106812081958e-05,-0.00012566531170943307,-9.508488191034559e-06,0.0001137758604752422,-0.0006820894326478492,-0.00032078936181997956,0.0009950742690283813,1.1786339813918375e-05,9.314654551658298e-05,-0.00015966056516600376,0.6291133761405945,46.57577133178711,5.564480304718018,-19.559053421020508,-0.7730002999305725,-2.3724398612976074,0.19351522624492645,0
72,0.3548710346221924,-0.6291133761405945,-46.54800033569336,-5.588284015655518,19.511445999145508,0.7610984444618225,2.3596224784851074,-0.17337362468242645,0.0,0.0,0.0,0.0,0.0,0.0,0.0,-0.6501219856660485,-0.21920268954703917,-0.3938582295695858,0.31242053398636,0.19057830826860664,0.10240495250903638,-0.1867007683637675,0.8780244997551566,0.7554221283177956,-0.28249631179857715,-1.6690558058923228,0.14140647131664139,2.403575513168557,1.0273453707612223,0.878092876070424,0.7554597494309409,-0.2825552651693207,-1.6690993614607135,0.1414185955172306,2.4034451173676383,1.0273381002308042,-0.0001556490270756464,0.00036884672093590623,0.0005731940660576539,0.00032166022093014157,0.0005419247104027579,0.0002694083743379484,-0.0005126675928324383,0.0,0.0,0.0,0.0,0.0,0.0,0.0,6.837631526734889e-05,3.762111314520311e-05,-5.8953370743575206e-05,-4.3555568390640786e-05,1.2124200589214151e-05,-0.0001303958009186701,-7.270530418157506e-06,0.0001556490270756464,-0.00036884672093590623,-0.0005731940660576539,-0.00032166022093014157,-0.0005419247104027579,-0.0002694083743379484,0.0005126675928324383,0.6291133761405945,46.54800033569336,5.588284015655518,-19.511445999145508,-0.7610984444618225,-2.3596224784851074,0.17337362468242645,0
73,0.3598318099975586,-0.6291133761405945,-46.54800033569336,-5.588284015655518,19.511445999145508,0.7610984444618225,2.3596224784851074,-0.17337362468242645,0.0,0.0,0.0,0.0,0.0,0.0,0.0,-0.6501219856660485,-0.21920268954703917,-0.3938582295695858,0.31242053398636,0.19057830826860664,0.10240495250903638,-0.1867007683637675,0.8780244997551566,0.7554221283177956,-0.28249631179857715,-1.6690558058923228,0.14140647131664139,2.403575513168557,1.0273453707612223,0.878092876070424,0.7554597494309409,-0.2825552651693207,-1.6690993614607135,0.1414185955172306,2.4034451173676383,1.0273381002308042,-0.0001556490270756464,0.00036884672093590623,0.0005731940660576539,0.00032166022093014157,0.0005419247104027579,0.0002694083743379484,-0.0005126675928324383,0.0,0.0,0.0,0.0,0.0,0.0,0.0,6.837631526734889e-05,3.762111314520311e-05,-5.8953370743575206e-05,-4.3555568390640786e-05,1.2124200589214151e-05,-0.0001303958009186701,-7.270530418157506e-06,0.0001556490270756464,-0.00036884672093590623,-0.0005731940660576539,-0.00032166022093014157,-0.0005419247104027579,-0.0002694083743379484,0.0005126675928324383,0.6291133761405945,46.54800033569336,5.588284015655518,-19.511445999145508,-0.7610984444618225,-2.3596224784851074,0.17337362468242645,0
74,0.36481237411499023,-0.6291133761405945,-46.59957504272461,-5.536709308624268,19.559053421020508,0.7730002999305725,2.3788485527038574,-0.20083944499492645,0.0,0.0,0.0,0.0,0.0,0.0,0.0,-0.6389375117007569,-0.22179546781316356,-0.38878672437510514,0.3158203850556355,0.19006143637068068,0.10203252655142546,-0.18638599941409098,0.8780244997551566,0.755426449605596,-0.28250203710689875,-1.6690591467639855,0.1414082595243607,2.4035747888385584,1.0273487845620624,0.878092876070424,0.7554597494309409,-0.2825552651693207,-1.6690993614607135,0.1414185955172306,2.4034451173676383,1.0273381002308042,0.00017565415356057224,0.0013321127192963437,-0.0006353554980940172,-0.0007023115333347607,0.00015230070384182262,-0.00017003370532095544,0.00028812402931419,0.0,0.0,0.0,0.0,0.0,0.0,0.0,6.837631526734889e-05,3.3299825344834666e-05,-5.3228062421972755e-05,-4.0214696727991495e-05,1.0335992869897614e-05,-0.00012967147092002307,-1.0684331258170587e-05,-0.00017565415356057224,-0.0013321127192963437,0.0006353554980940172,0.0007023115333347607,-0.00015230070384182262,0.00017003370532095544,-0.00028812402931419,0.6291133761405945,46.59957504272461,5.536709308624268,-19.559053421020508,-0.7730002999305725,-2.3788485527038574,0.20083944499492645,0
75,0.36988353729248047,-0.6291133761405945,-46.59957504272461,-5.536709308624268,19.559053421020508,0.7730002999305725,2.3788485527038574,-0.20083944499492645,0.0,0.0,0.0,0.0,0.0,0.0,0.0,-0.6389375117007569,-0.22179546781316356,-0.38878672437510514,0.3158203850556355,0.19006143637068068,0.10203252655142546,-0.18638599941409098,0.8780244997551566,0.755426449605596,-0.28250203710689875,-1.6690591467639855,0.1414082595243607,2.4035747888385584,1.0273487845620624,0.878092876070424,0.7554597494309409,-0.2825552651693207,-1.6690993614607135,0.1414185955172306,2.4034451173676383,1.0273381002308042,0.00017565415356057224,0.0013321127192963437,-0.0006353554980940172,-0.0007023115333347607,0.00015230070384182262,-0.00017003370532095544,0.00028812402931419,0.0,0.0,0.0,0.0,0.0,0.0,0.0,6.837631526734889e-05,3.3299825344834666e-05,-5.3228062421972755e-05,-4.0214696727991495e-05,1.0335992869897614e-05,-0.00012967147092002307,-1.0684331258170587e-05,-0.00017565415356057224,-0.0013321127192963437,0.0006353554980940172,0.0007023115333347607,-0.00015230070384182262,0.00017003370532095544,-0.00028812402931419,0.6291133761405945,46.59957504272461,5.536709308624268,-19.559053421020508,-0.7730002999305725,-2.3788485527038574,0.20083944499492645,0
76,0.37486720085144043,-0.6291133761405945,-46.59957504272461,-5.536709308624268,19.559053421020508,0.7730002999305725,2.3788485527038574,-0.20083944499492645,0.0,0.0,0.0,0.0,0.0,0.0,0.0,-0.6389375117007569,-0.22179546781316356,-0.38878672437510514,0.3158203850556355,0.19006143637068068,0.10203252655142546,-0.18638599941409098,0.8780244997551566,0.755426449605596,-0.28250203710689875,-1.6690591467639855,0.1414082595243607,2.4035747888385584,1.0273487845620624,0.878092876070424,0.7554597494309409,-0.2825552651693207,-1.6690993614607135,0.1414185955172306,2.4034451173676383,1.0273381002308042,0.00017565415356057224,0.0013321127192963437,-0.0006353554980940172,-0.0007023115333347607,0.00015230070384182262,-0.00017003370532095544,0.00028812402931419,0.0,0.0,0.0,0.0,0.0,0.0,0.0,6.837631526734889e-05,3.3299825344834666e-05,-5.3228062421972755e-05,-4.0214696727991495e-05,1.0335992869897614e-05,-0.00012967147092002307,-1.0684331258170587e-05,-0.00017565415356057224,-0.0013321127192963437,0.0006353554980940172,0.0007023115333347607,-0.00015230070384182262,0.00017003370532095544,-0.00028812402931419,0.6291133761405945,46.59957504272461,5.536709308624268,-19.559053421020508,-0.7730002999305725,-2.3788485527038574,0.20083944499492645,0
77,0.379866361618042,-0.6291133761405945,-46.59957504272461,-5.536709308624268,19.559053421020508,0.7730002999305725,2.3788485527038574,-0.20083944499492645,0.0,0.0,0.0,0.0,0.0,0.0,0.0,-0.6389375117007569,-0.22179546781316356,-0.38878672437510514,0.3158203850556355,0.19006143637068068,0.10203252655142546,-0.18638599941409098,0.8780244997551566,0.755426449605596,-0.28250203710689875,-1.6690591467639855,0.1414082595243607,2.4035747888385584,1.0273487845620624,0.878092876070424,0.7554597494309409,-0.2825552651693207,-1.6690993614607135,0.1414185955172306,2.4034451173676383,1.0273381002308042,0.00017565415356057224,0.0013321127192963437,-0.0006353554980940172,-0.0007023115333347607,0.00015230070384182262,-0.00017003370532095544,0.00028812402931419,0.0,0.0,0.0,0.0,0.0,0.0,0.0,6.837631526734889e-05,3.3299825344834666e-05,-5.3228062421972755e-05,-4.0214696727991495e-05,1.0335992869897614e-05,-0.00012967147092002307,-1.0684331258170587e-05,-0.00017565415356057224,-0.0013321127192963437,0.0006353554980940172,0.0007023115333347607,-0.00015230070384182262,0.00017003370532095544,-0.00028812402931419,0.6291133761405945,46.59957504272461,5.536709308624268,-19.559053421020508,-0.7730002999305725,-2.3788485527038574,0.20083944499492645,0
78,0.3848848342895508,-0.6291133761405945,-46.59957504272461,-5.512905597686768,19.511445999145508,0.7903953194618225,2.3660311698913574,-0.21457235515117645,0.0,0.0,0.0,0.0,0.0,0.0,0.0,-0.6488792548015012,-0.2248159353650096,-0.39761051311160295,0.3184796094562315,0.19042867619985168,0.10284932641524444,-0.18648148285854965,0.8780244997551566,0.7554257475966563,-0.2825016015159349,-1.6690558058922749,0.14140385751368273,2.4035751136316943,1.0273499483986224,0.878092876070424,0.7554597494309409,-0.2825552651693207,-1.6690993614607135,0.1414185955172306,2.4034451173676383,1.0273381002308042,-0.0007096901556171748,0.0008998129164009478,-0.0009604781471588361,0.0008525161922937659,-0.0007389269588082634,9.669634287765708e-05,0.0010143175391919056,0.0,0.0,0.0,0.0,0.0,0.0,0.0,6.837631526734889e-05,3.400183428459158e-05,-5.3663653385827015e-05,-4.355556843860242e-05,1.4738003547870582e-05,-0.00012999626405596487,-1.1848167818184763e-05,0.0007096901556171748,-0.0008998129164009478,0.0009604781471588361,-0.0008525161922937659,0.0007389269588082634,-9.669634287765708e-05,-0.0010143175391919056,0.6291133761405945,46.59957504272461,5.512905597686768,-19.511445999145508,-0.7903953194618225,-2.3660311698913574,0.21457235515117645,0
79,0.38986778259277344,-0.6291133761405945,-46.59957504272461,-5.512905597686768,19.511445999145508,0.7903953194618225,2.3660311698913574,-0.21457235515117645,0.0,0.0,0.0,0.0,0.0,0.0,0.0,-0.6488792548015012,-0.2248159353650096,-0.39761051311160295,0.3184796094562315,0.19042867619985168,0.10284932641524444,-0.18648148285854965,0.8780244997551566,0.7554257475966563,-0.2825016015159349,-1.6690558058922749,0.14140385751368273,2.4035751136316943,1.0273499483986224,0.878092876070424,0.7554597494309409,-0.2825552651693207,-1.6690993614607135,0.1414185955172306,2.4034451173676383,1.0273381002308042,-0.0007096901556171748,0.0008998129164009478,-0.0009604781471588361,0.0008525161922937659,-0.0007389269588082634,9.669634287765708e-05,0.0010143175391919056,0.0,0.0,0.0,0.0,0.0,0.0,0.0,6.837631526734889e-05,3.400183428459158e-05,-5.3663653385827015e-05,-4.355556843860242e-05,1.4738003547870582e-05,-0.00012999626405596487,-1.1848167818184763e-05,0.0007096901556171748,-0.0008998129164009478,0.0009604781471588361,-0.0008525161922937659,0.0007389269588082634,-9.669634287765708e-05,-0.0010143175391919056,0.6291133761405945,46.59957504272461,5.512905597686768,-19.511445999145508,-0.7903953194618225,-2.3660311698913574,0.21457235515117645,0
80,0.3948194980621338,-0.6568843722343445,-46.54800033569336,-5.612087726593018,19.559053421020508,0.7784934639930725,2.3724398612976074,-0.15964071452617645,0.0,0.0,0.0,0.0,0.0,0.0,0.0,-0.6482599953862899,-0.21473775607073528,-0.3941598983046161,0.31572360230242397,0.18984328413254797,0.10208840122491844,-0.1858662192393671,0.8780264485969879,0.755424312349571,-0.2824946413625751,-1.6690591467639855,0.14140553571080436,2.403571798227673,1.027343844882316,0.878092876070424,0.7554597494309409,-0.2825552651693207,-1.6690993614607135,0.1414185955172306,2.4034451173676383,1.0273381002308042,0.0003605557599780532,0.00010699639050277023,0.0009062811727077787,-0.0006042637737874114,-9.961196170388991e-05,-9.057512642391538e-05,-0.0013834534556756322,0.0,0.0,0.0,0.0,0.0,0.0,0.0,6.642747343610367e-05,3.543708136988233e-05,-6.062380674559664e-05,-4.0214696727991495e-05,1.305980642624105e-05,-0.00012668086003486678,-5.744651511818688e-06,-0.0003605557599780532,-0.00010699639050277023,-0.0009062811727077787,0.0006042637737874114,9.961196170388991e-05,9.057512642391538e-05,0.0013834534556756322,0.6568843722343445,46.54800033569336,5.612087726593018,-19.559053421020508,-0.7784934639930725,-2.3724398612976074,0.15964071452617645,0
