rezayati/contactInterpretation/dataset/franka_main/labeled_data/link2/f2_6.csv
index,time,tau_J0,tau_J1,tau_J2,tau_J3,tau_J4,tau_J5,tau_J6,tau_J_d0,tau_J_d1,tau_J_d2,tau_J_d3,tau_J_d4,tau_J_d5,tau_J_d6,tau_ext0,tau_ext1,tau_ext2,tau_ext3,tau_ext4,tau_ext5,tau_ext6,q0,q1,q2,q3,q4,q5,q6,q_d0,q_d1,q_d2,q_d3,q_d4,q_d5,q_d6,dq0,dq1,dq2,dq3,dq4,dq5,dq6,dq_d0,dq_d1,dq_d2,dq_d3,dq_d4,dq_d5,dq_d6,e0,e1,e2,e3,e4,e5,e6,de0,de1,de2,de3,de4,de5,de6,etau_J0,etau_J1,etau_J2,etau_J3,etau_J4,etau_J5,etau_J6,label
1,0.0,0.16037636995315552,-18.130334854125977,1.1164276599884033,17.948335647583008,0.4809470772743225,2.2424349784851074,-0.18710653483867645,0.0,0.0,0.0,0.0,0.0,0.0,0.0,0.1607617574350428,0.5134244701745141,0.3231100667017432,0.33296192153077164,0.05938246828144463,0.05702480810186602,-0.17739610666468505,-0.6091815843841605,-0.05743442267859741,-0.6665930404914053,-2.594550098702545,-0.05562176354447502,2.507972466839712,0.8763169478596169,-0.6090851748156966,-0.05753196718556838,-0.666603097082616,-2.5945565370258534,-0.05562143941554,2.507976027223799,0.8763108487046415,-0.000490270427699811,-0.00033052429397695813,0.0003781000658951154,7.933293910873393e-05,1.634800488311853e-05,-9.979120725773473e-05,0.0007719446886724938,0.0,0.0,0.0,0.0,0.0,0.0,0.0,9.640956846390658e-05,-9.754450697097017e-05,-1.0056591210672039e-05,-6.438323308266547e-06,3.2412893501837514e-07,3.5603840871090142e-06,-6.099154975403032e-06,0.000490270427699811,0.00033052429397695813,-0.0003781000658951154,-7.933293910873393e-05,-1.634800488311853e-05,9.979120725773473e-05,-0.0007719446886724938,-0.16037636995315552,18.130334854125977,-1.1164276599884033,-17.948335647583008,-0.4809470772743225,-2.2424349784851074,0.18710653483867645,0
2,0.0050525665283203125,0.13260537385940552,-18.154138565063477,1.1441986560821533,17.972139358520508,0.4809470772743225,2.2488436698913574,-0.15231649577617645,0.0,0.0,0.0,0.0,0.0,0.0,0.0,0.1514915310820952,0.5095995423023166,0.3171877760802531,0.3330049180236068,0.05914327535538606,0.05650038019275243,-0.17725483919502336,-0.6091818526055771,-0.05743489187778346,-0.6665949893332365,-2.594551025360921,-0.05561852885835517,2.5079732083131074,0.876313086606512,-0.6090851748156966,-0.05753196718556838,-0.666603097082616,-2.5945565370258534,-0.05562143941554,2.507976027223799,0.8763108487046415,7.315135264082227e-05,-0.00011097041653214595,-0.00025996382719745354,-0.00047566724077495286,-6.90749306899743e-05,-0.0002869419085356799,-0.0007113628681279106,0.0,0.0,0.0,0.0,0.0,0.0,0.0,9.667778988053932e-05,-9.707530778492457e-05,-8.107749379537843e-06,-5.5116649324560285e-06,-2.9105571848278555e-06,2.8189106915377238e-06,-2.2379018704832276e-06,-7.315135264082227e-05,0.00011097041653214595,0.00025996382719745354,0.00047566724077495286,6.90749306899743e-05,0.0002869419085356799,0.0007113628681279106,-0.13260537385940552,18.154138565063477,-1.1441986560821533,-17.972139358520508,-0.4809470772743225,-2.2488436698913574,0.15231649577617645,0
3,0.010047435760498047,0.13260537385940552,-18.154138565063477,1.1441986560821533,17.972139358520508,0.4809470772743225,2.2488436698913574,-0.15231649577617645,0.0,0.0,0.0,0.0,0.0,0.0,0.0,0.1514915310820952,0.5095995423023166,0.3171877760802531,0.3330049180236068,0.05914327535538606,0.05650038019275243,-0.17725483919502336,-0.6091818526055771,-0.05743489187778346,-0.6665949893332365,-2.594551025360921,-0.05561852885835517,2.5079732083131074,0.876313086606512,-0.6090851748156966,-0.05753196718556838,-0.666603097082616,-2.5945565370258534,-0.05562143941554,2.507976027223799,0.8763108487046415,7.315135264082227e-05,-0.00011097041653214595,-0.00025996382719745354,-0.00047566724077495286,-6.90749306899743e-05,-0.0002869419085356799,-0.0007113628681279106,0.0,0.0,0.0,0.0,0.0,0.0,0.0,9.667778988053932e-05,-9.707530778492457e-05,-8.107749379537843e-06,-5.5116649324560285e-06,-2.9105571848278555e-06,2.8189106915377238e-06,-2.2379018704832276e-06,-7.315135264082227e-05,0.00011097041653214595,0.00025996382719745354,0.00047566724077495286,6.90749306899743e-05,0.0002869419085356799,0.0007113628681279106,-0.13260537385940552,18.154138565063477,-1.1441986560821533,-17.972139358520508,-0.4809470772743225,-2.2488436698913574,0.15231649577617645,0
4,0.015048980712890625,0.16037636995315552,-18.177942276000977,1.1441986560821533,17.972139358520508,0.4864402413368225,2.2488436698913574,-0.19351522624492645,0.0,0.0,0.0,0.0,0.0,0.0,0.0,0.14528246121683763,0.5096371317748021,0.31399477186827635,0.33520802939855776,0.059055605952178646,0.056932539663221475,-0.17648745884008138,-0.6091830306058894,-0.05743109058795578,-0.6665949893332365,-2.5945495449157967,-0.0556223872570164,2.507971754771067,0.8763175446214534,-0.6090851748156966,-0.05753196718556838,-0.666603097082616,-2.5945565370258534,-0.05562143941554,2.507976027223799,0.8763108487046415,-0.0002790454429694696,0.0007420476814254921,-0.0005204710705021366,0.00014547279008737265,-7.069647019983725e-05,-0.00011858610082383221,0.0003266595403228032,0.0,0.0,0.0,0.0,0.0,0.0,0.0,9.785579019283563e-05,-0.00010087659761260498,-8.107749379537843e-06,-6.992110056724954e-06,9.478414763966492e-07,4.272452732045906e-06,-6.695916811905178e-06,0.0002790454429694696,-0.0007420476814254921,0.0005204710705021366,-0.00014547279008737265,7.069647019983725e-05,0.00011858610082383221,-0.0003266595403228032,-0.16037636995315552,18.177942276000977,-1.1441986560821533,-17.972139358520508,-0.4864402413368225,-2.2488436698913574,0.19351522624492645,0
5,0.020051240921020508,0.16037636995315552,-18.177942276000977,1.1441986560821533,17.972139358520508,0.4864402413368225,2.2488436698913574,-0.19351522624492645,0.0,0.0,0.0,0.0,0.0,0.0,0.0,0.14528246121683763,0.5096371317748021,0.31399477186827635,0.33520802939855776,0.059055605952178646,0.056932539663221475,-0.17648745884008138,-0.6091830306058894,-0.05743109058795578,-0.6665949893332365,-2.5945495449157967,-0.0556223872570164,2.507971754771067,0.8763175446214534,-0.6090851748156966,-0.05753196718556838,-0.666603097082616,-2.5945565370258534,-0.05562143941554,2.507976027223799,0.8763108487046415,-0.0002790454429694696,0.0007420476814254921,-0.0005204710705021366,0.00014547279008737265,-7.069647019983725e-05,-0.00011858610082383221,0.0003266595403228032,0.0,0.0,0.0,0.0,0.0,0.0,0.0,9.785579019283563e-05,-0.00010087659761260498,-8.107749379537843e-06,-6.992110056724954e-06,9.478414763966492e-07,4.272452732045906e-06,-6.695916811905178e-06,0.0002790454429694696,-0.0007420476814254921,0.0005204710705021366,-0.00014547279008737265,7.069647019983725e-05,0.00011858610082383221,-0.0003266595403228032,-0.16037636995315552,18.177942276000977,-1.1441986560821533,-17.972139358520508,-0.4864402413368225,-2.2488436698913574,0.19351522624492645,0
6,0.025048255920410156,0.18418008089065552,-18.106531143188477,1.1918060779571533,17.999910354614258,0.4864402413368225,2.2424349784851074,-0.17337362468242645,0.0,0.0,0.0,0.0,0.0,0.0,0.0,0.156794696529781,0.5183755523290687,0.3249242200021433,0.32993884743311025,0.05859148070556532,0.05641629832147576,-0.17625831635891703,-0.6091847918479449,-0.057436093114496746,-0.666598330204947,-2.594553718989342,-0.05561819311062499,2.507975998966782,0.8763154248871357,-0.6090851748156966,-0.05753196718556838,-0.666603097082616,-2.5945565370258534,-0.05562143941554,2.507976027223799,0.8763108487046415,-0.0001536369737479507,-0.0005389920576002806,-0.0004928075760745864,-0.0013059589013010933,-3.480498884683635e-05,-8.039013090474602e-05,0.0001447196402183983,0.0,0.0,0.0,0.0,0.0,0.0,0.0,9.961703224836693e-05,-9.587407107163742e-05,-4.766877669037939e-06,-2.8180365112540073e-06,-3.2463049150083245e-06,2.8257017170574272e-08,-4.576182494164804e-06,0.0001536369737479507,0.0005389920576002806,0.0004928075760745864,0.0013059589013010933,3.480498884683635e-05,8.039013090474602e-05,-0.0001447196402183983,-0.18418008089065552,18.106531143188477,-1.1918060779571533,-17.999910354614258,-0.4864402413368225,-2.2424349784851074,0.17337362468242645,0
7,0.030056238174438477,0.18418008089065552,-18.106531143188477,1.1918060779571533,17.999910354614258,0.4864402413368225,2.2424349784851074,-0.17337362468242645,0.0,0.0,0.0,0.0,0.0,0.0,0.0,0.156794696529781,0.5183755523290687,0.3249242200021433,0.32993884743311025,0.05859148070556532,0.05641629832147576,-0.17625831635891703,-0.6091847918479449,-0.057436093114496746,-0.666598330204947,-2.594553718989342,-0.05561819311062499,2.507975998966782,0.8763154248871357,-0.6090851748156966,-0.05753196718556838,-0.666603097082616,-2.5945565370258534,-0.05562143941554,2.507976027223799,0.8763108487046415,-0.0001536369737479507,-0.0005389920576002806,-0.0004928075760745864,-0.0013059589013010933,-3.480498884683635e-05,-8.039013090474602e-05,0.0001447196402183983,0.0,0.0,0.0,0.0,0.0,0.0,0.0,9.961703224836693e-05,-9.587407107163742e-05,-4.766877669037939e-06,-2.8180365112540073e-06,-3.2463049150083245e-06,2.8257017170574272e-08,-4.576182494164804e-06,0.0001536369737479507,0.0005389920576002806,0.0004928075760745864,0.0013059589013010933,3.480498884683635e-05,8.039013090474602e-05,-0.0001447196402183983,-0.18418008089065552,18.106531143188477,-1.1918060779571533,-17.999910354614258,-0.4864402413368225,-2.2424349784851074,0.17337362468242645,0
8,0.035056114196777344,0.18418008089065552,-18.130334854125977,1.1918060779571533,17.972139358520508,0.4864402413368225,2.2360262870788574,-0.17337362468242645,0.0,0.0,0.0,0.0,0.0,0.0,0.0,0.16197027528976857,0.5184915998225695,0.33306506425406956,0.3353735483642559,0.059125965720435936,0.05769587093075909,-0.1754916216314813,-0.6091855075402599,-0.05743465944148644,-0.666598330204947,-2.5945517701600727,-0.05562236772607126,2.507973192233739,0.8763154263413533,-0.6090851748156966,-0.05753196718556838,-0.666603097082616,-2.5945565370258534,-0.05562143941554,2.507976027223799,0.8763108487046415,2.1986541307655976e-05,0.0004635024650603238,0.0006370659399368867,-0.000512864785368043,-8.59139166699125e-05,0.00016853288913968575,-0.0002348221742483492,0.0,0.0,0.0,0.0,0.0,0.0,0.0,0.00010033272456333453,-9.73077440819467e-05,-4.766877669037939e-06,-4.766865780769791e-06,9.283105312576923e-07,2.834990060041065e-06,-4.577636711800004e-06,-2.1986541307655976e-05,-0.0004635024650603238,-0.0006370659399368867,0.000512864785368043,8.59139166699125e-05,-0.00016853288913968575,0.0002348221742483492,-0.18418008089065552,18.130334854125977,-1.1918060779571533,-17.972139358520508,-0.4864402413368225,-2.2360262870788574,0.17337362468242645,0
9,0.04006838798522949,0.18418008089065552,-18.130334854125977,1.1918060779571533,17.972139358520508,0.4864402413368225,2.2360262870788574,-0.17337362468242645,0.0,0.0,0.0,0.0,0.0,0.0,0.0,0.16197027528976857,0.5184915998225695,0.33306506425406956,0.3353735483642559,0.059125965720435936,0.05769587093075909,-0.1754916216314813,-0.6091855075402599,-0.05743465944148644,-0.666598330204947,-2.5945517701600727,-0.05562236772607126,2.507973192233739,0.8763154263413533,-0.6090851748156966,-0.05753196718556838,-0.666603097082616,-2.5945565370258534,-0.05562143941554,2.507976027223799,0.8763108487046415,2.1986541307655976e-05,0.0004635024650603238,0.0006370659399368867,-0.000512864785368043,-8.59139166699125e-05,0.00016853288913968575,-0.0002348221742483492,0.0,0.0,0.0,0.0,0.0,0.0,0.0,0.00010033272456333453,-9.73077440819467e-05,-4.766877669037939e-06,-4.766865780769791e-06,9.283105312576923e-07,2.834990060041065e-06,-4.577636711800004e-06,-2.1986541307655976e-05,-0.0004635024650603238,-0.0006370659399368867,0.000512864785368043,8.59139166699125e-05,-0.00016853288913968575,0.0002348221742483492,-0.18418008089065552,18.130334854125977,-1.1918060779571533,-17.972139358520508,-0.4864402413368225,-2.2360262870788574,0.17337362468242645,0
10,0.045059919357299805,0.18418008089065552,-18.130334854125977,1.1918060779571533,17.972139358520508,0.4864402413368225,2.2360262870788574,-0.17337362468242645,0.0,0.0,0.0,0.0,0.0,0.0,0.0,0.16197027528976857,0.5184915998225695,0.33306506425406956,0.3353735483642559,0.059125965720435936,0.05769587093075909,-0.1754916216314813,-0.6091855075402599,-0.05743465944148644,-0.666598330204947,-2.5945517701600727,-0.05562236772607126,2.507973192233739,0.8763154263413533,-0.6090851748156966,-0.05753196718556838,-0.666603097082616,-2.5945565370258534,-0.05562143941554,2.507976027223799,0.8763108487046415,2.1986541307655976e-05,0.0004635024650603238,0.0006370659399368867,-0.000512864785368043,-8.59139166699125e-05,0.00016853288913968575,-0.0002348221742483492,0.0,0.0,0.0,0.0,0.0,0.0,0.0,0.00010033272456333453,-9.73077440819467e-05,-4.766877669037939e-06,-4.766865780769791e-06,9.283105312576923e-07,2.834990060041065e-06,-4.577636711800004e-06,-2.1986541307655976e-05,-0.0004635024650603238,-0.0006370659399368867,0.000512864785368043,8.59139166699125e-05,-0.00016853288913968575,0.0002348221742483492,-0.18418008089065552,18.130334854125977,-1.1918060779571533,-17.972139358520508,-0.4864402413368225,-2.2360262870788574,0.17337362468242645,0
11,0.05005764961242676,0.18418008089065552,-18.130334854125977,1.1918060779571533,17.972139358520508,0.4864402413368225,2.2360262870788574,-0.17337362468242645,0.0,0.0,0.0,0.0,0.0,0.0,0.0,0.16197027528976857,0.5184915998225695,0.33306506425406956,0.3353735483642559,0.059125965720435936,0.05769587093075909,-0.1754916216314813,-0.6091855075402599,-0.05743465944148644,-0.666598330204947,-2.5945517701600727,-0.05562236772607126,2.507973192233739,0.8763154263413533,-0.6090851748156966,-0.05753196718556838,-0.666603097082616,-2.5945565370258534,-0.05562143941554,2.507976027223799,0.8763108487046415,2.1986541307655976e-05,0.0004635024650603238,0.0006370659399368867,-0.000512864785368043,-8.59139166699125e-05,0.00016853288913968575,-0.0002348221742483492,0.0,0.0,0.0,0.0,0.0,0.0,0.0,0.00010033272456333453,-9.73077440819467e-05,-4.766877669037939e-06,-4.766865780769791e-06,9.283105312576923e-07,2.834990060041065e-06,-4.577636711800004e-06,-2.1986541307655976e-05,-0.0004635024650603238,-0.0006370659399368867,0.000512864785368043,8.59139166699125e-05,-0.00016853288913968575,0.0002348221742483492,-0.18418008089065552,18.130334854125977,-1.1918060779571533,-17.972139358520508,-0.4864402413368225,-2.2360262870788574,0.17337362468242645,0
12,0.05505681037902832,0.18418008089065552,-18.130334854125977,1.1680023670196533,17.972139358520508,0.4864402413368225,2.2296175956726074,-0.16604940593242645,0.0,0.0,0.0,0.0,0.0,0.0,0.0,0.15205296729745532,0.5221443323601134,0.3287385062037401,0.3398274398167501,0.060124890581856744,0.05762876616055092,-0.17610435773109373,-0.609185498604966,-0.05743445811677685,-0.6665966597690917,-2.5945517701600727,-0.05562104222612839,2.507977480293479,0.8763145994573258,-0.6090851748156966,-0.05753196718556838,-0.666603097082616,-2.5945565370258534,-0.05562143941554,2.507976027223799,0.8763108487046415,-3.100199050307112e-05,0.0004953362311285217,-5.458772945487844e-05,0.00017373877337929983,-2.9166717064937503e-05,0.0003547851368756701,-0.000546129819159113,0.0,0.0,0.0,0.0,0.0,0.0,0.0,0.00010032378926938534,-9.75090687915306e-05,-6.437313524343402e-06,-4.766865780769791e-06,-3.9718941161059895e-07,-1.453069680135144e-06,-3.75075268432834e-06,3.100199050307112e-05,-0.0004953362311285217,5.458772945487844e-05,-0.00017373877337929983,2.9166717064937503e-05,-0.0003547851368756701,0.000546129819159113,-0.18418008089065552,18.130334854125977,-1.1680023670196533,-17.972139358520508,-0.4864402413368225,-2.2296175956726074,0.16604940593242645,0
13,0.06004762649536133,0.18418008089065552,-18.130334854125977,1.1680023670196533,17.972139358520508,0.4864402413368225,2.2296175956726074,-0.16604940593242645,0.0,0.0,0.0,0.0,0.0,0.0,0.0,0.15205296729745532,0.5221443323601134,0.3287385062037401,0.3398274398167501,0.060124890581856744,0.05762876616055092,-0.17610435773109373,-0.609185498604966,-0.05743445811677685,-0.6665966597690917,-2.5945517701600727,-0.05562104222612839,2.507977480293479,0.8763145994573258,-0.6090851748156966,-0.05753196718556838,-0.666603097082616,-2.5945565370258534,-0.05562143941554,2.507976027223799,0.8763108487046415,-3.100199050307112e-05,0.0004953362311285217,-5.458772945487844e-05,0.00017373877337929983,-2.9166717064937503e-05,0.0003547851368756701,-0.000546129819159113,0.0,0.0,0.0,0.0,0.0,0.0,0.0,0.00010032378926938534,-9.75090687915306e-05,-6.437313524343402e-06,-4.766865780769791e-06,-3.9718941161059895e-07,-1.453069680135144e-06,-3.75075268432834e-06,3.100199050307112e-05,-0.0004953362311285217,5.458772945487844e-05,-0.00017373877337929983,2.9166717064937503e-05,-0.0003547851368756701,0.000546129819159113,-0.18418008089065552,18.130334854125977,-1.1680023670196533,-17.972139358520508,-0.4864402413368225,-2.2296175956726074,0.16604940593242645,0
14,0.06514573097229004,0.13260537385940552,-18.154138565063477,1.1164276599884033,17.999910354614258,0.4928489327430725,2.2488436698913574,-0.14590780436992645,0.0,0.0,0.0,0.0,0.0,0.0,0.0,0.15469122819815878,0.5308792708681028,0.33123996318394183,0.3348649450873979,0.060377741900698986,0.055851906484926744,-0.1768746279457693,-0.609181649847883,-0.05743298900623132,-0.6665930404914053,-2.5945534717530068,-0.055623176727340136,2.507972932199346,0.8763123745833273,-0.6090851748156966,-0.05753196718556838,-0.666603097082616,-2.5945565370258534,-0.05562143941554,2.507976027223799,0.8763108487046415,0.00042122274937498135,0.0011304317396555238,0.00032035957610414625,-0.0011225348115521429,-0.000306146712825251,-0.0002771756502949482,-0.0017782902067637715,0.0,0.0,0.0,0.0,0.0,0.0,0.0,9.647503218646047e-05,-9.89781793370656e-05,-1.0056591210672039e-05,-3.0652728466584733e-06,1.7373118001359766e-06,3.0950244531702253e-06,-1.5258786858485252e-06,-0.00042122274937498135,-0.0011304317396555238,-0.00032035957610414625,0.0011225348115521429,0.000306146712825251,0.0002771756502949482,0.0017782902067637715,-0.13260537385940552,18.154138565063477,-1.1164276599884033,-17.999910354614258,-0.4928489327430725,-2.2488436698913574,0.14590780436992645,0
15,0.07004761695861816,0.13260537385940552,-18.154138565063477,1.1164276599884033,17.999910354614258,0.4928489327430725,2.2488436698913574,-0.14590780436992645,0.0,0.0,0.0,0.0,0.0,0.0,0.0,0.15469122819815878,0.5308792708681028,0.33123996318394183,0.3348649450873979,0.060377741900698986,0.055851906484926744,-0.1768746279457693,-0.609181649847883,-0.05743298900623132,-0.6665930404914053,-2.5945534717530068,-0.055623176727340136,2.507972932199346,0.8763123745833273,-0.6090851748156966,-0.05753196718556838,-0.666603097082616,-2.5945565370258534,-0.05562143941554,2.507976027223799,0.8763108487046415,0.00042122274937498135,0.0011304317396555238,0.00032035957610414625,-0.0011225348115521429,-0.000306146712825251,-0.0002771756502949482,-0.0017782902067637715,0.0,0.0,0.0,0.0,0.0,0.0,0.0,9.647503218646047e-05,-9.89781793370656e-05,-1.0056591210672039e-05,-3.0652728466584733e-06,1.7373118001359766e-06,3.0950244531702253e-06,-1.5258786858485252e-06,-0.00042122274937498135,-0.0011304317396555238,-0.00032035957610414625,0.0011225348115521429,0.000306146712825251,0.0002771756502949482,0.0017782902067637715,-0.13260537385940552,18.154138565063477,-1.1164276599884033,-17.999910354614258,-0.4928489327430725,-2.2488436698913574,0.14590780436992645,0
16,0.07505202293395996,0.10880166292190552,-18.154138565063477,1.0688202381134033,17.972139358520508,0.4864402413368225,2.2488436698913574,-0.16604940593242645,0.0,0.0,0.0,0.0,0.0,0.0,0.0,0.15184097689700454,0.524336243717704,0.3231463075064939,0.34036378983319415,0.060520791064434795,0.057224260132651354,-0.17876149032186864,-0.6091802177942701,-0.05743275516588385,-0.6665896996196947,-2.5945517701599177,-0.05562126938856754,2.5079717552660616,0.8763114334454394,-0.6090851748156966,-0.05753196718556838,-0.666603097082616,-2.5945565370258534,-0.05562143941554,2.507976027223799,0.8763108487046415,0.0002719964852992395,-0.00036204154188155646,0.0005071495108258485,3.17335625085051e-05,-2.1355564344948368e-05,-0.0003248631048617028,-8.638328873816161e-05,0.0,0.0,0.0,0.0,0.0,0.0,0.0,9.504297857354516e-05,-9.921201968453308e-05,-1.3397462921282965e-05,-4.766865935756925e-06,-1.7002697245971365e-07,4.27195773733402e-06,-5.847407978931685e-07,-0.0002719964852992395,0.00036204154188155646,-0.0005071495108258485,-3.17335625085051e-05,2.1355564344948368e-05,0.0003248631048617028,8.638328873816161e-05,-0.10880166292190552,18.154138565063477,-1.0688202381134033,-17.972139358520508,-0.4864402413368225,-2.2488436698913574,0.16604940593242645,0
17,0.08004975318908691,0.10880166292190552,-18.154138565063477,1.0688202381134033,17.972139358520508,0.4864402413368225,2.2488436698913574,-0.16604940593242645,0.0,0.0,0.0,0.0,0.0,0.0,0.0,0.15184097689700454,0.524336243717704,0.3231463075064939,0.34036378983319415,0.060520791064434795,0.057224260132651354,-0.17876149032186864,-0.6091802177942701,-0.05743275516588385,-0.6665896996196947,-2.5945517701599177,-0.05562126938856754,2.5079717552660616,0.8763114334454394,-0.6090851748156966,-0.05753196718556838,-0.666603097082616,-2.5945565370258534,-0.05562143941554,2.507976027223799,0.8763108487046415,0.0002719964852992395,-0.00036204154188155646,0.0005071495108258485,3.17335625085051e-05,-2.1355564344948368e-05,-0.0003248631048617028,-8.638328873816161e-05,0.0,0.0,0.0,0.0,0.0,0.0,0.0,9.504297857354516e-05,-9.921201968453308e-05,-1.3397462921282965e-05,-4.766865935756925e-06,-1.7002697245971365e-07,4.27195773733402e-06,-5.847407978931685e-07,-0.0002719964852992395,0.00036204154188155646,-0.0005071495108258485,-3.17335625085051e-05,2.1355564344948368e-05,0.0003248631048617028,8.638328873816161e-05,-0.10880166292190552,18.154138565063477,-1.0688202381134033,-17.972139358520508,-0.4864402413368225,-2.2488436698913574,0.16604940593242645,0
18,0.08616375923156738,0.13260537385940552,-18.154138565063477,1.0926239490509033,17.972139358520508,0.4809470772743225,2.2424349784851074,-0.20724813640117645,0.0,0.0,0.0,0.0,0.0,0.0,0.0,0.1478516073751925,0.515876088360527,0.31636747367045365,0.3400152559329568,0.06082357660112829,0.05763297747064695,-0.17979840533739852,-0.6091818791092468,-0.05743275235101236,-0.66659137005555,-2.594551767107617,-0.05562065514175881,2.5079757029270513,0.8763191896735341,-0.6090851748156966,-0.05753196718556838,-0.666603097082616,-2.5945565370258534,-0.05562143941554,2.507976027223799,0.8763108487046415,-0.0009714185894733406,-0.0012488628778872302,-0.0003872561872106055,-0.00011983299469379703,0.0002628926467116804,7.150671415543721e-05,0.0011110067384151514,0.0,0.0,0.0,0.0,0.0,0.0,0.0,9.670429355024268e-05,-9.921483455602176e-05,-1.1727027065977502e-05,-4.7699182363913906e-06,-7.842737811888933e-07,3.242967476779768e-07,-8.340968892572853e-06,0.0009714185894733406,0.0012488628778872302,0.0003872561872106055,0.00011983299469379703,-0.0002628926467116804,-7.150671415543721e-05,-0.0011110067384151514,-0.13260537385940552,18.154138565063477,-1.0926239490509033,-17.972139358520508,-0.4809470772743225,-2.2424349784851074,0.20724813640117645,0
19,0.0900576114654541,0.13260537385940552,-18.154138565063477,1.0926239490509033,17.972139358520508,0.4809470772743225,2.2424349784851074,-0.20724813640117645,0.0,0.0,0.0,0.0,0.0,0.0,0.0,0.1478516073751925,0.515876088360527,0.31636747367045365,0.3400152559329568,0.06082357660112829,0.05763297747064695,-0.17979840533739852,-0.6091818791092468,-0.05743275235101236,-0.66659137005555,-2.594551767107617,-0.05562065514175881,2.5079757029270513,0.8763191896735341,-0.6090851748156966,-0.05753196718556838,-0.666603097082616,-2.5945565370258534,-0.05562143941554,2.507976027223799,0.8763108487046415,-0.0009714185894733406,-0.0012488628778872302,-0.0003872561872106055,-0.00011983299469379703,0.0002628926467116804,7.150671415543721e-05,0.0011110067384151514,0.0,0.0,0.0,0.0,0.0,0.0,0.0,9.670429355024268e-05,-9.921483455602176e-05,-1.1727027065977502e-05,-4.7699182363913906e-06,-7.842737811888933e-07,3.242967476779768e-07,-8.340968892572853e-06,0.0009714185894733406,0.0012488628778872302,0.0003872561872106055,0.00011983299469379703,-0.0002628926467116804,-7.150671415543721e-05,-0.0011110067384151514,-0.13260537385940552,18.154138565063477,-1.0926239490509033,-17.972139358520508,-0.4809470772743225,-2.2424349784851074,0.20724813640117645,0
20,0.0950627326965332,0.13260537385940552,-18.154138565063477,1.0926239490509033,17.972139358520508,0.4809470772743225,2.2424349784851074,-0.20724813640117645,0.0,0.0,0.0,0.0,0.0,0.0,0.0,0.1478516073751925,0.515876088360527,0.31636747367045365,0.3400152559329568,0.06082357660112829,0.05763297747064695,-0.17979840533739852,-0.6091818791092468,-0.05743275235101236,-0.66659137005555,-2.594551767107617,-0.05562065514175881,2.5079757029270513,0.8763191896735341,-0.6090851748156966,-0.05753196718556838,-0.666603097082616,-2.5945565370258534,-0.05562143941554,2.507976027223799,0.8763108487046415,-0.0009714185894733406,-0.0012488628778872302,-0.0003872561872106055,-0.00011983299469379703,0.0002628926467116804,7.150671415543721e-05,0.0011110067384151514,0.0,0.0,0.0,0.0,0.0,0.0,0.0,9.670429355024268e-05,-9.921483455602176e-05,-1.1727027065977502e-05,-4.7699182363913906e-06,-7.842737811888933e-07,3.242967476779768e-07,-8.340968892572853e-06,0.0009714185894733406,0.0012488628778872302,0.0003872561872106055,0.00011983299469379703,-0.0002628926467116804,-7.150671415543721e-05,-0.0011110067384151514,-0.13260537385940552,18.154138565063477,-1.0926239490509033,-17.972139358520508,-0.4809470772743225,-2.2424349784851074,0.20724813640117645,0
21,0.10005354881286621,0.16037636995315552,-18.154138565063477,1.2156097888946533,17.948335647583008,0.4690452218055725,2.2360262870788574,-0.21457235515117645,0.0,0.0,0.0,0.0,0.0,0.0,0.0,0.15411239989674194,0.5211635651822012,0.31861300319379143,0.33151889446972654,0.06054961562108454,0.057078816131827324,-0.17979435868833432,-0.6091830923819245,-0.05743275224273726,-0.6666000006408023,-2.5945500997242004,-0.055620099133889135,2.507977417971809,0.8763199647322206,-0.6090851748156966,-0.05753196718556838,-0.666603097082616,-2.5945565370258534,-0.05562143941554,2.507976027223799,0.8763108487046415,-0.0007239540998468646,-1.8870068507435785e-05,-0.002195345257958299,7.386328953844604e-05,0.0007572178360776814,0.00024397399161146726,0.0017714205211383017,0.0,0.0,0.0,0.0,0.0,0.0,0.0,9.791756622790082e-05,-9.921494283112592e-05,-3.0964418137324756e-06,-6.437301653061667e-06,-1.3402816508648052e-06,-1.3907480100883163e-06,-9.116027579136876e-06,0.0007239540998468646,1.8870068507435785e-05,0.002195345257958299,-7.386328953844604e-05,-0.0007572178360776814,-0.00024397399161146726,-0.0017714205211383017,-0.16037636995315552,18.154138565063477,-1.2156097888946533,-17.948335647583008,-0.4690452218055725,-2.2360262870788574,0.21457235515117645,0
22,0.10506343841552734,0.16037636995315552,-18.154138565063477,1.2156097888946533,17.948335647583008,0.4690452218055725,2.2360262870788574,-0.21457235515117645,0.0,0.0,0.0,0.0,0.0,0.0,0.0,0.15411239989674194,0.5211635651822012,0.31861300319379143,0.33151889446972654,0.06054961562108454,0.057078816131827324,-0.17979435868833432,-0.6091830923819245,-0.05743275224273726,-0.6666000006408023,-2.5945500997242004,-0.055620099133889135,2.507977417971809,0.8763199647322206,-0.6090851748156966,-0.05753196718556838,-0.666603097082616,-2.5945565370258534,-0.05562143941554,2.507976027223799,0.8763108487046415,-0.0007239540998468646,-1.8870068507435785e-05,-0.002195345257958299,7.386328953844604e-05,0.0007572178360776814,0.00024397399161146726,0.0017714205211383017,0.0,0.0,0.0,0.0,0.0,0.0,0.0,9.791756622790082e-05,-9.921494283112592e-05,-3.0964418137324756e-06,-6.437301653061667e-06,-1.3402816508648052e-06,-1.3907480100883163e-06,-9.116027579136876e-06,0.0007239540998468646,1.8870068507435785e-05,0.002195345257958299,-7.386328953844604e-05,-0.0007572178360776814,-0.00024397399161146726,-0.0017714205211383017,-0.16037636995315552,18.154138565063477,-1.2156097888946533,-17.948335647583008,-0.4690452218055725,-2.2360262870788574,0.21457235515117645,0
23,0.11016702651977539,0.16037636995315552,-18.154138565063477,1.1441986560821533,17.948335647583008,0.4928489327430725,2.2488436698913574,-0.17978231608867645,0.0,0.0,0.0,0.0,0.0,0.0,0.0,0.14692359553054266,0.5159127615820331,0.3153322255286078,0.33233786629653606,0.060147740510523934,0.057351217939563805,-0.17885130777344632,-0.6091828745632678,-0.05743275224273665,-0.6665949893332365,-2.594547874484146,-0.05562002236372052,2.507971767868743,0.8763147250826069,-0.6090851748156966,-0.05753196718556838,-0.666603097082616,-2.5945565370258534,-0.05562143941554,2.507976027223799,0.8763108487046415,6.328318998180385e-05,0.0004581575811277576,-0.00026701073493476813,2.0301035651064513e-05,-0.0005232184772780185,-0.0004906933852786135,-6.936418972073345e-05,0.0,0.0,0.0,0.0,0.0,0.0,0.0,9.769974757123379e-05,-9.921494283173654e-05,-8.107749379537843e-06,-8.6625417075048e-06,-1.4170518194828174e-06,4.259355055769021e-06,-3.876377965394973e-06,-6.328318998180385e-05,-0.0004581575811277576,0.00026701073493476813,-2.0301035651064513e-05,0.0005232184772780185,0.0004906933852786135,6.936418972073345e-05,-0.16037636995315552,18.154138565063477,-1.1441986560821533,-17.948335647583008,-0.4928489327430725,-2.2488436698913574,0.17978231608867645,0
24,0.11505484580993652,0.16037636995315552,-18.154138565063477,1.1441986560821533,17.948335647583008,0.4928489327430725,2.2488436698913574,-0.17978231608867645,0.0,0.0,0.0,0.0,0.0,0.0,0.0,0.14692359553054266,0.5159127615820331,0.3153322255286078,0.33233786629653606,0.060147740510523934,0.057351217939563805,-0.17885130777344632,-0.6091828745632678,-0.05743275224273665,-0.6665949893332365,-2.594547874484146,-0.05562002236372052,2.507971767868743,0.8763147250826069,-0.6090851748156966,-0.05753196718556838,-0.666603097082616,-2.5945565370258534,-0.05562143941554,2.507976027223799,0.8763108487046415,6.328318998180385e-05,0.0004581575811277576,-0.00026701073493476813,2.0301035651064513e-05,-0.0005232184772780185,-0.0004906933852786135,-6.936418972073345e-05,0.0,0.0,0.0,0.0,0.0,0.0,0.0,9.769974757123379e-05,-9.921494283173654e-05,-8.107749379537843e-06,-8.6625417075048e-06,-1.4170518194828174e-06,4.259355055769021e-06,-3.876377965394973e-06,-6.328318998180385e-05,-0.0004581575811277576,0.00026701073493476813,-2.0301035651064513e-05,0.0005232184772780185,0.0004906933852786135,6.936418972073345e-05,-0.16037636995315552,18.154138565063477,-1.1441986560821533,-17.948335647583008,-0.4928489327430725,-2.2488436698913574,0.17978231608867645,0
25,0.12004995346069336,0.13260537385940552,-18.130334854125977,1.1164276599884033,17.972139358520508,0.4809470772743225,2.2424349784851074,-0.20724813640117645,0.0,0.0,0.0,0.0,0.0,0.0,0.0,0.14547627676726319,0.5149236927079026,0.3140721267676498,0.3369382451275914,0.05989787008908903,0.05711993819794856,-0.1770522549514813,-0.6091795030942425,-0.0574344324219209,-0.6665930404914053,-2.594551770147511,-0.055618170781501386,2.507972506085615,0.8763191901680185,-0.6090851748156966,-0.05753196718556838,-0.666603097082616,-2.5945565370258534,-0.05562143941554,2.507976027223799,0.8763108487046415,0.0008374991531973386,0.0002485348304665775,0.0007110258968645258,-0.00027695013432035056,0.00024779591738072307,-0.0002908983791808415,0.0010304271611884235,0.0,0.0,0.0,0.0,0.0,0.0,0.0,9.432827854594095e-05,-9.753476364748187e-05,-1.0056591210672039e-05,-4.766878342277181e-06,-3.2686340386139934e-06,3.521138184137129e-06,-8.341463377026237e-06,-0.0008374991531973386,-0.0002485348304665775,-0.0007110258968645258,0.00027695013432035056,-0.00024779591738072307,0.0002908983791808415,-0.0010304271611884235,-0.13260537385940552,18.130334854125977,-1.1164276599884033,-17.972139358520508,-0.4809470772743225,-2.2424349784851074,0.20724813640117645,0
26,0.12505054473876953,0.13260537385940552,-18.130334854125977,1.1164276599884033,17.972139358520508,0.4809470772743225,2.2424349784851074,-0.20724813640117645,0.0,0.0,0.0,0.0,0.0,0.0,0.0,0.14547627676726319,0.5149236927079026,0.3140721267676498,0.3369382451275914,0.05989787008908903,0.05711993819794856,-0.1770522549514813,-0.6091795030942425,-0.0574344324219209,-0.6665930404914053,-2.594551770147511,-0.055618170781501386,2.507972506085615,0.8763191901680185,-0.6090851748156966,-0.05753196718556838,-0.666603097082616,-2.5945565370258534,-0.05562143941554,2.507976027223799,0.8763108487046415,0.0008374991531973386,0.0002485348304665775,0.0007110258968645258,-0.00027695013432035056,0.00024779591738072307,-0.0002908983791808415,0.0010304271611884235,0.0,0.0,0.0,0.0,0.0,0.0,0.0,9.432827854594095e-05,-9.753476364748187e-05,-1.0056591210672039e-05,-4.766878342277181e-06,-3.2686340386139934e-06,3.521138184137129e-06,-8.341463377026237e-06,-0.0008374991531973386,-0.0002485348304665775,-0.0007110258968645258,0.00027695013432035056,-0.00024779591738072307,0.0002908983791808415,-0.0010304271611884235,-0.13260537385940552,18.130334854125977,-1.1164276599884033,-17.972139358520508,-0.4809470772743225,-2.2424349784851074,0.20724813640117645,0
27,0.1301126480102539,0.13260537385940552,-18.154138565063477,1.1441986560821533,17.999910354614258,0.4928489327430725,2.2488436698913574,-0.14590780436992645,0.0,0.0,0.0,0.0,0.0,0.0,0.0,0.14434704067138837,0.5133068939216306,0.3157935328862406,0.3396030264294647,0.059821327946905097,0.05698842720683227,-0.17606404995700856,-0.609179739542498,-0.05743275224279165,-0.6665949893332365,-2.594553691529804,-0.055619627506278344,2.5079717568626556,0.8763113149454195,-0.6090851748156966,-0.05753196718556838,-0.666603097082616,-2.5945565370258534,-0.05562143941554,2.507976027223799,0.8763108487046415,0.00021288678740673893,-3.746304693837313e-06,-0.00011223585487944424,-0.0010060602366176554,-0.0003167692746084826,-0.00024622096502181025,-0.0013564561107393663,0.0,0.0,0.0,0.0,0.0,0.0,0.0,9.456472680147154e-05,-9.921494277673193e-05,-8.107749379537843e-06,-2.8454960494528336e-06,-1.8119092616564192e-06,4.270361143365875e-06,-4.66240777985405e-07,-0.00021288678740673893,3.746304693837313e-06,0.00011223585487944424,0.0010060602366176554,0.0003167692746084826,0.00024622096502181025,0.0013564561107393663,-0.13260537385940552,18.154138565063477,-1.1441986560821533,-17.999910354614258,-0.4928489327430725,-2.2488436698913574,0.14590780436992645,0
28,0.13505101203918457,0.13260537385940552,-18.154138565063477,1.1441986560821533,17.999910354614258,0.4928489327430725,2.2488436698913574,-0.14590780436992645,0.0,0.0,0.0,0.0,0.0,0.0,0.0,0.14434704067138837,0.5133068939216306,0.3157935328862406,0.3396030264294647,0.059821327946905097,0.05698842720683227,-0.17606404995700856,-0.609179739542498,-0.05743275224279165,-0.6665949893332365,-2.594553691529804,-0.055619627506278344,2.5079717568626556,0.8763113149454195,-0.6090851748156966,-0.05753196718556838,-0.666603097082616,-2.5945565370258534,-0.05562143941554,2.507976027223799,0.8763108487046415,0.00021288678740673893,-3.746304693837313e-06,-0.00011223585487944424,-0.0010060602366176554,-0.0003167692746084826,-0.00024622096502181025,-0.0013564561107393663,0.0,0.0,0.0,0.0,0.0,0.0,0.0,9.456472680147154e-05,-9.921494277673193e-05,-8.107749379537843e-06,-2.8454960494528336e-06,-1.8119092616564192e-06,4.270361143365875e-06,-4.66240777985405e-07,-0.00021288678740673893,3.746304693837313e-06,0.00011223585487944424,0.0010060602366176554,0.0003167692746084826,0.00024622096502181025,0.0013564561107393663,-0.13260537385940552,18.154138565063477,-1.1441986560821533,-17.999910354614258,-0.4928489327430725,-2.2488436698913574,0.14590780436992645,0
29,0.14004969596862793,0.21195107698440552,-18.177942276000977,1.1164276599884033,17.948335647583008,0.4745383858680725,2.2360262870788574,-0.15964071452617645,0.0,0.0,0.0,0.0,0.0,0.0,0.0,0.147526582560231,0.5188244329300855,0.32134749156315723,0.3361649894491262,0.05969171549983068,0.05613952264041668,-0.17632657435826,-0.6091866573937701,-0.057431084765966485,-0.6665930404914053,-2.594550099686378,-0.05562101073982097,2.5079742516366004,0.8763138872130156,-0.6090851748156966,-0.05753196718556838,-0.666603097082616,-2.5945565370258534,-0.05562143941554,2.507976027223799,0.8763108487046415,-0.0014999208505092913,0.0006426822664946279,0.0004260750292549104,0.0003017322120361087,0.0002124044432647377,-0.00010944484413109877,-0.0011886064779912803,0.0,0.0,0.0,0.0,0.0,0.0,0.0,0.00010148257807351957,-0.00010088241960189842,-1.0056591210672039e-05,-6.437339475251491e-06,-4.286757190330448e-07,1.7755871986047111e-06,-3.0385083741313323e-06,0.0014999208505092913,-0.0006426822664946279,-0.0004260750292549104,-0.0003017322120361087,-0.0002124044432647377,0.00010944484413109877,0.0011886064779912803,-0.21195107698440552,18.177942276000977,-1.1164276599884033,-17.948335647583008,-0.4745383858680725,-2.2360262870788574,0.15964071452617645,0
30,0.1450510025024414,0.21195107698440552,-18.177942276000977,1.1164276599884033,17.948335647583008,0.4745383858680725,2.2360262870788574,-0.15964071452617645,0.0,0.0,0.0,0.0,0.0,0.0,0.0,0.147526582560231,0.5188244329300855,0.32134749156315723,0.3361649894491262,0.05969171549983068,0.05613952264041668,-0.17632657435826,-0.6091866573937701,-0.057431084765966485,-0.6665930404914053,-2.594550099686378,-0.05562101073982097,2.5079742516366004,0.8763138872130156,-0.6090851748156966,-0.05753196718556838,-0.666603097082616,-2.5945565370258534,-0.05562143941554,2.507976027223799,0.8763108487046415,-0.0014999208505092913,0.0006426822664946279,0.0004260750292549104,0.0003017322120361087,0.0002124044432647377,-0.00010944484413109877,-0.0011886064779912803,0.0,0.0,0.0,0.0,0.0,0.0,0.0,0.00010148257807351957,-0.00010088241960189842,-1.0056591210672039e-05,-6.437339475251491e-06,-4.286757190330448e-07,1.7755871986047111e-06,-3.0385083741313323e-06,0.0014999208505092913,-0.0006426822664946279,-0.0004260750292549104,-0.0003017322120361087,-0.0002124044432647377,0.00010944484413109877,0.0011886064779912803,-0.21195107698440552,18.177942276000977,-1.1164276599884033,-17.948335647583008,-0.4745383858680725,-2.2360262870788574,0.15964071452617645,0
31,0.15005278587341309,0.13260537385940552,-18.154138565063477,1.1441986560821533,17.972139358520508,0.4864402413368225,2.2424349784851074,-0.20724813640117645,0.0,0.0,0.0,0.0,0.0,0.0,0.0,0.15304365706566908,0.5166857686942922,0.32561914847255313,0.3357215317808005,0.059120050612826554,0.05568233871155748,-0.17662847252988206,-0.6091790262580076,-0.057433699294331446,-0.6665949883702593,-2.5945517701600727,-0.05562234779113724,2.5079724713678964,0.876316011261534,-0.6090851748156966,-0.05753196718556838,-0.666603097082616,-2.5945565370258534,-0.05562143941554,2.507976027223799,0.8763108487046415,0.0008112891241366271,-0.0001225860798691901,6.202559216630392e-05,-0.00026665254738341033,-3.504009836102493e-05,-0.00015964527731499872,0.0017224839969344605,0.0,0.0,0.0,0.0,0.0,0.0,0.0,9.385144231099929e-05,-9.826789123693752e-05,-8.108712356680314e-06,-4.766865780769791e-06,9.083755972416618e-07,3.5558559026149794e-06,-5.162556892535086e-06,-0.0008112891241366271,0.0001225860798691901,-6.202559216630392e-05,0.00026665254738341033,3.504009836102493e-05,0.00015964527731499872,-0.0017224839969344605,-0.13260537385940552,18.154138565063477,-1.1441986560821533,-17.972139358520508,-0.4864402413368225,-2.2424349784851074,0.20724813640117645,0
32,0.1550595760345459,0.13260537385940552,-18.154138565063477,1.1441986560821533,17.972139358520508,0.4864402413368225,2.2424349784851074,-0.20724813640117645,0.0,0.0,0.0,0.0,0.0,0.0,0.0,0.15304365706566908,0.5166857686942922,0.32561914847255313,0.3357215317808005,0.059120050612826554,0.05568233871155748,-0.17662847252988206,-0.6091790262580076,-0.057433699294331446,-0.6665949883702593,-2.5945517701600727,-0.05562234779113724,2.5079724713678964,0.876316011261534,-0.6090851748156966,-0.05753196718556838,-0.666603097082616,-2.5945565370258534,-0.05562143941554,2.507976027223799,0.8763108487046415,0.0008112891241366271,-0.0001225860798691901,6.202559216630392e-05,-0.00026665254738341033,-3.504009836102493e-05,-0.00015964527731499872,0.0017224839969344605,0.0,0.0,0.0,0.0,0.0,0.0,0.0,9.385144231099929e-05,-9.826789123693752e-05,-8.108712356680314e-06,-4.766865780769791e-06,9.083755972416618e-07,3.5558559026149794e-06,-5.162556892535086e-06,-0.0008112891241366271,0.0001225860798691901,-6.202559216630392e-05,0.00026665254738341033,3.504009836102493e-05,0.00015964527731499872,-0.0017224839969344605,-0.13260537385940552,18.154138565063477,-1.1441986560821533,-17.972139358520508,-0.4864402413368225,-2.2424349784851074,0.20724813640117645,0
33,0.16005635261535645,0.13260537385940552,-18.154138565063477,1.1441986560821533,17.972139358520508,0.4864402413368225,2.2424349784851074,-0.20724813640117645,0.0,0.0,0.0,0.0,0.0,0.0,0.0,0.15304365706566908,0.5166857686942922,0.32561914847255313,0.3357215317808005,0.059120050612826554,0.05568233871155748,-0.17662847252988206,-0.6091790262580076,-0.057433699294331446,-0.6665949883702593,-2.5945517701600727,-0.05562234779113724,2.5079724713678964,0.876316011261534,-0.6090851748156966,-0.05753196718556838,-0.666603097082616,-2.5945565370258534,-0.05562143941554,2.507976027223799,0.8763108487046415,0.0008112891241366271,-0.0001225860798691901,6.202559216630392e-05,-0.00026665254738341033,-3.504009836102493e-05,-0.00015964527731499872,0.0017224839969344605,0.0,0.0,0.0,0.0,0.0,0.0,0.0,9.385144231099929e-05,-9.826789123693752e-05,-8.108712356680314e-06,-4.766865780769791e-06,9.083755972416618e-07,3.5558559026149794e-06,-5.162556892535086e-06,-0.0008112891241366271,0.0001225860798691901,-6.202559216630392e-05,0.00026665254738341033,3.504009836102493e-05,0.00015964527731499872,-0.0017224839969344605,-0.13260537385940552,18.154138565063477,-1.1441986560821533,-17.972139358520508,-0.4864402413368225,-2.2424349784851074,0.20724813640117645,0
34,0.16505002975463867,0.13260537385940552,-18.154138565063477,1.1441986560821533,17.972139358520508,0.4864402413368225,2.2424349784851074,-0.20724813640117645,0.0,0.0,0.0,0.0,0.0,0.0,0.0,0.15304365706566908,0.5166857686942922,0.32561914847255313,0.3357215317808005,0.059120050612826554,0.05568233871155748,-0.17662847252988206,-0.6091790262580076,-0.057433699294331446,-0.6665949883702593,-2.5945517701600727,-0.05562234779113724,2.5079724713678964,0.876316011261534,-0.6090851748156966,-0.05753196718556838,-0.666603097082616,-2.5945565370258534,-0.05562143941554,2.507976027223799,0.8763108487046415,0.0008112891241366271,-0.0001225860798691901,6.202559216630392e-05,-0.00026665254738341033,-3.504009836102493e-05,-0.00015964527731499872,0.0017224839969344605,0.0,0.0,0.0,0.0,0.0,0.0,0.0,9.385144231099929e-05,-9.826789123693752e-05,-8.108712356680314e-06,-4.766865780769791e-06,9.083755972416618e-07,3.5558559026149794e-06,-5.162556892535086e-06,-0.0008112891241366271,0.0001225860798691901,-6.202559216630392e-05,0.00026665254738341033,3.504009836102493e-05,0.00015964527731499872,-0.0017224839969344605,-0.13260537385940552,18.154138565063477,-1.1441986560821533,-17.972139358520508,-0.4864402413368225,-2.2424349784851074,0.20724813640117645,0
35,0.17005515098571777,0.10880166292190552,-18.130334854125977,1.1441986560821533,17.972139358520508,0.4864402413368225,2.2424349784851074,-0.15964071452617645,0.0,0.0,0.0,0.0,0.0,0.0,0.0,0.15315665689840965,0.516960666237145,0.3269953586367539,0.3331712049055517,0.059063733443855494,0.05541477080736067,-0.1769279490325599,-0.6091802174875535,-0.057434422683938044,-0.666594989333231,-2.59455168763072,-0.05562233032094219,2.5079725241741917,0.8763139004445101,-0.6090851748156966,-0.05753196718556838,-0.666603097082616,-2.5945565370258534,-0.05562143941554,2.507976027223799,0.8763108487046415,0.0015421515889489947,-0.0004141251185110373,0.0002337616789430827,-7.775153255173675e-05,-0.00022399084413936383,-0.0002653607553673848,-0.0013041983913316406,0.0,0.0,0.0,0.0,0.0,0.0,0.0,9.504267185689308e-05,-9.754450163033945e-05,-8.107749384977936e-06,-4.849395133454948e-06,8.909054021871698e-07,3.503049607278541e-06,-3.051739868586978e-06,-0.0015421515889489947,0.0004141251185110373,-0.0002337616789430827,7.775153255173675e-05,0.00022399084413936383,0.0002653607553673848,0.0013041983913316406,-0.10880166292190552,18.130334854125977,-1.1441986560821533,-17.972139358520508,-0.4864402413368225,-2.2424349784851074,0.15964071452617645,0
36,0.17505669593811035,0.10880166292190552,-18.130334854125977,1.1441986560821533,17.972139358520508,0.4864402413368225,2.2424349784851074,-0.15964071452617645,0.0,0.0,0.0,0.0,0.0,0.0,0.0,0.15315665689840965,0.516960666237145,0.3269953586367539,0.3331712049055517,0.059063733443855494,0.05541477080736067,-0.1769279490325599,-0.6091802174875535,-0.057434422683938044,-0.666594989333231,-2.59455168763072,-0.05562233032094219,2.5079725241741917,0.8763139004445101,-0.6090851748156966,-0.05753196718556838,-0.666603097082616,-2.5945565370258534,-0.05562143941554,2.507976027223799,0.8763108487046415,0.0015421515889489947,-0.0004141251185110373,0.0002337616789430827,-7.775153255173675e-05,-0.00022399084413936383,-0.0002653607553673848,-0.0013041983913316406,0.0,0.0,0.0,0.0,0.0,0.0,0.0,9.504267185689308e-05,-9.754450163033945e-05,-8.107749384977936e-06,-4.849395133454948e-06,8.909054021871698e-07,3.503049607278541e-06,-3.051739868586978e-06,-0.0015421515889489947,0.0004141251185110373,-0.0002337616789430827,7.775153255173675e-05,0.00022399084413936383,0.0002653607553673848,0.0013041983913316406,-0.10880166292190552,18.130334854125977,-1.1441986560821533,-17.972139358520508,-0.4864402413368225,-2.2424349784851074,0.15964071452617645,0
37,0.18001437187194824,0.16037636995315552,-18.130334854125977,1.0926239490509033,17.972139358520508,0.4864402413368225,2.2296175956726074,-0.18710653483867645,0.0,0.0,0.0,0.0,0.0,0.0,0.0,0.14599684393543572,0.5153992985416138,0.32128861389848723,0.3336480023552271,0.05914109298652679,0.055473656386098566,-0.1772253878519218,-0.6091809672148011,-0.057435369730170015,-0.6665913700555499,-2.5945510284133304,-0.05562234735930014,2.507973891011311,0.8763169389708282,-0.6090851748156966,-0.05753196718556838,-0.666603097082616,-2.5945565370258534,-0.05562143941554,2.507976027223799,0.8763108487046415,-0.0005392940406803193,-9.477741635794812e-05,0.0006534705620706252,-0.00023497170998248193,2.8117436060712192e-05,0.0003930891371367928,-4.956576363245642e-05,0.0,0.0,0.0,0.0,0.0,0.0,0.0,9.579239910451065e-05,-9.659745539836867e-05,-1.1727027066088525e-05,-5.508612523019707e-06,9.079437601408613e-07,2.136212487791056e-06,-6.090266186697946e-06,0.0005392940406803193,9.477741635794812e-05,-0.0006534705620706252,0.00023497170998248193,-2.8117436060712192e-05,-0.0003930891371367928,4.956576363245642e-05,-0.16037636995315552,18.130334854125977,-1.0926239490509033,-17.972139358520508,-0.4864402413368225,-2.2296175956726074,0.18710653483867645,0
38,0.18504905700683594,0.16037636995315552,-18.130334854125977,1.0926239490509033,17.972139358520508,0.4864402413368225,2.2296175956726074,-0.18710653483867645,0.0,0.0,0.0,0.0,0.0,0.0,0.0,0.14599684393543572,0.5153992985416138,0.32128861389848723,0.3336480023552271,0.05914109298652679,0.055473656386098566,-0.1772253878519218,-0.6091809672148011,-0.057435369730170015,-0.6665913700555499,-2.5945510284133304,-0.05562234735930014,2.507973891011311,0.8763169389708282,-0.6090851748156966,-0.05753196718556838,-0.666603097082616,-2.5945565370258534,-0.05562143941554,2.507976027223799,0.8763108487046415,-0.0005392940406803193,-9.477741635794812e-05,0.0006534705620706252,-0.00023497170998248193,2.8117436060712192e-05,0.0003930891371367928,-4.956576363245642e-05,0.0,0.0,0.0,0.0,0.0,0.0,0.0,9.579239910451065e-05,-9.659745539836867e-05,-1.1727027066088525e-05,-5.508612523019707e-06,9.079437601408613e-07,2.136212487791056e-06,-6.090266186697946e-06,0.0005392940406803193,9.477741635794812e-05,-0.0006534705620706252,0.00023497170998248193,-2.8117436060712192e-05,-0.0003930891371367928,4.956576363245642e-05,-0.16037636995315552,18.130334854125977,-1.0926239490509033,-17.972139358520508,-0.4864402413368225,-2.2296175956726074,0.18710653483867645,0
39,0.19005346298217773,0.13260537385940552,-18.130334854125977,1.0926239490509033,17.948335647583008,0.4928489327430725,2.2488436698913574,-0.15231649577617645,0.0,0.0,0.0,0.0,0.0,0.0,0.0,0.10577563317123378,0.5104939100878446,0.27759293974354904,0.3358026244583663,0.06165902618401406,0.05534705427516097,-0.17788533752492058,-0.6091811729946757,-0.057434422683938044,-0.6665913700555499,-2.5945500997200304,-0.05562320433587769,2.507972225713141,0.8763130866602971,-0.6090851748156966,-0.05753196718556838,-0.666603097082616,-2.5945565370258534,-0.05562143941554,2.507976027223799,0.8763108487046415,-0.00014433214954609586,-0.0004916737484618247,0.0018051467096255169,0.0003619881335166021,-0.00030037162684545273,5.860099942255506e-06,-0.0006958371942999816,0.0,0.0,0.0,0.0,0.0,0.0,0.0,9.599817897909535e-05,-9.754450163033945e-05,-1.1727027066088525e-05,-6.437305823059347e-06,1.764920337689324e-06,3.801510657819307e-06,-2.2379556555707225e-06,0.00014433214954609586,0.0004916737484618247,-0.0018051467096255169,-0.0003619881335166021,0.00030037162684545273,-5.860099942255506e-06,0.0006958371942999816,-0.13260537385940552,18.130334854125977,-1.0926239490509033,-17.948335647583008,-0.4928489327430725,-2.2488436698913574,0.15231649577617645,0
40,0.1951465606689453,0.13260537385940552,-18.130334854125977,1.0926239490509033,17.948335647583008,0.4928489327430725,2.2488436698913574,-0.15231649577617645,0.0,0.0,0.0,0.0,0.0,0.0,0.0,0.10577563317123378,0.5104939100878446,0.27759293974354904,0.3358026244583663,0.06165902618401406,0.05534705427516097,-0.17788533752492058,-0.6091811729946757,-0.057434422683938044,-0.6665913700555499,-2.5945500997200304,-0.05562320433587769,2.507972225713141,0.8763130866602971,-0.6090851748156966,-0.05753196718556838,-0.666603097082616,-2.5945565370258534,-0.05562143941554,2.507976027223799,0.8763108487046415,-0.00014433214954609586,-0.0004916737484618247,0.0018051467096255169,0.0003619881335166021,-0.00030037162684545273,5.860099942255506e-06,-0.0006958371942999816,0.0,0.0,0.0,0.0,0.0,0.0,0.0,9.599817897909535e-05,-9.754450163033945e-05,-1.1727027066088525e-05,-6.437305823059347e-06,1.764920337689324e-06,3.801510657819307e-06,-2.2379556555707225e-06,0.00014433214954609586,0.0004916737484618247,-0.0018051467096255169,-0.0003619881335166021,0.00030037162684545273,-5.860099942255506e-06,0.0006958371942999816,-0.13260537385940552,18.130334854125977,-1.0926239490509033,-17.948335647583008,-0.4928489327430725,-2.2488436698913574,0.15231649577617645,0
41,0.20004963874816895,0.16037636995315552,-18.154138565063477,1.1164276599884033,17.999910354614258,0.4864402413368225,2.2360262870788574,-0.20724813640117645,0.0,0.0,0.0,0.0,0.0,0.0,0.0,0.13945017734445667,0.5169004863429291,0.3071988625225776,0.33404737526919026,0.06028722855176895,0.0565992607185696,-0.1774990609470951,-0.6091838367773582,-0.057432753217069574,-0.6665930404914052,-2.5945537190019037,-0.055622491935347455,2.5079736498694456,0.8763191901759968,-0.6090851748156966,-0.05753196718556838,-0.666603097082616,-2.5945565370258534,-0.05562143941554,2.507976027223799,0.8763108487046415,-0.0008404572521443471,-0.00011458738521840072,-0.00021889816978747995,-0.0010458657601157121,9.098705082570869e-06,0.00019741867027157336,0.0008230203608357436,0.0,0.0,0.0,0.0,0.0,0.0,0.0,9.86619616616391e-05,-9.92139684988097e-05,-1.0056591210783061e-05,-2.8180239497466175e-06,1.0525198074554099e-06,2.377354353377825e-06,-8.341471355310937e-06,0.0008404572521443471,0.00011458738521840072,0.00021889816978747995,0.0010458657601157121,-9.098705082570869e-06,-0.00019741867027157336,-0.0008230203608357436,-0.16037636995315552,18.154138565063477,-1.1164276599884033,-17.999910354614258,-0.4864402413368225,-2.2360262870788574,0.20724813640117645,0
42,0.20505166053771973,0.16037636995315552,-18.154138565063477,1.1164276599884033,17.999910354614258,0.4864402413368225,2.2360262870788574,-0.20724813640117645,0.0,0.0,0.0,0.0,0.0,0.0,0.0,0.13945017734445667,0.5169004863429291,0.3071988625225776,0.33404737526919026,0.06028722855176895,0.0565992607185696,-0.1774990609470951,-0.6091838367773582,-0.057432753217069574,-0.6665930404914052,-2.5945537190019037,-0.055622491935347455,2.5079736498694456,0.8763191901759968,-0.6090851748156966,-0.05753196718556838,-0.666603097082616,-2.5945565370258534,-0.05562143941554,2.507976027223799,0.8763108487046415,-0.0008404572521443471,-0.00011458738521840072,-0.00021889816978747995,-0.0010458657601157121,9.098705082570869e-06,0.00019741867027157336,0.0008230203608357436,0.0,0.0,0.0,0.0,0.0,0.0,0.0,9.86619616616391e-05,-9.92139684988097e-05,-1.0056591210783061e-05,-2.8180239497466175e-06,1.0525198074554099e-06,2.377354353377825e-06,-8.341471355310937e-06,0.0008404572521443471,0.00011458738521840072,0.00021889816978747995,0.0010458657601157121,-9.098705082570869e-06,-0.00019741867027157336,-0.0008230203608357436,-0.16037636995315552,18.154138565063477,-1.1164276599884033,-17.999910354614258,-0.4864402413368225,-2.2360262870788574,0.20724813640117645,0
43,0.21004939079284668,0.13260537385940552,-18.130334854125977,1.1680023670196533,17.972139358520508,0.4809470772743225,2.2424349784851074,-0.15231649577617645,0.0,0.0,0.0,0.0,0.0,0.0,0.0,0.15204024953811918,0.5211560926455058,0.32024846205757246,0.3331480887632446,0.05988010093719135,0.05646697817185098,-0.1772459657982395,-0.6091816497390163,-0.05743442412205356,-0.6665966597690915,-2.5945517701600727,-0.05562187720269184,2.507972584579913,0.8763130866603718,-0.6090851748156966,-0.05753196718556838,-0.666603097082616,-2.5945565370258534,-0.05562143941554,2.507976027223799,0.8763108487046415,9.3898124897491e-05,-0.00022613725431565993,-0.0009425540355217025,-0.00047242838241095717,0.00010862086323486956,-3.1394639399366906e-05,-0.00025777118601663944,0.0,0.0,0.0,0.0,0.0,0.0,0.0,9.647492331976704e-05,-9.754306351482389e-05,-6.437313524454424e-06,-4.766865780769791e-06,4.3778715184267236e-07,3.4426438859647135e-06,-2.237955730288732e-06,-9.3898124897491e-05,0.00022613725431565993,0.0009425540355217025,0.00047242838241095717,-0.00010862086323486956,3.1394639399366906e-05,0.00025777118601663944,-0.13260537385940552,18.130334854125977,-1.1680023670196533,-17.972139358520508,-0.4809470772743225,-2.2424349784851074,0.15231649577617645,0
44,0.215057373046875,0.13260537385940552,-18.130334854125977,1.1680023670196533,17.972139358520508,0.4809470772743225,2.2424349784851074,-0.15231649577617645,0.0,0.0,0.0,0.0,0.0,0.0,0.0,0.15204024953811918,0.5211560926455058,0.32024846205757246,0.3331480887632446,0.05988010093719135,0.05646697817185098,-0.1772459657982395,-0.6091816497390163,-0.05743442412205356,-0.6665966597690915,-2.5945517701600727,-0.05562187720269184,2.507972584579913,0.8763130866603718,-0.6090851748156966,-0.05753196718556838,-0.666603097082616,-2.5945565370258534,-0.05562143941554,2.507976027223799,0.8763108487046415,9.3898124897491e-05,-0.00022613725431565993,-0.0009425540355217025,-0.00047242838241095717,0.00010862086323486956,-3.1394639399366906e-05,-0.00025777118601663944,0.0,0.0,0.0,0.0,0.0,0.0,0.0,9.647492331976704e-05,-9.754306351482389e-05,-6.437313524454424e-06,-4.766865780769791e-06,4.3778715184267236e-07,3.4426438859647135e-06,-2.237955730288732e-06,-9.3898124897491e-05,0.00022613725431565993,0.0009425540355217025,0.00047242838241095717,-0.00010862086323486956,3.1394639399366906e-05,0.00025777118601663944,-0.13260537385940552,18.130334854125977,-1.1680023670196533,-17.972139358520508,-0.4809470772743225,-2.2424349784851074,0.15231649577617645,0
45,0.22006630897521973,0.21195107698440552,-18.078760147094727,1.1918060779571533,17.948335647583008,0.4809470772743225,2.2360262870788574,-0.20083944499492645,0.0,0.0,0.0,0.0,0.0,0.0,0.0,0.16223463512771935,0.5246447404949341,0.3347492844321576,0.33245403907127596,0.059284920406247506,0.05638194259351257,-0.17616449933293563,-0.6091874563847847,-0.0574380432914834,-0.6665983302049469,-2.594550099686533,-0.05562153980455036,2.507974591821846,0.8763183603616039,-0.6090851748156966,-0.05753196718556838,-0.666603097082616,-2.5945565370258534,-0.05562143941554,2.507976027223799,0.8763108487046415,-0.0007356961561486739,-0.0011131406377373192,-8.997714327507027e-05,0.0002353937470005459,5.945635049791988e-05,0.0002328878591333498,0.0004803215546216349,0.0,0.0,0.0,0.0,0.0,0.0,0.0,0.00010228156908809183,-9.392389408498236e-05,-4.766877669148961e-06,-6.437339320264357e-06,1.0038901036152348e-07,1.4354019528539652e-06,-7.511656962444491e-06,0.0007356961561486739,0.0011131406377373192,8.997714327507027e-05,-0.0002353937470005459,-5.945635049791988e-05,-0.0002328878591333498,-0.0004803215546216349,-0.21195107698440552,18.078760147094727,-1.1918060779571533,-17.948335647583008,-0.4809470772743225,-2.2360262870788574,0.20083944499492645,0
46,0.22505569458007812,0.21195107698440552,-18.078760147094727,1.1918060779571533,17.948335647583008,0.4809470772743225,2.2360262870788574,-0.20083944499492645,0.0,0.0,0.0,0.0,0.0,0.0,0.0,0.16223463512771935,0.5246447404949341,0.3347492844321576,0.33245403907127596,0.059284920406247506,0.05638194259351257,-0.17616449933293563,-0.6091874563847847,-0.0574380432914834,-0.6665983302049469,-2.594550099686533,-0.05562153980455036,2.507974591821846,0.8763183603616039,-0.6090851748156966,-0.05753196718556838,-0.666603097082616,-2.5945565370258534,-0.05562143941554,2.507976027223799,0.8763108487046415,-0.0007356961561486739,-0.0011131406377373192,-8.997714327507027e-05,0.0002353937470005459,5.945635049791988e-05,0.0002328878591333498,0.0004803215546216349,0.0,0.0,0.0,0.0,0.0,0.0,0.0,0.00010228156908809183,-9.392389408498236e-05,-4.766877669148961e-06,-6.437339320264357e-06,1.0038901036152348e-07,1.4354019528539652e-06,-7.511656962444491e-06,0.0007356961561486739,0.0011131406377373192,8.997714327507027e-05,-0.0002353937470005459,-5.945635049791988e-05,-0.0002328878591333498,-0.0004803215546216349,-0.21195107698440552,18.078760147094727,-1.1918060779571533,-17.948335647583008,-0.4809470772743225,-2.2360262870788574,0.20083944499492645,0
47,0.23005294799804688,0.16037636995315552,-18.130334854125977,1.1680023670196533,17.972139358520508,0.4745383858680725,2.2552523612976074,-0.18710653483867645,0.0,0.0,0.0,0.0,0.0,0.0,0.0,0.1517608384582758,0.5263118280203104,0.3283047255226153,0.33417417550936107,0.0603616751639533,0.0559834961334927,-0.17758572944889295,-0.6091838371084447,-0.057434422678599446,-0.6665967392419513,-2.5945517698209106,-0.05561690664911974,2.5079711618851346,0.8763169520580975,-0.6090851748156966,-0.05753196718556838,-0.666603097082616,-2.5945565370258534,-0.05562143941554,2.507976027223799,0.8763108487046415,0.00022018898574603654,0.00038332438063697966,0.00017145055227376445,-0.00046784375281200643,0.0003357225965896082,-0.0006554240226641169,0.000866876493115302,0.0,0.0,0.0,0.0,0.0,0.0,0.0,9.866229274813065e-05,-9.754450696893707e-05,-6.357840664716896e-06,-4.767204942801584e-06,-4.532766420262124e-06,4.865338664394869e-06,-6.103353455966243e-06,-0.00022018898574603654,-0.00038332438063697966,-0.00017145055227376445,0.00046784375281200643,-0.0003357225965896082,0.0006554240226641169,-0.000866876493115302,-0.16037636995315552,18.130334854125977,-1.1680023670196533,-17.972139358520508,-0.4745383858680725,-2.2552523612976074,0.18710653483867645,0
48,0.23505067825317383,0.16037636995315552,-18.130334854125977,1.1680023670196533,17.972139358520508,0.4745383858680725,2.2552523612976074,-0.18710653483867645,0.0,0.0,0.0,0.0,0.0,0.0,0.0,0.1517608384582758,0.5263118280203104,0.3283047255226153,0.33417417550936107,0.0603616751639533,0.0559834961334927,-0.17758572944889295,-0.6091838371084447,-0.057434422678599446,-0.6665967392419513,-2.5945517698209106,-0.05561690664911974,2.5079711618851346,0.8763169520580975,-0.6090851748156966,-0.05753196718556838,-0.666603097082616,-2.5945565370258534,-0.05562143941554,2.507976027223799,0.8763108487046415,0.00022018898574603654,0.00038332438063697966,0.00017145055227376445,-0.00046784375281200643,0.0003357225965896082,-0.0006554240226641169,0.000866876493115302,0.0,0.0,0.0,0.0,0.0,0.0,0.0,9.866229274813065e-05,-9.754450696893707e-05,-6.357840664716896e-06,-4.767204942801584e-06,-4.532766420262124e-06,4.865338664394869e-06,-6.103353455966243e-06,-0.00022018898574603654,-0.00038332438063697966,-0.00017145055227376445,0.00046784375281200643,-0.0003357225965896082,0.0006554240226641169,-0.000866876493115302,-0.16037636995315552,18.130334854125977,-1.1680023670196533,-17.972139358520508,-0.4745383858680725,-2.2552523612976074,0.18710653483867645,0
49,0.2400510311126709,0.16037636995315552,-18.130334854125977,1.1441986560821533,17.924531936645508,0.4864402413368225,2.2488436698913574,-0.14590780436992645,0.0,0.0,0.0,0.0,0.0,0.0,0.0,0.14849666497236677,0.5218028063338238,0.32799361617053363,0.3372918794255843,0.060439333894998566,0.05605746015652991,-0.17816772584246696,-0.6091838371084447,-0.05743442267859191,-0.6665949113322459,-2.594548429288362,-0.05561812441206148,2.507975993315603,0.8763122563614619,-0.6090851748156966,-0.05753196718556838,-0.666603097082616,-2.5945565370258534,-0.05562143941554,2.507976027223799,0.8763108487046415,-1.3362093058213406e-05,-0.000764475264691343,-0.00020032857805815348,0.0009112408515832334,6.525299728328645e-06,-0.00018169571536488162,-0.0012144025298768697,0.0,0.0,0.0,0.0,0.0,0.0,0.0,9.866229274813065e-05,-9.754450697647271e-05,-8.185750370093281e-06,-8.107737491602762e-06,-3.315003478519818e-06,3.39081958067311e-08,-1.4076568204401951e-06,1.3362093058213406e-05,0.000764475264691343,0.00020032857805815348,-0.0009112408515832334,-6.525299728328645e-06,0.00018169571536488162,0.0012144025298768697,-0.16037636995315552,18.130334854125977,-1.1441986560821533,-17.924531936645508,-0.4864402413368225,-2.2488436698913574,0.14590780436992645,0
50,0.24504923820495605,0.16037636995315552,-18.130334854125977,1.1441986560821533,17.924531936645508,0.4864402413368225,2.2488436698913574,-0.14590780436992645,0.0,0.0,0.0,0.0,0.0,0.0,0.0,0.14849666497236677,0.5218028063338238,0.32799361617053363,0.3372918794255843,0.060439333894998566,0.05605746015652991,-0.17816772584246696,-0.6091838371084447,-0.05743442267859191,-0.6665949113322459,-2.594548429288362,-0.05561812441206148,2.507975993315603,0.8763122563614619,-0.6090851748156966,-0.05753196718556838,-0.666603097082616,-2.5945565370258534,-0.05562143941554,2.507976027223799,0.8763108487046415,-1.3362093058213406e-05,-0.000764475264691343,-0.00020032857805815348,0.0009112408515832334,6.525299728328645e-06,-0.00018169571536488162,-0.0012144025298768697,0.0,0.0,0.0,0.0,0.0,0.0,0.0,9.866229274813065e-05,-9.754450697647271e-05,-8.185750370093281e-06,-8.107737491602762e-06,-3.315003478519818e-06,3.39081958067311e-08,-1.4076568204401951e-06,1.3362093058213406e-05,0.000764475264691343,0.00020032857805815348,-0.0009112408515832334,-6.525299728328645e-06,0.00018169571536488162,0.0012144025298768697,-0.16037636995315552,18.130334854125977,-1.1441986560821533,-17.924531936645508,-0.4864402413368225,-2.2488436698913574,0.14590780436992645,0
51,0.2500486373901367,0.13260537385940552,-18.177942276000977,1.0688202381134033,17.972139358520508,0.4809470772743225,2.2424349784851074,-0.16604940593242645,0.0,0.0,0.0,0.0,0.0,0.0,0.0,0.15279818940446643,0.5263463886778457,0.3298420531999323,0.337073981723331,0.06027644764298457,0.057180496994789394,-0.17677105858878553,-0.6091818882666136,-0.05743108180688138,-0.6665896996192543,-2.5945517701600727,-0.05562183801865318,2.507972510523954,0.8763141411038142,-0.6090851748156966,-0.05753196718556838,-0.666603097082616,-2.5945565370258534,-0.05562143941554,2.507976027223799,0.8763108487046415,0.00024329574944353203,0.00131957928399517,0.0010306528862645014,0.0005084538882816564,0.0001009565636903948,0.00018487205677397285,-5.325242603036077e-05,0.0,0.0,0.0,0.0,0.0,0.0,0.0,9.671345091699646e-05,-0.00010088537868700037,-1.339746336170844e-05,-4.766865780769791e-06,3.986031131830714e-07,3.516699845107496e-06,-3.2923991727384916e-06,-0.00024329574944353203,-0.00131957928399517,-0.0010306528862645014,-0.0005084538882816564,-0.0001009565636903948,-0.00018487205677397285,5.325242603036077e-05,-0.13260537385940552,18.177942276000977,-1.0688202381134033,-17.972139358520508,-0.4809470772743225,-2.2424349784851074,0.16604940593242645,0
52,0.2550487518310547,0.13260537385940552,-18.177942276000977,1.0688202381134033,17.972139358520508,0.4809470772743225,2.2424349784851074,-0.16604940593242645,0.0,0.0,0.0,0.0,0.0,0.0,0.0,0.15279818940446643,0.5263463886778457,0.3298420531999323,0.337073981723331,0.06027644764298457,0.057180496994789394,-0.17677105858878553,-0.6091818882666136,-0.05743108180688138,-0.6665896996192543,-2.5945517701600727,-0.05562183801865318,2.507972510523954,0.8763141411038142,-0.6090851748156966,-0.05753196718556838,-0.666603097082616,-2.5945565370258534,-0.05562143941554,2.507976027223799,0.8763108487046415,0.00024329574944353203,0.00131957928399517,0.0010306528862645014,0.0005084538882816564,0.0001009565636903948,0.00018487205677397285,-5.325242603036077e-05,0.0,0.0,0.0,0.0,0.0,0.0,0.0,9.671345091699646e-05,-0.00010088537868700037,-1.339746336170844e-05,-4.766865780769791e-06,3.986031131830714e-07,3.516699845107496e-06,-3.2923991727384916e-06,-0.00024329574944353203,-0.00131957928399517,-0.0010306528862645014,-0.0005084538882816564,-0.0001009565636903948,-0.00018487205677397285,5.325242603036077e-05,-0.13260537385940552,18.177942276000977,-1.0688202381134033,-17.972139358520508,-0.4809470772743225,-2.2424349784851074,0.16604940593242645,0
53,0.26004910469055176,0.13260537385940552,-18.177942276000977,1.0688202381134033,17.972139358520508,0.4809470772743225,2.2424349784851074,-0.16604940593242645,0.0,0.0,0.0,0.0,0.0,0.0,0.0,0.15279818940446643,0.5263463886778457,0.3298420531999323,0.337073981723331,0.06027644764298457,0.057180496994789394,-0.17677105858878553,-0.6091818882666136,-0.05743108180688138,-0.6665896996192543,-2.5945517701600727,-0.05562183801865318,2.507972510523954,0.8763141411038142,-0.6090851748156966,-0.05753196718556838,-0.666603097082616,-2.5945565370258534,-0.05562143941554,2.507976027223799,0.8763108487046415,0.00024329574944353203,0.00131957928399517,0.0010306528862645014,0.0005084538882816564,0.0001009565636903948,0.00018487205677397285,-5.325242603036077e-05,0.0,0.0,0.0,0.0,0.0,0.0,0.0,9.671345091699646e-05,-0.00010088537868700037,-1.339746336170844e-05,-4.766865780769791e-06,3.986031131830714e-07,3.516699845107496e-06,-3.2923991727384916e-06,-0.00024329574944353203,-0.00131957928399517,-0.0010306528862645014,-0.0005084538882816564,-0.0001009565636903948,-0.00018487205677397285,5.325242603036077e-05,-0.13260537385940552,18.177942276000977,-1.0688202381134033,-17.972139358520508,-0.4809470772743225,-2.2424349784851074,0.16604940593242645,0
54,0.26505112648010254,0.13260537385940552,-18.177942276000977,1.0688202381134033,17.972139358520508,0.4809470772743225,2.2424349784851074,-0.16604940593242645,0.0,0.0,0.0,0.0,0.0,0.0,0.0,0.15279818940446643,0.5263463886778457,0.3298420531999323,0.337073981723331,0.06027644764298457,0.057180496994789394,-0.17677105858878553,-0.6091818882666136,-0.05743108180688138,-0.6665896996192543,-2.5945517701600727,-0.05562183801865318,2.507972510523954,0.8763141411038142,-0.6090851748156966,-0.05753196718556838,-0.666603097082616,-2.5945565370258534,-0.05562143941554,2.507976027223799,0.8763108487046415,0.00024329574944353203,0.00131957928399517,0.0010306528862645014,0.0005084538882816564,0.0001009565636903948,0.00018487205677397285,-5.325242603036077e-05,0.0,0.0,0.0,0.0,0.0,0.0,0.0,9.671345091699646e-05,-0.00010088537868700037,-1.339746336170844e-05,-4.766865780769791e-06,3.986031131830714e-07,3.516699845107496e-06,-3.2923991727384916e-06,-0.00024329574944353203,-0.00131957928399517,-0.0010306528862645014,-0.0005084538882816564,-0.0001009565636903948,-0.00018487205677397285,5.325242603036077e-05,-0.13260537385940552,18.177942276000977,-1.0688202381134033,-17.972139358520508,-0.4809470772743225,-2.2424349784851074,0.16604940593242645,0
55,0.27005815505981445,0.18418008089065552,-18.177942276000977,1.0926239490509033,17.948335647583008,0.4745383858680725,2.2552523612976074,-0.17978231608867645,0.0,0.0,0.0,0.0,0.0,0.0,0.0,0.15195861079282352,0.5207731909751352,0.3250986488124181,0.33535775879250646,0.059902423280549295,0.057868180472647655,-0.17768799005710995,-0.6091832823042284,-0.05743108213165902,-0.6665892640247679,-2.5945500997242177,-0.05561999872767691,2.507971081932142,0.876316138415523,-0.6090851748156966,-0.05753196718556838,-0.666603097082616,-2.5945565370258534,-0.05562143941554,2.507976027223799,0.8763108487046415,-0.0014533765342226268,0.00029757025207508903,0.00043886208270178253,9.775141606140536e-05,0.0005029973080016198,-0.0005178865492028268,-0.000238536202078522,0.0,0.0,0.0,0.0,0.0,0.0,0.0,9.810748853178453e-05,-0.00010088505390936503,-1.3833057848078312e-05,-6.4373016357421875e-06,-1.4406878630912612e-06,4.945291657065809e-06,-5.289710881539733e-06,0.0014533765342226268,-0.00029757025207508903,-0.00043886208270178253,-9.775141606140536e-05,-0.0005029973080016198,0.0005178865492028268,0.000238536202078522,-0.18418008089065552,18.177942276000977,-1.0926239490509033,-17.948335647583008,-0.4745383858680725,-2.2552523612976074,0.17978231608867645,0
56,0.275057315826416,0.18418008089065552,-18.177942276000977,1.0926239490509033,17.948335647583008,0.4745383858680725,2.2552523612976074,-0.17978231608867645,0.0,0.0,0.0,0.0,0.0,0.0,0.0,0.15195861079282352,0.5207731909751352,0.3250986488124181,0.33535775879250646,0.059902423280549295,0.057868180472647655,-0.17768799005710995,-0.6091832823042284,-0.05743108213165902,-0.6665892640247679,-2.5945500997242177,-0.05561999872767691,2.507971081932142,0.876316138415523,-0.6090851748156966,-0.05753196718556838,-0.666603097082616,-2.5945565370258534,-0.05562143941554,2.507976027223799,0.8763108487046415,-0.0014533765342226268,0.00029757025207508903,0.00043886208270178253,9.775141606140536e-05,0.0005029973080016198,-0.0005178865492028268,-0.000238536202078522,0.0,0.0,0.0,0.0,0.0,0.0,0.0,9.810748853178453e-05,-0.00010088505390936503,-1.3833057848078312e-05,-6.4373016357421875e-06,-1.4406878630912612e-06,4.945291657065809e-06,-5.289710881539733e-06,0.0014533765342226268,-0.00029757025207508903,-0.00043886208270178253,-9.775141606140536e-05,-0.0005029973080016198,0.0005178865492028268,0.000238536202078522,-0.18418008089065552,18.177942276000977,-1.0926239490509033,-17.948335647583008,-0.4745383858680725,-2.2552523612976074,0.17978231608867645,0
57,0.2800564765930176,0.18418008089065552,-18.130334854125977,1.1680023670196533,17.972139358520508,0.4809470772743225,2.2424349784851074,-0.17337362468242645,0.0,0.0,0.0,0.0,0.0,0.0,0.0,0.15157078895881515,0.5182533014779389,0.32150743143198535,0.3370271934109071,0.05953651271796245,0.058211603719340775,-0.17785142314943575,-0.609185477128606,-0.05743465944148646,-0.6665966597689448,-2.594551770147511,-0.05562140834712418,2.5079725080781103,0.8763154263413614,-0.6090851748156966,-0.05753196718556838,-0.666603097082616,-2.5945565370258534,-0.05562143941554,2.507976027223799,0.8763108487046415,-0.0008463947013338568,-0.0005909775552299542,-0.0007331256944136961,0.00013324673602054535,0.00016999334702072196,-0.00021665522391467817,-0.0001081826968079651,0.0,0.0,0.0,0.0,0.0,0.0,0.0,0.00010030231290947267,-9.730774408192588e-05,-6.437313671225908e-06,-4.766878342277181e-06,-3.106841581917985e-08,3.5191456886352057e-06,-4.577636719904632e-06,0.0008463947013338568,0.0005909775552299542,0.0007331256944136961,-0.00013324673602054535,-0.00016999334702072196,0.00021665522391467817,0.0001081826968079651,-0.18418008089065552,18.130334854125977,-1.1680023670196533,-17.972139358520508,-0.4809470772743225,-2.2424349784851074,0.17337362468242645,0
58,0.28501129150390625,0.18418008089065552,-18.130334854125977,1.1680023670196533,17.972139358520508,0.4809470772743225,2.2424349784851074,-0.17337362468242645,0.0,0.0,0.0,0.0,0.0,0.0,0.0,0.15157078895881515,0.5182533014779389,0.32150743143198535,0.3370271934109071,0.05953651271796245,0.058211603719340775,-0.17785142314943575,-0.609185477128606,-0.05743465944148646,-0.6665966597689448,-2.594551770147511,-0.05562140834712418,2.5079725080781103,0.8763154263413614,-0.6090851748156966,-0.05753196718556838,-0.666603097082616,-2.5945565370258534,-0.05562143941554,2.507976027223799,0.8763108487046415,-0.0008463947013338568,-0.0005909775552299542,-0.0007331256944136961,0.00013324673602054535,0.00016999334702072196,-0.00021665522391467817,-0.0001081826968079651,0.0,0.0,0.0,0.0,0.0,0.0,0.0,0.00010030231290947267,-9.730774408192588e-05,-6.437313671225908e-06,-4.766878342277181e-06,-3.106841581917985e-08,3.5191456886352057e-06,-4.577636719904632e-06,0.0008463947013338568,0.0005909775552299542,0.0007331256944136961,-0.00013324673602054535,-0.00016999334702072196,0.00021665522391467817,0.0001081826968079651,-0.18418008089065552,18.130334854125977,-1.1680023670196533,-17.972139358520508,-0.4809470772743225,-2.2424349784851074,0.17337362468242645,0
59,0.2900524139404297,0.13260537385940552,-18.130334854125977,1.1441986560821533,17.972139358520508,0.4809470772743225,2.2360262870788574,-0.16604940593242645,0.0,0.0,0.0,0.0,0.0,0.0,0.0,0.14930375978315283,0.5200593756675415,0.3192798739342427,0.3373520192003937,0.0600294972221086,0.05700961383040584,-0.17669624706657686,-0.6091817999632644,-0.057434422679928446,-0.6665949893332364,-2.5945517701600727,-0.05562185561908925,2.5079733359001666,0.876314612539278,-0.6090851748156966,-0.05753196718556838,-0.666603097082616,-2.5945565370258534,-0.05562143941554,2.507976027223799,0.8763108487046415,0.0002788661146794966,-1.352736140238209e-05,-3.780192118414746e-05,-6.61833448894417e-05,0.00037288720108958766,0.00020980746913148543,-2.324417369202432e-05,0.0,0.0,0.0,0.0,0.0,0.0,0.0,9.662514756780816e-05,-9.754450563993766e-05,-8.107749379648865e-06,-4.766865780769791e-06,4.162035492499827e-07,2.6913236323977685e-06,-3.7638346365165276e-06,-0.0002788661146794966,1.352736140238209e-05,3.780192118414746e-05,6.61833448894417e-05,-0.00037288720108958766,-0.00020980746913148543,2.324417369202432e-05,-0.13260537385940552,18.130334854125977,-1.1441986560821533,-17.972139358520508,-0.4809470772743225,-2.2360262870788574,0.16604940593242645,0
60,0.29505085945129395,0.13260537385940552,-18.130334854125977,1.1441986560821533,17.972139358520508,0.4809470772743225,2.2360262870788574,-0.16604940593242645,0.0,0.0,0.0,0.0,0.0,0.0,0.0,0.14930375978315283,0.5200593756675415,0.3192798739342427,0.3373520192003937,0.0600294972221086,0.05700961383040584,-0.17669624706657686,-0.6091817999632644,-0.057434422679928446,-0.6665949893332364,-2.5945517701600727,-0.05562185561908925,2.5079733359001666,0.876314612539278,-0.6090851748156966,-0.05753196718556838,-0.666603097082616,-2.5945565370258534,-0.05562143941554,2.507976027223799,0.8763108487046415,0.0002788661146794966,-1.352736140238209e-05,-3.780192118414746e-05,-6.61833448894417e-05,0.00037288720108958766,0.00020980746913148543,-2.324417369202432e-05,0.0,0.0,0.0,0.0,0.0,0.0,0.0,9.662514756780816e-05,-9.754450563993766e-05,-8.107749379648865e-06,-4.766865780769791e-06,4.162035492499827e-07,2.6913236323977685e-06,-3.7638346365165276e-06,-0.0002788661146794966,1.352736140238209e-05,3.780192118414746e-05,6.61833448894417e-05,-0.00037288720108958766,-0.00020980746913148543,2.324417369202432e-05,-0.13260537385940552,18.130334854125977,-1.1441986560821533,-17.972139358520508,-0.4809470772743225,-2.2360262870788574,0.16604940593242645,0
61,0.3000214099884033,0.13260537385940552,-18.106531143188477,1.1164276599884033,17.999910354614258,0.5047507882118225,2.2424349784851074,-0.20083944499492645,0.0,0.0,0.0,0.0,0.0,0.0,0.0,0.1413269034356379,0.5160109602648227,0.3120661721631413,0.34154754816293553,0.06139417158206904,0.056861950559696894,-0.17695891781845738,-0.6091797395554639,-0.05743609311444718,-0.6665930404914052,-2.594553691529804,-0.0556245354730277,2.507973580260059,0.8763184737385231,-0.6090851748156966,-0.05753196718556838,-0.666603097082616,-2.5945565370258534,-0.05562143941554,2.507976027223799,0.8763108487046415,0.00012163535170990664,-0.0007645717209044463,-0.0004651715007159339,-0.0008275246702135166,-0.0005731985535211211,-3.7047811728453666e-05,0.00033803508005673233,0.0,0.0,0.0,0.0,0.0,0.0,0.0,9.456473976732216e-05,-9.587407112120194e-05,-1.0056591210783061e-05,-2.8454960494528336e-06,3.096057487703141e-06,2.446963740077024e-06,-7.625033881630827e-06,-0.00012163535170990664,0.0007645717209044463,0.0004651715007159339,0.0008275246702135166,0.0005731985535211211,3.7047811728453666e-05,-0.00033803508005673233,-0.13260537385940552,18.106531143188477,-1.1164276599884033,-17.999910354614258,-0.5047507882118225,-2.2424349784851074,0.20083944499492645,0
62,0.30506229400634766,0.13260537385940552,-18.106531143188477,1.1164276599884033,17.999910354614258,0.5047507882118225,2.2424349784851074,-0.20083944499492645,0.0,0.0,0.0,0.0,0.0,0.0,0.0,0.1413269034356379,0.5160109602648227,0.3120661721631413,0.34154754816293553,0.06139417158206904,0.056861950559696894,-0.17695891781845738,-0.6091797395554639,-0.05743609311444718,-0.6665930404914052,-2.594553691529804,-0.0556245354730277,2.507973580260059,0.8763184737385231,-0.6090851748156966,-0.05753196718556838,-0.666603097082616,-2.5945565370258534,-0.05562143941554,2.507976027223799,0.8763108487046415,0.00012163535170990664,-0.0007645717209044463,-0.0004651715007159339,-0.0008275246702135166,-0.0005731985535211211,-3.7047811728453666e-05,0.00033803508005673233,0.0,0.0,0.0,0.0,0.0,0.0,0.0,9.456473976732216e-05,-9.587407112120194e-05,-1.0056591210783061e-05,-2.8454960494528336e-06,3.096057487703141e-06,2.446963740077024e-06,-7.625033881630827e-06,-0.00012163535170990664,0.0007645717209044463,0.0004651715007159339,0.0008275246702135166,0.0005731985535211211,3.7047811728453666e-05,-0.00033803508005673233,-0.13260537385940552,18.106531143188477,-1.1164276599884033,-17.999910354614258,-0.5047507882118225,-2.2424349784851074,0.20083944499492645,0
63,0.31005048751831055,0.21195107698440552,-18.106531143188477,1.1441986560821533,17.972139358520508,0.4809470772743225,2.2424349784851074,-0.17337362468242645,0.0,0.0,0.0,0.0,0.0,0.0,0.0,0.15626374781152175,0.5146576165488428,0.3250209225874282,0.3410430661729002,0.06131877269378099,0.05658631015229016,-0.17716165977397064,-0.6091867321909102,-0.05743609603744587,-0.6665949893332364,-2.594551770158677,-0.05561759590277063,2.5079725977157743,0.87631530860357,-0.6090851748156966,-0.05753196718556838,-0.666603097082616,-2.5945565370258534,-0.05562143941554,2.507976027223799,0.8763108487046415,-0.0014004502011950358,-0.0015492752765737157,0.00027494808037825555,-0.0003211909584963436,0.00011108998575194427,-7.190728696563286e-05,-0.0005621149548442034,0.0,0.0,0.0,0.0,0.0,0.0,0.0,0.00010155737521366781,-9.587114812251163e-05,-8.107749379648865e-06,-4.766867176542178e-06,-3.843512769372004e-06,3.4295080246771192e-06,-4.459898928499406e-06,0.0014004502011950358,0.0015492752765737157,-0.00027494808037825555,0.0003211909584963436,-0.00011108998575194427,7.190728696563286e-05,0.0005621149548442034,-0.21195107698440552,18.106531143188477,-1.1441986560821533,-17.972139358520508,-0.4809470772743225,-2.2424349784851074,0.17337362468242645,0
64,0.3150620460510254,0.21195107698440552,-18.106531143188477,1.1441986560821533,17.972139358520508,0.4809470772743225,2.2424349784851074,-0.17337362468242645,0.0,0.0,0.0,0.0,0.0,0.0,0.0,0.15626374781152175,0.5146576165488428,0.3250209225874282,0.3410430661729002,0.06131877269378099,0.05658631015229016,-0.17716165977397064,-0.6091867321909102,-0.05743609603744587,-0.6665949893332364,-2.594551770158677,-0.05561759590277063,2.5079725977157743,0.87631530860357,-0.6090851748156966,-0.05753196718556838,-0.666603097082616,-2.5945565370258534,-0.05562143941554,2.507976027223799,0.8763108487046415,-0.0014004502011950358,-0.0015492752765737157,0.00027494808037825555,-0.0003211909584963436,0.00011108998575194427,-7.190728696563286e-05,-0.0005621149548442034,0.0,0.0,0.0,0.0,0.0,0.0,0.0,0.00010155737521366781,-9.587114812251163e-05,-8.107749379648865e-06,-4.766867176542178e-06,-3.843512769372004e-06,3.4295080246771192e-06,-4.459898928499406e-06,0.0014004502011950358,0.0015492752765737157,-0.00027494808037825555,0.0003211909584963436,-0.00011108998575194427,7.190728696563286e-05,0.0005621149548442034,-0.21195107698440552,18.106531143188477,-1.1441986560821533,-17.972139358520508,-0.4809470772743225,-2.2424349784851074,0.17337362468242645,0
65,0.32004809379577637,0.16037636995315552,-18.177942276000977,1.1441986560821533,17.948335647583008,0.4928489327430725,2.2424349784851074,-0.19351522624492645,0.0,0.0,0.0,0.0,0.0,0.0,0.0,0.15447138122663476,0.5161747003094962,0.3250372902887081,0.34168134388007826,0.061058944160756065,0.05668946636541624,-0.1771011967565876,-0.6091816913398701,-0.057431081806886886,-0.6665949893332364,-2.594550017295357,-0.05562317753731603,2.5079738801932314,0.8763176642968691,-0.6090851748156966,-0.05753196718556838,-0.666603097082616,-2.5945565370258534,-0.05562143941554,2.507976027223799,0.8763108487046415,0.0005018004286991734,0.0006648415621736766,0.00027789684044400933,0.0006754698250161978,-0.00043153773520587904,-3.87573909849094e-05,0.0008627708177000517,0.0,0.0,0.0,0.0,0.0,0.0,0.0,9.651652417352885e-05,-0.00010088537868149783,-8.107749379648865e-06,-6.519730496368226e-06,1.73812177602789e-06,2.147030567556385e-06,-6.815592227593648e-06,-0.0005018004286991734,-0.0006648415621736766,-0.00027789684044400933,-0.0006754698250161978,0.00043153773520587904,3.87573909849094e-05,-0.0008627708177000517,-0.16037636995315552,18.177942276000977,-1.1441986560821533,-17.948335647583008,-0.4928489327430725,-2.2424349784851074,0.19351522624492645,0
66,0.32504940032958984,0.16037636995315552,-18.177942276000977,1.1441986560821533,17.948335647583008,0.4928489327430725,2.2424349784851074,-0.19351522624492645,0.0,0.0,0.0,0.0,0.0,0.0,0.0,0.15447138122663476,0.5161747003094962,0.3250372902887081,0.34168134388007826,0.061058944160756065,0.05668946636541624,-0.1771011967565876,-0.6091816913398701,-0.057431081806886886,-0.6665949893332364,-2.594550017295357,-0.05562317753731603,2.5079738801932314,0.8763176642968691,-0.6090851748156966,-0.05753196718556838,-0.666603097082616,-2.5945565370258534,-0.05562143941554,2.507976027223799,0.8763108487046415,0.0005018004286991734,0.0006648415621736766,0.00027789684044400933,0.0006754698250161978,-0.00043153773520587904,-3.87573909849094e-05,0.0008627708177000517,0.0,0.0,0.0,0.0,0.0,0.0,0.0,9.651652417352885e-05,-0.00010088537868149783,-8.107749379648865e-06,-6.519730496368226e-06,1.73812177602789e-06,2.147030567556385e-06,-6.815592227593648e-06,-0.0005018004286991734,-0.0006648415621736766,-0.00027789684044400933,-0.0006754698250161978,0.00043153773520587904,3.87573909849094e-05,-0.0008627708177000517,-0.16037636995315552,18.177942276000977,-1.1441986560821533,-17.948335647583008,-0.4928489327430725,-2.2424349784851074,0.19351522624492645,0
67,0.3300619125366211,0.16037636995315552,-18.154138565063477,1.1918060779571533,17.972139358520508,0.4864402413368225,2.2424349784851074,-0.19351522624492645,0.0,0.0,0.0,0.0,0.0,0.0,0.0,0.15671365953666644,0.5190180905792046,0.3303683837783208,0.33702621612233397,0.060421087257239416,0.05596578305363424,-0.17638434162945088,-0.6091838106053785,-0.05743275224273665,-0.6665983302049469,-2.5945517701596073,-0.05562250556525797,2.507977071694842,0.8763176462084653,-0.6090851748156966,-0.05753196718556838,-0.666603097082616,-2.5945565370258534,-0.05562143941554,2.507976027223799,0.8763108487046415,0.0003269095127620125,0.00046569422821339637,-0.0003925311704090663,-0.00014267409775262305,-9.851352574258934e-05,-7.220766131769338e-05,0.0008872171354070449,0.0,0.0,0.0,0.0,0.0,0.0,0.0,9.863578968194453e-05,-9.921494283173654e-05,-4.766877669148961e-06,-4.766866246175283e-06,1.0661497179681456e-06,-1.0444710429879933e-06,-6.797503823818829e-06,-0.0003269095127620125,-0.00046569422821339637,0.0003925311704090663,0.00014267409775262305,9.851352574258934e-05,7.220766131769338e-05,-0.0008872171354070449,-0.16037636995315552,18.154138565063477,-1.1918060779571533,-17.972139358520508,-0.4864402413368225,-2.2424349784851074,0.19351522624492645,0
68,0.3350484371185303,0.16037636995315552,-18.154138565063477,1.1918060779571533,17.972139358520508,0.4864402413368225,2.2424349784851074,-0.19351522624492645,0.0,0.0,0.0,0.0,0.0,0.0,0.0,0.15671365953666644,0.5190180905792046,0.3303683837783208,0.33702621612233397,0.060421087257239416,0.05596578305363424,-0.17638434162945088,-0.6091838106053785,-0.05743275224273665,-0.6665983302049469,-2.5945517701596073,-0.05562250556525797,2.507977071694842,0.8763176462084653,-0.6090851748156966,-0.05753196718556838,-0.666603097082616,-2.5945565370258534,-0.05562143941554,2.507976027223799,0.8763108487046415,0.0003269095127620125,0.00046569422821339637,-0.0003925311704090663,-0.00014267409775262305,-9.851352574258934e-05,-7.220766131769338e-05,0.0008872171354070449,0.0,0.0,0.0,0.0,0.0,0.0,0.0,9.863578968194453e-05,-9.921494283173654e-05,-4.766877669148961e-06,-4.766866246175283e-06,1.0661497179681456e-06,-1.0444710429879933e-06,-6.797503823818829e-06,-0.0003269095127620125,-0.00046569422821339637,0.0003925311704090663,0.00014267409775262305,9.851352574258934e-05,7.220766131769338e-05,-0.0008872171354070449,-0.16037636995315552,18.154138565063477,-1.1918060779571533,-17.972139358520508,-0.4864402413368225,-2.2424349784851074,0.19351522624492645,0
69,0.34005165100097656,0.16037636995315552,-18.106531143188477,1.1164276599884033,17.972139358520508,0.4928489327430725,2.2488436698913574,-0.19351522624492645,0.0,0.0,0.0,0.0,0.0,0.0,0.0,0.1516200424551192,0.5227632764802174,0.32884867058473527,0.33225404882746623,0.06021747244437922,0.054985266785383714,-0.17667422195603405,-0.6091835188898075,-0.05743609315053358,-0.6665930404914052,-2.5945517701600727,-0.05562320449903341,2.5079749395712803,0.8763176626819327,-0.6090851748156966,-0.05753196718556838,-0.666603097082616,-2.5945565370258534,-0.05562143941554,2.507976027223799,0.8763108487046415,-0.00011451409685833709,-0.0004116050634569655,0.00043683600196619106,-0.0007913425622512039,-0.00036604620998286966,-0.00045890310150705524,0.0011152751747979261,0.0,0.0,0.0,0.0,0.0,0.0,0.0,9.834407411091206e-05,-9.587403503480418e-05,-1.0056591210783061e-05,-4.766865780769791e-06,1.7650834934074267e-06,1.0876525187164532e-06,-6.8139772911868235e-06,0.00011451409685833709,0.0004116050634569655,-0.00043683600196619106,0.0007913425622512039,0.00036604620998286966,0.00045890310150705524,-0.0011152751747979261,-0.16037636995315552,18.106531143188477,-1.1164276599884033,-17.972139358520508,-0.4928489327430725,-2.2488436698913574,0.19351522624492645,0
70,0.3450503349304199,0.16037636995315552,-18.106531143188477,1.1164276599884033,17.972139358520508,0.4928489327430725,2.2488436698913574,-0.19351522624492645,0.0,0.0,0.0,0.0,0.0,0.0,0.0,0.1516200424551192,0.5227632764802174,0.32884867058473527,0.33225404882746623,0.06021747244437922,0.054985266785383714,-0.17667422195603405,-0.6091835188898075,-0.05743609315053358,-0.6665930404914052,-2.5945517701600727,-0.05562320449903341,2.5079749395712803,0.8763176626819327,-0.6090851748156966,-0.05753196718556838,-0.666603097082616,-2.5945565370258534,-0.05562143941554,2.507976027223799,0.8763108487046415,-0.00011451409685833709,-0.0004116050634569655,0.00043683600196619106,-0.0007913425622512039,-0.00036604620998286966,-0.00045890310150705524,0.0011152751747979261,0.0,0.0,0.0,0.0,0.0,0.0,0.0,9.834407411091206e-05,-9.587403503480418e-05,-1.0056591210783061e-05,-4.766865780769791e-06,1.7650834934074267e-06,1.0876525187164532e-06,-6.8139772911868235e-06,0.00011451409685833709,0.0004116050634569655,-0.00043683600196619106,0.0007913425622512039,0.00036604620998286966,0.00045890310150705524,-0.0011152751747979261,-0.16037636995315552,18.106531143188477,-1.1164276599884033,-17.972139358520508,-0.4928489327430725,-2.2488436698913574,0.19351522624492645,0
71,0.3500497341156006,0.16037636995315552,-18.106531143188477,1.1164276599884033,17.972139358520508,0.4928489327430725,2.2488436698913574,-0.19351522624492645,0.0,0.0,0.0,0.0,0.0,0.0,0.0,0.1516200424551192,0.5227632764802174,0.32884867058473527,0.33225404882746623,0.06021747244437922,0.054985266785383714,-0.17667422195603405,-0.6091835188898075,-0.05743609315053358,-0.6665930404914052,-2.5945517701600727,-0.05562320449903341,2.5079749395712803,0.8763176626819327,-0.6090851748156966,-0.05753196718556838,-0.666603097082616,-2.5945565370258534,-0.05562143941554,2.507976027223799,0.8763108487046415,-0.00011451409685833709,-0.0004116050634569655,0.00043683600196619106,-0.0007913425622512039,-0.00036604620998286966,-0.00045890310150705524,0.0011152751747979261,0.0,0.0,0.0,0.0,0.0,0.0,0.0,9.834407411091206e-05,-9.587403503480418e-05,-1.0056591210783061e-05,-4.766865780769791e-06,1.7650834934074267e-06,1.0876525187164532e-06,-6.8139772911868235e-06,0.00011451409685833709,0.0004116050634569655,-0.00043683600196619106,0.0007913425622512039,0.00036604620998286966,0.00045890310150705524,-0.0011152751747979261,-0.16037636995315552,18.106531143188477,-1.1164276599884033,-17.972139358520508,-0.4928489327430725,-2.2488436698913574,0.19351522624492645,0
72,0.3550746440887451,0.16037636995315552,-18.106531143188477,1.1164276599884033,17.972139358520508,0.4928489327430725,2.2488436698913574,-0.19351522624492645,0.0,0.0,0.0,0.0,0.0,0.0,0.0,0.1516200424551192,0.5227632764802174,0.32884867058473527,0.33225404882746623,0.06021747244437922,0.054985266785383714,-0.17667422195603405,-0.6091835188898075,-0.05743609315053358,-0.6665930404914052,-2.5945517701600727,-0.05562320449903341,2.5079749395712803,0.8763176626819327,-0.6090851748156966,-0.05753196718556838,-0.666603097082616,-2.5945565370258534,-0.05562143941554,2.507976027223799,0.8763108487046415,-0.00011451409685833709,-0.0004116050634569655,0.00043683600196619106,-0.0007913425622512039,-0.00036604620998286966,-0.00045890310150705524,0.0011152751747979261,0.0,0.0,0.0,0.0,0.0,0.0,0.0,9.834407411091206e-05,-9.587403503480418e-05,-1.0056591210783061e-05,-4.766865780769791e-06,1.7650834934074267e-06,1.0876525187164532e-06,-6.8139772911868235e-06,0.00011451409685833709,0.0004116050634569655,-0.00043683600196619106,0.0007913425622512039,0.00036604620998286966,0.00045890310150705524,-0.0011152751747979261,-0.16037636995315552,18.106531143188477,-1.1164276599884033,-17.972139358520508,-0.4928489327430725,-2.2488436698913574,0.19351522624492645,0
73,0.3603522777557373,0.10880166292190552,-18.177942276000977,1.0688202381134033,17.948335647583008,0.4983420968055725,2.2360262870788574,-0.17978231608867645,0.0,0.0,0.0,0.0,0.0,0.0,0.0,0.15343756192790686,0.5197543516472388,0.3258839097000438,0.33948856631499474,0.0602606314548294,0.056132536673303667,-0.17802388494648502,-0.6091802173565581,-0.0574310819151408,-0.6665896996196946,-2.5945500997242177,-0.055620221868877336,2.5079736673812034,0.8763161384181751,-0.6090851748156966,-0.05753196718556838,-0.666603097082616,-2.5945565370258534,-0.05562143941554,2.507976027223799,0.8763108487046415,0.0011475622146875706,0.0010512878295013278,0.0008458584137150121,0.00045050001522640613,-0.0005603273162982411,0.00016069593616659125,-6.325996814753011e-05,0.0,0.0,0.0,0.0,0.0,0.0,0.0,9.504254086156738e-05,-0.00010088527042758505,-1.3397462921393988e-05,-6.4373016357421875e-06,-1.217546662664326e-06,2.3598425955562163e-06,-5.289713533640494e-06,-0.0011475622146875706,-0.0010512878295013278,-0.0008458584137150121,-0.00045050001522640613,0.0005603273162982411,-0.00016069593616659125,6.325996814753011e-05,-0.10880166292190552,18.177942276000977,-1.0688202381134033,-17.948335647583008,-0.4983420968055725,-2.2360262870788574,0.17978231608867645,0
74,0.3650522232055664,0.10880166292190552,-18.177942276000977,1.0688202381134033,17.948335647583008,0.4983420968055725,2.2360262870788574,-0.17978231608867645,0.0,0.0,0.0,0.0,0.0,0.0,0.0,0.15343756192790686,0.5197543516472388,0.3258839097000438,0.33948856631499474,0.0602606314548294,0.056132536673303667,-0.17802388494648502,-0.6091802173565581,-0.0574310819151408,-0.6665896996196946,-2.5945500997242177,-0.055620221868877336,2.5079736673812034,0.8763161384181751,-0.6090851748156966,-0.05753196718556838,-0.666603097082616,-2.5945565370258534,-0.05562143941554,2.507976027223799,0.8763108487046415,0.0011475622146875706,0.0010512878295013278,0.0008458584137150121,0.00045050001522640613,-0.0005603273162982411,0.00016069593616659125,-6.325996814753011e-05,0.0,0.0,0.0,0.0,0.0,0.0,0.0,9.504254086156738e-05,-0.00010088527042758505,-1.3397462921393988e-05,-6.4373016357421875e-06,-1.217546662664326e-06,2.3598425955562163e-06,-5.289713533640494e-06,-0.0011475622146875706,-0.0010512878295013278,-0.0008458584137150121,-0.00045050001522640613,0.0005603273162982411,-0.00016069593616659125,6.325996814753011e-05,-0.10880166292190552,18.177942276000977,-1.0688202381134033,-17.948335647583008,-0.4983420968055725,-2.2360262870788574,0.17978231608867645,0
75,0.370058536529541,0.13260537385940552,-18.177942276000977,1.1164276599884033,17.948335647583008,0.4864402413368225,2.2424349784851074,-0.15964071452617645,0.0,0.0,0.0,0.0,0.0,0.0,0.0,0.15169011724310008,0.5231710191269575,0.3160911368009414,0.3336872081813925,0.06010490692499446,0.05501009174749275,-0.17771061240205183,-0.6091818617756577,-0.057431081806881994,-0.6665930404914052,-2.5945500987067325,-0.05562249218550363,2.507972468295992,0.8763138990089049,-0.6090851748156966,-0.05753196718556838,-0.666603097082616,-2.5945565370258534,-0.05562143941554,2.507976027223799,0.8763108487046415,0.00012468312905971872,0.0006728618974385249,-0.0007505438726844672,0.00010392105638836766,0.00011774381256998869,0.0001470411351441083,1.1400088270173197e-05,0.0,0.0,0.0,0.0,0.0,0.0,0.0,9.668695996112309e-05,-0.00010088537868638975,-1.0056591210783061e-05,-6.438319120949387e-06,1.0527699636289634e-06,3.558927807123524e-06,-3.050304263396697e-06,-0.00012468312905971872,-0.0006728618974385249,0.0007505438726844672,-0.00010392105638836766,-0.00011774381256998869,-0.0001470411351441083,-1.1400088270173197e-05,-0.13260537385940552,18.177942276000977,-1.1164276599884033,-17.948335647583008,-0.4864402413368225,-2.2424349784851074,0.15964071452617645,0
76,0.37511420249938965,0.13260537385940552,-18.177942276000977,1.1164276599884033,17.948335647583008,0.4864402413368225,2.2424349784851074,-0.15964071452617645,0.0,0.0,0.0,0.0,0.0,0.0,0.0,0.15169011724310008,0.5231710191269575,0.3160911368009414,0.3336872081813925,0.06010490692499446,0.05501009174749275,-0.17771061240205183,-0.6091818617756577,-0.057431081806881994,-0.6665930404914052,-2.5945500987067325,-0.05562249218550363,2.507972468295992,0.8763138990089049,-0.6090851748156966,-0.05753196718556838,-0.666603097082616,-2.5945565370258534,-0.05562143941554,2.507976027223799,0.8763108487046415,0.00012468312905971872,0.0006728618974385249,-0.0007505438726844672,0.00010392105638836766,0.00011774381256998869,0.0001470411351441083,1.1400088270173197e-05,0.0,0.0,0.0,0.0,0.0,0.0,0.0,9.668695996112309e-05,-0.00010088537868638975,-1.0056591210783061e-05,-6.438319120949387e-06,1.0527699636289634e-06,3.558927807123524e-06,-3.050304263396697e-06,-0.00012468312905971872,-0.0006728618974385249,0.0007505438726844672,-0.00010392105638836766,-0.00011774381256998869,-0.0001470411351441083,-1.1400088270173197e-05,-0.13260537385940552,18.177942276000977,-1.1164276599884033,-17.948335647583008,-0.4864402413368225,-2.2424349784851074,0.15964071452617645,0
77,0.3800504207611084,0.21195107698440552,-18.177942276000977,1.0926239490509033,17.972139358520508,0.4864402413368225,2.2360262870788574,-0.19351522624492645,0.0,0.0,0.0,0.0,0.0,0.0,0.0,0.1552519591206773,0.5184664301051018,0.31467417074789283,0.3359358966389093,0.05991280062002607,0.05640226753153856,-0.17653956367445464,-0.6091874560589328,-0.05743108278121428,-0.6665913700555499,-2.594551770160067,-0.05562108409059217,2.5079732230075393,0.8763173110843726,-0.6090851748156966,-0.05753196718556838,-0.666603097082616,-2.5945565370258534,-0.05562143941554,2.507976027223799,0.8763108487046415,-0.0017640107814051135,0.0003560634359040731,0.0003472454374369879,-0.00010471249980430043,-0.0001407154380435834,-9.685492443843645e-05,7.904356800835027e-05,0.0,0.0,0.0,0.0,0.0,0.0,0.0,0.00010228124323619081,-0.00010088440435410129,-1.1727027066088525e-05,-4.766865786542951e-06,-3.553249478330245e-07,2.804216259644221e-06,-6.4623797311202935e-06,0.0017640107814051135,-0.0003560634359040731,-0.0003472454374369879,0.00010471249980430043,0.0001407154380435834,9.685492443843645e-05,-7.904356800835027e-05,-0.21195107698440552,18.177942276000977,-1.0926239490509033,-17.972139358520508,-0.4864402413368225,-2.2360262870788574,0.19351522624492645,0
78,0.38506293296813965,0.21195107698440552,-18.177942276000977,1.0926239490509033,17.972139358520508,0.4864402413368225,2.2360262870788574,-0.19351522624492645,0.0,0.0,0.0,0.0,0.0,0.0,0.0,0.1552519591206773,0.5184664301051018,0.31467417074789283,0.3359358966389093,0.05991280062002607,0.05640226753153856,-0.17653956367445464,-0.6091874560589328,-0.05743108278121428,-0.6665913700555499,-2.594551770160067,-0.05562108409059217,2.5079732230075393,0.8763173110843726,-0.6090851748156966,-0.05753196718556838,-0.666603097082616,-2.5945565370258534,-0.05562143941554,2.507976027223799,0.8763108487046415,-0.0017640107814051135,0.0003560634359040731,0.0003472454374369879,-0.00010471249980430043,-0.0001407154380435834,-9.685492443843645e-05,7.904356800835027e-05,0.0,0.0,0.0,0.0,0.0,0.0,0.0,0.00010228124323619081,-0.00010088440435410129,-1.1727027066088525e-05,-4.766865786542951e-06,-3.553249478330245e-07,2.804216259644221e-06,-6.4623797311202935e-06,0.0017640107814051135,-0.0003560634359040731,-0.0003472454374369879,0.00010471249980430043,0.0001407154380435834,9.685492443843645e-05,-7.904356800835027e-05,-0.21195107698440552,18.177942276000977,-1.0926239490509033,-17.972139358520508,-0.4864402413368225,-2.2360262870788574,0.19351522624492645,0
79,0.39005136489868164,0.10880166292190552,-18.130334854125977,1.0688202381134033,17.999910354614258,0.4928489327430725,2.2424349784851074,-0.17978231608867645,0.0,0.0,0.0,0.0,0.0,0.0,0.0,0.15260129199630118,0.5145559141773849,0.3097479080892755,0.33946773203979663,0.05982889502130899,0.05643182547333041,-0.17652586203994594,-0.6091795015938691,-0.05743445190859539,-0.6665896996196946,-2.5945537190019037,-0.05562321745597183,2.5079756869387424,0.8763161340515518,-0.6090851748156966,-0.05753196718556838,-0.666603097082616,-2.5945565370258534,-0.05562143941554,2.507976027223799,0.8763108487046415,0.0013064831792727806,-0.0007436529631533046,0.0014797219256878532,3.0424130184230816e-05,-0.0003100932825292054,-0.00018635241763231882,0.00022414507721420855,0.0,0.0,0.0,0.0,0.0,0.0,0.0,9.432677817255986e-05,-9.751527697299256e-05,-1.3397462921393988e-05,-2.8180239497466175e-06,1.778040431832384e-06,3.402850565770166e-07,-5.285346910355315e-06,-0.0013064831792727806,0.0007436529631533046,-0.0014797219256878532,-3.0424130184230816e-05,0.0003100932825292054,0.00018635241763231882,-0.00022414507721420855,-0.10880166292190552,18.130334854125977,-1.0688202381134033,-17.999910354614258,-0.4928489327430725,-2.2424349784851074,0.17978231608867645,0
