rezayati/contactInterpretation/dataset/franka_main/labeled_data/link2/f2_8.csv
index,time,tau_J0,tau_J1,tau_J2,tau_J3,tau_J4,tau_J5,tau_J6,tau_J_d0,tau_J_d1,tau_J_d2,tau_J_d3,tau_J_d4,tau_J_d5,tau_J_d6,tau_ext0,tau_ext1,tau_ext2,tau_ext3,tau_ext4,tau_ext5,tau_ext6,q0,q1,q2,q3,q4,q5,q6,q_d0,q_d1,q_d2,q_d3,q_d4,q_d5,q_d6,dq0,dq1,dq2,dq3,dq4,dq5,dq6,dq_d0,dq_d1,dq_d2,dq_d3,dq_d4,dq_d5,dq_d6,e0,e1,e2,e3,e4,e5,e6,de0,de1,de2,de3,de4,de5,de6,etau_J0,etau_J1,etau_J2,etau_J3,etau_J4,etau_J5,etau_J6,label
1,0.0,-0.24825400114059448,-22.549890518188477,-0.1491362750530243,14.207185745239258,0.10558086633682251,2.1325716972351074,-0.21457235515117645,0.0,0.0,0.0,0.0,0.0,0.0,0.0,-0.32907162333843765,0.26716274524431166,-0.22658296409107587,0.3129237798278276,-0.12667211074583906,-0.038174695416856315,-0.24134824340469954,1.6755024464358463,0.05230288681843631,0.02997528871715675,-2.7524091487349125,0.03425317041829313,2.766369378442825,0.7691570515549844,1.6754973547542302,0.052104326824870026,0.029969505109285054,-2.752394845125968,0.0342448039870148,2.7663679543071322,0.7691630533470046,-1.95316747133676e-05,7.798565503971444e-05,0.0012920341561266846,-0.0008151195000904002,-3.84269434386279e-05,0.0005145379684452754,-0.001674104692950664,0.0,0.0,0.0,0.0,0.0,0.0,0.0,-5.091681616109511e-06,-0.00019855999356628573,-5.783607871696211e-06,1.4303608944388202e-05,-8.366431278328257e-06,-1.424135692928985e-06,6.00179202026041e-06,1.95316747133676e-05,-7.798565503971444e-05,-0.0012920341561266846,0.0008151195000904002,3.84269434386279e-05,-0.0005145379684452754,0.001674104692950664,0.24825400114059448,22.549890518188477,0.1491362750530243,-14.207185745239258,-0.10558086633682251,-2.1325716972351074,0.21457235515117645,0
2,0.004998445510864258,-0.24825400114059448,-22.549890518188477,-0.1491362750530243,14.207185745239258,0.10558086633682251,2.1325716972351074,-0.21457235515117645,0.0,0.0,0.0,0.0,0.0,0.0,0.0,-0.32907162333843765,0.26716274524431166,-0.22658296409107587,0.3129237798278276,-0.12667211074583906,-0.038174695416856315,-0.24134824340469954,1.6755024464358463,0.05230288681843631,0.02997528871715675,-2.7524091487349125,0.03425317041829313,2.766369378442825,0.7691570515549844,1.6754973547542302,0.052104326824870026,0.029969505109285054,-2.752394845125968,0.0342448039870148,2.7663679543071322,0.7691630533470046,-1.95316747133676e-05,7.798565503971444e-05,0.0012920341561266846,-0.0008151195000904002,-3.84269434386279e-05,0.0005145379684452754,-0.001674104692950664,0.0,0.0,0.0,0.0,0.0,0.0,0.0,-5.091681616109511e-06,-0.00019855999356628573,-5.783607871696211e-06,1.4303608944388202e-05,-8.366431278328257e-06,-1.424135692928985e-06,6.00179202026041e-06,1.95316747133676e-05,-7.798565503971444e-05,-0.0012920341561266846,0.0008151195000904002,3.84269434386279e-05,-0.0005145379684452754,0.001674104692950664,0.24825400114059448,22.549890518188477,0.1491362750530243,-14.207185745239258,-0.10558086633682251,-2.1325716972351074,0.21457235515117645,0
3,0.010005950927734375,-0.24825400114059448,-22.549890518188477,-0.1491362750530243,14.207185745239258,0.10558086633682251,2.1325716972351074,-0.21457235515117645,0.0,0.0,0.0,0.0,0.0,0.0,0.0,-0.32907162333843765,0.26716274524431166,-0.22658296409107587,0.3129237798278276,-0.12667211074583906,-0.038174695416856315,-0.24134824340469954,1.6755024464358463,0.05230288681843631,0.02997528871715675,-2.7524091487349125,0.03425317041829313,2.766369378442825,0.7691570515549844,1.6754973547542302,0.052104326824870026,0.029969505109285054,-2.752394845125968,0.0342448039870148,2.7663679543071322,0.7691630533470046,-1.95316747133676e-05,7.798565503971444e-05,0.0012920341561266846,-0.0008151195000904002,-3.84269434386279e-05,0.0005145379684452754,-0.001674104692950664,0.0,0.0,0.0,0.0,0.0,0.0,0.0,-5.091681616109511e-06,-0.00019855999356628573,-5.783607871696211e-06,1.4303608944388202e-05,-8.366431278328257e-06,-1.424135692928985e-06,6.00179202026041e-06,1.95316747133676e-05,-7.798565503971444e-05,-0.0012920341561266846,0.0008151195000904002,3.84269434386279e-05,-0.0005145379684452754,0.001674104692950664,0.24825400114059448,22.549890518188477,0.1491362750530243,-14.207185745239258,-0.10558086633682251,-2.1325716972351074,0.21457235515117645,0
4,0.01500082015991211,-0.2998287081718445,-22.522119522094727,-0.1253325641155243,14.207185745239258,0.09367901086807251,2.1389803886413574,-0.23471395671367645,0.0,0.0,0.0,0.0,0.0,0.0,0.0,-0.32146887478731273,0.25371239777340987,-0.22889924900817588,0.3466155751731505,-0.12532862820862983,-0.03323071753531284,-0.24254650670397263,1.6755053402749238,0.0523009379767535,0.029975748014233132,-2.7524091487349125,0.03425436152669242,2.7663654438630596,0.7691592895107136,1.6754973547542302,0.052104326824870026,0.029969505109285054,-2.752394845125968,0.0342448039870148,2.7663679543071322,0.7691630533470046,0.0006264976396921329,0.00014095089357364087,0.00014345710645565583,-0.0038962568157707,0.0006746887045230808,0.00031408630557502436,-0.0008448983992744026,0.0,0.0,0.0,0.0,0.0,0.0,0.0,-7.985520693587489e-06,-0.00019661115188347733,-6.242904948078332e-06,1.4303608944388202e-05,-9.557539677622351e-06,2.5104440726231303e-06,3.763836291081901e-06,-0.0006264976396921329,-0.00014095089357364087,-0.00014345710645565583,0.0038962568157707,-0.0006746887045230808,-0.00031408630557502436,0.0008448983992744026,0.2998287081718445,22.522119522094727,0.1253325641155243,-14.207185745239258,-0.09367901086807251,-2.1389803886413574,0.23471395671367645,0
5,0.019999265670776367,-0.2998287081718445,-22.522119522094727,-0.1253325641155243,14.207185745239258,0.09367901086807251,2.1389803886413574,-0.23471395671367645,0.0,0.0,0.0,0.0,0.0,0.0,0.0,-0.32146887478731273,0.25371239777340987,-0.22889924900817588,0.3466155751731505,-0.12532862820862983,-0.03323071753531284,-0.24254650670397263,1.6755053402749238,0.0523009379767535,0.029975748014233132,-2.7524091487349125,0.03425436152669242,2.7663654438630596,0.7691592895107136,1.6754973547542302,0.052104326824870026,0.029969505109285054,-2.752394845125968,0.0342448039870148,2.7663679543071322,0.7691630533470046,0.0006264976396921329,0.00014095089357364087,0.00014345710645565583,-0.0038962568157707,0.0006746887045230808,0.00031408630557502436,-0.0008448983992744026,0.0,0.0,0.0,0.0,0.0,0.0,0.0,-7.985520693587489e-06,-0.00019661115188347733,-6.242904948078332e-06,1.4303608944388202e-05,-9.557539677622351e-06,2.5104440726231303e-06,3.763836291081901e-06,-0.0006264976396921329,-0.00014095089357364087,-0.00014345710645565583,0.0038962568157707,-0.0006746887045230808,-0.00031408630557502436,0.0008448983992744026,0.2998287081718445,22.522119522094727,0.1253325641155243,-14.207185745239258,-0.09367901086807251,-2.1389803886413574,0.23471395671367645,0
6,0.025000572204589844,-0.3752071261405945,-22.522119522094727,-0.1729399859905243,14.179414749145508,0.11198955774307251,2.1582064628601074,-0.20724813640117645,0.0,0.0,0.0,0.0,0.0,0.0,0.0,-0.32588594968238177,0.26426323410445046,-0.2342058565386104,0.33224356596749943,-0.124165991979486,-0.03529810745505034,-0.24395129098039983,1.6755127757515822,0.0523009379767535,0.029976620728010186,-2.7524071998930815,0.03425268265225102,2.7663665301352953,0.7691562377529011,1.6754973547542302,0.052104326824870026,0.029969505109285054,-2.752394845125968,0.0342448039870148,2.7663679543071322,0.7691630533470046,3.357527529064467e-05,0.00045247726312005944,0.00014211641888724086,0.0007482285542354778,-0.00011943932037088349,-0.000525758588897833,-0.00137152635280129,0.0,0.0,0.0,0.0,0.0,0.0,0.0,-1.5420997351967003e-05,-0.00019661115188347733,-7.115618725132139e-06,1.2354767113365028e-05,-7.878665236216165e-06,1.4241718369056855e-06,6.815594103537492e-06,-3.357527529064467e-05,-0.00045247726312005944,-0.00014211641888724086,-0.0007482285542354778,0.00011943932037088349,0.000525758588897833,0.00137152635280129,0.3752071261405945,22.522119522094727,0.1729399859905243,-14.179414749145508,-0.11198955774307251,-2.1582064628601074,0.20724813640117645,0
7,0.03049635887145996,-0.3752071261405945,-22.522119522094727,-0.1729399859905243,14.179414749145508,0.11198955774307251,2.1582064628601074,-0.20724813640117645,0.0,0.0,0.0,0.0,0.0,0.0,0.0,-0.32588594968238177,0.26426323410445046,-0.2342058565386104,0.33224356596749943,-0.124165991979486,-0.03529810745505034,-0.24395129098039983,1.6755127757515822,0.0523009379767535,0.029976620728010186,-2.7524071998930815,0.03425268265225102,2.7663665301352953,0.7691562377529011,1.6754973547542302,0.052104326824870026,0.029969505109285054,-2.752394845125968,0.0342448039870148,2.7663679543071322,0.7691630533470046,3.357527529064467e-05,0.00045247726312005944,0.00014211641888724086,0.0007482285542354778,-0.00011943932037088349,-0.000525758588897833,-0.00137152635280129,0.0,0.0,0.0,0.0,0.0,0.0,0.0,-1.5420997351967003e-05,-0.00019661115188347733,-7.115618725132139e-06,1.2354767113365028e-05,-7.878665236216165e-06,1.4241718369056855e-06,6.815594103537492e-06,-3.357527529064467e-05,-0.00045247726312005944,-0.00014211641888724086,-0.0007482285542354778,0.00011943932037088349,0.000525758588897833,0.00137152635280129,0.3752071261405945,22.522119522094727,0.1729399859905243,-14.179414749145508,-0.11198955774307251,-2.1582064628601074,0.20724813640117645,0
8,0.03528261184692383,-0.4783565402030945,-22.549890518188477,-0.2483184039592743,14.179414749145508,0.11748272180557251,2.1389803886413574,-0.22098104655742645,0.0,0.0,0.0,0.0,0.0,0.0,0.0,-0.33741252681315126,0.27635971708481455,-0.23661317542371288,0.31014681492744883,-0.12447791018355829,-0.03862060188858519,-0.24309973605395158,1.6755188527870661,0.052302886818584644,0.029984118926879914,-2.7524071998930815,0.03424856129409352,2.76636866633012,0.7691599225906607,1.6754973547542302,0.052104326824870026,0.029969505109285054,-2.752394845125968,0.0342448039870148,2.7663679543071322,0.7691630533470046,0.0009684857076346944,0.0006700267938426849,0.0005827520512928623,0.00041947142856105154,-0.00029704832137848313,0.0002465876321247899,-0.0005301023143324621,0.0,0.0,0.0,0.0,0.0,0.0,0.0,-2.1498032835909342e-05,-0.00019855999371461847,-1.4613817594859996e-05,1.2354767113365028e-05,-3.7573070787166873e-06,-7.120229876811379e-07,3.13075634394977e-06,-0.0009684857076346944,-0.0006700267938426849,-0.0005827520512928623,-0.00041947142856105154,0.00029704832137848313,-0.0002465876321247899,0.0005301023143324621,0.4783565402030945,22.549890518188477,0.2483184039592743,-14.179414749145508,-0.11748272180557251,-2.1389803886413574,0.22098104655742645,0
9,0.03999471664428711,-0.4783565402030945,-22.549890518188477,-0.2483184039592743,14.179414749145508,0.11748272180557251,2.1389803886413574,-0.22098104655742645,0.0,0.0,0.0,0.0,0.0,0.0,0.0,-0.33741252681315126,0.27635971708481455,-0.23661317542371288,0.31014681492744883,-0.12447791018355829,-0.03862060188858519,-0.24309973605395158,1.6755188527870661,0.052302886818584644,0.029984118926879914,-2.7524071998930815,0.03424856129409352,2.76636866633012,0.7691599225906607,1.6754973547542302,0.052104326824870026,0.029969505109285054,-2.752394845125968,0.0342448039870148,2.7663679543071322,0.7691630533470046,0.0009684857076346944,0.0006700267938426849,0.0005827520512928623,0.00041947142856105154,-0.00029704832137848313,0.0002465876321247899,-0.0005301023143324621,0.0,0.0,0.0,0.0,0.0,0.0,0.0,-2.1498032835909342e-05,-0.00019855999371461847,-1.4613817594859996e-05,1.2354767113365028e-05,-3.7573070787166873e-06,-7.120229876811379e-07,3.13075634394977e-06,-0.0009684857076346944,-0.0006700267938426849,-0.0005827520512928623,-0.00041947142856105154,0.00029704832137848313,-0.0002465876321247899,0.0005301023143324621,0.4783565402030945,22.549890518188477,0.2483184039592743,-14.179414749145508,-0.11748272180557251,-2.1389803886413574,0.22098104655742645,0
10,0.044992685317993164,-0.4505855441093445,-22.522119522094727,-0.2483184039592743,14.207185745239258,0.11198955774307251,2.1517977714538574,-0.25485557317733765,0.0,0.0,0.0,0.0,0.0,0.0,0.0,-0.3518658044681319,0.28356181638771205,-0.24189731281472535,0.3076406737499085,-0.1247177608540264,-0.03973196284890494,-0.2426138334553613,1.6755184131680088,0.05230093700355619,0.029983670995524018,-2.7524091487349125,0.03424949493801263,2.7663640633159186,0.7691615275777849,1.6754973547542302,0.052104326824870026,0.029969505109285054,-2.752394845125968,0.0342448039870148,2.7663679543071322,0.7691630533470046,-0.000373130417333164,0.0002656081375394342,0.0002531256001839069,-0.000499933616525686,-0.00021848006579672986,-0.000272114341918789,-7.841191518100393e-05,0.0,0.0,0.0,0.0,0.0,0.0,0.0,-2.1058413778529683e-05,-0.00019661017868616293,-1.416588623896417e-05,1.4303608944388202e-05,-4.690950997830734e-06,3.8909912136730895e-06,1.5257692197456763e-06,0.000373130417333164,-0.0002656081375394342,-0.0002531256001839069,0.000499933616525686,0.00021848006579672986,0.000272114341918789,7.841191518100393e-05,0.4505855441093445,22.522119522094727,0.2483184039592743,-14.207185745239258,-0.11198955774307251,-2.1517977714538574,0.25485557317733765,0
11,0.04999518394470215,-0.4505855441093445,-22.522119522094727,-0.2483184039592743,14.207185745239258,0.11198955774307251,2.1517977714538574,-0.25485557317733765,0.0,0.0,0.0,0.0,0.0,0.0,0.0,-0.3518658044681319,0.28356181638771205,-0.24189731281472535,0.3076406737499085,-0.1247177608540264,-0.03973196284890494,-0.2426138334553613,1.6755184131680088,0.05230093700355619,0.029983670995524018,-2.7524091487349125,0.03424949493801263,2.7663640633159186,0.7691615275777849,1.6754973547542302,0.052104326824870026,0.029969505109285054,-2.752394845125968,0.0342448039870148,2.7663679543071322,0.7691630533470046,-0.000373130417333164,0.0002656081375394342,0.0002531256001839069,-0.000499933616525686,-0.00021848006579672986,-0.000272114341918789,-7.841191518100393e-05,0.0,0.0,0.0,0.0,0.0,0.0,0.0,-2.1058413778529683e-05,-0.00019661017868616293,-1.416588623896417e-05,1.4303608944388202e-05,-4.690950997830734e-06,3.8909912136730895e-06,1.5257692197456763e-06,0.000373130417333164,-0.0002656081375394342,-0.0002531256001839069,0.000499933616525686,0.00021848006579672986,0.000272114341918789,7.841191518100393e-05,0.4505855441093445,22.522119522094727,0.2483184039592743,-14.207185745239258,-0.11198955774307251,-2.1517977714538574,0.25485557317733765,0
12,0.05499267578125,-0.3514034152030945,-22.498315811157227,-0.1491362750530243,14.207185745239258,0.11198955774307251,2.1453890800476074,-0.26217979192733765,0.0,0.0,0.0,0.0,0.0,0.0,0.0,-0.3675048572120018,0.2752463325816207,-0.2501179696531086,0.3134082216613429,-0.12600096229884056,-0.03912210396516912,-0.24495379095118072,1.6755119387590791,0.05229926754089804,0.02997668554144396,-2.7524091487391,0.03424963973269313,2.7663668940043706,0.7691623412701818,1.6754973547542302,0.052104326824870026,0.029969505109285054,-2.752394845125968,0.0342448039870148,2.7663679543071322,0.7691630533470046,-0.001287485485920146,-0.0012654883420160966,-0.0013878278446633225,-0.0004320594644082341,-0.00016723968088313998,8.645960740731908e-05,0.0006247248792846918,0.0,0.0,0.0,0.0,0.0,0.0,0.0,-1.4584004848883225e-05,-0.00019494071602801227,-7.180432158904876e-06,1.4303613131705362e-05,-4.8357456783262864e-06,1.0603027615907479e-06,7.120768228396912e-07,0.001287485485920146,0.0012654883420160966,0.0013878278446633225,0.0004320594644082341,0.00016723968088313998,-8.645960740731908e-05,-0.0006247248792846918,0.3514034152030945,22.498315811157227,0.1491362750530243,-14.207185745239258,-0.11198955774307251,-2.1453890800476074,0.26217979192733765,0
13,0.05999255180358887,-0.3514034152030945,-22.498315811157227,-0.1491362750530243,14.207185745239258,0.11198955774307251,2.1453890800476074,-0.26217979192733765,0.0,0.0,0.0,0.0,0.0,0.0,0.0,-0.3675048572120018,0.2752463325816207,-0.2501179696531086,0.3134082216613429,-0.12600096229884056,-0.03912210396516912,-0.24495379095118072,1.6755119387590791,0.05229926754089804,0.02997668554144396,-2.7524091487391,0.03424963973269313,2.7663668940043706,0.7691623412701818,1.6754973547542302,0.052104326824870026,0.029969505109285054,-2.752394845125968,0.0342448039870148,2.7663679543071322,0.7691630533470046,-0.001287485485920146,-0.0012654883420160966,-0.0013878278446633225,-0.0004320594644082341,-0.00016723968088313998,8.645960740731908e-05,0.0006247248792846918,0.0,0.0,0.0,0.0,0.0,0.0,0.0,-1.4584004848883225e-05,-0.00019494071602801227,-7.180432158904876e-06,1.4303613131705362e-05,-4.8357456783262864e-06,1.0603027615907479e-06,7.120768228396912e-07,0.001287485485920146,0.0012654883420160966,0.0013878278446633225,0.0004320594644082341,0.00016723968088313998,-8.645960740731908e-05,-0.0006247248792846918,0.3514034152030945,22.498315811157227,0.1491362750530243,-14.207185745239258,-0.11198955774307251,-2.1453890800476074,0.26217979192733765,0
14,0.06500554084777832,-0.2720577120780945,-22.573694229125977,-0.07375786453485489,14.155611038208008,0.10558086633682251,2.1582064628601074,-0.26858848333358765,0.0,0.0,0.0,0.0,0.0,0.0,0.0,-0.3578127545590155,0.2696005903869156,-0.24404122090838937,0.3161856799262754,-0.12654625848469359,-0.038751421027128106,-0.24494491178246264,1.6755036427646526,0.05230455725443991,0.029972053115864775,-2.752405529457226,0.0342521069705889,2.7663665156119985,0.7691630533470046,1.6754973547542302,0.052104326824870026,0.029969505109285054,-2.752394845125968,0.0342448039870148,2.7663679543071322,0.7691630533470046,0.00020141287954558577,0.0003891822505003683,-0.001010777768811259,0.0011685965703984718,-1.3086390818140697e-05,-0.000493535414620747,0.0008837701151258977,0.0,0.0,0.0,0.0,0.0,0.0,0.0,-6.2880104223506095e-06,-0.0002002304295698823,-2.5480065797209295e-06,1.0684331257948543e-05,-7.3029835740978655e-06,1.438695133693102e-06,0.0,-0.00020141287954558577,-0.0003891822505003683,0.001010777768811259,-0.0011685965703984718,1.3086390818140697e-05,0.000493535414620747,-0.0008837701151258977,0.2720577120780945,22.573694229125977,0.07375786453485489,-14.155611038208008,-0.10558086633682251,-2.1582064628601074,0.26858848333358765,0
15,0.07000184059143066,-0.2720577120780945,-22.573694229125977,-0.07375786453485489,14.155611038208008,0.10558086633682251,2.1582064628601074,-0.26858848333358765,0.0,0.0,0.0,0.0,0.0,0.0,0.0,-0.3578127545590155,0.2696005903869156,-0.24404122090838937,0.3161856799262754,-0.12654625848469359,-0.038751421027128106,-0.24494491178246264,1.6755036427646526,0.05230455725443991,0.029972053115864775,-2.752405529457226,0.0342521069705889,2.7663665156119985,0.7691630533470046,1.6754973547542302,0.052104326824870026,0.029969505109285054,-2.752394845125968,0.0342448039870148,2.7663679543071322,0.7691630533470046,0.00020141287954558577,0.0003891822505003683,-0.001010777768811259,0.0011685965703984718,-1.3086390818140697e-05,-0.000493535414620747,0.0008837701151258977,0.0,0.0,0.0,0.0,0.0,0.0,0.0,-6.2880104223506095e-06,-0.0002002304295698823,-2.5480065797209295e-06,1.0684331257948543e-05,-7.3029835740978655e-06,1.438695133693102e-06,0.0,-0.00020141287954558577,-0.0003891822505003683,0.001010777768811259,-0.0011685965703984718,1.3086390818140697e-05,0.000493535414620747,-0.0008837701151258977,0.2720577120780945,22.573694229125977,0.07375786453485489,-14.155611038208008,-0.10558086633682251,-2.1582064628601074,0.26858848333358765,0
16,0.07500290870666504,-0.22445029020309448,-22.522119522094727,-0.07375786453485489,14.207185745239258,0.10558086633682251,2.1517977714538574,-0.26858848333358765,0.0,0.0,0.0,0.0,0.0,0.0,0.0,-0.35006220505714275,0.2733309568780439,-0.2440119901386941,0.3140730067399442,-0.1251610277423401,-0.038982898766921376,-0.24492356421488704,1.6755030185266142,0.05230085914777114,0.029971885631976912,-2.7524091487349125,0.034253527720252794,2.7663671244926573,0.7691630533470046,1.6754973547542302,0.052104326824870026,0.029969505109285054,-2.752394845125968,0.0342448039870148,2.7663679543071322,0.7691630533470046,-0.00041695183260857756,1.5752070519430018e-05,0.00010345051805696794,-0.0002891913333830459,-1.3884865431085793e-05,8.787673505721029e-05,0.0008540185879641615,0.0,0.0,0.0,0.0,0.0,0.0,0.0,-5.663772383979193e-06,-0.00019653232290111483,-2.380522691858289e-06,1.4303608944388202e-05,-8.723733237993303e-06,8.298144749119274e-07,0.0,0.00041695183260857756,-1.5752070519430018e-05,-0.00010345051805696794,0.0002891913333830459,1.3884865431085793e-05,-8.787673505721029e-05,-0.0008540185879641615,0.22445029020309448,22.522119522094727,0.07375786453485489,-14.207185745239258,-0.10558086633682251,-2.1517977714538574,0.26858848333358765,0
17,0.07999753952026367,-0.22445029020309448,-22.522119522094727,-0.07375786453485489,14.207185745239258,0.10558086633682251,2.1517977714538574,-0.26858848333358765,0.0,0.0,0.0,0.0,0.0,0.0,0.0,-0.35006220505714275,0.2733309568780439,-0.2440119901386941,0.3140730067399442,-0.1251610277423401,-0.038982898766921376,-0.24492356421488704,1.6755030185266142,0.05230085914777114,0.029971885631976912,-2.7524091487349125,0.034253527720252794,2.7663671244926573,0.7691630533470046,1.6754973547542302,0.052104326824870026,0.029969505109285054,-2.752394845125968,0.0342448039870148,2.7663679543071322,0.7691630533470046,-0.00041695183260857756,1.5752070519430018e-05,0.00010345051805696794,-0.0002891913333830459,-1.3884865431085793e-05,8.787673505721029e-05,0.0008540185879641615,0.0,0.0,0.0,0.0,0.0,0.0,0.0,-5.663772383979193e-06,-0.00019653232290111483,-2.380522691858289e-06,1.4303608944388202e-05,-8.723733237993303e-06,8.298144749119274e-07,0.0,0.00041695183260857756,-1.5752070519430018e-05,-0.00010345051805696794,0.0002891913333830459,1.3884865431085793e-05,-8.787673505721029e-05,-0.0008540185879641615,0.22445029020309448,22.522119522094727,0.07375786453485489,-14.207185745239258,-0.10558086633682251,-2.1517977714538574,0.26858848333358765,0
18,0.08494901657104492,-0.24825400114059448,-22.474512100219727,-0.07375786453485489,14.207185745239258,0.11198955774307251,2.1453890800476074,-0.22098104655742645,0.0,0.0,0.0,0.0,0.0,0.0,0.0,-0.33603333767935073,0.27524881955631186,-0.2366182698423577,0.31527776346764763,-0.1242027942541201,-0.0381031406774272,-0.24480894531196598,1.6755017210098966,0.052297597104597984,0.02997213098377285,-2.7524091487349125,0.034249525762286036,2.7663679543064674,0.7691577636318073,1.6754973547542302,0.052104326824870026,0.029969505109285054,-2.752394845125968,0.0342448039870148,2.7663679543071322,0.7691630533470046,-0.0006314448228028549,-0.0007300129872237977,-0.0005882692320776672,-0.0006277801005293325,-9.773458768075119e-05,0.00012150226785382384,-0.0005691736706313576,0.0,0.0,0.0,0.0,0.0,0.0,0.0,-4.366255666354846e-06,-0.0001932702797279584,-2.625874487797303e-06,1.4303608944388202e-05,-4.721775271235296e-06,6.648015471455437e-13,5.289715197309697e-06,0.0006314448228028549,0.0007300129872237977,0.0005882692320776672,0.0006277801005293325,9.773458768075119e-05,-0.00012150226785382384,0.0005691736706313576,0.24825400114059448,22.474512100219727,0.07375786453485489,-14.207185745239258,-0.11198955774307251,-2.1453890800476074,0.22098104655742645,0
19,0.0899972915649414,-0.24825400114059448,-22.474512100219727,-0.07375786453485489,14.207185745239258,0.11198955774307251,2.1453890800476074,-0.22098104655742645,0.0,0.0,0.0,0.0,0.0,0.0,0.0,-0.33603333767935073,0.27524881955631186,-0.2366182698423577,0.31527776346764763,-0.1242027942541201,-0.0381031406774272,-0.24480894531196598,1.6755017210098966,0.052297597104597984,0.02997213098377285,-2.7524091487349125,0.034249525762286036,2.7663679543064674,0.7691577636318073,1.6754973547542302,0.052104326824870026,0.029969505109285054,-2.752394845125968,0.0342448039870148,2.7663679543071322,0.7691630533470046,-0.0006314448228028549,-0.0007300129872237977,-0.0005882692320776672,-0.0006277801005293325,-9.773458768075119e-05,0.00012150226785382384,-0.0005691736706313576,0.0,0.0,0.0,0.0,0.0,0.0,0.0,-4.366255666354846e-06,-0.0001932702797279584,-2.625874487797303e-06,1.4303608944388202e-05,-4.721775271235296e-06,6.648015471455437e-13,5.289715197309697e-06,0.0006314448228028549,0.0007300129872237977,0.0005882692320776672,0.0006277801005293325,9.773458768075119e-05,-0.00012150226785382384,0.0005691736706313576,0.24825400114059448,22.474512100219727,0.07375786453485489,-14.207185745239258,-0.11198955774307251,-2.1453890800476074,0.22098104655742645,0
20,0.09499526023864746,-0.3236324191093445,-22.522119522094727,-0.09756157547235489,14.207185745239258,0.09367901086807251,2.1325716972351074,-0.22830526530742645,0.0,0.0,0.0,0.0,0.0,0.0,0.0,-0.3260468101857118,0.2716474589324361,-0.2285919891191158,0.3198409802596301,-0.1233921800691853,-0.03723259775330852,-0.24284594501080148,1.6755093948924749,0.0523009379767535,0.029973486498164708,-2.7524091487349125,0.03425168674981099,2.766369377007228,0.7691585774338906,1.6754973547542302,0.052104326824870026,0.029969505109285054,-2.752394845125968,0.0342448039870148,2.7663679543071322,0.7691630533470046,-0.00019427614553554838,6.367833958925806e-05,-0.0007873770311721876,-0.0008710035684988831,0.0004490615172686304,0.00040497799899843096,-0.0009327835784256243,0.0,0.0,0.0,0.0,0.0,0.0,0.0,-1.2040138244628906e-05,-0.00019661115188347733,-3.981388879654296e-06,1.4303608944388202e-05,-6.8827627961870474e-06,-1.4227000959543545e-06,4.475913114032615e-06,0.00019427614553554838,-6.367833958925806e-05,0.0007873770311721876,0.0008710035684988831,-0.0004490615172686304,-0.00040497799899843096,0.0009327835784256243,0.3236324191093445,22.522119522094727,0.09756157547235489,-14.207185745239258,-0.09367901086807251,-2.1325716972351074,0.22830526530742645,0
21,0.09999394416809082,-0.3236324191093445,-22.522119522094727,-0.09756157547235489,14.207185745239258,0.09367901086807251,2.1325716972351074,-0.22830526530742645,0.0,0.0,0.0,0.0,0.0,0.0,0.0,-0.3260468101857118,0.2716474589324361,-0.2285919891191158,0.3198409802596301,-0.1233921800691853,-0.03723259775330852,-0.24284594501080148,1.6755093948924749,0.0523009379767535,0.029973486498164708,-2.7524091487349125,0.03425168674981099,2.766369377007228,0.7691585774338906,1.6754973547542302,0.052104326824870026,0.029969505109285054,-2.752394845125968,0.0342448039870148,2.7663679543071322,0.7691630533470046,-0.00019427614553554838,6.367833958925806e-05,-0.0007873770311721876,-0.0008710035684988831,0.0004490615172686304,0.00040497799899843096,-0.0009327835784256243,0.0,0.0,0.0,0.0,0.0,0.0,0.0,-1.2040138244628906e-05,-0.00019661115188347733,-3.981388879654296e-06,1.4303608944388202e-05,-6.8827627961870474e-06,-1.4227000959543545e-06,4.475913114032615e-06,0.00019427614553554838,-6.367833958925806e-05,0.0007873770311721876,0.0008710035684988831,-0.0004490615172686304,-0.00040497799899843096,0.0009327835784256243,0.3236324191093445,22.522119522094727,0.09756157547235489,-14.207185745239258,-0.09367901086807251,-2.1325716972351074,0.22830526530742645,0
22,0.1049954891204834,-0.4029781222343445,-22.549890518188477,-0.1491362750530243,14.179414749145508,0.10558086633682251,2.1453890800476074,-0.22830526530742645,0.0,0.0,0.0,0.0,0.0,0.0,0.0,-0.3282326034990431,0.2729780142466307,-0.2273855852004555,0.32154655268355065,-0.12403965173866749,-0.03777018283885954,-0.2431446653656203,1.675512661255959,0.052302886818584644,0.02997715734703578,-2.7524071998930815,0.03424995802532056,2.7663679499464733,0.7691585774338906,1.6754973547542302,0.052104326824870026,0.029969505109285054,-2.752394845125968,0.0342448039870148,2.7663679543071322,0.7691630533470046,0.000659442592048492,0.0001504068821157986,-0.000515648465851608,0.00021050418578913462,0.00011007232976221437,0.00023896583339725648,-0.00014898345779095694,0.0,0.0,0.0,0.0,0.0,0.0,0.0,-1.5306501728762356e-05,-0.00019855999371461847,-7.65223775072571e-06,1.2354767113365028e-05,-5.15403830576161e-06,4.360658945046225e-09,4.475913114032615e-06,-0.000659442592048492,-0.0001504068821157986,0.000515648465851608,-0.00021050418578913462,-0.00011007232976221437,-0.00023896583339725648,0.00014898345779095694,0.4029781222343445,22.549890518188477,0.1491362750530243,-14.179414749145508,-0.10558086633682251,-2.1453890800476074,0.22830526530742645,0
23,0.10999155044555664,-0.4029781222343445,-22.549890518188477,-0.1491362750530243,14.179414749145508,0.10558086633682251,2.1453890800476074,-0.22830526530742645,0.0,0.0,0.0,0.0,0.0,0.0,0.0,-0.3282326034990431,0.2729780142466307,-0.2273855852004555,0.32154655268355065,-0.12403965173866749,-0.03777018283885954,-0.2431446653656203,1.675512661255959,0.052302886818584644,0.02997715734703578,-2.7524071998930815,0.03424995802532056,2.7663679499464733,0.7691585774338906,1.6754973547542302,0.052104326824870026,0.029969505109285054,-2.752394845125968,0.0342448039870148,2.7663679543071322,0.7691630533470046,0.000659442592048492,0.0001504068821157986,-0.000515648465851608,0.00021050418578913462,0.00011007232976221437,0.00023896583339725648,-0.00014898345779095694,0.0,0.0,0.0,0.0,0.0,0.0,0.0,-1.5306501728762356e-05,-0.00019855999371461847,-7.65223775072571e-06,1.2354767113365028e-05,-5.15403830576161e-06,4.360658945046225e-09,4.475913114032615e-06,-0.000659442592048492,-0.0001504068821157986,0.000515648465851608,-0.00021050418578913462,-0.00011007232976221437,-0.00023896583339725648,0.00014898345779095694,0.4029781222343445,22.549890518188477,0.1491362750530243,-14.179414749145508,-0.10558086633682251,-2.1453890800476074,0.22830526530742645,0
24,0.1149897575378418,-0.4029781222343445,-22.549890518188477,-0.1491362750530243,14.179414749145508,0.10558086633682251,2.1453890800476074,-0.22830526530742645,0.0,0.0,0.0,0.0,0.0,0.0,0.0,-0.3282326034990431,0.2729780142466307,-0.2273855852004555,0.32154655268355065,-0.12403965173866749,-0.03777018283885954,-0.2431446653656203,1.675512661255959,0.052302886818584644,0.02997715734703578,-2.7524071998930815,0.03424995802532056,2.7663679499464733,0.7691585774338906,1.6754973547542302,0.052104326824870026,0.029969505109285054,-2.752394845125968,0.0342448039870148,2.7663679543071322,0.7691630533470046,0.000659442592048492,0.0001504068821157986,-0.000515648465851608,0.00021050418578913462,0.00011007232976221437,0.00023896583339725648,-0.00014898345779095694,0.0,0.0,0.0,0.0,0.0,0.0,0.0,-1.5306501728762356e-05,-0.00019855999371461847,-7.65223775072571e-06,1.2354767113365028e-05,-5.15403830576161e-06,4.360658945046225e-09,4.475913114032615e-06,-0.000659442592048492,-0.0001504068821157986,0.000515648465851608,-0.00021050418578913462,-0.00011007232976221437,-0.00023896583339725648,0.00014898345779095694,0.4029781222343445,22.549890518188477,0.1491362750530243,-14.179414749145508,-0.10558086633682251,-2.1453890800476074,0.22830526530742645,0
25,0.12000656127929688,-0.4029781222343445,-22.549890518188477,-0.1491362750530243,14.179414749145508,0.10558086633682251,2.1453890800476074,-0.22830526530742645,0.0,0.0,0.0,0.0,0.0,0.0,0.0,-0.3282326034990431,0.2729780142466307,-0.2273855852004555,0.32154655268355065,-0.12403965173866749,-0.03777018283885954,-0.2431446653656203,1.675512661255959,0.052302886818584644,0.02997715734703578,-2.7524071998930815,0.03424995802532056,2.7663679499464733,0.7691585774338906,1.6754973547542302,0.052104326824870026,0.029969505109285054,-2.752394845125968,0.0342448039870148,2.7663679543071322,0.7691630533470046,0.000659442592048492,0.0001504068821157986,-0.000515648465851608,0.00021050418578913462,0.00011007232976221437,0.00023896583339725648,-0.00014898345779095694,0.0,0.0,0.0,0.0,0.0,0.0,0.0,-1.5306501728762356e-05,-0.00019855999371461847,-7.65223775072571e-06,1.2354767113365028e-05,-5.15403830576161e-06,4.360658945046225e-09,4.475913114032615e-06,-0.000659442592048492,-0.0001504068821157986,0.000515648465851608,-0.00021050418578913462,-0.00011007232976221437,-0.00023896583339725648,0.00014898345779095694,0.4029781222343445,22.549890518188477,0.1491362750530243,-14.179414749145508,-0.10558086633682251,-2.1453890800476074,0.22830526530742645,0
26,0.1250007152557373,-0.3514034152030945,-22.549890518188477,-0.1729399859905243,14.179414749145508,0.10558086633682251,2.1453890800476074,-0.26217979192733765,0.0,0.0,0.0,0.0,0.0,0.0,0.0,-0.3342172183056426,0.2712862292378797,-0.22868718870965313,0.32144934940819964,-0.12520376540276168,-0.03752632700944736,-0.2404431172342669,1.675512072181477,0.052302886818584644,0.02997906260483426,-2.7524071998930815,0.03425197543342457,2.766367954145602,0.7691623412701818,1.6754973547542302,0.052104326824870026,0.029969505109285054,-2.752394845125968,0.0342448039870148,2.7663679543071322,0.7691630533470046,-0.0010447842980121625,-2.259318577556628e-06,-0.00018921742095123414,0.0004916679415015896,5.3450480075039467e-05,7.946649935755848e-05,0.0010825124952181678,0.0,0.0,0.0,0.0,0.0,0.0,0.0,-1.4717427246679904e-05,-0.00019855999371461847,-9.557495549206152e-06,1.2354767113365028e-05,-7.171446409770521e-06,1.6153034465560268e-10,7.120768228396912e-07,0.0010447842980121625,2.259318577556628e-06,0.00018921742095123414,-0.0004916679415015896,-5.3450480075039467e-05,-7.946649935755848e-05,-0.0010825124952181678,0.3514034152030945,22.549890518188477,0.1729399859905243,-14.179414749145508,-0.10558086633682251,-2.1453890800476074,0.26217979192733765,0
27,0.12999987602233887,-0.3514034152030945,-22.549890518188477,-0.1729399859905243,14.179414749145508,0.10558086633682251,2.1453890800476074,-0.26217979192733765,0.0,0.0,0.0,0.0,0.0,0.0,0.0,-0.3342172183056426,0.2712862292378797,-0.22868718870965313,0.32144934940819964,-0.12520376540276168,-0.03752632700944736,-0.2404431172342669,1.675512072181477,0.052302886818584644,0.02997906260483426,-2.7524071998930815,0.03425197543342457,2.766367954145602,0.7691623412701818,1.6754973547542302,0.052104326824870026,0.029969505109285054,-2.752394845125968,0.0342448039870148,2.7663679543071322,0.7691630533470046,-0.0010447842980121625,-2.259318577556628e-06,-0.00018921742095123414,0.0004916679415015896,5.3450480075039467e-05,7.946649935755848e-05,0.0010825124952181678,0.0,0.0,0.0,0.0,0.0,0.0,0.0,-1.4717427246679904e-05,-0.00019855999371461847,-9.557495549206152e-06,1.2354767113365028e-05,-7.171446409770521e-06,1.6153034465560268e-10,7.120768228396912e-07,0.0010447842980121625,2.259318577556628e-06,0.00018921742095123414,-0.0004916679415015896,-5.3450480075039467e-05,-7.946649935755848e-05,-0.0010825124952181678,0.3514034152030945,22.549890518188477,0.1729399859905243,-14.179414749145508,-0.10558086633682251,-2.1453890800476074,0.26217979192733765,0
28,0.1350088119506836,-0.4029781222343445,-22.549890518188477,-0.1729399859905243,14.207185745239258,0.11198955774307251,2.1582064628601074,-0.23471395671367645,0.0,0.0,0.0,0.0,0.0,0.0,0.0,-0.34607809860923183,0.26793913502400785,-0.23665641687769887,0.31618502887244804,-0.12546057438989278,-0.03819252197690993,-0.24107778408650551,1.6755128452072539,0.052302886818584644,0.02997908821268676,-2.7524091487349125,0.03425232889722169,2.766366530153486,0.7691603623943195,1.6754973547542302,0.052104326824870026,0.029969505109285054,-2.752394845125968,0.0342448039870148,2.7663679543071322,0.7691630533470046,-0.00011060320279856772,-0.00030848776241325235,-0.00017706900479604908,-0.0011307950092616817,-0.00017735596559150446,-0.0004055990924956592,-0.0009818497379719521,0.0,0.0,0.0,0.0,0.0,0.0,0.0,-1.5490453023625506e-05,-0.00019855999371461847,-9.583103401707843e-06,1.4303608944388202e-05,-7.5249102068908336e-06,1.4241536461234716e-06,2.69095268512487e-06,0.00011060320279856772,0.00030848776241325235,0.00017706900479604908,0.0011307950092616817,0.00017735596559150446,0.0004055990924956592,0.0009818497379719521,0.4029781222343445,22.549890518188477,0.1729399859905243,-14.207185745239258,-0.11198955774307251,-2.1582064628601074,0.23471395671367645,0
29,0.14002561569213867,-0.4029781222343445,-22.549890518188477,-0.1729399859905243,14.207185745239258,0.11198955774307251,2.1582064628601074,-0.23471395671367645,0.0,0.0,0.0,0.0,0.0,0.0,0.0,-0.34607809860923183,0.26793913502400785,-0.23665641687769887,0.31618502887244804,-0.12546057438989278,-0.03819252197690993,-0.24107778408650551,1.6755128452072539,0.052302886818584644,0.02997908821268676,-2.7524091487349125,0.03425232889722169,2.766366530153486,0.7691603623943195,1.6754973547542302,0.052104326824870026,0.029969505109285054,-2.752394845125968,0.0342448039870148,2.7663679543071322,0.7691630533470046,-0.00011060320279856772,-0.00030848776241325235,-0.00017706900479604908,-0.0011307950092616817,-0.00017735596559150446,-0.0004055990924956592,-0.0009818497379719521,0.0,0.0,0.0,0.0,0.0,0.0,0.0,-1.5490453023625506e-05,-0.00019855999371461847,-9.583103401707843e-06,1.4303608944388202e-05,-7.5249102068908336e-06,1.4241536461234716e-06,2.69095268512487e-06,0.00011060320279856772,0.00030848776241325235,0.00017706900479604908,0.0011307950092616817,0.00017735596559150446,0.0004055990924956592,0.0009818497379719521,0.4029781222343445,22.549890518188477,0.1729399859905243,-14.207185745239258,-0.11198955774307251,-2.1582064628601074,0.23471395671367645,0
30,0.14501070976257324,-0.3752071261405945,-22.522119522094727,-0.2483184039592743,14.179414749145508,0.11198955774307251,2.1453890800476074,-0.24844686686992645,0.0,0.0,0.0,0.0,0.0,0.0,0.0,-0.3541110979628527,0.26431830516889243,-0.2411264362303173,0.3179231125885829,-0.125156768979901,-0.03780406861813173,-0.2426090334770799,1.675513520563514,0.0523009379767535,0.029984142309396156,-2.7524071998930815,0.03425174559353905,2.766366894669003,0.769160815880193,1.6754973547542302,0.052104326824870026,0.029969505109285054,-2.752394845125968,0.0342448039870148,2.7663679543071322,0.7691630533470046,-0.00043954930950728256,-0.0008525091931705056,0.0015130404575713185,0.00010872796052572823,-0.00038072157614687363,0.00010845290638533262,0.00018696341802696006,0.0,0.0,0.0,0.0,0.0,0.0,0.0,-1.6165809283874566e-05,-0.00019661115188347733,-1.4637200111102672e-05,1.2354767113365028e-05,-6.941606524250854e-06,1.0596381292415913e-06,2.2374668116054153e-06,0.00043954930950728256,0.0008525091931705056,-0.0015130404575713185,-0.00010872796052572823,0.00038072157614687363,-0.00010845290638533262,-0.00018696341802696006,0.3752071261405945,22.522119522094727,0.2483184039592743,-14.179414749145508,-0.11198955774307251,-2.1453890800476074,0.24844686686992645,0
31,0.15000009536743164,-0.3752071261405945,-22.522119522094727,-0.2483184039592743,14.179414749145508,0.11198955774307251,2.1453890800476074,-0.24844686686992645,0.0,0.0,0.0,0.0,0.0,0.0,0.0,-0.3541110979628527,0.26431830516889243,-0.2411264362303173,0.3179231125885829,-0.125156768979901,-0.03780406861813173,-0.2426090334770799,1.675513520563514,0.0523009379767535,0.029984142309396156,-2.7524071998930815,0.03425174559353905,2.766366894669003,0.769160815880193,1.6754973547542302,0.052104326824870026,0.029969505109285054,-2.752394845125968,0.0342448039870148,2.7663679543071322,0.7691630533470046,-0.00043954930950728256,-0.0008525091931705056,0.0015130404575713185,0.00010872796052572823,-0.00038072157614687363,0.00010845290638533262,0.00018696341802696006,0.0,0.0,0.0,0.0,0.0,0.0,0.0,-1.6165809283874566e-05,-0.00019661115188347733,-1.4637200111102672e-05,1.2354767113365028e-05,-6.941606524250854e-06,1.0596381292415913e-06,2.2374668116054153e-06,0.00043954930950728256,0.0008525091931705056,-0.0015130404575713185,-0.00010872796052572823,0.00038072157614687363,-0.00010845290638533262,-0.00018696341802696006,0.3752071261405945,22.522119522094727,0.2483184039592743,-14.179414749145508,-0.11198955774307251,-2.1453890800476074,0.24844686686992645,0
32,0.15500140190124512,-0.3752071261405945,-22.474512100219727,-0.2007109820842743,14.179414749145508,0.10558086633682251,2.1453890800476074,-0.22098104655742645,0.0,0.0,0.0,0.0,0.0,0.0,0.0,-0.3603593599497326,0.26763236549713276,-0.24706603251752732,0.31239364429127586,-0.12561684160543643,-0.039026943003451345,-0.2422034118056331,1.67551145557868,0.052297597105042976,0.029981040985682588,-2.7524071998930815,0.03424891082791762,2.7663676010943488,0.7691577636318073,1.6754973547542302,0.052104326824870026,0.029969505109285054,-2.752394845125968,0.0342448039870148,2.7663679543071322,0.7691630533470046,0.00010374304813576947,-0.0007423033066993322,0.0010630733583738645,-9.212192859314371e-05,1.7296582381773972e-05,-0.00015589220267829556,-0.001421841509788366,0.0,0.0,0.0,0.0,0.0,0.0,0.0,-1.4100824449858607e-05,-0.00019327028017294967,-1.1535876397534423e-05,1.2354767113365028e-05,-4.106840902816378e-06,3.5321278346600593e-07,5.289715197309697e-06,-0.00010374304813576947,0.0007423033066993322,-0.0010630733583738645,9.212192859314371e-05,-1.7296582381773972e-05,0.00015589220267829556,0.001421841509788366,0.3752071261405945,22.474512100219727,0.2007109820842743,-14.179414749145508,-0.10558086633682251,-2.1453890800476074,0.22098104655742645,0
33,0.16000056266784668,-0.3752071261405945,-22.474512100219727,-0.2007109820842743,14.179414749145508,0.10558086633682251,2.1453890800476074,-0.22098104655742645,0.0,0.0,0.0,0.0,0.0,0.0,0.0,-0.3603593599497326,0.26763236549713276,-0.24706603251752732,0.31239364429127586,-0.12561684160543643,-0.039026943003451345,-0.2422034118056331,1.67551145557868,0.052297597105042976,0.029981040985682588,-2.7524071998930815,0.03424891082791762,2.7663676010943488,0.7691577636318073,1.6754973547542302,0.052104326824870026,0.029969505109285054,-2.752394845125968,0.0342448039870148,2.7663679543071322,0.7691630533470046,0.00010374304813576947,-0.0007423033066993322,0.0010630733583738645,-9.212192859314371e-05,1.7296582381773972e-05,-0.00015589220267829556,-0.001421841509788366,0.0,0.0,0.0,0.0,0.0,0.0,0.0,-1.4100824449858607e-05,-0.00019327028017294967,-1.1535876397534423e-05,1.2354767113365028e-05,-4.106840902816378e-06,3.5321278346600593e-07,5.289715197309697e-06,-0.00010374304813576947,0.0007423033066993322,-0.0010630733583738645,9.212192859314371e-05,-1.7296582381773972e-05,0.00015589220267829556,0.001421841509788366,0.3752071261405945,22.474512100219727,0.2007109820842743,-14.179414749145508,-0.10558086633682251,-2.1453890800476074,0.22098104655742645,0
34,0.16579985618591309,-0.24825400114059448,-22.573694229125977,-0.1729399859905243,14.179414749145508,0.10558086633682251,2.1325716972351074,-0.26217979192733765,0.0,0.0,0.0,0.0,0.0,0.0,0.0,-0.34666617488594054,0.26405248869269715,-0.23579347145603302,0.320305075180456,-0.12615387036643927,-0.03785610288589317,-0.2436275639120275,1.6755041153543029,0.05230455725443991,0.02997827709846698,-2.7524071998930815,0.03424984035670347,2.7663693784605567,0.7691634141537878,1.6754973547542302,0.052104326824870026,0.029969505109285054,-2.752394845125968,0.0342448039870148,2.7663679543071322,0.7691630533470046,-0.0006959894266185042,0.001283405090387919,0.001726114986265752,0.00045450928887231384,-1.720142735626357e-05,0.0007084271892471385,0.0005829316694118215,0.0,0.0,0.0,0.0,0.0,0.0,0.0,-6.760600072652778e-06,-0.0002002304295698823,-8.771989181925038e-06,1.2354767113365028e-05,-5.036369688668496e-06,-1.424153424522956e-06,-3.6080678311734005e-07,0.0006959894266185042,-0.001283405090387919,-0.001726114986265752,-0.00045450928887231384,1.720142735626357e-05,-0.0007084271892471385,-0.0005829316694118215,0.24825400114059448,22.573694229125977,0.1729399859905243,-14.179414749145508,-0.10558086633682251,-2.1325716972351074,0.26217979192733765,0
35,0.16999268531799316,-0.24825400114059448,-22.573694229125977,-0.1729399859905243,14.179414749145508,0.10558086633682251,2.1325716972351074,-0.26217979192733765,0.0,0.0,0.0,0.0,0.0,0.0,0.0,-0.34666617488594054,0.26405248869269715,-0.23579347145603302,0.320305075180456,-0.12615387036643927,-0.03785610288589317,-0.2436275639120275,1.6755041153543029,0.05230455725443991,0.02997827709846698,-2.7524071998930815,0.03424984035670347,2.7663693784605567,0.7691634141537878,1.6754973547542302,0.052104326824870026,0.029969505109285054,-2.752394845125968,0.0342448039870148,2.7663679543071322,0.7691630533470046,-0.0006959894266185042,0.001283405090387919,0.001726114986265752,0.00045450928887231384,-1.720142735626357e-05,0.0007084271892471385,0.0005829316694118215,0.0,0.0,0.0,0.0,0.0,0.0,0.0,-6.760600072652778e-06,-0.0002002304295698823,-8.771989181925038e-06,1.2354767113365028e-05,-5.036369688668496e-06,-1.424153424522956e-06,-3.6080678311734005e-07,0.0006959894266185042,-0.001283405090387919,-0.001726114986265752,-0.00045450928887231384,1.720142735626357e-05,-0.0007084271892471385,-0.0005829316694118215,0.24825400114059448,22.573694229125977,0.1729399859905243,-14.179414749145508,-0.10558086633682251,-2.1325716972351074,0.26217979192733765,0
36,0.17499971389770508,-0.24825400114059448,-22.522119522094727,-0.07375786453485489,14.179414749145508,0.11198955774307251,2.1517977714538574,-0.22098104655742645,0.0,0.0,0.0,0.0,0.0,0.0,0.0,-0.332361436725901,0.29532119519148564,-0.22956451503159472,0.2742299732536386,-0.12658179223639815,-0.04500607647541069,-0.24185502560392913,1.6755024362623958,0.0523009379767535,0.029969280481573747,-2.7524071724209818,0.03425163165377334,2.766363945524516,0.7691577636378638,1.6754973547542302,0.052104326824870026,0.029969505109285054,-2.752394845125968,0.0342448039870148,2.7663679543071322,0.7691630533470046,-5.1073883008351764e-05,-0.00019438309377825677,-0.0002598946325553347,0.002278906391366378,-0.000298562987830767,4.6534006770536475e-05,-0.0005132985601946972,0.0,0.0,0.0,0.0,0.0,0.0,0.0,-5.08150816558306e-06,-0.00019661115188347733,2.2462771130660197e-07,1.2327295013658812e-05,-6.827666758538187e-06,4.00878261608284e-06,5.289709140821053e-06,5.1073883008351764e-05,0.00019438309377825677,0.0002598946325553347,-0.002278906391366378,0.000298562987830767,-4.6534006770536475e-05,0.0005132985601946972,0.24825400114059448,22.522119522094727,0.07375786453485489,-14.179414749145508,-0.11198955774307251,-2.1517977714538574,0.22098104655742645,0
37,0.1799931526184082,-0.24825400114059448,-22.522119522094727,-0.07375786453485489,14.179414749145508,0.11198955774307251,2.1517977714538574,-0.22098104655742645,0.0,0.0,0.0,0.0,0.0,0.0,0.0,-0.332361436725901,0.29532119519148564,-0.22956451503159472,0.2742299732536386,-0.12658179223639815,-0.04500607647541069,-0.24185502560392913,1.6755024362623958,0.0523009379767535,0.029969280481573747,-2.7524071724209818,0.03425163165377334,2.766363945524516,0.7691577636378638,1.6754973547542302,0.052104326824870026,0.029969505109285054,-2.752394845125968,0.0342448039870148,2.7663679543071322,0.7691630533470046,-5.1073883008351764e-05,-0.00019438309377825677,-0.0002598946325553347,0.002278906391366378,-0.000298562987830767,4.6534006770536475e-05,-0.0005132985601946972,0.0,0.0,0.0,0.0,0.0,0.0,0.0,-5.08150816558306e-06,-0.00019661115188347733,2.2462771130660197e-07,1.2327295013658812e-05,-6.827666758538187e-06,4.00878261608284e-06,5.289709140821053e-06,5.1073883008351764e-05,0.00019438309377825677,0.0002598946325553347,-0.002278906391366378,0.000298562987830767,-4.6534006770536475e-05,0.0005132985601946972,0.24825400114059448,22.522119522094727,0.07375786453485489,-14.179414749145508,-0.11198955774307251,-2.1517977714538574,0.22098104655742645,0
38,0.18499302864074707,-0.2720577120780945,-22.498315811157227,-0.1253325641155243,14.207185745239258,0.10558086633682251,2.1517977714538574,-0.24112264811992645,0.0,0.0,0.0,0.0,0.0,0.0,0.0,-0.3231293276776292,0.27622892961937784,-0.2237845006088249,0.30810133653820987,-0.1250414673322423,-0.03988795690405646,-0.2399943109942743,1.6755033915420514,0.05229926754089824,0.029973384538002776,-2.7524091487347575,0.034250331422513235,2.7663672421578642,0.7691600015875365,1.6754973547542302,0.052104326824870026,0.029969505109285054,-2.752394845125968,0.0342448039870148,2.7663679543071322,0.7691630533470046,0.00011768575036644534,-0.0009615972294246775,0.00038161218240287696,-0.0004535091224256722,-0.0001787132443933353,-7.811940154203727e-05,-0.00048826573099010096,0.0,0.0,0.0,0.0,0.0,0.0,0.0,-6.03678782118422e-06,-0.0001949407160282135,-3.879428717722816e-06,1.4303608789401068e-05,-5.527435498434152e-06,7.121492680006725e-07,3.0517594681311877e-06,-0.00011768575036644534,0.0009615972294246775,-0.00038161218240287696,0.0004535091224256722,0.0001787132443933353,7.811940154203727e-05,0.00048826573099010096,0.2720577120780945,22.498315811157227,0.1253325641155243,-14.207185745239258,-0.10558086633682251,-2.1517977714538574,0.24112264811992645,0
39,0.18999338150024414,-0.2720577120780945,-22.498315811157227,-0.1253325641155243,14.207185745239258,0.10558086633682251,2.1517977714538574,-0.24112264811992645,0.0,0.0,0.0,0.0,0.0,0.0,0.0,-0.3231293276776292,0.27622892961937784,-0.2237845006088249,0.30810133653820987,-0.1250414673322423,-0.03988795690405646,-0.2399943109942743,1.6755033915420514,0.05229926754089824,0.029973384538002776,-2.7524091487347575,0.034250331422513235,2.7663672421578642,0.7691600015875365,1.6754973547542302,0.052104326824870026,0.029969505109285054,-2.752394845125968,0.0342448039870148,2.7663679543071322,0.7691630533470046,0.00011768575036644534,-0.0009615972294246775,0.00038161218240287696,-0.0004535091224256722,-0.0001787132443933353,-7.811940154203727e-05,-0.00048826573099010096,0.0,0.0,0.0,0.0,0.0,0.0,0.0,-6.03678782118422e-06,-0.0001949407160282135,-3.879428717722816e-06,1.4303608789401068e-05,-5.527435498434152e-06,7.121492680006725e-07,3.0517594681311877e-06,-0.00011768575036644534,0.0009615972294246775,-0.00038161218240287696,0.0004535091224256722,0.0001787132443933353,7.811940154203727e-05,0.00048826573099010096,0.2720577120780945,22.498315811157227,0.1253325641155243,-14.207185745239258,-0.10558086633682251,-2.1517977714538574,0.24112264811992645,0
40,0.19499993324279785,-0.3752071261405945,-22.573694229125977,-0.2007109820842743,14.155611038208008,0.11198955774307251,2.1453890800476074,-0.23471395671367645,0.0,0.0,0.0,0.0,0.0,0.0,0.0,-0.32602858288565506,0.2614849490234222,-0.2264951721930737,0.3294647723114392,-0.12431123916139024,-0.036091327697447474,-0.24134490953138105,1.6755106309655174,0.05230455725443991,0.029980303832153596,-2.752405529457226,0.03424961300116693,2.766367601094422,0.7691592895107136,1.6754973547542302,0.052104326824870026,0.029969505109285054,-2.752394845125968,0.0342448039870148,2.7663679543071322,0.7691630533470046,0.00037170729292767727,0.0004773173042338145,0.0011100157966790673,0.0006565758155766826,-0.00020991474824925797,8.371946881224956e-05,-0.0005882406532149972,0.0,0.0,0.0,0.0,0.0,0.0,0.0,-1.3276211287216455e-05,-0.0002002304295698823,-1.0798722868542165e-05,1.0684331257948543e-05,-4.809014152132307e-06,3.532127101912863e-07,3.763836291081901e-06,-0.00037170729292767727,-0.0004773173042338145,-0.0011100157966790673,-0.0006565758155766826,0.00020991474824925797,-8.371946881224956e-05,0.0005882406532149972,0.3752071261405945,22.573694229125977,0.2007109820842743,-14.155611038208008,-0.11198955774307251,-2.1453890800476074,0.23471395671367645,0
41,0.2008037567138672,-0.3752071261405945,-22.573694229125977,-0.2007109820842743,14.155611038208008,0.11198955774307251,2.1453890800476074,-0.23471395671367645,0.0,0.0,0.0,0.0,0.0,0.0,0.0,-0.32602858288565506,0.2614849490234222,-0.2264951721930737,0.3294647723114392,-0.12431123916139024,-0.036091327697447474,-0.24134490953138105,1.6755106309655174,0.05230455725443991,0.029980303832153596,-2.752405529457226,0.03424961300116693,2.766367601094422,0.7691592895107136,1.6754973547542302,0.052104326824870026,0.029969505109285054,-2.752394845125968,0.0342448039870148,2.7663679543071322,0.7691630533470046,0.00037170729292767727,0.0004773173042338145,0.0011100157966790673,0.0006565758155766826,-0.00020991474824925797,8.371946881224956e-05,-0.0005882406532149972,0.0,0.0,0.0,0.0,0.0,0.0,0.0,-1.3276211287216455e-05,-0.0002002304295698823,-1.0798722868542165e-05,1.0684331257948543e-05,-4.809014152132307e-06,3.532127101912863e-07,3.763836291081901e-06,-0.00037170729292767727,-0.0004773173042338145,-0.0011100157966790673,-0.0006565758155766826,0.00020991474824925797,-8.371946881224956e-05,0.0005882406532149972,0.3752071261405945,22.573694229125977,0.2007109820842743,-14.155611038208008,-0.11198955774307251,-2.1453890800476074,0.23471395671367645,0
42,0.2057957649230957,-0.4505855441093445,-22.549890518188477,-0.2007109820842743,14.207185745239258,0.11198955774307251,2.1517977714538574,-0.20724813640117645,0.0,0.0,0.0,0.0,0.0,0.0,0.0,-0.3328329544439034,0.26264600540610994,-0.22943288957550126,0.3261491698194538,-0.12477450362954788,-0.03649069402407507,-0.24194162077443326,1.6755183392049795,0.05230217735774336,0.02998030445446399,-2.7524091487349125,0.03424926256606501,2.7663628857767226,0.7691562377529011,1.6754973547542302,0.052104326824870026,0.029969505109285054,-2.752394845125968,0.0342448039870148,2.7663679543071322,0.7691630533470046,0.0005989001984187881,0.0004967893796931276,-0.00011805704270101911,-0.0005690773968725966,-0.00020149990210571294,-0.00018386169069983552,-0.0010788722911042594,0.0,0.0,0.0,0.0,0.0,0.0,0.0,-2.098445074927291e-05,-0.00019785053287333515,-1.0799345178936354e-05,1.4303608944388202e-05,-4.45857905020941e-06,5.06853040960209e-06,6.815594103537492e-06,-0.0005989001984187881,-0.0004967893796931276,0.00011805704270101911,0.0005690773968725966,0.00020149990210571294,0.00018386169069983552,0.0010788722911042594,0.4505855441093445,22.549890518188477,0.2007109820842743,-14.207185745239258,-0.11198955774307251,-2.1517977714538574,0.20724813640117645,0
43,0.21000003814697266,-0.4505855441093445,-22.549890518188477,-0.2007109820842743,14.207185745239258,0.11198955774307251,2.1517977714538574,-0.20724813640117645,0.0,0.0,0.0,0.0,0.0,0.0,0.0,-0.3328329544439034,0.26264600540610994,-0.22943288957550126,0.3261491698194538,-0.12477450362954788,-0.03649069402407507,-0.24194162077443326,1.6755183392049795,0.05230217735774336,0.02998030445446399,-2.7524091487349125,0.03424926256606501,2.7663628857767226,0.7691562377529011,1.6754973547542302,0.052104326824870026,0.029969505109285054,-2.752394845125968,0.0342448039870148,2.7663679543071322,0.7691630533470046,0.0005989001984187881,0.0004967893796931276,-0.00011805704270101911,-0.0005690773968725966,-0.00020149990210571294,-0.00018386169069983552,-0.0010788722911042594,0.0,0.0,0.0,0.0,0.0,0.0,0.0,-2.098445074927291e-05,-0.00019785053287333515,-1.0799345178936354e-05,1.4303608944388202e-05,-4.45857905020941e-06,5.06853040960209e-06,6.815594103537492e-06,-0.0005989001984187881,-0.0004967893796931276,0.00011805704270101911,0.0005690773968725966,0.00020149990210571294,0.00018386169069983552,0.0010788722911042594,0.4505855441093445,22.549890518188477,0.2007109820842743,-14.207185745239258,-0.11198955774307251,-2.1517977714538574,0.20724813640117645,0
44,0.21495437622070312,-0.4505855441093445,-22.549890518188477,-0.2007109820842743,14.207185745239258,0.11198955774307251,2.1517977714538574,-0.20724813640117645,0.0,0.0,0.0,0.0,0.0,0.0,0.0,-0.3328329544439034,0.26264600540610994,-0.22943288957550126,0.3261491698194538,-0.12477450362954788,-0.03649069402407507,-0.24194162077443326,1.6755183392049795,0.05230217735774336,0.02998030445446399,-2.7524091487349125,0.03424926256606501,2.7663628857767226,0.7691562377529011,1.6754973547542302,0.052104326824870026,0.029969505109285054,-2.752394845125968,0.0342448039870148,2.7663679543071322,0.7691630533470046,0.0005989001984187881,0.0004967893796931276,-0.00011805704270101911,-0.0005690773968725966,-0.00020149990210571294,-0.00018386169069983552,-0.0010788722911042594,0.0,0.0,0.0,0.0,0.0,0.0,0.0,-2.098445074927291e-05,-0.00019785053287333515,-1.0799345178936354e-05,1.4303608944388202e-05,-4.45857905020941e-06,5.06853040960209e-06,6.815594103537492e-06,-0.0005989001984187881,-0.0004967893796931276,0.00011805704270101911,0.0005690773968725966,0.00020149990210571294,0.00018386169069983552,0.0010788722911042594,0.4505855441093445,22.549890518188477,0.2007109820842743,-14.207185745239258,-0.11198955774307251,-2.1517977714538574,0.20724813640117645,0
45,0.21999216079711914,-0.4505855441093445,-22.549890518188477,-0.2007109820842743,14.207185745239258,0.11198955774307251,2.1517977714538574,-0.20724813640117645,0.0,0.0,0.0,0.0,0.0,0.0,0.0,-0.3328329544439034,0.26264600540610994,-0.22943288957550126,0.3261491698194538,-0.12477450362954788,-0.03649069402407507,-0.24194162077443326,1.6755183392049795,0.05230217735774336,0.02998030445446399,-2.7524091487349125,0.03424926256606501,2.7663628857767226,0.7691562377529011,1.6754973547542302,0.052104326824870026,0.029969505109285054,-2.752394845125968,0.0342448039870148,2.7663679543071322,0.7691630533470046,0.0005989001984187881,0.0004967893796931276,-0.00011805704270101911,-0.0005690773968725966,-0.00020149990210571294,-0.00018386169069983552,-0.0010788722911042594,0.0,0.0,0.0,0.0,0.0,0.0,0.0,-2.098445074927291e-05,-0.00019785053287333515,-1.0799345178936354e-05,1.4303608944388202e-05,-4.45857905020941e-06,5.06853040960209e-06,6.815594103537492e-06,-0.0005989001984187881,-0.0004967893796931276,0.00011805704270101911,0.0005690773968725966,0.00020149990210571294,0.00018386169069983552,0.0010788722911042594,0.4505855441093445,22.549890518188477,0.2007109820842743,-14.207185745239258,-0.11198955774307251,-2.1517977714538574,0.20724813640117645,0
46,0.2249925136566162,-0.4029781222343445,-22.446741104125977,-0.2007109820842743,14.155611038208008,0.11198955774307251,2.1582064628601074,-0.24112264811992645,0.0,0.0,0.0,0.0,0.0,0.0,0.0,-0.3455561439553573,0.26288851775566524,-0.23406673851861873,0.3254435731440473,-0.12551137127319453,-0.036476924075599715,-0.24067888126071765,1.675514990534089,0.052295648259206906,0.029981005925997718,-2.752405529457226,0.03425237523292236,2.7663665257682437,0.7691599972268858,1.6754973547542302,0.052104326824870026,0.029969505109285054,-2.752394845125968,0.0342448039870148,2.7663679543071322,0.7691630533470046,-0.0008194820138813878,-0.001728777999520372,0.00016971744877749992,0.0011281483464271247,1.794662177739411e-06,-0.0003412161467247842,-0.0001341463935277257,0.0,0.0,0.0,0.0,0.0,0.0,0.0,-1.7635779858693468e-05,-0.0001913214343368802,-1.150081671266387e-05,1.0684331257948543e-05,-7.57124590755609e-06,1.4285388885149075e-06,3.0561201188605835e-06,0.0008194820138813878,0.001728777999520372,-0.00016971744877749992,-0.0011281483464271247,-1.794662177739411e-06,0.0003412161467247842,0.0001341463935277257,0.4029781222343445,22.446741104125977,0.2007109820842743,-14.155611038208008,-0.11198955774307251,-2.1582064628601074,0.24112264811992645,0
47,0.22999334335327148,-0.4029781222343445,-22.446741104125977,-0.2007109820842743,14.155611038208008,0.11198955774307251,2.1582064628601074,-0.24112264811992645,0.0,0.0,0.0,0.0,0.0,0.0,0.0,-0.3455561439553573,0.26288851775566524,-0.23406673851861873,0.3254435731440473,-0.12551137127319453,-0.036476924075599715,-0.24067888126071765,1.675514990534089,0.052295648259206906,0.029981005925997718,-2.752405529457226,0.03425237523292236,2.7663665257682437,0.7691599972268858,1.6754973547542302,0.052104326824870026,0.029969505109285054,-2.752394845125968,0.0342448039870148,2.7663679543071322,0.7691630533470046,-0.0008194820138813878,-0.001728777999520372,0.00016971744877749992,0.0011281483464271247,1.794662177739411e-06,-0.0003412161467247842,-0.0001341463935277257,0.0,0.0,0.0,0.0,0.0,0.0,0.0,-1.7635779858693468e-05,-0.0001913214343368802,-1.150081671266387e-05,1.0684331257948543e-05,-7.57124590755609e-06,1.4285388885149075e-06,3.0561201188605835e-06,0.0008194820138813878,0.001728777999520372,-0.00016971744877749992,-0.0011281483464271247,-1.794662177739411e-06,0.0003412161467247842,0.0001341463935277257,0.4029781222343445,22.446741104125977,0.2007109820842743,-14.155611038208008,-0.11198955774307251,-2.1582064628601074,0.24112264811992645,0
48,0.23499131202697754,-0.3514034152030945,-22.549890518188477,-0.2007109820842743,14.179414749145508,0.11198955774307251,2.1453890800476074,-0.23471395671367645,0.0,0.0,0.0,0.0,0.0,0.0,0.0,-0.36180292662142466,0.26008457955201236,-0.2436999209319976,0.325774849566015,-0.12492887498509421,-0.0363668689517187,-0.24157981224136357,1.6755112245113506,0.052302886818584575,0.02997820116146746,-2.7524071998930815,0.03425283610453694,2.766367835115938,0.7691592895106397,1.6754973547542302,0.052104326824870026,0.029969505109285054,-2.752394845125968,0.0342448039870148,2.7663679543071322,0.7691630533470046,-0.0012915527200606895,8.726872828676465e-05,-8.382856462422227e-05,5.692438038498145e-05,-4.981079273662543e-05,-5.2019086322488055e-05,-0.0006594709408338846,0.0,0.0,0.0,0.0,0.0,0.0,0.0,-1.3869757120366089e-05,-0.00019855999371454908,-8.69605218240671e-06,1.2354767113365028e-05,-8.03211752214289e-06,1.1919119424774749e-07,3.7638363649117323e-06,0.0012915527200606895,-8.726872828676465e-05,8.382856462422227e-05,-5.692438038498145e-05,4.981079273662543e-05,5.2019086322488055e-05,0.0006594709408338846,0.3514034152030945,22.549890518188477,0.2007109820842743,-14.179414749145508,-0.11198955774307251,-2.1453890800476074,0.23471395671367645,0
49,0.23999452590942383,-0.3514034152030945,-22.549890518188477,-0.2007109820842743,14.179414749145508,0.11198955774307251,2.1453890800476074,-0.23471395671367645,0.0,0.0,0.0,0.0,0.0,0.0,0.0,-0.36180292662142466,0.26008457955201236,-0.2436999209319976,0.325774849566015,-0.12492887498509421,-0.0363668689517187,-0.24157981224136357,1.6755112245113506,0.052302886818584575,0.02997820116146746,-2.7524071998930815,0.03425283610453694,2.766367835115938,0.7691592895106397,1.6754973547542302,0.052104326824870026,0.029969505109285054,-2.752394845125968,0.0342448039870148,2.7663679543071322,0.7691630533470046,-0.0012915527200606895,8.726872828676465e-05,-8.382856462422227e-05,5.692438038498145e-05,-4.981079273662543e-05,-5.2019086322488055e-05,-0.0006594709408338846,0.0,0.0,0.0,0.0,0.0,0.0,0.0,-1.3869757120366089e-05,-0.00019855999371454908,-8.69605218240671e-06,1.2354767113365028e-05,-8.03211752214289e-06,1.1919119424774749e-07,3.7638363649117323e-06,0.0012915527200606895,-8.726872828676465e-05,8.382856462422227e-05,-5.692438038498145e-05,4.981079273662543e-05,5.2019086322488055e-05,0.0006594709408338846,0.3514034152030945,22.549890518188477,0.2007109820842743,-14.179414749145508,-0.11198955774307251,-2.1453890800476074,0.23471395671367645,0
50,0.2449958324432373,-0.2720577120780945,-22.522119522094727,-0.1253325641155243,14.207185745239258,0.10008770227432251,2.1453890800476074,-0.22830526530742645,0.0,0.0,0.0,0.0,0.0,0.0,0.0,-0.35721282644037816,0.2684273606872068,-0.2409290832905051,0.3213734579064539,-0.12563866531997225,-0.03755457278014153,-0.24354279602517748,1.6755062908783867,0.0523009379767535,0.029973376253719933,-2.7524091487349125,0.034250856995940986,2.766367915061051,0.7691585774338906,1.6754973547542302,0.052104326824870026,0.029969505109285054,-2.752394845125968,0.0342448039870148,2.7663679543071322,0.7691630533470046,-0.0012274580941639616,0.0004128199678774915,-0.0007636354525809764,-0.000625580096017972,0.00014128964962858206,-2.03613921556043e-05,-0.0001355260243646279,0.0,0.0,0.0,0.0,0.0,0.0,0.0,-8.93612415642231e-06,-0.00019661115188347733,-3.871144434879764e-06,1.4303608944388202e-05,-6.0530089261850994e-06,3.9246081051658166e-08,4.475913114032615e-06,0.0012274580941639616,-0.0004128199678774915,0.0007636354525809764,0.000625580096017972,-0.00014128964962858206,2.03613921556043e-05,0.0001355260243646279,0.2720577120780945,22.522119522094727,0.1253325641155243,-14.207185745239258,-0.10008770227432251,-2.1453890800476074,0.22830526530742645,0
51,0.24999547004699707,-0.2720577120780945,-22.522119522094727,-0.1253325641155243,14.207185745239258,0.10008770227432251,2.1453890800476074,-0.22830526530742645,0.0,0.0,0.0,0.0,0.0,0.0,0.0,-0.35721282644037816,0.2684273606872068,-0.2409290832905051,0.3213734579064539,-0.12563866531997225,-0.03755457278014153,-0.24354279602517748,1.6755062908783867,0.0523009379767535,0.029973376253719933,-2.7524091487349125,0.034250856995940986,2.766367915061051,0.7691585774338906,1.6754973547542302,0.052104326824870026,0.029969505109285054,-2.752394845125968,0.0342448039870148,2.7663679543071322,0.7691630533470046,-0.0012274580941639616,0.0004128199678774915,-0.0007636354525809764,-0.000625580096017972,0.00014128964962858206,-2.03613921556043e-05,-0.0001355260243646279,0.0,0.0,0.0,0.0,0.0,0.0,0.0,-8.93612415642231e-06,-0.00019661115188347733,-3.871144434879764e-06,1.4303608944388202e-05,-6.0530089261850994e-06,3.9246081051658166e-08,4.475913114032615e-06,0.0012274580941639616,-0.0004128199678774915,0.0007636354525809764,0.000625580096017972,-0.00014128964962858206,2.03613921556043e-05,0.0001355260243646279,0.2720577120780945,22.522119522094727,0.1253325641155243,-14.207185745239258,-0.10008770227432251,-2.1453890800476074,0.22830526530742645,0
52,0.25499892234802246,-0.22445029020309448,-22.573694229125977,-0.1729399859905243,14.179414749145508,0.10558086633682251,2.1453890800476074,-0.24112264811992645,0.0,0.0,0.0,0.0,0.0,0.0,0.0,-0.35553069640602775,0.2631552815453762,-0.24330476575426427,0.3231959639365077,-0.12555624312471506,-0.03732848413679669,-0.24188190666613874,1.6755000860402802,0.052304530978112454,0.029979089209165775,-2.7524071998930815,0.034249998188823565,2.7663679543069106,0.7691632202383544,1.6754973547542302,0.052104326824870026,0.029969505109285054,-2.752394845125968,0.0342448039870148,2.7663679543071322,0.7691630533470046,-0.001593609879637671,0.0009081764138809703,0.000989093555027007,0.00025795953637127366,0.00011305593875214843,0.00011976454167102225,0.000533474520434851,0.0,0.0,0.0,0.0,0.0,0.0,0.0,-2.731286049995063e-06,-0.00020020415324242813,-9.58409988072173e-06,1.2354767113365028e-05,-5.194201808764176e-06,2.2160051571518125e-13,-1.6689134973990605e-07,0.001593609879637671,-0.0009081764138809703,-0.000989093555027007,-0.00025795953637127366,-0.00011305593875214843,-0.00011976454167102225,-0.000533474520434851,0.22445029020309448,22.573694229125977,0.1729399859905243,-14.179414749145508,-0.10558086633682251,-2.1453890800476074,0.24112264811992645,0
53,0.2600116729736328,-0.22445029020309448,-22.573694229125977,-0.1729399859905243,14.179414749145508,0.10558086633682251,2.1453890800476074,-0.24112264811992645,0.0,0.0,0.0,0.0,0.0,0.0,0.0,-0.35553069640602775,0.2631552815453762,-0.24330476575426427,0.3231959639365077,-0.12555624312471506,-0.03732848413679669,-0.24188190666613874,1.6755000860402802,0.052304530978112454,0.029979089209165775,-2.7524071998930815,0.034249998188823565,2.7663679543069106,0.7691632202383544,1.6754973547542302,0.052104326824870026,0.029969505109285054,-2.752394845125968,0.0342448039870148,2.7663679543071322,0.7691630533470046,-0.001593609879637671,0.0009081764138809703,0.000989093555027007,0.00025795953637127366,0.00011305593875214843,0.00011976454167102225,0.000533474520434851,0.0,0.0,0.0,0.0,0.0,0.0,0.0,-2.731286049995063e-06,-0.00020020415324242813,-9.58409988072173e-06,1.2354767113365028e-05,-5.194201808764176e-06,2.2160051571518125e-13,-1.6689134973990605e-07,0.001593609879637671,-0.0009081764138809703,-0.000989093555027007,-0.00025795953637127366,-0.00011305593875214843,-0.00011976454167102225,-0.000533474520434851,0.22445029020309448,22.573694229125977,0.1729399859905243,-14.179414749145508,-0.10558086633682251,-2.1453890800476074,0.24112264811992645,0
54,0.26500368118286133,-0.2720577120780945,-22.573694229125977,-0.09756157547235489,14.179414749145508,0.10558086633682251,2.1453890800476074,-0.25485557317733765,0.0,0.0,0.0,0.0,0.0,0.0,0.0,-0.34517948858939745,0.26362506519777373,-0.24173678019268052,0.3211451353026266,-0.1252817317961781,-0.0373261314686668,-0.24132648794070644,1.6755055666670073,0.05230455725439046,0.029973485921118908,-2.7524071998930815,0.034249891024233516,2.7663678365695623,0.7691615274741549,1.6754973547542302,0.052104326824870026,0.029969505109285054,-2.752394845125968,0.0342448039870148,2.7663679543071322,0.7691630533470046,-0.0007100317149326371,0.0005870735039193625,-0.00048534976668462154,0.00024094046495861122,-7.504152653543299e-05,0.00013751764579342048,-0.00011935233761185998,0.0,0.0,0.0,0.0,0.0,0.0,0.0,-8.211912777111863e-06,-0.00020023042952043574,-3.980811833854264e-06,1.2354767113365028e-05,-5.0870372187150625e-06,1.1773756991573237e-07,1.5258728497391516e-06,0.0007100317149326371,-0.0005870735039193625,0.00048534976668462154,-0.00024094046495861122,7.504152653543299e-05,-0.00013751764579342048,0.00011935233761185998,0.2720577120780945,22.573694229125977,0.09756157547235489,-14.179414749145508,-0.10558086633682251,-2.1453890800476074,0.25485557317733765,0
55,0.26999735832214355,-0.2720577120780945,-22.573694229125977,-0.09756157547235489,14.179414749145508,0.10558086633682251,2.1453890800476074,-0.25485557317733765,0.0,0.0,0.0,0.0,0.0,0.0,0.0,-0.34517948858939745,0.26362506519777373,-0.24173678019268052,0.3211451353026266,-0.1252817317961781,-0.0373261314686668,-0.24132648794070644,1.6755055666670073,0.05230455725439046,0.029973485921118908,-2.7524071998930815,0.034249891024233516,2.7663678365695623,0.7691615274741549,1.6754973547542302,0.052104326824870026,0.029969505109285054,-2.752394845125968,0.0342448039870148,2.7663679543071322,0.7691630533470046,-0.0007100317149326371,0.0005870735039193625,-0.00048534976668462154,0.00024094046495861122,-7.504152653543299e-05,0.00013751764579342048,-0.00011935233761185998,0.0,0.0,0.0,0.0,0.0,0.0,0.0,-8.211912777111863e-06,-0.00020023042952043574,-3.980811833854264e-06,1.2354767113365028e-05,-5.0870372187150625e-06,1.1773756991573237e-07,1.5258728497391516e-06,0.0007100317149326371,-0.0005870735039193625,0.00048534976668462154,-0.00024094046495861122,7.504152653543299e-05,-0.00013751764579342048,0.00011935233761185998,0.2720577120780945,22.573694229125977,0.09756157547235489,-14.179414749145508,-0.10558086633682251,-2.1453890800476074,0.25485557317733765,0
56,0.27499842643737793,-0.2998287081718445,-22.549890518188477,-0.1491362750530243,14.179414749145508,0.10558086633682251,2.1389803886413574,-0.21457235515117645,0.0,0.0,0.0,0.0,0.0,0.0,0.0,-0.3308945753739642,0.26238984577429814,-0.23354720212917898,0.3185083877120352,-0.12534884316335998,-0.03771518815890635,-0.2435697897932611,1.6755053404323896,0.052302886818584644,0.029974476993648958,-2.7524071998930815,0.03425237021409408,2.7663654874693453,0.7691570515549844,1.6754973547542302,0.052104326824870026,0.029969505109285054,-2.752394845125968,0.0342448039870148,2.7663679543071322,0.7691630533470046,0.0002643410002341736,-0.0001996032467430967,0.0004534792793330634,4.815873430276701e-05,7.997018162454069e-05,0.00035749022783658225,-0.0008728810289965309,0.0,0.0,0.0,0.0,0.0,0.0,0.0,-7.985678159405651e-06,-0.00019855999371461847,-4.971884363904472e-06,1.2354767113365028e-05,-7.566227079279508e-06,2.4668377869296876e-06,6.00179202026041e-06,-0.0002643410002341736,0.0001996032467430967,-0.0004534792793330634,-4.815873430276701e-05,-7.997018162454069e-05,-0.00035749022783658225,0.0008728810289965309,0.2998287081718445,22.549890518188477,0.1491362750530243,-14.179414749145508,-0.10558086633682251,-2.1389803886413574,0.21457235515117645,0
57,0.279996395111084,-0.2998287081718445,-22.549890518188477,-0.1491362750530243,14.179414749145508,0.10558086633682251,2.1389803886413574,-0.21457235515117645,0.0,0.0,0.0,0.0,0.0,0.0,0.0,-0.3308945753739642,0.26238984577429814,-0.23354720212917898,0.3185083877120352,-0.12534884316335998,-0.03771518815890635,-0.2435697897932611,1.6755053404323896,0.052302886818584644,0.029974476993648958,-2.7524071998930815,0.03425237021409408,2.7663654874693453,0.7691570515549844,1.6754973547542302,0.052104326824870026,0.029969505109285054,-2.752394845125968,0.0342448039870148,2.7663679543071322,0.7691630533470046,0.0002643410002341736,-0.0001996032467430967,0.0004534792793330634,4.815873430276701e-05,7.997018162454069e-05,0.00035749022783658225,-0.0008728810289965309,0.0,0.0,0.0,0.0,0.0,0.0,0.0,-7.985678159405651e-06,-0.00019855999371461847,-4.971884363904472e-06,1.2354767113365028e-05,-7.566227079279508e-06,2.4668377869296876e-06,6.00179202026041e-06,-0.0002643410002341736,0.0001996032467430967,-0.0004534792793330634,-4.815873430276701e-05,-7.997018162454069e-05,-0.00035749022783658225,0.0008728810289965309,0.2998287081718445,22.549890518188477,0.1491362750530243,-14.179414749145508,-0.10558086633682251,-2.1389803886413574,0.21457235515117645,0
58,0.2849459648132324,-0.3514034152030945,-22.549890518188477,-0.1491362750530243,14.179414749145508,0.11198955774307251,2.1582064628601074,-0.24112264811992645,0.0,0.0,0.0,0.0,0.0,0.0,0.0,-0.32546032433672134,0.2651902671809658,-0.23030275420991003,0.31603441283478817,-0.12492731063769123,-0.03817819231261681,-0.24137832544203267,1.6755096836345709,0.052302886818584644,0.029976707596978656,-2.7524071998930815,0.034252484696507775,2.766366525774891,0.7691600015875365,1.6754973547542302,0.052104326824870026,0.029969505109285054,-2.752394845125968,0.0342448039870148,2.7663679543071322,0.7691630533470046,0.0008604431082115677,0.0005891441880608396,0.0002053148864990714,8.449016147917884e-05,-9.025936182715734e-05,-0.0003297026771925003,0.000455897884814314,0.0,0.0,0.0,0.0,0.0,0.0,0.0,-1.2328880340639614e-05,-0.00019855999371461847,-7.202487693602072e-06,1.2354767113365028e-05,-7.68070949297428e-06,1.4285322413876145e-06,3.0517594681311877e-06,-0.0008604431082115677,-0.0005891441880608396,-0.0002053148864990714,-8.449016147917884e-05,9.025936182715734e-05,0.0003297026771925003,-0.000455897884814314,0.3514034152030945,22.549890518188477,0.1491362750530243,-14.179414749145508,-0.11198955774307251,-2.1582064628601074,0.24112264811992645,0
59,0.2899963855743408,-0.3514034152030945,-22.549890518188477,-0.1491362750530243,14.179414749145508,0.11198955774307251,2.1582064628601074,-0.24112264811992645,0.0,0.0,0.0,0.0,0.0,0.0,0.0,-0.32546032433672134,0.2651902671809658,-0.23030275420991003,0.31603441283478817,-0.12492731063769123,-0.03817819231261681,-0.24137832544203267,1.6755096836345709,0.052302886818584644,0.029976707596978656,-2.7524071998930815,0.034252484696507775,2.766366525774891,0.7691600015875365,1.6754973547542302,0.052104326824870026,0.029969505109285054,-2.752394845125968,0.0342448039870148,2.7663679543071322,0.7691630533470046,0.0008604431082115677,0.0005891441880608396,0.0002053148864990714,8.449016147917884e-05,-9.025936182715734e-05,-0.0003297026771925003,0.000455897884814314,0.0,0.0,0.0,0.0,0.0,0.0,0.0,-1.2328880340639614e-05,-0.00019855999371461847,-7.202487693602072e-06,1.2354767113365028e-05,-7.68070949297428e-06,1.4285322413876145e-06,3.0517594681311877e-06,-0.0008604431082115677,-0.0005891441880608396,-0.0002053148864990714,-8.449016147917884e-05,9.025936182715734e-05,0.0003297026771925003,-0.000455897884814314,0.3514034152030945,22.549890518188477,0.1491362750530243,-14.179414749145508,-0.11198955774307251,-2.1582064628601074,0.24112264811992645,0
60,0.2950167655944824,-0.4029781222343445,-22.498315811157227,-0.1729399859905243,14.179414749145508,0.11198955774307251,2.1517977714538574,-0.24844686686992645,0.0,0.0,0.0,0.0,0.0,0.0,0.0,-0.33400583133425826,0.26625934036146787,-0.23600673559797605,0.3146412753360159,-0.12434246910180488,-0.03768169131030712,-0.24052707561960915,1.6755132973646891,0.05229926754089824,0.029976935133868225,-2.7524071998930815,0.03425238158009321,2.766366176777905,0.7691608153896198,1.6754973547542302,0.052104326824870026,0.029969505109285054,-2.752394845125968,0.0342448039870148,2.7663679543071322,0.7691630533470046,0.00036347461128015526,-0.00045039390605720994,0.00044209620945425874,-5.726272943100794e-05,-0.0001753038971835638,-4.8672004346801596e-05,-0.00018966358211895467,0.0,0.0,0.0,0.0,0.0,0.0,0.0,-1.5942610458896667e-05,-0.0001949407160282135,-7.430024583171546e-06,1.2354767113365028e-05,-7.577593078407496e-06,1.777529227364738e-06,2.2379573848541057e-06,-0.00036347461128015526,0.00045039390605720994,-0.00044209620945425874,5.726272943100794e-05,0.0001753038971835638,4.8672004346801596e-05,0.00018966358211895467,0.4029781222343445,22.498315811157227,0.1729399859905243,-14.179414749145508,-0.11198955774307251,-2.1517977714538574,0.24844686686992645,0
61,0.29999494552612305,-0.4029781222343445,-22.498315811157227,-0.1729399859905243,14.179414749145508,0.11198955774307251,2.1517977714538574,-0.24844686686992645,0.0,0.0,0.0,0.0,0.0,0.0,0.0,-0.33400583133425826,0.26625934036146787,-0.23600673559797605,0.3146412753360159,-0.12434246910180488,-0.03768169131030712,-0.24052707561960915,1.6755132973646891,0.05229926754089824,0.029976935133868225,-2.7524071998930815,0.03425238158009321,2.766366176777905,0.7691608153896198,1.6754973547542302,0.052104326824870026,0.029969505109285054,-2.752394845125968,0.0342448039870148,2.7663679543071322,0.7691630533470046,0.00036347461128015526,-0.00045039390605720994,0.00044209620945425874,-5.726272943100794e-05,-0.0001753038971835638,-4.8672004346801596e-05,-0.00018966358211895467,0.0,0.0,0.0,0.0,0.0,0.0,0.0,-1.5942610458896667e-05,-0.0001949407160282135,-7.430024583171546e-06,1.2354767113365028e-05,-7.577593078407496e-06,1.777529227364738e-06,2.2379573848541057e-06,-0.00036347461128015526,0.00045039390605720994,-0.00044209620945425874,5.726272943100794e-05,0.0001753038971835638,4.8672004346801596e-05,0.00018966358211895467,0.4029781222343445,22.498315811157227,0.1729399859905243,-14.179414749145508,-0.11198955774307251,-2.1517977714538574,0.24844686686992645,0
62,0.3049945831298828,-0.4783565402030945,-22.522119522094727,-0.1729399859905243,14.155611038208008,0.11198955774307251,2.1453890800476074,-0.22098104655742645,0.0,0.0,0.0,0.0,0.0,0.0,0.0,-0.3488896825878053,0.26822021541884805,-0.24080833676633387,0.3166754063635544,-0.12459942195178929,-0.03690785462230613,-0.24198215068157894,1.6755208100301633,0.05230022851591222,0.029979088244748923,-2.752405529457226,0.0342495228205759,2.766367823413825,0.7691577636318073,1.6754973547542302,0.052104326824870026,0.029969505109285054,-2.752394845125968,0.0342448039870148,2.7663679543071322,0.7691630533470046,0.0013176086810134232,0.0003528911989313023,-0.0009117960522680991,0.0009659012351338452,-0.00017128333037674795,-7.731074498365124e-05,-0.0009416249756279888,0.0,0.0,0.0,0.0,0.0,0.0,0.0,-2.3455275933059738e-05,-0.00019590169104219401,-9.583135463869796e-06,1.0684331257948543e-05,-4.718833561102864e-06,1.3089330730409188e-07,5.289715197309697e-06,-0.0013176086810134232,-0.0003528911989313023,0.0009117960522680991,-0.0009659012351338452,0.00017128333037674795,7.731074498365124e-05,0.0009416249756279888,0.4783565402030945,22.522119522094727,0.1729399859905243,-14.155611038208008,-0.11198955774307251,-2.1453890800476074,0.22098104655742645,0
63,0.3099942207336426,-0.4783565402030945,-22.522119522094727,-0.1729399859905243,14.155611038208008,0.11198955774307251,2.1453890800476074,-0.22098104655742645,0.0,0.0,0.0,0.0,0.0,0.0,0.0,-0.3488896825878053,0.26822021541884805,-0.24080833676633387,0.3166754063635544,-0.12459942195178929,-0.03690785462230613,-0.24198215068157894,1.6755208100301633,0.05230022851591222,0.029979088244748923,-2.752405529457226,0.0342495228205759,2.766367823413825,0.7691577636318073,1.6754973547542302,0.052104326824870026,0.029969505109285054,-2.752394845125968,0.0342448039870148,2.7663679543071322,0.7691630533470046,0.0013176086810134232,0.0003528911989313023,-0.0009117960522680991,0.0009659012351338452,-0.00017128333037674795,-7.731074498365124e-05,-0.0009416249756279888,0.0,0.0,0.0,0.0,0.0,0.0,0.0,-2.3455275933059738e-05,-0.00019590169104219401,-9.583135463869796e-06,1.0684331257948543e-05,-4.718833561102864e-06,1.3089330730409188e-07,5.289715197309697e-06,-0.0013176086810134232,-0.0003528911989313023,0.0009117960522680991,-0.0009659012351338452,0.00017128333037674795,7.731074498365124e-05,0.0009416249756279888,0.4783565402030945,22.522119522094727,0.1729399859905243,-14.155611038208008,-0.11198955774307251,-2.1453890800476074,0.22098104655742645,0
64,0.31499266624450684,-0.4783565402030945,-22.522119522094727,-0.1729399859905243,14.155611038208008,0.11198955774307251,2.1453890800476074,-0.22098104655742645,0.0,0.0,0.0,0.0,0.0,0.0,0.0,-0.3488896825878053,0.26822021541884805,-0.24080833676633387,0.3166754063635544,-0.12459942195178929,-0.03690785462230613,-0.24198215068157894,1.6755208100301633,0.05230022851591222,0.029979088244748923,-2.752405529457226,0.0342495228205759,2.766367823413825,0.7691577636318073,1.6754973547542302,0.052104326824870026,0.029969505109285054,-2.752394845125968,0.0342448039870148,2.7663679543071322,0.7691630533470046,0.0013176086810134232,0.0003528911989313023,-0.0009117960522680991,0.0009659012351338452,-0.00017128333037674795,-7.731074498365124e-05,-0.0009416249756279888,0.0,0.0,0.0,0.0,0.0,0.0,0.0,-2.3455275933059738e-05,-0.00019590169104219401,-9.583135463869796e-06,1.0684331257948543e-05,-4.718833561102864e-06,1.3089330730409188e-07,5.289715197309697e-06,-0.0013176086810134232,-0.0003528911989313023,0.0009117960522680991,-0.0009659012351338452,0.00017128333037674795,7.731074498365124e-05,0.0009416249756279888,0.4783565402030945,22.522119522094727,0.1729399859905243,-14.155611038208008,-0.11198955774307251,-2.1453890800476074,0.22098104655742645,0
65,0.3199923038482666,-0.4783565402030945,-22.522119522094727,-0.1729399859905243,14.155611038208008,0.11198955774307251,2.1453890800476074,-0.22098104655742645,0.0,0.0,0.0,0.0,0.0,0.0,0.0,-0.3488896825878053,0.26822021541884805,-0.24080833676633387,0.3166754063635544,-0.12459942195178929,-0.03690785462230613,-0.24198215068157894,1.6755208100301633,0.05230022851591222,0.029979088244748923,-2.752405529457226,0.0342495228205759,2.766367823413825,0.7691577636318073,1.6754973547542302,0.052104326824870026,0.029969505109285054,-2.752394845125968,0.0342448039870148,2.7663679543071322,0.7691630533470046,0.0013176086810134232,0.0003528911989313023,-0.0009117960522680991,0.0009659012351338452,-0.00017128333037674795,-7.731074498365124e-05,-0.0009416249756279888,0.0,0.0,0.0,0.0,0.0,0.0,0.0,-2.3455275933059738e-05,-0.00019590169104219401,-9.583135463869796e-06,1.0684331257948543e-05,-4.718833561102864e-06,1.3089330730409188e-07,5.289715197309697e-06,-0.0013176086810134232,-0.0003528911989313023,0.0009117960522680991,-0.0009659012351338452,0.00017128333037674795,7.731074498365124e-05,0.0009416249756279888,0.4783565402030945,22.522119522094727,0.1729399859905243,-14.155611038208008,-0.11198955774307251,-2.1453890800476074,0.22098104655742645,0
66,0.32499241828918457,-0.4029781222343445,-22.474512100219727,-0.2007109820842743,14.179414749145508,0.10008770227432251,2.1389803886413574,-0.24112264811992645,0.0,0.0,0.0,0.0,0.0,0.0,0.0,-0.36091445686354495,0.26895510707448034,-0.24280910239180806,0.32031252207804495,-0.12480287743184625,-0.03675780171710901,-0.24246978139183584,1.675514834607433,0.05229759710103805,0.02997820148662756,-2.7524071998930815,0.03425416420584685,2.766368653301264,0.7691600015875365,1.6754973547542302,0.052104326824870026,0.029969505109285054,-2.752394845125968,0.0342448039870148,2.7663679543071322,0.7691630533470046,-0.000498850122026168,-0.0011403681059478088,3.2087054111262955e-05,0.00040719834937551214,0.0003417243431056604,0.00034029787873032086,2.6835962737479374e-05,0.0,0.0,0.0,0.0,0.0,0.0,0.0,-1.74798532026621e-05,-0.00019327027616802134,-8.696377342506945e-06,1.2354767113365028e-05,-9.360218832049627e-06,-6.989941319091031e-07,3.0517594681311877e-06,0.000498850122026168,0.0011403681059478088,-3.2087054111262955e-05,-0.00040719834937551214,-0.0003417243431056604,-0.00034029787873032086,-2.6835962737479374e-05,0.4029781222343445,22.474512100219727,0.2007109820842743,-14.179414749145508,-0.10008770227432251,-2.1389803886413574,0.24112264811992645,0
67,0.3305833339691162,-0.4029781222343445,-22.474512100219727,-0.2007109820842743,14.179414749145508,0.10008770227432251,2.1389803886413574,-0.24112264811992645,0.0,0.0,0.0,0.0,0.0,0.0,0.0,-0.36091445686354495,0.26895510707448034,-0.24280910239180806,0.32031252207804495,-0.12480287743184625,-0.03675780171710901,-0.24246978139183584,1.675514834607433,0.05229759710103805,0.02997820148662756,-2.7524071998930815,0.03425416420584685,2.766368653301264,0.7691600015875365,1.6754973547542302,0.052104326824870026,0.029969505109285054,-2.752394845125968,0.0342448039870148,2.7663679543071322,0.7691630533470046,-0.000498850122026168,-0.0011403681059478088,3.2087054111262955e-05,0.00040719834937551214,0.0003417243431056604,0.00034029787873032086,2.6835962737479374e-05,0.0,0.0,0.0,0.0,0.0,0.0,0.0,-1.74798532026621e-05,-0.00019327027616802134,-8.696377342506945e-06,1.2354767113365028e-05,-9.360218832049627e-06,-6.989941319091031e-07,3.0517594681311877e-06,0.000498850122026168,0.0011403681059478088,-3.2087054111262955e-05,-0.00040719834937551214,-0.0003417243431056604,-0.00034029787873032086,-2.6835962737479374e-05,0.4029781222343445,22.474512100219727,0.2007109820842743,-14.179414749145508,-0.10008770227432251,-2.1389803886413574,0.24112264811992645,0
68,0.33500146865844727,-0.3236324191093445,-22.549890518188477,-0.1491362750530243,14.230989456176758,0.10558086633682251,2.1389803886413574,-0.26858848333358765,0.0,0.0,0.0,0.0,0.0,0.0,0.0,-0.36305212540634235,0.2736252623742595,-0.23952598910038012,0.31609065161119415,-0.1260905646779683,-0.037900209565879625,-0.24111630540867657,1.675509502322572,0.052302886818584624,0.029977420718218715,-2.752410819170768,0.03425316619678526,2.7663686663838813,0.7691630533470046,1.6754973547542302,0.052104326824870026,0.029969505109285054,-2.752394845125968,0.0342448039870148,2.7663679543071322,0.7691630533470046,-0.0006476582689599915,0.0006710181155940023,-0.0001286896444885615,-0.0012754833486804272,0.00013768591820983642,0.00015714082702097991,0.0012174338437236437,0.0,0.0,0.0,0.0,0.0,0.0,0.0,-1.2147568341669412e-05,-0.00019855999371459765,-7.915608933661139e-06,1.5974044799804688e-05,-8.362209770462758e-06,-7.120767491208824e-07,0.0,0.0006476582689599915,-0.0006710181155940023,0.0001286896444885615,0.0012754833486804272,-0.00013768591820983642,-0.00015714082702097991,-0.0012174338437236437,0.3236324191093445,22.549890518188477,0.1491362750530243,-14.230989456176758,-0.10558086633682251,-2.1389803886413574,0.26858848333358765,0
69,0.3400099277496338,-0.3236324191093445,-22.549890518188477,-0.1491362750530243,14.230989456176758,0.10558086633682251,2.1389803886413574,-0.26858848333358765,0.0,0.0,0.0,0.0,0.0,0.0,0.0,-0.36305212540634235,0.2736252623742595,-0.23952598910038012,0.31609065161119415,-0.1260905646779683,-0.037900209565879625,-0.24111630540867657,1.675509502322572,0.052302886818584624,0.029977420718218715,-2.752410819170768,0.03425316619678526,2.7663686663838813,0.7691630533470046,1.6754973547542302,0.052104326824870026,0.029969505109285054,-2.752394845125968,0.0342448039870148,2.7663679543071322,0.7691630533470046,-0.0006476582689599915,0.0006710181155940023,-0.0001286896444885615,-0.0012754833486804272,0.00013768591820983642,0.00015714082702097991,0.0012174338437236437,0.0,0.0,0.0,0.0,0.0,0.0,0.0,-1.2147568341669412e-05,-0.00019855999371459765,-7.915608933661139e-06,1.5974044799804688e-05,-8.362209770462758e-06,-7.120767491208824e-07,0.0,0.0006476582689599915,-0.0006710181155940023,0.0001286896444885615,0.0012754833486804272,-0.00013768591820983642,-0.00015714082702097991,-0.0012174338437236437,0.3236324191093445,22.549890518188477,0.1491362750530243,-14.230989456176758,-0.10558086633682251,-2.1389803886413574,0.26858848333358765,0
70,0.3449666500091553,-0.2998287081718445,-22.522119522094727,-0.07375786453485489,14.179414749145508,0.11198955774307251,2.1517977714538574,-0.26858848333358765,0.0,0.0,0.0,0.0,0.0,0.0,0.0,-0.3597018011236535,0.2731821190054305,-0.23973214974919319,0.31706778377026607,-0.12581654351616478,-0.03811082305103137,-0.24110175099716163,1.6755085324265893,0.0523009379767535,0.029972096831248525,-2.7524071998930815,0.03424930344995537,2.7663661433463234,0.7691630533470046,1.6754973547542302,0.052104326824870026,0.029969505109285054,-2.752394845125968,0.0342448039870148,2.7663679543071322,0.7691630533470046,-3.28345143512305e-05,-0.0001339764118374696,-0.0008845988709712218,3.1635462423807346e-05,-8.701146517161599e-05,0.00014977764336104226,0.0012443520019493977,0.0,0.0,0.0,0.0,0.0,0.0,0.0,-1.1177672359030666e-05,-0.00019661115188347733,-2.5917219634713495e-06,1.2354767113365028e-05,-4.4994629405728515e-06,1.8109608088678897e-06,0.0,3.28345143512305e-05,0.0001339764118374696,0.0008845988709712218,-3.1635462423807346e-05,8.701146517161599e-05,-0.00014977764336104226,-0.0012443520019493977,0.2998287081718445,22.522119522094727,0.07375786453485489,-14.179414749145508,-0.11198955774307251,-2.1517977714538574,0.26858848333358765,0
71,0.349994421005249,-0.2998287081718445,-22.522119522094727,-0.07375786453485489,14.179414749145508,0.11198955774307251,2.1517977714538574,-0.26858848333358765,0.0,0.0,0.0,0.0,0.0,0.0,0.0,-0.3597018011236535,0.2731821190054305,-0.23973214974919319,0.31706778377026607,-0.12581654351616478,-0.03811082305103137,-0.24110175099716163,1.6755085324265893,0.0523009379767535,0.029972096831248525,-2.7524071998930815,0.03424930344995537,2.7663661433463234,0.7691630533470046,1.6754973547542302,0.052104326824870026,0.029969505109285054,-2.752394845125968,0.0342448039870148,2.7663679543071322,0.7691630533470046,-3.28345143512305e-05,-0.0001339764118374696,-0.0008845988709712218,3.1635462423807346e-05,-8.701146517161599e-05,0.00014977764336104226,0.0012443520019493977,0.0,0.0,0.0,0.0,0.0,0.0,0.0,-1.1177672359030666e-05,-0.00019661115188347733,-2.5917219634713495e-06,1.2354767113365028e-05,-4.4994629405728515e-06,1.8109608088678897e-06,0.0,3.28345143512305e-05,0.0001339764118374696,0.0008845988709712218,-3.1635462423807346e-05,8.701146517161599e-05,-0.00014977764336104226,-0.0012443520019493977,0.2998287081718445,22.522119522094727,0.07375786453485489,-14.179414749145508,-0.11198955774307251,-2.1517977714538574,0.26858848333358765,0
72,0.3549916744232178,-0.24825400114059448,-22.573694229125977,-0.1253325641155243,14.131807327270508,0.10558086633682251,2.1453890800476074,-0.26217979192733765,0.0,0.0,0.0,0.0,0.0,0.0,0.0,-0.34775543763679034,0.26651217634921576,-0.2339844946151976,0.3185894322494597,-0.12548280092203679,-0.036938875794475856,-0.24135693545610745,1.6755038680865693,0.05230455725443991,0.02997288245176009,-2.752403859021371,0.03425238167643856,2.766367954300929,0.7691623412701818,1.6754973547542302,0.052104326824870026,0.029969505109285054,-2.752394845125968,0.0342448039870148,2.7663679543071322,0.7691630533470046,-0.0002498695261220565,0.00024049159083389273,0.0005823060475659243,0.001200157868365296,-0.00017648915046069682,3.7876675333311206e-05,0.0011255756828705485,0.0,0.0,0.0,0.0,0.0,0.0,0.0,-6.513332339030953e-06,-0.0002002304295698823,-3.3773424750367653e-06,9.013895402976146e-06,-7.577689423762801e-06,6.203038083185675e-12,7.120768228396912e-07,0.0002498695261220565,-0.00024049159083389273,-0.0005823060475659243,-0.001200157868365296,0.00017648915046069682,-3.7876675333311206e-05,-0.0011255756828705485,0.24825400114059448,22.573694229125977,0.1253325641155243,-14.131807327270508,-0.10558086633682251,-2.1453890800476074,0.26217979192733765,0
73,0.3599894046783447,-0.24825400114059448,-22.573694229125977,-0.1253325641155243,14.131807327270508,0.10558086633682251,2.1453890800476074,-0.26217979192733765,0.0,0.0,0.0,0.0,0.0,0.0,0.0,-0.34775543763679034,0.26651217634921576,-0.2339844946151976,0.3185894322494597,-0.12548280092203679,-0.036938875794475856,-0.24135693545610745,1.6755038680865693,0.05230455725443991,0.02997288245176009,-2.752403859021371,0.03425238167643856,2.766367954300929,0.7691623412701818,1.6754973547542302,0.052104326824870026,0.029969505109285054,-2.752394845125968,0.0342448039870148,2.7663679543071322,0.7691630533470046,-0.0002498695261220565,0.00024049159083389273,0.0005823060475659243,0.001200157868365296,-0.00017648915046069682,3.7876675333311206e-05,0.0011255756828705485,0.0,0.0,0.0,0.0,0.0,0.0,0.0,-6.513332339030953e-06,-0.0002002304295698823,-3.3773424750367653e-06,9.013895402976146e-06,-7.577689423762801e-06,6.203038083185675e-12,7.120768228396912e-07,0.0002498695261220565,-0.00024049159083389273,-0.0005823060475659243,-0.001200157868365296,0.00017648915046069682,-3.7876675333311206e-05,-0.0011255756828705485,0.24825400114059448,22.573694229125977,0.1253325641155243,-14.131807327270508,-0.10558086633682251,-2.1453890800476074,0.26217979192733765,0
74,0.3650045394897461,-0.2720577120780945,-22.549890518188477,-0.1491362750530243,14.179414749145508,0.10008770227432251,2.1517977714538574,-0.26217979192733765,0.0,0.0,0.0,0.0,0.0,0.0,0.0,-0.33799783878994233,0.26999470993719954,-0.2323929129875115,0.3155692308059184,-0.12542229740441108,-0.03751095234890597,-0.24120121937528638,1.6755033914774566,0.052302886818584644,0.02997526285457783,-2.7524071998930815,0.034252633540980716,2.7663672422303094,0.7691623545156584,1.6754973547542302,0.052104326824870026,0.029969505109285054,-2.752394845125968,0.0342448039870148,2.7663679543071322,0.7691630533470046,-0.0005117273066621554,0.0004038504552939639,0.0005629247544151718,0.0001724017663023856,6.740557044909638e-05,-0.00021039508391842114,0.0013684570260209233,0.0,0.0,0.0,0.0,0.0,0.0,0.0,-6.0367232264102455e-06,-0.00019855999371461847,-5.7577452927774775e-06,1.2354767113365028e-05,-7.82955396591567e-06,7.120768228396912e-07,6.988313462352735e-07,0.0005117273066621554,-0.0004038504552939639,-0.0005629247544151718,-0.0001724017663023856,-6.740557044909638e-05,0.00021039508391842114,-0.0013684570260209233,0.2720577120780945,22.549890518188477,0.1491362750530243,-14.179414749145508,-0.10008770227432251,-2.1517977714538574,0.26217979192733765,0
75,0.36998891830444336,-0.2720577120780945,-22.549890518188477,-0.1491362750530243,14.179414749145508,0.10008770227432251,2.1517977714538574,-0.26217979192733765,0.0,0.0,0.0,0.0,0.0,0.0,0.0,-0.33799783878994233,0.26999470993719954,-0.2323929129875115,0.3155692308059184,-0.12542229740441108,-0.03751095234890597,-0.24120121937528638,1.6755033914774566,0.052302886818584644,0.02997526285457783,-2.7524071998930815,0.034252633540980716,2.7663672422303094,0.7691623545156584,1.6754973547542302,0.052104326824870026,0.029969505109285054,-2.752394845125968,0.0342448039870148,2.7663679543071322,0.7691630533470046,-0.0005117273066621554,0.0004038504552939639,0.0005629247544151718,0.0001724017663023856,6.740557044909638e-05,-0.00021039508391842114,0.0013684570260209233,0.0,0.0,0.0,0.0,0.0,0.0,0.0,-6.0367232264102455e-06,-0.00019855999371461847,-5.7577452927774775e-06,1.2354767113365028e-05,-7.82955396591567e-06,7.120768228396912e-07,6.988313462352735e-07,0.0005117273066621554,-0.0004038504552939639,-0.0005629247544151718,-0.0001724017663023856,-6.740557044909638e-05,0.00021039508391842114,-0.0013684570260209233,0.2720577120780945,22.549890518188477,0.1491362750530243,-14.179414749145508,-0.10008770227432251,-2.1517977714538574,0.26217979192733765,0
76,0.37500429153442383,-0.3514034152030945,-22.474512100219727,-0.1253325641155243,14.254793167114258,0.09367901086807251,2.1517977714538574,-0.27591270208358765,0.0,0.0,0.0,0.0,0.0,0.0,0.0,-0.33369252772522295,0.26877168060402457,-0.23104211692158055,0.3152024974856736,-0.12562311529841816,-0.0377879188359496,-0.24090888992438936,1.6755119010254704,0.052297597105042976,0.02997362055372231,-2.752412489606623,0.034254887497593076,2.766367240776759,0.7691638671491627,1.6754973547542302,0.052104326824870026,0.029969505109285054,-2.752394845125968,0.0342448039870148,2.7663679543071322,0.7691630533470046,2.1285334250302634e-05,-0.0012826555910079042,-0.00043135510337656725,-0.00175090194232609,0.0006335572895435981,-0.00015950596433558906,0.0012011726590367665,0.0,0.0,0.0,0.0,0.0,0.0,0.0,-1.4546271240201136e-05,-0.00019327028017294967,-4.11544443725681e-06,1.7644480654777084e-05,-1.0083510578275112e-05,7.135303730088083e-07,-8.138021581061139e-07,-2.1285334250302634e-05,0.0012826555910079042,0.00043135510337656725,0.00175090194232609,-0.0006335572895435981,0.00015950596433558906,-0.0012011726590367665,0.3514034152030945,22.474512100219727,0.1253325641155243,-14.254793167114258,-0.09367901086807251,-2.1517977714538574,0.27591270208358765,0
77,0.380002498626709,-0.3514034152030945,-22.474512100219727,-0.1253325641155243,14.254793167114258,0.09367901086807251,2.1517977714538574,-0.27591270208358765,0.0,0.0,0.0,0.0,0.0,0.0,0.0,-0.33369252772522295,0.26877168060402457,-0.23104211692158055,0.3152024974856736,-0.12562311529841816,-0.0377879188359496,-0.24090888992438936,1.6755119010254704,0.052297597105042976,0.02997362055372231,-2.752412489606623,0.034254887497593076,2.766367240776759,0.7691638671491627,1.6754973547542302,0.052104326824870026,0.029969505109285054,-2.752394845125968,0.0342448039870148,2.7663679543071322,0.7691630533470046,2.1285334250302634e-05,-0.0012826555910079042,-0.00043135510337656725,-0.00175090194232609,0.0006335572895435981,-0.00015950596433558906,0.0012011726590367665,0.0,0.0,0.0,0.0,0.0,0.0,0.0,-1.4546271240201136e-05,-0.00019327028017294967,-4.11544443725681e-06,1.7644480654777084e-05,-1.0083510578275112e-05,7.135303730088083e-07,-8.138021581061139e-07,-2.1285334250302634e-05,0.0012826555910079042,0.00043135510337656725,0.00175090194232609,-0.0006335572895435981,0.00015950596433558906,-0.0012011726590367665,0.3514034152030945,22.474512100219727,0.1253325641155243,-14.254793167114258,-0.09367901086807251,-2.1517977714538574,0.27591270208358765,0
78,0.3850071430206299,-0.4029781222343445,-22.549890518188477,-0.1729399859905243,14.155611038208008,0.11198955774307251,2.1517977714538574,-0.27591270208358765,0.0,0.0,0.0,0.0,0.0,0.0,0.0,-0.33994165918029945,0.27014126419607065,-0.23061901240438806,0.3149778661143947,-0.1255463454036565,-0.03796836393816277,-0.24213845447867466,1.6755129236612631,0.052302886818584644,0.02997907943682842,-2.752405529457226,0.034251789624988344,2.7663672422303014,0.7691638673126124,1.6754973547542302,0.052104326824870026,0.029969505109285054,-2.752394845125968,0.0342448039870148,2.7663679543071322,0.7691630533470046,-5.8266204126791326e-06,0.0005705502977220599,-0.00020074191710303164,0.0004542488138275161,-8.324718818254356e-05,2.810267244587761e-05,0.001394032039911734,0.0,0.0,0.0,0.0,0.0,0.0,0.0,-1.556890703291458e-05,-0.00019855999371461847,-9.574327543365735e-06,1.0684331257948543e-05,-6.9856379735430685e-06,7.12076830833297e-07,-8.139656078043345e-07,5.8266204126791326e-06,-0.0005705502977220599,0.00020074191710303164,-0.0004542488138275161,8.324718818254356e-05,-2.810267244587761e-05,-0.001394032039911734,0.4029781222343445,22.549890518188477,0.1729399859905243,-14.155611038208008,-0.11198955774307251,-2.1517977714538574,0.27591270208358765,0
79,0.39004015922546387,-0.4029781222343445,-22.549890518188477,-0.1729399859905243,14.155611038208008,0.11198955774307251,2.1517977714538574,-0.27591270208358765,0.0,0.0,0.0,0.0,0.0,0.0,0.0,-0.33994165918029945,0.27014126419607065,-0.23061901240438806,0.3149778661143947,-0.1255463454036565,-0.03796836393816277,-0.24213845447867466,1.6755129236612631,0.052302886818584644,0.02997907943682842,-2.752405529457226,0.034251789624988344,2.7663672422303014,0.7691638673126124,1.6754973547542302,0.052104326824870026,0.029969505109285054,-2.752394845125968,0.0342448039870148,2.7663679543071322,0.7691630533470046,-5.8266204126791326e-06,0.0005705502977220599,-0.00020074191710303164,0.0004542488138275161,-8.324718818254356e-05,2.810267244587761e-05,0.001394032039911734,0.0,0.0,0.0,0.0,0.0,0.0,0.0,-1.556890703291458e-05,-0.00019855999371461847,-9.574327543365735e-06,1.0684331257948543e-05,-6.9856379735430685e-06,7.12076830833297e-07,-8.139656078043345e-07,5.8266204126791326e-06,-0.0005705502977220599,0.00020074191710303164,-0.0004542488138275161,8.324718818254356e-05,-2.810267244587761e-05,-0.001394032039911734,0.4029781222343445,22.549890518188477,0.1729399859905243,-14.155611038208008,-0.11198955774307251,-2.1517977714538574,0.27591270208358765,0
