rezayati/contactInterpretation/dataset/franka_main/labeled_data/link2/f3_1.csv
index,time,tau_J0,tau_J1,tau_J2,tau_J3,tau_J4,tau_J5,tau_J6,tau_J_d0,tau_J_d1,tau_J_d2,tau_J_d3,tau_J_d4,tau_J_d5,tau_J_d6,tau_ext0,tau_ext1,tau_ext2,tau_ext3,tau_ext4,tau_ext5,tau_ext6,q0,q1,q2,q3,q4,q5,q6,q_d0,q_d1,q_d2,q_d3,q_d4,q_d5,q_d6,dq0,dq1,dq2,dq3,dq4,dq5,dq6,dq_d0,dq_d1,dq_d2,dq_d3,dq_d4,dq_d5,dq_d6,e0,e1,e2,e3,e4,e5,e6,de0,de1,de2,de3,de4,de5,de6,etau_J0,etau_J1,etau_J2,etau_J3,etau_J4,etau_J5,etau_J6,label
1,0.0,-0.5021602511405945,-47.19466781616211,-1.2401397228240967,20.947603225708008,0.5642600655555725,2.3202548027038574,-0.31711143255233765,0.0,0.0,0.0,0.0,0.0,0.0,0.0,-0.5338275695173271,-0.4051176318796153,-0.3878122297214654,0.5496809996261165,-0.014629203189247868,0.10774297711667634,-0.32321153518230744,0.06227659407915349,0.6884229435204994,-0.07864134168065452,-1.6210406201513188,0.02816735003131322,2.287832661363814,0.8466344558331701,0.06226373270833701,0.6884179775783729,-0.07863937525950354,-1.6210372792796082,0.028167345702647853,2.2878312372101677,0.8466366937888992,-0.0002531827454608004,0.00019991173616924898,-2.8397579709457585e-05,-0.00010749931571051124,-9.203769789265893e-06,0.0002928433008897918,3.787007161284759e-05,0.0,0.0,0.0,0.0,0.0,0.0,0.0,-1.2861370816477646e-05,-4.965942126511358e-06,1.9664211509812235e-06,3.3408717106109265e-06,-4.328665367120399e-09,-1.4241536461234716e-06,2.2379557290674867e-06,0.0002531827454608004,-0.00019991173616924898,2.8397579709457585e-05,0.00010749931571051124,9.203769789265893e-06,-0.0002928433008897918,-3.787007161284759e-05,0.5021602511405945,47.19466781616211,1.2401397228240967,-20.947603225708008,-0.5642600655555725,-2.3202548027038574,0.31711143255233765,0
2,0.004994392395019531,-0.5815059542655945,-47.21847152709961,-1.2917144298553467,20.975374221801758,0.5523582100868225,2.3330721855163574,-0.33725303411483765,0.0,0.0,0.0,0.0,0.0,0.0,0.0,-0.5450032036209832,-0.3920241914345612,-0.39322474066931445,0.5446141804991209,-0.014253105597350064,0.10663769891292635,-0.32275826601943475,0.0622830645712277,0.6884246227866226,-0.07863748508812912,-1.62104256899315,0.028168668131058013,2.2878312372101677,0.8466366937888993,0.06226373270833701,0.6884179775783729,-0.07863937525950354,-1.6210372792796082,0.028167345702647853,2.2878312372101677,0.8466366937888992,0.0010374394012802987,0.001164073497782415,0.0014678366435544223,-0.0004701954746090575,0.00039152660832867466,-0.00011360764139820198,0.0005783130395336515,0.0,0.0,0.0,0.0,0.0,0.0,0.0,-1.933186289069383e-05,-6.645208249778101e-06,-1.8901713744190474e-06,5.289713541856145e-06,-1.3224284101595596e-06,0.0,-1.1102230246251565e-16,-0.0010374394012802987,-0.001164073497782415,-0.0014678366435544223,0.0004701954746090575,-0.00039152660832867466,0.00011360764139820198,-0.0005783130395336515,0.5815059542655945,47.21847152709961,1.2917144298553467,-20.975374221801758,-0.5523582100868225,-2.3330721855163574,0.33725303411483765,0
3,0.009991884231567383,-0.5815059542655945,-47.21847152709961,-1.2917144298553467,20.975374221801758,0.5523582100868225,2.3330721855163574,-0.33725303411483765,0.0,0.0,0.0,0.0,0.0,0.0,0.0,-0.5450032036209832,-0.3920241914345612,-0.39322474066931445,0.5446141804991209,-0.014253105597350064,0.10663769891292635,-0.32275826601943475,0.0622830645712277,0.6884246227866226,-0.07863748508812912,-1.62104256899315,0.028168668131058013,2.2878312372101677,0.8466366937888993,0.06226373270833701,0.6884179775783729,-0.07863937525950354,-1.6210372792796082,0.028167345702647853,2.2878312372101677,0.8466366937888992,0.0010374394012802987,0.001164073497782415,0.0014678366435544223,-0.0004701954746090575,0.00039152660832867466,-0.00011360764139820198,0.0005783130395336515,0.0,0.0,0.0,0.0,0.0,0.0,0.0,-1.933186289069383e-05,-6.645208249778101e-06,-1.8901713744190474e-06,5.289713541856145e-06,-1.3224284101595596e-06,0.0,-1.1102230246251565e-16,-0.0010374394012802987,-0.001164073497782415,-0.0014678366435544223,0.0004701954746090575,-0.00039152660832867466,0.00011360764139820198,-0.0005783130395336515,0.5815059542655945,47.21847152709961,1.2917144298553467,-20.975374221801758,-0.5523582100868225,-2.3330721855163574,0.33725303411483765,0
4,0.014988183975219727,-0.5815059542655945,-47.21847152709961,-1.2917144298553467,20.975374221801758,0.5523582100868225,2.3330721855163574,-0.33725303411483765,0.0,0.0,0.0,0.0,0.0,0.0,0.0,-0.5450032036209832,-0.3920241914345612,-0.39322474066931445,0.5446141804991209,-0.014253105597350064,0.10663769891292635,-0.32275826601943475,0.0622830645712277,0.6884246227866226,-0.07863748508812912,-1.62104256899315,0.028168668131058013,2.2878312372101677,0.8466366937888993,0.06226373270833701,0.6884179775783729,-0.07863937525950354,-1.6210372792796082,0.028167345702647853,2.2878312372101677,0.8466366937888992,0.0010374394012802987,0.001164073497782415,0.0014678366435544223,-0.0004701954746090575,0.00039152660832867466,-0.00011360764139820198,0.0005783130395336515,0.0,0.0,0.0,0.0,0.0,0.0,0.0,-1.933186289069383e-05,-6.645208249778101e-06,-1.8901713744190474e-06,5.289713541856145e-06,-1.3224284101595596e-06,0.0,-1.1102230246251565e-16,-0.0010374394012802987,-0.001164073497782415,-0.0014678366435544223,0.0004701954746090575,-0.00039152660832867466,0.00011360764139820198,-0.0005783130395336515,0.5815059542655945,47.21847152709961,1.2917144298553467,-20.975374221801758,-0.5523582100868225,-2.3330721855163574,0.33725303411483765,0
5,0.01999664306640625,-0.5815059542655945,-47.21847152709961,-1.2917144298553467,20.975374221801758,0.5523582100868225,2.3330721855163574,-0.33725303411483765,0.0,0.0,0.0,0.0,0.0,0.0,0.0,-0.5450032036209832,-0.3920241914345612,-0.39322474066931445,0.5446141804991209,-0.014253105597350064,0.10663769891292635,-0.32275826601943475,0.0622830645712277,0.6884246227866226,-0.07863748508812912,-1.62104256899315,0.028168668131058013,2.2878312372101677,0.8466366937888993,0.06226373270833701,0.6884179775783729,-0.07863937525950354,-1.6210372792796082,0.028167345702647853,2.2878312372101677,0.8466366937888992,0.0010374394012802987,0.001164073497782415,0.0014678366435544223,-0.0004701954746090575,0.00039152660832867466,-0.00011360764139820198,0.0005783130395336515,0.0,0.0,0.0,0.0,0.0,0.0,0.0,-1.933186289069383e-05,-6.645208249778101e-06,-1.8901713744190474e-06,5.289713541856145e-06,-1.3224284101595596e-06,0.0,-1.1102230246251565e-16,-0.0010374394012802987,-0.001164073497782415,-0.0014678366435544223,0.0004701954746090575,-0.00039152660832867466,0.00011360764139820198,-0.0005783130395336515,0.5815059542655945,47.21847152709961,1.2917144298553467,-20.975374221801758,-0.5523582100868225,-2.3330721855163574,0.33725303411483765,0
6,0.025005340576171875,-0.5815059542655945,-47.19466781616211,-1.2917144298553467,20.975374221801758,0.5697532296180725,2.3266634941101074,-0.35831016302108765,0.0,0.0,0.0,0.0,0.0,0.0,0.0,-0.540266165887178,-0.39746504848606157,-0.38827728925927313,0.5497291073087532,-0.014289001955481506,0.10710428405696883,-0.322968179380632,0.0622843313895227,0.6884229523508171,-0.0786377311910155,-1.62104256899315,0.02816673535108566,2.287831949795733,0.8466390334698889,0.06226373270833701,0.6884179775783729,-0.07863937525950354,-1.6210372792796082,0.028167345702647853,2.2878312372101677,0.8466366937888992,0.001238512785425961,0.0004428185536371248,0.000861419252792615,-0.00037000385534165226,-0.00014265221767302338,-4.443670288423466e-05,0.0018975849827113065,0.0,0.0,0.0,0.0,0.0,0.0,0.0,-2.059868118568786e-05,-4.974772444210629e-06,-1.6440684880436596e-06,5.289713541856145e-06,6.103515621941336e-07,-7.125855652212465e-07,-2.339680989726922e-06,-0.001238512785425961,-0.0004428185536371248,-0.000861419252792615,0.00037000385534165226,0.00014265221767302338,4.443670288423466e-05,-0.0018975849827113065,0.5815059542655945,47.19466781616211,1.2917144298553467,-20.975374221801758,-0.5697532296180725,-2.3266634941101074,0.35831016302108765,0
7,0.030003786087036133,-0.5815059542655945,-47.19466781616211,-1.2917144298553467,20.975374221801758,0.5697532296180725,2.3266634941101074,-0.35831016302108765,0.0,0.0,0.0,0.0,0.0,0.0,0.0,-0.540266165887178,-0.39746504848606157,-0.38827728925927313,0.5497291073087532,-0.014289001955481506,0.10710428405696883,-0.322968179380632,0.0622843313895227,0.6884229523508171,-0.0786377311910155,-1.62104256899315,0.02816673535108566,2.287831949795733,0.8466390334698889,0.06226373270833701,0.6884179775783729,-0.07863937525950354,-1.6210372792796082,0.028167345702647853,2.2878312372101677,0.8466366937888992,0.001238512785425961,0.0004428185536371248,0.000861419252792615,-0.00037000385534165226,-0.00014265221767302338,-4.443670288423466e-05,0.0018975849827113065,0.0,0.0,0.0,0.0,0.0,0.0,0.0,-2.059868118568786e-05,-4.974772444210629e-06,-1.6440684880436596e-06,5.289713541856145e-06,6.103515621941336e-07,-7.125855652212465e-07,-2.339680989726922e-06,-0.001238512785425961,-0.0004428185536371248,-0.000861419252792615,0.00037000385534165226,0.00014265221767302338,4.443670288423466e-05,-0.0018975849827113065,0.5815059542655945,47.19466781616211,1.2917144298553467,-20.975374221801758,-0.5697532296180725,-2.3266634941101074,0.35831016302108765,0
8,0.03499960899353027,-0.5537349581718445,-47.17086410522461,-1.3155181407928467,20.975374221801758,0.5642600655555725,2.3138461112976074,-0.29605430364608765,0.0,0.0,0.0,0.0,0.0,0.0,0.0,-0.5516513531264655,-0.3914367732648476,-0.39854623500399755,0.5491844672794353,-0.014001521327499657,0.10670291784638612,-0.32243253644646336,0.06228084386667641,0.6884212819149619,-0.07863606075654948,-1.62104256899315,0.02816734570264816,2.2878333734406393,0.8466321161521806,0.06226373270833701,0.6884179775783729,-0.07863937525950354,-1.6210372792796082,0.028167345702647853,2.2878312372101677,0.8466366937888992,-0.00022999142846059507,0.00020596174747017354,0.0009498130271683868,-1.1057546984560345e-05,-1.5905317451397872e-05,0.00041993425279066357,-0.0013400641485010409,0.0,0.0,0.0,0.0,0.0,0.0,0.0,-1.711115833939736e-05,-3.304336589016188e-06,-3.314502954057663e-06,5.289713541856145e-06,-3.0531133177191805e-16,-2.136230471627698e-06,4.577636718572364e-06,0.00022999142846059507,-0.00020596174747017354,-0.0009498130271683868,1.1057546984560345e-05,1.5905317451397872e-05,-0.00041993425279066357,0.0013400641485010409,0.5537349581718445,47.17086410522461,1.3155181407928467,-20.975374221801758,-0.5642600655555725,-2.3138461112976074,0.29605430364608765,0
9,0.039946556091308594,-0.5537349581718445,-47.17086410522461,-1.3155181407928467,20.975374221801758,0.5642600655555725,2.3138461112976074,-0.29605430364608765,0.0,0.0,0.0,0.0,0.0,0.0,0.0,-0.5516513531264655,-0.3914367732648476,-0.39854623500399755,0.5491844672794353,-0.014001521327499657,0.10670291784638612,-0.32243253644646336,0.06228084386667641,0.6884212819149619,-0.07863606075654948,-1.62104256899315,0.02816734570264816,2.2878333734406393,0.8466321161521806,0.06226373270833701,0.6884179775783729,-0.07863937525950354,-1.6210372792796082,0.028167345702647853,2.2878312372101677,0.8466366937888992,-0.00022999142846059507,0.00020596174747017354,0.0009498130271683868,-1.1057546984560345e-05,-1.5905317451397872e-05,0.00041993425279066357,-0.0013400641485010409,0.0,0.0,0.0,0.0,0.0,0.0,0.0,-1.711115833939736e-05,-3.304336589016188e-06,-3.314502954057663e-06,5.289713541856145e-06,-3.0531133177191805e-16,-2.136230471627698e-06,4.577636718572364e-06,0.00022999142846059507,-0.00020596174747017354,-0.0009498130271683868,1.1057546984560345e-05,1.5905317451397872e-05,-0.00041993425279066357,0.0013400641485010409,0.5537349581718445,47.17086410522461,1.3155181407928467,-20.975374221801758,-0.5642600655555725,-2.3138461112976074,0.29605430364608765,0
10,0.04499340057373047,-0.5537349581718445,-47.21847152709961,-1.1925323009490967,20.947603225708008,0.5578513741493225,2.3330721855163574,-0.32352012395858765,0.0,0.0,0.0,0.0,0.0,0.0,0.0,-0.5242339260340293,-0.40550985345003965,-0.3808741122410155,0.5591611564134703,-0.014066262992900898,0.10707235793451006,-0.3215376645659966,0.06228084407450893,0.6884246227866724,-0.07864469134180169,-1.621040646642272,0.028168057779471074,2.2878312509462173,0.846635167909993,0.06226373270833701,0.6884179775783729,-0.07863937525950354,-1.6210372792796082,0.028167345702647853,2.2878312372101677,0.8466366937888992,0.000653650066322072,0.0004994278990081414,-0.0010876687971970718,0.0006186699806137399,0.0003647620078422977,-0.00033392498481883063,-3.511517036627984e-06,0.0,0.0,0.0,0.0,0.0,0.0,0.0,-1.7111366171919384e-05,-6.645208299516092e-06,5.31608229814573e-06,3.367362663819762e-06,-7.120768232213304e-07,-1.3736049631063452e-08,1.5258789061167732e-06,-0.000653650066322072,-0.0004994278990081414,0.0010876687971970718,-0.0006186699806137399,-0.0003647620078422977,0.00033392498481883063,3.511517036627984e-06,0.5537349581718445,47.21847152709961,1.1925323009490967,-20.947603225708008,-0.5578513741493225,-2.3330721855163574,0.32352012395858765,0
11,0.04999423027038574,-0.5537349581718445,-47.21847152709961,-1.1925323009490967,20.947603225708008,0.5578513741493225,2.3330721855163574,-0.32352012395858765,0.0,0.0,0.0,0.0,0.0,0.0,0.0,-0.5242339260340293,-0.40550985345003965,-0.3808741122410155,0.5591611564134703,-0.014066262992900898,0.10707235793451006,-0.3215376645659966,0.06228084407450893,0.6884246227866724,-0.07864469134180169,-1.621040646642272,0.028168057779471074,2.2878312509462173,0.846635167909993,0.06226373270833701,0.6884179775783729,-0.07863937525950354,-1.6210372792796082,0.028167345702647853,2.2878312372101677,0.8466366937888992,0.000653650066322072,0.0004994278990081414,-0.0010876687971970718,0.0006186699806137399,0.0003647620078422977,-0.00033392498481883063,-3.511517036627984e-06,0.0,0.0,0.0,0.0,0.0,0.0,0.0,-1.7111366171919384e-05,-6.645208299516092e-06,5.31608229814573e-06,3.367362663819762e-06,-7.120768232213304e-07,-1.3736049631063452e-08,1.5258789061167732e-06,-0.000653650066322072,-0.0004994278990081414,0.0010876687971970718,-0.0006186699806137399,-0.0003647620078422977,0.00033392498481883063,3.511517036627984e-06,0.5537349581718445,47.21847152709961,1.1925323009490967,-20.947603225708008,-0.5578513741493225,-2.3330721855163574,0.32352012395858765,0
12,0.05502653121948242,-0.5021602511405945,-47.19466781616211,-1.2401397228240967,20.923799514770508,0.5761619210243225,2.3202548027038574,-0.35098594427108765,0.0,0.0,0.0,0.0,0.0,0.0,0.0,-0.5394366691005357,-0.3863300345093934,-0.3895846480374259,0.5497099334000236,-0.014043571931519014,0.10570459912438446,-0.32102436304858234,0.062277259880830986,0.6884229523508171,-0.07864135036157961,-1.6210389497159121,0.028166023274262743,2.287832661364046,0.8466382065858534,0.06226373270833701,0.6884179775783729,-0.07863937525950354,-1.6210372792796082,0.028167345702647853,2.2878312372101677,0.8466366937888992,-0.000600710888899596,0.0005441994842346386,0.0001814901300715616,0.0009405166646854358,-0.00033716711995266583,0.00021833935623422388,-0.005453732522969914,0.0,0.0,0.0,0.0,0.0,0.0,0.0,-1.3527172493976725e-05,-4.974772444210629e-06,1.9751020760711002e-06,1.6704363039465875e-06,1.3224283851101526e-06,-1.4241538783821284e-06,-1.5127969542616526e-06,0.000600710888899596,-0.0005441994842346386,-0.0001814901300715616,-0.0009405166646854358,0.00033716711995266583,-0.00021833935623422388,0.005453732522969914,0.5021602511405945,47.19466781616211,1.2401397228240967,-20.923799514770508,-0.5761619210243225,-2.3202548027038574,0.35098594427108765,0
13,0.060378074645996094,-0.5021602511405945,-47.19466781616211,-1.2401397228240967,20.923799514770508,0.5761619210243225,2.3202548027038574,-0.35098594427108765,0.0,0.0,0.0,0.0,0.0,0.0,0.0,-0.5394366691005357,-0.3863300345093934,-0.3895846480374259,0.5497099334000236,-0.014043571931519014,0.10570459912438446,-0.32102436304858234,0.062277259880830986,0.6884229523508171,-0.07864135036157961,-1.6210389497159121,0.028166023274262743,2.287832661364046,0.8466382065858534,0.06226373270833701,0.6884179775783729,-0.07863937525950354,-1.6210372792796082,0.028167345702647853,2.2878312372101677,0.8466366937888992,-0.000600710888899596,0.0005441994842346386,0.0001814901300715616,0.0009405166646854358,-0.00033716711995266583,0.00021833935623422388,-0.005453732522969914,0.0,0.0,0.0,0.0,0.0,0.0,0.0,-1.3527172493976725e-05,-4.974772444210629e-06,1.9751020760711002e-06,1.6704363039465875e-06,1.3224283851101526e-06,-1.4241538783821284e-06,-1.5127969542616526e-06,0.000600710888899596,-0.0005441994842346386,-0.0001814901300715616,-0.0009405166646854358,0.00033716711995266583,-0.00021833935623422388,0.005453732522969914,0.5021602511405945,47.19466781616211,1.2401397228240967,-20.923799514770508,-0.5761619210243225,-2.3202548027038574,0.35098594427108765,0
14,0.06499290466308594,-0.5815059542655945,-47.21847152709961,-1.2401397228240967,20.923799514770508,0.5578513741493225,2.3202548027038574,-0.30337852239608765,0.0,0.0,0.0,0.0,0.0,0.0,0.0,-0.5486732886427447,-0.39303290186186823,-0.3935873406144267,0.5493078963201802,-0.013248680186062126,0.10623027098297766,-0.32160762646820595,0.062282170967371916,0.6884245433138128,-0.07864055942079261,-1.6210389497154636,0.028168057779471074,2.2878326628900414,0.84663292995419,0.06226373270833701,0.6884179775783729,-0.07863937525950354,-1.6210372792796082,0.028167345702647853,2.2878312372101677,0.8466366937888992,0.0009358717960684688,0.0008039652402362647,-0.0003177228284907243,0.0003488888990332262,0.00037717191501189474,0.00016912046451449328,-0.0011364106921274149,0.0,0.0,0.0,0.0,0.0,0.0,0.0,-1.84382590349072e-05,-6.565735439889586e-06,1.184161289066732e-06,1.6704358554164855e-06,-7.120768232213304e-07,-1.4256798737122267e-06,3.7638347091251134e-06,-0.0009358717960684688,-0.0008039652402362647,0.0003177228284907243,-0.0003488888990332262,-0.00037717191501189474,-0.00016912046451449328,0.0011364106921274149,0.5815059542655945,47.21847152709961,1.2401397228240967,-20.923799514770508,-0.5578513741493225,-2.3202548027038574,0.30337852239608765,0
15,0.06999659538269043,-0.5815059542655945,-47.21847152709961,-1.2401397228240967,20.923799514770508,0.5578513741493225,2.3202548027038574,-0.30337852239608765,0.0,0.0,0.0,0.0,0.0,0.0,0.0,-0.5486732886427447,-0.39303290186186823,-0.3935873406144267,0.5493078963201802,-0.013248680186062126,0.10623027098297766,-0.32160762646820595,0.062282170967371916,0.6884245433138128,-0.07864055942079261,-1.6210389497154636,0.028168057779471074,2.2878326628900414,0.84663292995419,0.06226373270833701,0.6884179775783729,-0.07863937525950354,-1.6210372792796082,0.028167345702647853,2.2878312372101677,0.8466366937888992,0.0009358717960684688,0.0008039652402362647,-0.0003177228284907243,0.0003488888990332262,0.00037717191501189474,0.00016912046451449328,-0.0011364106921274149,0.0,0.0,0.0,0.0,0.0,0.0,0.0,-1.84382590349072e-05,-6.565735439889586e-06,1.184161289066732e-06,1.6704358554164855e-06,-7.120768232213304e-07,-1.4256798737122267e-06,3.7638347091251134e-06,-0.0009358717960684688,-0.0008039652402362647,0.0003177228284907243,-0.0003488888990332262,-0.00037717191501189474,-0.00016912046451449328,0.0011364106921274149,0.5815059542655945,47.21847152709961,1.2401397228240967,-20.923799514770508,-0.5578513741493225,-2.3202548027038574,0.30337852239608765,0
16,0.07499194145202637,-0.5299312472343445,-47.21847152709961,-1.2401397228240967,20.975374221801758,0.5697532296180725,2.3394808769226074,-0.27591270208358765,0.0,0.0,0.0,0.0,0.0,0.0,0.0,-0.5441541620119261,-0.40057102004155654,-0.3875112424922171,0.5501443911194868,-0.013586194687515901,0.1068794509439622,-0.3218985684193979,0.06228093880157978,0.6884246227862238,-0.07864135046562568,-1.62104256899315,0.02816673535108566,2.2878305663415026,0.8466298781964514,0.06226373270833701,0.6884179775783729,-0.07863937525950354,-1.6210372792796082,0.028167345702647853,2.2878312372101677,0.8466366937888992,-0.0001818157340337182,0.0007698155396969075,-0.0008804004878082536,-0.0004893121183444566,-0.0002767861296823542,-0.00037116489820470045,-0.0020181863912334466,0.0,0.0,0.0,0.0,0.0,0.0,0.0,-1.720609324277339e-05,-6.64520785098599e-06,1.975206122134532e-06,5.289713541856145e-06,6.103515621941336e-07,6.708686650647167e-07,6.815592447750873e-06,0.0001818157340337182,-0.0007698155396969075,0.0008804004878082536,0.0004893121183444566,0.0002767861296823542,0.00037116489820470045,0.0020181863912334466,0.5299312472343445,47.21847152709961,1.2401397228240967,-20.975374221801758,-0.5697532296180725,-2.3394808769226074,0.27591270208358765,0
17,0.08001399040222168,-0.5299312472343445,-47.21847152709961,-1.2401397228240967,20.975374221801758,0.5697532296180725,2.3394808769226074,-0.27591270208358765,0.0,0.0,0.0,0.0,0.0,0.0,0.0,-0.5441541620119261,-0.40057102004155654,-0.3875112424922171,0.5501443911194868,-0.013586194687515901,0.1068794509439622,-0.3218985684193979,0.06228093880157978,0.6884246227862238,-0.07864135046562568,-1.62104256899315,0.02816673535108566,2.2878305663415026,0.8466298781964514,0.06226373270833701,0.6884179775783729,-0.07863937525950354,-1.6210372792796082,0.028167345702647853,2.2878312372101677,0.8466366937888992,-0.0001818157340337182,0.0007698155396969075,-0.0008804004878082536,-0.0004893121183444566,-0.0002767861296823542,-0.00037116489820470045,-0.0020181863912334466,0.0,0.0,0.0,0.0,0.0,0.0,0.0,-1.720609324277339e-05,-6.64520785098599e-06,1.975206122134532e-06,5.289713541856145e-06,6.103515621941336e-07,6.708686650647167e-07,6.815592447750873e-06,0.0001818157340337182,-0.0007698155396969075,0.0008804004878082536,0.0004893121183444566,0.0002767861296823542,0.00037116489820470045,0.0020181863912334466,0.5299312472343445,47.21847152709961,1.2401397228240967,-20.975374221801758,-0.5697532296180725,-2.3394808769226074,0.27591270208358765,0
18,0.08503365516662598,-0.5537349581718445,-47.17086410522461,-1.2917144298553467,20.947603225708008,0.5642600655555725,2.3138461112976074,-0.28964561223983765,0.0,0.0,0.0,0.0,0.0,0.0,0.0,-0.5556225141868528,-0.4049735586135962,-0.39857807846394966,0.5502856949151849,-0.013340862342851863,0.10738044604207668,-0.3216786450567256,0.06228040534597859,0.68841913614775,-0.07863773119240473,-1.6210406201513188,0.02816734570264816,2.287833373440869,0.8466314040753576,0.06226373270833701,0.6884179775783729,-0.07863937525950354,-1.6210372792796082,0.028167345702647853,2.2878312372101677,0.8466366937888992,-0.0002649207243886047,-0.0008239087968739652,0.0001038231100676191,0.00017404407004002637,-8.8497273171597e-05,0.00035775480010914723,-0.0011941327408198693,0.0,0.0,0.0,0.0,0.0,0.0,0.0,-1.6672637641580723e-05,-1.1585693771021255e-06,-1.644067098807711e-06,3.3408717106109265e-06,-3.0531133177191805e-16,-2.1362307012218196e-06,5.289713541523078e-06,0.0002649207243886047,0.0008239087968739652,-0.0001038231100676191,-0.00017404407004002637,8.8497273171597e-05,-0.00035775480010914723,0.0011941327408198693,0.5537349581718445,47.17086410522461,1.2917144298553467,-20.947603225708008,-0.5642600655555725,-2.3138461112976074,0.28964561223983765,0
19,0.0899956226348877,-0.5537349581718445,-47.17086410522461,-1.2917144298553467,20.947603225708008,0.5642600655555725,2.3138461112976074,-0.28964561223983765,0.0,0.0,0.0,0.0,0.0,0.0,0.0,-0.5556225141868528,-0.4049735586135962,-0.39857807846394966,0.5502856949151849,-0.013340862342851863,0.10738044604207668,-0.3216786450567256,0.06228040534597859,0.68841913614775,-0.07863773119240473,-1.6210406201513188,0.02816734570264816,2.287833373440869,0.8466314040753576,0.06226373270833701,0.6884179775783729,-0.07863937525950354,-1.6210372792796082,0.028167345702647853,2.2878312372101677,0.8466366937888992,-0.0002649207243886047,-0.0008239087968739652,0.0001038231100676191,0.00017404407004002637,-8.8497273171597e-05,0.00035775480010914723,-0.0011941327408198693,0.0,0.0,0.0,0.0,0.0,0.0,0.0,-1.6672637641580723e-05,-1.1585693771021255e-06,-1.644067098807711e-06,3.3408717106109265e-06,-3.0531133177191805e-16,-2.1362307012218196e-06,5.289713541523078e-06,0.0002649207243886047,0.0008239087968739652,-0.0001038231100676191,-0.00017404407004002637,8.8497273171597e-05,-0.00035775480010914723,0.0011941327408198693,0.5537349581718445,47.17086410522461,1.2917144298553467,-20.947603225708008,-0.5642600655555725,-2.3138461112976074,0.28964561223983765,0
20,0.09499764442443848,-0.5299312472343445,-47.17086410522461,-1.2679107189178467,20.999177932739258,0.5578513741493225,2.3394808769226074,-0.35098594427108765,0.0,0.0,0.0,0.0,0.0,0.0,0.0,-0.5163630988461275,-0.38904245414367794,-0.3749983228735737,0.5426283434985443,-0.014210184993217027,0.10557000816847838,-0.32122066292867046,0.06227846724482623,0.688421281902849,-0.07863940162826003,-1.6210442394290052,0.028168097224623084,2.287830525133345,0.8466382196678056,0.06226373270833701,0.6884179775783729,-0.07863937525950354,-1.6210372792796082,0.028167345702647853,2.2878312372101677,0.8466366937888992,0.0003762075727559123,-0.00019270578751172745,-4.7079554548080885e-05,-0.0013967002376420337,0.00023926790225429839,-0.00038845549308302456,0.0015161106154093322,0.0,0.0,0.0,0.0,0.0,0.0,0.0,-1.473453648922346e-05,-3.3043244761499224e-06,2.6368756483874378e-08,6.960149397050586e-06,-7.515219752306235e-07,7.120768228396912e-07,-1.5258789064498401e-06,-0.0003762075727559123,0.00019270578751172745,4.7079554548080885e-05,0.0013967002376420337,-0.00023926790225429839,0.00038845549308302456,-0.0015161106154093322,0.5299312472343445,47.17086410522461,1.2679107189178467,-20.999177932739258,-0.5578513741493225,-2.3394808769226074,0.35098594427108765,0
21,0.09999823570251465,-0.5299312472343445,-47.17086410522461,-1.2679107189178467,20.999177932739258,0.5578513741493225,2.3394808769226074,-0.35098594427108765,0.0,0.0,0.0,0.0,0.0,0.0,0.0,-0.5163630988461275,-0.38904245414367794,-0.3749983228735737,0.5426283434985443,-0.014210184993217027,0.10557000816847838,-0.32122066292867046,0.06227846724482623,0.688421281902849,-0.07863940162826003,-1.6210442394290052,0.028168097224623084,2.287830525133345,0.8466382196678056,0.06226373270833701,0.6884179775783729,-0.07863937525950354,-1.6210372792796082,0.028167345702647853,2.2878312372101677,0.8466366937888992,0.0003762075727559123,-0.00019270578751172745,-4.7079554548080885e-05,-0.0013967002376420337,0.00023926790225429839,-0.00038845549308302456,0.0015161106154093322,0.0,0.0,0.0,0.0,0.0,0.0,0.0,-1.473453648922346e-05,-3.3043244761499224e-06,2.6368756483874378e-08,6.960149397050586e-06,-7.515219752306235e-07,7.120768228396912e-07,-1.5258789064498401e-06,-0.0003762075727559123,0.00019270578751172745,4.7079554548080885e-05,0.0013967002376420337,-0.00023926790225429839,0.00038845549308302456,-0.0015161106154093322,0.5299312472343445,47.17086410522461,1.2679107189178467,-20.999177932739258,-0.5578513741493225,-2.3394808769226074,0.35098594427108765,0
22,0.10500001907348633,-0.5299312472343445,-47.19466781616211,-1.2401397228240967,20.923799514770508,0.5642600655555725,2.3266634941101074,-0.35831016302108765,0.0,0.0,0.0,0.0,0.0,0.0,0.0,-0.5227008543730627,-0.3955216720307555,-0.3829257856479072,0.5478321885297657,-0.014090557245414125,0.10741564635341384,-0.3213706084159978,0.062281567281909526,0.6884229523508171,-0.07864135047009117,-1.6210389497154636,0.028167345702870827,2.2878319492869905,0.8466390334698889,0.06226373270833701,0.6884179775783729,-0.07863937525950354,-1.6210372792796082,0.028167345702647853,2.2878312372101677,0.8466366937888992,0.00019341401213133954,0.0008472146932264829,0.0003444775163028966,0.0007059917456638865,-3.227866421046569e-05,5.1177807531253036e-05,0.0015759638711080749,0.0,0.0,0.0,0.0,0.0,0.0,0.0,-1.7834573572517165e-05,-4.974772444210629e-06,1.975210587631948e-06,1.6704358554164855e-06,-2.2297441670815488e-13,-7.120768228396912e-07,-2.339680989726922e-06,-0.00019341401213133954,-0.0008472146932264829,-0.0003444775163028966,-0.0007059917456638865,3.227866421046569e-05,-5.1177807531253036e-05,-0.0015759638711080749,0.5299312472343445,47.19466781616211,1.2401397228240967,-20.923799514770508,-0.5642600655555725,-2.3266634941101074,0.35831016302108765,0
23,0.11002182960510254,-0.5299312472343445,-47.19466781616211,-1.2401397228240967,20.923799514770508,0.5642600655555725,2.3266634941101074,-0.35831016302108765,0.0,0.0,0.0,0.0,0.0,0.0,0.0,-0.5227008543730627,-0.3955216720307555,-0.3829257856479072,0.5478321885297657,-0.014090557245414125,0.10741564635341384,-0.3213706084159978,0.062281567281909526,0.6884229523508171,-0.07864135047009117,-1.6210389497154636,0.028167345702870827,2.2878319492869905,0.8466390334698889,0.06226373270833701,0.6884179775783729,-0.07863937525950354,-1.6210372792796082,0.028167345702647853,2.2878312372101677,0.8466366937888992,0.00019341401213133954,0.0008472146932264829,0.0003444775163028966,0.0007059917456638865,-3.227866421046569e-05,5.1177807531253036e-05,0.0015759638711080749,0.0,0.0,0.0,0.0,0.0,0.0,0.0,-1.7834573572517165e-05,-4.974772444210629e-06,1.975210587631948e-06,1.6704358554164855e-06,-2.2297441670815488e-13,-7.120768228396912e-07,-2.339680989726922e-06,-0.00019341401213133954,-0.0008472146932264829,-0.0003444775163028966,-0.0007059917456638865,3.227866421046569e-05,-5.1177807531253036e-05,-0.0015759638711080749,0.5299312472343445,47.19466781616211,1.2401397228240967,-20.923799514770508,-0.5642600655555725,-2.3266634941101074,0.35831016302108765,0
24,0.1150047779083252,-0.5021602511405945,-47.17086410522461,-1.2679107189178467,20.947603225708008,0.5523582100868225,2.3330721855163574,-0.35098594427108765,0.0,0.0,0.0,0.0,0.0,0.0,0.0,-0.5372464364423715,-0.409455250538713,-0.38974645248019585,0.5553539885768831,-0.01459962223286595,0.10887362334024885,-0.3212724520113103,0.06227746561490762,0.6884212789715227,-0.07863940162826003,-1.6210406201513188,0.028168668131033577,2.287831241788851,0.8466382196678056,0.06226373270833701,0.6884179775783729,-0.07863937525950354,-1.6210372792796082,0.028167345702647853,2.2878312372101677,0.8466366937888992,-0.0005251694959889304,-0.0004494391713968807,0.000749100044496944,0.0004448007867313828,0.00023240561192128514,-0.00017520565193660344,0.001222848090097322,0.0,0.0,0.0,0.0,0.0,0.0,0.0,-1.3732906570612657e-05,-3.3013931498571125e-06,2.6368756483874378e-08,3.3408717106109265e-06,-1.3224283857242447e-06,-4.578683210354484e-09,-1.5258789064498401e-06,0.0005251694959889304,0.0004494391713968807,-0.000749100044496944,-0.0004448007867313828,-0.00023240561192128514,0.00017520565193660344,-0.001222848090097322,0.5021602511405945,47.17086410522461,1.2679107189178467,-20.947603225708008,-0.5523582100868225,-2.3330721855163574,0.35098594427108765,0
25,0.11999344825744629,-0.5021602511405945,-47.17086410522461,-1.2679107189178467,20.947603225708008,0.5523582100868225,2.3330721855163574,-0.35098594427108765,0.0,0.0,0.0,0.0,0.0,0.0,0.0,-0.5372464364423715,-0.409455250538713,-0.38974645248019585,0.5553539885768831,-0.01459962223286595,0.10887362334024885,-0.3212724520113103,0.06227746561490762,0.6884212789715227,-0.07863940162826003,-1.6210406201513188,0.028168668131033577,2.287831241788851,0.8466382196678056,0.06226373270833701,0.6884179775783729,-0.07863937525950354,-1.6210372792796082,0.028167345702647853,2.2878312372101677,0.8466366937888992,-0.0005251694959889304,-0.0004494391713968807,0.000749100044496944,0.0004448007867313828,0.00023240561192128514,-0.00017520565193660344,0.001222848090097322,0.0,0.0,0.0,0.0,0.0,0.0,0.0,-1.3732906570612657e-05,-3.3013931498571125e-06,2.6368756483874378e-08,3.3408717106109265e-06,-1.3224283857242447e-06,-4.578683210354484e-09,-1.5258789064498401e-06,0.0005251694959889304,0.0004494391713968807,-0.000749100044496944,-0.0004448007867313828,-0.00023240561192128514,0.00017520565193660344,-0.001222848090097322,0.5021602511405945,47.17086410522461,1.2679107189178467,-20.947603225708008,-0.5523582100868225,-2.3330721855163574,0.35098594427108765,0
26,0.12499070167541504,-0.5815059542655945,-47.24624252319336,-1.2679107189178467,20.975374221801758,0.5642600655555725,2.3330721855163574,-0.31711143255233765,0.0,0.0,0.0,0.0,0.0,0.0,0.0,-0.5505633876717091,-0.3995948543168205,-0.39914962911731255,0.5510054217167809,-0.01543510592912968,0.10820987557305377,-0.320982225282228,0.062284477225247645,0.6884265706473073,-0.07863940162826003,-1.62104256899315,0.02816734570264816,2.287831237210245,0.8466344559966945,0.06226373270833701,0.6884179775783729,-0.07863937525950354,-1.6210372792796082,0.028167345702647853,2.2878312372101677,0.8466366937888992,0.0012055083120406148,0.0015175618693323626,0.00015470889038733145,-0.0002120069651004422,-7.175934834058895e-05,-0.00015828697532239747,-6.0831889878143654e-05,0.0,0.0,0.0,0.0,0.0,0.0,0.0,-2.0744516910635447e-05,-8.593068934414916e-06,2.6368756483874378e-08,5.289713541856145e-06,-3.0531133177191805e-16,-7.72715225139109e-14,2.2377922046512566e-06,-0.0012055083120406148,-0.0015175618693323626,-0.00015470889038733145,0.0002120069651004422,7.175934834058895e-05,0.00015828697532239747,6.0831889878143654e-05,0.5815059542655945,47.24624252319336,1.2679107189178467,-20.975374221801758,-0.5642600655555725,-2.3330721855163574,0.31711143255233765,0
27,0.12999224662780762,-0.5815059542655945,-47.24624252319336,-1.2679107189178467,20.975374221801758,0.5642600655555725,2.3330721855163574,-0.31711143255233765,0.0,0.0,0.0,0.0,0.0,0.0,0.0,-0.5505633876717091,-0.3995948543168205,-0.39914962911731255,0.5510054217167809,-0.01543510592912968,0.10820987557305377,-0.320982225282228,0.062284477225247645,0.6884265706473073,-0.07863940162826003,-1.62104256899315,0.02816734570264816,2.287831237210245,0.8466344559966945,0.06226373270833701,0.6884179775783729,-0.07863937525950354,-1.6210372792796082,0.028167345702647853,2.2878312372101677,0.8466366937888992,0.0012055083120406148,0.0015175618693323626,0.00015470889038733145,-0.0002120069651004422,-7.175934834058895e-05,-0.00015828697532239747,-6.0831889878143654e-05,0.0,0.0,0.0,0.0,0.0,0.0,0.0,-2.0744516910635447e-05,-8.593068934414916e-06,2.6368756483874378e-08,5.289713541856145e-06,-3.0531133177191805e-16,-7.72715225139109e-14,2.2377922046512566e-06,-0.0012055083120406148,-0.0015175618693323626,-0.00015470889038733145,0.0002120069651004422,7.175934834058895e-05,0.00015828697532239747,6.0831889878143654e-05,0.5815059542655945,47.24624252319336,1.2679107189178467,-20.975374221801758,-0.5642600655555725,-2.3330721855163574,0.31711143255233765,0
28,0.1349940299987793,-0.5299312472343445,-47.21847152709961,-1.2917144298553467,20.947603225708008,0.5578513741493225,2.3138461112976074,-0.34457725286483765,0.0,0.0,0.0,0.0,0.0,0.0,0.0,-0.5391043306487391,-0.3994555816342383,-0.39014634154518046,0.5494482979858608,-0.015677506785867462,0.10876174307496583,-0.32055615441028823,0.06227849324203734,0.6884246227866706,-0.07863773119240476,-1.6210406211324653,0.028168057779471074,2.2878333734406366,0.846637507590983,0.06226373270833701,0.6884179775783729,-0.07863937525950354,-1.6210372792796082,0.028167345702647853,2.2878312372101677,0.8466366937888992,-0.0005347780684007206,0.0004287282964121766,0.0005565291289894061,0.00023759330194541312,0.00014852992996396253,0.0006299350403026988,0.0011329286133414823,0.0,0.0,0.0,0.0,0.0,0.0,0.0,-1.4760533700329537e-05,-6.645208297739735e-06,-1.6440670987799555e-06,3.3418528571083073e-06,-7.120768232213304e-07,-2.136230468963163e-06,-8.138020838321935e-07,0.0005347780684007206,-0.0004287282964121766,-0.0005565291289894061,-0.00023759330194541312,-0.00014852992996396253,-0.0006299350403026988,-0.0011329286133414823,0.5299312472343445,47.21847152709961,1.2917144298553467,-20.947603225708008,-0.5578513741493225,-2.3138461112976074,0.34457725286483765,0
29,0.1399991512298584,-0.5299312472343445,-47.21847152709961,-1.2917144298553467,20.947603225708008,0.5578513741493225,2.3138461112976074,-0.34457725286483765,0.0,0.0,0.0,0.0,0.0,0.0,0.0,-0.5391043306487391,-0.3994555816342383,-0.39014634154518046,0.5494482979858608,-0.015677506785867462,0.10876174307496583,-0.32055615441028823,0.06227849324203734,0.6884246227866706,-0.07863773119240476,-1.6210406211324653,0.028168057779471074,2.2878333734406366,0.846637507590983,0.06226373270833701,0.6884179775783729,-0.07863937525950354,-1.6210372792796082,0.028167345702647853,2.2878312372101677,0.8466366937888992,-0.0005347780684007206,0.0004287282964121766,0.0005565291289894061,0.00023759330194541312,0.00014852992996396253,0.0006299350403026988,0.0011329286133414823,0.0,0.0,0.0,0.0,0.0,0.0,0.0,-1.4760533700329537e-05,-6.645208297739735e-06,-1.6440670987799555e-06,3.3418528571083073e-06,-7.120768232213304e-07,-2.136230468963163e-06,-8.138020838321935e-07,0.0005347780684007206,-0.0004287282964121766,-0.0005565291289894061,-0.00023759330194541312,-0.00014852992996396253,-0.0006299350403026988,-0.0011329286133414823,0.5299312472343445,47.21847152709961,1.2917144298553467,-20.947603225708008,-0.5578513741493225,-2.3138461112976074,0.34457725286483765,0
30,0.145003080368042,-0.5299312472343445,-47.19466781616211,-1.2679107189178467,20.923799514770508,0.5523582100868225,2.3330721855163574,-0.32352012395858765,0.0,0.0,0.0,0.0,0.0,0.0,0.0,-0.5315709466523229,-0.40268770345406874,-0.3828037361651902,0.5495842904948579,-0.016287644993840035,0.10886631521156402,-0.320118847556024,0.06227848943660027,0.6884229523508171,-0.07863939869844781,-1.6210389497154691,0.028168668131033577,2.28783123771891,0.846635167909993,0.06226373270833701,0.6884179775783729,-0.07863937525950354,-1.6210372792796082,0.028167345702647853,2.2878312372101677,0.8466366937888992,-0.0005494095358433188,-4.680575414919895e-06,0.0003262456542044061,0.0007618061052318278,0.0001813837201572208,-0.00023086410953139478,5.024151026719863e-05,0.0,0.0,0.0,0.0,0.0,0.0,0.0,-1.475672826325991e-05,-4.974772444210629e-06,2.34389442715921e-08,1.6704358609676007e-06,-1.3224283857242447e-06,-5.087423815552938e-10,1.5258789061167732e-06,0.0005494095358433188,4.680575414919895e-06,-0.0003262456542044061,-0.0007618061052318278,-0.0001813837201572208,0.00023086410953139478,-5.024151026719863e-05,0.5299312472343445,47.19466781616211,1.2679107189178467,-20.923799514770508,-0.5523582100868225,-2.3330721855163574,0.32352012395858765,0
31,0.15000462532043457,-0.5299312472343445,-47.19466781616211,-1.2679107189178467,20.923799514770508,0.5523582100868225,2.3330721855163574,-0.32352012395858765,0.0,0.0,0.0,0.0,0.0,0.0,0.0,-0.5315709466523229,-0.40268770345406874,-0.3828037361651902,0.5495842904948579,-0.016287644993840035,0.10886631521156402,-0.320118847556024,0.06227848943660027,0.6884229523508171,-0.07863939869844781,-1.6210389497154691,0.028168668131033577,2.28783123771891,0.846635167909993,0.06226373270833701,0.6884179775783729,-0.07863937525950354,-1.6210372792796082,0.028167345702647853,2.2878312372101677,0.8466366937888992,-0.0005494095358433188,-4.680575414919895e-06,0.0003262456542044061,0.0007618061052318278,0.0001813837201572208,-0.00023086410953139478,5.024151026719863e-05,0.0,0.0,0.0,0.0,0.0,0.0,0.0,-1.475672826325991e-05,-4.974772444210629e-06,2.34389442715921e-08,1.6704358609676007e-06,-1.3224283857242447e-06,-5.087423815552938e-10,1.5258789061167732e-06,0.0005494095358433188,4.680575414919895e-06,-0.0003262456542044061,-0.0007618061052318278,-0.0001813837201572208,0.00023086410953139478,-5.024151026719863e-05,0.5299312472343445,47.19466781616211,1.2679107189178467,-20.923799514770508,-0.5523582100868225,-2.3330721855163574,0.32352012395858765,0
32,0.15499091148376465,-0.5299312472343445,-47.19466781616211,-1.2679107189178467,20.923799514770508,0.5523582100868225,2.3330721855163574,-0.32352012395858765,0.0,0.0,0.0,0.0,0.0,0.0,0.0,-0.5315709466523229,-0.40268770345406874,-0.3828037361651902,0.5495842904948579,-0.016287644993840035,0.10886631521156402,-0.320118847556024,0.06227848943660027,0.6884229523508171,-0.07863939869844781,-1.6210389497154691,0.028168668131033577,2.28783123771891,0.846635167909993,0.06226373270833701,0.6884179775783729,-0.07863937525950354,-1.6210372792796082,0.028167345702647853,2.2878312372101677,0.8466366937888992,-0.0005494095358433188,-4.680575414919895e-06,0.0003262456542044061,0.0007618061052318278,0.0001813837201572208,-0.00023086410953139478,5.024151026719863e-05,0.0,0.0,0.0,0.0,0.0,0.0,0.0,-1.475672826325991e-05,-4.974772444210629e-06,2.34389442715921e-08,1.6704358609676007e-06,-1.3224283857242447e-06,-5.087423815552938e-10,1.5258789061167732e-06,0.0005494095358433188,4.680575414919895e-06,-0.0003262456542044061,-0.0007618061052318278,-0.0001813837201572208,0.00023086410953139478,-5.024151026719863e-05,0.5299312472343445,47.19466781616211,1.2679107189178467,-20.923799514770508,-0.5523582100868225,-2.3330721855163574,0.32352012395858765,0
33,0.16003680229187012,-0.5299312472343445,-47.19466781616211,-1.2679107189178467,20.923799514770508,0.5523582100868225,2.3330721855163574,-0.32352012395858765,0.0,0.0,0.0,0.0,0.0,0.0,0.0,-0.5315709466523229,-0.40268770345406874,-0.3828037361651902,0.5495842904948579,-0.016287644993840035,0.10886631521156402,-0.320118847556024,0.06227848943660027,0.6884229523508171,-0.07863939869844781,-1.6210389497154691,0.028168668131033577,2.28783123771891,0.846635167909993,0.06226373270833701,0.6884179775783729,-0.07863937525950354,-1.6210372792796082,0.028167345702647853,2.2878312372101677,0.8466366937888992,-0.0005494095358433188,-4.680575414919895e-06,0.0003262456542044061,0.0007618061052318278,0.0001813837201572208,-0.00023086410953139478,5.024151026719863e-05,0.0,0.0,0.0,0.0,0.0,0.0,0.0,-1.475672826325991e-05,-4.974772444210629e-06,2.34389442715921e-08,1.6704358609676007e-06,-1.3224283857242447e-06,-5.087423815552938e-10,1.5258789061167732e-06,0.0005494095358433188,4.680575414919895e-06,-0.0003262456542044061,-0.0007618061052318278,-0.0001813837201572208,0.00023086410953139478,-5.024151026719863e-05,0.5299312472343445,47.19466781616211,1.2679107189178467,-20.923799514770508,-0.5523582100868225,-2.3330721855163574,0.32352012395858765,0
34,0.1650559902191162,-0.4783565402030945,-47.17086410522461,-1.2679107189178467,20.899995803833008,0.5642600655555725,2.3202548027038574,-0.30978721380233765,0.0,0.0,0.0,0.0,0.0,0.0,0.0,-0.523112310716392,-0.4039219494252808,-0.3762525834357322,0.5493924330849034,-0.017027383852911998,0.10892345036184964,-0.32133871693307037,0.062277687929637095,0.6884212819149619,-0.07863939283880685,-1.6210372792796082,0.02816734570264816,2.287832784988265,0.8466336420310868,0.06226373270833701,0.6884179775783729,-0.07863937525950354,-1.6210372792796082,0.028167345702647853,2.2878312372101677,0.8466366937888992,-0.0009078460225929624,-0.0005717460663487906,0.0001720628619660067,0.0017966785160984315,-0.00027529926594463974,0.0003503003501272514,0.0029200066346611216,0.0,0.0,0.0,0.0,0.0,0.0,0.0,-1.3955221300085419e-05,-3.304336589016188e-06,1.7579303304704474e-08,0.0,-3.0531133177191805e-16,-1.5477780972439348e-06,3.0517578123445688e-06,0.0009078460225929624,0.0005717460663487906,-0.0001720628619660067,-0.0017966785160984315,0.00027529926594463974,-0.0003503003501272514,-0.0029200066346611216,0.4783565402030945,47.17086410522461,1.2679107189178467,-20.899995803833008,-0.5642600655555725,-2.3202548027038574,0.30978721380233765,0
35,0.17003822326660156,-0.4783565402030945,-47.17086410522461,-1.2679107189178467,20.899995803833008,0.5642600655555725,2.3202548027038574,-0.30978721380233765,0.0,0.0,0.0,0.0,0.0,0.0,0.0,-0.523112310716392,-0.4039219494252808,-0.3762525834357322,0.5493924330849034,-0.017027383852911998,0.10892345036184964,-0.32133871693307037,0.062277687929637095,0.6884212819149619,-0.07863939283880685,-1.6210372792796082,0.02816734570264816,2.287832784988265,0.8466336420310868,0.06226373270833701,0.6884179775783729,-0.07863937525950354,-1.6210372792796082,0.028167345702647853,2.2878312372101677,0.8466366937888992,-0.0009078460225929624,-0.0005717460663487906,0.0001720628619660067,0.0017966785160984315,-0.00027529926594463974,0.0003503003501272514,0.0029200066346611216,0.0,0.0,0.0,0.0,0.0,0.0,0.0,-1.3955221300085419e-05,-3.304336589016188e-06,1.7579303304704474e-08,0.0,-3.0531133177191805e-16,-1.5477780972439348e-06,3.0517578123445688e-06,0.0009078460225929624,0.0005717460663487906,-0.0001720628619660067,-0.0017966785160984315,0.00027529926594463974,-0.0003503003501272514,-0.0029200066346611216,0.4783565402030945,47.17086410522461,1.2679107189178467,-20.899995803833008,-0.5642600655555725,-2.3202548027038574,0.30978721380233765,0
36,0.17501401901245117,-0.5537349581718445,-47.19466781616211,-1.2679107189178467,20.947603225708008,0.5459495186805725,2.3074374198913574,-0.33084434270858765,0.0,0.0,0.0,0.0,0.0,0.0,0.0,-0.5509071315762429,-0.39666188751529047,-0.3957112563759415,0.5442909302408979,-0.017395786342674482,0.10832545068628444,-0.32218369522117124,0.06228013672086928,0.6884229523508171,-0.07863940162821041,-1.6210406201513188,0.028169380207856493,2.287834085518157,0.8466359817120764,0.06226373270833701,0.6884179775783729,-0.07863937525950354,-1.6210372792796082,0.028167345702647853,2.2878312372101677,0.8466366937888992,-3.832000070851115e-06,0.0004902104916389647,0.0008245839792331344,-3.770188113553867e-05,0.0004593881990807867,0.0007218908941745662,0.0005835196790911592,0.0,0.0,0.0,0.0,0.0,0.0,0.0,-1.6404012532271472e-05,-4.974772444210629e-06,2.6368706870782965e-08,3.3408717106109265e-06,-2.0345052086402637e-06,-2.8483079894670027e-06,7.120768227286689e-07,3.832000070851115e-06,-0.0004902104916389647,-0.0008245839792331344,3.770188113553867e-05,-0.0004593881990807867,-0.0007218908941745662,-0.0005835196790911592,0.5537349581718445,47.19466781616211,1.2679107189178467,-20.947603225708008,-0.5459495186805725,-2.3074374198913574,0.33084434270858765,0
37,0.18003582954406738,-0.5537349581718445,-47.19466781616211,-1.2679107189178467,20.947603225708008,0.5459495186805725,2.3074374198913574,-0.33084434270858765,0.0,0.0,0.0,0.0,0.0,0.0,0.0,-0.5509071315762429,-0.39666188751529047,-0.3957112563759415,0.5442909302408979,-0.017395786342674482,0.10832545068628444,-0.32218369522117124,0.06228013672086928,0.6884229523508171,-0.07863940162821041,-1.6210406201513188,0.028169380207856493,2.287834085518157,0.8466359817120764,0.06226373270833701,0.6884179775783729,-0.07863937525950354,-1.6210372792796082,0.028167345702647853,2.2878312372101677,0.8466366937888992,-3.832000070851115e-06,0.0004902104916389647,0.0008245839792331344,-3.770188113553867e-05,0.0004593881990807867,0.0007218908941745662,0.0005835196790911592,0.0,0.0,0.0,0.0,0.0,0.0,0.0,-1.6404012532271472e-05,-4.974772444210629e-06,2.6368706870782965e-08,3.3408717106109265e-06,-2.0345052086402637e-06,-2.8483079894670027e-06,7.120768227286689e-07,3.832000070851115e-06,-0.0004902104916389647,-0.0008245839792331344,3.770188113553867e-05,-0.0004593881990807867,-0.0007218908941745662,-0.0005835196790911592,0.5537349581718445,47.19466781616211,1.2679107189178467,-20.947603225708008,-0.5459495186805725,-2.3074374198913574,0.33084434270858765,0
38,0.1849989891052246,-0.5537349581718445,-47.19466781616211,-1.2917144298553467,20.923799514770508,0.5578513741493225,2.3202548027038574,-0.33084434270858765,0.0,0.0,0.0,0.0,0.0,0.0,0.0,-0.5517814524864804,-0.4005407271290502,-0.39391442619813416,0.5458151581108786,-0.01771869695573675,0.1076751292382899,-0.3228660040275686,0.062282589750294944,0.6884229523508171,-0.07863762571916504,-1.6210389497154636,0.028168057779471074,2.2878330322371587,0.8466359817120764,0.06226373270833701,0.6884179775783729,-0.07863937525950354,-1.6210372792796082,0.028167345702647853,2.2878312372101677,0.8466366937888992,7.577015890853753e-05,0.000467541475235377,0.0006219925463076614,0.0008216276807142858,0.00012240699410275997,0.000159558663007269,0.00013782056190938662,0.0,0.0,0.0,0.0,0.0,0.0,0.0,-1.885704195793425e-05,-4.974772444210629e-06,-1.7495403385053843e-06,1.6704358554164855e-06,-7.120768232213304e-07,-1.7950269910471661e-06,7.120768227286689e-07,-7.577015890853753e-05,-0.000467541475235377,-0.0006219925463076614,-0.0008216276807142858,-0.00012240699410275997,-0.000159558663007269,-0.00013782056190938662,0.5537349581718445,47.19466781616211,1.2917144298553467,-20.923799514770508,-0.5578513741493225,-2.3202548027038574,0.33084434270858765,0
39,0.18999743461608887,-0.5537349581718445,-47.19466781616211,-1.2917144298553467,20.923799514770508,0.5578513741493225,2.3202548027038574,-0.33084434270858765,0.0,0.0,0.0,0.0,0.0,0.0,0.0,-0.5517814524864804,-0.4005407271290502,-0.39391442619813416,0.5458151581108786,-0.01771869695573675,0.1076751292382899,-0.3228660040275686,0.062282589750294944,0.6884229523508171,-0.07863762571916504,-1.6210389497154636,0.028168057779471074,2.2878330322371587,0.8466359817120764,0.06226373270833701,0.6884179775783729,-0.07863937525950354,-1.6210372792796082,0.028167345702647853,2.2878312372101677,0.8466366937888992,7.577015890853753e-05,0.000467541475235377,0.0006219925463076614,0.0008216276807142858,0.00012240699410275997,0.000159558663007269,0.00013782056190938662,0.0,0.0,0.0,0.0,0.0,0.0,0.0,-1.885704195793425e-05,-4.974772444210629e-06,-1.7495403385053843e-06,1.6704358554164855e-06,-7.120768232213304e-07,-1.7950269910471661e-06,7.120768227286689e-07,-7.577015890853753e-05,-0.000467541475235377,-0.0006219925463076614,-0.0008216276807142858,-0.00012240699410275997,-0.000159558663007269,-0.00013782056190938662,0.5537349581718445,47.19466781616211,1.2917144298553467,-20.923799514770508,-0.5578513741493225,-2.3202548027038574,0.33084434270858765,0
40,0.195023775100708,-0.5299312472343445,-47.17086410522461,-1.2679107189178467,20.947603225708008,0.5642600655555725,2.3266634941101074,-0.33084434270858765,0.0,0.0,0.0,0.0,0.0,0.0,0.0,-0.5551640872602426,-0.3885164899719691,-0.3968875814081953,0.5410699257802676,-0.017981682207887942,0.10670057981150645,-0.323548476142416,0.06228139299842177,0.6884212819149619,-0.07863940162766463,-1.6210406201513188,0.02816734570264816,2.2878352871491914,0.8466359817120764,0.06226373270833701,0.6884179775783729,-0.07863937525950354,-1.6210372792796082,0.028167345702647853,2.2878312372101677,0.8466366937888992,-0.0009774700309337356,0.0006037784314201686,-0.0002685135102561495,0.0003381586274871664,-0.0002738116105008861,-8.0236891306177e-06,0.00048127449787036333,0.0,0.0,0.0,0.0,0.0,0.0,0.0,-1.7660290084757502e-05,-3.304336589016188e-06,2.636816108514406e-08,3.3408717106109265e-06,-3.0531133177191805e-16,-4.0499390236981014e-06,7.120768227286689e-07,0.0009774700309337356,-0.0006037784314201686,0.0002685135102561495,-0.0003381586274871664,0.0002738116105008861,8.0236891306177e-06,-0.00048127449787036333,0.5299312472343445,47.17086410522461,1.2679107189178467,-20.947603225708008,-0.5642600655555725,-2.3266634941101074,0.33084434270858765,0
41,0.20000648498535156,-0.5299312472343445,-47.17086410522461,-1.2679107189178467,20.947603225708008,0.5642600655555725,2.3266634941101074,-0.33084434270858765,0.0,0.0,0.0,0.0,0.0,0.0,0.0,-0.5551640872602426,-0.3885164899719691,-0.3968875814081953,0.5410699257802676,-0.017981682207887942,0.10670057981150645,-0.323548476142416,0.06228139299842177,0.6884212819149619,-0.07863940162766463,-1.6210406201513188,0.02816734570264816,2.2878352871491914,0.8466359817120764,0.06226373270833701,0.6884179775783729,-0.07863937525950354,-1.6210372792796082,0.028167345702647853,2.2878312372101677,0.8466366937888992,-0.0009774700309337356,0.0006037784314201686,-0.0002685135102561495,0.0003381586274871664,-0.0002738116105008861,-8.0236891306177e-06,0.00048127449787036333,0.0,0.0,0.0,0.0,0.0,0.0,0.0,-1.7660290084757502e-05,-3.304336589016188e-06,2.636816108514406e-08,3.3408717106109265e-06,-3.0531133177191805e-16,-4.0499390236981014e-06,7.120768227286689e-07,0.0009774700309337356,-0.0006037784314201686,0.0002685135102561495,-0.0003381586274871664,0.0002738116105008861,8.0236891306177e-06,-0.00048127449787036333,0.5299312472343445,47.17086410522461,1.2679107189178467,-20.947603225708008,-0.5642600655555725,-2.3266634941101074,0.33084434270858765,0
42,0.20499205589294434,-0.5537349581718445,-47.14706039428711,-1.2401397228240967,20.975374221801758,0.5642600655555725,2.3394808769226074,-0.30978721380233765,0.0,0.0,0.0,0.0,0.0,0.0,0.0,-0.5335969362789185,-0.40058276650423075,-0.38226508228116474,0.5497556958989054,-0.018155187260419717,0.10825944357559446,-0.3219992216273197,0.062281081643833856,0.688419532006247,-0.07863897732219732,-1.62104256899315,0.02816734570264816,2.287830525152187,0.8466336420310868,0.06226373270833701,0.6884179775783729,-0.07863937525950354,-1.6210372792796082,0.028167345702647853,2.2878312372101677,0.8466366937888992,4.1279229710890286e-05,-0.0005146684577532184,-0.0005590219957784476,-0.0002454578814393722,-0.00038188105951215414,-0.0004604804330553387,-0.002720710329242137,0.0,0.0,0.0,0.0,0.0,0.0,0.0,-1.7348935496847018e-05,-1.5544278740842188e-06,-3.9793730621795476e-07,5.289713541856145e-06,-3.0531133177191805e-16,7.120579805786065e-07,3.0517578123445688e-06,-4.1279229710890286e-05,0.0005146684577532184,0.0005590219957784476,0.0002454578814393722,0.00038188105951215414,0.0004604804330553387,0.002720710329242137,0.5537349581718445,47.14706039428711,1.2401397228240967,-20.975374221801758,-0.5642600655555725,-2.3394808769226074,0.30978721380233765,0
43,0.21002554893493652,-0.5537349581718445,-47.14706039428711,-1.2401397228240967,20.975374221801758,0.5642600655555725,2.3394808769226074,-0.30978721380233765,0.0,0.0,0.0,0.0,0.0,0.0,0.0,-0.5335969362789185,-0.40058276650423075,-0.38226508228116474,0.5497556958989054,-0.018155187260419717,0.10825944357559446,-0.3219992216273197,0.062281081643833856,0.688419532006247,-0.07863897732219732,-1.62104256899315,0.02816734570264816,2.287830525152187,0.8466336420310868,0.06226373270833701,0.6884179775783729,-0.07863937525950354,-1.6210372792796082,0.028167345702647853,2.2878312372101677,0.8466366937888992,4.1279229710890286e-05,-0.0005146684577532184,-0.0005590219957784476,-0.0002454578814393722,-0.00038188105951215414,-0.0004604804330553387,-0.002720710329242137,0.0,0.0,0.0,0.0,0.0,0.0,0.0,-1.7348935496847018e-05,-1.5544278740842188e-06,-3.9793730621795476e-07,5.289713541856145e-06,-3.0531133177191805e-16,7.120579805786065e-07,3.0517578123445688e-06,-4.1279229710890286e-05,0.0005146684577532184,0.0005590219957784476,0.0002454578814393722,0.00038188105951215414,0.0004604804330553387,0.002720710329242137,0.5537349581718445,47.14706039428711,1.2401397228240967,-20.975374221801758,-0.5642600655555725,-2.3394808769226074,0.30978721380233765,0
44,0.21503639221191406,-0.5021602511405945,-47.14706039428711,-1.2401397228240967,20.899995803833008,0.5578513741493225,2.3202548027038574,-0.30337852239608765,0.0,0.0,0.0,0.0,0.0,0.0,0.0,-0.5264686053720338,-0.38489053445151195,-0.3755639816239425,0.542399765306248,-0.019397608793460818,0.10758667657441473,-0.32143397086043396,0.0622789198487183,0.688419611478658,-0.07864135045669468,-1.6210372792796082,0.028168057779471074,2.287832661363814,0.8466329299542639,0.06226373270833701,0.6884179775783729,-0.07863937525950354,-1.6210372792796082,0.028167345702647853,2.2878312372101677,0.8466366937888992,-0.000418921011669201,-0.00043115228926826247,-1.5454044580758886e-05,0.0010251711400802417,-0.00021092042320423185,0.0002935969388839645,-0.0009133934946346984,0.0,0.0,0.0,0.0,0.0,0.0,0.0,-1.5187140381289765e-05,-1.6339002851806228e-06,1.9751971911396993e-06,0.0,-7.120768232213304e-07,-1.4241536461234716e-06,3.7638346352952823e-06,0.000418921011669201,0.00043115228926826247,1.5454044580758886e-05,-0.0010251711400802417,0.00021092042320423185,-0.0002935969388839645,0.0009133934946346984,0.5021602511405945,47.14706039428711,1.2401397228240967,-20.899995803833008,-0.5578513741493225,-2.3202548027038574,0.30337852239608765,0
45,0.22001075744628906,-0.5021602511405945,-47.14706039428711,-1.2401397228240967,20.899995803833008,0.5578513741493225,2.3202548027038574,-0.30337852239608765,0.0,0.0,0.0,0.0,0.0,0.0,0.0,-0.5264686053720338,-0.38489053445151195,-0.3755639816239425,0.542399765306248,-0.019397608793460818,0.10758667657441473,-0.32143397086043396,0.0622789198487183,0.688419611478658,-0.07864135045669468,-1.6210372792796082,0.028168057779471074,2.287832661363814,0.8466329299542639,0.06226373270833701,0.6884179775783729,-0.07863937525950354,-1.6210372792796082,0.028167345702647853,2.2878312372101677,0.8466366937888992,-0.000418921011669201,-0.00043115228926826247,-1.5454044580758886e-05,0.0010251711400802417,-0.00021092042320423185,0.0002935969388839645,-0.0009133934946346984,0.0,0.0,0.0,0.0,0.0,0.0,0.0,-1.5187140381289765e-05,-1.6339002851806228e-06,1.9751971911396993e-06,0.0,-7.120768232213304e-07,-1.4241536461234716e-06,3.7638346352952823e-06,0.000418921011669201,0.00043115228926826247,1.5454044580758886e-05,-0.0010251711400802417,0.00021092042320423185,-0.0002935969388839645,0.0009133934946346984,0.5021602511405945,47.14706039428711,1.2401397228240967,-20.899995803833008,-0.5578513741493225,-2.3202548027038574,0.30337852239608765,0
46,0.22500824928283691,-0.5299312472343445,-47.11928939819336,-1.2401397228240967,20.947603225708008,0.5642600655555725,2.3266634941101074,-0.30978721380233765,0.0,0.0,0.0,0.0,0.0,0.0,0.0,-0.5355951265378956,-0.40367660088576296,-0.3833364658277543,0.5514152409583337,-0.01968263981598275,0.10912926133622752,-0.32110742321679875,0.062278472922436864,0.6884176626372754,-0.07863921452847508,-1.6210406201513188,0.02816734570264816,2.28783196302304,0.8466336420310868,0.06226373270833701,0.6884179775783729,-0.07863937525950354,-1.6210372792796082,0.028167345702647853,2.2878312372101677,0.8466366937888992,0.00015867342445690942,-0.0017371799690357162,0.0003850386338123557,0.0003898540613552073,-0.00014380881407904036,1.0424725759485713e-05,-0.0002188178018844126,0.0,0.0,0.0,0.0,0.0,0.0,0.0,-1.4740214099855098e-05,3.149410974234712e-07,-1.6073102845903797e-07,3.3408717106109265e-06,-3.0531133177191805e-16,-7.258128724707547e-07,3.0517578123445688e-06,-0.00015867342445690942,0.0017371799690357162,-0.0003850386338123557,-0.0003898540613552073,0.00014380881407904036,-1.0424725759485713e-05,0.0002188178018844126,0.5299312472343445,47.11928939819336,1.2401397228240967,-20.947603225708008,-0.5642600655555725,-2.3266634941101074,0.30978721380233765,0
47,0.23000454902648926,-0.5299312472343445,-47.11928939819336,-1.2401397228240967,20.947603225708008,0.5642600655555725,2.3266634941101074,-0.30978721380233765,0.0,0.0,0.0,0.0,0.0,0.0,0.0,-0.5355951265378956,-0.40367660088576296,-0.3833364658277543,0.5514152409583337,-0.01968263981598275,0.10912926133622752,-0.32110742321679875,0.062278472922436864,0.6884176626372754,-0.07863921452847508,-1.6210406201513188,0.02816734570264816,2.28783196302304,0.8466336420310868,0.06226373270833701,0.6884179775783729,-0.07863937525950354,-1.6210372792796082,0.028167345702647853,2.2878312372101677,0.8466366937888992,0.00015867342445690942,-0.0017371799690357162,0.0003850386338123557,0.0003898540613552073,-0.00014380881407904036,1.0424725759485713e-05,-0.0002188178018844126,0.0,0.0,0.0,0.0,0.0,0.0,0.0,-1.4740214099855098e-05,3.149410974234712e-07,-1.6073102845903797e-07,3.3408717106109265e-06,-3.0531133177191805e-16,-7.258128724707547e-07,3.0517578123445688e-06,-0.00015867342445690942,0.0017371799690357162,-0.0003850386338123557,-0.0003898540613552073,0.00014380881407904036,-1.0424725759485713e-05,0.0002188178018844126,0.5299312472343445,47.11928939819336,1.2401397228240967,-20.947603225708008,-0.5642600655555725,-2.3266634941101074,0.30978721380233765,0
48,0.23499608039855957,-0.5299312472343445,-47.11928939819336,-1.2401397228240967,20.947603225708008,0.5642600655555725,2.3266634941101074,-0.30978721380233765,0.0,0.0,0.0,0.0,0.0,0.0,0.0,-0.5355951265378956,-0.40367660088576296,-0.3833364658277543,0.5514152409583337,-0.01968263981598275,0.10912926133622752,-0.32110742321679875,0.062278472922436864,0.6884176626372754,-0.07863921452847508,-1.6210406201513188,0.02816734570264816,2.28783196302304,0.8466336420310868,0.06226373270833701,0.6884179775783729,-0.07863937525950354,-1.6210372792796082,0.028167345702647853,2.2878312372101677,0.8466366937888992,0.00015867342445690942,-0.0017371799690357162,0.0003850386338123557,0.0003898540613552073,-0.00014380881407904036,1.0424725759485713e-05,-0.0002188178018844126,0.0,0.0,0.0,0.0,0.0,0.0,0.0,-1.4740214099855098e-05,3.149410974234712e-07,-1.6073102845903797e-07,3.3408717106109265e-06,-3.0531133177191805e-16,-7.258128724707547e-07,3.0517578123445688e-06,-0.00015867342445690942,0.0017371799690357162,-0.0003850386338123557,-0.0003898540613552073,0.00014380881407904036,-1.0424725759485713e-05,0.0002188178018844126,0.5299312472343445,47.11928939819336,1.2401397228240967,-20.947603225708008,-0.5642600655555725,-2.3266634941101074,0.30978721380233765,0
49,0.23999929428100586,-0.5299312472343445,-47.19466781616211,-1.2679107189178467,20.999177932739258,0.5578513741493225,2.3330721855163574,-0.35831016302108765,0.0,0.0,0.0,0.0,0.0,0.0,0.0,-0.5474953404909341,-0.3980968839487243,-0.3903017784601148,0.5477678134585294,-0.018995972611170153,0.10870805916004055,-0.3205079576634645,0.06228069944001955,0.6884229258598639,-0.07863868967183442,-1.6210442394290052,0.028168057779471074,2.2878312372667717,0.8466390334698889,0.06226373270833701,0.6884179775783729,-0.07863937525950354,-1.6210372792796082,0.028167345702647853,2.2878312372101677,0.8466366937888992,6.753557776780766e-05,0.00017593704195201514,0.00027016980861944165,-0.0010432930562162975,-1.1895570299575362e-05,-8.92694459949387e-05,0.0014675657716325587,0.0,0.0,0.0,0.0,0.0,0.0,0.0,-1.6966731682541147e-05,-4.948281491001794e-06,-6.855876691219676e-07,6.960149397050586e-06,-7.120768232213304e-07,-5.660405477669883e-11,-2.339680989726922e-06,-6.753557776780766e-05,-0.00017593704195201514,-0.00027016980861944165,0.0010432930562162975,1.1895570299575362e-05,8.92694459949387e-05,-0.0014675657716325587,0.5299312472343445,47.19466781616211,1.2679107189178467,-20.999177932739258,-0.5578513741493225,-2.3330721855163574,0.35831016302108765,0
50,0.2449960708618164,-0.5299312472343445,-47.19466781616211,-1.2679107189178467,20.999177932739258,0.5578513741493225,2.3330721855163574,-0.35831016302108765,0.0,0.0,0.0,0.0,0.0,0.0,0.0,-0.5474953404909341,-0.3980968839487243,-0.3903017784601148,0.5477678134585294,-0.018995972611170153,0.10870805916004055,-0.3205079576634645,0.06228069944001955,0.6884229258598639,-0.07863868967183442,-1.6210442394290052,0.028168057779471074,2.2878312372667717,0.8466390334698889,0.06226373270833701,0.6884179775783729,-0.07863937525950354,-1.6210372792796082,0.028167345702647853,2.2878312372101677,0.8466366937888992,6.753557776780766e-05,0.00017593704195201514,0.00027016980861944165,-0.0010432930562162975,-1.1895570299575362e-05,-8.92694459949387e-05,0.0014675657716325587,0.0,0.0,0.0,0.0,0.0,0.0,0.0,-1.6966731682541147e-05,-4.948281491001794e-06,-6.855876691219676e-07,6.960149397050586e-06,-7.120768232213304e-07,-5.660405477669883e-11,-2.339680989726922e-06,-6.753557776780766e-05,-0.00017593704195201514,-0.00027016980861944165,0.0010432930562162975,1.1895570299575362e-05,8.92694459949387e-05,-0.0014675657716325587,0.5299312472343445,47.19466781616211,1.2679107189178467,-20.999177932739258,-0.5578513741493225,-2.3330721855163574,0.35831016302108765,0
51,0.2500133514404297,-0.5537349581718445,-47.21847152709961,-1.3155181407928467,20.947603225708008,0.5578513741493225,2.3202548027038574,-0.32352012395858765,0.0,0.0,0.0,0.0,0.0,0.0,0.0,-0.5437589317929961,-0.3882360913791964,-0.38907513401158444,0.5420866753265068,-0.018437580309244934,0.10804970028934158,-0.3204236198471623,0.06228016284399468,0.6884246227865229,-0.07863606064401892,-1.6210406201513188,0.028168057779471074,2.2878326751563907,0.846635167909993,0.06226373270833701,0.6884179775783729,-0.07863937525950354,-1.6210372792796082,0.028167345702647853,2.2878312372101677,0.8466366937888992,1.1445724824982044e-05,0.0008076946722199454,0.0014812115318843754,9.279313631867085e-05,0.00013201395170245507,0.00025201978248389916,0.0004098055790748808,0.0,0.0,0.0,0.0,0.0,0.0,0.0,-1.643013565767043e-05,-6.645208150080073e-06,-3.31461548462586e-06,3.3408717106109265e-06,-7.120768232213304e-07,-1.4379462229818785e-06,1.5258789061167732e-06,-1.1445724824982044e-05,-0.0008076946722199454,-0.0014812115318843754,-9.279313631867085e-05,-0.00013201395170245507,-0.00025201978248389916,-0.0004098055790748808,0.5537349581718445,47.21847152709961,1.3155181407928467,-20.947603225708008,-0.5578513741493225,-2.3202548027038574,0.32352012395858765,0
52,0.25501561164855957,-0.5537349581718445,-47.21847152709961,-1.3155181407928467,20.947603225708008,0.5578513741493225,2.3202548027038574,-0.32352012395858765,0.0,0.0,0.0,0.0,0.0,0.0,0.0,-0.5437589317929961,-0.3882360913791964,-0.38907513401158444,0.5420866753265068,-0.018437580309244934,0.10804970028934158,-0.3204236198471623,0.06228016284399468,0.6884246227865229,-0.07863606064401892,-1.6210406201513188,0.028168057779471074,2.2878326751563907,0.846635167909993,0.06226373270833701,0.6884179775783729,-0.07863937525950354,-1.6210372792796082,0.028167345702647853,2.2878312372101677,0.8466366937888992,1.1445724824982044e-05,0.0008076946722199454,0.0014812115318843754,9.279313631867085e-05,0.00013201395170245507,0.00025201978248389916,0.0004098055790748808,0.0,0.0,0.0,0.0,0.0,0.0,0.0,-1.643013565767043e-05,-6.645208150080073e-06,-3.31461548462586e-06,3.3408717106109265e-06,-7.120768232213304e-07,-1.4379462229818785e-06,1.5258789061167732e-06,-1.1445724824982044e-05,-0.0008076946722199454,-0.0014812115318843754,-9.279313631867085e-05,-0.00013201395170245507,-0.00025201978248389916,-0.0004098055790748808,0.5537349581718445,47.21847152709961,1.3155181407928467,-20.947603225708008,-0.5578513741493225,-2.3202548027038574,0.32352012395858765,0
53,0.26003289222717285,-0.5537349581718445,-47.17086410522461,-1.2679107189178467,20.947603225708008,0.5578513741493225,2.3138461112976074,-0.28964561223983765,0.0,0.0,0.0,0.0,0.0,0.0,0.0,-0.5431854397220673,-0.39192033865067843,-0.38823412792365086,0.5425463768027863,-0.017685606605827815,0.10806467075793662,-0.3205177573163201,0.062281106815769705,0.6884212819149619,-0.07863940162825939,-1.6210406201513188,0.028168057779471074,2.2878333739494567,0.8466314040753576,0.06226373270833701,0.6884179775783729,-0.07863937525950354,-1.6210372792796082,0.028167345702647853,2.2878312372101677,0.8466366937888992,4.5243814323813046e-05,-0.0002878662274691514,4.688432079860063e-05,0.0003027134396815422,0.0001067468878404609,0.0006373379701527072,-0.0015411198576565923,0.0,0.0,0.0,0.0,0.0,0.0,0.0,-1.737410743269524e-05,-3.304336589016188e-06,2.636875584549614e-08,3.3408717106109265e-06,-7.120768232213304e-07,-2.13673928906033e-06,5.289713541523078e-06,-4.5243814323813046e-05,0.0002878662274691514,-4.688432079860063e-05,-0.0003027134396815422,-0.0001067468878404609,-0.0006373379701527072,0.0015411198576565923,0.5537349581718445,47.17086410522461,1.2679107189178467,-20.947603225708008,-0.5578513741493225,-2.3138461112976074,0.28964561223983765,0
54,0.2650020122528076,-0.5537349581718445,-47.17086410522461,-1.2679107189178467,20.947603225708008,0.5578513741493225,2.3138461112976074,-0.28964561223983765,0.0,0.0,0.0,0.0,0.0,0.0,0.0,-0.5431854397220673,-0.39192033865067843,-0.38823412792365086,0.5425463768027863,-0.017685606605827815,0.10806467075793662,-0.3205177573163201,0.062281106815769705,0.6884212819149619,-0.07863940162825939,-1.6210406201513188,0.028168057779471074,2.2878333739494567,0.8466314040753576,0.06226373270833701,0.6884179775783729,-0.07863937525950354,-1.6210372792796082,0.028167345702647853,2.2878312372101677,0.8466366937888992,4.5243814323813046e-05,-0.0002878662274691514,4.688432079860063e-05,0.0003027134396815422,0.0001067468878404609,0.0006373379701527072,-0.0015411198576565923,0.0,0.0,0.0,0.0,0.0,0.0,0.0,-1.737410743269524e-05,-3.304336589016188e-06,2.636875584549614e-08,3.3408717106109265e-06,-7.120768232213304e-07,-2.13673928906033e-06,5.289713541523078e-06,-4.5243814323813046e-05,0.0002878662274691514,-4.688432079860063e-05,-0.0003027134396815422,-0.0001067468878404609,-0.0006373379701527072,0.0015411198576565923,0.5537349581718445,47.17086410522461,1.2679107189178467,-20.947603225708008,-0.5578513741493225,-2.3138461112976074,0.28964561223983765,0
55,0.2700057029724121,-0.5537349581718445,-47.19466781616211,-1.2163360118865967,20.947603225708008,0.5523582100868225,2.3330721855163574,-0.34457725286483765,0.0,0.0,0.0,0.0,0.0,0.0,0.0,-0.5312477207548424,-0.3958772108555446,-0.3790617059278741,0.5432529445815205,-0.017971120815512408,0.1079847986413923,-0.32020374993553213,0.062280373184511705,0.6884229520237684,-0.07864302090594644,-1.6210406201513188,0.028168628670551157,2.2878312372101703,0.8466375075909827,0.06226373270833701,0.6884179775783729,-0.07863937525950354,-1.6210372792796082,0.028167345702647853,2.2878312372101677,0.8466366937888992,0.00014628045159381504,0.0001784946633435925,-0.00017024795859670643,-2.879037036824211e-07,0.00031065008761259116,-0.0004118054662561447,0.001299135484371236,0.0,0.0,0.0,0.0,0.0,0.0,0.0,-1.6640476174695218e-05,-4.974445395489191e-06,3.645646442895778e-06,3.3408717106109265e-06,-1.2829679033043995e-06,-2.6645352591003757e-15,-8.138020834991266e-07,-0.00014628045159381504,-0.0001784946633435925,0.00017024795859670643,2.879037036824211e-07,-0.00031065008761259116,0.0004118054662561447,-0.001299135484371236,0.5537349581718445,47.19466781616211,1.2163360118865967,-20.947603225708008,-0.5523582100868225,-2.3330721855163574,0.34457725286483765,0
56,0.27500462532043457,-0.5537349581718445,-47.19466781616211,-1.2163360118865967,20.947603225708008,0.5523582100868225,2.3330721855163574,-0.34457725286483765,0.0,0.0,0.0,0.0,0.0,0.0,0.0,-0.5312477207548424,-0.3958772108555446,-0.3790617059278741,0.5432529445815205,-0.017971120815512408,0.1079847986413923,-0.32020374993553213,0.062280373184511705,0.6884229520237684,-0.07864302090594644,-1.6210406201513188,0.028168628670551157,2.2878312372101703,0.8466375075909827,0.06226373270833701,0.6884179775783729,-0.07863937525950354,-1.6210372792796082,0.028167345702647853,2.2878312372101677,0.8466366937888992,0.00014628045159381504,0.0001784946633435925,-0.00017024795859670643,-2.879037036824211e-07,0.00031065008761259116,-0.0004118054662561447,0.001299135484371236,0.0,0.0,0.0,0.0,0.0,0.0,0.0,-1.6640476174695218e-05,-4.974445395489191e-06,3.645646442895778e-06,3.3408717106109265e-06,-1.2829679033043995e-06,-2.6645352591003757e-15,-8.138020834991266e-07,-0.00014628045159381504,-0.0001784946633435925,0.00017024795859670643,2.879037036824211e-07,-0.00031065008761259116,0.0004118054662561447,-0.001299135484371236,0.5537349581718445,47.19466781616211,1.2163360118865967,-20.947603225708008,-0.5523582100868225,-2.3330721855163574,0.34457725286483765,0
57,0.2799952030181885,-0.5537349581718445,-47.19466781616211,-1.2163360118865967,20.947603225708008,0.5523582100868225,2.3330721855163574,-0.34457725286483765,0.0,0.0,0.0,0.0,0.0,0.0,0.0,-0.5312477207548424,-0.3958772108555446,-0.3790617059278741,0.5432529445815205,-0.017971120815512408,0.1079847986413923,-0.32020374993553213,0.062280373184511705,0.6884229520237684,-0.07864302090594644,-1.6210406201513188,0.028168628670551157,2.2878312372101703,0.8466375075909827,0.06226373270833701,0.6884179775783729,-0.07863937525950354,-1.6210372792796082,0.028167345702647853,2.2878312372101677,0.8466366937888992,0.00014628045159381504,0.0001784946633435925,-0.00017024795859670643,-2.879037036824211e-07,0.00031065008761259116,-0.0004118054662561447,0.001299135484371236,0.0,0.0,0.0,0.0,0.0,0.0,0.0,-1.6640476174695218e-05,-4.974445395489191e-06,3.645646442895778e-06,3.3408717106109265e-06,-1.2829679033043995e-06,-2.6645352591003757e-15,-8.138020834991266e-07,-0.00014628045159381504,-0.0001784946633435925,0.00017024795859670643,2.879037036824211e-07,-0.00031065008761259116,0.0004118054662561447,-0.001299135484371236,0.5537349581718445,47.19466781616211,1.2163360118865967,-20.947603225708008,-0.5523582100868225,-2.3330721855163574,0.34457725286483765,0
58,0.2850008010864258,-0.5537349581718445,-47.19466781616211,-1.2163360118865967,20.947603225708008,0.5523582100868225,2.3330721855163574,-0.34457725286483765,0.0,0.0,0.0,0.0,0.0,0.0,0.0,-0.5312477207548424,-0.3958772108555446,-0.3790617059278741,0.5432529445815205,-0.017971120815512408,0.1079847986413923,-0.32020374993553213,0.062280373184511705,0.6884229520237684,-0.07864302090594644,-1.6210406201513188,0.028168628670551157,2.2878312372101703,0.8466375075909827,0.06226373270833701,0.6884179775783729,-0.07863937525950354,-1.6210372792796082,0.028167345702647853,2.2878312372101677,0.8466366937888992,0.00014628045159381504,0.0001784946633435925,-0.00017024795859670643,-2.879037036824211e-07,0.00031065008761259116,-0.0004118054662561447,0.001299135484371236,0.0,0.0,0.0,0.0,0.0,0.0,0.0,-1.6640476174695218e-05,-4.974445395489191e-06,3.645646442895778e-06,3.3408717106109265e-06,-1.2829679033043995e-06,-2.6645352591003757e-15,-8.138020834991266e-07,-0.00014628045159381504,-0.0001784946633435925,0.00017024795859670643,2.879037036824211e-07,-0.00031065008761259116,0.0004118054662561447,-0.001299135484371236,0.5537349581718445,47.19466781616211,1.2163360118865967,-20.947603225708008,-0.5523582100868225,-2.3330721855163574,0.34457725286483765,0
59,0.28999972343444824,-0.5021602511405945,-47.17086410522461,-1.2679107189178467,20.947603225708008,0.5578513741493225,2.3138461112976074,-0.36471885442733765,0.0,0.0,0.0,0.0,0.0,0.0,0.0,-0.5341695391884228,-0.3902819289959972,-0.3766126709493633,0.5419013797340925,-0.018397034227917247,0.1078186234695012,-0.3198808362212578,0.06227733879111473,0.6884212819149601,-0.07863940162826003,-1.6210406201513188,0.028167937936301707,2.2878333734406366,0.8466397455467118,0.06226373270833701,0.6884179775783729,-0.07863937525950354,-1.6210372792796082,0.028167345702647853,2.2878312372101677,0.8466366937888992,-0.0005942868904209814,0.00022697038422558248,0.0005049230953979745,0.00022537495836711654,-8.420443860564155e-05,0.0003543626357844352,0.001613577184925864,0.0,0.0,0.0,0.0,0.0,0.0,0.0,-1.3606082777721518e-05,-3.304336587239831e-06,2.6368756483874378e-08,3.3408717106109265e-06,-5.922336538538575e-07,-2.136230468963163e-06,-3.0517578126776357e-06,0.0005942868904209814,-0.00022697038422558248,-0.0005049230953979745,-0.00022537495836711654,8.420443860564155e-05,-0.0003543626357844352,-0.001613577184925864,0.5021602511405945,47.17086410522461,1.2679107189178467,-20.947603225708008,-0.5578513741493225,-2.3138461112976074,0.36471885442733765,0
60,0.2949998378753662,-0.5021602511405945,-47.17086410522461,-1.2679107189178467,20.947603225708008,0.5578513741493225,2.3138461112976074,-0.36471885442733765,0.0,0.0,0.0,0.0,0.0,0.0,0.0,-0.5341695391884228,-0.3902819289959972,-0.3766126709493633,0.5419013797340925,-0.018397034227917247,0.1078186234695012,-0.3198808362212578,0.06227733879111473,0.6884212819149601,-0.07863940162826003,-1.6210406201513188,0.028167937936301707,2.2878333734406366,0.8466397455467118,0.06226373270833701,0.6884179775783729,-0.07863937525950354,-1.6210372792796082,0.028167345702647853,2.2878312372101677,0.8466366937888992,-0.0005942868904209814,0.00022697038422558248,0.0005049230953979745,0.00022537495836711654,-8.420443860564155e-05,0.0003543626357844352,0.001613577184925864,0.0,0.0,0.0,0.0,0.0,0.0,0.0,-1.3606082777721518e-05,-3.304336587239831e-06,2.6368756483874378e-08,3.3408717106109265e-06,-5.922336538538575e-07,-2.136230468963163e-06,-3.0517578126776357e-06,0.0005942868904209814,-0.00022697038422558248,-0.0005049230953979745,-0.00022537495836711654,8.420443860564155e-05,-0.0003543626357844352,-0.001613577184925864,0.5021602511405945,47.17086410522461,1.2679107189178467,-20.947603225708008,-0.5578513741493225,-2.3138461112976074,0.36471885442733765,0
61,0.3000013828277588,-0.5537349581718445,-47.19466781616211,-1.2679107189178467,20.975374221801758,0.5642600655555725,2.3330721855163574,-0.29605430364608765,0.0,0.0,0.0,0.0,0.0,0.0,0.0,-0.5577975955769598,-0.4004731862145075,-0.39373918319907036,0.5471690461526743,-0.018002429298465024,0.10817228097877973,-0.3199226118890432,0.06228115979509937,0.6884229522418008,-0.07863939283882337,-1.62104256899315,0.02816734570197164,2.2878312372101677,0.8466321161521806,0.06226373270833701,0.6884179775783729,-0.07863937525950354,-1.6210372792796082,0.028167345702647853,2.2878312372101677,0.8466366937888992,-0.00019649786781019443,0.00025467880211394036,-0.00015439763121678632,-0.0008146488622846514,-0.00022384315419305588,-1.0751958010960613e-05,-0.0023195423912855907,0.0,0.0,0.0,0.0,0.0,0.0,0.0,-1.74270867623616e-05,-4.97466342797015e-06,1.7579319833149754e-08,5.289713541856145e-06,6.762125581705192e-13,0.0,4.577636718572364e-06,0.00019649786781019443,-0.00025467880211394036,0.00015439763121678632,0.0008146488622846514,0.00022384315419305588,1.0751958010960613e-05,0.0023195423912855907,0.5537349581718445,47.19466781616211,1.2679107189178467,-20.975374221801758,-0.5642600655555725,-2.3330721855163574,0.29605430364608765,0
62,0.30501341819763184,-0.5537349581718445,-47.19466781616211,-1.2679107189178467,20.975374221801758,0.5642600655555725,2.3330721855163574,-0.29605430364608765,0.0,0.0,0.0,0.0,0.0,0.0,0.0,-0.5577975955769598,-0.4004731862145075,-0.39373918319907036,0.5471690461526743,-0.018002429298465024,0.10817228097877973,-0.3199226118890432,0.06228115979509937,0.6884229522418008,-0.07863939283882337,-1.62104256899315,0.02816734570197164,2.2878312372101677,0.8466321161521806,0.06226373270833701,0.6884179775783729,-0.07863937525950354,-1.6210372792796082,0.028167345702647853,2.2878312372101677,0.8466366937888992,-0.00019649786781019443,0.00025467880211394036,-0.00015439763121678632,-0.0008146488622846514,-0.00022384315419305588,-1.0751958010960613e-05,-0.0023195423912855907,0.0,0.0,0.0,0.0,0.0,0.0,0.0,-1.74270867623616e-05,-4.97466342797015e-06,1.7579319833149754e-08,5.289713541856145e-06,6.762125581705192e-13,0.0,4.577636718572364e-06,0.00019649786781019443,-0.00025467880211394036,0.00015439763121678632,0.0008146488622846514,0.00022384315419305588,1.0751958010960613e-05,0.0023195423912855907,0.5537349581718445,47.19466781616211,1.2679107189178467,-20.975374221801758,-0.5642600655555725,-2.3330721855163574,0.29605430364608765,0
63,0.30998969078063965,-0.5815059542655945,-47.17086410522461,-1.2401397228240967,20.947603225708008,0.5642600655555725,2.3266634941101074,-0.28964561223983765,0.0,0.0,0.0,0.0,0.0,0.0,0.0,-0.5383738741190438,-0.3921064122754053,-0.37999992959642215,0.5421541193799584,-0.018336549843895916,0.10830347279095087,-0.32049385737577424,0.06228452885457237,0.6884212818786226,-0.0786406385256734,-1.6210406201513188,0.028167345702648155,2.2878319492869905,0.8466314040753576,0.06226373270833701,0.6884179775783729,-0.07863937525950354,-1.6210372792796082,0.028167345702647853,2.2878312372101677,0.8466366937888992,0.0005040491252866396,-0.0002717793472116801,-0.00012950029959534273,-4.921133397217843e-05,-0.00020258086448475635,-0.00012624623846771205,-0.0010716860711035118,0.0,0.0,0.0,0.0,0.0,0.0,0.0,-2.0796146235360635e-05,-3.3043002497512575e-06,1.2632661698652736e-06,3.3408717106109265e-06,-3.0184188481996443e-16,-7.120768228396912e-07,5.289713541523078e-06,-0.0005040491252866396,0.0002717793472116801,0.00012950029959534273,4.921133397217843e-05,0.00020258086448475635,0.00012624623846771205,0.0010716860711035118,0.5815059542655945,47.17086410522461,1.2401397228240967,-20.947603225708008,-0.5642600655555725,-2.3266634941101074,0.28964561223983765,0
64,0.31501317024230957,-0.5815059542655945,-47.17086410522461,-1.2401397228240967,20.947603225708008,0.5642600655555725,2.3266634941101074,-0.28964561223983765,0.0,0.0,0.0,0.0,0.0,0.0,0.0,-0.5383738741190438,-0.3921064122754053,-0.37999992959642215,0.5421541193799584,-0.018336549843895916,0.10830347279095087,-0.32049385737577424,0.06228452885457237,0.6884212818786226,-0.0786406385256734,-1.6210406201513188,0.028167345702648155,2.2878319492869905,0.8466314040753576,0.06226373270833701,0.6884179775783729,-0.07863937525950354,-1.6210372792796082,0.028167345702647853,2.2878312372101677,0.8466366937888992,0.0005040491252866396,-0.0002717793472116801,-0.00012950029959534273,-4.921133397217843e-05,-0.00020258086448475635,-0.00012624623846771205,-0.0010716860711035118,0.0,0.0,0.0,0.0,0.0,0.0,0.0,-2.0796146235360635e-05,-3.3043002497512575e-06,1.2632661698652736e-06,3.3408717106109265e-06,-3.0184188481996443e-16,-7.120768228396912e-07,5.289713541523078e-06,-0.0005040491252866396,0.0002717793472116801,0.00012950029959534273,4.921133397217843e-05,0.00020258086448475635,0.00012624623846771205,0.0010716860711035118,0.5815059542655945,47.17086410522461,1.2401397228240967,-20.947603225708008,-0.5642600655555725,-2.3266634941101074,0.28964561223983765,0
65,0.32001233100891113,-0.5537349581718445,-47.17086410522461,-1.2401397228240967,20.899995803833008,0.5578513741493225,2.3330721855163574,-0.34457725286483765,0.0,0.0,0.0,0.0,0.0,0.0,0.0,-0.5534011209084851,-0.3987735531416473,-0.3892623261399796,0.5437040891337424,-0.017633190427985057,0.10843735740311199,-0.32033816340985244,0.06228238237552546,0.6884212819149618,-0.07864063559189186,-1.6210372792796082,0.028168057779471074,2.2878312372101677,0.8466375075909827,0.06226373270833701,0.6884179775783729,-0.07863937525950354,-1.6210372792796082,0.028167345702647853,2.2878312372101677,0.8466366937888992,9.541222851947145e-05,-0.0003621291758424243,-0.0005160013692605092,0.0010520780784593258,-0.0011843958487997698,-0.0005070727892097066,0.0008361140972759838,0.0,0.0,0.0,0.0,0.0,0.0,0.0,-1.8649667188452845e-05,-3.3043365889051657e-06,1.2603323883142448e-06,0.0,-7.120768232213304e-07,0.0,-8.138020834991266e-07,-9.541222851947145e-05,0.0003621291758424243,0.0005160013692605092,-0.0010520780784593258,0.0011843958487997698,0.0005070727892097066,-0.0008361140972759838,0.5537349581718445,47.17086410522461,1.2401397228240967,-20.899995803833008,-0.5578513741493225,-2.3330721855163574,0.34457725286483765,0
66,0.3250308036804199,-0.5537349581718445,-47.17086410522461,-1.2401397228240967,20.899995803833008,0.5578513741493225,2.3330721855163574,-0.34457725286483765,0.0,0.0,0.0,0.0,0.0,0.0,0.0,-0.5534011209084851,-0.3987735531416473,-0.3892623261399796,0.5437040891337424,-0.017633190427985057,0.10843735740311199,-0.32033816340985244,0.06228238237552546,0.6884212819149618,-0.07864063559189186,-1.6210372792796082,0.028168057779471074,2.2878312372101677,0.8466375075909827,0.06226373270833701,0.6884179775783729,-0.07863937525950354,-1.6210372792796082,0.028167345702647853,2.2878312372101677,0.8466366937888992,9.541222851947145e-05,-0.0003621291758424243,-0.0005160013692605092,0.0010520780784593258,-0.0011843958487997698,-0.0005070727892097066,0.0008361140972759838,0.0,0.0,0.0,0.0,0.0,0.0,0.0,-1.8649667188452845e-05,-3.3043365889051657e-06,1.2603323883142448e-06,0.0,-7.120768232213304e-07,0.0,-8.138020834991266e-07,-9.541222851947145e-05,0.0003621291758424243,0.0005160013692605092,-0.0010520780784593258,0.0011843958487997698,0.0005070727892097066,-0.0008361140972759838,0.5537349581718445,47.17086410522461,1.2401397228240967,-20.899995803833008,-0.5578513741493225,-2.3330721855163574,0.34457725286483765,0
67,0.3300049304962158,-0.5299312472343445,-47.21847152709961,-1.2401397228240967,20.947603225708008,0.5578513741493225,2.3330721855163574,-0.29605430364608765,0.0,0.0,0.0,0.0,0.0,0.0,0.0,-0.5385119211298046,-0.39400772376788906,-0.37899072199996475,0.5407109218023431,-0.01835332784205865,0.10760299722359125,-0.3213199216181068,0.062278551698171224,0.6884246227866724,-0.07864111315126628,-1.6210406201513188,0.028168057779471074,2.28783123771891,0.8466321161521806,0.06226373270833701,0.6884179775783729,-0.07863937525950354,-1.6210372792796082,0.028167345702647853,2.2878312372101677,0.8466366937888992,-4.116067028672001e-05,0.0009228998006961864,-0.0001440282870898471,6.661780647063493e-05,7.501171509917397e-05,-0.0002453998940243333,-0.0011341621156415545,0.0,0.0,0.0,0.0,0.0,0.0,0.0,-1.4818989834214369e-05,-6.645208299516092e-06,1.7378917627347557e-06,3.3408717106109265e-06,-7.120768232213304e-07,-5.087423815552938e-10,4.577636718572364e-06,4.116067028672001e-05,-0.0009228998006961864,0.0001440282870898471,-6.661780647063493e-05,-7.501171509917397e-05,0.0002453998940243333,0.0011341621156415545,0.5299312472343445,47.21847152709961,1.2401397228240967,-20.947603225708008,-0.5578513741493225,-2.3330721855163574,0.29605430364608765,0
68,0.3350343704223633,-0.5299312472343445,-47.21847152709961,-1.2401397228240967,20.947603225708008,0.5578513741493225,2.3330721855163574,-0.29605430364608765,0.0,0.0,0.0,0.0,0.0,0.0,0.0,-0.5385119211298046,-0.39400772376788906,-0.37899072199996475,0.5407109218023431,-0.01835332784205865,0.10760299722359125,-0.3213199216181068,0.062278551698171224,0.6884246227866724,-0.07864111315126628,-1.6210406201513188,0.028168057779471074,2.28783123771891,0.8466321161521806,0.06226373270833701,0.6884179775783729,-0.07863937525950354,-1.6210372792796082,0.028167345702647853,2.2878312372101677,0.8466366937888992,-4.116067028672001e-05,0.0009228998006961864,-0.0001440282870898471,6.661780647063493e-05,7.501171509917397e-05,-0.0002453998940243333,-0.0011341621156415545,0.0,0.0,0.0,0.0,0.0,0.0,0.0,-1.4818989834214369e-05,-6.645208299516092e-06,1.7378917627347557e-06,3.3408717106109265e-06,-7.120768232213304e-07,-5.087423815552938e-10,4.577636718572364e-06,4.116067028672001e-05,-0.0009228998006961864,0.0001440282870898471,-6.661780647063493e-05,-7.501171509917397e-05,0.0002453998940243333,0.0011341621156415545,0.5299312472343445,47.21847152709961,1.2401397228240967,-20.947603225708008,-0.5578513741493225,-2.3330721855163574,0.29605430364608765,0
69,0.33997178077697754,-0.4783565402030945,-47.21847152709961,-1.2401397228240967,20.975374221801758,0.5697532296180725,2.3266634941101074,-0.33725303411483765,0.0,0.0,0.0,0.0,0.0,0.0,0.0,-0.5389610212152016,-0.4020690544269588,-0.3792390774649156,0.5462231141442497,-0.017899001237878978,0.10884879020626956,-0.32225573509935823,0.06227580068324907,0.6884246227866724,-0.0786413504687515,-1.62104256899315,0.02816673535108566,2.2878323203299193,0.8466366937888993,0.06226373270833701,0.6884179775783729,-0.07863937525950354,-1.6210372792796082,0.028167345702647853,2.2878312372101677,0.8466366937888992,-0.0010936751208042788,0.0007690594415215641,0.0001918314948491366,-0.00020071021716317107,-0.00032278575458490966,7.717092640785052e-05,0.0003020023347129001,0.0,0.0,0.0,0.0,0.0,0.0,0.0,-1.2067974912058355e-05,-6.645208299516092e-06,1.97520924795358e-06,5.289713541856145e-06,6.103515621941336e-07,-1.083119751665862e-06,-1.1102230246251565e-16,0.0010936751208042788,-0.0007690594415215641,-0.0001918314948491366,0.00020071021716317107,0.00032278575458490966,-7.717092640785052e-05,-0.0003020023347129001,0.4783565402030945,47.21847152709961,1.2401397228240967,-20.975374221801758,-0.5697532296180725,-2.3266634941101074,0.33725303411483765,0
70,0.34499502182006836,-0.4783565402030945,-47.21847152709961,-1.2401397228240967,20.975374221801758,0.5697532296180725,2.3266634941101074,-0.33725303411483765,0.0,0.0,0.0,0.0,0.0,0.0,0.0,-0.5389610212152016,-0.4020690544269588,-0.3792390774649156,0.5462231141442497,-0.017899001237878978,0.10884879020626956,-0.32225573509935823,0.06227580068324907,0.6884246227866724,-0.0786413504687515,-1.62104256899315,0.02816673535108566,2.2878323203299193,0.8466366937888993,0.06226373270833701,0.6884179775783729,-0.07863937525950354,-1.6210372792796082,0.028167345702647853,2.2878312372101677,0.8466366937888992,-0.0010936751208042788,0.0007690594415215641,0.0001918314948491366,-0.00020071021716317107,-0.00032278575458490966,7.717092640785052e-05,0.0003020023347129001,0.0,0.0,0.0,0.0,0.0,0.0,0.0,-1.2067974912058355e-05,-6.645208299516092e-06,1.97520924795358e-06,5.289713541856145e-06,6.103515621941336e-07,-1.083119751665862e-06,-1.1102230246251565e-16,0.0010936751208042788,-0.0007690594415215641,-0.0001918314948491366,0.00020071021716317107,0.00032278575458490966,-7.717092640785052e-05,-0.0003020023347129001,0.4783565402030945,47.21847152709961,1.2401397228240967,-20.975374221801758,-0.5697532296180725,-2.3266634941101074,0.33725303411483765,0
71,0.34999608993530273,-0.5537349581718445,-47.19466781616211,-1.2679107189178467,20.923799514770508,0.5642600655555725,2.3266634941101074,-0.35831016302108765,0.0,0.0,0.0,0.0,0.0,0.0,0.0,-0.5506157798241513,-0.393388774533207,-0.3877293245307741,0.5423772857509337,-0.01732779502803983,0.10807321022093005,-0.3229612561178007,0.06228044947107639,0.6884229520237684,-0.0786394015920895,-1.6210389497154636,0.02816734570264816,2.287831949289085,0.8466390334698889,0.06226373270833701,0.6884179775783729,-0.07863937525950354,-1.6210372792796082,0.028167345702647853,2.2878312372101677,0.8466366937888992,0.0005975083912868915,0.0001459229204272179,0.0002676391027647703,0.000615822040990339,-7.715433393178328e-05,-4.2532585145023444e-05,0.0015953024269491792,0.0,0.0,0.0,0.0,0.0,0.0,0.0,-1.6716762739378555e-05,-4.974445395489191e-06,2.6332585958965815e-08,1.6704358554164855e-06,-3.0531133177191805e-16,-7.120789171644049e-07,-2.339680989726922e-06,-0.0005975083912868915,-0.0001459229204272179,-0.0002676391027647703,-0.000615822040990339,7.715433393178328e-05,4.2532585145023444e-05,-0.0015953024269491792,0.5537349581718445,47.19466781616211,1.2679107189178467,-20.923799514770508,-0.5642600655555725,-2.3266634941101074,0.35831016302108765,0
72,0.35500192642211914,-0.5537349581718445,-47.19466781616211,-1.2679107189178467,20.923799514770508,0.5642600655555725,2.3266634941101074,-0.35831016302108765,0.0,0.0,0.0,0.0,0.0,0.0,0.0,-0.5506157798241513,-0.393388774533207,-0.3877293245307741,0.5423772857509337,-0.01732779502803983,0.10807321022093005,-0.3229612561178007,0.06228044947107639,0.6884229520237684,-0.0786394015920895,-1.6210389497154636,0.02816734570264816,2.287831949289085,0.8466390334698889,0.06226373270833701,0.6884179775783729,-0.07863937525950354,-1.6210372792796082,0.028167345702647853,2.2878312372101677,0.8466366937888992,0.0005975083912868915,0.0001459229204272179,0.0002676391027647703,0.000615822040990339,-7.715433393178328e-05,-4.2532585145023444e-05,0.0015953024269491792,0.0,0.0,0.0,0.0,0.0,0.0,0.0,-1.6716762739378555e-05,-4.974445395489191e-06,2.6332585958965815e-08,1.6704358554164855e-06,-3.0531133177191805e-16,-7.120789171644049e-07,-2.339680989726922e-06,-0.0005975083912868915,-0.0001459229204272179,-0.0002676391027647703,-0.000615822040990339,7.715433393178328e-05,4.2532585145023444e-05,-0.0015953024269491792,0.5537349581718445,47.19466781616211,1.2679107189178467,-20.923799514770508,-0.5642600655555725,-2.3266634941101074,0.35831016302108765,0
73,0.3600044250488281,-0.5815059542655945,-47.17086410522461,-1.2401397228240967,20.899995803833008,0.5642600655555725,2.3394808769226074,-0.30978721380233765,0.0,0.0,0.0,0.0,0.0,0.0,0.0,-0.5429609534635406,-0.3955205995155119,-0.38672104824313625,0.5447461002189298,-0.017417580110659758,0.10807921574015937,-0.3230505617287949,0.0622830294965762,0.6884212819149601,-0.07864134168065433,-1.6210372792796082,0.02816734570264816,2.2878305251898716,0.8466336420310868,0.06226373270833701,0.6884179775783729,-0.07863937525950354,-1.6210372792796082,0.028167345702647853,2.2878312372101677,0.8466366937888992,0.0011262790872778362,-0.0002804012400388515,-0.0008177812348379243,0.0011582106140083032,-0.00021130580259264012,-0.0003193218293149659,-0.0008595819982819698,0.0,0.0,0.0,0.0,0.0,0.0,0.0,-1.9296788239191176e-05,-3.304336587239831e-06,1.9664211507869345e-06,0.0,-3.0531133177191805e-16,7.12020296056437e-07,3.0517578123445688e-06,-0.0011262790872778362,0.0002804012400388515,0.0008177812348379243,-0.0011582106140083032,0.00021130580259264012,0.0003193218293149659,0.0008595819982819698,0.5815059542655945,47.17086410522461,1.2401397228240967,-20.899995803833008,-0.5642600655555725,-2.3394808769226074,0.30978721380233765,0
74,0.3650338649749756,-0.5815059542655945,-47.17086410522461,-1.2401397228240967,20.899995803833008,0.5642600655555725,2.3394808769226074,-0.30978721380233765,0.0,0.0,0.0,0.0,0.0,0.0,0.0,-0.5429609534635406,-0.3955205995155119,-0.38672104824313625,0.5447461002189298,-0.017417580110659758,0.10807921574015937,-0.3230505617287949,0.0622830294965762,0.6884212819149601,-0.07864134168065433,-1.6210372792796082,0.02816734570264816,2.2878305251898716,0.8466336420310868,0.06226373270833701,0.6884179775783729,-0.07863937525950354,-1.6210372792796082,0.028167345702647853,2.2878312372101677,0.8466366937888992,0.0011262790872778362,-0.0002804012400388515,-0.0008177812348379243,0.0011582106140083032,-0.00021130580259264012,-0.0003193218293149659,-0.0008595819982819698,0.0,0.0,0.0,0.0,0.0,0.0,0.0,-1.9296788239191176e-05,-3.304336587239831e-06,1.9664211507869345e-06,0.0,-3.0531133177191805e-16,7.12020296056437e-07,3.0517578123445688e-06,-0.0011262790872778362,0.0002804012400388515,0.0008177812348379243,-0.0011582106140083032,0.00021130580259264012,0.0003193218293149659,0.0008595819982819698,0.5815059542655945,47.17086410522461,1.2401397228240967,-20.899995803833008,-0.5642600655555725,-2.3394808769226074,0.30978721380233765,0
75,0.37000584602355957,-0.5299312472343445,-47.21847152709961,-1.2679107189178467,21.022981643676758,0.5697532296180725,2.3394808769226074,-0.33084434270858765,0.0,0.0,0.0,0.0,0.0,0.0,0.0,-0.5480563551139503,-0.404224562357938,-0.3938974755886875,0.5481371152015073,-0.01712919517106725,0.1097722008537229,-0.3227852570890607,0.06227870282068157,0.6884246227866724,-0.07863939283877376,-1.6210459098648604,0.02816673535108566,2.287830525133345,0.8466359817120764,0.06226373270833701,0.6884179775783729,-0.07863937525950354,-1.6210372792796082,0.028167345702647853,2.2878312372101677,0.8466366937888992,-0.0006545297923134343,0.0005034044399726478,-3.202898951970999e-05,-0.0016267199749602718,-0.00032128979580622907,-0.000460521927423385,0.0004350505765415876,0.0,0.0,0.0,0.0,0.0,0.0,0.0,-1.4970112344560305e-05,-6.645208299516092e-06,1.757927022005834e-08,8.630585252245027e-06,6.103515621941336e-07,7.120768228396912e-07,7.120768227286689e-07,0.0006545297923134343,-0.0005034044399726478,3.202898951970999e-05,0.0016267199749602718,0.00032128979580622907,0.000460521927423385,-0.0004350505765415876,0.5299312472343445,47.21847152709961,1.2679107189178467,-21.022981643676758,-0.5697532296180725,-2.3394808769226074,0.33084434270858765,0
76,0.3750321865081787,-0.5299312472343445,-47.21847152709961,-1.2679107189178467,21.022981643676758,0.5697532296180725,2.3394808769226074,-0.33084434270858765,0.0,0.0,0.0,0.0,0.0,0.0,0.0,-0.5480563551139503,-0.404224562357938,-0.3938974755886875,0.5481371152015073,-0.01712919517106725,0.1097722008537229,-0.3227852570890607,0.06227870282068157,0.6884246227866724,-0.07863939283877376,-1.6210459098648604,0.02816673535108566,2.287830525133345,0.8466359817120764,0.06226373270833701,0.6884179775783729,-0.07863937525950354,-1.6210372792796082,0.028167345702647853,2.2878312372101677,0.8466366937888992,-0.0006545297923134343,0.0005034044399726478,-3.202898951970999e-05,-0.0016267199749602718,-0.00032128979580622907,-0.000460521927423385,0.0004350505765415876,0.0,0.0,0.0,0.0,0.0,0.0,0.0,-1.4970112344560305e-05,-6.645208299516092e-06,1.757927022005834e-08,8.630585252245027e-06,6.103515621941336e-07,7.120768228396912e-07,7.120768227286689e-07,0.0006545297923134343,-0.0005034044399726478,3.202898951970999e-05,0.0016267199749602718,0.00032128979580622907,0.000460521927423385,-0.0004350505765415876,0.5299312472343445,47.21847152709961,1.2679107189178467,-21.022981643676758,-0.5697532296180725,-2.3394808769226074,0.33084434270858765,0
77,0.3800327777862549,-0.5021602511405945,-47.14706039428711,-1.2679107189178467,20.899995803833008,0.5578513741493225,2.3202548027038574,-0.31711143255233765,0.0,0.0,0.0,0.0,0.0,0.0,0.0,-0.5303877148890234,-0.391275258072156,-0.3829435496025438,0.542027607394561,-0.016894330686525707,0.1088505160928651,-0.32285228745807015,0.06227683116367461,0.6884196114791066,-0.07863940130267572,-1.6210372793159469,0.028168057779471074,2.287832661363814,0.8466344558331701,0.06226373270833701,0.6884179775783729,-0.07863937525950354,-1.6210372792796082,0.028167345702647853,2.2878312372101677,0.8466366937888992,-0.0005714512282089985,-0.0009175889474246586,0.00023238199261022853,0.0008308686248681996,1.3023564999751656e-05,0.00015678213691013812,2.041874168440436e-05,0.0,0.0,0.0,0.0,0.0,0.0,0.0,-1.3098455337604009e-05,-1.6339007337107248e-06,2.6043172174361473e-08,3.6338709819006e-11,-7.120768232213304e-07,-1.4241536461234716e-06,2.2379557290674867e-06,0.0005714512282089985,0.0009175889474246586,-0.00023238199261022853,-0.0008308686248681996,-1.3023564999751656e-05,-0.00015678213691013812,-2.041874168440436e-05,0.5021602511405945,47.14706039428711,1.2679107189178467,-20.899995803833008,-0.5578513741493225,-2.3202548027038574,0.31711143255233765,0
78,0.3850209712982178,-0.5021602511405945,-47.14706039428711,-1.2679107189178467,20.899995803833008,0.5578513741493225,2.3202548027038574,-0.31711143255233765,0.0,0.0,0.0,0.0,0.0,0.0,0.0,-0.5303877148890234,-0.391275258072156,-0.3829435496025438,0.542027607394561,-0.016894330686525707,0.1088505160928651,-0.32285228745807015,0.06227683116367461,0.6884196114791066,-0.07863940130267572,-1.6210372793159469,0.028168057779471074,2.287832661363814,0.8466344558331701,0.06226373270833701,0.6884179775783729,-0.07863937525950354,-1.6210372792796082,0.028167345702647853,2.2878312372101677,0.8466366937888992,-0.0005714512282089985,-0.0009175889474246586,0.00023238199261022853,0.0008308686248681996,1.3023564999751656e-05,0.00015678213691013812,2.041874168440436e-05,0.0,0.0,0.0,0.0,0.0,0.0,0.0,-1.3098455337604009e-05,-1.6339007337107248e-06,2.6043172174361473e-08,3.6338709819006e-11,-7.120768232213304e-07,-1.4241536461234716e-06,2.2379557290674867e-06,0.0005714512282089985,0.0009175889474246586,-0.00023238199261022853,-0.0008308686248681996,-1.3023564999751656e-05,-0.00015678213691013812,-2.041874168440436e-05,0.5021602511405945,47.14706039428711,1.2679107189178467,-20.899995803833008,-0.5578513741493225,-2.3202548027038574,0.31711143255233765,0
79,0.3899955749511719,-0.5537349581718445,-47.19466781616211,-1.2679107189178467,20.947603225708008,0.5642600655555725,2.3330721855163574,-0.33725303411483765,0.0,0.0,0.0,0.0,0.0,0.0,0.0,-0.5422895326876196,-0.39930783528614144,-0.39177066525803983,0.5466463790479367,-0.01626888528021887,0.10916205705232454,-0.3228205949252185,0.06228108162908343,0.6884228728779574,-0.0786394016282582,-1.621040620151319,0.02816734570264816,2.2878313608346157,0.8466366937888993,0.06226373270833701,0.6884179775783729,-0.07863937525950354,-1.6210372792796082,0.028167345702647853,2.2878312372101677,0.8466366937888992,0.00018144599306897302,0.0004547642814420885,0.00044980644123792887,0.00018531796005974557,-8.676326916534107e-05,-0.00013785976363976502,0.0005247189099106852,0.0,0.0,0.0,0.0,0.0,0.0,0.0,-1.7348920746423913e-05,-4.895299584584123e-06,2.6368754652006388e-08,3.340871710832971e-06,-3.0531133177191805e-16,-1.236244480118387e-07,-1.1102230246251565e-16,-0.00018144599306897302,-0.0004547642814420885,-0.00044980644123792887,-0.00018531796005974557,8.676326916534107e-05,0.00013785976363976502,-0.0005247189099106852,0.5537349581718445,47.19466781616211,1.2679107189178467,-20.947603225708008,-0.5642600655555725,-2.3330721855163574,0.33725303411483765,0
