rezayati/contactInterpretation/dataset/franka_main/labeled_data/link2/f3_3.csv
index,time,tau_J0,tau_J1,tau_J2,tau_J3,tau_J4,tau_J5,tau_J6,tau_J_d0,tau_J_d1,tau_J_d2,tau_J_d3,tau_J_d4,tau_J_d5,tau_J_d6,tau_ext0,tau_ext1,tau_ext2,tau_ext3,tau_ext4,tau_ext5,tau_ext6,q0,q1,q2,q3,q4,q5,q6,q_d0,q_d1,q_d2,q_d3,q_d4,q_d5,q_d6,dq0,dq1,dq2,dq3,dq4,dq5,dq6,dq_d0,dq_d1,dq_d2,dq_d3,dq_d4,dq_d5,dq_d6,e0,e1,e2,e3,e4,e5,e6,de0,de1,de2,de3,de4,de5,de6,etau_J0,etau_J1,etau_J2,etau_J3,etau_J4,etau_J5,etau_J6,label
1,0.0,-0.3752071261405945,-34.13833236694336,-3.8228423595428467,19.487642288208008,0.2603049874305725,1.783755898475647,-0.07724325358867645,0.0,0.0,0.0,0.0,0.0,0.0,0.0,-0.3807219969890126,-0.07210649970115898,-0.23795640985339192,0.45311103437859235,0.20694584042221606,-0.11899716443460928,-0.10229641172812307,1.0544528811898146,0.3237752423715585,-0.3925139416644447,-2.1535054687989468,0.8647465737232342,2.4659922637096314,0.5444856659118553,1.0544104758940245,0.3238615046091247,-0.39250456234122666,-2.153291787532338,0.8647539153680389,2.46587817577521,0.5445020185570556,0.00021174833066464486,-6.71927912266487e-05,8.12306462760259e-05,-0.00011071299201256132,-0.00020972700147047594,-0.00011103923586846119,-0.00124783347671546,0.0,0.0,0.0,0.0,0.0,0.0,0.0,-4.240529579013774e-05,8.626223756619256e-05,9.37932321803947e-06,0.00021368126660892273,7.341644804759184e-06,-0.00011408793442146958,1.6352645200279348e-05,-0.00021174833066464486,6.71927912266487e-05,-8.12306462760259e-05,0.00011071299201256132,0.00020972700147047594,0.00011103923586846119,0.00124783347671546,0.3752071261405945,34.13833236694336,3.8228423595428467,-19.487642288208008,-0.2603049874305725,-1.783755898475647,0.07724325358867645,0
2,0.005001068115234375,-0.3752071261405945,-34.13833236694336,-3.7752349376678467,19.487642288208008,0.2603049874305725,1.802981972694397,-0.09738485515117645,0.0,0.0,0.0,0.0,0.0,0.0,0.0,-0.3772674211657515,-0.06998180508944529,-0.23843816640102058,0.4546920750693086,0.20621529433319385,-0.11943042652697496,-0.10191515449659533,1.0544528811898146,0.3237773614656697,-0.39251728253615525,-2.1535076912755304,0.8647476331927767,2.4659865822757605,0.5444877470286047,1.0544104758940245,0.3238615046091247,-0.39250456234122666,-2.153291787532338,0.8647539153680389,2.46587817577521,0.5445020185570556,5.056443484031536e-05,0.00023080618544471946,-0.0004800206632577693,0.0003482869446438201,-0.0001541727196407449,-0.000726123079798347,3.6247761284799245e-05,0.0,0.0,0.0,0.0,0.0,0.0,0.0,-4.240529579013774e-05,8.414314345500662e-05,1.2720194928594886e-05,0.00021590374319258032,6.2821752622177485e-06,-0.00010840650055055079,1.4271528450904292e-05,-5.056443484031536e-05,-0.00023080618544471946,0.0004800206632577693,-0.0003482869446438201,0.0001541727196407449,0.000726123079798347,-3.6247761284799245e-05,0.3752071261405945,34.13833236694336,3.7752349376678467,-19.487642288208008,-0.2603049874305725,-1.802981972694397,0.09738485515117645,0
3,0.010006904602050781,-0.3752071261405945,-34.13833236694336,-3.7752349376678467,19.487642288208008,0.2603049874305725,1.802981972694397,-0.09738485515117645,0.0,0.0,0.0,0.0,0.0,0.0,0.0,-0.3772674211657515,-0.06998180508944529,-0.23843816640102058,0.4546920750693086,0.20621529433319385,-0.11943042652697496,-0.10191515449659533,1.0544528811898146,0.3237773614656697,-0.39251728253615525,-2.1535076912755304,0.8647476331927767,2.4659865822757605,0.5444877470286047,1.0544104758940245,0.3238615046091247,-0.39250456234122666,-2.153291787532338,0.8647539153680389,2.46587817577521,0.5445020185570556,5.056443484031536e-05,0.00023080618544471946,-0.0004800206632577693,0.0003482869446438201,-0.0001541727196407449,-0.000726123079798347,3.6247761284799245e-05,0.0,0.0,0.0,0.0,0.0,0.0,0.0,-4.240529579013774e-05,8.414314345500662e-05,1.2720194928594886e-05,0.00021590374319258032,6.2821752622177485e-06,-0.00010840650055055079,1.4271528450904292e-05,-5.056443484031536e-05,-0.00023080618544471946,0.0004800206632577693,-0.0003482869446438201,0.0001541727196407449,0.000726123079798347,-3.6247761284799245e-05,0.3752071261405945,34.13833236694336,3.7752349376678467,-19.487642288208008,-0.2603049874305725,-1.802981972694397,0.09738485515117645,0
4,0.01500558853149414,-0.3514034152030945,-34.13833236694336,-3.7514312267303467,19.459871292114258,0.2603049874305725,1.777347207069397,-0.10470907390117645,0.0,0.0,0.0,0.0,0.0,0.0,0.0,-0.3818143111327962,-0.07274487581852736,-0.24260420575600022,0.45618380336081393,0.2055206786057535,-0.11896201513057522,-0.10145561788334392,1.0544512107539592,0.3237773624856961,-0.3925189529720105,-2.1535054982874886,0.8647479865729728,2.465993036175177,0.5444885627678697,1.0544104758940245,0.3238615046091247,-0.39250456234122666,-2.153291787532338,0.8647539153680389,2.46587817577521,0.5445020185570556,-0.0009276192215072697,-8.249089818676459e-05,-0.0012364312453127498,0.000816415274789806,-0.00022602736864917318,0.0001668237601738132,0.0005607110709211889,0.0,0.0,0.0,0.0,0.0,0.0,0.0,-4.073485993472126e-05,8.414212342860994e-05,1.4390630783844838e-05,0.00021371075515075333,5.9287950661124356e-06,-0.00011486039996722042,1.3455789185878864e-05,0.0009276192215072697,8.249089818676459e-05,0.0012364312453127498,-0.000816415274789806,0.00022602736864917318,-0.0001668237601738132,-0.0005607110709211889,0.3514034152030945,34.13833236694336,3.7514312267303467,-19.459871292114258,-0.2603049874305725,-1.777347207069397,0.10470907390117645,0
5,0.019998550415039062,-0.3514034152030945,-34.13833236694336,-3.7514312267303467,19.459871292114258,0.2603049874305725,1.777347207069397,-0.10470907390117645,0.0,0.0,0.0,0.0,0.0,0.0,0.0,-0.3818143111327962,-0.07274487581852736,-0.24260420575600022,0.45618380336081393,0.2055206786057535,-0.11896201513057522,-0.10145561788334392,1.0544512107539592,0.3237773624856961,-0.3925189529720105,-2.1535054982874886,0.8647479865729728,2.465993036175177,0.5444885627678697,1.0544104758940245,0.3238615046091247,-0.39250456234122666,-2.153291787532338,0.8647539153680389,2.46587817577521,0.5445020185570556,-0.0009276192215072697,-8.249089818676459e-05,-0.0012364312453127498,0.000816415274789806,-0.00022602736864917318,0.0001668237601738132,0.0005607110709211889,0.0,0.0,0.0,0.0,0.0,0.0,0.0,-4.073485993472126e-05,8.414212342860994e-05,1.4390630783844838e-05,0.00021371075515075333,5.9287950661124356e-06,-0.00011486039996722042,1.3455789185878864e-05,0.0009276192215072697,8.249089818676459e-05,0.0012364312453127498,-0.000816415274789806,0.00022602736864917318,-0.0001668237601738132,-0.0005607110709211889,0.3514034152030945,34.13833236694336,3.7514312267303467,-19.459871292114258,-0.2603049874305725,-1.777347207069397,0.10470907390117645,0
6,0.02495288848876953,-0.4029781222343445,-34.16213607788086,-3.7990386486053467,19.511445999145508,0.2548118233680725,1.777347207069397,-0.07724325358867645,0.0,0.0,0.0,0.0,0.0,0.0,0.0,-0.38720848803703334,-0.07265008493874278,-0.24678028756422415,0.4547417521310176,0.20526130408409846,-0.1191934596996514,-0.09974753039109785,1.0544548300316456,0.3237790289973079,-0.3925156121003,-2.153509117224635,0.864748596872695,2.4659930933685072,0.5444886879863892,1.0544104758940245,0.3238615046091247,-0.39250456234122666,-2.153291787532338,0.8647539153680389,2.46587817577521,0.5445020185570556,0.00024597624746809313,0.0006186598037449143,-0.0005453020953778899,-0.0006345191264715463,-1.6985811749350874e-05,0.00028461366905705744,-0.0010043668401389088,0.0,0.0,0.0,0.0,0.0,0.0,0.0,-4.4354137621160916e-05,8.24756118167902e-05,1.1049759073344934e-05,0.00021732969229715238,5.3184953439089355e-06,-0.00011491759329729234,1.3330570666436614e-05,-0.00024597624746809313,-0.0006186598037449143,0.0005453020953778899,0.0006345191264715463,1.6985811749350874e-05,-0.00028461366905705744,0.0010043668401389088,0.4029781222343445,34.16213607788086,3.7990386486053467,-19.511445999145508,-0.2548118233680725,-1.777347207069397,0.07724325358867645,0
7,0.029999732971191406,-0.4029781222343445,-34.16213607788086,-3.7990386486053467,19.511445999145508,0.2548118233680725,1.777347207069397,-0.07724325358867645,0.0,0.0,0.0,0.0,0.0,0.0,0.0,-0.38720848803703334,-0.07265008493874278,-0.24678028756422415,0.4547417521310176,0.20526130408409846,-0.1191934596996514,-0.09974753039109785,1.0544548300316456,0.3237790289973079,-0.3925156121003,-2.153509117224635,0.864748596872695,2.4659930933685072,0.5444886879863892,1.0544104758940245,0.3238615046091247,-0.39250456234122666,-2.153291787532338,0.8647539153680389,2.46587817577521,0.5445020185570556,0.00024597624746809313,0.0006186598037449143,-0.0005453020953778899,-0.0006345191264715463,-1.6985811749350874e-05,0.00028461366905705744,-0.0010043668401389088,0.0,0.0,0.0,0.0,0.0,0.0,0.0,-4.4354137621160916e-05,8.24756118167902e-05,1.1049759073344934e-05,0.00021732969229715238,5.3184953439089355e-06,-0.00011491759329729234,1.3330570666436614e-05,-0.00024597624746809313,-0.0006186598037449143,0.0005453020953778899,0.0006345191264715463,1.6985811749350874e-05,-0.00028461366905705744,0.0010043668401389088,0.4029781222343445,34.16213607788086,3.7990386486053467,-19.511445999145508,-0.2548118233680725,-1.777347207069397,0.07724325358867645,0
8,0.029999732971191406,-0.4029781222343445,-34.16213607788086,-3.7990386486053467,19.511445999145508,0.2548118233680725,1.777347207069397,-0.07724325358867645,0.0,0.0,0.0,0.0,0.0,0.0,0.0,-0.38720848803703334,-0.07265008493874278,-0.24678028756422415,0.4547417521310176,0.20526130408409846,-0.1191934596996514,-0.09974753039109785,1.0544548300316456,0.3237790289973079,-0.3925156121003,-2.153509117224635,0.864748596872695,2.4659930933685072,0.5444886879863892,1.0544104758940245,0.3238615046091247,-0.39250456234122666,-2.153291787532338,0.8647539153680389,2.46587817577521,0.5445020185570556,0.00024597624746809313,0.0006186598037449143,-0.0005453020953778899,-0.0006345191264715463,-1.6985811749350874e-05,0.00028461366905705744,-0.0010043668401389088,0.0,0.0,0.0,0.0,0.0,0.0,0.0,-4.4354137621160916e-05,8.24756118167902e-05,1.1049759073344934e-05,0.00021732969229715238,5.3184953439089355e-06,-0.00011491759329729234,1.3330570666436614e-05,-0.00024597624746809313,-0.0006186598037449143,0.0005453020953778899,0.0006345191264715463,1.6985811749350874e-05,-0.00028461366905705744,0.0010043668401389088,0.4029781222343445,34.16213607788086,3.7990386486053467,-19.511445999145508,-0.2548118233680725,-1.777347207069397,0.07724325358867645,0
9,0.03999495506286621,-0.4029781222343445,-34.13833236694336,-3.8228423595428467,19.459871292114258,0.2548118233680725,1.783755898475647,-0.08365194499492645,0.0,0.0,0.0,0.0,0.0,0.0,0.0,-0.3930398167738319,-0.07243146345808155,-0.2524756576998726,0.4515488299627749,0.20577879231753313,-0.11906219150195695,-0.0999007115269624,1.0544548300316456,0.32377532277615584,-0.3925139415564378,-2.1535057454219513,0.8647485969265298,2.4659918653893405,0.5444862229433196,1.0544104758940245,0.3238615046091247,-0.39250456234122666,-2.153291787532338,0.8647539153680389,2.46587817577521,0.5445020185570556,-0.0003452898552368704,1.0838283565635552e-07,3.17161378803318e-05,0.0002620712494133717,0.00018093220968282367,5.355268442580937e-05,-0.0006204608707487238,0.0,0.0,0.0,0.0,0.0,0.0,0.0,-4.4354137621160916e-05,8.618183296887905e-05,9.379215211158254e-06,0.00021395788961342532,5.318441509083449e-06,-0.00011368961413049661,1.5795613735991587e-05,0.0003452898552368704,-1.0838283565635552e-07,-3.17161378803318e-05,-0.0002620712494133717,-0.00018093220968282367,-5.355268442580937e-05,0.0006204608707487238,0.4029781222343445,34.13833236694336,3.8228423595428467,-19.459871292114258,-0.2548118233680725,-1.783755898475647,0.08365194499492645,0
10,0.04499673843383789,-0.4029781222343445,-34.13833236694336,-3.8228423595428467,19.459871292114258,0.2548118233680725,1.783755898475647,-0.08365194499492645,0.0,0.0,0.0,0.0,0.0,0.0,0.0,-0.3930398167738319,-0.07243146345808155,-0.2524756576998726,0.4515488299627749,0.20577879231753313,-0.11906219150195695,-0.0999007115269624,1.0544548300316456,0.32377532277615584,-0.3925139415564378,-2.1535057454219513,0.8647485969265298,2.4659918653893405,0.5444862229433196,1.0544104758940245,0.3238615046091247,-0.39250456234122666,-2.153291787532338,0.8647539153680389,2.46587817577521,0.5445020185570556,-0.0003452898552368704,1.0838283565635552e-07,3.17161378803318e-05,0.0002620712494133717,0.00018093220968282367,5.355268442580937e-05,-0.0006204608707487238,0.0,0.0,0.0,0.0,0.0,0.0,0.0,-4.4354137621160916e-05,8.618183296887905e-05,9.379215211158254e-06,0.00021395788961342532,5.318441509083449e-06,-0.00011368961413049661,1.5795613735991587e-05,0.0003452898552368704,-1.0838283565635552e-07,-3.17161378803318e-05,-0.0002620712494133717,-0.00018093220968282367,-5.355268442580937e-05,0.0006204608707487238,0.4029781222343445,34.13833236694336,3.8228423595428467,-19.459871292114258,-0.2548118233680725,-1.783755898475647,0.08365194499492645,0
11,0.04999542236328125,-0.4267818331718445,-34.16213607788086,-3.8228423595428467,19.511445999145508,0.2603049874305725,1.783755898475647,-0.09097616374492645,0.0,0.0,0.0,0.0,0.0,0.0,0.0,-0.38129479229052593,-0.06498090492210958,-0.24154543872603174,0.4482715897335462,0.20546791321370345,-0.12057962102588454,-0.09956813373750847,1.054456500467501,0.32377911164704276,-0.39251370253725926,-2.1535093371912506,0.8647479865749677,2.465992380912249,0.544487034789401,1.0544104758940245,0.3238615046091247,-0.39250456234122666,-2.153291787532338,0.8647539153680389,2.46587817577521,0.5445020185570556,0.000535252593583599,0.0009108026147327394,0.00022107413315899585,-0.000792547400620966,-0.00014586113485220374,5.556030818094045e-05,-0.0007100512057149215,0.0,0.0,0.0,0.0,0.0,0.0,0.0,-4.60245734765774e-05,8.239296208195634e-05,9.140196032597636e-06,0.00021754965891274125,5.928793071263705e-06,-0.0001142051370388586,1.4983767654630498e-05,-0.000535252593583599,-0.0009108026147327394,-0.00022107413315899585,0.000792547400620966,0.00014586113485220374,-5.556030818094045e-05,0.0007100512057149215,0.4267818331718445,34.16213607788086,3.8228423595428467,-19.511445999145508,-0.2603049874305725,-1.783755898475647,0.09097616374492645,0
12,0.05500388145446777,-0.4267818331718445,-34.16213607788086,-3.8228423595428467,19.511445999145508,0.2603049874305725,1.783755898475647,-0.09097616374492645,0.0,0.0,0.0,0.0,0.0,0.0,0.0,-0.38129479229052593,-0.06498090492210958,-0.24154543872603174,0.4482715897335462,0.20546791321370345,-0.12057962102588454,-0.09956813373750847,1.054456500467501,0.32377911164704276,-0.39251370253725926,-2.1535093371912506,0.8647479865749677,2.465992380912249,0.544487034789401,1.0544104758940245,0.3238615046091247,-0.39250456234122666,-2.153291787532338,0.8647539153680389,2.46587817577521,0.5445020185570556,0.000535252593583599,0.0009108026147327394,0.00022107413315899585,-0.000792547400620966,-0.00014586113485220374,5.556030818094045e-05,-0.0007100512057149215,0.0,0.0,0.0,0.0,0.0,0.0,0.0,-4.60245734765774e-05,8.239296208195634e-05,9.140196032597636e-06,0.00021754965891274125,5.928793071263705e-06,-0.0001142051370388586,1.4983767654630498e-05,-0.000535252593583599,-0.0009108026147327394,-0.00022107413315899585,0.000792547400620966,0.00014586113485220374,-5.556030818094045e-05,0.0007100512057149215,0.4267818331718445,34.16213607788086,3.8228423595428467,-19.511445999145508,-0.2603049874305725,-1.783755898475647,0.09097616374492645,0
13,0.06004452705383301,-0.3752071261405945,-34.11452865600586,-3.7990386486053467,19.487642288208008,0.2548118233680725,1.783755898475647,-0.11844198405742645,0.0,0.0,0.0,0.0,0.0,0.0,0.0,-0.3847785278196752,-0.06621328773527119,-0.2441371916345754,0.44925763469835284,0.20553504877162923,-0.12009680101260459,-0.09965934728363848,1.0544528811898146,0.32377577906781674,-0.39251561177492955,-2.1535076668682938,0.8647485969265302,2.465991321761546,0.5444900865472025,1.0544104758940245,0.3238615046091247,-0.39250456234122666,-2.153291787532338,0.8647539153680389,2.46587817577521,0.5445020185570556,-0.0002236755955231475,-0.00013853424695324984,-0.00043879936087476765,-0.0002796335738848803,0.00032769378111669373,3.3153623007471566e-05,0.0005393825799676741,0.0,0.0,0.0,0.0,0.0,0.0,0.0,-4.240529579013774e-05,8.572554130797938e-05,1.104943370289213e-05,0.00021587933595590414,5.318441508750382e-06,-0.00011314598633616058,1.1932009853055092e-05,0.0002236755955231475,0.00013853424695324984,0.00043879936087476765,0.0002796335738848803,-0.00032769378111669373,-3.3153623007471566e-05,-0.0005393825799676741,0.3752071261405945,34.11452865600586,3.7990386486053467,-19.487642288208008,-0.2548118233680725,-1.783755898475647,0.11844198405742645,0
14,0.06499862670898438,-0.3752071261405945,-34.11452865600586,-3.7990386486053467,19.487642288208008,0.2548118233680725,1.783755898475647,-0.11844198405742645,0.0,0.0,0.0,0.0,0.0,0.0,0.0,-0.3847785278196752,-0.06621328773527119,-0.2441371916345754,0.44925763469835284,0.20553504877162923,-0.12009680101260459,-0.09965934728363848,1.0544528811898146,0.32377577906781674,-0.39251561177492955,-2.1535076668682938,0.8647485969265302,2.465991321761546,0.5444900865472025,1.0544104758940245,0.3238615046091247,-0.39250456234122666,-2.153291787532338,0.8647539153680389,2.46587817577521,0.5445020185570556,-0.0002236755955231475,-0.00013853424695324984,-0.00043879936087476765,-0.0002796335738848803,0.00032769378111669373,3.3153623007471566e-05,0.0005393825799676741,0.0,0.0,0.0,0.0,0.0,0.0,0.0,-4.240529579013774e-05,8.572554130797938e-05,1.104943370289213e-05,0.00021587933595590414,5.318441508750382e-06,-0.00011314598633616058,1.1932009853055092e-05,0.0002236755955231475,0.00013853424695324984,0.00043879936087476765,0.0002796335738848803,-0.00032769378111669373,-3.3153623007471566e-05,-0.0005393825799676741,0.3752071261405945,34.11452865600586,3.7990386486053467,-19.487642288208008,-0.2548118233680725,-1.783755898475647,0.11844198405742645,0
15,0.06995606422424316,-0.3752071261405945,-34.11452865600586,-3.7990386486053467,19.487642288208008,0.2548118233680725,1.783755898475647,-0.11844198405742645,0.0,0.0,0.0,0.0,0.0,0.0,0.0,-0.3847785278196752,-0.06621328773527119,-0.2441371916345754,0.44925763469835284,0.20553504877162923,-0.12009680101260459,-0.09965934728363848,1.0544528811898146,0.32377577906781674,-0.39251561177492955,-2.1535076668682938,0.8647485969265302,2.465991321761546,0.5444900865472025,1.0544104758940245,0.3238615046091247,-0.39250456234122666,-2.153291787532338,0.8647539153680389,2.46587817577521,0.5445020185570556,-0.0002236755955231475,-0.00013853424695324984,-0.00043879936087476765,-0.0002796335738848803,0.00032769378111669373,3.3153623007471566e-05,0.0005393825799676741,0.0,0.0,0.0,0.0,0.0,0.0,0.0,-4.240529579013774e-05,8.572554130797938e-05,1.104943370289213e-05,0.00021587933595590414,5.318441508750382e-06,-0.00011314598633616058,1.1932009853055092e-05,0.0002236755955231475,0.00013853424695324984,0.00043879936087476765,0.0002796335738848803,-0.00032769378111669373,-3.3153623007471566e-05,-0.0005393825799676741,0.3752071261405945,34.11452865600586,3.7990386486053467,-19.487642288208008,-0.2548118233680725,-1.783755898475647,0.11844198405742645,0
16,0.07499980926513672,-0.3752071261405945,-34.11452865600586,-3.7990386486053467,19.487642288208008,0.2548118233680725,1.783755898475647,-0.11844198405742645,0.0,0.0,0.0,0.0,0.0,0.0,0.0,-0.3847785278196752,-0.06621328773527119,-0.2441371916345754,0.44925763469835284,0.20553504877162923,-0.12009680101260459,-0.09965934728363848,1.0544528811898146,0.32377577906781674,-0.39251561177492955,-2.1535076668682938,0.8647485969265302,2.465991321761546,0.5444900865472025,1.0544104758940245,0.3238615046091247,-0.39250456234122666,-2.153291787532338,0.8647539153680389,2.46587817577521,0.5445020185570556,-0.0002236755955231475,-0.00013853424695324984,-0.00043879936087476765,-0.0002796335738848803,0.00032769378111669373,3.3153623007471566e-05,0.0005393825799676741,0.0,0.0,0.0,0.0,0.0,0.0,0.0,-4.240529579013774e-05,8.572554130797938e-05,1.104943370289213e-05,0.00021587933595590414,5.318441508750382e-06,-0.00011314598633616058,1.1932009853055092e-05,0.0002236755955231475,0.00013853424695324984,0.00043879936087476765,0.0002796335738848803,-0.00032769378111669373,-3.3153623007471566e-05,-0.0005393825799676741,0.3752071261405945,34.11452865600586,3.7990386486053467,-19.487642288208008,-0.2548118233680725,-1.783755898475647,0.11844198405742645,0
17,0.07999920845031738,-0.3236324191093445,-34.13833236694336,-3.7990386486053467,19.487642288208008,0.2667136788368225,1.790164589881897,-0.11111776530742645,0.0,0.0,0.0,0.0,0.0,0.0,0.0,-0.3830237774476283,-0.07723333030773648,-0.24278215187173094,0.45824649040433046,0.20567472082411198,-0.1194523194625644,-0.10037749962220034,1.0544492619121282,0.3237765041556194,-0.39251561210025043,-2.15350692108531,0.8647467904659129,2.465987273679233,0.5444892727451192,1.0544104758940245,0.3238615046091247,-0.39250456234122666,-2.153291787532338,0.8647539153680389,2.46587817577521,0.5445020185570556,-0.00143835340431831,-0.0001726781167699934,-8.12806693964725e-05,0.00022765008405228616,-0.0002986845219546629,-0.00023411176671488148,0.00032971016992024453,0.0,0.0,0.0,0.0,0.0,0.0,0.0,-3.878601810369808e-05,8.500045350529062e-05,1.1049759023773476e-05,0.00021513355297209102,7.124902126065535e-06,-0.0001090979040232476,1.2745811936443197e-05,0.00143835340431831,0.0001726781167699934,8.12806693964725e-05,-0.00022765008405228616,0.0002986845219546629,0.00023411176671488148,-0.00032971016992024453,0.3236324191093445,34.13833236694336,3.7990386486053467,-19.487642288208008,-0.2667136788368225,-1.790164589881897,0.11111776530742645,0
18,0.08499813079833984,-0.3236324191093445,-34.13833236694336,-3.7990386486053467,19.487642288208008,0.2667136788368225,1.790164589881897,-0.11111776530742645,0.0,0.0,0.0,0.0,0.0,0.0,0.0,-0.3830237774476283,-0.07723333030773648,-0.24278215187173094,0.45824649040433046,0.20567472082411198,-0.1194523194625644,-0.10037749962220034,1.0544492619121282,0.3237765041556194,-0.39251561210025043,-2.15350692108531,0.8647467904659129,2.465987273679233,0.5444892727451192,1.0544104758940245,0.3238615046091247,-0.39250456234122666,-2.153291787532338,0.8647539153680389,2.46587817577521,0.5445020185570556,-0.00143835340431831,-0.0001726781167699934,-8.12806693964725e-05,0.00022765008405228616,-0.0002986845219546629,-0.00023411176671488148,0.00032971016992024453,0.0,0.0,0.0,0.0,0.0,0.0,0.0,-3.878601810369808e-05,8.500045350529062e-05,1.1049759023773476e-05,0.00021513355297209102,7.124902126065535e-06,-0.0001090979040232476,1.2745811936443197e-05,0.00143835340431831,0.0001726781167699934,8.12806693964725e-05,-0.00022765008405228616,0.0002986845219546629,0.00023411176671488148,-0.00032971016992024453,0.3236324191093445,34.13833236694336,3.7990386486053467,-19.487642288208008,-0.2667136788368225,-1.790164589881897,0.11111776530742645,0
19,0.08995556831359863,-0.4029781222343445,-34.13833236694336,-3.7752349376678467,19.535249710083008,0.2603049874305725,1.796573281288147,-0.06991903483867645,0.0,0.0,0.0,0.0,0.0,0.0,0.0,-0.3850902116682142,-0.06545027419315358,-0.24504705659592946,0.45184436855966154,0.20659553580335183,-0.12065286617252202,-0.09977210505516197,1.0544548300316456,0.32377665828007857,-0.3925172786439081,-2.153510997602939,0.8647479865749339,2.465990955846012,0.544485048805627,1.0544104758940245,0.3238615046091247,-0.39250456234122666,-2.153291787532338,0.8647539153680389,2.46587817577521,0.5445020185570556,0.0007660040302014529,0.0002804506019839321,-0.0007227241803958148,-0.0012166509232144707,4.553639660761023e-05,-0.0004954219011030404,-0.0009845217838071309,0.0,0.0,0.0,0.0,0.0,0.0,0.0,-4.4354137621160916e-05,8.484632904615097e-05,1.271630268145918e-05,0.0002192100706013278,5.928793105014485e-06,-0.00011278007080184338,1.696975142861934e-05,-0.0007660040302014529,-0.0002804506019839321,0.0007227241803958148,0.0012166509232144707,-4.553639660761023e-05,0.0004954219011030404,0.0009845217838071309,0.4029781222343445,34.13833236694336,3.7752349376678467,-19.535249710083008,-0.2603049874305725,-1.796573281288147,0.06991903483867645,0
20,0.09500885009765625,-0.4029781222343445,-34.13833236694336,-3.7752349376678467,19.535249710083008,0.2603049874305725,1.796573281288147,-0.06991903483867645,0.0,0.0,0.0,0.0,0.0,0.0,0.0,-0.3850902116682142,-0.06545027419315358,-0.24504705659592946,0.45184436855966154,0.20659553580335183,-0.12065286617252202,-0.09977210505516197,1.0544548300316456,0.32377665828007857,-0.3925172786439081,-2.153510997602939,0.8647479865749339,2.465990955846012,0.544485048805627,1.0544104758940245,0.3238615046091247,-0.39250456234122666,-2.153291787532338,0.8647539153680389,2.46587817577521,0.5445020185570556,0.0007660040302014529,0.0002804506019839321,-0.0007227241803958148,-0.0012166509232144707,4.553639660761023e-05,-0.0004954219011030404,-0.0009845217838071309,0.0,0.0,0.0,0.0,0.0,0.0,0.0,-4.4354137621160916e-05,8.484632904615097e-05,1.271630268145918e-05,0.0002192100706013278,5.928793105014485e-06,-0.00011278007080184338,1.696975142861934e-05,-0.0007660040302014529,-0.0002804506019839321,0.0007227241803958148,0.0012166509232144707,-4.553639660761023e-05,0.0004954219011030404,0.0009845217838071309,0.4029781222343445,34.13833236694336,3.7752349376678467,-19.535249710083008,-0.2603049874305725,-1.796573281288147,0.06991903483867645,0
21,0.09999537467956543,-0.3514034152030945,-34.11452865600586,-3.7990386486053467,19.487642288208008,0.2548118233680725,1.790164589881897,-0.13858358561992645,0.0,0.0,0.0,0.0,0.0,0.0,0.0,-0.3868121878271363,-0.06944801190809294,-0.25016658858814916,0.4556482458835662,0.20714490597756638,-0.11968537290562707,-0.1000754351325846,1.0544512107539592,0.3237735716192219,-0.392515609076086,-2.153507694378021,0.8647482044679637,2.4659916299154854,0.5444923245049283,1.0544104758940245,0.3238615046091247,-0.39250456234122666,-2.153291787532338,0.8647539153680389,2.46587817577521,0.5445020185570556,-0.000696650889708832,-0.0003591112227547419,-0.0001840676999803796,0.000149105098865521,0.0001418945090808663,-5.699878592220644e-05,0.001618805605773045,0.0,0.0,0.0,0.0,0.0,0.0,0.0,-4.073485993472126e-05,8.793298990283915e-05,1.104673485935459e-05,0.0002159068456832891,5.710900075173164e-06,-0.00011345414027541523,9.694052127251496e-06,0.000696650889708832,0.0003591112227547419,0.0001840676999803796,-0.000149105098865521,-0.0001418945090808663,5.699878592220644e-05,-0.001618805605773045,0.3514034152030945,34.11452865600586,3.7990386486053467,-19.487642288208008,-0.2548118233680725,-1.790164589881897,0.13858358561992645,0
22,0.1049957275390625,-0.3514034152030945,-34.11452865600586,-3.7990386486053467,19.487642288208008,0.2548118233680725,1.790164589881897,-0.13858358561992645,0.0,0.0,0.0,0.0,0.0,0.0,0.0,-0.3868121878271363,-0.06944801190809294,-0.25016658858814916,0.4556482458835662,0.20714490597756638,-0.11968537290562707,-0.1000754351325846,1.0544512107539592,0.3237735716192219,-0.392515609076086,-2.153507694378021,0.8647482044679637,2.4659916299154854,0.5444923245049283,1.0544104758940245,0.3238615046091247,-0.39250456234122666,-2.153291787532338,0.8647539153680389,2.46587817577521,0.5445020185570556,-0.000696650889708832,-0.0003591112227547419,-0.0001840676999803796,0.000149105098865521,0.0001418945090808663,-5.699878592220644e-05,0.001618805605773045,0.0,0.0,0.0,0.0,0.0,0.0,0.0,-4.073485993472126e-05,8.793298990283915e-05,1.104673485935459e-05,0.0002159068456832891,5.710900075173164e-06,-0.00011345414027541523,9.694052127251496e-06,0.000696650889708832,0.0003591112227547419,0.0001840676999803796,-0.000149105098865521,-0.0001418945090808663,5.699878592220644e-05,-0.001618805605773045,0.3514034152030945,34.11452865600586,3.7990386486053467,-19.487642288208008,-0.2548118233680725,-1.790164589881897,0.13858358561992645,0
23,0.10995006561279297,-0.3752071261405945,-34.11452865600586,-3.7514312267303467,19.487642288208008,0.2548118233680725,1.783755898475647,-0.13217489421367645,0.0,0.0,0.0,0.0,0.0,0.0,0.0,-0.3789440905135808,-0.07142220620471673,-0.24455994853647658,0.4557017732472639,0.20711578272620473,-0.12002100373168163,-0.10096145030124323,1.0544528811898146,0.3237757795234321,-0.39251895293599115,-2.1535076119619347,0.864748592563664,2.465992377038805,0.5444916560326161,1.0544104758940245,0.3238615046091247,-0.39250456234122666,-2.153291787532338,0.8647539153680389,2.46587817577521,0.5445020185570556,-2.1877875357412055e-05,-0.0007742908260103435,-0.0011604673582396884,-0.0003806724515689378,6.458311881583343e-05,0.00020323200040211467,0.0018111961686577643,0.0,0.0,0.0,0.0,0.0,0.0,0.0,-4.240529579013774e-05,8.572508569260062e-05,1.4390594764490672e-05,0.0002158244295968892,5.322804374929824e-06,-0.00011420126359507066,1.0362524439533338e-05,2.1877875357412055e-05,0.0007742908260103435,0.0011604673582396884,0.0003806724515689378,-6.458311881583343e-05,-0.00020323200040211467,-0.0018111961686577643,0.3752071261405945,34.11452865600586,3.7514312267303467,-19.487642288208008,-0.2548118233680725,-1.783755898475647,0.13217489421367645,0
24,0.1150212287902832,-0.3752071261405945,-34.11452865600586,-3.7514312267303467,19.487642288208008,0.2548118233680725,1.783755898475647,-0.13217489421367645,0.0,0.0,0.0,0.0,0.0,0.0,0.0,-0.3789440905135808,-0.07142220620471673,-0.24455994853647658,0.4557017732472639,0.20711578272620473,-0.12002100373168163,-0.10096145030124323,1.0544528811898146,0.3237757795234321,-0.39251895293599115,-2.1535076119619347,0.864748592563664,2.465992377038805,0.5444916560326161,1.0544104758940245,0.3238615046091247,-0.39250456234122666,-2.153291787532338,0.8647539153680389,2.46587817577521,0.5445020185570556,-2.1877875357412055e-05,-0.0007742908260103435,-0.0011604673582396884,-0.0003806724515689378,6.458311881583343e-05,0.00020323200040211467,0.0018111961686577643,0.0,0.0,0.0,0.0,0.0,0.0,0.0,-4.240529579013774e-05,8.572508569260062e-05,1.4390594764490672e-05,0.0002158244295968892,5.322804374929824e-06,-0.00011420126359507066,1.0362524439533338e-05,2.1877875357412055e-05,0.0007742908260103435,0.0011604673582396884,0.0003806724515689378,-6.458311881583343e-05,-0.00020323200040211467,-0.0018111961686577643,0.3752071261405945,34.11452865600586,3.7514312267303467,-19.487642288208008,-0.2548118233680725,-1.783755898475647,0.13217489421367645,0
25,0.12039518356323242,-0.3752071261405945,-34.16213607788086,-3.7990386486053467,19.487642288208008,0.2548118233680725,1.783755898475647,-0.13858358561992645,0.0,0.0,0.0,0.0,0.0,0.0,0.0,-0.3810155224490971,-0.07351729215585816,-0.2453979185578649,0.45684821655115476,0.2066763110385821,-0.11936019635585624,-0.10049395671017601,1.0544528811898146,0.32377617117232643,-0.3925156121002994,-2.1535076913243825,0.8647474980424703,2.4659923677254647,0.5444926782008966,1.0544104758940245,0.3238615046091247,-0.39250456234122666,-2.153291787532338,0.8647539153680389,2.46587817577521,0.5445020185570556,-0.00011305439475485019,0.00035042544606276384,-9.138421470719804e-05,2.3498029764998684e-05,0.00013718260947071358,0.00015753090947993222,0.0016594575425729996,0.0,0.0,0.0,0.0,0.0,0.0,0.0,-4.240529579013774e-05,8.533343679828498e-05,1.1049759072734311e-05,0.00021590379204461385,6.417325568608412e-06,-0.00011419195025474949,9.340356158960006e-06,0.00011305439475485019,-0.00035042544606276384,9.138421470719804e-05,-2.3498029764998684e-05,-0.00013718260947071358,-0.00015753090947993222,-0.0016594575425729996,0.3752071261405945,34.16213607788086,3.7990386486053467,-19.487642288208008,-0.2548118233680725,-1.783755898475647,0.13858358561992645,0
26,0.12500762939453125,-0.3752071261405945,-34.16213607788086,-3.7990386486053467,19.487642288208008,0.2548118233680725,1.783755898475647,-0.13858358561992645,0.0,0.0,0.0,0.0,0.0,0.0,0.0,-0.3810155224490971,-0.07351729215585816,-0.2453979185578649,0.45684821655115476,0.2066763110385821,-0.11936019635585624,-0.10049395671017601,1.0544528811898146,0.32377617117232643,-0.3925156121002994,-2.1535076913243825,0.8647474980424703,2.4659923677254647,0.5444926782008966,1.0544104758940245,0.3238615046091247,-0.39250456234122666,-2.153291787532338,0.8647539153680389,2.46587817577521,0.5445020185570556,-0.00011305439475485019,0.00035042544606276384,-9.138421470719804e-05,2.3498029764998684e-05,0.00013718260947071358,0.00015753090947993222,0.0016594575425729996,0.0,0.0,0.0,0.0,0.0,0.0,0.0,-4.240529579013774e-05,8.533343679828498e-05,1.1049759072734311e-05,0.00021590379204461385,6.417325568608412e-06,-0.00011419195025474949,9.340356158960006e-06,0.00011305439475485019,-0.00035042544606276384,9.138421470719804e-05,-2.3498029764998684e-05,-0.00013718260947071358,-0.00015753090947993222,-0.0016594575425729996,0.3752071261405945,34.16213607788086,3.7990386486053467,-19.487642288208008,-0.2548118233680725,-1.783755898475647,0.13858358561992645,0
27,0.12999725341796875,-0.4029781222343445,-34.13833236694336,-3.7990386486053467,19.487642288208008,0.2548118233680725,1.777347207069397,-0.07724325358867645,0.0,0.0,0.0,0.0,0.0,0.0,0.0,-0.374763661224856,-0.0683355569805554,-0.23826993296043317,0.4515347875673328,0.20602258077222974,-0.12019587808441903,-0.10095890966153862,1.0544548300316456,0.3237764254131414,-0.3925153749172386,-2.1535076667930744,0.8647485969244624,2.465992740263766,0.5444855220110465,1.0544104758940245,0.3238615046091247,-0.39250456234122666,-2.153291787532338,0.8647539153680389,2.46587817577521,0.5445020185570556,0.0007899758402770798,-0.00020813061537349064,0.00021022143252777552,-0.0003377516882009168,4.764901871683224e-05,0.00022355550761645897,-0.0012381848555966157,0.0,0.0,0.0,0.0,0.0,0.0,0.0,-4.4354137621160916e-05,8.507919598332858e-05,1.081257601193153e-05,0.00021587926073651786,5.318443576540766e-06,-0.00011456448855584611,1.6496546009103774e-05,-0.0007899758402770798,0.00020813061537349064,-0.00021022143252777552,0.0003377516882009168,-4.764901871683224e-05,-0.00022355550761645897,0.0012381848555966157,0.4029781222343445,34.13833236694336,3.7990386486053467,-19.487642288208008,-0.2548118233680725,-1.777347207069397,0.07724325358867645,0
28,0.13499951362609863,-0.4029781222343445,-34.13833236694336,-3.7990386486053467,19.487642288208008,0.2548118233680725,1.777347207069397,-0.07724325358867645,0.0,0.0,0.0,0.0,0.0,0.0,0.0,-0.374763661224856,-0.0683355569805554,-0.23826993296043317,0.4515347875673328,0.20602258077222974,-0.12019587808441903,-0.10095890966153862,1.0544548300316456,0.3237764254131414,-0.3925153749172386,-2.1535076667930744,0.8647485969244624,2.465992740263766,0.5444855220110465,1.0544104758940245,0.3238615046091247,-0.39250456234122666,-2.153291787532338,0.8647539153680389,2.46587817577521,0.5445020185570556,0.0007899758402770798,-0.00020813061537349064,0.00021022143252777552,-0.0003377516882009168,4.764901871683224e-05,0.00022355550761645897,-0.0012381848555966157,0.0,0.0,0.0,0.0,0.0,0.0,0.0,-4.4354137621160916e-05,8.507919598332858e-05,1.081257601193153e-05,0.00021587926073651786,5.318443576540766e-06,-0.00011456448855584611,1.6496546009103774e-05,-0.0007899758402770798,0.00020813061537349064,-0.00021022143252777552,0.0003377516882009168,-4.764901871683224e-05,-0.00022355550761645897,0.0012381848555966157,0.4029781222343445,34.13833236694336,3.7990386486053467,-19.487642288208008,-0.2548118233680725,-1.777347207069397,0.07724325358867645,0
29,0.13994336128234863,-0.3752071261405945,-34.13833236694336,-3.7752349376678467,19.487642288208008,0.2667136788368225,1.783755898475647,-0.08365194499492645,0.0,0.0,0.0,0.0,0.0,0.0,0.0,-0.3801956650007688,-0.06944106415943299,-0.24226761062475308,0.44841054627948884,0.2062790213798517,-0.12023183145547849,-0.10154978220497662,1.0544528811898146,0.3237752879566774,-0.3925165735777968,-2.153507693360593,0.864744091223106,2.4659891878401234,0.5444862209873806,1.0544104758940245,0.3238615046091247,-0.39250456234122666,-2.153291787532338,0.8647539153680389,2.46587817577521,0.5445020185570556,-0.00018302624229392,-0.0003208882300793715,-0.000980059972338422,-0.00045470847595500497,-0.00015101974953787918,-8.110149026911873e-05,-0.0014119325994730095,0.0,0.0,0.0,0.0,0.0,0.0,0.0,-4.240529579013774e-05,8.621665244729071e-05,1.2011236570130812e-05,0.00021590582825492532,9.824144932890633e-06,-0.00011101206491348492,1.5797569674957934e-05,0.00018302624229392,0.0003208882300793715,0.000980059972338422,0.00045470847595500497,0.00015101974953787918,8.110149026911873e-05,0.0014119325994730095,0.3752071261405945,34.13833236694336,3.7752349376678467,-19.487642288208008,-0.2667136788368225,-1.783755898475647,0.08365194499492645,0
30,0.14499449729919434,-0.3752071261405945,-34.13833236694336,-3.7752349376678467,19.487642288208008,0.2667136788368225,1.783755898475647,-0.08365194499492645,0.0,0.0,0.0,0.0,0.0,0.0,0.0,-0.3801956650007688,-0.06944106415943299,-0.24226761062475308,0.44841054627948884,0.2062790213798517,-0.12023183145547849,-0.10154978220497662,1.0544528811898146,0.3237752879566774,-0.3925165735777968,-2.153507693360593,0.864744091223106,2.4659891878401234,0.5444862209873806,1.0544104758940245,0.3238615046091247,-0.39250456234122666,-2.153291787532338,0.8647539153680389,2.46587817577521,0.5445020185570556,-0.00018302624229392,-0.0003208882300793715,-0.000980059972338422,-0.00045470847595500497,-0.00015101974953787918,-8.110149026911873e-05,-0.0014119325994730095,0.0,0.0,0.0,0.0,0.0,0.0,0.0,-4.240529579013774e-05,8.621665244729071e-05,1.2011236570130812e-05,0.00021590582825492532,9.824144932890633e-06,-0.00011101206491348492,1.5797569674957934e-05,0.00018302624229392,0.0003208882300793715,0.000980059972338422,0.00045470847595500497,0.00015101974953787918,8.110149026911873e-05,0.0014119325994730095,0.3752071261405945,34.13833236694336,3.7752349376678467,-19.487642288208008,-0.2667136788368225,-1.783755898475647,0.08365194499492645,0
31,0.1499934196472168,-0.3514034152030945,-34.21371078491211,-3.7752349376678467,19.459871292114258,0.2548118233680725,1.777347207069397,-0.05710165575146675,0.0,0.0,0.0,0.0,0.0,0.0,0.0,-0.3792436461050284,-0.07310676046741015,-0.24018534879449202,0.45071254498819396,0.2067192133234082,-0.12034991771142134,-0.10455885556777988,1.0544512107539592,0.32378200141020763,-0.39251720379515326,-2.1535056627809364,0.8647454179403372,2.465992622562029,0.5444832709551686,1.0544104758940245,0.3238615046091247,-0.39250456234122666,-2.153291787532338,0.8647539153680389,2.46587817577521,0.5445020185570556,-0.0007919159436710429,0.002117902253529265,-0.0006548575915244587,0.0006673276999987117,9.220465466079821e-05,0.0003886149984679726,-0.0021869944542583127,0.0,0.0,0.0,0.0,0.0,0.0,0.0,-4.073485993472126e-05,7.95031989170858e-05,1.2641453926598434e-05,0.00021387524859850515,8.497427701703586e-06,-0.00011444678681904463,1.8747601887025844e-05,0.0007919159436710429,-0.002117902253529265,0.0006548575915244587,-0.0006673276999987117,-9.220465466079821e-05,-0.0003886149984679726,0.0021869944542583127,0.3514034152030945,34.21371078491211,3.7752349376678467,-19.459871292114258,-0.2548118233680725,-1.777347207069397,0.05710165575146675,0
32,0.15499496459960938,-0.3514034152030945,-34.21371078491211,-3.7752349376678467,19.459871292114258,0.2548118233680725,1.777347207069397,-0.05710165575146675,0.0,0.0,0.0,0.0,0.0,0.0,0.0,-0.3792436461050284,-0.07310676046741015,-0.24018534879449202,0.45071254498819396,0.2067192133234082,-0.12034991771142134,-0.10455885556777988,1.0544512107539592,0.32378200141020763,-0.39251720379515326,-2.1535056627809364,0.8647454179403372,2.465992622562029,0.5444832709551686,1.0544104758940245,0.3238615046091247,-0.39250456234122666,-2.153291787532338,0.8647539153680389,2.46587817577521,0.5445020185570556,-0.0007919159436710429,0.002117902253529265,-0.0006548575915244587,0.0006673276999987117,9.220465466079821e-05,0.0003886149984679726,-0.0021869944542583127,0.0,0.0,0.0,0.0,0.0,0.0,0.0,-4.073485993472126e-05,7.95031989170858e-05,1.2641453926598434e-05,0.00021387524859850515,8.497427701703586e-06,-0.00011444678681904463,1.8747601887025844e-05,0.0007919159436710429,-0.002117902253529265,0.0006548575915244587,-0.0006673276999987117,-9.220465466079821e-05,-0.0003886149984679726,0.0021869944542583127,0.3514034152030945,34.21371078491211,3.7752349376678467,-19.459871292114258,-0.2548118233680725,-1.777347207069397,0.05710165575146675,0
33,0.1600170135498047,-0.3752071261405945,-34.13833236694336,-3.7752349376678467,19.511445999145508,0.2603049874305725,1.777347207069397,-0.12485067546367645,0.0,0.0,0.0,0.0,0.0,0.0,0.0,-0.38280307550539056,-0.06301309010744005,-0.24043815594966242,0.4451383499014487,0.2064515759131086,-0.1214018139626674,-0.10613116794063857,1.0544528811898146,0.3237753207951569,-0.3925172815519446,-2.1535091175650365,0.8647469269308565,2.46598987099061,0.5444909163615954,1.0544104758940245,0.3238615046091247,-0.39250456234122666,-2.153291787532338,0.8647539153680389,2.46587817577521,0.5445020185570556,-0.0006717699377336811,0.0004338582430111644,-0.0005593445903928682,-0.0009608163039979119,1.146218755766751e-05,0.00019192217224827917,0.0010152940489090855,0.0,0.0,0.0,0.0,0.0,0.0,0.0,-4.240529579013774e-05,8.61838139677995e-05,1.2719210717937468e-05,0.00021733003269863715,6.988437182386953e-06,-0.00011169521539988736,1.1102195460188646e-05,0.0006717699377336811,-0.0004338582430111644,0.0005593445903928682,0.0009608163039979119,-1.146218755766751e-05,-0.00019192217224827917,-0.0010152940489090855,0.3752071261405945,34.13833236694336,3.7752349376678467,-19.511445999145508,-0.2603049874305725,-1.777347207069397,0.12485067546367645,0
34,0.16500496864318848,-0.3752071261405945,-34.13833236694336,-3.7752349376678467,19.511445999145508,0.2603049874305725,1.777347207069397,-0.12485067546367645,0.0,0.0,0.0,0.0,0.0,0.0,0.0,-0.38280307550539056,-0.06301309010744005,-0.24043815594966242,0.4451383499014487,0.2064515759131086,-0.1214018139626674,-0.10613116794063857,1.0544528811898146,0.3237753207951569,-0.3925172815519446,-2.1535091175650365,0.8647469269308565,2.46598987099061,0.5444909163615954,1.0544104758940245,0.3238615046091247,-0.39250456234122666,-2.153291787532338,0.8647539153680389,2.46587817577521,0.5445020185570556,-0.0006717699377336811,0.0004338582430111644,-0.0005593445903928682,-0.0009608163039979119,1.146218755766751e-05,0.00019192217224827917,0.0010152940489090855,0.0,0.0,0.0,0.0,0.0,0.0,0.0,-4.240529579013774e-05,8.61838139677995e-05,1.2719210717937468e-05,0.00021733003269863715,6.988437182386953e-06,-0.00011169521539988736,1.1102195460188646e-05,0.0006717699377336811,-0.0004338582430111644,0.0005593445903928682,0.0009608163039979119,-1.146218755766751e-05,-0.00019192217224827917,-0.0010152940489090855,0.3752071261405945,34.13833236694336,3.7752349376678467,-19.511445999145508,-0.2603049874305725,-1.777347207069397,0.12485067546367645,0
35,0.16999459266662598,-0.3752071261405945,-34.16213607788086,-3.8228423595428467,19.487642288208008,0.2603049874305725,1.783755898475647,-0.13858358561992645,0.0,0.0,0.0,0.0,0.0,0.0,0.0,-0.38283748761269254,-0.07663326017292271,-0.2400189183032724,0.4558030996440903,0.20649743541169996,-0.12059082291496427,-0.10608192684817333,1.0544528811898146,0.3237788812759255,-0.39251393291453907,-2.1535069522923815,0.8647476319086994,2.465991317394891,0.5444923246644372,1.0544104758940245,0.3238615046091247,-0.39250456234122666,-2.153291787532338,0.8647539153680389,2.46587817577521,0.5445020185570556,-0.00012313508911155556,0.0004597079902896235,0.0003221022699142497,-4.425187378430882e-05,0.00011152261488846464,-2.808301074112046e-05,0.0011084798991411954,0.0,0.0,0.0,0.0,0.0,0.0,0.0,-4.240529579013774e-05,8.262333319919435e-05,9.370573312406094e-06,0.00021516476004368457,6.283459339506692e-06,-0.00011314161968112302,9.693892618400923e-06,0.00012313508911155556,-0.0004597079902896235,-0.0003221022699142497,4.425187378430882e-05,-0.00011152261488846464,2.808301074112046e-05,-0.0011084798991411954,0.3752071261405945,34.16213607788086,3.8228423595428467,-19.487642288208008,-0.2603049874305725,-1.783755898475647,0.13858358561992645,0
36,0.17499399185180664,-0.3752071261405945,-34.16213607788086,-3.8228423595428467,19.487642288208008,0.2603049874305725,1.783755898475647,-0.13858358561992645,0.0,0.0,0.0,0.0,0.0,0.0,0.0,-0.38283748761269254,-0.07663326017292271,-0.2400189183032724,0.4558030996440903,0.20649743541169996,-0.12059082291496427,-0.10608192684817333,1.0544528811898146,0.3237788812759255,-0.39251393291453907,-2.1535069522923815,0.8647476319086994,2.465991317394891,0.5444923246644372,1.0544104758940245,0.3238615046091247,-0.39250456234122666,-2.153291787532338,0.8647539153680389,2.46587817577521,0.5445020185570556,-0.00012313508911155556,0.0004597079902896235,0.0003221022699142497,-4.425187378430882e-05,0.00011152261488846464,-2.808301074112046e-05,0.0011084798991411954,0.0,0.0,0.0,0.0,0.0,0.0,0.0,-4.240529579013774e-05,8.262333319919435e-05,9.370573312406094e-06,0.00021516476004368457,6.283459339506692e-06,-0.00011314161968112302,9.693892618400923e-06,0.00012313508911155556,-0.0004597079902896235,-0.0003221022699142497,4.425187378430882e-05,-0.00011152261488846464,2.808301074112046e-05,-0.0011084798991411954,0.3752071261405945,34.16213607788086,3.8228423595428467,-19.487642288208008,-0.2603049874305725,-1.783755898475647,0.13858358561992645,0
37,0.17999267578125,-0.3752071261405945,-34.16213607788086,-3.8228423595428467,19.487642288208008,0.2603049874305725,1.783755898475647,-0.13858358561992645,0.0,0.0,0.0,0.0,0.0,0.0,0.0,-0.38283748761269254,-0.07663326017292271,-0.2400189183032724,0.4558030996440903,0.20649743541169996,-0.12059082291496427,-0.10608192684817333,1.0544528811898146,0.3237788812759255,-0.39251393291453907,-2.1535069522923815,0.8647476319086994,2.465991317394891,0.5444923246644372,1.0544104758940245,0.3238615046091247,-0.39250456234122666,-2.153291787532338,0.8647539153680389,2.46587817577521,0.5445020185570556,-0.00012313508911155556,0.0004597079902896235,0.0003221022699142497,-4.425187378430882e-05,0.00011152261488846464,-2.808301074112046e-05,0.0011084798991411954,0.0,0.0,0.0,0.0,0.0,0.0,0.0,-4.240529579013774e-05,8.262333319919435e-05,9.370573312406094e-06,0.00021516476004368457,6.283459339506692e-06,-0.00011314161968112302,9.693892618400923e-06,0.00012313508911155556,-0.0004597079902896235,-0.0003221022699142497,4.425187378430882e-05,-0.00011152261488846464,2.808301074112046e-05,-0.0011084798991411954,0.3752071261405945,34.16213607788086,3.8228423595428467,-19.487642288208008,-0.2603049874305725,-1.783755898475647,0.13858358561992645,0
38,0.18500304222106934,-0.3752071261405945,-34.16213607788086,-3.8228423595428467,19.487642288208008,0.2603049874305725,1.783755898475647,-0.13858358561992645,0.0,0.0,0.0,0.0,0.0,0.0,0.0,-0.38283748761269254,-0.07663326017292271,-0.2400189183032724,0.4558030996440903,0.20649743541169996,-0.12059082291496427,-0.10608192684817333,1.0544528811898146,0.3237788812759255,-0.39251393291453907,-2.1535069522923815,0.8647476319086994,2.465991317394891,0.5444923246644372,1.0544104758940245,0.3238615046091247,-0.39250456234122666,-2.153291787532338,0.8647539153680389,2.46587817577521,0.5445020185570556,-0.00012313508911155556,0.0004597079902896235,0.0003221022699142497,-4.425187378430882e-05,0.00011152261488846464,-2.808301074112046e-05,0.0011084798991411954,0.0,0.0,0.0,0.0,0.0,0.0,0.0,-4.240529579013774e-05,8.262333319919435e-05,9.370573312406094e-06,0.00021516476004368457,6.283459339506692e-06,-0.00011314161968112302,9.693892618400923e-06,0.00012313508911155556,-0.0004597079902896235,-0.0003221022699142497,4.425187378430882e-05,-0.00011152261488846464,2.808301074112046e-05,-0.0011084798991411954,0.3752071261405945,34.16213607788086,3.8228423595428467,-19.487642288208008,-0.2603049874305725,-1.783755898475647,0.13858358561992645,0
39,0.1900315284729004,-0.3752071261405945,-34.13833236694336,-3.7990386486053467,19.412263870239258,0.2548118233680725,1.796573281288147,-0.12485067546367645,0.0,0.0,0.0,0.0,0.0,0.0,0.0,-0.3868897065063713,-0.06340084763091476,-0.2406084743512702,0.44821953458951846,0.20725472123271957,-0.12169433314906018,-0.10499805959086922,1.0544528811898146,0.32377741463735366,-0.39251490346730084,-2.153502321905027,0.8647482437138121,2.4659909567435463,0.5444908030026212,1.0544104758940245,0.3238615046091247,-0.39250456234122666,-2.153291787532338,0.8647539153680389,2.46587817577521,0.5445020185570556,-0.0005589103591957917,0.00032590713431294624,-0.00016812830298854587,0.0013168146368305717,0.00017273061618850707,-0.00047738207293992547,0.0006994084915657823,0.0,0.0,0.0,0.0,0.0,0.0,0.0,-4.240529579013774e-05,8.408997177106192e-05,1.0341126074175921e-05,0.0002105343726892528,5.671654226824252e-06,-0.00011278096833633455,1.1215554434396147e-05,0.0005589103591957917,-0.00032590713431294624,0.00016812830298854587,-0.0013168146368305717,-0.00017273061618850707,0.00047738207293992547,-0.0006994084915657823,0.3752071261405945,34.13833236694336,3.7990386486053467,-19.412263870239258,-0.2548118233680725,-1.796573281288147,0.12485067546367645,0
40,0.19501757621765137,-0.3752071261405945,-34.13833236694336,-3.7990386486053467,19.412263870239258,0.2548118233680725,1.796573281288147,-0.12485067546367645,0.0,0.0,0.0,0.0,0.0,0.0,0.0,-0.3868897065063713,-0.06340084763091476,-0.2406084743512702,0.44821953458951846,0.20725472123271957,-0.12169433314906018,-0.10499805959086922,1.0544528811898146,0.32377741463735366,-0.39251490346730084,-2.153502321905027,0.8647482437138121,2.4659909567435463,0.5444908030026212,1.0544104758940245,0.3238615046091247,-0.39250456234122666,-2.153291787532338,0.8647539153680389,2.46587817577521,0.5445020185570556,-0.0005589103591957917,0.00032590713431294624,-0.00016812830298854587,0.0013168146368305717,0.00017273061618850707,-0.00047738207293992547,0.0006994084915657823,0.0,0.0,0.0,0.0,0.0,0.0,0.0,-4.240529579013774e-05,8.408997177106192e-05,1.0341126074175921e-05,0.0002105343726892528,5.671654226824252e-06,-0.00011278096833633455,1.1215554434396147e-05,0.0005589103591957917,-0.00032590713431294624,0.00016812830298854587,-0.0013168146368305717,-0.00017273061618850707,0.00047738207293992547,-0.0006994084915657823,0.3752071261405945,34.13833236694336,3.7990386486053467,-19.412263870239258,-0.2548118233680725,-1.796573281288147,0.12485067546367645,0
41,0.20000100135803223,-0.4029781222343445,-34.11452865600586,-3.7990386486053467,19.511445999145508,0.2548118233680725,1.777347207069397,-0.09097616374492645,0.0,0.0,0.0,0.0,0.0,0.0,0.0,-0.3804647483521912,-0.06670906948351833,-0.2356528652189144,0.4508245617449514,0.20628681031029372,-0.1207603641204402,-0.10393887096472168,1.0544548300316456,0.3237754294494656,-0.39251561112423805,-2.1535093556185707,0.8647485969245363,2.4659916413798024,0.5444902529496592,1.0544104758940245,0.3238615046091247,-0.39250456234122666,-2.153291787532338,0.8647539153680389,2.46587817577521,0.5445020185570556,0.0005110475580002165,-0.0003367277486303717,0.00023523105594256975,-0.0008112544847955044,0.00025147066807437176,0.00043196442805553835,-0.0004532762843023871,0.0,0.0,0.0,0.0,0.0,0.0,0.0,-4.4354137621160916e-05,8.607515965913803e-05,1.104878301139145e-05,0.0002175680862328555,5.318443502599912e-06,-0.00011346560459246646,1.1765607396352351e-05,-0.0005110475580002165,0.0003367277486303717,-0.00023523105594256975,0.0008112544847955044,-0.00025147066807437176,-0.00043196442805553835,0.0004532762843023871,0.4029781222343445,34.11452865600586,3.7990386486053467,-19.511445999145508,-0.2548118233680725,-1.777347207069397,0.09097616374492645,0
42,0.20495223999023438,-0.4029781222343445,-34.11452865600586,-3.7990386486053467,19.511445999145508,0.2548118233680725,1.777347207069397,-0.09097616374492645,0.0,0.0,0.0,0.0,0.0,0.0,0.0,-0.3804647483521912,-0.06670906948351833,-0.2356528652189144,0.4508245617449514,0.20628681031029372,-0.1207603641204402,-0.10393887096472168,1.0544548300316456,0.3237754294494656,-0.39251561112423805,-2.1535093556185707,0.8647485969245363,2.4659916413798024,0.5444902529496592,1.0544104758940245,0.3238615046091247,-0.39250456234122666,-2.153291787532338,0.8647539153680389,2.46587817577521,0.5445020185570556,0.0005110475580002165,-0.0003367277486303717,0.00023523105594256975,-0.0008112544847955044,0.00025147066807437176,0.00043196442805553835,-0.0004532762843023871,0.0,0.0,0.0,0.0,0.0,0.0,0.0,-4.4354137621160916e-05,8.607515965913803e-05,1.104878301139145e-05,0.0002175680862328555,5.318443502599912e-06,-0.00011346560459246646,1.1765607396352351e-05,-0.0005110475580002165,0.0003367277486303717,-0.00023523105594256975,0.0008112544847955044,-0.00025147066807437176,-0.00043196442805553835,0.0004532762843023871,0.4029781222343445,34.11452865600586,3.7990386486053467,-19.511445999145508,-0.2548118233680725,-1.777347207069397,0.09097616374492645,0
43,0.20996356010437012,-0.4029781222343445,-34.13833236694336,-3.7990386486053467,19.487642288208008,0.2667136788368225,1.783755898475647,-0.11111776530742645,0.0,0.0,0.0,0.0,0.0,0.0,0.0,-0.3914193162943949,-0.06062164347770057,-0.24259212902570781,0.44677107824355683,0.20684914202413526,-0.12026266059659457,-0.10276106055343083,1.0544548300316456,0.32377427420942795,-0.39251561206429586,-2.1535076665669552,0.8647440955299216,2.4659913169674845,0.544490332389304,1.0544104758940245,0.3238615046091247,-0.39250456234122666,-2.153291787532338,0.8647539153680389,2.46587817577521,0.5445020185570556,0.000317019749261031,0.0005312020191548559,-0.000175455157814575,-0.0002425551666405559,-0.00029635244719481774,-5.096069443949943e-05,0.0005501269079898402,0.0,0.0,0.0,0.0,0.0,0.0,0.0,-4.4354137621160916e-05,8.723039969676938e-05,1.1049723069200823e-05,0.00021587903461739444,9.81983811731979e-06,-0.00011314119227456843,1.168616775160114e-05,-0.000317019749261031,-0.0005312020191548559,0.000175455157814575,0.0002425551666405559,0.00029635244719481774,5.096069443949943e-05,-0.0005501269079898402,0.4029781222343445,34.13833236694336,3.7990386486053467,-19.487642288208008,-0.2667136788368225,-1.783755898475647,0.11111776530742645,0
44,0.21501469612121582,-0.4029781222343445,-34.13833236694336,-3.7990386486053467,19.487642288208008,0.2667136788368225,1.783755898475647,-0.11111776530742645,0.0,0.0,0.0,0.0,0.0,0.0,0.0,-0.3914193162943949,-0.06062164347770057,-0.24259212902570781,0.44677107824355683,0.20684914202413526,-0.12026266059659457,-0.10276106055343083,1.0544548300316456,0.32377427420942795,-0.39251561206429586,-2.1535076665669552,0.8647440955299216,2.4659913169674845,0.544490332389304,1.0544104758940245,0.3238615046091247,-0.39250456234122666,-2.153291787532338,0.8647539153680389,2.46587817577521,0.5445020185570556,0.000317019749261031,0.0005312020191548559,-0.000175455157814575,-0.0002425551666405559,-0.00029635244719481774,-5.096069443949943e-05,0.0005501269079898402,0.0,0.0,0.0,0.0,0.0,0.0,0.0,-4.4354137621160916e-05,8.723039969676938e-05,1.1049723069200823e-05,0.00021587903461739444,9.81983811731979e-06,-0.00011314119227456843,1.168616775160114e-05,-0.000317019749261031,-0.0005312020191548559,0.000175455157814575,0.0002425551666405559,0.00029635244719481774,5.096069443949943e-05,-0.0005501269079898402,0.4029781222343445,34.13833236694336,3.7990386486053467,-19.487642288208008,-0.2667136788368225,-1.783755898475647,0.11111776530742645,0
45,0.2200171947479248,-0.3752071261405945,-34.11452865600586,-3.7990386486053467,19.436067581176758,0.2667136788368225,1.777347207069397,-0.08365194499492645,0.0,0.0,0.0,0.0,0.0,0.0,0.0,-0.3855751114065111,-0.07359269279559358,-0.23735909176426345,0.4567902294513139,0.20681914037255647,-0.12028795515189711,-0.10206239663009276,1.0544528811898146,0.3237736419183764,-0.3925156111282377,-2.1535018498600045,0.8647440955299206,2.4659895221393553,0.5444873198892378,1.0544104758940245,0.3238615046091247,-0.39250456234122666,-2.153291787532338,0.8647539153680389,2.46587817577521,0.5445020185570556,-0.0005042556295732556,-0.0007447742719218679,0.00032755647921100725,0.0015332100887292084,-0.0001462580456607082,0.00014095520398380644,-0.0010458072067816501,0.0,0.0,0.0,0.0,0.0,0.0,0.0,-4.240529579013774e-05,8.786269074834152e-05,1.1048787011025407e-05,0.0002100623276666269,9.819838118318991e-06,-0.00011134636414533716,1.469866781778073e-05,0.0005042556295732556,0.0007447742719218679,-0.00032755647921100725,-0.0015332100887292084,0.0001462580456607082,-0.00014095520398380644,0.0010458072067816501,0.3752071261405945,34.11452865600586,3.7990386486053467,-19.436067581176758,-0.2667136788368225,-1.777347207069397,0.08365194499492645,0
46,0.2250044345855713,-0.3752071261405945,-34.11452865600586,-3.7990386486053467,19.436067581176758,0.2667136788368225,1.777347207069397,-0.08365194499492645,0.0,0.0,0.0,0.0,0.0,0.0,0.0,-0.3855751114065111,-0.07359269279559358,-0.23735909176426345,0.4567902294513139,0.20681914037255647,-0.12028795515189711,-0.10206239663009276,1.0544528811898146,0.3237736419183764,-0.3925156111282377,-2.1535018498600045,0.8647440955299206,2.4659895221393553,0.5444873198892378,1.0544104758940245,0.3238615046091247,-0.39250456234122666,-2.153291787532338,0.8647539153680389,2.46587817577521,0.5445020185570556,-0.0005042556295732556,-0.0007447742719218679,0.00032755647921100725,0.0015332100887292084,-0.0001462580456607082,0.00014095520398380644,-0.0010458072067816501,0.0,0.0,0.0,0.0,0.0,0.0,0.0,-4.240529579013774e-05,8.786269074834152e-05,1.1048787011025407e-05,0.0002100623276666269,9.819838118318991e-06,-0.00011134636414533716,1.469866781778073e-05,0.0005042556295732556,0.0007447742719218679,-0.00032755647921100725,-0.0015332100887292084,0.0001462580456607082,-0.00014095520398380644,0.0010458072067816501,0.3752071261405945,34.11452865600586,3.7990386486053467,-19.436067581176758,-0.2667136788368225,-1.777347207069397,0.08365194499492645,0
47,0.23000526428222656,-0.3752071261405945,-34.13833236694336,-3.7752349376678467,19.436067581176758,0.2603049874305725,1.777347207069397,-0.08365194499492645,0.0,0.0,0.0,0.0,0.0,0.0,0.0,-0.3854465184261708,-0.06527818693841653,-0.23686533611573973,0.4523535019008795,0.20667703620729727,-0.12118799673211024,-0.10229137779508812,1.0544528811898146,0.3237773621101498,-0.3925172562904868,-2.1535040749833065,0.8647479865689859,2.465993079777697,0.5444893999037624,1.0544104758940245,0.3238615046091247,-0.39250456234122666,-2.153291787532338,0.8647539153680389,2.46587817577521,0.5445020185570556,-8.090531070470881e-05,0.00023306588819046038,-0.0007574587996145467,0.00126675742641383,-8.248628810287354e-06,0.0004109572208678993,-0.0010547427215062662,0.0,0.0,0.0,0.0,0.0,0.0,0.0,-4.240529579013774e-05,8.41424989749262e-05,1.2693949260123016e-05,0.0002122874509686845,5.928799053034339e-06,-0.00011490400248703736,1.2618653293161586e-05,8.090531070470881e-05,-0.00023306588819046038,0.0007574587996145467,-0.00126675742641383,8.248628810287354e-06,-0.0004109572208678993,0.0010547427215062662,0.3752071261405945,34.13833236694336,3.7752349376678467,-19.436067581176758,-0.2603049874305725,-1.777347207069397,0.08365194499492645,0
48,0.23500323295593262,-0.3752071261405945,-34.13833236694336,-3.7752349376678467,19.436067581176758,0.2603049874305725,1.777347207069397,-0.08365194499492645,0.0,0.0,0.0,0.0,0.0,0.0,0.0,-0.3854465184261708,-0.06527818693841653,-0.23686533611573973,0.4523535019008795,0.20667703620729727,-0.12118799673211024,-0.10229137779508812,1.0544528811898146,0.3237773621101498,-0.3925172562904868,-2.1535040749833065,0.8647479865689859,2.465993079777697,0.5444893999037624,1.0544104758940245,0.3238615046091247,-0.39250456234122666,-2.153291787532338,0.8647539153680389,2.46587817577521,0.5445020185570556,-8.090531070470881e-05,0.00023306588819046038,-0.0007574587996145467,0.00126675742641383,-8.248628810287354e-06,0.0004109572208678993,-0.0010547427215062662,0.0,0.0,0.0,0.0,0.0,0.0,0.0,-4.240529579013774e-05,8.41424989749262e-05,1.2693949260123016e-05,0.0002122874509686845,5.928799053034339e-06,-0.00011490400248703736,1.2618653293161586e-05,8.090531070470881e-05,-0.00023306588819046038,0.0007574587996145467,-0.00126675742641383,8.248628810287354e-06,-0.0004109572208678993,0.0010547427215062662,0.3752071261405945,34.13833236694336,3.7752349376678467,-19.436067581176758,-0.2603049874305725,-1.777347207069397,0.08365194499492645,0
49,0.23994779586791992,-0.3752071261405945,-34.09072494506836,-3.7752349376678467,19.459871292114258,0.2603049874305725,1.790164589881897,-0.06351034343242645,0.0,0.0,0.0,0.0,0.0,0.0,0.0,-0.3844859343530559,-0.06772443867994271,-0.23827143315024318,0.4507595199314378,0.2065845632468956,-0.1206333319232059,-0.10277998068293923,1.0544528811898146,0.323774082853878,-0.39251725531827875,-2.1535057424839468,0.8647479860904509,2.465990565485954,0.5444839830495225,1.0544104758940245,0.3238615046091247,-0.39250456234122666,-2.153291787532338,0.8647539153680389,2.46587817577521,0.5445020185570556,2.3506328983944746e-05,-0.0010903350482252571,-0.0007296544494486444,0.00028902766244851463,0.00015543178611089164,-5.93871609348218e-05,-0.001432523095269507,0.0,0.0,0.0,0.0,0.0,0.0,0.0,-4.240529579013774e-05,8.742175524673046e-05,1.2692977052086718e-05,0.00021395495160891898,5.929277588023751e-06,-0.00011238971074423176,1.803550753309846e-05,-2.3506328983944746e-05,0.0010903350482252571,0.0007296544494486444,-0.00028902766244851463,-0.00015543178611089164,5.93871609348218e-05,0.001432523095269507,0.3752071261405945,34.09072494506836,3.7752349376678467,-19.459871292114258,-0.2603049874305725,-1.790164589881897,0.06351034343242645,0
50,0.2449944019317627,-0.3752071261405945,-34.09072494506836,-3.7752349376678467,19.459871292114258,0.2603049874305725,1.790164589881897,-0.06351034343242645,0.0,0.0,0.0,0.0,0.0,0.0,0.0,-0.3844859343530559,-0.06772443867994271,-0.23827143315024318,0.4507595199314378,0.2065845632468956,-0.1206333319232059,-0.10277998068293923,1.0544528811898146,0.323774082853878,-0.39251725531827875,-2.1535057424839468,0.8647479860904509,2.465990565485954,0.5444839830495225,1.0544104758940245,0.3238615046091247,-0.39250456234122666,-2.153291787532338,0.8647539153680389,2.46587817577521,0.5445020185570556,2.3506328983944746e-05,-0.0010903350482252571,-0.0007296544494486444,0.00028902766244851463,0.00015543178611089164,-5.93871609348218e-05,-0.001432523095269507,0.0,0.0,0.0,0.0,0.0,0.0,0.0,-4.240529579013774e-05,8.742175524673046e-05,1.2692977052086718e-05,0.00021395495160891898,5.929277588023751e-06,-0.00011238971074423176,1.803550753309846e-05,-2.3506328983944746e-05,0.0010903350482252571,0.0007296544494486444,-0.00028902766244851463,-0.00015543178611089164,5.93871609348218e-05,0.001432523095269507,0.3752071261405945,34.09072494506836,3.7752349376678467,-19.459871292114258,-0.2603049874305725,-1.790164589881897,0.06351034343242645,0
51,0.2500159740447998,-0.4029781222343445,-34.16213607788086,-3.7752349376678467,19.459871292114258,0.2603049874305725,1.783755898475647,-0.10470907390117645,0.0,0.0,0.0,0.0,0.0,0.0,0.0,-0.38592233840757045,-0.06341267165964601,-0.24024367679717476,0.44956221098389065,0.20698791431982796,-0.11981624893479992,-0.10202603564075291,1.0544548300316456,0.32377900635191925,-0.3925172825356943,-2.153504976317561,0.8647475156246798,2.4659920282221095,0.5444885611528133,1.0544104758940245,0.3238615046091247,-0.39250456234122666,-2.153291787532338,0.8647539153680389,2.46587817577521,0.5445020185570556,0.0002519343677619612,0.0010281801496609233,-0.0008298558880103942,0.00046056845209154114,-3.1650633576030654e-08,5.18612761014622e-05,0.0004995763912073424,0.0,0.0,0.0,0.0,0.0,0.0,0.0,-4.4354137621160916e-05,8.249825720546555e-05,1.2720194467630286e-05,0.00021318878522302853,6.399743359142285e-06,-0.00011385244689954277,1.3457404242300797e-05,-0.0002519343677619612,-0.0010281801496609233,0.0008298558880103942,-0.00046056845209154114,3.1650633576030654e-08,-5.18612761014622e-05,-0.0004995763912073424,0.4029781222343445,34.16213607788086,3.7752349376678467,-19.459871292114258,-0.2603049874305725,-1.783755898475647,0.10470907390117645,0
52,0.25496912002563477,-0.4029781222343445,-34.16213607788086,-3.7752349376678467,19.459871292114258,0.2603049874305725,1.783755898475647,-0.10470907390117645,0.0,0.0,0.0,0.0,0.0,0.0,0.0,-0.38592233840757045,-0.06341267165964601,-0.24024367679717476,0.44956221098389065,0.20698791431982796,-0.11981624893479992,-0.10202603564075291,1.0544548300316456,0.32377900635191925,-0.3925172825356943,-2.153504976317561,0.8647475156246798,2.4659920282221095,0.5444885611528133,1.0544104758940245,0.3238615046091247,-0.39250456234122666,-2.153291787532338,0.8647539153680389,2.46587817577521,0.5445020185570556,0.0002519343677619612,0.0010281801496609233,-0.0008298558880103942,0.00046056845209154114,-3.1650633576030654e-08,5.18612761014622e-05,0.0004995763912073424,0.0,0.0,0.0,0.0,0.0,0.0,0.0,-4.4354137621160916e-05,8.249825720546555e-05,1.2720194467630286e-05,0.00021318878522302853,6.399743359142285e-06,-0.00011385244689954277,1.3457404242300797e-05,-0.0002519343677619612,-0.0010281801496609233,0.0008298558880103942,-0.00046056845209154114,3.1650633576030654e-08,-5.18612761014622e-05,-0.0004995763912073424,0.4029781222343445,34.16213607788086,3.7752349376678467,-19.459871292114258,-0.2603049874305725,-1.783755898475647,0.10470907390117645,0
53,0.2599935531616211,-0.3752071261405945,-34.18990707397461,-3.7752349376678467,19.511445999145508,0.2667136788368225,1.783755898475647,-0.08365194499492645,0.0,0.0,0.0,0.0,0.0,0.0,0.0,-0.38248839341709967,-0.06209764330299234,-0.23897163703619292,0.44834923395195037,0.2072438154298704,-0.11969244770346338,-0.10230805219880251,1.0544528811898146,0.323780333074475,-0.39251728253615525,-2.1535086227267897,0.8647472744972586,2.4659923812733986,0.5444862616867144,1.0544104758940245,0.3238615046091247,-0.39250456234122666,-2.153291787532338,0.8647539153680389,2.46587817577521,0.5445020185570556,-0.0002853480171735409,0.0013077637844820013,-0.0006085541225489245,-0.0011515829791519051,-0.0003009247197156829,0.0001161937126103743,-0.0006423080185157356,0.0,0.0,0.0,0.0,0.0,0.0,0.0,-4.240529579013774e-05,8.117153464970439e-05,1.2720194928594886e-05,0.00021683519445181432,6.640870780283414e-06,-0.00011420549818863535,1.5756870341165907e-05,0.0002853480171735409,-0.0013077637844820013,0.0006085541225489245,0.0011515829791519051,0.0003009247197156829,-0.0001161937126103743,0.0006423080185157356,0.3752071261405945,34.18990707397461,3.7752349376678467,-19.511445999145508,-0.2667136788368225,-1.783755898475647,0.08365194499492645,0
54,0.265017032623291,-0.3752071261405945,-34.18990707397461,-3.7752349376678467,19.511445999145508,0.2667136788368225,1.783755898475647,-0.08365194499492645,0.0,0.0,0.0,0.0,0.0,0.0,0.0,-0.38248839341709967,-0.06209764330299234,-0.23897163703619292,0.44834923395195037,0.2072438154298704,-0.11969244770346338,-0.10230805219880251,1.0544528811898146,0.323780333074475,-0.39251728253615525,-2.1535086227267897,0.8647472744972586,2.4659923812733986,0.5444862616867144,1.0544104758940245,0.3238615046091247,-0.39250456234122666,-2.153291787532338,0.8647539153680389,2.46587817577521,0.5445020185570556,-0.0002853480171735409,0.0013077637844820013,-0.0006085541225489245,-0.0011515829791519051,-0.0003009247197156829,0.0001161937126103743,-0.0006423080185157356,0.0,0.0,0.0,0.0,0.0,0.0,0.0,-4.240529579013774e-05,8.117153464970439e-05,1.2720194928594886e-05,0.00021683519445181432,6.640870780283414e-06,-0.00011420549818863535,1.5756870341165907e-05,0.0002853480171735409,-0.0013077637844820013,0.0006085541225489245,0.0011515829791519051,0.0003009247197156829,-0.0001161937126103743,0.0006423080185157356,0.3752071261405945,34.18990707397461,3.7752349376678467,-19.511445999145508,-0.2667136788368225,-1.783755898475647,0.08365194499492645,0
55,0.26999545097351074,-0.3752071261405945,-34.18990707397461,-3.8228423595428467,19.487642288208008,0.2484031319618225,1.777347207069397,-0.10470907390117645,0.0,0.0,0.0,0.0,0.0,0.0,0.0,-0.38463319571924215,-0.061485960106690024,-0.23801869266833392,0.44908385632043074,0.20667970199337374,-0.11999969544874305,-0.10228773260235931,1.0544528811898146,0.32377883692629733,-0.39251393259186856,-2.1535074195302255,0.864749308949518,2.4659929757927666,0.5444889662268365,1.0544104758940245,0.3238615046091247,-0.39250456234122666,-2.153291787532338,0.8647539153680389,2.46587817577521,0.5445020185570556,0.00020115132663439068,0.001583519149193525,0.00026687756371274684,-1.907854055067336e-05,0.0005519532818879525,0.00031665862755986013,0.000383427981164078,0.0,0.0,0.0,0.0,0.0,0.0,0.0,-4.240529579013774e-05,8.266768282738646e-05,9.370250641904665e-06,0.0002156319978876553,4.606418520958222e-06,-0.0001148000175565933,1.3052330219087693e-05,-0.00020115132663439068,-0.001583519149193525,-0.00026687756371274684,1.907854055067336e-05,-0.0005519532818879525,-0.00031665862755986013,-0.000383427981164078,0.3752071261405945,34.18990707397461,3.8228423595428467,-19.487642288208008,-0.2484031319618225,-1.777347207069397,0.10470907390117645,0
56,0.2749948501586914,-0.3752071261405945,-34.18990707397461,-3.8228423595428467,19.487642288208008,0.2484031319618225,1.777347207069397,-0.10470907390117645,0.0,0.0,0.0,0.0,0.0,0.0,0.0,-0.38463319571924215,-0.061485960106690024,-0.23801869266833392,0.44908385632043074,0.20667970199337374,-0.11999969544874305,-0.10228773260235931,1.0544528811898146,0.32377883692629733,-0.39251393259186856,-2.1535074195302255,0.864749308949518,2.4659929757927666,0.5444889662268365,1.0544104758940245,0.3238615046091247,-0.39250456234122666,-2.153291787532338,0.8647539153680389,2.46587817577521,0.5445020185570556,0.00020115132663439068,0.001583519149193525,0.00026687756371274684,-1.907854055067336e-05,0.0005519532818879525,0.00031665862755986013,0.000383427981164078,0.0,0.0,0.0,0.0,0.0,0.0,0.0,-4.240529579013774e-05,8.266768282738646e-05,9.370250641904665e-06,0.0002156319978876553,4.606418520958222e-06,-0.0001148000175565933,1.3052330219087693e-05,-0.00020115132663439068,-0.001583519149193525,-0.00026687756371274684,1.907854055067336e-05,-0.0005519532818879525,-0.00031665862755986013,-0.000383427981164078,0.3752071261405945,34.18990707397461,3.8228423595428467,-19.487642288208008,-0.2484031319618225,-1.777347207069397,0.10470907390117645,0
57,0.2799959182739258,-0.3752071261405945,-34.18990707397461,-3.8228423595428467,19.487642288208008,0.2484031319618225,1.777347207069397,-0.10470907390117645,0.0,0.0,0.0,0.0,0.0,0.0,0.0,-0.38463319571924215,-0.061485960106690024,-0.23801869266833392,0.44908385632043074,0.20667970199337374,-0.11999969544874305,-0.10228773260235931,1.0544528811898146,0.32377883692629733,-0.39251393259186856,-2.1535074195302255,0.864749308949518,2.4659929757927666,0.5444889662268365,1.0544104758940245,0.3238615046091247,-0.39250456234122666,-2.153291787532338,0.8647539153680389,2.46587817577521,0.5445020185570556,0.00020115132663439068,0.001583519149193525,0.00026687756371274684,-1.907854055067336e-05,0.0005519532818879525,0.00031665862755986013,0.000383427981164078,0.0,0.0,0.0,0.0,0.0,0.0,0.0,-4.240529579013774e-05,8.266768282738646e-05,9.370250641904665e-06,0.0002156319978876553,4.606418520958222e-06,-0.0001148000175565933,1.3052330219087693e-05,-0.00020115132663439068,-0.001583519149193525,-0.00026687756371274684,1.907854055067336e-05,-0.0005519532818879525,-0.00031665862755986013,-0.000383427981164078,0.3752071261405945,34.18990707397461,3.8228423595428467,-19.487642288208008,-0.2484031319618225,-1.777347207069397,0.10470907390117645,0
58,0.28499794006347656,-0.3752071261405945,-34.18990707397461,-3.8228423595428467,19.487642288208008,0.2484031319618225,1.777347207069397,-0.10470907390117645,0.0,0.0,0.0,0.0,0.0,0.0,0.0,-0.38463319571924215,-0.061485960106690024,-0.23801869266833392,0.44908385632043074,0.20667970199337374,-0.11999969544874305,-0.10228773260235931,1.0544528811898146,0.32377883692629733,-0.39251393259186856,-2.1535074195302255,0.864749308949518,2.4659929757927666,0.5444889662268365,1.0544104758940245,0.3238615046091247,-0.39250456234122666,-2.153291787532338,0.8647539153680389,2.46587817577521,0.5445020185570556,0.00020115132663439068,0.001583519149193525,0.00026687756371274684,-1.907854055067336e-05,0.0005519532818879525,0.00031665862755986013,0.000383427981164078,0.0,0.0,0.0,0.0,0.0,0.0,0.0,-4.240529579013774e-05,8.266768282738646e-05,9.370250641904665e-06,0.0002156319978876553,4.606418520958222e-06,-0.0001148000175565933,1.3052330219087693e-05,-0.00020115132663439068,-0.001583519149193525,-0.00026687756371274684,1.907854055067336e-05,-0.0005519532818879525,-0.00031665862755986013,-0.000383427981164078,0.3752071261405945,34.18990707397461,3.8228423595428467,-19.487642288208008,-0.2484031319618225,-1.777347207069397,0.10470907390117645,0
59,0.2899918556213379,-0.3752071261405945,-34.13833236694336,-3.7990386486053467,19.459871292114258,0.2667136788368225,1.777347207069397,-0.09738485515117645,0.0,0.0,0.0,0.0,0.0,0.0,0.0,-0.3891363432495507,-0.0677554858788579,-0.2427784935933326,0.4519620810404075,0.2068587723421902,-0.12008093011564631,-0.10160434857061153,1.0544528811898146,0.3237750576900364,-0.39251561177612576,-2.1535049752954727,0.864747156760574,2.465992975790773,0.5444888195931626,1.0544104758940245,0.3238615046091247,-0.39250456234122666,-2.153291787532338,0.8647539153680389,2.46587817577521,0.5445020185570556,-0.0006580824799520139,-0.00010686485196983958,-1.6520878359763235e-06,0.0007784505656648413,-0.0003878646694777654,0.0001438331512323883,6.021223136017572e-05,0.0,0.0,0.0,0.0,0.0,0.0,0.0,-4.240529579013774e-05,8.644691908832325e-05,1.1049434899101929e-05,0.00021318776313483667,6.758607464907307e-06,-0.00011480001556307684,1.3198963892957494e-05,0.0006580824799520139,0.00010686485196983958,1.6520878359763235e-06,-0.0007784505656648413,0.0003878646694777654,-0.0001438331512323883,-6.021223136017572e-05,0.3752071261405945,34.13833236694336,3.7990386486053467,-19.459871292114258,-0.2667136788368225,-1.777347207069397,0.09738485515117645,0
60,0.2949492931365967,-0.3752071261405945,-34.13833236694336,-3.7990386486053467,19.459871292114258,0.2667136788368225,1.777347207069397,-0.09738485515117645,0.0,0.0,0.0,0.0,0.0,0.0,0.0,-0.3891363432495507,-0.0677554858788579,-0.2427784935933326,0.4519620810404075,0.2068587723421902,-0.12008093011564631,-0.10160434857061153,1.0544528811898146,0.3237750576900364,-0.39251561177612576,-2.1535049752954727,0.864747156760574,2.465992975790773,0.5444888195931626,1.0544104758940245,0.3238615046091247,-0.39250456234122666,-2.153291787532338,0.8647539153680389,2.46587817577521,0.5445020185570556,-0.0006580824799520139,-0.00010686485196983958,-1.6520878359763235e-06,0.0007784505656648413,-0.0003878646694777654,0.0001438331512323883,6.021223136017572e-05,0.0,0.0,0.0,0.0,0.0,0.0,0.0,-4.240529579013774e-05,8.644691908832325e-05,1.1049434899101929e-05,0.00021318776313483667,6.758607464907307e-06,-0.00011480001556307684,1.3198963892957494e-05,0.0006580824799520139,0.00010686485196983958,1.6520878359763235e-06,-0.0007784505656648413,0.0003878646694777654,-0.0001438331512323883,-6.021223136017572e-05,0.3752071261405945,34.13833236694336,3.7990386486053467,-19.459871292114258,-0.2667136788368225,-1.777347207069397,0.09738485515117645,0
61,0.30002689361572266,-0.4029781222343445,-34.13833236694336,-3.7990386486053467,19.459871292114258,0.2786155343055725,1.777347207069397,-0.11844198405742645,0.0,0.0,0.0,0.0,0.0,0.0,0.0,-0.3829135911552395,-0.061110804080382435,-0.23305380940567047,0.4474746067672979,0.2066763618407195,-0.12206421779593496,-0.10186349465874238,1.0544548300316456,0.3237772095349795,-0.3925134064922396,-2.153505745079839,0.8647454809573094,2.465989901533332,0.5444900880606435,1.0544104758940245,0.3238615046091247,-0.39250456234122666,-2.153291787532338,0.8647539153680389,2.46587817577521,0.5445020185570556,0.0002475364733290264,0.0005092297096308802,6.563018819654879e-05,0.0001181699914015756,-0.0006260689971015529,0.00037264448371988245,0.00043649933422514574,0.0,0.0,0.0,0.0,0.0,0.0,0.0,-4.4354137621160916e-05,8.429507414520199e-05,8.844151012932233e-06,0.0002139575475013089,8.434410729507569e-06,-0.00011172575812201657,1.1930496412126956e-05,-0.0002475364733290264,-0.0005092297096308802,-6.563018819654879e-05,-0.0001181699914015756,0.0006260689971015529,-0.00037264448371988245,-0.00043649933422514574,0.4029781222343445,34.13833236694336,3.7990386486053467,-19.459871292114258,-0.2786155343055725,-1.777347207069397,0.11844198405742645,0
62,0.3050057888031006,-0.4029781222343445,-34.13833236694336,-3.7990386486053467,19.459871292114258,0.2786155343055725,1.777347207069397,-0.11844198405742645,0.0,0.0,0.0,0.0,0.0,0.0,0.0,-0.3829135911552395,-0.061110804080382435,-0.23305380940567047,0.4474746067672979,0.2066763618407195,-0.12206421779593496,-0.10186349465874238,1.0544548300316456,0.3237772095349795,-0.3925134064922396,-2.153505745079839,0.8647454809573094,2.465989901533332,0.5444900880606435,1.0544104758940245,0.3238615046091247,-0.39250456234122666,-2.153291787532338,0.8647539153680389,2.46587817577521,0.5445020185570556,0.0002475364733290264,0.0005092297096308802,6.563018819654879e-05,0.0001181699914015756,-0.0006260689971015529,0.00037264448371988245,0.00043649933422514574,0.0,0.0,0.0,0.0,0.0,0.0,0.0,-4.4354137621160916e-05,8.429507414520199e-05,8.844151012932233e-06,0.0002139575475013089,8.434410729507569e-06,-0.00011172575812201657,1.1930496412126956e-05,-0.0002475364733290264,-0.0005092297096308802,-6.563018819654879e-05,-0.0001181699914015756,0.0006260689971015529,-0.00037264448371988245,-0.00043649933422514574,0.4029781222343445,34.13833236694336,3.7990386486053467,-19.459871292114258,-0.2786155343055725,-1.777347207069397,0.11844198405742645,0
63,0.3100004196166992,-0.4029781222343445,-34.13833236694336,-3.7990386486053467,19.459871292114258,0.2548118233680725,1.796573281288147,-0.11111776530742645,0.0,0.0,0.0,0.0,0.0,0.0,0.0,-0.3877265033842056,-0.06895385019884291,-0.24082005485615182,0.45388594730737214,0.20744649896870257,-0.12123366348603991,-0.1022706723125159,1.0544548300316456,0.3237771346992786,-0.39251561112408806,-2.1535025302832578,0.8647485969076987,2.4659909398512587,0.5444924521978619,1.0544104758940245,0.3238615046091247,-0.39250456234122666,-2.153291787532338,0.8647539153680389,2.46587817577521,0.5445020185570556,0.0008036682981136886,0.00028923172475783706,-0.0003016204492258626,0.0005296747311340648,0.00010076936414068298,-0.00034405299385527983,0.0003692075593975014,0.0,0.0,0.0,0.0,0.0,0.0,0.0,-4.4354137621160916e-05,8.436990984611592e-05,1.104878286140032e-05,0.00021074275091992334,5.318460340242304e-06,-0.00011276407604876582,9.566359193691198e-06,-0.0008036682981136886,-0.00028923172475783706,0.0003016204492258626,-0.0005296747311340648,-0.00010076936414068298,0.00034405299385527983,-0.0003692075593975014,0.4029781222343445,34.13833236694336,3.7990386486053467,-19.459871292114258,-0.2548118233680725,-1.796573281288147,0.11111776530742645,0
64,0.3150057792663574,-0.4029781222343445,-34.13833236694336,-3.7990386486053467,19.459871292114258,0.2548118233680725,1.796573281288147,-0.11111776530742645,0.0,0.0,0.0,0.0,0.0,0.0,0.0,-0.3877265033842056,-0.06895385019884291,-0.24082005485615182,0.45388594730737214,0.20744649896870257,-0.12123366348603991,-0.1022706723125159,1.0544548300316456,0.3237771346992786,-0.39251561112408806,-2.1535025302832578,0.8647485969076987,2.4659909398512587,0.5444924521978619,1.0544104758940245,0.3238615046091247,-0.39250456234122666,-2.153291787532338,0.8647539153680389,2.46587817577521,0.5445020185570556,0.0008036682981136886,0.00028923172475783706,-0.0003016204492258626,0.0005296747311340648,0.00010076936414068298,-0.00034405299385527983,0.0003692075593975014,0.0,0.0,0.0,0.0,0.0,0.0,0.0,-4.4354137621160916e-05,8.436990984611592e-05,1.104878286140032e-05,0.00021074275091992334,5.318460340242304e-06,-0.00011276407604876582,9.566359193691198e-06,-0.0008036682981136886,-0.00028923172475783706,0.0003016204492258626,-0.0005296747311340648,-0.00010076936414068298,0.00034405299385527983,-0.0003692075593975014,0.4029781222343445,34.13833236694336,3.7990386486053467,-19.459871292114258,-0.2548118233680725,-1.796573281288147,0.11111776530742645,0
65,0.3199591636657715,-0.3514034152030945,-34.16213607788086,-3.8228423595428467,19.487642288208008,0.2603049874305725,1.790164589881897,-0.06351034343242645,0.0,0.0,0.0,0.0,0.0,0.0,0.0,-0.3883230395218501,-0.07632948120776767,-0.24735690894435033,0.4569493399353028,0.20753553177698067,-0.12000425354529123,-0.10301847758816135,1.0544512107539592,0.32377879670571214,-0.39251394166442816,-2.153507608855029,0.8647478673838471,2.4659880064297757,0.5444839835699385,1.0544104758940245,0.3238615046091247,-0.39250456234122666,-2.153291787532338,0.8647539153680389,2.46587817577521,0.5445020185570556,-0.000436291674900447,0.00024004054889461868,-6.562752783271731e-05,-8.945829569715582e-05,0.0002231333184264844,-0.00010576738051730155,-0.0019152450671627921,0.0,0.0,0.0,0.0,0.0,0.0,0.0,-4.073485993472126e-05,8.270790341258216e-05,9.379323201497147e-06,0.00021582132269104548,6.0479841917926436e-06,-0.0001098306545657124,1.8034987117054868e-05,0.000436291674900447,-0.00024004054889461868,6.562752783271731e-05,8.945829569715582e-05,-0.0002231333184264844,0.00010576738051730155,0.0019152450671627921,0.3514034152030945,34.16213607788086,3.8228423595428467,-19.487642288208008,-0.2603049874305725,-1.790164589881897,0.06351034343242645,0
66,0.3249943256378174,-0.3514034152030945,-34.16213607788086,-3.8228423595428467,19.487642288208008,0.2603049874305725,1.790164589881897,-0.06351034343242645,0.0,0.0,0.0,0.0,0.0,0.0,0.0,-0.3883230395218501,-0.07632948120776767,-0.24735690894435033,0.4569493399353028,0.20753553177698067,-0.12000425354529123,-0.10301847758816135,1.0544512107539592,0.32377879670571214,-0.39251394166442816,-2.153507608855029,0.8647478673838471,2.4659880064297757,0.5444839835699385,1.0544104758940245,0.3238615046091247,-0.39250456234122666,-2.153291787532338,0.8647539153680389,2.46587817577521,0.5445020185570556,-0.000436291674900447,0.00024004054889461868,-6.562752783271731e-05,-8.945829569715582e-05,0.0002231333184264844,-0.00010576738051730155,-0.0019152450671627921,0.0,0.0,0.0,0.0,0.0,0.0,0.0,-4.073485993472126e-05,8.270790341258216e-05,9.379323201497147e-06,0.00021582132269104548,6.0479841917926436e-06,-0.0001098306545657124,1.8034987117054868e-05,0.000436291674900447,-0.00024004054889461868,6.562752783271731e-05,8.945829569715582e-05,-0.0002231333184264844,0.00010576738051730155,0.0019152450671627921,0.3514034152030945,34.16213607788086,3.8228423595428467,-19.487642288208008,-0.2603049874305725,-1.790164589881897,0.06351034343242645,0
67,0.33002257347106934,-0.3752071261405945,-34.16213607788086,-3.7990386486053467,19.459871292114258,0.2667136788368225,1.777347207069397,-0.11111776530742645,0.0,0.0,0.0,0.0,0.0,0.0,0.0,-0.38899119855884157,-0.06375216245189633,-0.2522871630599239,0.444071313354586,0.20786281464555545,-0.12038039164553523,-0.10374463524968278,1.0544528811898146,0.3237790153163239,-0.39251348616530074,-2.153505745536242,0.8647472744979205,2.4659930933619387,0.5444904501387644,1.0544104758940245,0.3238615046091247,-0.39250456234122666,-2.153291787532338,0.8647539153680389,2.46587817577521,0.5445020185570556,-0.0005072600697862363,0.0006334140799269221,-0.0001914815606023655,3.045772629996335e-05,-0.00015931493856074827,0.00019132621159385733,0.00033867113902775103,0.0,0.0,0.0,0.0,0.0,0.0,0.0,-4.240529579013774e-05,8.248929280080253e-05,8.923824074080766e-06,0.00021395800390422437,6.640870118368447e-06,-0.00011491758672876884,1.1568418291196814e-05,0.0005072600697862363,-0.0006334140799269221,0.0001914815606023655,-3.045772629996335e-05,0.00015931493856074827,-0.00019132621159385733,-0.00033867113902775103,0.3752071261405945,34.16213607788086,3.7990386486053467,-19.459871292114258,-0.2667136788368225,-1.777347207069397,0.11111776530742645,0
68,0.33499956130981445,-0.3752071261405945,-34.16213607788086,-3.7990386486053467,19.459871292114258,0.2667136788368225,1.777347207069397,-0.11111776530742645,0.0,0.0,0.0,0.0,0.0,0.0,0.0,-0.38899119855884157,-0.06375216245189633,-0.2522871630599239,0.444071313354586,0.20786281464555545,-0.12038039164553523,-0.10374463524968278,1.0544528811898146,0.3237790153163239,-0.39251348616530074,-2.153505745536242,0.8647472744979205,2.4659930933619387,0.5444904501387644,1.0544104758940245,0.3238615046091247,-0.39250456234122666,-2.153291787532338,0.8647539153680389,2.46587817577521,0.5445020185570556,-0.0005072600697862363,0.0006334140799269221,-0.0001914815606023655,3.045772629996335e-05,-0.00015931493856074827,0.00019132621159385733,0.00033867113902775103,0.0,0.0,0.0,0.0,0.0,0.0,0.0,-4.240529579013774e-05,8.248929280080253e-05,8.923824074080766e-06,0.00021395800390422437,6.640870118368447e-06,-0.00011491758672876884,1.1568418291196814e-05,0.0005072600697862363,-0.0006334140799269221,0.0001914815606023655,-3.045772629996335e-05,0.00015931493856074827,-0.00019132621159385733,-0.00033867113902775103,0.3752071261405945,34.16213607788086,3.7990386486053467,-19.459871292114258,-0.2667136788368225,-1.777347207069397,0.11111776530742645,0
69,0.3400084972381592,-0.4267818331718445,-34.13833236694336,-3.8228423595428467,19.487642288208008,0.2603049874305725,1.796573281288147,-0.06991903483867645,0.0,0.0,0.0,0.0,0.0,0.0,0.0,-0.380751507024444,-0.07357166610905276,-0.24573157917822905,0.448359761933857,0.20740126601605052,-0.12024647722192221,-0.10443507984051481,1.054456500467501,0.3237750789685966,-0.39251394165244374,-2.153506952631543,0.8647479865749677,2.4659898976079027,0.5444847344147387,1.0544104758940245,0.3238615046091247,-0.39250456234122666,-2.153291787532338,0.8647539153680389,2.46587817577521,0.5445020185570556,0.0010005410903128607,-1.1853870977003051e-05,9.033366901706832e-05,-0.00024757876626203167,0.0001720966548194231,-0.0003405112472542786,-0.0013285295060945167,0.0,0.0,0.0,0.0,0.0,0.0,0.0,-4.60245734765774e-05,8.642564052813162e-05,9.379311217083686e-06,0.00021516509920527227,5.928793071263705e-06,-0.00011172183269270164,1.7284142316942308e-05,-0.0010005410903128607,1.1853870977003051e-05,-9.033366901706832e-05,0.00024757876626203167,-0.0001720966548194231,0.0003405112472542786,0.0013285295060945167,0.4267818331718445,34.13833236694336,3.8228423595428467,-19.487642288208008,-0.2603049874305725,-1.796573281288147,0.06991903483867645,0
70,0.3450138568878174,-0.4267818331718445,-34.13833236694336,-3.8228423595428467,19.487642288208008,0.2603049874305725,1.796573281288147,-0.06991903483867645,0.0,0.0,0.0,0.0,0.0,0.0,0.0,-0.380751507024444,-0.07357166610905276,-0.24573157917822905,0.448359761933857,0.20740126601605052,-0.12024647722192221,-0.10443507984051481,1.054456500467501,0.3237750789685966,-0.39251394165244374,-2.153506952631543,0.8647479865749677,2.4659898976079027,0.5444847344147387,1.0544104758940245,0.3238615046091247,-0.39250456234122666,-2.153291787532338,0.8647539153680389,2.46587817577521,0.5445020185570556,0.0010005410903128607,-1.1853870977003051e-05,9.033366901706832e-05,-0.00024757876626203167,0.0001720966548194231,-0.0003405112472542786,-0.0013285295060945167,0.0,0.0,0.0,0.0,0.0,0.0,0.0,-4.60245734765774e-05,8.642564052813162e-05,9.379311217083686e-06,0.00021516509920527227,5.928793071263705e-06,-0.00011172183269270164,1.7284142316942308e-05,-0.0010005410903128607,1.1853870977003051e-05,-9.033366901706832e-05,0.00024757876626203167,-0.0001720966548194231,0.0003405112472542786,0.0013285295060945167,0.4267818331718445,34.13833236694336,3.8228423595428467,-19.487642288208008,-0.2603049874305725,-1.796573281288147,0.06991903483867645,0
71,0.34999561309814453,-0.3514034152030945,-34.16213607788086,-3.7752349376678467,19.487642288208008,0.2603049874305725,1.777347207069397,-0.08365194499492645,0.0,0.0,0.0,0.0,0.0,0.0,0.0,-0.3723201937850095,-0.07355714985360332,-0.23709992857405543,0.4500897119023733,0.2072935880081243,-0.12043024890861005,-0.10540270962574741,1.0544512107539592,0.32377688839648766,-0.3925170424369086,-2.1535074379300987,0.8647479728469931,2.465991639812603,0.5444876339998732,1.0544104758940245,0.3238615046091247,-0.39250456234122666,-2.153291787532338,0.8647539153680389,2.46587817577521,0.5445020185570556,-0.0001473696319299777,0.0003431214148448947,-0.0006631525624652074,6.901688653725251e-05,9.467892549888554e-07,8.333091043677888e-05,-0.0006855157334982995,0.0,0.0,0.0,0.0,0.0,0.0,0.0,-4.073485993472126e-05,8.461621263705643e-05,1.2480095681943748e-05,0.00021565039776083594,5.942521045798621e-06,-0.0001134640373932072,1.4384557182389734e-05,0.0001473696319299777,-0.0003431214148448947,0.0006631525624652074,-6.901688653725251e-05,-9.467892549888554e-07,-8.333091043677888e-05,0.0006855157334982995,0.3514034152030945,34.16213607788086,3.7752349376678467,-19.487642288208008,-0.2603049874305725,-1.777347207069397,0.08365194499492645,0
72,0.3550105094909668,-0.3514034152030945,-34.16213607788086,-3.7752349376678467,19.487642288208008,0.2603049874305725,1.777347207069397,-0.08365194499492645,0.0,0.0,0.0,0.0,0.0,0.0,0.0,-0.3723201937850095,-0.07355714985360332,-0.23709992857405543,0.4500897119023733,0.2072935880081243,-0.12043024890861005,-0.10540270962574741,1.0544512107539592,0.32377688839648766,-0.3925170424369086,-2.1535074379300987,0.8647479728469931,2.465991639812603,0.5444876339998732,1.0544104758940245,0.3238615046091247,-0.39250456234122666,-2.153291787532338,0.8647539153680389,2.46587817577521,0.5445020185570556,-0.0001473696319299777,0.0003431214148448947,-0.0006631525624652074,6.901688653725251e-05,9.467892549888554e-07,8.333091043677888e-05,-0.0006855157334982995,0.0,0.0,0.0,0.0,0.0,0.0,0.0,-4.073485993472126e-05,8.461621263705643e-05,1.2480095681943748e-05,0.00021565039776083594,5.942521045798621e-06,-0.0001134640373932072,1.4384557182389734e-05,0.0001473696319299777,-0.0003431214148448947,0.0006631525624652074,-6.901688653725251e-05,-9.467892549888554e-07,-8.333091043677888e-05,0.0006855157334982995,0.3514034152030945,34.16213607788086,3.7752349376678467,-19.487642288208008,-0.2603049874305725,-1.777347207069397,0.08365194499492645,0
73,0.3599967956542969,-0.4029781222343445,-34.13833236694336,-3.7752349376678467,19.487642288208008,0.2548118233680725,1.783755898475647,-0.13217489421367645,0.0,0.0,0.0,0.0,0.0,0.0,0.0,-0.3748496938273992,-0.06760633677764999,-0.2401347191394745,0.44616646229975254,0.20757499869458138,-0.1210724000347733,-0.10583256921921359,1.0544548300316456,0.3237773678379366,-0.3925172825347999,-2.153507694376786,0.8647482437137429,2.4659920151506456,0.5444916167947359,1.0544104758940245,0.3238615046091247,-0.39250456234122666,-2.153291787532338,0.8647539153680389,2.46587817577521,0.5445020185570556,0.0009917438673602967,7.934752993037436e-05,-0.0002298766413047077,-0.0003941335134127443,0.00024985735493020657,2.0973429575740448e-05,0.0010705989722352982,0.0,0.0,0.0,0.0,0.0,0.0,0.0,-4.4354137621160916e-05,8.413677118812579e-05,1.2720193573234617e-05,0.000215906844448277,5.6716542959911465e-06,-0.0001138393754356315,1.040176231970058e-05,-0.0009917438673602967,-7.934752993037436e-05,0.0002298766413047077,0.0003941335134127443,-0.00024985735493020657,-2.0973429575740448e-05,-0.0010705989722352982,0.4029781222343445,34.13833236694336,3.7752349376678467,-19.487642288208008,-0.2548118233680725,-1.783755898475647,0.13217489421367645,0
74,0.36499643325805664,-0.4029781222343445,-34.13833236694336,-3.7752349376678467,19.487642288208008,0.2548118233680725,1.783755898475647,-0.13217489421367645,0.0,0.0,0.0,0.0,0.0,0.0,0.0,-0.3748496938273992,-0.06760633677764999,-0.2401347191394745,0.44616646229975254,0.20757499869458138,-0.1210724000347733,-0.10583256921921359,1.0544548300316456,0.3237773678379366,-0.3925172825347999,-2.153507694376786,0.8647482437137429,2.4659920151506456,0.5444916167947359,1.0544104758940245,0.3238615046091247,-0.39250456234122666,-2.153291787532338,0.8647539153680389,2.46587817577521,0.5445020185570556,0.0009917438673602967,7.934752993037436e-05,-0.0002298766413047077,-0.0003941335134127443,0.00024985735493020657,2.0973429575740448e-05,0.0010705989722352982,0.0,0.0,0.0,0.0,0.0,0.0,0.0,-4.4354137621160916e-05,8.413677118812579e-05,1.2720193573234617e-05,0.000215906844448277,5.6716542959911465e-06,-0.0001138393754356315,1.040176231970058e-05,-0.0009917438673602967,-7.934752993037436e-05,0.0002298766413047077,0.0003941335134127443,-0.00024985735493020657,-2.0973429575740448e-05,-0.0010705989722352982,0.4029781222343445,34.13833236694336,3.7752349376678467,-19.487642288208008,-0.2548118233680725,-1.783755898475647,0.13217489421367645,0
75,0.3699963092803955,-0.3752071261405945,-34.13833236694336,-3.8228423595428467,19.459871292114258,0.2603049874305725,1.790164589881897,-0.13858358561992645,0.0,0.0,0.0,0.0,0.0,0.0,0.0,-0.38496140785940264,-0.07461767875734354,-0.24879145380523862,0.45075442973386587,0.20776342983959833,-0.1198559749822755,-0.10588012438578778,1.0544528811898146,0.3237771349152811,-0.39251393280788227,-2.1535057454987183,0.8647479865729738,2.4659874293685555,0.5444923245029564,1.0544104758940245,0.3238615046091247,-0.39250456234122666,-2.153291787532338,0.8647539153680389,2.46587817577521,0.5445020185570556,-0.00022673862444988973,0.0002372151706680716,0.00024736037813259795,0.0005033641545067165,-4.107364448069509e-05,-5.063077944905765e-05,0.0009978369078927761,0.0,0.0,0.0,0.0,0.0,0.0,0.0,-4.240529579013774e-05,8.436969384362225e-05,9.370466655611587e-06,0.0002139579663804625,5.928795065113235e-06,-0.00010925359334557072,9.694054099229632e-06,0.00022673862444988973,-0.0002372151706680716,-0.00024736037813259795,-0.0005033641545067165,4.107364448069509e-05,5.063077944905765e-05,-0.0009978369078927761,0.3752071261405945,34.13833236694336,3.8228423595428467,-19.459871292114258,-0.2603049874305725,-1.790164589881897,0.13858358561992645,0
76,0.3750154972076416,-0.3752071261405945,-34.13833236694336,-3.8228423595428467,19.459871292114258,0.2603049874305725,1.790164589881897,-0.13858358561992645,0.0,0.0,0.0,0.0,0.0,0.0,0.0,-0.38496140785940264,-0.07461767875734354,-0.24879145380523862,0.45075442973386587,0.20776342983959833,-0.1198559749822755,-0.10588012438578778,1.0544528811898146,0.3237771349152811,-0.39251393280788227,-2.1535057454987183,0.8647479865729738,2.4659874293685555,0.5444923245029564,1.0544104758940245,0.3238615046091247,-0.39250456234122666,-2.153291787532338,0.8647539153680389,2.46587817577521,0.5445020185570556,-0.00022673862444988973,0.0002372151706680716,0.00024736037813259795,0.0005033641545067165,-4.107364448069509e-05,-5.063077944905765e-05,0.0009978369078927761,0.0,0.0,0.0,0.0,0.0,0.0,0.0,-4.240529579013774e-05,8.436969384362225e-05,9.370466655611587e-06,0.0002139579663804625,5.928795065113235e-06,-0.00010925359334557072,9.694054099229632e-06,0.00022673862444988973,-0.0002372151706680716,-0.00024736037813259795,-0.0005033641545067165,4.107364448069509e-05,5.063077944905765e-05,-0.0009978369078927761,0.3752071261405945,34.13833236694336,3.8228423595428467,-19.459871292114258,-0.2603049874305725,-1.790164589881897,0.13858358561992645,0
77,0.3800382614135742,-0.3752071261405945,-34.11452865600586,-3.7990386486053467,19.511445999145508,0.2667136788368225,1.777347207069397,-0.09097616374492645,0.0,0.0,0.0,0.0,0.0,0.0,0.0,-0.3804763302183061,-0.06818064426300428,-0.24253524842720442,0.44749968075459545,0.20763095156307385,-0.12054891919481137,-0.10595084266296886,1.0544528811898146,0.32377503265587537,-0.3925134862012864,-2.153509361422472,0.8647472744981448,2.465992726689344,0.5444874010840519,1.0544104758940245,0.3238615046091247,-0.39250456234122666,-2.153291787532338,0.8647539153680389,2.46587817577521,0.5445020185570556,-0.00044511913198957997,-0.00021442207708323885,-0.00033806101441284506,-0.0010458578358906183,-0.00020704658612470466,8.994168590294983e-05,-0.0003435873654557458,0.0,0.0,0.0,0.0,0.0,0.0,0.0,-4.240529579013774e-05,8.64719532493452e-05,8.923860059739663e-06,0.00021757389013421502,6.640869894103396e-06,-0.00011455091413425933,1.4617473003686321e-05,0.00044511913198957997,0.00021442207708323885,0.00033806101441284506,0.0010458578358906183,0.00020704658612470466,-8.994168590294983e-05,0.0003435873654557458,0.3752071261405945,34.11452865600586,3.7990386486053467,-19.511445999145508,-0.2667136788368225,-1.777347207069397,0.09097616374492645,0
78,0.3849477767944336,-0.3752071261405945,-34.11452865600586,-3.7990386486053467,19.511445999145508,0.2667136788368225,1.777347207069397,-0.09097616374492645,0.0,0.0,0.0,0.0,0.0,0.0,0.0,-0.3804763302183061,-0.06818064426300428,-0.24253524842720442,0.44749968075459545,0.20763095156307385,-0.12054891919481137,-0.10595084266296886,1.0544528811898146,0.32377503265587537,-0.3925134862012864,-2.153509361422472,0.8647472744981448,2.465992726689344,0.5444874010840519,1.0544104758940245,0.3238615046091247,-0.39250456234122666,-2.153291787532338,0.8647539153680389,2.46587817577521,0.5445020185570556,-0.00044511913198957997,-0.00021442207708323885,-0.00033806101441284506,-0.0010458578358906183,-0.00020704658612470466,8.994168590294983e-05,-0.0003435873654557458,0.0,0.0,0.0,0.0,0.0,0.0,0.0,-4.240529579013774e-05,8.64719532493452e-05,8.923860059739663e-06,0.00021757389013421502,6.640869894103396e-06,-0.00011455091413425933,1.4617473003686321e-05,0.00044511913198957997,0.00021442207708323885,0.00033806101441284506,0.0010458578358906183,0.00020704658612470466,-8.994168590294983e-05,0.0003435873654557458,0.3752071261405945,34.11452865600586,3.7990386486053467,-19.511445999145508,-0.2667136788368225,-1.777347207069397,0.09097616374492645,0
79,0.38999104499816895,-0.3752071261405945,-34.11452865600586,-3.7990386486053467,19.511445999145508,0.2667136788368225,1.777347207069397,-0.09097616374492645,0.0,0.0,0.0,0.0,0.0,0.0,0.0,-0.3804763302183061,-0.06818064426300428,-0.24253524842720442,0.44749968075459545,0.20763095156307385,-0.12054891919481137,-0.10595084266296886,1.0544528811898146,0.32377503265587537,-0.3925134862012864,-2.153509361422472,0.8647472744981448,2.465992726689344,0.5444874010840519,1.0544104758940245,0.3238615046091247,-0.39250456234122666,-2.153291787532338,0.8647539153680389,2.46587817577521,0.5445020185570556,-0.00044511913198957997,-0.00021442207708323885,-0.00033806101441284506,-0.0010458578358906183,-0.00020704658612470466,8.994168590294983e-05,-0.0003435873654557458,0.0,0.0,0.0,0.0,0.0,0.0,0.0,-4.240529579013774e-05,8.64719532493452e-05,8.923860059739663e-06,0.00021757389013421502,6.640869894103396e-06,-0.00011455091413425933,1.4617473003686321e-05,0.00044511913198957997,0.00021442207708323885,0.00033806101441284506,0.0010458578358906183,0.00020704658612470466,-8.994168590294983e-05,0.0003435873654557458,0.3752071261405945,34.11452865600586,3.7990386486053467,-19.511445999145508,-0.2667136788368225,-1.777347207069397,0.09097616374492645,0
80,0.3949925899505615,-0.3752071261405945,-34.11452865600586,-3.7990386486053467,19.511445999145508,0.2667136788368225,1.777347207069397,-0.09097616374492645,0.0,0.0,0.0,0.0,0.0,0.0,0.0,-0.3804763302183061,-0.06818064426300428,-0.24253524842720442,0.44749968075459545,0.20763095156307385,-0.12054891919481137,-0.10595084266296886,1.0544528811898146,0.32377503265587537,-0.3925134862012864,-2.153509361422472,0.8647472744981448,2.465992726689344,0.5444874010840519,1.0544104758940245,0.3238615046091247,-0.39250456234122666,-2.153291787532338,0.8647539153680389,2.46587817577521,0.5445020185570556,-0.00044511913198957997,-0.00021442207708323885,-0.00033806101441284506,-0.0010458578358906183,-0.00020704658612470466,8.994168590294983e-05,-0.0003435873654557458,0.0,0.0,0.0,0.0,0.0,0.0,0.0,-4.240529579013774e-05,8.64719532493452e-05,8.923860059739663e-06,0.00021757389013421502,6.640869894103396e-06,-0.00011455091413425933,1.4617473003686321e-05,0.00044511913198957997,0.00021442207708323885,0.00033806101441284506,0.0010458578358906183,0.00020704658612470466,-8.994168590294983e-05,0.0003435873654557458,0.3752071261405945,34.11452865600586,3.7990386486053467,-19.511445999145508,-0.2667136788368225,-1.777347207069397,0.09097616374492645,0
