rezayati/contactInterpretation/dataset/franka_main/labeled_data/link2/f3_4.csv
index,time,tau_J0,tau_J1,tau_J2,tau_J3,tau_J4,tau_J5,tau_J6,tau_J_d0,tau_J_d1,tau_J_d2,tau_J_d3,tau_J_d4,tau_J_d5,tau_J_d6,tau_ext0,tau_ext1,tau_ext2,tau_ext3,tau_ext4,tau_ext5,tau_ext6,q0,q1,q2,q3,q4,q5,q6,q_d0,q_d1,q_d2,q_d3,q_d4,q_d5,q_d6,dq0,dq1,dq2,dq3,dq4,dq5,dq6,dq_d0,dq_d1,dq_d2,dq_d3,dq_d4,dq_d5,dq_d6,e0,e1,e2,e3,e4,e5,e6,de0,de1,de2,de3,de4,de5,de6,etau_J0,etau_J1,etau_J2,etau_J3,etau_J4,etau_J5,etau_J6,label
1,0.0,-0.4029781222343445,-19.717248916625977,-0.5220611095428467,19.931978225708008,0.6777854561805725,2.4694857597351074,-0.24112264811992645,0.0,0.0,0.0,0.0,0.0,0.0,0.0,-0.36296859999824205,0.04552555917095651,-0.31376876349878596,0.170657387368674,0.09165571985156454,0.09267134266352374,-0.24200211797733245,1.2136243847420338,-0.22024142305474528,-0.007489370081937095,-2.6038954397975043,-0.10888728402058374,2.468183589197766,0.8264734866603912,1.2134413937687574,-0.2202432315892585,-0.0075118285948192216,-2.6038483821997875,-0.10888392708698907,2.4681821257803174,0.826474908251239,0.0010805490672692402,0.0005626174971404319,1.827220087127795e-05,4.1528903137660983e-05,4.095689028248569e-06,-0.00021455941980944932,5.302791139291216e-05,0.0,0.0,0.0,0.0,0.0,0.0,0.0,-0.00018299097327645342,-1.808534513203508e-06,-2.24585128821269e-05,4.705759771672646e-05,3.3569335946698198e-06,-1.4634174485550488e-06,1.4215908478165673e-06,-0.0010805490672692402,-0.0005626174971404319,-1.827220087127795e-05,-4.1528903137660983e-05,-4.095689028248569e-06,0.00021455941980944932,-5.302791139291216e-05,0.4029781222343445,19.717248916625977,0.5220611095428467,-19.931978225708008,-0.6777854561805725,-2.4694857597351074,0.24112264811992645,0
2,0.004962444305419922,-0.4029781222343445,-19.717248916625977,-0.5220611095428467,19.931978225708008,0.6777854561805725,2.4694857597351074,-0.24112264811992645,0.0,0.0,0.0,0.0,0.0,0.0,0.0,-0.36296859999824205,0.04552555917095651,-0.31376876349878596,0.170657387368674,0.09165571985156454,0.09267134266352374,-0.24200211797733245,1.2136243847420338,-0.22024142305474528,-0.007489370081937095,-2.6038954397975043,-0.10888728402058374,2.468183589197766,0.8264734866603912,1.2134413937687574,-0.2202432315892585,-0.0075118285948192216,-2.6038483821997875,-0.10888392708698907,2.4681821257803174,0.826474908251239,0.0010805490672692402,0.0005626174971404319,1.827220087127795e-05,4.1528903137660983e-05,4.095689028248569e-06,-0.00021455941980944932,5.302791139291216e-05,0.0,0.0,0.0,0.0,0.0,0.0,0.0,-0.00018299097327645342,-1.808534513203508e-06,-2.24585128821269e-05,4.705759771672646e-05,3.3569335946698198e-06,-1.4634174485550488e-06,1.4215908478165673e-06,-0.0010805490672692402,-0.0005626174971404319,-1.827220087127795e-05,-4.1528903137660983e-05,-4.095689028248569e-06,0.00021455941980944932,-5.302791139291216e-05,0.4029781222343445,19.717248916625977,0.5220611095428467,-19.931978225708008,-0.6777854561805725,-2.4694857597351074,0.24112264811992645,0
3,0.009963512420654297,-0.3514034152030945,-19.669641494750977,-0.5220611095428467,19.931978225708008,0.6896873116493225,2.4694857597351074,-0.22098104655742645,0.0,0.0,0.0,0.0,0.0,0.0,0.0,-0.3625239107532398,0.04778303173805456,-0.31341838916187803,0.17201435484005295,0.0916539638035524,0.09338994398422938,-0.2420931405001645,1.2136207654643474,-0.2202447639264558,-0.007489142122558094,-2.60389321355236,-0.10889180026451746,2.468183549934185,0.8264742791883494,1.2134413937687574,-0.2202432315892585,-0.0075118285948192216,-2.6038483821997875,-0.10888392708698907,2.4681821257803174,0.826474908251239,0.00012639624717010643,-0.0004600751098481908,-3.883673337750446e-05,0.0006023846989840558,-0.0007272629662733337,-0.00033967891615437415,-0.0007891819749303086,0.0,0.0,0.0,0.0,0.0,0.0,0.0,-0.00017937169559001376,1.5323371973241517e-06,-2.2686472261127834e-05,4.4831352572494154e-05,7.873177528386344e-06,-1.4241538677239873e-06,6.290628896676864e-07,-0.00012639624717010643,0.0004600751098481908,3.883673337750446e-05,-0.0006023846989840558,0.0007272629662733337,0.00033967891615437415,0.0007891819749303086,0.3514034152030945,19.669641494750977,0.5220611095428467,-19.931978225708008,-0.6896873116493225,-2.4694857597351074,0.22098104655742645,0
4,0.014962196350097656,-0.3514034152030945,-19.669641494750977,-0.5220611095428467,19.931978225708008,0.6896873116493225,2.4694857597351074,-0.22098104655742645,0.0,0.0,0.0,0.0,0.0,0.0,0.0,-0.3625239107532398,0.04778303173805456,-0.31341838916187803,0.17201435484005295,0.0916539638035524,0.09338994398422938,-0.2420931405001645,1.2136207654643474,-0.2202447639264558,-0.007489142122558094,-2.60389321355236,-0.10889180026451746,2.468183549934185,0.8264742791883494,1.2134413937687574,-0.2202432315892585,-0.0075118285948192216,-2.6038483821997875,-0.10888392708698907,2.4681821257803174,0.826474908251239,0.00012639624717010643,-0.0004600751098481908,-3.883673337750446e-05,0.0006023846989840558,-0.0007272629662733337,-0.00033967891615437415,-0.0007891819749303086,0.0,0.0,0.0,0.0,0.0,0.0,0.0,-0.00017937169559001376,1.5323371973241517e-06,-2.2686472261127834e-05,4.4831352572494154e-05,7.873177528386344e-06,-1.4241538677239873e-06,6.290628896676864e-07,-0.00012639624717010643,0.0004600751098481908,3.883673337750446e-05,-0.0006023846989840558,0.0007272629662733337,0.00033967891615437415,0.0007891819749303086,0.3514034152030945,19.669641494750977,0.5220611095428467,-19.931978225708008,-0.6896873116493225,-2.4694857597351074,0.22098104655742645,0
5,0.019960641860961914,-0.3514034152030945,-19.693445205688477,-0.4982573688030243,19.955781936645508,0.6832786202430725,2.4630770683288574,-0.27591270208358765,0.0,0.0,0.0,0.0,0.0,0.0,0.0,-0.36052778154308124,0.045054147961495664,-0.3160856815236764,0.17268154628142163,0.09128729941429832,0.09351975025687843,-0.24236728605354896,1.2136207654643474,-0.22024309349060056,-0.007490180814426753,-2.6038971092157195,-0.10889108820572373,2.4681842620107863,0.8264803706098185,1.2134413937687574,-0.2202432315892585,-0.0075118285948192216,-2.6038483821997875,-0.10888392708698907,2.4681821257803174,0.826474908251239,0.00013737094896392415,-0.00024676536378816607,-0.00037241174658085205,-1.2225175147991092e-05,-0.0002597324098328923,7.863347076496502e-05,0.0015937545190860653,0.0,0.0,0.0,0.0,0.0,0.0,0.0,-0.00017937169559001376,-1.3809865792580034e-07,-2.1647780392468167e-05,4.8727015931948614e-05,7.161118734652638e-06,-2.136230468963163e-06,-5.46235857945554e-06,-0.00013737094896392415,0.00024676536378816607,0.00037241174658085205,1.2225175147991092e-05,0.0002597324098328923,-7.863347076496502e-05,-0.0015937545190860653,0.3514034152030945,19.693445205688477,0.4982573688030243,-19.955781936645508,-0.6832786202430725,-2.4630770683288574,0.27591270208358765,0
6,0.024960994720458984,-0.3514034152030945,-19.693445205688477,-0.4982573688030243,19.955781936645508,0.6832786202430725,2.4630770683288574,-0.27591270208358765,0.0,0.0,0.0,0.0,0.0,0.0,0.0,-0.36052778154308124,0.045054147961495664,-0.3160856815236764,0.17268154628142163,0.09128729941429832,0.09351975025687843,-0.24236728605354896,1.2136207654643474,-0.22024309349060056,-0.007490180814426753,-2.6038971092157195,-0.10889108820572373,2.4681842620107863,0.8264803706098185,1.2134413937687574,-0.2202432315892585,-0.0075118285948192216,-2.6038483821997875,-0.10888392708698907,2.4681821257803174,0.826474908251239,0.00013737094896392415,-0.00024676536378816607,-0.00037241174658085205,-1.2225175147991092e-05,-0.0002597324098328923,7.863347076496502e-05,0.0015937545190860653,0.0,0.0,0.0,0.0,0.0,0.0,0.0,-0.00017937169559001376,-1.3809865792580034e-07,-2.1647780392468167e-05,4.8727015931948614e-05,7.161118734652638e-06,-2.136230468963163e-06,-5.46235857945554e-06,-0.00013737094896392415,0.00024676536378816607,0.00037241174658085205,1.2225175147991092e-05,0.0002597324098328923,-7.863347076496502e-05,-0.0015937545190860653,0.3514034152030945,19.693445205688477,0.4982573688030243,-19.955781936645508,-0.6832786202430725,-2.4630770683288574,0.27591270208358765,0
7,0.029983997344970703,-0.3514034152030945,-19.717248916625977,-0.4982573688030243,19.955781936645508,0.6777854561805725,2.4566683769226074,-0.20724813640117645,0.0,0.0,0.0,0.0,0.0,0.0,0.0,-0.35945930102649415,0.04732911113286824,-0.3186968455523156,0.17283616535859145,0.09110363342484512,0.09302741923468434,-0.2422642660104281,1.2136207654643474,-0.22024134297321143,-0.007490882697400158,-2.603894911497994,-0.1088873234684337,2.4681860337257384,0.8264739235421005,1.2134413937687574,-0.2202432315892585,-0.0075118285948192216,-2.6038483821997875,-0.10888392708698907,2.4681821257803174,0.826474908251239,-0.00010751929621060543,0.000476249270205944,-0.0004615784637189567,0.000198065388073187,-6.896021601718402e-05,0.00019662456324056663,-0.0012668059576030012,0.0,0.0,0.0,0.0,0.0,0.0,0.0,-0.00017937169559001376,-1.8886160470521496e-06,-2.0945897419063185e-05,4.6529298206365866e-05,3.3963814446286156e-06,-3.907945421044445e-06,9.84709138562856e-07,0.00010751929621060543,-0.000476249270205944,0.0004615784637189567,-0.000198065388073187,6.896021601718402e-05,-0.00019662456324056663,0.0012668059576030012,0.3514034152030945,19.717248916625977,0.4982573688030243,-19.955781936645508,-0.6777854561805725,-2.4566683769226074,0.20724813640117645,0
8,0.03499197959899902,-0.3514034152030945,-19.717248916625977,-0.4982573688030243,19.955781936645508,0.6777854561805725,2.4566683769226074,-0.20724813640117645,0.0,0.0,0.0,0.0,0.0,0.0,0.0,-0.35945930102649415,0.04732911113286824,-0.3186968455523156,0.17283616535859145,0.09110363342484512,0.09302741923468434,-0.2422642660104281,1.2136207654643474,-0.22024134297321143,-0.007490882697400158,-2.603894911497994,-0.1088873234684337,2.4681860337257384,0.8264739235421005,1.2134413937687574,-0.2202432315892585,-0.0075118285948192216,-2.6038483821997875,-0.10888392708698907,2.4681821257803174,0.826474908251239,-0.00010751929621060543,0.000476249270205944,-0.0004615784637189567,0.000198065388073187,-6.896021601718402e-05,0.00019662456324056663,-0.0012668059576030012,0.0,0.0,0.0,0.0,0.0,0.0,0.0,-0.00017937169559001376,-1.8886160470521496e-06,-2.0945897419063185e-05,4.6529298206365866e-05,3.3963814446286156e-06,-3.907945421044445e-06,9.84709138562856e-07,0.00010751929621060543,-0.000476249270205944,0.0004615784637189567,-0.000198065388073187,6.896021601718402e-05,-0.00019662456324056663,0.0012668059576030012,0.3514034152030945,19.717248916625977,0.4982573688030243,-19.955781936645508,-0.6777854561805725,-2.4566683769226074,0.20724813640117645,0
9,0.040010690689086914,-0.3752071261405945,-19.693445205688477,-0.4982573688030243,19.931978225708008,0.6832786202430725,2.4630770683288574,-0.26858848333358765,0.0,0.0,0.0,0.0,0.0,0.0,0.0,-0.35972824473035453,0.04103459321047274,-0.31939830604695163,0.17535822654728023,0.090068522247748,0.09274972553783012,-0.24146770172098267,1.2136224359002028,-0.2202430934901485,-0.007490881618927919,-2.6038932145574334,-0.10888789437236802,2.4681843013164597,0.8264767475862325,1.2134413937687574,-0.2202432315892585,-0.0075118285948192216,-2.6038483821997875,-0.10888392708698907,2.4681821257803174,0.826474908251239,0.0004072686672823768,-0.0008431964131133795,-0.0005855154611290196,0.00046567272535386273,-0.00033567570288262874,2.1322512768033106e-05,0.0015304077293065465,0.0,0.0,0.0,0.0,0.0,0.0,0.0,-0.00018104213144543024,-1.380991099808604e-07,-2.094697589130265e-05,4.483235764585203e-05,3.967285378950192e-06,-2.1755361423458908e-06,-1.8393349934253678e-06,-0.0004072686672823768,0.0008431964131133795,0.0005855154611290196,-0.00046567272535386273,0.00033567570288262874,-2.1322512768033106e-05,-0.0015304077293065465,0.3752071261405945,19.693445205688477,0.4982573688030243,-19.931978225708008,-0.6832786202430725,-2.4630770683288574,0.26858848333358765,0
10,0.04493904113769531,-0.3752071261405945,-19.693445205688477,-0.4982573688030243,19.931978225708008,0.6832786202430725,2.4630770683288574,-0.26858848333358765,0.0,0.0,0.0,0.0,0.0,0.0,0.0,-0.35972824473035453,0.04103459321047274,-0.31939830604695163,0.17535822654728023,0.090068522247748,0.09274972553783012,-0.24146770172098267,1.2136224359002028,-0.2202430934901485,-0.007490881618927919,-2.6038932145574334,-0.10888789437236802,2.4681843013164597,0.8264767475862325,1.2134413937687574,-0.2202432315892585,-0.0075118285948192216,-2.6038483821997875,-0.10888392708698907,2.4681821257803174,0.826474908251239,0.0004072686672823768,-0.0008431964131133795,-0.0005855154611290196,0.00046567272535386273,-0.00033567570288262874,2.1322512768033106e-05,0.0015304077293065465,0.0,0.0,0.0,0.0,0.0,0.0,0.0,-0.00018104213144543024,-1.380991099808604e-07,-2.094697589130265e-05,4.483235764585203e-05,3.967285378950192e-06,-2.1755361423458908e-06,-1.8393349934253678e-06,-0.0004072686672823768,0.0008431964131133795,0.0005855154611290196,-0.00046567272535386273,0.00033567570288262874,-2.1322512768033106e-05,-0.0015304077293065465,0.3752071261405945,19.693445205688477,0.4982573688030243,-19.931978225708008,-0.6832786202430725,-2.4630770683288574,0.26858848333358765,0
11,0.04997587203979492,-0.3752071261405945,-19.717248916625977,-0.4704863727092743,19.955781936645508,0.6832786202430725,2.4694857597351074,-0.26217979192733765,0.0,0.0,0.0,0.0,0.0,0.0,0.0,-0.35908661300219286,0.04158425173647539,-0.3172667166444497,0.1754619269457595,0.08982108898161728,0.09265125871731711,-0.24127868719638,1.2136224359002028,-0.22024142305474528,-0.00749235700395078,-2.6038948843148155,-0.1088878958325091,2.468183667671755,0.8264788883214933,1.2134413937687574,-0.2202432315892585,-0.0075118285948192216,-2.6038483821997875,-0.10888392708698907,2.4681821257803174,0.826474908251239,0.0004845319396192566,0.00012403979553939656,-0.0011268764098397467,0.00029767008602566894,-0.00018841344349268944,-0.00013770136611235433,0.0011555316583261757,0.0,0.0,0.0,0.0,0.0,0.0,0.0,-0.00018104213144543024,-1.808534513203508e-06,-1.947159086844192e-05,4.6502115027990953e-05,3.968745520027683e-06,-1.5418914376397197e-06,-3.980070254261392e-06,-0.0004845319396192566,-0.00012403979553939656,0.0011268764098397467,-0.00029767008602566894,0.00018841344349268944,0.00013770136611235433,-0.0011555316583261757,0.3752071261405945,19.717248916625977,0.4704863727092743,-19.955781936645508,-0.6832786202430725,-2.4694857597351074,0.26217979192733765,0
12,0.05497121810913086,-0.3752071261405945,-19.717248916625977,-0.4704863727092743,19.955781936645508,0.6832786202430725,2.4694857597351074,-0.26217979192733765,0.0,0.0,0.0,0.0,0.0,0.0,0.0,-0.35908661300219286,0.04158425173647539,-0.3172667166444497,0.1754619269457595,0.08982108898161728,0.09265125871731711,-0.24127868719638,1.2136224359002028,-0.22024142305474528,-0.00749235700395078,-2.6038948843148155,-0.1088878958325091,2.468183667671755,0.8264788883214933,1.2134413937687574,-0.2202432315892585,-0.0075118285948192216,-2.6038483821997875,-0.10888392708698907,2.4681821257803174,0.826474908251239,0.0004845319396192566,0.00012403979553939656,-0.0011268764098397467,0.00029767008602566894,-0.00018841344349268944,-0.00013770136611235433,0.0011555316583261757,0.0,0.0,0.0,0.0,0.0,0.0,0.0,-0.00018104213144543024,-1.808534513203508e-06,-1.947159086844192e-05,4.6502115027990953e-05,3.968745520027683e-06,-1.5418914376397197e-06,-3.980070254261392e-06,-0.0004845319396192566,-0.00012403979553939656,0.0011268764098397467,-0.00029767008602566894,0.00018841344349268944,0.00013770136611235433,-0.0011555316583261757,0.3752071261405945,19.717248916625977,0.4704863727092743,-19.955781936645508,-0.6832786202430725,-2.4694857597351074,0.26217979192733765,0
13,0.059957265853881836,-0.3514034152030945,-19.693445205688477,-0.5458648204803467,19.955781936645508,0.6777854561805725,2.4630770683288574,-0.22098104655742645,0.0,0.0,0.0,0.0,0.0,0.0,0.0,-0.359614330394907,0.04173955194341731,-0.3112596556487916,0.173479945589438,0.09023698291265553,0.09252164095082302,-0.24213993187739294,1.2136207654643474,-0.2202430925139965,-0.007487073206566046,-2.6038957082516916,-0.10888728402058374,2.4681853216489893,0.8264744283727619,1.2134413937687574,-0.2202432315892585,-0.0075118285948192216,-2.6038483821997875,-0.10888392708698907,2.4681821257803174,0.826474908251239,-0.00018728051001924944,-0.0005083196095650831,0.0007443026438024641,-0.00020956285530508383,-3.686009167905073e-05,3.3204834588754696e-05,-0.0008756866556378221,0.0,0.0,0.0,0.0,0.0,0.0,0.0,-0.00017937169559001376,-1.3907526197343145e-07,-2.4755388253175706e-05,4.7326051904050814e-05,3.3569335946698198e-06,-3.195868671923563e-06,4.798784771775644e-07,0.00018728051001924944,0.0005083196095650831,-0.0007443026438024641,0.00020956285530508383,3.686009167905073e-05,-3.3204834588754696e-05,0.0008756866556378221,0.3514034152030945,19.693445205688477,0.5458648204803467,-19.955781936645508,-0.6777854561805725,-2.4630770683288574,0.22098104655742645,0
14,0.0649726390838623,-0.3514034152030945,-19.693445205688477,-0.5458648204803467,19.955781936645508,0.6777854561805725,2.4630770683288574,-0.22098104655742645,0.0,0.0,0.0,0.0,0.0,0.0,0.0,-0.359614330394907,0.04173955194341731,-0.3112596556487916,0.173479945589438,0.09023698291265553,0.09252164095082302,-0.24213993187739294,1.2136207654643474,-0.2202430925139965,-0.007487073206566046,-2.6038957082516916,-0.10888728402058374,2.4681853216489893,0.8264744283727619,1.2134413937687574,-0.2202432315892585,-0.0075118285948192216,-2.6038483821997875,-0.10888392708698907,2.4681821257803174,0.826474908251239,-0.00018728051001924944,-0.0005083196095650831,0.0007443026438024641,-0.00020956285530508383,-3.686009167905073e-05,3.3204834588754696e-05,-0.0008756866556378221,0.0,0.0,0.0,0.0,0.0,0.0,0.0,-0.00017937169559001376,-1.3907526197343145e-07,-2.4755388253175706e-05,4.7326051904050814e-05,3.3569335946698198e-06,-3.195868671923563e-06,4.798784771775644e-07,0.00018728051001924944,0.0005083196095650831,-0.0007443026438024641,0.00020956285530508383,3.686009167905073e-05,-3.3204834588754696e-05,0.0008756866556378221,0.3514034152030945,19.693445205688477,0.5458648204803467,-19.955781936645508,-0.6777854561805725,-2.4630770683288574,0.22098104655742645,0
15,0.06995749473571777,-0.3514034152030945,-19.645837783813477,-0.5220611095428467,19.955781936645508,0.6713767647743225,2.4758944511413574,-0.24844686686992645,0.0,0.0,0.0,0.0,0.0,0.0,0.0,-0.3644546950266683,0.043824512582666696,-0.3157932924012063,0.17268765881163453,0.09084212346624648,0.0918612587667405,-0.24217758381905488,1.2136207654643474,-0.2202464343623056,-0.007489456782699001,-2.6038957111957464,-0.10888657194375992,2.4681838975012513,0.8264777114712645,1.2134413937687574,-0.2202432315892585,-0.0075118285948192216,-2.6038483821997875,-0.10888392708698907,2.4681821257803174,0.826474908251239,-0.0003097134916421238,-0.0010799526055664732,0.00017911221208152995,-0.0003151731269918554,0.00018652123765680042,-0.0005242844468657019,0.0005423123024938105,0.0,0.0,0.0,0.0,0.0,0.0,0.0,-0.00017937169559001376,3.2027730471062554e-06,-2.2371812120220227e-05,4.732899595882856e-05,2.6448567708448056e-06,-1.7717209339629392e-06,-2.8032200254379802e-06,0.0003097134916421238,0.0010799526055664732,-0.00017911221208152995,0.0003151731269918554,-0.00018652123765680042,0.0005242844468657019,-0.0005423123024938105,0.3514034152030945,19.645837783813477,0.5220611095428467,-19.955781936645508,-0.6713767647743225,-2.4758944511413574,0.24844686686992645,0
16,0.07498764991760254,-0.3514034152030945,-19.645837783813477,-0.5220611095428467,19.955781936645508,0.6713767647743225,2.4758944511413574,-0.24844686686992645,0.0,0.0,0.0,0.0,0.0,0.0,0.0,-0.3644546950266683,0.043824512582666696,-0.3157932924012063,0.17268765881163453,0.09084212346624648,0.0918612587667405,-0.24217758381905488,1.2136207654643474,-0.2202464343623056,-0.007489456782699001,-2.6038957111957464,-0.10888657194375992,2.4681838975012513,0.8264777114712645,1.2134413937687574,-0.2202432315892585,-0.0075118285948192216,-2.6038483821997875,-0.10888392708698907,2.4681821257803174,0.826474908251239,-0.0003097134916421238,-0.0010799526055664732,0.00017911221208152995,-0.0003151731269918554,0.00018652123765680042,-0.0005242844468657019,0.0005423123024938105,0.0,0.0,0.0,0.0,0.0,0.0,0.0,-0.00017937169559001376,3.2027730471062554e-06,-2.2371812120220227e-05,4.732899595882856e-05,2.6448567708448056e-06,-1.7717209339629392e-06,-2.8032200254379802e-06,0.0003097134916421238,0.0010799526055664732,-0.00017911221208152995,0.0003151731269918554,-0.00018652123765680042,0.0005242844468657019,-0.0005423123024938105,0.3514034152030945,19.645837783813477,0.5220611095428467,-19.955781936645508,-0.6713767647743225,-2.4758944511413574,0.24844686686992645,0
17,0.0799875259399414,-0.3514034152030945,-19.645837783813477,-0.5220611095428467,19.955781936645508,0.6713767647743225,2.4758944511413574,-0.24844686686992645,0.0,0.0,0.0,0.0,0.0,0.0,0.0,-0.3644546950266683,0.043824512582666696,-0.3157932924012063,0.17268765881163453,0.09084212346624648,0.0918612587667405,-0.24217758381905488,1.2136207654643474,-0.2202464343623056,-0.007489456782699001,-2.6038957111957464,-0.10888657194375992,2.4681838975012513,0.8264777114712645,1.2134413937687574,-0.2202432315892585,-0.0075118285948192216,-2.6038483821997875,-0.10888392708698907,2.4681821257803174,0.826474908251239,-0.0003097134916421238,-0.0010799526055664732,0.00017911221208152995,-0.0003151731269918554,0.00018652123765680042,-0.0005242844468657019,0.0005423123024938105,0.0,0.0,0.0,0.0,0.0,0.0,0.0,-0.00017937169559001376,3.2027730471062554e-06,-2.2371812120220227e-05,4.732899595882856e-05,2.6448567708448056e-06,-1.7717209339629392e-06,-2.8032200254379802e-06,0.0003097134916421238,0.0010799526055664732,-0.00017911221208152995,0.0003151731269918554,-0.00018652123765680042,0.0005242844468657019,-0.0005423123024938105,0.3514034152030945,19.645837783813477,0.5220611095428467,-19.955781936645508,-0.6713767647743225,-2.4758944511413574,0.24844686686992645,0
18,0.08498764038085938,-0.3514034152030945,-19.645837783813477,-0.5220611095428467,19.955781936645508,0.6713767647743225,2.4758944511413574,-0.24844686686992645,0.0,0.0,0.0,0.0,0.0,0.0,0.0,-0.3644546950266683,0.043824512582666696,-0.3157932924012063,0.17268765881163453,0.09084212346624648,0.0918612587667405,-0.24217758381905488,1.2136207654643474,-0.2202464343623056,-0.007489456782699001,-2.6038957111957464,-0.10888657194375992,2.4681838975012513,0.8264777114712645,1.2134413937687574,-0.2202432315892585,-0.0075118285948192216,-2.6038483821997875,-0.10888392708698907,2.4681821257803174,0.826474908251239,-0.0003097134916421238,-0.0010799526055664732,0.00017911221208152995,-0.0003151731269918554,0.00018652123765680042,-0.0005242844468657019,0.0005423123024938105,0.0,0.0,0.0,0.0,0.0,0.0,0.0,-0.00017937169559001376,3.2027730471062554e-06,-2.2371812120220227e-05,4.732899595882856e-05,2.6448567708448056e-06,-1.7717209339629392e-06,-2.8032200254379802e-06,0.0003097134916421238,0.0010799526055664732,-0.00017911221208152995,0.0003151731269918554,-0.00018652123765680042,0.0005242844468657019,-0.0005423123024938105,0.3514034152030945,19.645837783813477,0.5220611095428467,-19.955781936645508,-0.6713767647743225,-2.4758944511413574,0.24844686686992645,0
19,0.08997130393981934,-0.3752071261405945,-19.717248916625977,-0.5220611095428467,19.955781936645508,0.6658836007118225,2.4694857597351074,-0.21457235515117645,0.0,0.0,0.0,0.0,0.0,0.0,0.0,-0.36417060023961234,0.03614685185279596,-0.3174219333859237,0.17859073228285616,0.09079668130379055,0.09275797265588857,-0.24172488246412477,1.2136224359002028,-0.22024142305474528,-0.007487326231114837,-2.6038971105770363,-0.10888596159219742,2.468183549939945,0.826473911083838,1.2134413937687574,-0.2202432315892585,-0.0075118285948192216,-2.6038483821997875,-0.10888392708698907,2.4681821257803174,0.826474908251239,-3.591490557887203e-05,0.000566231696686991,0.00014004566042712417,-0.00011476282794797748,0.00011532398370175548,-0.00013725605228163685,-0.0009425615762506939,0.0,0.0,0.0,0.0,0.0,0.0,0.0,-0.00018104213144543024,-1.808534513203508e-06,-2.450236370438435e-05,4.872837724878565e-05,2.0345052083453607e-06,-1.424159627561039e-06,9.971674009845444e-07,3.591490557887203e-05,-0.000566231696686991,-0.00014004566042712417,0.00011476282794797748,-0.00011532398370175548,0.00013725605228163685,0.0009425615762506939,0.3752071261405945,19.717248916625977,0.5220611095428467,-19.955781936645508,-0.6658836007118225,-2.4694857597351074,0.21457235515117645,0
20,0.0949852466583252,-0.3752071261405945,-19.717248916625977,-0.5220611095428467,19.955781936645508,0.6658836007118225,2.4694857597351074,-0.21457235515117645,0.0,0.0,0.0,0.0,0.0,0.0,0.0,-0.36417060023961234,0.03614685185279596,-0.3174219333859237,0.17859073228285616,0.09079668130379055,0.09275797265588857,-0.24172488246412477,1.2136224359002028,-0.22024142305474528,-0.007487326231114837,-2.6038971105770363,-0.10888596159219742,2.468183549939945,0.826473911083838,1.2134413937687574,-0.2202432315892585,-0.0075118285948192216,-2.6038483821997875,-0.10888392708698907,2.4681821257803174,0.826474908251239,-3.591490557887203e-05,0.000566231696686991,0.00014004566042712417,-0.00011476282794797748,0.00011532398370175548,-0.00013725605228163685,-0.0009425615762506939,0.0,0.0,0.0,0.0,0.0,0.0,0.0,-0.00018104213144543024,-1.808534513203508e-06,-2.450236370438435e-05,4.872837724878565e-05,2.0345052083453607e-06,-1.424159627561039e-06,9.971674009845444e-07,3.591490557887203e-05,-0.000566231696686991,-0.00014004566042712417,0.00011476282794797748,-0.00011532398370175548,0.00013725605228163685,0.0009425615762506939,0.3752071261405945,19.717248916625977,0.5220611095428467,-19.955781936645508,-0.6658836007118225,-2.4694857597351074,0.21457235515117645,0
21,0.09998297691345215,-0.3752071261405945,-19.717248916625977,-0.5220611095428467,19.931978225708008,0.6658836007118225,2.4566683769226074,-0.22830526530742645,0.0,0.0,0.0,0.0,0.0,0.0,0.0,-0.3608937284130784,0.036909455889817804,-0.31294541417805666,0.17760139711226133,0.09019707522508817,0.09303592058183482,-0.24147886183873293,1.2136224359002028,-0.22024142305474528,-0.007489457315914868,-2.6038932166048174,-0.10888596159219742,2.468186386938448,0.8264761802112304,1.2134413937687574,-0.2202432315892585,-0.0075118285948192216,-2.6038483821997875,-0.10888392708698907,2.4681821257803174,0.826474908251239,0.0003085192849074839,0.0002641362189200982,0.0003905646916545945,0.0005460555171159183,0.0003667579481299214,0.00037624379103071956,-4.6059077940002055e-05,0.0,0.0,0.0,0.0,0.0,0.0,0.0,-0.00018104213144543024,-1.808534513203508e-06,-2.23712789043538e-05,4.483440502989211e-05,2.0345052083453607e-06,-4.261158130791642e-06,-1.27195999133356e-06,-0.0003085192849074839,-0.0002641362189200982,-0.0003905646916545945,-0.0005460555171159183,-0.0003667579481299214,-0.00037624379103071956,4.6059077940002055e-05,0.3752071261405945,19.717248916625977,0.5220611095428467,-19.931978225708008,-0.6658836007118225,-2.4566683769226074,0.22830526530742645,0
22,0.10499691963195801,-0.3752071261405945,-19.717248916625977,-0.5220611095428467,19.931978225708008,0.6658836007118225,2.4566683769226074,-0.22830526530742645,0.0,0.0,0.0,0.0,0.0,0.0,0.0,-0.3608937284130784,0.036909455889817804,-0.31294541417805666,0.17760139711226133,0.09019707522508817,0.09303592058183482,-0.24147886183873293,1.2136224359002028,-0.22024142305474528,-0.007489457315914868,-2.6038932166048174,-0.10888596159219742,2.468186386938448,0.8264761802112304,1.2134413937687574,-0.2202432315892585,-0.0075118285948192216,-2.6038483821997875,-0.10888392708698907,2.4681821257803174,0.826474908251239,0.0003085192849074839,0.0002641362189200982,0.0003905646916545945,0.0005460555171159183,0.0003667579481299214,0.00037624379103071956,-4.6059077940002055e-05,0.0,0.0,0.0,0.0,0.0,0.0,0.0,-0.00018104213144543024,-1.808534513203508e-06,-2.23712789043538e-05,4.483440502989211e-05,2.0345052083453607e-06,-4.261158130791642e-06,-1.27195999133356e-06,-0.0003085192849074839,-0.0002641362189200982,-0.0003905646916545945,-0.0005460555171159183,-0.0003667579481299214,-0.00037624379103071956,4.6059077940002055e-05,0.3752071261405945,19.717248916625977,0.5220611095428467,-19.931978225708008,-0.6658836007118225,-2.4566683769226074,0.22830526530742645,0
23,0.1099848747253418,-0.3236324191093445,-19.693445205688477,-0.5220611095428467,19.955781936645508,0.6777854561805725,2.4694857597351074,-0.22830526530742645,0.0,0.0,0.0,0.0,0.0,0.0,0.0,-0.36321880940675105,0.038371140875972924,-0.3131671913014143,0.17307010414264115,0.09031852692817192,0.09250346421827932,-0.23987491770408695,1.2136188166225164,-0.22024309349060056,-0.007488430819331709,-2.6038948839756655,-0.10888733659367827,2.468183549941939,0.8264729747064521,1.2134413937687574,-0.2202432315892585,-0.0075118285948192216,-2.6038483821997875,-0.10888392708698907,2.4681821257803174,0.826474908251239,-0.0005878755779121159,-0.00048807126100539473,-0.00013753276773272608,-0.0001415063803962351,0.0001595197462927404,-0.00028234576090102386,-0.0010872296779976945,0.0,0.0,0.0,0.0,0.0,0.0,0.0,-0.00017742285375899058,-1.3809865792580034e-07,-2.33977754875124e-05,4.650177587794957e-05,3.40950668920037e-06,-1.4241616215215913e-06,1.9335447869472944e-06,0.0005878755779121159,0.00048807126100539473,0.00013753276773272608,0.0001415063803962351,-0.0001595197462927404,0.00028234576090102386,0.0010872296779976945,0.3236324191093445,19.693445205688477,0.5220611095428467,-19.955781936645508,-0.6777854561805725,-2.4694857597351074,0.22830526530742645,0
24,0.11500167846679688,-0.3236324191093445,-19.693445205688477,-0.5220611095428467,19.955781936645508,0.6777854561805725,2.4694857597351074,-0.22830526530742645,0.0,0.0,0.0,0.0,0.0,0.0,0.0,-0.36321880940675105,0.038371140875972924,-0.3131671913014143,0.17307010414264115,0.09031852692817192,0.09250346421827932,-0.23987491770408695,1.2136188166225164,-0.22024309349060056,-0.007488430819331709,-2.6038948839756655,-0.10888733659367827,2.468183549941939,0.8264729747064521,1.2134413937687574,-0.2202432315892585,-0.0075118285948192216,-2.6038483821997875,-0.10888392708698907,2.4681821257803174,0.826474908251239,-0.0005878755779121159,-0.00048807126100539473,-0.00013753276773272608,-0.0001415063803962351,0.0001595197462927404,-0.00028234576090102386,-0.0010872296779976945,0.0,0.0,0.0,0.0,0.0,0.0,0.0,-0.00017742285375899058,-1.3809865792580034e-07,-2.33977754875124e-05,4.650177587794957e-05,3.40950668920037e-06,-1.4241616215215913e-06,1.9335447869472944e-06,0.0005878755779121159,0.00048807126100539473,0.00013753276773272608,0.0001415063803962351,-0.0001595197462927404,0.00028234576090102386,0.0010872296779976945,0.3236324191093445,19.693445205688477,0.5220611095428467,-19.955781936645508,-0.6777854561805725,-2.4694857597351074,0.22830526530742645,0
25,0.11998558044433594,-0.3236324191093445,-19.669641494750977,-0.4982573688030243,19.931978225708008,0.6713767647743225,2.4630770683288574,-0.24844686686992645,0.0,0.0,0.0,0.0,0.0,0.0,0.0,-0.3614025736887076,0.040621438070968664,-0.3134878470334194,0.1699749183895574,0.09083759188344577,0.09223425928232556,-0.2409025852049733,1.2136188166225164,-0.2202447639264558,-0.007491040155073657,-2.603893955286483,-0.1088865719440567,2.4681842620107863,0.826475595519988,1.2134413937687574,-0.2202432315892585,-0.0075118285948192216,-2.6038483821997875,-0.10888392708698907,2.4681821257803174,0.826474908251239,-0.0006266488086469664,-0.0005900865982932031,-7.57733726386089e-05,0.0004543619345277561,0.0001714540722273335,0.0002447630052222267,-0.00013398250048085123,0.0,0.0,0.0,0.0,0.0,0.0,0.0,-0.00017742285375899058,1.5323371973241517e-06,-2.0788439745564498e-05,4.557308669550508e-05,2.644857067621298e-06,-2.136230468963163e-06,-6.872687489112295e-07,0.0006266488086469664,0.0005900865982932031,7.57733726386089e-05,-0.0004543619345277561,-0.0001714540722273335,-0.0002447630052222267,0.00013398250048085123,0.3236324191093445,19.669641494750977,0.4982573688030243,-19.931978225708008,-0.6713767647743225,-2.4630770683288574,0.24844686686992645,0
26,0.12499547004699707,-0.3236324191093445,-19.669641494750977,-0.4982573688030243,19.931978225708008,0.6713767647743225,2.4630770683288574,-0.24844686686992645,0.0,0.0,0.0,0.0,0.0,0.0,0.0,-0.3614025736887076,0.040621438070968664,-0.3134878470334194,0.1699749183895574,0.09083759188344577,0.09223425928232556,-0.2409025852049733,1.2136188166225164,-0.2202447639264558,-0.007491040155073657,-2.603893955286483,-0.1088865719440567,2.4681842620107863,0.826475595519988,1.2134413937687574,-0.2202432315892585,-0.0075118285948192216,-2.6038483821997875,-0.10888392708698907,2.4681821257803174,0.826474908251239,-0.0006266488086469664,-0.0005900865982932031,-7.57733726386089e-05,0.0004543619345277561,0.0001714540722273335,0.0002447630052222267,-0.00013398250048085123,0.0,0.0,0.0,0.0,0.0,0.0,0.0,-0.00017742285375899058,1.5323371973241517e-06,-2.0788439745564498e-05,4.557308669550508e-05,2.644857067621298e-06,-2.136230468963163e-06,-6.872687489112295e-07,0.0006266488086469664,0.0005900865982932031,7.57733726386089e-05,-0.0004543619345277561,-0.0001714540722273335,-0.0002447630052222267,0.00013398250048085123,0.3236324191093445,19.669641494750977,0.4982573688030243,-19.931978225708008,-0.6713767647743225,-2.4630770683288574,0.24844686686992645,0
27,0.12998270988464355,-0.2998287081718445,-19.693445205688477,-0.5220611095428467,19.931978225708008,0.6777854561805725,2.4630770683288574,-0.23471395671367645,0.0,0.0,0.0,0.0,0.0,0.0,0.0,-0.3582674749167218,0.036014143645342646,-0.31266112495774034,0.17376010809006895,0.09145578911984323,0.09342966104082712,-0.24098337911598577,1.2136171461866612,-0.22024309349060056,-0.007489457760424163,-2.6038932227013465,-0.1088874023100476,2.4681842620107863,0.8264742004627651,1.2134413937687574,-0.2202432315892585,-0.0075118285948192216,-2.6038483821997875,-0.10888392708698907,2.4681821257803174,0.826474908251239,-0.0011878789050586752,-8.135403000504932e-05,0.0007152928693639233,0.00026926448834905885,-0.0019431691945586784,0.00045888817002561974,-0.0006119405449054202,0.0,0.0,0.0,0.0,0.0,0.0,0.0,-0.00017575241790379614,-1.3809865792580034e-07,-2.2370834395058978e-05,4.484050155895147e-05,3.4752230585327615e-06,-2.136230468963163e-06,7.077884739414841e-07,0.0011878789050586752,8.135403000504932e-05,-0.0007152928693639233,-0.00026926448834905885,0.0019431691945586784,-0.00045888817002561974,0.0006119405449054202,0.2998287081718445,19.693445205688477,0.5220611095428467,-19.931978225708008,-0.6777854561805725,-2.4630770683288574,0.23471395671367645,0
28,0.13499760627746582,-0.2998287081718445,-19.693445205688477,-0.5220611095428467,19.931978225708008,0.6777854561805725,2.4630770683288574,-0.23471395671367645,0.0,0.0,0.0,0.0,0.0,0.0,0.0,-0.3582674749167218,0.036014143645342646,-0.31266112495774034,0.17376010809006895,0.09145578911984323,0.09342966104082712,-0.24098337911598577,1.2136171461866612,-0.22024309349060056,-0.007489457760424163,-2.6038932227013465,-0.1088874023100476,2.4681842620107863,0.8264742004627651,1.2134413937687574,-0.2202432315892585,-0.0075118285948192216,-2.6038483821997875,-0.10888392708698907,2.4681821257803174,0.826474908251239,-0.0011878789050586752,-8.135403000504932e-05,0.0007152928693639233,0.00026926448834905885,-0.0019431691945586784,0.00045888817002561974,-0.0006119405449054202,0.0,0.0,0.0,0.0,0.0,0.0,0.0,-0.00017575241790379614,-1.3809865792580034e-07,-2.2370834395058978e-05,4.484050155895147e-05,3.4752230585327615e-06,-2.136230468963163e-06,7.077884739414841e-07,0.0011878789050586752,8.135403000504932e-05,-0.0007152928693639233,-0.00026926448834905885,0.0019431691945586784,-0.00045888817002561974,0.0006119405449054202,0.2998287081718445,19.693445205688477,0.5220611095428467,-19.931978225708008,-0.6777854561805725,-2.4630770683288574,0.23471395671367645,0
29,0.1399829387664795,-0.3752071261405945,-19.693445205688477,-0.5220611095428467,19.931978225708008,0.6713767647743225,2.4630770683288574,-0.25485557317733765,0.0,0.0,0.0,0.0,0.0,0.0,0.0,-0.35711775951279423,0.03352983371824938,-0.31524626377282844,0.17515824846846595,0.09059131280276242,0.09475502423223034,-0.2415331949389368,1.2136224359002028,-0.22024285617581119,-0.007489427236271371,-2.6038954662520157,-0.1088865719985152,2.4681842620107863,0.8264753781905719,1.2134413937687574,-0.2202432315892585,-0.0075118285948192216,-2.6038483821997875,-0.10888392708698907,2.4681821257803174,0.826474908251239,0.0006462267598584563,-0.00015867987626260922,0.0002924232241072953,0.0006572610103448048,0.00010863035812143731,-2.583133836926412e-05,0.0008161649389501393,0.0,0.0,0.0,0.0,0.0,0.0,0.0,-0.00018104213144543024,-3.754134473010762e-07,-2.2401358547850282e-05,4.708405222819678e-05,2.644911526128446e-06,-2.136230468963163e-06,-4.699393328921886e-07,-0.0006462267598584563,0.00015867987626260922,-0.0002924232241072953,-0.0006572610103448048,-0.00010863035812143731,2.583133836926412e-05,-0.0008161649389501393,0.3752071261405945,19.693445205688477,0.5220611095428467,-19.931978225708008,-0.6713767647743225,-2.4630770683288574,0.25485557317733765,0
30,0.14499974250793457,-0.3752071261405945,-19.693445205688477,-0.5220611095428467,19.931978225708008,0.6713767647743225,2.4630770683288574,-0.25485557317733765,0.0,0.0,0.0,0.0,0.0,0.0,0.0,-0.35711775951279423,0.03352983371824938,-0.31524626377282844,0.17515824846846595,0.09059131280276242,0.09475502423223034,-0.2415331949389368,1.2136224359002028,-0.22024285617581119,-0.007489427236271371,-2.6038954662520157,-0.1088865719985152,2.4681842620107863,0.8264753781905719,1.2134413937687574,-0.2202432315892585,-0.0075118285948192216,-2.6038483821997875,-0.10888392708698907,2.4681821257803174,0.826474908251239,0.0006462267598584563,-0.00015867987626260922,0.0002924232241072953,0.0006572610103448048,0.00010863035812143731,-2.583133836926412e-05,0.0008161649389501393,0.0,0.0,0.0,0.0,0.0,0.0,0.0,-0.00018104213144543024,-3.754134473010762e-07,-2.2401358547850282e-05,4.708405222819678e-05,2.644911526128446e-06,-2.136230468963163e-06,-4.699393328921886e-07,-0.0006462267598584563,0.00015867987626260922,-0.0002924232241072953,-0.0006572610103448048,-0.00010863035812143731,2.583133836926412e-05,-0.0008161649389501393,0.3752071261405945,19.693445205688477,0.5220611095428467,-19.931978225708008,-0.6713767647743225,-2.4630770683288574,0.25485557317733765,0
31,0.14998364448547363,-0.3514034152030945,-19.693445205688477,-0.5458648204803467,19.931978225708008,0.6832786202430725,2.4758944511413574,-0.20083944499492645,0.0,0.0,0.0,0.0,0.0,0.0,0.0,-0.35733357077757405,0.04034831629823949,-0.31596754577438435,0.17119980856786263,0.09034919318906655,0.09364564749946465,-0.2408242809212087,1.2136207654643474,-0.2202430905594487,-0.007487067938997994,-2.6038932959688084,-0.10888789437214565,2.4681828378571407,0.8264699521599697,1.2134413937687574,-0.2202432315892585,-0.0075118285948192216,-2.6038483821997875,-0.10888392708698907,2.4681821257803174,0.826474908251239,-0.0007709473344046671,0.00016013875650882847,0.0009512818574325088,0.00044746392481750567,-0.0002985656730509566,-0.0004084865547691974,-0.0014499191251327378,0.0,0.0,0.0,0.0,0.0,0.0,0.0,-0.00017937169559001376,-1.410298097748175e-07,-2.4760655821227592e-05,4.491376902082678e-05,3.96728515657252e-06,-7.120768232837804e-07,4.956091269381346e-06,0.0007709473344046671,-0.00016013875650882847,-0.0009512818574325088,-0.00044746392481750567,0.0002985656730509566,0.0004084865547691974,0.0014499191251327378,0.3514034152030945,19.693445205688477,0.5458648204803467,-19.931978225708008,-0.6832786202430725,-2.4758944511413574,0.20083944499492645,0
32,0.15498661994934082,-0.3514034152030945,-19.693445205688477,-0.5458648204803467,19.931978225708008,0.6832786202430725,2.4758944511413574,-0.20083944499492645,0.0,0.0,0.0,0.0,0.0,0.0,0.0,-0.35733357077757405,0.04034831629823949,-0.31596754577438435,0.17119980856786263,0.09034919318906655,0.09364564749946465,-0.2408242809212087,1.2136207654643474,-0.2202430905594487,-0.007487067938997994,-2.6038932959688084,-0.10888789437214565,2.4681828378571407,0.8264699521599697,1.2134413937687574,-0.2202432315892585,-0.0075118285948192216,-2.6038483821997875,-0.10888392708698907,2.4681821257803174,0.826474908251239,-0.0007709473344046671,0.00016013875650882847,0.0009512818574325088,0.00044746392481750567,-0.0002985656730509566,-0.0004084865547691974,-0.0014499191251327378,0.0,0.0,0.0,0.0,0.0,0.0,0.0,-0.00017937169559001376,-1.410298097748175e-07,-2.4760655821227592e-05,4.491376902082678e-05,3.96728515657252e-06,-7.120768232837804e-07,4.956091269381346e-06,0.0007709473344046671,-0.00016013875650882847,-0.0009512818574325088,-0.00044746392481750567,0.0002985656730509566,0.0004084865547691974,0.0014499191251327378,0.3514034152030945,19.693445205688477,0.5458648204803467,-19.931978225708008,-0.6832786202430725,-2.4758944511413574,0.20083944499492645,0
33,0.1599740982055664,-0.3514034152030945,-19.693445205688477,-0.4982573688030243,19.955781936645508,0.6713767647743225,2.4566683769226074,-0.24844686686992645,0.0,0.0,0.0,0.0,0.0,0.0,0.0,-0.35433364926736477,0.032727220103974754,-0.311077527327429,0.1766588161187132,0.09024624861121144,0.09438869670416969,-0.24022301474181995,1.2136207654643474,-0.22024309349058402,-0.007488918729729978,-2.6038978509628756,-0.10888658508703378,2.468185327300319,0.8264784947607065,1.2134413937687574,-0.2202432315892585,-0.0075118285948192216,-2.6038483821997875,-0.10888392708698907,2.4681821257803174,0.826474908251239,-0.0003243821892478546,-0.0005603166308765804,-0.0005197889227830842,-9.310817319277001e-06,0.00012169047479024118,0.0004007325789216217,4.1774263183993835e-05,0.0,0.0,0.0,0.0,0.0,0.0,0.0,-0.00017937169559001376,-1.380986744681234e-07,-2.290986508924394e-05,4.946876308808967e-05,2.6580000447029573e-06,-3.201520001550051e-06,-3.5865094674125686e-06,0.0003243821892478546,0.0005603166308765804,0.0005197889227830842,9.310817319277001e-06,-0.00012169047479024118,-0.0004007325789216217,-4.1774263183993835e-05,0.3514034152030945,19.693445205688477,0.4982573688030243,-19.955781936645508,-0.6713767647743225,-2.4566683769226074,0.24844686686992645,0
34,0.16499805450439453,-0.3514034152030945,-19.693445205688477,-0.4982573688030243,19.955781936645508,0.6713767647743225,2.4566683769226074,-0.24844686686992645,0.0,0.0,0.0,0.0,0.0,0.0,0.0,-0.35433364926736477,0.032727220103974754,-0.311077527327429,0.1766588161187132,0.09024624861121144,0.09438869670416969,-0.24022301474181995,1.2136207654643474,-0.22024309349058402,-0.007488918729729978,-2.6038978509628756,-0.10888658508703378,2.468185327300319,0.8264784947607065,1.2134413937687574,-0.2202432315892585,-0.0075118285948192216,-2.6038483821997875,-0.10888392708698907,2.4681821257803174,0.826474908251239,-0.0003243821892478546,-0.0005603166308765804,-0.0005197889227830842,-9.310817319277001e-06,0.00012169047479024118,0.0004007325789216217,4.1774263183993835e-05,0.0,0.0,0.0,0.0,0.0,0.0,0.0,-0.00017937169559001376,-1.380986744681234e-07,-2.290986508924394e-05,4.946876308808967e-05,2.6580000447029573e-06,-3.201520001550051e-06,-3.5865094674125686e-06,0.0003243821892478546,0.0005603166308765804,0.0005197889227830842,9.310817319277001e-06,-0.00012169047479024118,-0.0004007325789216217,-4.1774263183993835e-05,0.3514034152030945,19.693445205688477,0.4982573688030243,-19.955781936645508,-0.6713767647743225,-2.4566683769226074,0.24844686686992645,0
35,0.1699836254119873,-0.3514034152030945,-19.693445205688477,-0.4982573688030243,19.955781936645508,0.6713767647743225,2.4694857597351074,-0.26217979192733765,0.0,0.0,0.0,0.0,0.0,0.0,0.0,-0.3618664994050591,0.03799672662221061,-0.31831446313602846,0.17647531720197035,0.09013147566092258,0.09352594468734898,-0.24086119067380754,1.2136207654643474,-0.22024309349060056,-0.007490181164547487,-2.6038971092324683,-0.10888657194383411,2.468186729334862,0.8264768460520586,1.2134413937687574,-0.2202432315892585,-0.0075118285948192216,-2.6038483821997875,-0.10888392708698907,2.4681821257803174,0.826474908251239,-0.0007459303831494577,-0.0003732255707338269,-0.0006700560124095352,0.0003662676249024664,0.00021289671765909582,-0.0002813586247549339,0.0008314053212534774,0.0,0.0,0.0,0.0,0.0,0.0,0.0,-0.00017937169559001376,-1.3809865792580034e-07,-2.1647430271734547e-05,4.8727032680773164e-05,2.6448568450354593e-06,-4.6035545446798665e-06,-1.937800819584723e-06,0.0007459303831494577,0.0003732255707338269,0.0006700560124095352,-0.0003662676249024664,-0.00021289671765909582,0.0002813586247549339,-0.0008314053212534774,0.3514034152030945,19.693445205688477,0.4982573688030243,-19.955781936645508,-0.6713767647743225,-2.4694857597351074,0.26217979192733765,0
36,0.17499589920043945,-0.3514034152030945,-19.693445205688477,-0.4982573688030243,19.955781936645508,0.6713767647743225,2.4694857597351074,-0.26217979192733765,0.0,0.0,0.0,0.0,0.0,0.0,0.0,-0.3618664994050591,0.03799672662221061,-0.31831446313602846,0.17647531720197035,0.09013147566092258,0.09352594468734898,-0.24086119067380754,1.2136207654643474,-0.22024309349060056,-0.007490181164547487,-2.6038971092324683,-0.10888657194383411,2.468186729334862,0.8264768460520586,1.2134413937687574,-0.2202432315892585,-0.0075118285948192216,-2.6038483821997875,-0.10888392708698907,2.4681821257803174,0.826474908251239,-0.0007459303831494577,-0.0003732255707338269,-0.0006700560124095352,0.0003662676249024664,0.00021289671765909582,-0.0002813586247549339,0.0008314053212534774,0.0,0.0,0.0,0.0,0.0,0.0,0.0,-0.00017937169559001376,-1.3809865792580034e-07,-2.1647430271734547e-05,4.8727032680773164e-05,2.6448568450354593e-06,-4.6035545446798665e-06,-1.937800819584723e-06,0.0007459303831494577,0.0003732255707338269,0.0006700560124095352,-0.0003662676249024664,-0.00021289671765909582,0.0002813586247549339,-0.0008314053212534774,0.3514034152030945,19.693445205688477,0.4982573688030243,-19.955781936645508,-0.6713767647743225,-2.4694857597351074,0.26217979192733765,0
37,0.17998218536376953,-0.3514034152030945,-19.618066787719727,-0.5458648204803467,20.007356643676758,0.6777854561805725,2.4694857597351074,-0.23471395671367645,0.0,0.0,0.0,0.0,0.0,0.0,0.0,-0.36369259364952167,0.04188199881229833,-0.3156000938460533,0.17398964591044172,0.08975078325955649,0.0926605895530172,-0.24065797781993492,1.2136207654643474,-0.22024838320414222,-0.007486831277585468,-2.603898503265896,-0.10888728402058283,2.4681835891977677,0.8264726692806146,1.2134413937687574,-0.2202432315892585,-0.0075118285948192216,-2.6038483821997875,-0.10888392708698907,2.4681821257803174,0.826474908251239,-0.0007299580767433395,-0.0017488914197427675,0.0007907762761993711,-0.001349319298923266,-3.12767392747398e-05,-0.00017528365850882425,-0.00010496158671791202,0.0,0.0,0.0,0.0,0.0,0.0,0.0,-0.00017937169559001376,5.151614883736055e-06,-2.4997317233753716e-05,5.012106610857714e-05,3.3569335937538858e-06,-1.4634174503314057e-06,2.238970624457437e-06,0.0007299580767433395,0.0017488914197427675,-0.0007907762761993711,0.001349319298923266,3.12767392747398e-05,0.00017528365850882425,0.00010496158671791202,0.3514034152030945,19.618066787719727,0.5458648204803467,-20.007356643676758,-0.6777854561805725,-2.4694857597351074,0.23471395671367645,0
38,0.1849956512451172,-0.3514034152030945,-19.618066787719727,-0.5458648204803467,20.007356643676758,0.6777854561805725,2.4694857597351074,-0.23471395671367645,0.0,0.0,0.0,0.0,0.0,0.0,0.0,-0.36369259364952167,0.04188199881229833,-0.3156000938460533,0.17398964591044172,0.08975078325955649,0.0926605895530172,-0.24065797781993492,1.2136207654643474,-0.22024838320414222,-0.007486831277585468,-2.603898503265896,-0.10888728402058283,2.4681835891977677,0.8264726692806146,1.2134413937687574,-0.2202432315892585,-0.0075118285948192216,-2.6038483821997875,-0.10888392708698907,2.4681821257803174,0.826474908251239,-0.0007299580767433395,-0.0017488914197427675,0.0007907762761993711,-0.001349319298923266,-3.12767392747398e-05,-0.00017528365850882425,-0.00010496158671791202,0.0,0.0,0.0,0.0,0.0,0.0,0.0,-0.00017937169559001376,5.151614883736055e-06,-2.4997317233753716e-05,5.012106610857714e-05,3.3569335937538858e-06,-1.4634174503314057e-06,2.238970624457437e-06,0.0007299580767433395,0.0017488914197427675,-0.0007907762761993711,0.001349319298923266,3.12767392747398e-05,0.00017528365850882425,0.00010496158671791202,0.3514034152030945,19.618066787719727,0.5458648204803467,-20.007356643676758,-0.6777854561805725,-2.4694857597351074,0.23471395671367645,0
39,0.18997645378112793,-0.4029781222343445,-19.693445205688477,-0.5458648204803467,19.931978225708008,0.6713767647743225,2.4694857597351074,-0.25485557317733765,0.0,0.0,0.0,0.0,0.0,0.0,0.0,-0.36766557624194934,0.046389918662126176,-0.31873428410470017,0.17612054148531053,0.0899601925624445,0.09270256201738594,-0.24073076969936222,1.2136243847420338,-0.22024309349060056,-0.007487470707609915,-2.6038932135397928,-0.10888657194375992,2.468183903146895,0.8264780819468915,1.2134413937687574,-0.2202432315892585,-0.0075118285948192216,-2.6038483821997875,-0.10888392708698907,2.4681821257803174,0.826474908251239,0.0009219178436026728,0.00035125931615272713,0.00036633784655402664,0.0006127521262859047,-1.9862859062708082e-05,-0.0002568245563437488,0.0006333944312743831,0.0,0.0,0.0,0.0,0.0,0.0,0.0,-0.00018299097327645342,-1.3809865792580034e-07,-2.4357887209306914e-05,4.4831340005213605e-05,2.6448567708448056e-06,-1.7773665774711844e-06,-3.173695652503028e-06,-0.0009219178436026728,-0.00035125931615272713,-0.00036633784655402664,-0.0006127521262859047,1.9862859062708082e-05,0.0002568245563437488,-0.0006333944312743831,0.4029781222343445,19.693445205688477,0.5458648204803467,-19.931978225708008,-0.6713767647743225,-2.4694857597351074,0.25485557317733765,0
40,0.19498634338378906,-0.4029781222343445,-19.693445205688477,-0.5458648204803467,19.931978225708008,0.6713767647743225,2.4694857597351074,-0.25485557317733765,0.0,0.0,0.0,0.0,0.0,0.0,0.0,-0.36766557624194934,0.046389918662126176,-0.31873428410470017,0.17612054148531053,0.0899601925624445,0.09270256201738594,-0.24073076969936222,1.2136243847420338,-0.22024309349060056,-0.007487470707609915,-2.6038932135397928,-0.10888657194375992,2.468183903146895,0.8264780819468915,1.2134413937687574,-0.2202432315892585,-0.0075118285948192216,-2.6038483821997875,-0.10888392708698907,2.4681821257803174,0.826474908251239,0.0009219178436026728,0.00035125931615272713,0.00036633784655402664,0.0006127521262859047,-1.9862859062708082e-05,-0.0002568245563437488,0.0006333944312743831,0.0,0.0,0.0,0.0,0.0,0.0,0.0,-0.00018299097327645342,-1.3809865792580034e-07,-2.4357887209306914e-05,4.4831340005213605e-05,2.6448567708448056e-06,-1.7773665774711844e-06,-3.173695652503028e-06,-0.0009219178436026728,-0.00035125931615272713,-0.00036633784655402664,-0.0006127521262859047,1.9862859062708082e-05,0.0002568245563437488,-0.0006333944312743831,0.4029781222343445,19.693445205688477,0.5458648204803467,-19.931978225708008,-0.6713767647743225,-2.4694857597351074,0.25485557317733765,0
41,0.19997572898864746,-0.4029781222343445,-19.693445205688477,-0.5458648204803467,19.931978225708008,0.6713767647743225,2.4694857597351074,-0.25485557317733765,0.0,0.0,0.0,0.0,0.0,0.0,0.0,-0.36766557624194934,0.046389918662126176,-0.31873428410470017,0.17612054148531053,0.0899601925624445,0.09270256201738594,-0.24073076969936222,1.2136243847420338,-0.22024309349060056,-0.007487470707609915,-2.6038932135397928,-0.10888657194375992,2.468183903146895,0.8264780819468915,1.2134413937687574,-0.2202432315892585,-0.0075118285948192216,-2.6038483821997875,-0.10888392708698907,2.4681821257803174,0.826474908251239,0.0009219178436026728,0.00035125931615272713,0.00036633784655402664,0.0006127521262859047,-1.9862859062708082e-05,-0.0002568245563437488,0.0006333944312743831,0.0,0.0,0.0,0.0,0.0,0.0,0.0,-0.00018299097327645342,-1.3809865792580034e-07,-2.4357887209306914e-05,4.4831340005213605e-05,2.6448567708448056e-06,-1.7773665774711844e-06,-3.173695652503028e-06,-0.0009219178436026728,-0.00035125931615272713,-0.00036633784655402664,-0.0006127521262859047,1.9862859062708082e-05,0.0002568245563437488,-0.0006333944312743831,0.4029781222343445,19.693445205688477,0.5458648204803467,-19.931978225708008,-0.6713767647743225,-2.4694857597351074,0.25485557317733765,0
42,0.20499634742736816,-0.4029781222343445,-19.693445205688477,-0.5458648204803467,19.931978225708008,0.6713767647743225,2.4694857597351074,-0.25485557317733765,0.0,0.0,0.0,0.0,0.0,0.0,0.0,-0.36766557624194934,0.046389918662126176,-0.31873428410470017,0.17612054148531053,0.0899601925624445,0.09270256201738594,-0.24073076969936222,1.2136243847420338,-0.22024309349060056,-0.007487470707609915,-2.6038932135397928,-0.10888657194375992,2.468183903146895,0.8264780819468915,1.2134413937687574,-0.2202432315892585,-0.0075118285948192216,-2.6038483821997875,-0.10888392708698907,2.4681821257803174,0.826474908251239,0.0009219178436026728,0.00035125931615272713,0.00036633784655402664,0.0006127521262859047,-1.9862859062708082e-05,-0.0002568245563437488,0.0006333944312743831,0.0,0.0,0.0,0.0,0.0,0.0,0.0,-0.00018299097327645342,-1.3809865792580034e-07,-2.4357887209306914e-05,4.4831340005213605e-05,2.6448567708448056e-06,-1.7773665774711844e-06,-3.173695652503028e-06,-0.0009219178436026728,-0.00035125931615272713,-0.00036633784655402664,-0.0006127521262859047,1.9862859062708082e-05,0.0002568245563437488,-0.0006333944312743831,0.4029781222343445,19.693445205688477,0.5458648204803467,-19.931978225708008,-0.6713767647743225,-2.4694857597351074,0.25485557317733765,0
43,0.20997166633605957,-0.3752071261405945,-19.717248916625977,-0.5220611095428467,19.908174514770508,0.6658836007118225,2.4630770683288574,-0.24112264811992645,0.0,0.0,0.0,0.0,0.0,0.0,0.0,-0.3651500036486894,0.0448046294970853,-0.3188175942435014,0.1809099041729995,0.08958691688187949,0.09320255639330809,-0.24160752155046888,1.2136224359002028,-0.22024142305474528,-0.007489181954851282,-2.603891872806818,-0.10888915540774663,2.46818426201278,0.8264765609294185,1.2134413937687574,-0.2202432315892585,-0.0075118285948192216,-2.6038483821997875,-0.10888392708698907,2.4681821257803174,0.826474908251239,8.926395046583886e-05,0.0007325869634894019,9.147870132572848e-05,0.0012169659051523777,0.0003992527731150829,0.0001387331169597359,-0.00047321550928110955,0.0,0.0,0.0,0.0,0.0,0.0,0.0,-0.00018104213144543024,-1.808534513203508e-06,-2.2646639967939183e-05,4.349060703034979e-05,5.228320757555416e-06,-2.136232462479626e-06,-1.652678179420164e-06,-8.926395046583886e-05,-0.0007325869634894019,-9.147870132572848e-05,-0.0012169659051523777,-0.0003992527731150829,-0.0001387331169597359,0.00047321550928110955,0.3752071261405945,19.717248916625977,0.5220611095428467,-19.908174514770508,-0.6658836007118225,-2.4630770683288574,0.24112264811992645,0
44,0.2149956226348877,-0.3752071261405945,-19.717248916625977,-0.5220611095428467,19.908174514770508,0.6658836007118225,2.4630770683288574,-0.24112264811992645,0.0,0.0,0.0,0.0,0.0,0.0,0.0,-0.3651500036486894,0.0448046294970853,-0.3188175942435014,0.1809099041729995,0.08958691688187949,0.09320255639330809,-0.24160752155046888,1.2136224359002028,-0.22024142305474528,-0.007489181954851282,-2.603891872806818,-0.10888915540774663,2.46818426201278,0.8264765609294185,1.2134413937687574,-0.2202432315892585,-0.0075118285948192216,-2.6038483821997875,-0.10888392708698907,2.4681821257803174,0.826474908251239,8.926395046583886e-05,0.0007325869634894019,9.147870132572848e-05,0.0012169659051523777,0.0003992527731150829,0.0001387331169597359,-0.00047321550928110955,0.0,0.0,0.0,0.0,0.0,0.0,0.0,-0.00018104213144543024,-1.808534513203508e-06,-2.2646639967939183e-05,4.349060703034979e-05,5.228320757555416e-06,-2.136232462479626e-06,-1.652678179420164e-06,-8.926395046583886e-05,-0.0007325869634894019,-9.147870132572848e-05,-0.0012169659051523777,-0.0003992527731150829,-0.0001387331169597359,0.00047321550928110955,0.3752071261405945,19.717248916625977,0.5220611095428467,-19.908174514770508,-0.6658836007118225,-2.4630770683288574,0.24112264811992645,0
45,0.21998214721679688,-0.3752071261405945,-19.717248916625977,-0.5220611095428467,19.908174514770508,0.6658836007118225,2.4630770683288574,-0.24112264811992645,0.0,0.0,0.0,0.0,0.0,0.0,0.0,-0.3651500036486894,0.0448046294970853,-0.3188175942435014,0.1809099041729995,0.08958691688187949,0.09320255639330809,-0.24160752155046888,1.2136224359002028,-0.22024142305474528,-0.007489181954851282,-2.603891872806818,-0.10888915540774663,2.46818426201278,0.8264765609294185,1.2134413937687574,-0.2202432315892585,-0.0075118285948192216,-2.6038483821997875,-0.10888392708698907,2.4681821257803174,0.826474908251239,8.926395046583886e-05,0.0007325869634894019,9.147870132572848e-05,0.0012169659051523777,0.0003992527731150829,0.0001387331169597359,-0.00047321550928110955,0.0,0.0,0.0,0.0,0.0,0.0,0.0,-0.00018104213144543024,-1.808534513203508e-06,-2.2646639967939183e-05,4.349060703034979e-05,5.228320757555416e-06,-2.136232462479626e-06,-1.652678179420164e-06,-8.926395046583886e-05,-0.0007325869634894019,-9.147870132572848e-05,-0.0012169659051523777,-0.0003992527731150829,-0.0001387331169597359,0.00047321550928110955,0.3752071261405945,19.717248916625977,0.5220611095428467,-19.908174514770508,-0.6658836007118225,-2.4630770683288574,0.24112264811992645,0
46,0.22499585151672363,-0.3752071261405945,-19.693445205688477,-0.4704863727092743,19.931978225708008,0.6832786202430725,2.4566683769226074,-0.26858848333358765,0.0,0.0,0.0,0.0,0.0,0.0,0.0,-0.362990784430707,0.04405878968093068,-0.31579393612500883,0.18147205168484495,0.08974324932222738,0.0940231881277863,-0.2427625451966049,1.2136224359002028,-0.22024309345443005,-0.007490945401097782,-2.603893213541654,-0.1088878987712658,2.4681850133334655,0.8264799135199797,1.2134413937687574,-0.2202432315892585,-0.0075118285948192216,-2.6038483821997875,-0.10888392708698907,2.4681821257803174,0.826474908251239,0.00066235756287037,-0.00032949896632322614,-0.0008048817141376747,0.0007456411945829078,-0.0001443523864613532,0.0005257921585800576,0.0013470900599070292,0.0,0.0,0.0,0.0,0.0,0.0,0.0,-0.00018104213144543024,-1.3813482843683111e-07,-2.088319372143925e-05,4.483134186639148e-05,3.971684276724008e-06,-2.887553148145372e-06,-5.005268740698732e-06,-0.00066235756287037,0.00032949896632322614,0.0008048817141376747,-0.0007456411945829078,0.0001443523864613532,-0.0005257921585800576,-0.0013470900599070292,0.3752071261405945,19.693445205688477,0.4704863727092743,-19.931978225708008,-0.6832786202430725,-2.4566683769226074,0.26858848333358765,0
47,0.22998762130737305,-0.3752071261405945,-19.693445205688477,-0.4704863727092743,19.931978225708008,0.6832786202430725,2.4566683769226074,-0.26858848333358765,0.0,0.0,0.0,0.0,0.0,0.0,0.0,-0.362990784430707,0.04405878968093068,-0.31579393612500883,0.18147205168484495,0.08974324932222738,0.0940231881277863,-0.2427625451966049,1.2136224359002028,-0.22024309345443005,-0.007490945401097782,-2.603893213541654,-0.1088878987712658,2.4681850133334655,0.8264799135199797,1.2134413937687574,-0.2202432315892585,-0.0075118285948192216,-2.6038483821997875,-0.10888392708698907,2.4681821257803174,0.826474908251239,0.00066235756287037,-0.00032949896632322614,-0.0008048817141376747,0.0007456411945829078,-0.0001443523864613532,0.0005257921585800576,0.0013470900599070292,0.0,0.0,0.0,0.0,0.0,0.0,0.0,-0.00018104213144543024,-1.3813482843683111e-07,-2.088319372143925e-05,4.483134186639148e-05,3.971684276724008e-06,-2.887553148145372e-06,-5.005268740698732e-06,-0.00066235756287037,0.00032949896632322614,0.0008048817141376747,-0.0007456411945829078,0.0001443523864613532,-0.0005257921585800576,-0.0013470900599070292,0.3752071261405945,19.693445205688477,0.4704863727092743,-19.931978225708008,-0.6832786202430725,-2.4566683769226074,0.26858848333358765,0
48,0.23498821258544922,-0.3514034152030945,-19.717248916625977,-0.4982573688030243,19.955781936645508,0.6777854561805725,2.4694857597351074,-0.21457235515117645,0.0,0.0,0.0,0.0,0.0,0.0,0.0,-0.359908944512198,0.04578241540102117,-0.3123131944580508,0.17794242153126497,0.08992064808562777,0.09388944035408361,-0.2427155868135318,1.2136207654643474,-0.22024142301857458,-0.0074901432797831865,-2.6038958730842894,-0.10888728402060766,2.4681835543486708,0.8264737106552069,1.2134413937687574,-0.2202432315892585,-0.0075118285948192216,-2.6038483821997875,-0.10888392708698907,2.4681821257803174,0.826474908251239,0.00037316526778630974,0.00025233792098843584,8.551102491818714e-06,-0.00012416808948110888,-0.0002613233244983753,3.507676980864927e-05,-0.0009082855202449443,0.0,0.0,0.0,0.0,0.0,0.0,0.0,-0.00017937169559001376,-1.8085706839088278e-06,-2.168531503603504e-05,4.749088450184402e-05,3.356933618581248e-06,-1.4285683533898919e-06,1.1975960321208845e-06,-0.00037316526778630974,-0.00025233792098843584,-8.551102491818714e-06,0.00012416808948110888,0.0002613233244983753,-3.507676980864927e-05,0.0009082855202449443,0.3514034152030945,19.717248916625977,0.4982573688030243,-19.955781936645508,-0.6777854561805725,-2.4694857597351074,0.21457235515117645,0
49,0.2399730682373047,-0.3514034152030945,-19.717248916625977,-0.4982573688030243,19.955781936645508,0.6777854561805725,2.4694857597351074,-0.21457235515117645,0.0,0.0,0.0,0.0,0.0,0.0,0.0,-0.359908944512198,0.04578241540102117,-0.3123131944580508,0.17794242153126497,0.08992064808562777,0.09388944035408361,-0.2427155868135318,1.2136207654643474,-0.22024142301857458,-0.0074901432797831865,-2.6038958730842894,-0.10888728402060766,2.4681835543486708,0.8264737106552069,1.2134413937687574,-0.2202432315892585,-0.0075118285948192216,-2.6038483821997875,-0.10888392708698907,2.4681821257803174,0.826474908251239,0.00037316526778630974,0.00025233792098843584,8.551102491818714e-06,-0.00012416808948110888,-0.0002613233244983753,3.507676980864927e-05,-0.0009082855202449443,0.0,0.0,0.0,0.0,0.0,0.0,0.0,-0.00017937169559001376,-1.8085706839088278e-06,-2.168531503603504e-05,4.749088450184402e-05,3.356933618581248e-06,-1.4285683533898919e-06,1.1975960321208845e-06,-0.00037316526778630974,-0.00025233792098843584,-8.551102491818714e-06,0.00012416808948110888,0.0002613233244983753,-3.507676980864927e-05,0.0009082855202449443,0.3514034152030945,19.717248916625977,0.4982573688030243,-19.955781936645508,-0.6777854561805725,-2.4694857597351074,0.21457235515117645,0
50,0.24499940872192383,-0.3514034152030945,-19.669641494750977,-0.4982573688030243,19.931978225708008,0.6777854561805725,2.4694857597351074,-0.28232139348983765,0.0,0.0,0.0,0.0,0.0,0.0,0.0,-0.36453036002508904,0.049187830925337364,-0.31864082481832784,0.17271668356577666,0.09015016337769856,0.09326885372934539,-0.24230900133243494,1.2136207654643474,-0.22024452661166624,-0.0074903009608659355,-2.6038939563472367,-0.10888728402058283,2.4681835891798447,0.8264816046734956,1.2134413937687574,-0.2202432315892585,-0.0075118285948192216,-2.6038483821997875,-0.10888392708698907,2.4681821257803174,0.826474908251239,-0.000165171381858693,-0.0005162514681086292,-0.0002062648744910338,7.59631337405809e-05,-0.00020535535841075081,-0.0001215680868996665,0.0016340634969983952,0.0,0.0,0.0,0.0,0.0,0.0,0.0,-0.00017937169559001376,1.2950224077545869e-06,-2.152763395328605e-05,4.557414744921218e-05,3.3569335937538858e-06,-1.4633995273349854e-06,-6.6964222565912834e-06,0.000165171381858693,0.0005162514681086292,0.0002062648744910338,-7.59631337405809e-05,0.00020535535841075081,0.0001215680868996665,-0.0016340634969983952,0.3514034152030945,19.669641494750977,0.4982573688030243,-19.931978225708008,-0.6777854561805725,-2.4694857597351074,0.28232139348983765,0
51,0.24998784065246582,-0.3514034152030945,-19.669641494750977,-0.4982573688030243,19.931978225708008,0.6777854561805725,2.4694857597351074,-0.28232139348983765,0.0,0.0,0.0,0.0,0.0,0.0,0.0,-0.36453036002508904,0.049187830925337364,-0.31864082481832784,0.17271668356577666,0.09015016337769856,0.09326885372934539,-0.24230900133243494,1.2136207654643474,-0.22024452661166624,-0.0074903009608659355,-2.6038939563472367,-0.10888728402058283,2.4681835891798447,0.8264816046734956,1.2134413937687574,-0.2202432315892585,-0.0075118285948192216,-2.6038483821997875,-0.10888392708698907,2.4681821257803174,0.826474908251239,-0.000165171381858693,-0.0005162514681086292,-0.0002062648744910338,7.59631337405809e-05,-0.00020535535841075081,-0.0001215680868996665,0.0016340634969983952,0.0,0.0,0.0,0.0,0.0,0.0,0.0,-0.00017937169559001376,1.2950224077545869e-06,-2.152763395328605e-05,4.557414744921218e-05,3.3569335937538858e-06,-1.4633995273349854e-06,-6.6964222565912834e-06,0.000165171381858693,0.0005162514681086292,0.0002062648744910338,-7.59631337405809e-05,0.00020535535841075081,0.0001215680868996665,-0.0016340634969983952,0.3514034152030945,19.669641494750977,0.4982573688030243,-19.931978225708008,-0.6777854561805725,-2.4694857597351074,0.28232139348983765,0
52,0.25499582290649414,-0.3514034152030945,-19.669641494750977,-0.5220611095428467,19.955781936645508,0.6832786202430725,2.4566683769226074,-0.23471395671367645,0.0,0.0,0.0,0.0,0.0,0.0,0.0,-0.35817909763322475,0.04293675673096942,-0.31211739375703196,0.17725740435489754,0.08999730364756424,0.09420723655781645,-0.24356451905509835,1.2136207654643474,-0.2202447639251162,-0.007487247316983545,-2.603894893287946,-0.10888789453440798,2.4681849740878303,0.8264737945042397,1.2134413937687574,-0.2202432315892585,-0.0075118285948192216,-2.6038483821997875,-0.10888392708698907,2.4681821257803174,0.826474908251239,-8.805891696574489e-05,-0.0006179438521533538,0.0002638996895766149,2.0341028090590686e-05,-0.00026360602404632157,0.0005799153034477152,-0.0005000692991020264,0.0,0.0,0.0,0.0,0.0,0.0,0.0,-0.00017937169559001376,1.5323358577012947e-06,-2.4581277835676422e-05,4.6511088158673886e-05,3.967447418901093e-06,-2.8483075129592805e-06,1.1137469992927862e-06,8.805891696574489e-05,0.0006179438521533538,-0.0002638996895766149,-2.0341028090590686e-05,0.00026360602404632157,-0.0005799153034477152,0.0005000692991020264,0.3514034152030945,19.669641494750977,0.5220611095428467,-19.955781936645508,-0.6832786202430725,-2.4566683769226074,0.23471395671367645,0
53,0.25997114181518555,-0.3514034152030945,-19.669641494750977,-0.5220611095428467,19.955781936645508,0.6832786202430725,2.4566683769226074,-0.23471395671367645,0.0,0.0,0.0,0.0,0.0,0.0,0.0,-0.35817909763322475,0.04293675673096942,-0.31211739375703196,0.17725740435489754,0.08999730364756424,0.09420723655781645,-0.24356451905509835,1.2136207654643474,-0.2202447639251162,-0.007487247316983545,-2.603894893287946,-0.10888789453440798,2.4681849740878303,0.8264737945042397,1.2134413937687574,-0.2202432315892585,-0.0075118285948192216,-2.6038483821997875,-0.10888392708698907,2.4681821257803174,0.826474908251239,-8.805891696574489e-05,-0.0006179438521533538,0.0002638996895766149,2.0341028090590686e-05,-0.00026360602404632157,0.0005799153034477152,-0.0005000692991020264,0.0,0.0,0.0,0.0,0.0,0.0,0.0,-0.00017937169559001376,1.5323358577012947e-06,-2.4581277835676422e-05,4.6511088158673886e-05,3.967447418901093e-06,-2.8483075129592805e-06,1.1137469992927862e-06,8.805891696574489e-05,0.0006179438521533538,-0.0002638996895766149,-2.0341028090590686e-05,0.00026360602404632157,-0.0005799153034477152,0.0005000692991020264,0.3514034152030945,19.669641494750977,0.5220611095428467,-19.955781936645508,-0.6832786202430725,-2.4566683769226074,0.23471395671367645,0
54,0.2649977207183838,-0.4029781222343445,-19.693445205688477,-0.4982573688030243,19.955781936645508,0.6777854561805725,2.4630770683288574,-0.23471395671367645,0.0,0.0,0.0,0.0,0.0,0.0,0.0,-0.3629808940585668,0.04440939058527465,-0.31841265113168166,0.17363613785456886,0.09092940556511736,0.09354625619560503,-0.24427780287479112,1.2136243847420338,-0.22024309349060056,-0.007490338622664584,-2.6038957356107897,-0.10888728402058374,2.4681842620107863,0.8264769036339878,1.2134413937687574,-0.2202432315892585,-0.0075118285948192216,-2.6038483821997875,-0.10888392708698907,2.4681821257803174,0.826474908251239,0.0005289429460144767,-6.765418489973726e-05,-0.0003067373820809797,-0.00043836657979150494,-5.8426311488816476e-05,-0.00010341569288557854,0.00016052078212782332,0.0,0.0,0.0,0.0,0.0,0.0,0.0,-0.00018299097327645342,-1.3809865792580034e-07,-2.1489972154637577e-05,4.735341100214896e-05,3.3569335946698198e-06,-2.136230468963163e-06,-1.9953827488095044e-06,-0.0005289429460144767,6.765418489973726e-05,0.0003067373820809797,0.00043836657979150494,5.8426311488816476e-05,0.00010341569288557854,-0.00016052078212782332,0.4029781222343445,19.693445205688477,0.4982573688030243,-19.955781936645508,-0.6777854561805725,-2.4630770683288574,0.23471395671367645,0
55,0.26998376846313477,-0.4029781222343445,-19.693445205688477,-0.4982573688030243,19.955781936645508,0.6777854561805725,2.4630770683288574,-0.23471395671367645,0.0,0.0,0.0,0.0,0.0,0.0,0.0,-0.3629808940585668,0.04440939058527465,-0.31841265113168166,0.17363613785456886,0.09092940556511736,0.09354625619560503,-0.24427780287479112,1.2136243847420338,-0.22024309349060056,-0.007490338622664584,-2.6038957356107897,-0.10888728402058374,2.4681842620107863,0.8264769036339878,1.2134413937687574,-0.2202432315892585,-0.0075118285948192216,-2.6038483821997875,-0.10888392708698907,2.4681821257803174,0.826474908251239,0.0005289429460144767,-6.765418489973726e-05,-0.0003067373820809797,-0.00043836657979150494,-5.8426311488816476e-05,-0.00010341569288557854,0.00016052078212782332,0.0,0.0,0.0,0.0,0.0,0.0,0.0,-0.00018299097327645342,-1.3809865792580034e-07,-2.1489972154637577e-05,4.735341100214896e-05,3.3569335946698198e-06,-2.136230468963163e-06,-1.9953827488095044e-06,-0.0005289429460144767,6.765418489973726e-05,0.0003067373820809797,0.00043836657979150494,5.8426311488816476e-05,0.00010341569288557854,-0.00016052078212782332,0.4029781222343445,19.693445205688477,0.4982573688030243,-19.955781936645508,-0.6777854561805725,-2.4630770683288574,0.23471395671367645,0
56,0.274996280670166,-0.3514034152030945,-19.669641494750977,-0.5220611095428467,19.955781936645508,0.6777854561805725,2.4493441581726074,-0.26217979192733765,0.0,0.0,0.0,0.0,0.0,0.0,0.0,-0.3679084820597557,0.03975038253310793,-0.320541210442223,0.17624776017678104,0.09109893141927587,0.09333356633496702,-0.2429572151992219,1.2136207654643474,-0.2202447639264558,-0.0074870115629860024,-2.6038948850356256,-0.10888728402058283,2.4681857878896927,0.8264767244379865,1.2134413937687574,-0.2202432315892585,-0.0075118285948192216,-2.6038483821997875,-0.10888392708698907,2.4681821257803174,0.826474908251239,-0.0012850708397094607,-0.001219447744614625,6.119448252452789e-06,-0.00013270783299889415,2.045434354723801e-05,0.0004978437397950309,0.0012287128384273073,0.0,0.0,0.0,0.0,0.0,0.0,0.0,-0.00017937169559001376,1.5323371973241517e-06,-2.4817031833219115e-05,4.6502835838069245e-05,3.3569335937538858e-06,-3.6621093753019807e-06,-1.816186747438664e-06,0.0012850708397094607,0.001219447744614625,-6.119448252452789e-06,0.00013270783299889415,-2.045434354723801e-05,-0.0004978437397950309,-0.0012287128384273073,0.3514034152030945,19.669641494750977,0.5220611095428467,-19.955781936645508,-0.6777854561805725,-2.4493441581726074,0.26217979192733765,0
57,0.2799875736236572,-0.3514034152030945,-19.669641494750977,-0.5220611095428467,19.955781936645508,0.6777854561805725,2.4493441581726074,-0.26217979192733765,0.0,0.0,0.0,0.0,0.0,0.0,0.0,-0.3679084820597557,0.03975038253310793,-0.320541210442223,0.17624776017678104,0.09109893141927587,0.09333356633496702,-0.2429572151992219,1.2136207654643474,-0.2202447639264558,-0.0074870115629860024,-2.6038948850356256,-0.10888728402058283,2.4681857878896927,0.8264767244379865,1.2134413937687574,-0.2202432315892585,-0.0075118285948192216,-2.6038483821997875,-0.10888392708698907,2.4681821257803174,0.826474908251239,-0.0012850708397094607,-0.001219447744614625,6.119448252452789e-06,-0.00013270783299889415,2.045434354723801e-05,0.0004978437397950309,0.0012287128384273073,0.0,0.0,0.0,0.0,0.0,0.0,0.0,-0.00017937169559001376,1.5323371973241517e-06,-2.4817031833219115e-05,4.6502835838069245e-05,3.3569335937538858e-06,-3.6621093753019807e-06,-1.816186747438664e-06,0.0012850708397094607,0.001219447744614625,-6.119448252452789e-06,0.00013270783299889415,-2.045434354723801e-05,-0.0004978437397950309,-0.0012287128384273073,0.3514034152030945,19.669641494750977,0.5220611095428467,-19.955781936645508,-0.6777854561805725,-2.4493441581726074,0.26217979192733765,0
58,0.2849869728088379,-0.3236324191093445,-19.669641494750977,-0.5458648204803467,19.931978225708008,0.6713767647743225,2.4694857597351074,-0.20724813640117645,0.0,0.0,0.0,0.0,0.0,0.0,0.0,-0.3705433418103469,0.04190591490405717,-0.3205919745269892,0.17625450598420156,0.09151234429209537,0.09309278835768145,-0.24261426367674765,1.2136188166225164,-0.2202447639264558,-0.007486994319822927,-2.6038961840689163,-0.10888657194375992,2.46818355041848,0.8264739219150755,1.2134413937687574,-0.2202432315892585,-0.0075118285948192216,-2.6038483821997875,-0.10888392708698907,2.4681821257803174,0.826474908251239,-0.0012238474924034686,-0.000811573775996383,0.00014189286877286825,0.0007238234441025033,0.00024874489812551717,-0.0002050303076627026,-0.0018730900716852482,0.0,0.0,0.0,0.0,0.0,0.0,0.0,-0.00017742285375899058,1.5323371973241517e-06,-2.4834274996294453e-05,4.7801869128782926e-05,2.6448567708448056e-06,-1.4246381625504512e-06,9.863361635220613e-07,0.0012238474924034686,0.000811573775996383,-0.00014189286877286825,-0.0007238234441025033,-0.00024874489812551717,0.0002050303076627026,0.0018730900716852482,0.3236324191093445,19.669641494750977,0.5458648204803467,-19.931978225708008,-0.6713767647743225,-2.4694857597351074,0.20724813640117645,0
59,0.29000401496887207,-0.3236324191093445,-19.669641494750977,-0.5458648204803467,19.931978225708008,0.6713767647743225,2.4694857597351074,-0.20724813640117645,0.0,0.0,0.0,0.0,0.0,0.0,0.0,-0.3705433418103469,0.04190591490405717,-0.3205919745269892,0.17625450598420156,0.09151234429209537,0.09309278835768145,-0.24261426367674765,1.2136188166225164,-0.2202447639264558,-0.007486994319822927,-2.6038961840689163,-0.10888657194375992,2.46818355041848,0.8264739219150755,1.2134413937687574,-0.2202432315892585,-0.0075118285948192216,-2.6038483821997875,-0.10888392708698907,2.4681821257803174,0.826474908251239,-0.0012238474924034686,-0.000811573775996383,0.00014189286877286825,0.0007238234441025033,0.00024874489812551717,-0.0002050303076627026,-0.0018730900716852482,0.0,0.0,0.0,0.0,0.0,0.0,0.0,-0.00017742285375899058,1.5323371973241517e-06,-2.4834274996294453e-05,4.7801869128782926e-05,2.6448567708448056e-06,-1.4246381625504512e-06,9.863361635220613e-07,0.0012238474924034686,0.000811573775996383,-0.00014189286877286825,-0.0007238234441025033,-0.00024874489812551717,0.0002050303076627026,0.0018730900716852482,0.3236324191093445,19.669641494750977,0.5458648204803467,-19.931978225708008,-0.6713767647743225,-2.4694857597351074,0.20724813640117645,0
60,0.29498839378356934,-0.3236324191093445,-19.693445205688477,-0.5458648204803467,19.955781936645508,0.6832786202430725,2.4630770683288574,-0.25485557317733765,0.0,0.0,0.0,0.0,0.0,0.0,0.0,-0.3670434814007184,0.04419116977564815,-0.3206475975120153,0.1726579632460322,0.09158878861523473,0.09264917081615628,-0.243439586194294,1.2136188166225164,-0.220243093382089,-0.0074870381677480434,-2.6038957082684604,-0.10888789437214534,2.468184262010789,0.8264763830401284,1.2134413937687574,-0.2202432315892585,-0.0075118285948192216,-2.6038483821997875,-0.10888392708698907,2.4681821257803174,0.826474908251239,-0.0008901579874030391,-0.00012448104197408197,0.0005315967174328659,-0.0002879683357549271,-0.00021582434858240018,6.020824461646796e-05,0.00011917471355235382,0.0,0.0,0.0,0.0,0.0,0.0,0.0,-0.00017742285375899058,-1.3820716948664824e-07,-2.479042707117813e-05,4.732606867285938e-05,3.9672851562672085e-06,-2.136230471627698e-06,-1.4747888893440475e-06,0.0008901579874030391,0.00012448104197408197,-0.0005315967174328659,0.0002879683357549271,0.00021582434858240018,-6.020824461646796e-05,-0.00011917471355235382,0.3236324191093445,19.693445205688477,0.5458648204803467,-19.955781936645508,-0.6832786202430725,-2.4630770683288574,0.25485557317733765,0
61,0.29998016357421875,-0.3236324191093445,-19.693445205688477,-0.5458648204803467,19.955781936645508,0.6832786202430725,2.4630770683288574,-0.25485557317733765,0.0,0.0,0.0,0.0,0.0,0.0,0.0,-0.3670434814007184,0.04419116977564815,-0.3206475975120153,0.1726579632460322,0.09158878861523473,0.09264917081615628,-0.243439586194294,1.2136188166225164,-0.220243093382089,-0.0074870381677480434,-2.6038957082684604,-0.10888789437214534,2.468184262010789,0.8264763830401284,1.2134413937687574,-0.2202432315892585,-0.0075118285948192216,-2.6038483821997875,-0.10888392708698907,2.4681821257803174,0.826474908251239,-0.0008901579874030391,-0.00012448104197408197,0.0005315967174328659,-0.0002879683357549271,-0.00021582434858240018,6.020824461646796e-05,0.00011917471355235382,0.0,0.0,0.0,0.0,0.0,0.0,0.0,-0.00017742285375899058,-1.3820716948664824e-07,-2.479042707117813e-05,4.732606867285938e-05,3.9672851562672085e-06,-2.136230471627698e-06,-1.4747888893440475e-06,0.0008901579874030391,0.00012448104197408197,-0.0005315967174328659,0.0002879683357549271,0.00021582434858240018,-6.020824461646796e-05,-0.00011917471355235382,0.3236324191093445,19.693445205688477,0.5458648204803467,-19.955781936645508,-0.6832786202430725,-2.4630770683288574,0.25485557317733765,0
62,0.30499696731567383,-0.3514034152030945,-19.693445205688477,-0.5220611095428467,19.931978225708008,0.6777854561805725,2.4630770683288574,-0.22098104655742645,0.0,0.0,0.0,0.0,0.0,0.0,0.0,-0.36568835445521863,0.04544539400133223,-0.32302028166112773,0.17311649963489856,0.09187865857222054,0.09256746720929471,-0.24396502668409792,1.2136207654643474,-0.2202409576574955,-0.007488507920514921,-2.6038932165969015,-0.10888728402058283,2.4681842634643365,0.8264744415091967,1.2134413937687574,-0.2202432315892585,-0.0075118285948192216,-2.6038483821997875,-0.10888392708698907,2.4681821257803174,0.826474908251239,-0.0002307125635033588,0.00019176516150159993,0.00022168918989961582,0.00016093545725898885,-7.890839370139916e-05,3.2795838009625212e-06,-0.0009174304175207125,0.0,0.0,0.0,0.0,0.0,0.0,0.0,-0.00017937169559001376,-2.2739317629971723e-06,-2.3320674304300182e-05,4.4834397114001945e-05,3.3569335937538858e-06,-2.13768401913228e-06,4.667420423487556e-07,0.0002307125635033588,-0.00019176516150159993,-0.00022168918989961582,-0.00016093545725898885,7.890839370139916e-05,-3.2795838009625212e-06,0.0009174304175207125,0.3514034152030945,19.693445205688477,0.5220611095428467,-19.931978225708008,-0.6777854561805725,-2.4630770683288574,0.22098104655742645,0
63,0.30998802185058594,-0.3514034152030945,-19.693445205688477,-0.5220611095428467,19.931978225708008,0.6777854561805725,2.4630770683288574,-0.22098104655742645,0.0,0.0,0.0,0.0,0.0,0.0,0.0,-0.36568835445521863,0.04544539400133223,-0.32302028166112773,0.17311649963489856,0.09187865857222054,0.09256746720929471,-0.24396502668409792,1.2136207654643474,-0.2202409576574955,-0.007488507920514921,-2.6038932165969015,-0.10888728402058283,2.4681842634643365,0.8264744415091967,1.2134413937687574,-0.2202432315892585,-0.0075118285948192216,-2.6038483821997875,-0.10888392708698907,2.4681821257803174,0.826474908251239,-0.0002307125635033588,0.00019176516150159993,0.00022168918989961582,0.00016093545725898885,-7.890839370139916e-05,3.2795838009625212e-06,-0.0009174304175207125,0.0,0.0,0.0,0.0,0.0,0.0,0.0,-0.00017937169559001376,-2.2739317629971723e-06,-2.3320674304300182e-05,4.4834397114001945e-05,3.3569335937538858e-06,-2.13768401913228e-06,4.667420423487556e-07,0.0002307125635033588,-0.00019176516150159993,-0.00022168918989961582,-0.00016093545725898885,7.890839370139916e-05,-3.2795838009625212e-06,0.0009174304175207125,0.3514034152030945,19.693445205688477,0.5220611095428467,-19.931978225708008,-0.6777854561805725,-2.4630770683288574,0.22098104655742645,0
64,0.3149871826171875,-0.3514034152030945,-19.693445205688477,-0.5974395275115967,19.931978225708008,0.6713767647743225,2.4566683769226074,-0.26217979192733765,0.0,0.0,0.0,0.0,0.0,0.0,0.0,-0.36673166620402453,0.04484350496908099,-0.32385961723791584,0.1744827227548369,0.0917198325134741,0.0927150397304829,-0.2431842243743564,1.2136207654643474,-0.22024309347854373,-0.007484132862899953,-2.6038932964460093,-0.10888657194375992,2.4681849871695696,0.8264767811749961,1.2134413937687574,-0.2202432315892585,-0.0075118285948192216,-2.6038483821997875,-0.10888392708698907,2.4681821257803174,0.826474908251239,-0.0003010028333467158,0.00011530690479052044,0.002025597534055232,0.00039923585041299676,0.0002909043521621024,0.00032937148633161654,0.000994593354594534,0.0,0.0,0.0,0.0,0.0,0.0,0.0,-0.00017937169559001376,-1.3811071475355874e-07,-2.7695731919268572e-05,4.49142462217722e-05,2.6448567708448056e-06,-2.861389252206692e-06,-1.872923757084699e-06,0.0003010028333467158,-0.00011530690479052044,-0.002025597534055232,-0.00039923585041299676,-0.0002909043521621024,-0.00032937148633161654,-0.000994593354594534,0.3514034152030945,19.693445205688477,0.5974395275115967,-19.931978225708008,-0.6713767647743225,-2.4566683769226074,0.26217979192733765,0
65,0.3199732303619385,-0.3514034152030945,-19.693445205688477,-0.5974395275115967,19.931978225708008,0.6713767647743225,2.4566683769226074,-0.26217979192733765,0.0,0.0,0.0,0.0,0.0,0.0,0.0,-0.36673166620402453,0.04484350496908099,-0.32385961723791584,0.1744827227548369,0.0917198325134741,0.0927150397304829,-0.2431842243743564,1.2136207654643474,-0.22024309347854373,-0.007484132862899953,-2.6038932964460093,-0.10888657194375992,2.4681849871695696,0.8264767811749961,1.2134413937687574,-0.2202432315892585,-0.0075118285948192216,-2.6038483821997875,-0.10888392708698907,2.4681821257803174,0.826474908251239,-0.0003010028333467158,0.00011530690479052044,0.002025597534055232,0.00039923585041299676,0.0002909043521621024,0.00032937148633161654,0.000994593354594534,0.0,0.0,0.0,0.0,0.0,0.0,0.0,-0.00017937169559001376,-1.3811071475355874e-07,-2.7695731919268572e-05,4.49142462217722e-05,2.6448567708448056e-06,-2.861389252206692e-06,-1.872923757084699e-06,0.0003010028333467158,-0.00011530690479052044,-0.002025597534055232,-0.00039923585041299676,-0.0002909043521621024,-0.00032937148633161654,-0.000994593354594534,0.3514034152030945,19.693445205688477,0.5974395275115967,-19.931978225708008,-0.6713767647743225,-2.4566683769226074,0.26217979192733765,0
66,0.3249697685241699,-0.3514034152030945,-19.693445205688477,-0.5974395275115967,19.931978225708008,0.6713767647743225,2.4566683769226074,-0.26217979192733765,0.0,0.0,0.0,0.0,0.0,0.0,0.0,-0.36673166620402453,0.04484350496908099,-0.32385961723791584,0.1744827227548369,0.0917198325134741,0.0927150397304829,-0.2431842243743564,1.2136207654643474,-0.22024309347854373,-0.007484132862899953,-2.6038932964460093,-0.10888657194375992,2.4681849871695696,0.8264767811749961,1.2134413937687574,-0.2202432315892585,-0.0075118285948192216,-2.6038483821997875,-0.10888392708698907,2.4681821257803174,0.826474908251239,-0.0003010028333467158,0.00011530690479052044,0.002025597534055232,0.00039923585041299676,0.0002909043521621024,0.00032937148633161654,0.000994593354594534,0.0,0.0,0.0,0.0,0.0,0.0,0.0,-0.00017937169559001376,-1.3811071475355874e-07,-2.7695731919268572e-05,4.49142462217722e-05,2.6448567708448056e-06,-2.861389252206692e-06,-1.872923757084699e-06,0.0003010028333467158,-0.00011530690479052044,-0.002025597534055232,-0.00039923585041299676,-0.0002909043521621024,-0.00032937148633161654,-0.000994593354594534,0.3514034152030945,19.693445205688477,0.5974395275115967,-19.931978225708008,-0.6713767647743225,-2.4566683769226074,0.26217979192733765,0
67,0.32998180389404297,-0.3514034152030945,-19.693445205688477,-0.5974395275115967,19.931978225708008,0.6713767647743225,2.4566683769226074,-0.26217979192733765,0.0,0.0,0.0,0.0,0.0,0.0,0.0,-0.36673166620402453,0.04484350496908099,-0.32385961723791584,0.1744827227548369,0.0917198325134741,0.0927150397304829,-0.2431842243743564,1.2136207654643474,-0.22024309347854373,-0.007484132862899953,-2.6038932964460093,-0.10888657194375992,2.4681849871695696,0.8264767811749961,1.2134413937687574,-0.2202432315892585,-0.0075118285948192216,-2.6038483821997875,-0.10888392708698907,2.4681821257803174,0.826474908251239,-0.0003010028333467158,0.00011530690479052044,0.002025597534055232,0.00039923585041299676,0.0002909043521621024,0.00032937148633161654,0.000994593354594534,0.0,0.0,0.0,0.0,0.0,0.0,0.0,-0.00017937169559001376,-1.3811071475355874e-07,-2.7695731919268572e-05,4.49142462217722e-05,2.6448567708448056e-06,-2.861389252206692e-06,-1.872923757084699e-06,0.0003010028333467158,-0.00011530690479052044,-0.002025597534055232,-0.00039923585041299676,-0.0002909043521621024,-0.00032937148633161654,-0.000994593354594534,0.3514034152030945,19.693445205688477,0.5974395275115967,-19.931978225708008,-0.6713767647743225,-2.4566683769226074,0.26217979192733765,0
68,0.33499717712402344,-0.3752071261405945,-19.693445205688477,-0.4982573688030243,19.955781936645508,0.6777854561805725,2.4630770683288574,-0.27591270208358765,0.0,0.0,0.0,0.0,0.0,0.0,0.0,-0.3611818960344631,0.048038828265723636,-0.32101080448907665,0.17446058380947602,0.09143644222964384,0.09292585379892858,-0.2422868569645926,1.2136224359002028,-0.2202430934906005,-0.0074910463666293245,-2.6038948839761162,-0.10888728402058283,2.468187440925248,0.8264773127590654,1.2134413937687574,-0.2202432315892585,-0.0075118285948192216,-2.6038483821997875,-0.10888392708698907,2.4681821257803174,0.826474908251239,0.00018090765810948936,0.00027161224660009556,-0.00023150375531017975,5.106607531977472e-05,-9.453650871258014e-05,0.00011473134025635529,0.001639793261090472,0.0,0.0,0.0,0.0,0.0,0.0,0.0,-0.00018104213144543024,-1.380986579813115e-07,-2.0782228189897105e-05,4.650177632870012e-05,3.3569335937538858e-06,-5.315144930850835e-06,-2.404507826403446e-06,-0.00018090765810948936,-0.00027161224660009556,0.00023150375531017975,-5.106607531977472e-05,9.453650871258014e-05,-0.00011473134025635529,-0.001639793261090472,0.3752071261405945,19.693445205688477,0.4982573688030243,-19.955781936645508,-0.6777854561805725,-2.4630770683288574,0.27591270208358765,0
69,0.3399841785430908,-0.3752071261405945,-19.693445205688477,-0.4982573688030243,19.955781936645508,0.6777854561805725,2.4630770683288574,-0.27591270208358765,0.0,0.0,0.0,0.0,0.0,0.0,0.0,-0.3611818960344631,0.048038828265723636,-0.32101080448907665,0.17446058380947602,0.09143644222964384,0.09292585379892858,-0.2422868569645926,1.2136224359002028,-0.2202430934906005,-0.0074910463666293245,-2.6038948839761162,-0.10888728402058283,2.468187440925248,0.8264773127590654,1.2134413937687574,-0.2202432315892585,-0.0075118285948192216,-2.6038483821997875,-0.10888392708698907,2.4681821257803174,0.826474908251239,0.00018090765810948936,0.00027161224660009556,-0.00023150375531017975,5.106607531977472e-05,-9.453650871258014e-05,0.00011473134025635529,0.001639793261090472,0.0,0.0,0.0,0.0,0.0,0.0,0.0,-0.00018104213144543024,-1.380986579813115e-07,-2.0782228189897105e-05,4.650177632870012e-05,3.3569335937538858e-06,-5.315144930850835e-06,-2.404507826403446e-06,-0.00018090765810948936,-0.00027161224660009556,0.00023150375531017975,-5.106607531977472e-05,9.453650871258014e-05,-0.00011473134025635529,-0.001639793261090472,0.3752071261405945,19.693445205688477,0.4982573688030243,-19.955781936645508,-0.6777854561805725,-2.4630770683288574,0.27591270208358765,0
70,0.34499621391296387,-0.3236324191093445,-19.693445205688477,-0.4982573688030243,19.931978225708008,0.6713767647743225,2.4630770683288574,-0.20724813640117645,0.0,0.0,0.0,0.0,0.0,0.0,0.0,-0.3626663035123282,0.04566415740413126,-0.32281075108727514,0.17260730356684328,0.09148688278415733,0.09266748856579017,-0.24168475840908962,1.2136188166225164,-0.22024308470116394,-0.007491092009016109,-2.6038932959937764,-0.10888657194375992,2.4681842751106835,0.8264731108825809,1.2134413937687574,-0.2202432315892585,-0.0075118285948192216,-2.6038483821997875,-0.10888392708698907,2.4681821257803174,0.826474908251239,-0.0008494083289721574,-0.00021557140310553765,-0.00031806122300076235,0.0002572374129674918,0.00033583957788059005,0.0002283708161789198,-0.0012164846702875413,0.0,0.0,0.0,0.0,0.0,0.0,0.0,-0.00017742285375899058,-1.468880945487694e-07,-2.073658580311298e-05,4.491379398885442e-05,2.6448567708448056e-06,-2.1493303661301866e-06,1.7973686581296278e-06,0.0008494083289721574,0.00021557140310553765,0.00031806122300076235,-0.0002572374129674918,-0.00033583957788059005,-0.0002283708161789198,0.0012164846702875413,0.3236324191093445,19.693445205688477,0.4982573688030243,-19.931978225708008,-0.6713767647743225,-2.4630770683288574,0.20724813640117645,0
71,0.34998226165771484,-0.3236324191093445,-19.693445205688477,-0.4982573688030243,19.931978225708008,0.6713767647743225,2.4630770683288574,-0.20724813640117645,0.0,0.0,0.0,0.0,0.0,0.0,0.0,-0.3626663035123282,0.04566415740413126,-0.32281075108727514,0.17260730356684328,0.09148688278415733,0.09266748856579017,-0.24168475840908962,1.2136188166225164,-0.22024308470116394,-0.007491092009016109,-2.6038932959937764,-0.10888657194375992,2.4681842751106835,0.8264731108825809,1.2134413937687574,-0.2202432315892585,-0.0075118285948192216,-2.6038483821997875,-0.10888392708698907,2.4681821257803174,0.826474908251239,-0.0008494083289721574,-0.00021557140310553765,-0.00031806122300076235,0.0002572374129674918,0.00033583957788059005,0.0002283708161789198,-0.0012164846702875413,0.0,0.0,0.0,0.0,0.0,0.0,0.0,-0.00017742285375899058,-1.468880945487694e-07,-2.073658580311298e-05,4.491379398885442e-05,2.6448567708448056e-06,-2.1493303661301866e-06,1.7973686581296278e-06,0.0008494083289721574,0.00021557140310553765,0.00031806122300076235,-0.0002572374129674918,-0.00033583957788059005,-0.0002283708161789198,0.0012164846702875413,0.3236324191093445,19.693445205688477,0.4982573688030243,-19.931978225708008,-0.6713767647743225,-2.4630770683288574,0.20724813640117645,0
72,0.3549962043762207,-0.3514034152030945,-19.693445205688477,-0.4982573688030243,19.955781936645508,0.6832786202430725,2.4630770683288574,-0.27591270208358765,0.0,0.0,0.0,0.0,0.0,0.0,0.0,-0.3613193698162569,0.0447513431322693,-0.32352531560114123,0.17435466890763648,0.0920176633454566,0.0932279096913242,-0.2418128055072707,1.2136207654643474,-0.22024301438562116,-0.007490414766157076,-2.603894884315275,-0.10888789437214534,2.46818426201086,0.8264804868420216,1.2134413937687574,-0.2202432315892585,-0.0075118285948192216,-2.6038483821997875,-0.10888392708698907,2.4681821257803174,0.826474908251239,-0.00040596944330525216,-7.839155296207834e-05,-0.00022429369837141368,0.0001988420949231774,1.9013352426054088e-05,0.00023218083471561902,0.0017130736511690651,0.0,0.0,0.0,0.0,0.0,0.0,0.0,-0.00017937169559001376,-2.1720363732602443e-07,-2.1413828662145487e-05,4.6502115487623286e-05,3.9672851562672085e-06,-2.1362305426819717e-06,-5.578590782540083e-06,0.00040596944330525216,7.839155296207834e-05,0.00022429369837141368,-0.0001988420949231774,-1.9013352426054088e-05,-0.00023218083471561902,-0.0017130736511690651,0.3514034152030945,19.693445205688477,0.4982573688030243,-19.955781936645508,-0.6832786202430725,-2.4630770683288574,0.27591270208358765,0
73,0.35999107360839844,-0.3514034152030945,-19.693445205688477,-0.4982573688030243,19.955781936645508,0.6832786202430725,2.4630770683288574,-0.27591270208358765,0.0,0.0,0.0,0.0,0.0,0.0,0.0,-0.3613193698162569,0.0447513431322693,-0.32352531560114123,0.17435466890763648,0.0920176633454566,0.0932279096913242,-0.2418128055072707,1.2136207654643474,-0.22024301438562116,-0.007490414766157076,-2.603894884315275,-0.10888789437214534,2.46818426201086,0.8264804868420216,1.2134413937687574,-0.2202432315892585,-0.0075118285948192216,-2.6038483821997875,-0.10888392708698907,2.4681821257803174,0.826474908251239,-0.00040596944330525216,-7.839155296207834e-05,-0.00022429369837141368,0.0001988420949231774,1.9013352426054088e-05,0.00023218083471561902,0.0017130736511690651,0.0,0.0,0.0,0.0,0.0,0.0,0.0,-0.00017937169559001376,-2.1720363732602443e-07,-2.1413828662145487e-05,4.6502115487623286e-05,3.9672851562672085e-06,-2.1362305426819717e-06,-5.578590782540083e-06,0.00040596944330525216,7.839155296207834e-05,0.00022429369837141368,-0.0001988420949231774,-1.9013352426054088e-05,-0.00023218083471561902,-0.0017130736511690651,0.3514034152030945,19.693445205688477,0.4982573688030243,-19.955781936645508,-0.6832786202430725,-2.4630770683288574,0.27591270208358765,0
74,0.36499691009521484,-0.3752071261405945,-19.693445205688477,-0.5220611095428467,19.931978225708008,0.6777854561805725,2.4566683769226074,-0.22830526530742645,0.0,0.0,0.0,0.0,0.0,0.0,0.0,-0.36133313160198594,0.049133086238148285,-0.3216646007732499,0.1698593880910207,0.09239509326123849,0.09256960244239629,-0.2419307392728994,1.2136224359002028,-0.22024309349015403,-0.007489422253045832,-2.6038954418323215,-0.10888728402058283,2.468184974087609,0.826476309737354,1.2134413937687574,-0.2202432315892585,-0.0075118285948192216,-2.6038483821997875,-0.10888392708698907,2.4681821257803174,0.826474908251239,0.0003526812368187395,0.0002419545888546591,0.00016680476340026786,0.00034091788273525744,-7.427086789774279e-05,0.0003034217115324049,-0.0003307414391885071,0.0,0.0,0.0,0.0,0.0,0.0,0.0,-0.00018104213144543024,-1.3809910445750084e-07,-2.240634177338996e-05,4.7059632533930085e-05,3.3569335937538858e-06,-2.848307291802854e-06,-1.4014861149380664e-06,-0.0003526812368187395,-0.0002419545888546591,-0.00016680476340026786,-0.00034091788273525744,7.427086789774279e-05,-0.0003034217115324049,0.0003307414391885071,0.3752071261405945,19.693445205688477,0.5220611095428467,-19.931978225708008,-0.6777854561805725,-2.4566683769226074,0.22830526530742645,0
75,0.36997246742248535,-0.3752071261405945,-19.693445205688477,-0.5220611095428467,19.931978225708008,0.6777854561805725,2.4566683769226074,-0.22830526530742645,0.0,0.0,0.0,0.0,0.0,0.0,0.0,-0.36133313160198594,0.049133086238148285,-0.3216646007732499,0.1698593880910207,0.09239509326123849,0.09256960244239629,-0.2419307392728994,1.2136224359002028,-0.22024309349015403,-0.007489422253045832,-2.6038954418323215,-0.10888728402058283,2.468184974087609,0.826476309737354,1.2134413937687574,-0.2202432315892585,-0.0075118285948192216,-2.6038483821997875,-0.10888392708698907,2.4681821257803174,0.826474908251239,0.0003526812368187395,0.0002419545888546591,0.00016680476340026786,0.00034091788273525744,-7.427086789774279e-05,0.0003034217115324049,-0.0003307414391885071,0.0,0.0,0.0,0.0,0.0,0.0,0.0,-0.00018104213144543024,-1.3809910445750084e-07,-2.240634177338996e-05,4.7059632533930085e-05,3.3569335937538858e-06,-2.848307291802854e-06,-1.4014861149380664e-06,-0.0003526812368187395,-0.0002419545888546591,-0.00016680476340026786,-0.00034091788273525744,7.427086789774279e-05,-0.0003034217115324049,0.0003307414391885071,0.3752071261405945,19.693445205688477,0.5220611095428467,-19.931978225708008,-0.6777854561805725,-2.4566683769226074,0.22830526530742645,0
76,0.3749873638153076,-0.3514034152030945,-19.693445205688477,-0.5220611095428467,19.931978225708008,0.6713767647743225,2.4630770683288574,-0.26217979192733765,0.0,0.0,0.0,0.0,0.0,0.0,0.0,-0.3573146777494106,0.04645800488413534,-0.3160861218166344,0.17354475995696364,0.09185110484875793,0.09288199317573875,-0.24106303356556677,1.2136207654643474,-0.22024309349060056,-0.007488721236280619,-2.6038932135523716,-0.10888657194375992,2.4681842620107863,0.8264799471748897,1.2134413937687574,-0.2202432315892585,-0.0075118285948192216,-2.6038483821997875,-0.10888392708698907,2.4681821257803174,0.826474908251239,0.0002846332930093193,0.0003911200412852967,2.438369276382141e-05,0.0004971219692682362,0.00028246148098573975,-4.532338441843949e-05,0.0014273890156339345,0.0,0.0,0.0,0.0,0.0,0.0,0.0,-0.00017937169559001376,-1.3809865792580034e-07,-2.3107358538602962e-05,4.4831352584040474e-05,2.6448567708448056e-06,-2.136230468963163e-06,-5.038923650668714e-06,-0.0002846332930093193,-0.0003911200412852967,-2.438369276382141e-05,-0.0004971219692682362,-0.00028246148098573975,4.532338441843949e-05,-0.0014273890156339345,0.3514034152030945,19.693445205688477,0.5220611095428467,-19.931978225708008,-0.6713767647743225,-2.4630770683288574,0.26217979192733765,0
77,0.379988431930542,-0.3514034152030945,-19.693445205688477,-0.5220611095428467,19.931978225708008,0.6713767647743225,2.4630770683288574,-0.26217979192733765,0.0,0.0,0.0,0.0,0.0,0.0,0.0,-0.3573146777494106,0.04645800488413534,-0.3160861218166344,0.17354475995696364,0.09185110484875793,0.09288199317573875,-0.24106303356556677,1.2136207654643474,-0.22024309349060056,-0.007488721236280619,-2.6038932135523716,-0.10888657194375992,2.4681842620107863,0.8264799471748897,1.2134413937687574,-0.2202432315892585,-0.0075118285948192216,-2.6038483821997875,-0.10888392708698907,2.4681821257803174,0.826474908251239,0.0002846332930093193,0.0003911200412852967,2.438369276382141e-05,0.0004971219692682362,0.00028246148098573975,-4.532338441843949e-05,0.0014273890156339345,0.0,0.0,0.0,0.0,0.0,0.0,0.0,-0.00017937169559001376,-1.3809865792580034e-07,-2.3107358538602962e-05,4.4831352584040474e-05,2.6448567708448056e-06,-2.136230468963163e-06,-5.038923650668714e-06,-0.0002846332930093193,-0.0003911200412852967,-2.438369276382141e-05,-0.0004971219692682362,-0.00028246148098573975,4.532338441843949e-05,-0.0014273890156339345,0.3514034152030945,19.693445205688477,0.5220611095428467,-19.931978225708008,-0.6713767647743225,-2.4630770683288574,0.26217979192733765,0
78,0.3849961757659912,-0.4029781222343445,-19.745019912719727,-0.4982573688030243,19.931978225708008,0.6713767647743225,2.4758944511413574,-0.26217979192733765,0.0,0.0,0.0,0.0,0.0,0.0,0.0,-0.3568375528273391,0.04755729444022027,-0.31695006426007627,0.1753669155208624,0.09155396288970383,0.09263904118144534,-0.24007533137900205,1.2136243847420338,-0.22023947421291415,-0.007491128158628977,-2.6038934607886897,-0.10888657194375992,2.4681828509390926,0.8264761875933825,1.2134413937687574,-0.2202432315892585,-0.0075118285948192216,-2.6038483821997875,-0.10888392708698907,2.4681821257803174,0.826474908251239,0.0008249392990821786,0.0015182508088545901,-0.0003553771416756087,0.0005506903909220646,0.00017380797319979104,-0.0004267982310176918,0.0011117044751032493,0.0,0.0,0.0,0.0,0.0,0.0,0.0,-0.00018299097327645342,-3.757376344337704e-06,-2.0700436190244746e-05,4.507858890212546e-05,2.6448567708448056e-06,-7.251587752499233e-07,-1.2793421434453833e-06,-0.0008249392990821786,-0.0015182508088545901,0.0003553771416756087,-0.0005506903909220646,-0.00017380797319979104,0.0004267982310176918,-0.0011117044751032493,0.4029781222343445,19.745019912719727,0.4982573688030243,-19.931978225708008,-0.6713767647743225,-2.4758944511413574,0.26217979192733765,0
79,0.38999319076538086,-0.4029781222343445,-19.745019912719727,-0.4982573688030243,19.931978225708008,0.6713767647743225,2.4758944511413574,-0.26217979192733765,0.0,0.0,0.0,0.0,0.0,0.0,0.0,-0.3568375528273391,0.04755729444022027,-0.31695006426007627,0.1753669155208624,0.09155396288970383,0.09263904118144534,-0.24007533137900205,1.2136243847420338,-0.22023947421291415,-0.007491128158628977,-2.6038934607886897,-0.10888657194375992,2.4681828509390926,0.8264761875933825,1.2134413937687574,-0.2202432315892585,-0.0075118285948192216,-2.6038483821997875,-0.10888392708698907,2.4681821257803174,0.826474908251239,0.0008249392990821786,0.0015182508088545901,-0.0003553771416756087,0.0005506903909220646,0.00017380797319979104,-0.0004267982310176918,0.0011117044751032493,0.0,0.0,0.0,0.0,0.0,0.0,0.0,-0.00018299097327645342,-3.757376344337704e-06,-2.0700436190244746e-05,4.507858890212546e-05,2.6448567708448056e-06,-7.251587752499233e-07,-1.2793421434453833e-06,-0.0008249392990821786,-0.0015182508088545901,0.0003553771416756087,-0.0005506903909220646,-0.00017380797319979104,0.0004267982310176918,-0.0011117044751032493,0.4029781222343445,19.745019912719727,0.4982573688030243,-19.931978225708008,-0.6713767647743225,-2.4758944511413574,0.26217979192733765,0
