rezayati/contactInterpretation/dataset/franka_main/labeled_data/link2/f3_5.csv
index,time,tau_J0,tau_J1,tau_J2,tau_J3,tau_J4,tau_J5,tau_J6,tau_J_d0,tau_J_d1,tau_J_d2,tau_J_d3,tau_J_d4,tau_J_d5,tau_J_d6,tau_ext0,tau_ext1,tau_ext2,tau_ext3,tau_ext4,tau_ext5,tau_ext6,q0,q1,q2,q3,q4,q5,q6,q_d0,q_d1,q_d2,q_d3,q_d4,q_d5,q_d6,dq0,dq1,dq2,dq3,dq4,dq5,dq6,dq_d0,dq_d1,dq_d2,dq_d3,dq_d4,dq_d5,dq_d6,e0,e1,e2,e3,e4,e5,e6,de0,de1,de2,de3,de4,de5,de6,etau_J0,etau_J1,etau_J2,etau_J3,etau_J4,etau_J5,etau_J6,label
1,0.0,-0.7838374972343445,-46.22665023803711,-5.612087726593018,19.586824417114258,0.7491965889930725,2.4237093925476074,-0.13217489421367645,0.0,0.0,0.0,0.0,0.0,0.0,0.0,-0.8029568799470637,0.10411364648659423,-0.4365378930024085,0.3922809447164708,0.15796980402401212,0.1483540530035149,-0.14491120665174978,0.8780769020256242,0.7554449961729217,-0.2825521300429096,-1.6690993617877623,0.14140731968482334,2.4034451173676383,1.0273407931244953,0.878092876070424,0.7554597494309409,-0.2825552651693207,-1.6690993614607135,0.1414185955172306,2.4034451173676383,1.0273381002308042,-0.0005924262021485448,4.046494820409186e-06,7.09506628448818e-05,0.000316927641900297,4.930589878009725e-05,-0.0003641344251089461,-0.00022413961202235206,0.0,0.0,0.0,0.0,0.0,0.0,0.0,1.5974044799804688e-05,1.475325801914007e-05,-3.1351264111467714e-06,3.2704883246026384e-10,1.1275832407259267e-05,0.0,-2.6928936911474466e-06,0.0005924262021485448,-4.046494820409186e-06,-7.09506628448818e-05,-0.000316927641900297,-4.930589878009725e-05,0.0003641344251089461,0.00022413961202235206,0.7838374972343445,46.22665023803711,5.612087726593018,-19.586824417114258,-0.7491965889930725,-2.4237093925476074,0.13217489421367645,0
2,0.004998922348022461,-0.8592159152030945,-46.25045394897461,-5.612087726593018,19.634431838989258,0.7427878975868225,2.4108920097351074,-0.12485067546367645,0.0,0.0,0.0,0.0,0.0,0.0,0.0,-0.8229284509846713,0.09998933637351816,-0.450916297550121,0.3903459754805217,0.15902058497437407,0.14857780615432298,-0.14472648760139628,0.8780821917391659,0.7554459513570773,-0.2825523694421865,-1.669102702659473,0.14140801859793184,2.4034465415212845,1.0273403413654478,0.878092876070424,0.7554597494309409,-0.2825552651693207,-1.6690993614607135,0.1414185955172306,2.4034451173676383,1.0273381002308042,0.0008985161119942967,0.000206353582509256,6.795000655458315e-05,-0.0011155925465393174,0.00019841249924169743,0.00010213125284445848,-0.0005211938921336336,0.0,0.0,0.0,0.0,0.0,0.0,0.0,1.0684331258059565e-05,1.379807386359122e-05,-2.8957271342444635e-06,3.3411987594433867e-06,1.0576919298760368e-05,-1.4241536461234716e-06,-2.2411346436435053e-06,-0.0008985161119942967,-0.000206353582509256,-6.795000655458315e-05,0.0011155925465393174,-0.00019841249924169743,-0.00010213125284445848,0.0005211938921336336,0.8592159152030945,46.25045394897461,5.612087726593018,-19.634431838989258,-0.7427878975868225,-2.4108920097351074,0.12485067546367645,0
3,0.010001420974731445,-0.8592159152030945,-46.25045394897461,-5.612087726593018,19.634431838989258,0.7427878975868225,2.4108920097351074,-0.12485067546367645,0.0,0.0,0.0,0.0,0.0,0.0,0.0,-0.8229284509846713,0.09998933637351816,-0.450916297550121,0.3903459754805217,0.15902058497437407,0.14857780615432298,-0.14472648760139628,0.8780821917391659,0.7554459513570773,-0.2825523694421865,-1.669102702659473,0.14140801859793184,2.4034465415212845,1.0273403413654478,0.878092876070424,0.7554597494309409,-0.2825552651693207,-1.6690993614607135,0.1414185955172306,2.4034451173676383,1.0273381002308042,0.0008985161119942967,0.000206353582509256,6.795000655458315e-05,-0.0011155925465393174,0.00019841249924169743,0.00010213125284445848,-0.0005211938921336336,0.0,0.0,0.0,0.0,0.0,0.0,0.0,1.0684331258059565e-05,1.379807386359122e-05,-2.8957271342444635e-06,3.3411987594433867e-06,1.0576919298760368e-05,-1.4241536461234716e-06,-2.2411346436435053e-06,-0.0008985161119942967,-0.000206353582509256,-6.795000655458315e-05,0.0011155925465393174,-0.00019841249924169743,-0.00010213125284445848,0.0005211938921336336,0.8592159152030945,46.25045394897461,5.612087726593018,-19.634431838989258,-0.7427878975868225,-2.4108920097351074,0.12485067546367645,0
4,0.015000104904174805,-0.8354122042655945,-46.22665023803711,-5.663662433624268,19.634431838989258,0.7491965889930725,2.4173007011413574,-0.11844198405742645,0.0,0.0,0.0,0.0,0.0,0.0,0.0,-0.8216840663682725,0.10432992311724419,-0.4467589827153841,0.38732014603428677,0.15938727187351642,0.14820840485879289,-0.1430593337168305,0.8780798192930499,0.7554442809171844,-0.28254859056603443,-1.669102702659473,0.141407319684749,2.4034458294444616,1.0273392628869902,0.878092876070424,0.7554597494309409,-0.2825552651693207,-1.6690993614607135,0.1414185955172306,2.4034451173676383,1.0273381002308042,3.541407846157556e-05,1.736938650381955e-05,0.0008075777910655234,-0.0012538924141258278,5.999771400026871e-05,3.027127060166623e-05,-0.0010991693952074179,0.0,0.0,0.0,0.0,0.0,0.0,0.0,1.3056777374065298e-05,1.5468513756444757e-05,-6.674603286294101e-06,3.3411987594433867e-06,1.1275832481588699e-05,-7.120768232837804e-07,-1.162656185993427e-06,-3.541407846157556e-05,-1.736938650381955e-05,-0.0008075777910655234,0.0012538924141258278,-5.999771400026871e-05,-3.027127060166623e-05,0.0010991693952074179,0.8354122042655945,46.22665023803711,5.663662433624268,-19.634431838989258,-0.7491965889930725,-2.4173007011413574,0.11844198405742645,0
5,0.020470380783081055,-0.8354122042655945,-46.22665023803711,-5.663662433624268,19.634431838989258,0.7491965889930725,2.4173007011413574,-0.11844198405742645,0.0,0.0,0.0,0.0,0.0,0.0,0.0,-0.8216840663682725,0.10432992311724419,-0.4467589827153841,0.38732014603428677,0.15938727187351642,0.14820840485879289,-0.1430593337168305,0.8780798192930499,0.7554442809171844,-0.28254859056603443,-1.669102702659473,0.141407319684749,2.4034458294444616,1.0273392628869902,0.878092876070424,0.7554597494309409,-0.2825552651693207,-1.6690993614607135,0.1414185955172306,2.4034451173676383,1.0273381002308042,3.541407846157556e-05,1.736938650381955e-05,0.0008075777910655234,-0.0012538924141258278,5.999771400026871e-05,3.027127060166623e-05,-0.0010991693952074179,0.0,0.0,0.0,0.0,0.0,0.0,0.0,1.3056777374065298e-05,1.5468513756444757e-05,-6.674603286294101e-06,3.3411987594433867e-06,1.1275832481588699e-05,-7.120768232837804e-07,-1.162656185993427e-06,-3.541407846157556e-05,-1.736938650381955e-05,-0.0008075777910655234,0.0012538924141258278,-5.999771400026871e-05,-3.027127060166623e-05,0.0010991693952074179,0.8354122042655945,46.22665023803711,5.663662433624268,-19.634431838989258,-0.7491965889930725,-2.4173007011413574,0.11844198405742645,0
6,0.0257570743560791,-0.8076412081718445,-46.25045394897461,-5.612087726593018,19.586824417114258,0.7491965889930725,2.4108920097351074,-0.13858358561992645,0.0,0.0,0.0,0.0,0.0,0.0,0.0,-0.812799585076247,0.10148187996213702,-0.44196058780773634,0.38930974299806886,0.15949146797391806,0.1481598911536543,-0.1434462340133421,0.8780785724575166,0.7554459513530396,-0.2825521565702034,-1.6690993617877623,0.1414069642645341,2.4034465415212845,1.0273415052013017,0.878092876070424,0.7554597494309409,-0.2825552651693207,-1.6690993614607135,0.1414185955172306,2.4034451173676383,1.0273381002308042,8.795752298884105e-05,0.0004682608062866274,-0.00037797425974487274,5.837613183031044e-05,-0.00016099570558488358,0.00012889577741787494,-3.203609186560425e-05,0.0,0.0,0.0,0.0,0.0,0.0,0.0,1.4303612907329288e-05,1.3798077901250316e-05,-3.108599117340738e-06,3.2704883246026384e-10,1.1631252696486793e-05,-1.4241536461234716e-06,-3.404970497555837e-06,-8.795752298884105e-05,-0.0004682608062866274,0.00037797425974487274,-5.837613183031044e-05,0.00016099570558488358,-0.00012889577741787494,3.203609186560425e-05,0.8076412081718445,46.25045394897461,5.612087726593018,-19.586824417114258,-0.7491965889930725,-2.4108920097351074,0.13858358561992645,0
7,0.030004024505615234,-0.8076412081718445,-46.25045394897461,-5.612087726593018,19.586824417114258,0.7491965889930725,2.4108920097351074,-0.13858358561992645,0.0,0.0,0.0,0.0,0.0,0.0,0.0,-0.812799585076247,0.10148187996213702,-0.44196058780773634,0.38930974299806886,0.15949146797391806,0.1481598911536543,-0.1434462340133421,0.8780785724575166,0.7554459513530396,-0.2825521565702034,-1.6690993617877623,0.1414069642645341,2.4034465415212845,1.0273415052013017,0.878092876070424,0.7554597494309409,-0.2825552651693207,-1.6690993614607135,0.1414185955172306,2.4034451173676383,1.0273381002308042,8.795752298884105e-05,0.0004682608062866274,-0.00037797425974487274,5.837613183031044e-05,-0.00016099570558488358,0.00012889577741787494,-3.203609186560425e-05,0.0,0.0,0.0,0.0,0.0,0.0,0.0,1.4303612907329288e-05,1.3798077901250316e-05,-3.108599117340738e-06,3.2704883246026384e-10,1.1631252696486793e-05,-1.4241536461234716e-06,-3.404970497555837e-06,-8.795752298884105e-05,-0.0004682608062866274,0.00037797425974487274,-5.837613183031044e-05,0.00016099570558488358,-0.00012889577741787494,3.203609186560425e-05,0.8076412081718445,46.25045394897461,5.612087726593018,-19.586824417114258,-0.7491965889930725,-2.4108920097351074,0.13858358561992645,0
8,0.03494906425476074,-0.8076412081718445,-46.22665023803711,-5.635891437530518,19.559053421020508,0.7427878975868225,2.4173007011413574,-0.17978231608867645,0.0,0.0,0.0,0.0,0.0,0.0,0.0,-0.8179452905610849,0.09855160627481599,-0.44756070122703695,0.38948254100031343,0.1597428693450801,0.14844773460314176,-0.14388670309493543,0.8780785724614795,0.7554464266843963,-0.28255053907961514,-1.669097386454978,0.14140802737173508,2.4034458294444616,1.0273460828380452,0.878092876070424,0.7554597494309409,-0.2825552651693207,-1.6690993614607135,0.1414185955172306,2.4034451173676383,1.0273381002308042,-0.0001782252284357777,1.9906958857979485e-05,0.0008681754659985944,0.0008529573553614474,5.027358895680441e-05,-0.00019223097074560174,0.0011722351266405344,0.0,0.0,0.0,0.0,0.0,0.0,0.0,1.4303608944499224e-05,1.3322746544530695e-05,-4.7260897055867446e-06,-1.9750057353995487e-06,1.0568145495520875e-05,-7.120768232837804e-07,-7.982607240997197e-06,0.0001782252284357777,-1.9906958857979485e-05,-0.0008681754659985944,-0.0008529573553614474,-5.027358895680441e-05,0.00019223097074560174,-0.0011722351266405344,0.8076412081718445,46.22665023803711,5.635891437530518,-19.559053421020508,-0.7427878975868225,-2.4173007011413574,0.17978231608867645,0
9,0.03999757766723633,-0.8076412081718445,-46.22665023803711,-5.635891437530518,19.559053421020508,0.7427878975868225,2.4173007011413574,-0.17978231608867645,0.0,0.0,0.0,0.0,0.0,0.0,0.0,-0.8179452905610849,0.09855160627481599,-0.44756070122703695,0.38948254100031343,0.1597428693450801,0.14844773460314176,-0.14388670309493543,0.8780785724614795,0.7554464266843963,-0.28255053907961514,-1.669097386454978,0.14140802737173508,2.4034458294444616,1.0273460828380452,0.878092876070424,0.7554597494309409,-0.2825552651693207,-1.6690993614607135,0.1414185955172306,2.4034451173676383,1.0273381002308042,-0.0001782252284357777,1.9906958857979485e-05,0.0008681754659985944,0.0008529573553614474,5.027358895680441e-05,-0.00019223097074560174,0.0011722351266405344,0.0,0.0,0.0,0.0,0.0,0.0,0.0,1.4303608944499224e-05,1.3322746544530695e-05,-4.7260897055867446e-06,-1.9750057353995487e-06,1.0568145495520875e-05,-7.120768232837804e-07,-7.982607240997197e-06,0.0001782252284357777,-1.9906958857979485e-05,-0.0008681754659985944,-0.0008529573553614474,-5.027358895680441e-05,0.00019223097074560174,-0.0011722351266405344,0.8076412081718445,46.22665023803711,5.635891437530518,-19.559053421020508,-0.7427878975868225,-2.4173007011413574,0.17978231608867645,0
10,0.045026540756225586,-0.8354122042655945,-46.20284652709961,-5.588284015655518,19.559053421020508,0.7308860421180725,2.4108920097351074,-0.17978231608867645,0.0,0.0,0.0,0.0,0.0,0.0,0.0,-0.8249934249277306,0.0983034659824112,-0.45327933360878875,0.3882463496955409,0.158929860398075,0.1479981406097834,-0.14420623654603693,0.8780804431951731,0.755442610493442,-0.28255403889734393,-1.66909526717857,0.14140935419000691,2.4034465415212845,1.0273460828380452,0.878092876070424,0.7554597494309409,-0.2825552651693207,-1.6690993614607135,0.1414185955172306,2.4034451173676383,1.0273381002308042,0.0005780254570857146,-0.00026800594357835383,-0.0014762894784662002,0.0006278526382617927,0.0005756777586656856,9.836644926857174e-05,0.001548941001497827,0.0,0.0,0.0,0.0,0.0,0.0,0.0,1.2432875250878439e-05,1.7138937498883955e-05,-1.2262719767952568e-06,-4.094282143540795e-06,9.241327223685758e-06,-1.4241536461234716e-06,-7.982607240997197e-06,-0.0005780254570857146,0.00026800594357835383,0.0014762894784662002,-0.0006278526382617927,-0.0005756777586656856,-9.836644926857174e-05,-0.001548941001497827,0.8354122042655945,46.20284652709961,5.588284015655518,-19.559053421020508,-0.7308860421180725,-2.4108920097351074,0.17978231608867645,0
11,0.04999399185180664,-0.8354122042655945,-46.20284652709961,-5.588284015655518,19.559053421020508,0.7308860421180725,2.4108920097351074,-0.17978231608867645,0.0,0.0,0.0,0.0,0.0,0.0,0.0,-0.8249934249277306,0.0983034659824112,-0.45327933360878875,0.3882463496955409,0.158929860398075,0.1479981406097834,-0.14420623654603693,0.8780804431951731,0.755442610493442,-0.28255403889734393,-1.66909526717857,0.14140935419000691,2.4034465415212845,1.0273460828380452,0.878092876070424,0.7554597494309409,-0.2825552651693207,-1.6690993614607135,0.1414185955172306,2.4034451173676383,1.0273381002308042,0.0005780254570857146,-0.00026800594357835383,-0.0014762894784662002,0.0006278526382617927,0.0005756777586656856,9.836644926857174e-05,0.001548941001497827,0.0,0.0,0.0,0.0,0.0,0.0,0.0,1.2432875250878439e-05,1.7138937498883955e-05,-1.2262719767952568e-06,-4.094282143540795e-06,9.241327223685758e-06,-1.4241536461234716e-06,-7.982607240997197e-06,-0.0005780254570857146,0.00026800594357835383,0.0014762894784662002,-0.0006278526382617927,-0.0005756777586656856,-9.836644926857174e-05,-0.001548941001497827,0.8354122042655945,46.20284652709961,5.588284015655518,-19.559053421020508,-0.7308860421180725,-2.4108920097351074,0.17978231608867645,0
12,0.05494880676269531,-0.8592159152030945,-46.22665023803711,-5.588284015655518,19.586824417114258,0.7372947335243225,2.4237093925476074,-0.13858358561992645,0.0,0.0,0.0,0.0,0.0,0.0,0.0,-0.8112174723084007,0.08708920673681474,-0.44861063508194415,0.39534383446146154,0.15852098818388888,0.14851596530484962,-0.14450983101543996,0.878082191738725,0.7554442809171845,-0.2825538005160008,-1.6690972130649981,0.14140864211320875,2.4034451173676383,1.0273415052013264,0.878092876070424,0.7554597494309409,-0.2825552651693207,-1.6690993614607135,0.1414185955172306,2.4034451173676383,1.0273381002308042,0.0011174288496511302,-0.00044342107770320265,-0.0010330519084344912,0.00041464190098726395,0.00017948391012453309,-0.00024367423810728783,-0.0004981807595812239,0.0,0.0,0.0,0.0,0.0,0.0,0.0,1.0684331698929128e-05,1.5468513756333735e-05,-1.4646533199047518e-06,-2.148395715328988e-06,9.953404021850742e-06,0.0,-3.404970522202788e-06,-0.0011174288496511302,0.00044342107770320265,0.0010330519084344912,-0.00041464190098726395,-0.00017948391012453309,0.00024367423810728783,0.0004981807595812239,0.8592159152030945,46.22665023803711,5.588284015655518,-19.586824417114258,-0.7372947335243225,-2.4237093925476074,0.13858358561992645,0
13,0.05999016761779785,-0.8592159152030945,-46.22665023803711,-5.588284015655518,19.586824417114258,0.7372947335243225,2.4237093925476074,-0.13858358561992645,0.0,0.0,0.0,0.0,0.0,0.0,0.0,-0.8112174723084007,0.08708920673681474,-0.44861063508194415,0.39534383446146154,0.15852098818388888,0.14851596530484962,-0.14450983101543996,0.878082191738725,0.7554442809171845,-0.2825538005160008,-1.6690972130649981,0.14140864211320875,2.4034451173676383,1.0273415052013264,0.878092876070424,0.7554597494309409,-0.2825552651693207,-1.6690993614607135,0.1414185955172306,2.4034451173676383,1.0273381002308042,0.0011174288496511302,-0.00044342107770320265,-0.0010330519084344912,0.00041464190098726395,0.00017948391012453309,-0.00024367423810728783,-0.0004981807595812239,0.0,0.0,0.0,0.0,0.0,0.0,0.0,1.0684331698929128e-05,1.5468513756333735e-05,-1.4646533199047518e-06,-2.148395715328988e-06,9.953404021850742e-06,0.0,-3.404970522202788e-06,-0.0011174288496511302,0.00044342107770320265,0.0010330519084344912,-0.00041464190098726395,-0.00017948391012453309,0.00024367423810728783,0.0004981807595812239,0.8592159152030945,46.22665023803711,5.588284015655518,-19.586824417114258,-0.7372947335243225,-2.4237093925476074,0.13858358561992645,0
14,0.06576967239379883,-0.8354122042655945,-46.20284652709961,-5.612087726593018,19.586824417114258,0.7308860421180725,2.4173007011413574,-0.17337362468242645,0.0,0.0,0.0,0.0,0.0,0.0,0.0,-0.8238702206801696,0.09392590330847071,-0.45707165318337484,0.39058378440412855,0.1584545977034508,0.14821983569497985,-0.14498644647821837,0.8780805213033106,0.7554426104813291,-0.28255220951532084,-1.6690972160084208,0.14140923571660194,2.4034458294444616,1.0273453707612223,0.878092876070424,0.7554597494309409,-0.2825552651693207,-1.6690993614607135,0.1414185955172306,2.4034451173676383,1.0273381002308042,-2.881705482626987e-05,-0.0009283843415691597,-0.0004360326308832726,0.0004780305647030926,-0.00657999160569493,-0.00032210145745575463,0.0011701765395583906,0.0,0.0,0.0,0.0,0.0,0.0,0.0,1.2354767113365028e-05,1.713894961175022e-05,-3.055653999883834e-06,-2.1454522927122355e-06,9.359800628661041e-06,-7.120768232837804e-07,-7.270530418157506e-06,2.881705482626987e-05,0.0009283843415691597,0.0004360326308832726,-0.0004780305647030926,0.00657999160569493,0.00032210145745575463,-0.0011701765395583906,0.8354122042655945,46.20284652709961,5.612087726593018,-19.586824417114258,-0.7308860421180725,-2.4173007011413574,0.17337362468242645,0
15,0.06993913650512695,-0.8354122042655945,-46.20284652709961,-5.612087726593018,19.586824417114258,0.7308860421180725,2.4173007011413574,-0.17337362468242645,0.0,0.0,0.0,0.0,0.0,0.0,0.0,-0.8238702206801696,0.09392590330847071,-0.45707165318337484,0.39058378440412855,0.1584545977034508,0.14821983569497985,-0.14498644647821837,0.8780805213033106,0.7554426104813291,-0.28255220951532084,-1.6690972160084208,0.14140923571660194,2.4034458294444616,1.0273453707612223,0.878092876070424,0.7554597494309409,-0.2825552651693207,-1.6690993614607135,0.1414185955172306,2.4034451173676383,1.0273381002308042,-2.881705482626987e-05,-0.0009283843415691597,-0.0004360326308832726,0.0004780305647030926,-0.00657999160569493,-0.00032210145745575463,0.0011701765395583906,0.0,0.0,0.0,0.0,0.0,0.0,0.0,1.2354767113365028e-05,1.713894961175022e-05,-3.055653999883834e-06,-2.1454522927122355e-06,9.359800628661041e-06,-7.120768232837804e-07,-7.270530418157506e-06,2.881705482626987e-05,0.0009283843415691597,0.0004360326308832726,-0.0004780305647030926,0.00657999160569493,0.00032210145745575463,-0.0011701765395583906,0.8354122042655945,46.20284652709961,5.612087726593018,-19.586824417114258,-0.7308860421180725,-2.4173007011413574,0.17337362468242645,0
16,0.0750737190246582,-0.8076412081718445,-46.25045394897461,-5.612087726593018,19.559053421020508,0.7372947335243225,2.4108920097351074,-0.12485067546367645,0.0,0.0,0.0,0.0,0.0,0.0,0.0,-0.804642345773069,0.1017482754611697,-0.4413058446662532,0.3895231860143249,0.15767004252179173,0.14732478520497097,-0.1461213294359608,0.8780785724614795,0.7554459513530396,-0.2825521300429096,-1.669097412824802,0.14140864211253998,2.4034465415212845,1.0273399793224203,0.878092876070424,0.7554597494309409,-0.2825552651693207,-1.6690993614607135,0.1414185955172306,2.4034451173676383,1.0273381002308042,0.0001302519106016573,0.00045236692778480753,-3.642288807806358e-05,0.0008656670380425507,-9.114456628658889e-05,0.00023353462723593371,-0.0009943898067466715,0.0,0.0,0.0,0.0,0.0,0.0,0.0,1.4303608944499224e-05,1.3798077901250316e-05,-3.1351264111467714e-06,-1.948635911519503e-06,9.953404690621337e-06,-1.4241536461234716e-06,-1.879091616086015e-06,-0.0001302519106016573,-0.00045236692778480753,3.642288807806358e-05,-0.0008656670380425507,9.114456628658889e-05,-0.00023353462723593371,0.0009943898067466715,0.8076412081718445,46.25045394897461,5.612087726593018,-19.559053421020508,-0.7372947335243225,-2.4108920097351074,0.12485067546367645,0
17,0.07999634742736816,-0.8076412081718445,-46.25045394897461,-5.612087726593018,19.559053421020508,0.7372947335243225,2.4108920097351074,-0.12485067546367645,0.0,0.0,0.0,0.0,0.0,0.0,0.0,-0.804642345773069,0.1017482754611697,-0.4413058446662532,0.3895231860143249,0.15767004252179173,0.14732478520497097,-0.1461213294359608,0.8780785724614795,0.7554459513530396,-0.2825521300429096,-1.669097412824802,0.14140864211253998,2.4034465415212845,1.0273399793224203,0.878092876070424,0.7554597494309409,-0.2825552651693207,-1.6690993614607135,0.1414185955172306,2.4034451173676383,1.0273381002308042,0.0001302519106016573,0.00045236692778480753,-3.642288807806358e-05,0.0008656670380425507,-9.114456628658889e-05,0.00023353462723593371,-0.0009943898067466715,0.0,0.0,0.0,0.0,0.0,0.0,0.0,1.4303608944499224e-05,1.3798077901250316e-05,-3.1351264111467714e-06,-1.948635911519503e-06,9.953404690621337e-06,-1.4241536461234716e-06,-1.879091616086015e-06,-0.0001302519106016573,-0.00045236692778480753,3.642288807806358e-05,-0.0008656670380425507,9.114456628658889e-05,-0.00023353462723593371,0.0009943898067466715,0.8076412081718445,46.25045394897461,5.612087726593018,-19.559053421020508,-0.7372947335243225,-2.4108920097351074,0.12485067546367645,0
18,0.0849909782409668,-0.8076412081718445,-46.25045394897461,-5.612087726593018,19.559053421020508,0.7372947335243225,2.4108920097351074,-0.12485067546367645,0.0,0.0,0.0,0.0,0.0,0.0,0.0,-0.804642345773069,0.1017482754611697,-0.4413058446662532,0.3895231860143249,0.15767004252179173,0.14732478520497097,-0.1461213294359608,0.8780785724614795,0.7554459513530396,-0.2825521300429096,-1.669097412824802,0.14140864211253998,2.4034465415212845,1.0273399793224203,0.878092876070424,0.7554597494309409,-0.2825552651693207,-1.6690993614607135,0.1414185955172306,2.4034451173676383,1.0273381002308042,0.0001302519106016573,0.00045236692778480753,-3.642288807806358e-05,0.0008656670380425507,-9.114456628658889e-05,0.00023353462723593371,-0.0009943898067466715,0.0,0.0,0.0,0.0,0.0,0.0,0.0,1.4303608944499224e-05,1.3798077901250316e-05,-3.1351264111467714e-06,-1.948635911519503e-06,9.953404690621337e-06,-1.4241536461234716e-06,-1.879091616086015e-06,-0.0001302519106016573,-0.00045236692778480753,3.642288807806358e-05,-0.0008656670380425507,9.114456628658889e-05,-0.00023353462723593371,0.0009943898067466715,0.8076412081718445,46.25045394897461,5.612087726593018,-19.559053421020508,-0.7372947335243225,-2.4108920097351074,0.12485067546367645,0
19,0.08998918533325195,-0.8076412081718445,-46.25045394897461,-5.612087726593018,19.559053421020508,0.7372947335243225,2.4108920097351074,-0.12485067546367645,0.0,0.0,0.0,0.0,0.0,0.0,0.0,-0.804642345773069,0.1017482754611697,-0.4413058446662532,0.3895231860143249,0.15767004252179173,0.14732478520497097,-0.1461213294359608,0.8780785724614795,0.7554459513530396,-0.2825521300429096,-1.669097412824802,0.14140864211253998,2.4034465415212845,1.0273399793224203,0.878092876070424,0.7554597494309409,-0.2825552651693207,-1.6690993614607135,0.1414185955172306,2.4034451173676383,1.0273381002308042,0.0001302519106016573,0.00045236692778480753,-3.642288807806358e-05,0.0008656670380425507,-9.114456628658889e-05,0.00023353462723593371,-0.0009943898067466715,0.0,0.0,0.0,0.0,0.0,0.0,0.0,1.4303608944499224e-05,1.3798077901250316e-05,-3.1351264111467714e-06,-1.948635911519503e-06,9.953404690621337e-06,-1.4241536461234716e-06,-1.879091616086015e-06,-0.0001302519106016573,-0.00045236692778480753,3.642288807806358e-05,-0.0008656670380425507,9.114456628658889e-05,-0.00023353462723593371,0.0009943898067466715,0.8076412081718445,46.25045394897461,5.612087726593018,-19.559053421020508,-0.7372947335243225,-2.4108920097351074,0.12485067546367645,0
20,0.09499216079711914,-0.8076412081718445,-46.25045394897461,-5.635891437530518,19.586824417114258,0.7491965889930725,2.4108920097351074,-0.15231649577617645,0.0,0.0,0.0,0.0,0.0,0.0,0.0,-0.8228832220247387,0.10345997528400497,-0.4547085617791959,0.38916255257510357,0.15756802129502898,0.14791517901030748,-0.14720457465189585,0.8780785714985024,0.7554459513530396,-0.2825506980251848,-1.6690993617877616,0.1414073196848233,2.4034465415212845,1.0273430310802327,0.878092876070424,0.7554597494309409,-0.2825552651693207,-1.6690993614607135,0.1414185955172306,2.4034451173676383,1.0273381002308042,-0.00035158303256328994,0.0009174927819815306,8.15792315003051e-05,0.00035211917636093337,-0.0001647468605299005,0.00027165765797859047,2.6556567247226995e-05,0.0,0.0,0.0,0.0,0.0,0.0,0.0,1.4304571921530673e-05,1.3798077901250316e-05,-4.567144135936285e-06,3.2704816632644906e-10,1.1275832407287023e-05,-1.4241536461234716e-06,-4.930849428541606e-06,0.00035158303256328994,-0.0009174927819815306,-8.15792315003051e-05,-0.00035211917636093337,0.0001647468605299005,-0.00027165765797859047,-2.6556567247226995e-05,0.8076412081718445,46.25045394897461,5.635891437530518,-19.586824417114258,-0.7491965889930725,-2.4108920097351074,0.15231649577617645,0
21,0.0999903678894043,-0.8076412081718445,-46.25045394897461,-5.635891437530518,19.586824417114258,0.7491965889930725,2.4108920097351074,-0.15231649577617645,0.0,0.0,0.0,0.0,0.0,0.0,0.0,-0.8228832220247387,0.10345997528400497,-0.4547085617791959,0.38916255257510357,0.15756802129502898,0.14791517901030748,-0.14720457465189585,0.8780785714985024,0.7554459513530396,-0.2825506980251848,-1.6690993617877616,0.1414073196848233,2.4034465415212845,1.0273430310802327,0.878092876070424,0.7554597494309409,-0.2825552651693207,-1.6690993614607135,0.1414185955172306,2.4034451173676383,1.0273381002308042,-0.00035158303256328994,0.0009174927819815306,8.15792315003051e-05,0.00035211917636093337,-0.0001647468605299005,0.00027165765797859047,2.6556567247226995e-05,0.0,0.0,0.0,0.0,0.0,0.0,0.0,1.4304571921530673e-05,1.3798077901250316e-05,-4.567144135936285e-06,3.2704816632644906e-10,1.1275832407287023e-05,-1.4241536461234716e-06,-4.930849428541606e-06,0.00035158303256328994,-0.0009174927819815306,-8.15792315003051e-05,-0.00035211917636093337,0.0001647468605299005,-0.00027165765797859047,-2.6556567247226995e-05,0.8076412081718445,46.25045394897461,5.635891437530518,-19.586824417114258,-0.7491965889930725,-2.4108920097351074,0.15231649577617645,0
22,0.10498976707458496,-0.8354122042655945,-46.25045394897461,-5.635891437530518,19.610628128051758,0.7372947335243225,2.4237093925476074,-0.20083944499492645,0.0,0.0,0.0,0.0,0.0,0.0,0.0,-0.8203044108669133,0.09532196898690871,-0.4532162838493555,0.393613849301425,0.1581195817106386,0.14824908209670123,-0.14910201975495108,0.8780805213033053,0.7554459513530396,-0.28255045960795155,-1.6691010322236175,0.14140864211320875,2.4034451173676383,1.0273484225190348,0.878092876070424,0.7554597494309409,-0.2825552651693207,-1.6690993614607135,0.1414185955172306,2.4034451173676383,1.0273381002308042,0.0001446567847413118,0.0005329536993793039,-6.836329796606708e-06,-0.00028125177415008675,0.00023986623575501483,-0.00032750737150003163,0.0019336554686758785,0.0,0.0,0.0,0.0,0.0,0.0,0.0,1.2354767118694099e-05,1.3798077901250316e-05,-4.805561369169986e-06,1.6707629040269012e-06,9.953404021850742e-06,0.0,-1.0322288230613097e-05,-0.0001446567847413118,-0.0005329536993793039,6.836329796606708e-06,0.00028125177415008675,-0.00023986623575501483,0.00032750737150003163,-0.0019336554686758785,0.8354122042655945,46.25045394897461,5.635891437530518,-19.610628128051758,-0.7372947335243225,-2.4237093925476074,0.20083944499492645,0
23,0.10999608039855957,-0.8354122042655945,-46.25045394897461,-5.635891437530518,19.610628128051758,0.7372947335243225,2.4237093925476074,-0.20083944499492645,0.0,0.0,0.0,0.0,0.0,0.0,0.0,-0.8203044108669133,0.09532196898690871,-0.4532162838493555,0.393613849301425,0.1581195817106386,0.14824908209670123,-0.14910201975495108,0.8780805213033053,0.7554459513530396,-0.28255045960795155,-1.6691010322236175,0.14140864211320875,2.4034451173676383,1.0273484225190348,0.878092876070424,0.7554597494309409,-0.2825552651693207,-1.6690993614607135,0.1414185955172306,2.4034451173676383,1.0273381002308042,0.0001446567847413118,0.0005329536993793039,-6.836329796606708e-06,-0.00028125177415008675,0.00023986623575501483,-0.00032750737150003163,0.0019336554686758785,0.0,0.0,0.0,0.0,0.0,0.0,0.0,1.2354767118694099e-05,1.3798077901250316e-05,-4.805561369169986e-06,1.6707629040269012e-06,9.953404021850742e-06,0.0,-1.0322288230613097e-05,-0.0001446567847413118,-0.0005329536993793039,6.836329796606708e-06,0.00028125177415008675,-0.00023986623575501483,0.00032750737150003163,-0.0019336554686758785,0.8354122042655945,46.25045394897461,5.635891437530518,-19.610628128051758,-0.7372947335243225,-2.4237093925476074,0.20083944499492645,0
24,0.11499500274658203,-0.8076412081718445,-46.25045394897461,-5.612087726593018,19.559053421020508,0.7427878975868225,2.4108920097351074,-0.13858358561992645,0.0,0.0,0.0,0.0,0.0,0.0,0.0,-0.812053174525155,0.11181197041859668,-0.44419484892406996,0.3872802317162736,0.15784831264288154,0.14709915762457587,-0.14941376560371372,0.8780785724614795,0.7554459513530396,-0.2825521311326236,-1.6690974129459313,0.14140767634135704,2.4034465415212845,1.0273415052013264,0.878092876070424,0.7554597494309409,-0.2825552651693207,-1.6690993614607135,0.1414185955172306,2.4034451173676383,1.0273381002308042,-0.00016742184212775057,0.0011256694992570094,-0.0003229034209349165,0.000984613694940879,0.00015456867687868724,0.00017835005857477136,2.1831894914311948e-05,0.0,0.0,0.0,0.0,0.0,0.0,0.0,1.4303608944499224e-05,1.3798077901250316e-05,-3.1340366971055467e-06,-1.9485147821907134e-06,1.0919175873563836e-05,-1.4241536461234716e-06,-3.404970522202788e-06,0.00016742184212775057,-0.0011256694992570094,0.0003229034209349165,-0.000984613694940879,-0.00015456867687868724,-0.00017835005857477136,-2.1831894914311948e-05,0.8076412081718445,46.25045394897461,5.612087726593018,-19.559053421020508,-0.7427878975868225,-2.4108920097351074,0.13858358561992645,0
25,0.12000465393066406,-0.8076412081718445,-46.25045394897461,-5.612087726593018,19.559053421020508,0.7427878975868225,2.4108920097351074,-0.13858358561992645,0.0,0.0,0.0,0.0,0.0,0.0,0.0,-0.812053174525155,0.11181197041859668,-0.44419484892406996,0.3872802317162736,0.15784831264288154,0.14709915762457587,-0.14941376560371372,0.8780785724614795,0.7554459513530396,-0.2825521311326236,-1.6690974129459313,0.14140767634135704,2.4034465415212845,1.0273415052013264,0.878092876070424,0.7554597494309409,-0.2825552651693207,-1.6690993614607135,0.1414185955172306,2.4034451173676383,1.0273381002308042,-0.00016742184212775057,0.0011256694992570094,-0.0003229034209349165,0.000984613694940879,0.00015456867687868724,0.00017835005857477136,2.1831894914311948e-05,0.0,0.0,0.0,0.0,0.0,0.0,0.0,1.4303608944499224e-05,1.3798077901250316e-05,-3.1340366971055467e-06,-1.9485147821907134e-06,1.0919175873563836e-05,-1.4241536461234716e-06,-3.404970522202788e-06,0.00016742184212775057,-0.0011256694992570094,0.0003229034209349165,-0.000984613694940879,-0.00015456867687868724,-0.00017835005857477136,-2.1831894914311948e-05,0.8076412081718445,46.25045394897461,5.612087726593018,-19.559053421020508,-0.7427878975868225,-2.4108920097351074,0.13858358561992645,0
26,0.1249997615814209,-0.8592159152030945,-46.22665023803711,-5.564480304718018,19.610628128051758,0.7372947335243225,2.4108920097351074,-0.17337362468242645,0.0,0.0,0.0,0.0,0.0,0.0,0.0,-0.8246502974021188,0.09739389997409949,-0.4547294115223312,0.3938011967723712,0.15883251323314648,0.14852961488280433,-0.14847336321104423,0.8780821917391659,0.7554442818983308,-0.2825554797445076,-1.6691010057326643,0.1414086421071897,2.4034465415212845,1.0273453707612223,0.878092876070424,0.7554597494309409,-0.2825552651693207,-1.6690993614607135,0.1414185955172306,2.4034451173676383,1.0273381002308042,0.000851970701549735,0.00013595826428055235,-0.001809375591868693,-0.0005014999754637884,0.00026301108183361823,0.00027544726423061325,0.0012658536551254027,0.0,0.0,0.0,0.0,0.0,0.0,0.0,1.0684331258059565e-05,1.54675326100584e-05,2.145751868964929e-07,1.6442719508180659e-06,9.953410040897115e-06,-1.4241536461234716e-06,-7.270530418157506e-06,-0.000851970701549735,-0.00013595826428055235,0.001809375591868693,0.0005014999754637884,-0.00026301108183361823,-0.00027544726423061325,-0.0012658536551254027,0.8592159152030945,46.22665023803711,5.564480304718018,-19.610628128051758,-0.7372947335243225,-2.4108920097351074,0.17337362468242645,0
27,0.13000178337097168,-0.8592159152030945,-46.22665023803711,-5.564480304718018,19.610628128051758,0.7372947335243225,2.4108920097351074,-0.17337362468242645,0.0,0.0,0.0,0.0,0.0,0.0,0.0,-0.8246502974021188,0.09739389997409949,-0.4547294115223312,0.3938011967723712,0.15883251323314648,0.14852961488280433,-0.14847336321104423,0.8780821917391659,0.7554442818983308,-0.2825554797445076,-1.6691010057326643,0.1414086421071897,2.4034465415212845,1.0273453707612223,0.878092876070424,0.7554597494309409,-0.2825552651693207,-1.6690993614607135,0.1414185955172306,2.4034451173676383,1.0273381002308042,0.000851970701549735,0.00013595826428055235,-0.001809375591868693,-0.0005014999754637884,0.00026301108183361823,0.00027544726423061325,0.0012658536551254027,0.0,0.0,0.0,0.0,0.0,0.0,0.0,1.0684331258059565e-05,1.54675326100584e-05,2.145751868964929e-07,1.6442719508180659e-06,9.953410040897115e-06,-1.4241536461234716e-06,-7.270530418157506e-06,-0.000851970701549735,-0.00013595826428055235,0.001809375591868693,0.0005014999754637884,-0.00026301108183361823,-0.00027544726423061325,-0.0012658536551254027,0.8592159152030945,46.22665023803711,5.564480304718018,-19.610628128051758,-0.7372947335243225,-2.4108920097351074,0.17337362468242645,0
28,0.13499975204467773,-0.7560665011405945,-46.22665023803711,-5.635891437530518,19.586824417114258,0.7427878975868225,2.4173007011413574,-0.15964071452617645,0.0,0.0,0.0,0.0,0.0,0.0,0.0,-0.8123043863784272,0.10550472044919193,-0.445095439975881,0.38839684487689374,0.15814694806107485,0.14857028834563682,-0.14765231040846402,0.878074953183793,0.7554445193357654,-0.28255048609757555,-1.6690993617755996,0.14140803176164624,2.4034458294444616,1.027343844882316,0.878092876070424,0.7554597494309409,-0.2825552651693207,-1.6690993614607135,0.1414185955172306,2.4034451173676383,1.0273381002308042,-0.0013043489927391974,0.00016507365769962378,0.0003863246929166876,-0.00014086299148375887,0.005108972189489749,-3.0479434708499616e-05,0.00055684808879751,0.0,0.0,0.0,0.0,0.0,0.0,0.0,1.7922886630938883e-05,1.5230095175455816e-05,-4.779071745175667e-06,3.148861171808903e-10,1.0563755584364065e-05,-7.120768232837804e-07,-5.744651511818688e-06,0.0013043489927391974,-0.00016507365769962378,-0.0003863246929166876,0.00014086299148375887,-0.005108972189489749,3.0479434708499616e-05,-0.00055684808879751,0.7560665011405945,46.22665023803711,5.635891437530518,-19.586824417114258,-0.7427878975868225,-2.4173007011413574,0.15964071452617645,0
29,0.1400010585784912,-0.7560665011405945,-46.22665023803711,-5.635891437530518,19.586824417114258,0.7427878975868225,2.4173007011413574,-0.15964071452617645,0.0,0.0,0.0,0.0,0.0,0.0,0.0,-0.8123043863784272,0.10550472044919193,-0.445095439975881,0.38839684487689374,0.15814694806107485,0.14857028834563682,-0.14765231040846402,0.878074953183793,0.7554445193357654,-0.28255048609757555,-1.6690993617755996,0.14140803176164624,2.4034458294444616,1.027343844882316,0.878092876070424,0.7554597494309409,-0.2825552651693207,-1.6690993614607135,0.1414185955172306,2.4034451173676383,1.0273381002308042,-0.0013043489927391974,0.00016507365769962378,0.0003863246929166876,-0.00014086299148375887,0.005108972189489749,-3.0479434708499616e-05,0.00055684808879751,0.0,0.0,0.0,0.0,0.0,0.0,0.0,1.7922886630938883e-05,1.5230095175455816e-05,-4.779071745175667e-06,3.148861171808903e-10,1.0563755584364065e-05,-7.120768232837804e-07,-5.744651511818688e-06,0.0013043489927391974,-0.00016507365769962378,-0.0003863246929166876,0.00014086299148375887,-0.005108972189489749,3.0479434708499616e-05,-0.00055684808879751,0.7560665011405945,46.22665023803711,5.635891437530518,-19.586824417114258,-0.7427878975868225,-2.4173007011413574,0.15964071452617645,0
30,0.1449415683746338,-0.8354122042655945,-46.20284652709961,-5.612087726593018,19.535249710083008,0.7372947335243225,2.4173007011413574,-0.12485067546367645,0.0,0.0,0.0,0.0,0.0,0.0,0.0,-0.8171531566266492,0.10058509422402921,-0.45024840359312934,0.3891545951229271,0.15721822555740228,0.14906986535753672,-0.14675768017380228,0.8780805213033106,0.755442610482675,-0.2825521300426105,-1.669093596742864,0.14140864211320875,2.4034458294444616,1.0273399793224203,0.878092876070424,0.7554597494309409,-0.2825552651693207,-1.6690993614607135,0.1414185955172306,2.4034451173676383,1.0273381002308042,0.0008148357111687569,-0.000737078263059753,-0.0001655598792819332,0.0015742514268211854,0.00047749830747811326,-9.65597416945842e-05,-0.0010661706596109502,0.0,0.0,0.0,0.0,0.0,0.0,0.0,1.2354767113365028e-05,1.7138948265826848e-05,-3.135126710240854e-06,-5.7647178495212614e-06,9.953404021850742e-06,-7.120768232837804e-07,-1.879091616086015e-06,-0.0008148357111687569,0.000737078263059753,0.0001655598792819332,-0.0015742514268211854,-0.00047749830747811326,9.65597416945842e-05,0.0010661706596109502,0.8354122042655945,46.20284652709961,5.612087726593018,-19.535249710083008,-0.7372947335243225,-2.4173007011413574,0.12485067546367645,0
31,0.14994001388549805,-0.8354122042655945,-46.20284652709961,-5.612087726593018,19.535249710083008,0.7372947335243225,2.4173007011413574,-0.12485067546367645,0.0,0.0,0.0,0.0,0.0,0.0,0.0,-0.8171531566266492,0.10058509422402921,-0.45024840359312934,0.3891545951229271,0.15721822555740228,0.14906986535753672,-0.14675768017380228,0.8780805213033106,0.755442610482675,-0.2825521300426105,-1.669093596742864,0.14140864211320875,2.4034458294444616,1.0273399793224203,0.878092876070424,0.7554597494309409,-0.2825552651693207,-1.6690993614607135,0.1414185955172306,2.4034451173676383,1.0273381002308042,0.0008148357111687569,-0.000737078263059753,-0.0001655598792819332,0.0015742514268211854,0.00047749830747811326,-9.65597416945842e-05,-0.0010661706596109502,0.0,0.0,0.0,0.0,0.0,0.0,0.0,1.2354767113365028e-05,1.7138948265826848e-05,-3.135126710240854e-06,-5.7647178495212614e-06,9.953404021850742e-06,-7.120768232837804e-07,-1.879091616086015e-06,-0.0008148357111687569,0.000737078263059753,0.0001655598792819332,-0.0015742514268211854,-0.00047749830747811326,9.65597416945842e-05,0.0010661706596109502,0.8354122042655945,46.20284652709961,5.612087726593018,-19.535249710083008,-0.7372947335243225,-2.4173007011413574,0.12485067546367645,0
32,0.15502548217773438,-0.8354122042655945,-46.27822494506836,-5.663662433624268,19.586824417114258,0.7427878975868225,2.4173007011413574,-0.15231649577617645,0.0,0.0,0.0,0.0,0.0,0.0,0.0,-0.8244879525275856,0.10913844937081303,-0.45646633245935053,0.38312031113390105,0.15680681063660679,0.1480785791664848,-0.14672485733756938,0.8780805209823183,0.7554479001948708,-0.2825485107647745,-1.6690993617756493,0.14140803176164624,2.4034458294444616,1.0273430310802327,0.878092876070424,0.7554597494309409,-0.2825552651693207,-1.6690993614607135,0.1414185955172306,2.4034451173676383,1.0273381002308042,0.00040686475512459675,0.001826410170348323,0.0005810667868436718,0.00016968114228877105,-0.00013335427652333296,-9.430892656093814e-05,0.00023258305548206503,0.0,0.0,0.0,0.0,0.0,0.0,0.0,1.2355088105708845e-05,1.1849236070005098e-05,-6.754404546227555e-06,3.1493585517239353e-10,1.0563755584364065e-05,-7.120768232837804e-07,-4.930849428541606e-06,-0.00040686475512459675,-0.001826410170348323,-0.0005810667868436718,-0.00016968114228877105,0.00013335427652333296,9.430892656093814e-05,-0.00023258305548206503,0.8354122042655945,46.27822494506836,5.663662433624268,-19.586824417114258,-0.7427878975868225,-2.4173007011413574,0.15231649577617645,0
33,0.16000056266784668,-0.8354122042655945,-46.27822494506836,-5.663662433624268,19.586824417114258,0.7427878975868225,2.4173007011413574,-0.15231649577617645,0.0,0.0,0.0,0.0,0.0,0.0,0.0,-0.8244879525275856,0.10913844937081303,-0.45646633245935053,0.38312031113390105,0.15680681063660679,0.1480785791664848,-0.14672485733756938,0.8780805209823183,0.7554479001948708,-0.2825485107647745,-1.6690993617756493,0.14140803176164624,2.4034458294444616,1.0273430310802327,0.878092876070424,0.7554597494309409,-0.2825552651693207,-1.6690993614607135,0.1414185955172306,2.4034451173676383,1.0273381002308042,0.00040686475512459675,0.001826410170348323,0.0005810667868436718,0.00016968114228877105,-0.00013335427652333296,-9.430892656093814e-05,0.00023258305548206503,0.0,0.0,0.0,0.0,0.0,0.0,0.0,1.2355088105708845e-05,1.1849236070005098e-05,-6.754404546227555e-06,3.1493585517239353e-10,1.0563755584364065e-05,-7.120768232837804e-07,-4.930849428541606e-06,-0.00040686475512459675,-0.001826410170348323,-0.0005810667868436718,-0.00016968114228877105,0.00013335427652333296,9.430892656093814e-05,-0.00023258305548206503,0.8354122042655945,46.27822494506836,5.663662433624268,-19.586824417114258,-0.7427878975868225,-2.4173007011413574,0.15231649577617645,0
34,0.16499066352844238,-0.8354122042655945,-46.20284652709961,-5.564480304718018,19.610628128051758,0.7491965889930725,2.4108920097351074,-0.15231649577617645,0.0,0.0,0.0,0.0,0.0,0.0,0.0,-0.8080576042854489,0.10105396888656373,-0.4468307712713301,0.3883238160006148,0.156278682391964,0.14846832015104902,-0.14690142011793775,0.8780805213033053,0.7554426104813291,-0.28255547124122027,-1.6691010317875523,0.1414073196848233,2.4034465415212845,1.0273430310802327,0.878092876070424,0.7554597494309409,-0.2825552651693207,-1.6690993614607135,0.1414185955172306,2.4034451173676383,1.0273381002308042,0.0003613656757009751,-0.0006195772429935855,-0.0012027944805293308,-0.00031361113195297176,-0.00022299398384208665,-0.00011809003064750721,0.00030539501141903144,0.0,0.0,0.0,0.0,0.0,0.0,0.0,1.2354767118694099e-05,1.713894961175022e-05,2.060718995444688e-07,1.6703268388429393e-06,1.1275832407287023e-05,-1.4241536461234716e-06,-4.930849428541606e-06,-0.0003613656757009751,0.0006195772429935855,0.0012027944805293308,0.00031361113195297176,0.00022299398384208665,0.00011809003064750721,-0.00030539501141903144,0.8354122042655945,46.20284652709961,5.564480304718018,-19.610628128051758,-0.7491965889930725,-2.4108920097351074,0.15231649577617645,0
35,0.17008161544799805,-0.8354122042655945,-46.20284652709961,-5.564480304718018,19.610628128051758,0.7491965889930725,2.4108920097351074,-0.15231649577617645,0.0,0.0,0.0,0.0,0.0,0.0,0.0,-0.8080576042854489,0.10105396888656373,-0.4468307712713301,0.3883238160006148,0.156278682391964,0.14846832015104902,-0.14690142011793775,0.8780805213033053,0.7554426104813291,-0.28255547124122027,-1.6691010317875523,0.1414073196848233,2.4034465415212845,1.0273430310802327,0.878092876070424,0.7554597494309409,-0.2825552651693207,-1.6690993614607135,0.1414185955172306,2.4034451173676383,1.0273381002308042,0.0003613656757009751,-0.0006195772429935855,-0.0012027944805293308,-0.00031361113195297176,-0.00022299398384208665,-0.00011809003064750721,0.00030539501141903144,0.0,0.0,0.0,0.0,0.0,0.0,0.0,1.2354767118694099e-05,1.713894961175022e-05,2.060718995444688e-07,1.6703268388429393e-06,1.1275832407287023e-05,-1.4241536461234716e-06,-4.930849428541606e-06,-0.0003613656757009751,0.0006195772429935855,0.0012027944805293308,0.00031361113195297176,0.00022299398384208665,0.00011809003064750721,-0.00030539501141903144,0.8354122042655945,46.20284652709961,5.564480304718018,-19.610628128051758,-0.7491965889930725,-2.4108920097351074,0.15231649577617645,0
36,0.17499971389770508,-0.8076412081718445,-46.25045394897461,-5.536709308624268,19.586824417114258,0.7546897530555725,2.4108920097351074,-0.17337362468242645,0.0,0.0,0.0,0.0,0.0,0.0,0.0,-0.8173305685790766,0.10973070844892993,-0.4485855026505591,0.3829591638787399,0.15693178966104634,0.1471535185312442,-0.146391815501308,0.8780785724614795,0.7554459513530396,-0.2825574286953372,-1.6690993617877614,0.14140670933326083,2.4034465415212845,1.0273453707612223,0.878092876070424,0.7554597494309409,-0.2825552651693207,-1.6690993614607135,0.1414185955172306,2.4034451173676383,1.0273381002308042,-0.00044477736798115676,0.001057736710330722,-0.0015079088181490796,-0.00016231898559845157,-0.00033090135967831966,0.00026442049435195045,0.0010939730347352009,0.0,0.0,0.0,0.0,0.0,0.0,0.0,1.4303608944499224e-05,1.3798077901250316e-05,2.1635260164520886e-06,3.2704794428184414e-10,1.188618396977259e-05,-1.4241536461234716e-06,-7.270530418157506e-06,0.00044477736798115676,-0.001057736710330722,0.0015079088181490796,0.00016231898559845157,0.00033090135967831966,-0.00026442049435195045,-0.0010939730347352009,0.8076412081718445,46.25045394897461,5.536709308624268,-19.586824417114258,-0.7546897530555725,-2.4108920097351074,0.17337362468242645,0
37,0.1799941062927246,-0.8076412081718445,-46.25045394897461,-5.536709308624268,19.586824417114258,0.7546897530555725,2.4108920097351074,-0.17337362468242645,0.0,0.0,0.0,0.0,0.0,0.0,0.0,-0.8173305685790766,0.10973070844892993,-0.4485855026505591,0.3829591638787399,0.15693178966104634,0.1471535185312442,-0.146391815501308,0.8780785724614795,0.7554459513530396,-0.2825574286953372,-1.6690993617877614,0.14140670933326083,2.4034465415212845,1.0273453707612223,0.878092876070424,0.7554597494309409,-0.2825552651693207,-1.6690993614607135,0.1414185955172306,2.4034451173676383,1.0273381002308042,-0.00044477736798115676,0.001057736710330722,-0.0015079088181490796,-0.00016231898559845157,-0.00033090135967831966,0.00026442049435195045,0.0010939730347352009,0.0,0.0,0.0,0.0,0.0,0.0,0.0,1.4303608944499224e-05,1.3798077901250316e-05,2.1635260164520886e-06,3.2704794428184414e-10,1.188618396977259e-05,-1.4241536461234716e-06,-7.270530418157506e-06,0.00044477736798115676,-0.001057736710330722,0.0015079088181490796,0.00016231898559845157,0.00033090135967831966,-0.00026442049435195045,-0.0010939730347352009,0.8076412081718445,46.25045394897461,5.536709308624268,-19.586824417114258,-0.7546897530555725,-2.4108920097351074,0.17337362468242645,0
38,0.18499231338500977,-0.8076412081718445,-46.17904281616211,-5.612087726593018,19.610628128051758,0.7427878975868225,2.4173007011413574,-0.12485067546367645,0.0,0.0,0.0,0.0,0.0,0.0,0.0,-0.8240245886677919,0.10371316210158604,-0.4512595976271812,0.3869661519681639,0.15803605125695727,0.1479395068132267,-0.1464919320733785,0.8780785724614795,0.7554409400454739,-0.2825521301515277,-1.6691010322236175,0.14140803176164624,2.4034458294444616,1.0273399793224203,0.878092876070424,0.7554597494309409,-0.2825552651693207,-1.6690993614607135,0.1414185955172306,2.4034451173676383,1.0273381002308042,-0.00025617846979311633,-0.0008427398338229983,-0.00014817833327544219,-0.0004095773223405618,-5.6285501073017714e-05,-3.266008851491238e-06,-0.0007793495192838188,0.0,0.0,0.0,0.0,0.0,0.0,0.0,1.4303608944499224e-05,1.880938546694466e-05,-3.1350177930322687e-06,1.6707629040269012e-06,1.0563755584364065e-05,-7.120768232837804e-07,-1.879091616086015e-06,0.00025617846979311633,0.0008427398338229983,0.00014817833327544219,0.0004095773223405618,5.6285501073017714e-05,3.266008851491238e-06,0.0007793495192838188,0.8076412081718445,46.17904281616211,5.612087726593018,-19.610628128051758,-0.7427878975868225,-2.4173007011413574,0.12485067546367645,0
39,0.19000768661499023,-0.8076412081718445,-46.17904281616211,-5.612087726593018,19.610628128051758,0.7427878975868225,2.4173007011413574,-0.12485067546367645,0.0,0.0,0.0,0.0,0.0,0.0,0.0,-0.8240245886677919,0.10371316210158604,-0.4512595976271812,0.3869661519681639,0.15803605125695727,0.1479395068132267,-0.1464919320733785,0.8780785724614795,0.7554409400454739,-0.2825521301515277,-1.6691010322236175,0.14140803176164624,2.4034458294444616,1.0273399793224203,0.878092876070424,0.7554597494309409,-0.2825552651693207,-1.6690993614607135,0.1414185955172306,2.4034451173676383,1.0273381002308042,-0.00025617846979311633,-0.0008427398338229983,-0.00014817833327544219,-0.0004095773223405618,-5.6285501073017714e-05,-3.266008851491238e-06,-0.0007793495192838188,0.0,0.0,0.0,0.0,0.0,0.0,0.0,1.4303608944499224e-05,1.880938546694466e-05,-3.1350177930322687e-06,1.6707629040269012e-06,1.0563755584364065e-05,-7.120768232837804e-07,-1.879091616086015e-06,0.00025617846979311633,0.0008427398338229983,0.00014817833327544219,0.0004095773223405618,5.6285501073017714e-05,3.266008851491238e-06,0.0007793495192838188,0.8076412081718445,46.17904281616211,5.612087726593018,-19.610628128051758,-0.7427878975868225,-2.4173007011413574,0.12485067546367645,0
40,0.19499468803405762,-0.8076412081718445,-46.20284652709961,-5.635891437530518,19.610628128051758,0.7372947335243225,2.4173007011413574,-0.15231649577617645,0.0,0.0,0.0,0.0,0.0,0.0,0.0,-0.814458417342741,0.09892331923441096,-0.4438011271899332,0.3906793053392981,0.15774603578712126,0.1483734977576657,-0.14578521037217074,0.8780785724614795,0.7554426193116468,-0.2825504596066063,-1.6691010322236175,0.14140862911150465,2.4034458294444616,1.0273430325701218,0.878092876070424,0.7554597494309409,-0.2825552651693207,-1.6690993614607135,0.1414185955172306,2.4034451173676383,1.0273381002308042,0.00018000828135637787,-0.000546035945153184,0.00026999311028131734,-0.00037269929663066495,0.00029463433974059834,-0.0001534895962165411,0.0005184525152096874,0.0,0.0,0.0,0.0,0.0,0.0,0.0,1.4303608944499224e-05,1.713011929405095e-05,-4.805562714427225e-06,1.6707629040269012e-06,9.966405725952976e-06,-7.120768232837804e-07,-4.932339317642587e-06,-0.00018000828135637787,0.000546035945153184,-0.00026999311028131734,0.00037269929663066495,-0.00029463433974059834,0.0001534895962165411,-0.0005184525152096874,0.8076412081718445,46.20284652709961,5.635891437530518,-19.610628128051758,-0.7372947335243225,-2.4173007011413574,0.15231649577617645,0
41,0.19998812675476074,-0.8076412081718445,-46.20284652709961,-5.635891437530518,19.610628128051758,0.7372947335243225,2.4173007011413574,-0.15231649577617645,0.0,0.0,0.0,0.0,0.0,0.0,0.0,-0.814458417342741,0.09892331923441096,-0.4438011271899332,0.3906793053392981,0.15774603578712126,0.1483734977576657,-0.14578521037217074,0.8780785724614795,0.7554426193116468,-0.2825504596066063,-1.6691010322236175,0.14140862911150465,2.4034458294444616,1.0273430325701218,0.878092876070424,0.7554597494309409,-0.2825552651693207,-1.6690993614607135,0.1414185955172306,2.4034451173676383,1.0273381002308042,0.00018000828135637787,-0.000546035945153184,0.00026999311028131734,-0.00037269929663066495,0.00029463433974059834,-0.0001534895962165411,0.0005184525152096874,0.0,0.0,0.0,0.0,0.0,0.0,0.0,1.4303608944499224e-05,1.713011929405095e-05,-4.805562714427225e-06,1.6707629040269012e-06,9.966405725952976e-06,-7.120768232837804e-07,-4.932339317642587e-06,-0.00018000828135637787,0.000546035945153184,-0.00026999311028131734,0.00037269929663066495,-0.00029463433974059834,0.0001534895962165411,-0.0005184525152096874,0.8076412081718445,46.20284652709961,5.635891437530518,-19.610628128051758,-0.7372947335243225,-2.4173007011413574,0.15231649577617645,0
42,0.20499014854431152,-0.8076412081718445,-46.22665023803711,-5.635891437530518,19.586824417114258,0.7372947335243225,2.4108920097351074,-0.11111776530742645,0.0,0.0,0.0,0.0,0.0,0.0,0.0,-0.8352481620196816,0.10762980343664477,-0.4589355270085538,0.38710702792650514,0.1579981467739961,0.1477295847178711,-0.1452228428945602,0.8780785724614795,0.7554442809172343,-0.28255045964294445,-1.6690993614607135,0.14140864211313536,2.4034465415751196,1.0273384534435224,0.878092876070424,0.7554597494309409,-0.2825552651693207,-1.6690993614607135,0.1414185955172306,2.4034451173676383,1.0273381002308042,-0.001084954328183713,0.00011531101314450989,-0.00027859753377708964,0.00030062753830434834,0.00012814198890011766,0.00012187532646157206,-0.0010074739347985392,0.0,0.0,0.0,0.0,0.0,0.0,0.0,1.4303608944499224e-05,1.5468513706595743e-05,-4.8055263762725176e-06,0.0,9.953404095236484e-06,-1.424207481282025e-06,-3.532127181848921e-07,0.001084954328183713,-0.00011531101314450989,0.00027859753377708964,-0.00030062753830434834,-0.00012814198890011766,-0.00012187532646157206,0.0010074739347985392,0.8076412081718445,46.22665023803711,5.635891437530518,-19.586824417114258,-0.7372947335243225,-2.4108920097351074,0.11111776530742645,0
43,0.21001744270324707,-0.8076412081718445,-46.22665023803711,-5.635891437530518,19.586824417114258,0.7372947335243225,2.4108920097351074,-0.11111776530742645,0.0,0.0,0.0,0.0,0.0,0.0,0.0,-0.8352481620196816,0.10762980343664477,-0.4589355270085538,0.38710702792650514,0.1579981467739961,0.1477295847178711,-0.1452228428945602,0.8780785724614795,0.7554442809172343,-0.28255045964294445,-1.6690993614607135,0.14140864211313536,2.4034465415751196,1.0273384534435224,0.878092876070424,0.7554597494309409,-0.2825552651693207,-1.6690993614607135,0.1414185955172306,2.4034451173676383,1.0273381002308042,-0.001084954328183713,0.00011531101314450989,-0.00027859753377708964,0.00030062753830434834,0.00012814198890011766,0.00012187532646157206,-0.0010074739347985392,0.0,0.0,0.0,0.0,0.0,0.0,0.0,1.4303608944499224e-05,1.5468513706595743e-05,-4.8055263762725176e-06,0.0,9.953404095236484e-06,-1.424207481282025e-06,-3.532127181848921e-07,0.001084954328183713,-0.00011531101314450989,0.00027859753377708964,-0.00030062753830434834,-0.00012814198890011766,-0.00012187532646157206,0.0010074739347985392,0.8076412081718445,46.22665023803711,5.635891437530518,-19.586824417114258,-0.7372947335243225,-2.4108920097351074,0.11111776530742645,0
44,0.21498727798461914,-0.8076412081718445,-46.22665023803711,-5.612087726593018,19.634431838989258,0.7427878975868225,2.4237093925476074,-0.13858358561992645,0.0,0.0,0.0,0.0,0.0,0.0,0.0,-0.8017780720920844,0.1108557353037716,-0.4352051699403354,0.39072867610644696,0.15716429938143003,0.1480559512390338,-0.14398087787606376,0.8780785721404871,0.7554442809171844,-0.28255213004246116,-1.6691005568922592,0.14140803176164624,2.403445470580348,1.0273415052013264,0.878092876070424,0.7554597494309409,-0.2825552651693207,-1.6690993614607135,0.1414185955172306,2.4034451173676383,1.0273381002308042,-7.95817697795491e-05,0.0005333922090257717,-7.810493933158319e-05,-0.0006508516407854209,-3.0129425478709915e-05,-0.00032696788062521544,-0.00030975199062242283,0.0,0.0,0.0,0.0,0.0,0.0,0.0,1.430392993684304e-05,1.5468513756444757e-05,-3.135126859565851e-06,1.1954315457529674e-06,1.0563755584364065e-05,-3.532127097471971e-07,-3.404970522202788e-06,7.95817697795491e-05,-0.0005333922090257717,7.810493933158319e-05,0.0006508516407854209,3.0129425478709915e-05,0.00032696788062521544,0.00030975199062242283,0.8076412081718445,46.22665023803711,5.612087726593018,-19.634431838989258,-0.7427878975868225,-2.4237093925476074,0.13858358561992645,0
45,0.21998929977416992,-0.8076412081718445,-46.22665023803711,-5.612087726593018,19.634431838989258,0.7427878975868225,2.4237093925476074,-0.13858358561992645,0.0,0.0,0.0,0.0,0.0,0.0,0.0,-0.8017780720920844,0.1108557353037716,-0.4352051699403354,0.39072867610644696,0.15716429938143003,0.1480559512390338,-0.14398087787606376,0.8780785721404871,0.7554442809171844,-0.28255213004246116,-1.6691005568922592,0.14140803176164624,2.403445470580348,1.0273415052013264,0.878092876070424,0.7554597494309409,-0.2825552651693207,-1.6690993614607135,0.1414185955172306,2.4034451173676383,1.0273381002308042,-7.95817697795491e-05,0.0005333922090257717,-7.810493933158319e-05,-0.0006508516407854209,-3.0129425478709915e-05,-0.00032696788062521544,-0.00030975199062242283,0.0,0.0,0.0,0.0,0.0,0.0,0.0,1.430392993684304e-05,1.5468513756444757e-05,-3.135126859565851e-06,1.1954315457529674e-06,1.0563755584364065e-05,-3.532127097471971e-07,-3.404970522202788e-06,7.95817697795491e-05,-0.0005333922090257717,7.810493933158319e-05,0.0006508516407854209,3.0129425478709915e-05,0.00032696788062521544,0.00030975199062242283,0.8076412081718445,46.22665023803711,5.612087726593018,-19.634431838989258,-0.7427878975868225,-2.4237093925476074,0.13858358561992645,0
46,0.2249889373779297,-0.8076412081718445,-46.22665023803711,-5.612087726593018,19.634431838989258,0.7427878975868225,2.4237093925476074,-0.13858358561992645,0.0,0.0,0.0,0.0,0.0,0.0,0.0,-0.8017780720920844,0.1108557353037716,-0.4352051699403354,0.39072867610644696,0.15716429938143003,0.1480559512390338,-0.14398087787606376,0.8780785721404871,0.7554442809171844,-0.28255213004246116,-1.6691005568922592,0.14140803176164624,2.403445470580348,1.0273415052013264,0.878092876070424,0.7554597494309409,-0.2825552651693207,-1.6690993614607135,0.1414185955172306,2.4034451173676383,1.0273381002308042,-7.95817697795491e-05,0.0005333922090257717,-7.810493933158319e-05,-0.0006508516407854209,-3.0129425478709915e-05,-0.00032696788062521544,-0.00030975199062242283,0.0,0.0,0.0,0.0,0.0,0.0,0.0,1.430392993684304e-05,1.5468513756444757e-05,-3.135126859565851e-06,1.1954315457529674e-06,1.0563755584364065e-05,-3.532127097471971e-07,-3.404970522202788e-06,7.95817697795491e-05,-0.0005333922090257717,7.810493933158319e-05,0.0006508516407854209,3.0129425478709915e-05,0.00032696788062521544,0.00030975199062242283,0.8076412081718445,46.22665023803711,5.612087726593018,-19.634431838989258,-0.7427878975868225,-2.4237093925476074,0.13858358561992645,0
47,0.23000359535217285,-0.8076412081718445,-46.22665023803711,-5.612087726593018,19.634431838989258,0.7427878975868225,2.4237093925476074,-0.13858358561992645,0.0,0.0,0.0,0.0,0.0,0.0,0.0,-0.8017780720920844,0.1108557353037716,-0.4352051699403354,0.39072867610644696,0.15716429938143003,0.1480559512390338,-0.14398087787606376,0.8780785721404871,0.7554442809171844,-0.28255213004246116,-1.6691005568922592,0.14140803176164624,2.403445470580348,1.0273415052013264,0.878092876070424,0.7554597494309409,-0.2825552651693207,-1.6690993614607135,0.1414185955172306,2.4034451173676383,1.0273381002308042,-7.95817697795491e-05,0.0005333922090257717,-7.810493933158319e-05,-0.0006508516407854209,-3.0129425478709915e-05,-0.00032696788062521544,-0.00030975199062242283,0.0,0.0,0.0,0.0,0.0,0.0,0.0,1.430392993684304e-05,1.5468513756444757e-05,-3.135126859565851e-06,1.1954315457529674e-06,1.0563755584364065e-05,-3.532127097471971e-07,-3.404970522202788e-06,7.95817697795491e-05,-0.0005333922090257717,7.810493933158319e-05,0.0006508516407854209,3.0129425478709915e-05,0.00032696788062521544,0.00030975199062242283,0.8076412081718445,46.22665023803711,5.612087726593018,-19.634431838989258,-0.7427878975868225,-2.4237093925476074,0.13858358561992645,0
48,0.23000359535217285,-0.8076412081718445,-46.22665023803711,-5.612087726593018,19.634431838989258,0.7427878975868225,2.4237093925476074,-0.13858358561992645,0.0,0.0,0.0,0.0,0.0,0.0,0.0,-0.8017780720920844,0.1108557353037716,-0.4352051699403354,0.39072867610644696,0.15716429938143003,0.1480559512390338,-0.14398087787606376,0.8780785721404871,0.7554442809171844,-0.28255213004246116,-1.6691005568922592,0.14140803176164624,2.403445470580348,1.0273415052013264,0.878092876070424,0.7554597494309409,-0.2825552651693207,-1.6690993614607135,0.1414185955172306,2.4034451173676383,1.0273381002308042,-7.95817697795491e-05,0.0005333922090257717,-7.810493933158319e-05,-0.0006508516407854209,-3.0129425478709915e-05,-0.00032696788062521544,-0.00030975199062242283,0.0,0.0,0.0,0.0,0.0,0.0,0.0,1.430392993684304e-05,1.5468513756444757e-05,-3.135126859565851e-06,1.1954315457529674e-06,1.0563755584364065e-05,-3.532127097471971e-07,-3.404970522202788e-06,7.95817697795491e-05,-0.0005333922090257717,7.810493933158319e-05,0.0006508516407854209,3.0129425478709915e-05,0.00032696788062521544,0.00030975199062242283,0.8076412081718445,46.22665023803711,5.612087726593018,-19.634431838989258,-0.7427878975868225,-2.4237093925476074,0.13858358561992645,0
49,0.23999905586242676,-0.8076412081718445,-46.25045394897461,-5.663662433624268,19.610628128051758,0.7427878975868225,2.4173007011413574,-0.17978231608867645,0.0,0.0,0.0,0.0,0.0,0.0,0.0,-0.82030853576284,0.10796388006900677,-0.4497096069786838,0.3912151916615811,0.15753201309689308,0.14829893038830608,-0.1439560679416308,0.8780785724614777,0.7554459513530396,-0.28254859416221983,-1.6691010322115045,0.14140767634135704,2.403445829446455,1.0273460828380452,0.878092876070424,0.7554597494309409,-0.2825552651693207,-1.6690993614607135,0.1414185955172306,2.4034451173676383,1.0273381002308042,-0.0001349469372177656,0.0005957560054328536,0.0008845153177410259,-0.00037445612614527007,-0.003380561076685532,-2.987191923697565e-05,0.0020848294112215484,0.0,0.0,0.0,0.0,0.0,0.0,0.0,1.4303608946275581e-05,1.3798077901250316e-05,-6.6710071008890814e-06,1.6707507910496133e-06,1.0919175873563836e-05,-7.120788168002434e-07,-7.982607240997197e-06,0.0001349469372177656,-0.0005957560054328536,-0.0008845153177410259,0.00037445612614527007,0.003380561076685532,2.987191923697565e-05,-0.0020848294112215484,0.8076412081718445,46.25045394897461,5.663662433624268,-19.610628128051758,-0.7427878975868225,-2.4173007011413574,0.17978231608867645,0
50,0.2449953556060791,-0.8076412081718445,-46.25045394897461,-5.663662433624268,19.610628128051758,0.7427878975868225,2.4173007011413574,-0.17978231608867645,0.0,0.0,0.0,0.0,0.0,0.0,0.0,-0.82030853576284,0.10796388006900677,-0.4497096069786838,0.3912151916615811,0.15753201309689308,0.14829893038830608,-0.1439560679416308,0.8780785724614777,0.7554459513530396,-0.28254859416221983,-1.6691010322115045,0.14140767634135704,2.403445829446455,1.0273460828380452,0.878092876070424,0.7554597494309409,-0.2825552651693207,-1.6690993614607135,0.1414185955172306,2.4034451173676383,1.0273381002308042,-0.0001349469372177656,0.0005957560054328536,0.0008845153177410259,-0.00037445612614527007,-0.003380561076685532,-2.987191923697565e-05,0.0020848294112215484,0.0,0.0,0.0,0.0,0.0,0.0,0.0,1.4303608946275581e-05,1.3798077901250316e-05,-6.6710071008890814e-06,1.6707507910496133e-06,1.0919175873563836e-05,-7.120788168002434e-07,-7.982607240997197e-06,0.0001349469372177656,-0.0005957560054328536,-0.0008845153177410259,0.00037445612614527007,0.003380561076685532,2.987191923697565e-05,-0.0020848294112215484,0.8076412081718445,46.25045394897461,5.663662433624268,-19.610628128051758,-0.7427878975868225,-2.4173007011413574,0.17978231608867645,0
51,0.2499699592590332,-0.8076412081718445,-46.22665023803711,-5.612087726593018,19.610628128051758,0.7372947335243225,2.4173007011413574,-0.14590780436992645,0.0,0.0,0.0,0.0,0.0,0.0,0.0,-0.823874828230108,0.10342740052106698,-0.45204323951872094,0.39446596308913034,0.15809960269631362,0.14913449772351275,-0.14262480417630172,0.8780785724614795,0.7554442809535231,-0.28255213298637094,-1.6691010322236175,0.1414086421112024,2.4034458294444616,1.0273423190034099,0.878092876070424,0.7554597494309409,-0.2825552651693207,-1.6690993614607135,0.1414185955172306,2.4034451173676383,1.0273381002308042,-0.00045156075353415255,0.0001343325356622456,1.8866610363745543e-05,-0.00012766903833080783,2.109353069809186e-05,-3.595180380132412e-05,0.0004951489325356347,0.0,0.0,0.0,0.0,0.0,0.0,0.0,1.4303608944499224e-05,1.5468477417734938e-05,-3.1321829497832354e-06,1.6707629040269012e-06,9.953406028190281e-06,-7.120768232837804e-07,-4.218772605701915e-06,0.00045156075353415255,-0.0001343325356622456,-1.8866610363745543e-05,0.00012766903833080783,-2.109353069809186e-05,3.595180380132412e-05,-0.0004951489325356347,0.8076412081718445,46.22665023803711,5.612087726593018,-19.610628128051758,-0.7372947335243225,-2.4173007011413574,0.14590780436992645,0
52,0.25499510765075684,-0.8076412081718445,-46.22665023803711,-5.612087726593018,19.610628128051758,0.7372947335243225,2.4173007011413574,-0.14590780436992645,0.0,0.0,0.0,0.0,0.0,0.0,0.0,-0.823874828230108,0.10342740052106698,-0.45204323951872094,0.39446596308913034,0.15809960269631362,0.14913449772351275,-0.14262480417630172,0.8780785724614795,0.7554442809535231,-0.28255213298637094,-1.6691010322236175,0.1414086421112024,2.4034458294444616,1.0273423190034099,0.878092876070424,0.7554597494309409,-0.2825552651693207,-1.6690993614607135,0.1414185955172306,2.4034451173676383,1.0273381002308042,-0.00045156075353415255,0.0001343325356622456,1.8866610363745543e-05,-0.00012766903833080783,2.109353069809186e-05,-3.595180380132412e-05,0.0004951489325356347,0.0,0.0,0.0,0.0,0.0,0.0,0.0,1.4303608944499224e-05,1.5468477417734938e-05,-3.1321829497832354e-06,1.6707629040269012e-06,9.953406028190281e-06,-7.120768232837804e-07,-4.218772605701915e-06,0.00045156075353415255,-0.0001343325356622456,-1.8866610363745543e-05,0.00012766903833080783,-2.109353069809186e-05,3.595180380132412e-05,-0.0004951489325356347,0.8076412081718445,46.22665023803711,5.612087726593018,-19.610628128051758,-0.7372947335243225,-2.4173007011413574,0.14590780436992645,0
53,0.2600080966949463,-0.8076412081718445,-46.22665023803711,-5.687466144561768,19.586824417114258,0.7491965889930725,2.4044833183288574,-0.15964071452617645,0.0,0.0,0.0,0.0,0.0,0.0,0.0,-0.813194646447267,0.10238847787622539,-0.4431939798732681,0.3966130490079926,0.15740596286507005,0.1494557039109984,-0.14233582778627746,0.8780785724614795,0.7554442812442338,-0.2825468403289691,-1.6690993617877623,0.14140731968482328,2.4034472535981073,1.027343844882316,0.878092876070424,0.7554597494309409,-0.2825552651693207,-1.6690993614607135,0.1414185955172306,2.4034451173676383,1.0273381002308042,-4.0834561851332206e-05,4.6799804924585064e-05,0.0017522494319553623,0.00036893741343294354,-0.0003179470910605068,0.00035100735714973207,0.0008695362944800051,0.0,0.0,0.0,0.0,0.0,0.0,0.0,1.4303608944499224e-05,1.5468186707057185e-05,-8.424840351628493e-06,3.2704883246026384e-10,1.1275832407314779e-05,-2.136230468963163e-06,-5.744651511818688e-06,4.0834561851332206e-05,-4.6799804924585064e-05,-0.0017522494319553623,-0.00036893741343294354,0.0003179470910605068,-0.00035100735714973207,-0.0008695362944800051,0.8076412081718445,46.22665023803711,5.687466144561768,-19.586824417114258,-0.7491965889930725,-2.4044833183288574,0.15964071452617645,0
54,0.26500868797302246,-0.8076412081718445,-46.22665023803711,-5.687466144561768,19.586824417114258,0.7491965889930725,2.4044833183288574,-0.15964071452617645,0.0,0.0,0.0,0.0,0.0,0.0,0.0,-0.813194646447267,0.10238847787622539,-0.4431939798732681,0.3966130490079926,0.15740596286507005,0.1494557039109984,-0.14233582778627746,0.8780785724614795,0.7554442812442338,-0.2825468403289691,-1.6690993617877623,0.14140731968482328,2.4034472535981073,1.027343844882316,0.878092876070424,0.7554597494309409,-0.2825552651693207,-1.6690993614607135,0.1414185955172306,2.4034451173676383,1.0273381002308042,-4.0834561851332206e-05,4.6799804924585064e-05,0.0017522494319553623,0.00036893741343294354,-0.0003179470910605068,0.00035100735714973207,0.0008695362944800051,0.0,0.0,0.0,0.0,0.0,0.0,0.0,1.4303608944499224e-05,1.5468186707057185e-05,-8.424840351628493e-06,3.2704883246026384e-10,1.1275832407314779e-05,-2.136230468963163e-06,-5.744651511818688e-06,4.0834561851332206e-05,-4.6799804924585064e-05,-0.0017522494319553623,-0.00036893741343294354,0.0003179470910605068,-0.00035100735714973207,-0.0008695362944800051,0.8076412081718445,46.22665023803711,5.687466144561768,-19.586824417114258,-0.7491965889930725,-2.4044833183288574,0.15964071452617645,0
55,0.2699894905090332,-0.8354122042655945,-46.27822494506836,-5.635891437530518,19.634431838989258,0.7427878975868225,2.4108920097351074,-0.15964071452617645,0.0,0.0,0.0,0.0,0.0,0.0,0.0,-0.8269511079320547,0.10851672049979755,-0.4519242723242895,0.3906286714967256,0.15749025847275666,0.14862335940189436,-0.14288875681278068,0.8780804953029306,0.7554486164317552,-0.2825504596066057,-1.669102702659473,0.14140803176164624,2.4034465415212845,1.027343844882316,0.878092876070424,0.7554597494309409,-0.2825552651693207,-1.6690993614607135,0.1414185955172306,2.4034451173676383,1.0273381002308042,0.0004892538013238325,0.001365657497601266,0.00023280030259490212,-0.0011957101730359428,-9.006313829027955e-05,0.0002819200153514217,0.0005091171174554821,0.0,0.0,0.0,0.0,0.0,0.0,0.0,1.2380767493325173e-05,1.1132999185647918e-05,-4.805562715037848e-06,3.3411987594433867e-06,1.0563755584364065e-05,-1.4241536461234716e-06,-5.744651511818688e-06,-0.0004892538013238325,-0.001365657497601266,-0.00023280030259490212,0.0011957101730359428,9.006313829027955e-05,-0.0002819200153514217,-0.0005091171174554821,0.8354122042655945,46.27822494506836,5.635891437530518,-19.634431838989258,-0.7427878975868225,-2.4108920097351074,0.15964071452617645,0
56,0.27499890327453613,-0.8354122042655945,-46.27822494506836,-5.635891437530518,19.634431838989258,0.7427878975868225,2.4108920097351074,-0.15964071452617645,0.0,0.0,0.0,0.0,0.0,0.0,0.0,-0.8269511079320547,0.10851672049979755,-0.4519242723242895,0.3906286714967256,0.15749025847275666,0.14862335940189436,-0.14288875681278068,0.8780804953029306,0.7554486164317552,-0.2825504596066057,-1.669102702659473,0.14140803176164624,2.4034465415212845,1.027343844882316,0.878092876070424,0.7554597494309409,-0.2825552651693207,-1.6690993614607135,0.1414185955172306,2.4034451173676383,1.0273381002308042,0.0004892538013238325,0.001365657497601266,0.00023280030259490212,-0.0011957101730359428,-9.006313829027955e-05,0.0002819200153514217,0.0005091171174554821,0.0,0.0,0.0,0.0,0.0,0.0,0.0,1.2380767493325173e-05,1.1132999185647918e-05,-4.805562715037848e-06,3.3411987594433867e-06,1.0563755584364065e-05,-1.4241536461234716e-06,-5.744651511818688e-06,-0.0004892538013238325,-0.001365657497601266,-0.00023280030259490212,0.0011957101730359428,9.006313829027955e-05,-0.0002819200153514217,-0.0005091171174554821,0.8354122042655945,46.27822494506836,5.635891437530518,-19.634431838989258,-0.7427878975868225,-2.4108920097351074,0.15964071452617645,0
57,0.2799947261810303,-0.8354122042655945,-46.25045394897461,-5.612087726593018,19.610628128051758,0.7427878975868225,2.4173007011413574,-0.15964071452617645,0.0,0.0,0.0,0.0,0.0,0.0,0.0,-0.8044852897121754,0.10557761497168677,-0.4371095973148567,0.3924033847631895,0.1572503438311516,0.14893785115435468,-0.14418794359576445,0.8780805213031638,0.7554459513570828,-0.28255213004246094,-1.6691010322236175,0.14140803176164624,2.403445830898012,1.027343844882316,0.878092876070424,0.7554597494309409,-0.2825552651693207,-1.6690993614607135,0.1414185955172306,2.4034451173676383,1.0273381002308042,0.0011496672535440346,0.0005162801335669615,-0.00021154102059876443,-0.000856094941942374,5.785297907532494e-05,4.189256683145522e-05,0.000880051174658775,0.0,0.0,0.0,0.0,0.0,0.0,0.0,1.2354767260136512e-05,1.3798073858040105e-05,-3.1351268597878956e-06,1.6707629040269012e-06,1.0563755584364065e-05,-7.135303734528975e-07,-5.744651511818688e-06,-0.0011496672535440346,-0.0005162801335669615,0.00021154102059876443,0.000856094941942374,-5.785297907532494e-05,-4.189256683145522e-05,-0.000880051174658775,0.8354122042655945,46.25045394897461,5.612087726593018,-19.610628128051758,-0.7427878975868225,-2.4173007011413574,0.15964071452617645,0
58,0.2850041389465332,-0.8354122042655945,-46.25045394897461,-5.612087726593018,19.610628128051758,0.7427878975868225,2.4173007011413574,-0.15964071452617645,0.0,0.0,0.0,0.0,0.0,0.0,0.0,-0.8044852897121754,0.10557761497168677,-0.4371095973148567,0.3924033847631895,0.1572503438311516,0.14893785115435468,-0.14418794359576445,0.8780805213031638,0.7554459513570828,-0.28255213004246094,-1.6691010322236175,0.14140803176164624,2.403445830898012,1.027343844882316,0.878092876070424,0.7554597494309409,-0.2825552651693207,-1.6690993614607135,0.1414185955172306,2.4034451173676383,1.0273381002308042,0.0011496672535440346,0.0005162801335669615,-0.00021154102059876443,-0.000856094941942374,5.785297907532494e-05,4.189256683145522e-05,0.000880051174658775,0.0,0.0,0.0,0.0,0.0,0.0,0.0,1.2354767260136512e-05,1.3798073858040105e-05,-3.1351268597878956e-06,1.6707629040269012e-06,1.0563755584364065e-05,-7.135303734528975e-07,-5.744651511818688e-06,-0.0011496672535440346,-0.0005162801335669615,0.00021154102059876443,0.000856094941942374,-5.785297907532494e-05,-4.189256683145522e-05,-0.000880051174658775,0.8354122042655945,46.25045394897461,5.612087726593018,-19.610628128051758,-0.7427878975868225,-2.4173007011413574,0.15964071452617645,0
59,0.29029154777526855,-0.7838374972343445,-46.17904281616211,-5.612087726593018,19.586824417114258,0.7308860421180725,2.4173007011413574,-0.12485067546367645,0.0,0.0,0.0,0.0,0.0,0.0,0.0,-0.8220919819068844,0.10003054996407013,-0.4529200075609644,0.39137524082427305,0.15830972073715774,0.1493542324803723,-0.14425512598081455,0.8780769020256242,0.755441178464053,-0.28255213004246094,-1.6690993617514236,0.14140935419003167,2.403449009812408,1.0273399793224203,0.878092876070424,0.7554597494309409,-0.2825552651693207,-1.6690993614607135,0.1414185955172306,2.4034451173676383,1.0273381002308042,-0.0008320776298163893,-0.0014306115798079061,-0.0001458518885277672,3.757786063664794e-05,0.0005514855369937396,-9.243091773977505e-05,-0.0011545798564526499,0.0,0.0,0.0,0.0,0.0,0.0,0.0,1.5974044799804688e-05,1.85709668878431e-05,-3.1351268597878956e-06,2.9071012264125784e-10,9.241327198927785e-06,-3.892444769615366e-06,-1.879091616086015e-06,0.0008320776298163893,0.0014306115798079061,0.0001458518885277672,-3.757786063664794e-05,-0.0005514855369937396,9.243091773977505e-05,0.0011545798564526499,0.7838374972343445,46.17904281616211,5.612087726593018,-19.586824417114258,-0.7308860421180725,-2.4173007011413574,0.12485067546367645,0
60,0.2950127124786377,-0.7838374972343445,-46.17904281616211,-5.612087726593018,19.586824417114258,0.7308860421180725,2.4173007011413574,-0.12485067546367645,0.0,0.0,0.0,0.0,0.0,0.0,0.0,-0.8220919819068844,0.10003054996407013,-0.4529200075609644,0.39137524082427305,0.15830972073715774,0.1493542324803723,-0.14425512598081455,0.8780769020256242,0.755441178464053,-0.28255213004246094,-1.6690993617514236,0.14140935419003167,2.403449009812408,1.0273399793224203,0.878092876070424,0.7554597494309409,-0.2825552651693207,-1.6690993614607135,0.1414185955172306,2.4034451173676383,1.0273381002308042,-0.0008320776298163893,-0.0014306115798079061,-0.0001458518885277672,3.757786063664794e-05,0.0005514855369937396,-9.243091773977505e-05,-0.0011545798564526499,0.0,0.0,0.0,0.0,0.0,0.0,0.0,1.5974044799804688e-05,1.85709668878431e-05,-3.1351268597878956e-06,2.9071012264125784e-10,9.241327198927785e-06,-3.892444769615366e-06,-1.879091616086015e-06,0.0008320776298163893,0.0014306115798079061,0.0001458518885277672,-3.757786063664794e-05,-0.0005514855369937396,9.243091773977505e-05,0.0011545798564526499,0.7838374972343445,46.17904281616211,5.612087726593018,-19.586824417114258,-0.7308860421180725,-2.4173007011413574,0.12485067546367645,0
61,0.29999303817749023,-0.8354122042655945,-46.20284652709961,-5.663662433624268,19.658235549926758,0.7427878975868225,2.4173007011413574,-0.16604940593242645,0.0,0.0,0.0,0.0,0.0,0.0,0.0,-0.8255180957591847,0.10267168299206238,-0.4543642612632211,0.38869129577847494,0.15829337512974484,0.14881537576565676,-0.14503351218370303,0.8780805213033106,0.755442610482675,-0.2825485107647745,-1.6691043730953279,0.14140803176164624,2.403445829462415,1.027344556959139,0.878092876070424,0.7554597494309409,-0.2825552651693207,-1.6690993614607135,0.1414185955172306,2.4034451173676383,1.0273381002308042,0.0001559525782810325,-0.0006455730413066059,0.0009357680971239115,-0.001604917908407664,-5.459041049529901e-05,-0.00016635843383102397,0.000865422562184264,0.0,0.0,0.0,0.0,0.0,0.0,0.0,1.2354767113365028e-05,1.7138948265826848e-05,-6.754404546227555e-06,5.011634614415783e-06,1.0563755584364065e-05,-7.12094776478267e-07,-6.456728334880424e-06,-0.0001559525782810325,0.0006455730413066059,-0.0009357680971239115,0.001604917908407664,5.459041049529901e-05,0.00016635843383102397,-0.000865422562184264,0.8354122042655945,46.20284652709961,5.663662433624268,-19.658235549926758,-0.7427878975868225,-2.4173007011413574,0.16604940593242645,0
62,0.3049910068511963,-0.8354122042655945,-46.20284652709961,-5.663662433624268,19.658235549926758,0.7427878975868225,2.4173007011413574,-0.16604940593242645,0.0,0.0,0.0,0.0,0.0,0.0,0.0,-0.8255180957591847,0.10267168299206238,-0.4543642612632211,0.38869129577847494,0.15829337512974484,0.14881537576565676,-0.14503351218370303,0.8780805213033106,0.755442610482675,-0.2825485107647745,-1.6691043730953279,0.14140803176164624,2.403445829462415,1.027344556959139,0.878092876070424,0.7554597494309409,-0.2825552651693207,-1.6690993614607135,0.1414185955172306,2.4034451173676383,1.0273381002308042,0.0001559525782810325,-0.0006455730413066059,0.0009357680971239115,-0.001604917908407664,-5.459041049529901e-05,-0.00016635843383102397,0.000865422562184264,0.0,0.0,0.0,0.0,0.0,0.0,0.0,1.2354767113365028e-05,1.7138948265826848e-05,-6.754404546227555e-06,5.011634614415783e-06,1.0563755584364065e-05,-7.12094776478267e-07,-6.456728334880424e-06,-0.0001559525782810325,0.0006455730413066059,-0.0009357680971239115,0.001604917908407664,5.459041049529901e-05,0.00016635843383102397,-0.000865422562184264,0.8354122042655945,46.20284652709961,5.663662433624268,-19.658235549926758,-0.7427878975868225,-2.4173007011413574,0.16604940593242645,0
63,0.31000328063964844,-0.8354122042655945,-46.22665023803711,-5.663662433624268,19.586824417114258,0.7372947335243225,2.4044833183288574,-0.16604940593242645,0.0,0.0,0.0,0.0,0.0,0.0,0.0,-0.8122521544351697,0.11074125281578898,-0.44335446239462073,0.38690537563033517,0.15750707581483744,0.1485790202479249,-0.14537990047035154,0.8780805213033106,0.7554442809171844,-0.28254851959509225,-1.6690993617877623,0.14140864211320875,2.4034472535981073,1.027344556959139,0.878092876070424,0.7554597494309409,-0.2825552651693207,-1.6690993614607135,0.1414185955172306,2.4034451173676383,1.0273381002308042,0.0004359617725525693,0.00031537033284330835,0.0012724109792014075,-2.7225059669841314e-05,0.002471312260344641,0.000516094758007671,-0.002157074395936618,0.0,0.0,0.0,0.0,0.0,0.0,0.0,1.2354767113365028e-05,1.5468513756444757e-05,-6.745574228472773e-06,3.2704883246026384e-10,9.953404021850742e-06,-2.136230468963163e-06,-6.456728334880424e-06,-0.0004359617725525693,-0.00031537033284330835,-0.0012724109792014075,2.7225059669841314e-05,-0.002471312260344641,-0.000516094758007671,0.002157074395936618,0.8354122042655945,46.22665023803711,5.663662433624268,-19.586824417114258,-0.7372947335243225,-2.4044833183288574,0.16604940593242645,0
64,0.31502604484558105,-0.8354122042655945,-46.22665023803711,-5.663662433624268,19.586824417114258,0.7372947335243225,2.4044833183288574,-0.16604940593242645,0.0,0.0,0.0,0.0,0.0,0.0,0.0,-0.8122521544351697,0.11074125281578898,-0.44335446239462073,0.38690537563033517,0.15750707581483744,0.1485790202479249,-0.14537990047035154,0.8780805213033106,0.7554442809171844,-0.28254851959509225,-1.6690993617877623,0.14140864211320875,2.4034472535981073,1.027344556959139,0.878092876070424,0.7554597494309409,-0.2825552651693207,-1.6690993614607135,0.1414185955172306,2.4034451173676383,1.0273381002308042,0.0004359617725525693,0.00031537033284330835,0.0012724109792014075,-2.7225059669841314e-05,0.002471312260344641,0.000516094758007671,-0.002157074395936618,0.0,0.0,0.0,0.0,0.0,0.0,0.0,1.2354767113365028e-05,1.5468513756444757e-05,-6.745574228472773e-06,3.2704883246026384e-10,9.953404021850742e-06,-2.136230468963163e-06,-6.456728334880424e-06,-0.0004359617725525693,-0.00031537033284330835,-0.0012724109792014075,2.7225059669841314e-05,-0.002471312260344641,-0.000516094758007671,0.002157074395936618,0.8354122042655945,46.22665023803711,5.663662433624268,-19.586824417114258,-0.7372947335243225,-2.4044833183288574,0.16604940593242645,0
65,0.3200058937072754,-0.8076412081718445,-46.25045394897461,-5.635891437530518,19.586824417114258,0.7491965889930725,2.4108920097351074,-0.12485067546367645,0.0,0.0,0.0,0.0,0.0,0.0,0.0,-0.8167059172841808,0.1034334889298644,-0.44992640964735453,0.3912764404924448,0.158233552856901,0.14938220577061273,-0.14680732759888795,0.8780785724614795,0.7554459513530396,-0.2825504599700099,-1.669099361678746,0.14140720121139358,2.4034465429748346,1.0273399793224203,0.878092876070424,0.7554597494309409,-0.2825552651693207,-1.6690993614607135,0.1414185955172306,2.4034451173676383,1.0273381002308042,-0.0002933928411487766,0.0007849823773267743,8.144089092158177e-05,0.0005396004430722819,-0.00016188588808614408,0.00020648859058221234,-0.0004411191486365553,0.0,0.0,0.0,0.0,0.0,0.0,0.0,1.4303608944499224e-05,1.3798077901250316e-05,-4.805199310842223e-06,2.1803248095864092e-10,1.139430583702028e-05,-1.4256071962925887e-06,-1.879091616086015e-06,0.0002933928411487766,-0.0007849823773267743,-8.144089092158177e-05,-0.0005396004430722819,0.00016188588808614408,-0.00020648859058221234,0.0004411191486365553,0.8076412081718445,46.25045394897461,5.635891437530518,-19.586824417114258,-0.7491965889930725,-2.4108920097351074,0.12485067546367645,0
66,0.3250002861022949,-0.8076412081718445,-46.25045394897461,-5.635891437530518,19.586824417114258,0.7491965889930725,2.4108920097351074,-0.12485067546367645,0.0,0.0,0.0,0.0,0.0,0.0,0.0,-0.8167059172841808,0.1034334889298644,-0.44992640964735453,0.3912764404924448,0.158233552856901,0.14938220577061273,-0.14680732759888795,0.8780785724614795,0.7554459513530396,-0.2825504599700099,-1.669099361678746,0.14140720121139358,2.4034465429748346,1.0273399793224203,0.878092876070424,0.7554597494309409,-0.2825552651693207,-1.6690993614607135,0.1414185955172306,2.4034451173676383,1.0273381002308042,-0.0002933928411487766,0.0007849823773267743,8.144089092158177e-05,0.0005396004430722819,-0.00016188588808614408,0.00020648859058221234,-0.0004411191486365553,0.0,0.0,0.0,0.0,0.0,0.0,0.0,1.4303608944499224e-05,1.3798077901250316e-05,-4.805199310842223e-06,2.1803248095864092e-10,1.139430583702028e-05,-1.4256071962925887e-06,-1.879091616086015e-06,0.0002933928411487766,-0.0007849823773267743,-8.144089092158177e-05,-0.0005396004430722819,0.00016188588808614408,-0.00020648859058221234,0.0004411191486365553,0.8076412081718445,46.25045394897461,5.635891437530518,-19.586824417114258,-0.7491965889930725,-2.4108920097351074,0.12485067546367645,0
67,0.32999515533447266,-0.7838374972343445,-46.22665023803711,-5.635891437530518,19.559053421020508,0.7372947335243225,2.4108920097351074,-0.11111776530742645,0.0,0.0,0.0,0.0,0.0,0.0,0.0,-0.8053663340028714,0.11631994131149348,-0.4427184318684721,0.38379700968090535,0.15806714099590582,0.1480826224112367,-0.14535080586400984,0.8780769020256242,0.7554442838606237,-0.28255141328092415,-1.6690974129459306,0.14140864211253998,2.4034465415212924,1.027338453443514,0.878092876070424,0.7554597494309409,-0.2825552651693207,-1.6690993614607135,0.1414185955172306,2.4034451173676383,1.0273381002308042,-0.000678795982375225,0.0007114716585412531,0.0004450502036158464,0.0005884364976725009,0.0002347467673686744,4.903547475589219e-06,-0.0008544026079895504,0.0,0.0,0.0,0.0,0.0,0.0,0.0,1.5974044799804688e-05,1.546557031717466e-05,-3.851888396577685e-06,-1.948514782856847e-06,9.953404690621337e-06,-1.4241536541170774e-06,-3.532127097471971e-07,0.000678795982375225,-0.0007114716585412531,-0.0004450502036158464,-0.0005884364976725009,-0.0002347467673686744,-4.903547475589219e-06,0.0008544026079895504,0.7838374972343445,46.22665023803711,5.635891437530518,-19.559053421020508,-0.7372947335243225,-2.4108920097351074,0.11111776530742645,0
68,0.3349947929382324,-0.7838374972343445,-46.22665023803711,-5.635891437530518,19.559053421020508,0.7372947335243225,2.4108920097351074,-0.11111776530742645,0.0,0.0,0.0,0.0,0.0,0.0,0.0,-0.8053663340028714,0.11631994131149348,-0.4427184318684721,0.38379700968090535,0.15806714099590582,0.1480826224112367,-0.14535080586400984,0.8780769020256242,0.7554442838606237,-0.28255141328092415,-1.6690974129459306,0.14140864211253998,2.4034465415212924,1.027338453443514,0.878092876070424,0.7554597494309409,-0.2825552651693207,-1.6690993614607135,0.1414185955172306,2.4034451173676383,1.0273381002308042,-0.000678795982375225,0.0007114716585412531,0.0004450502036158464,0.0005884364976725009,0.0002347467673686744,4.903547475589219e-06,-0.0008544026079895504,0.0,0.0,0.0,0.0,0.0,0.0,0.0,1.5974044799804688e-05,1.546557031717466e-05,-3.851888396577685e-06,-1.948514782856847e-06,9.953404690621337e-06,-1.4241536541170774e-06,-3.532127097471971e-07,0.000678795982375225,-0.0007114716585412531,-0.0004450502036158464,-0.0005884364976725009,-0.0002347467673686744,-4.903547475589219e-06,0.0008544026079895504,0.7838374972343445,46.22665023803711,5.635891437530518,-19.559053421020508,-0.7372947335243225,-2.4108920097351074,0.11111776530742645,0
69,0.3400406837463379,-0.7838374972343445,-46.22665023803711,-5.635891437530518,19.559053421020508,0.7372947335243225,2.4108920097351074,-0.11111776530742645,0.0,0.0,0.0,0.0,0.0,0.0,0.0,-0.8053663340028714,0.11631994131149348,-0.4427184318684721,0.38379700968090535,0.15806714099590582,0.1480826224112367,-0.14535080586400984,0.8780769020256242,0.7554442838606237,-0.28255141328092415,-1.6690974129459306,0.14140864211253998,2.4034465415212924,1.027338453443514,0.878092876070424,0.7554597494309409,-0.2825552651693207,-1.6690993614607135,0.1414185955172306,2.4034451173676383,1.0273381002308042,-0.000678795982375225,0.0007114716585412531,0.0004450502036158464,0.0005884364976725009,0.0002347467673686744,4.903547475589219e-06,-0.0008544026079895504,0.0,0.0,0.0,0.0,0.0,0.0,0.0,1.5974044799804688e-05,1.546557031717466e-05,-3.851888396577685e-06,-1.948514782856847e-06,9.953404690621337e-06,-1.4241536541170774e-06,-3.532127097471971e-07,0.000678795982375225,-0.0007114716585412531,-0.0004450502036158464,-0.0005884364976725009,-0.0002347467673686744,-4.903547475589219e-06,0.0008544026079895504,0.7838374972343445,46.22665023803711,5.635891437530518,-19.559053421020508,-0.7372947335243225,-2.4108920097351074,0.11111776530742645,0
70,0.3450160026550293,-0.7838374972343445,-46.22665023803711,-5.635891437530518,19.559053421020508,0.7372947335243225,2.4108920097351074,-0.11111776530742645,0.0,0.0,0.0,0.0,0.0,0.0,0.0,-0.8053663340028714,0.11631994131149348,-0.4427184318684721,0.38379700968090535,0.15806714099590582,0.1480826224112367,-0.14535080586400984,0.8780769020256242,0.7554442838606237,-0.28255141328092415,-1.6690974129459306,0.14140864211253998,2.4034465415212924,1.027338453443514,0.878092876070424,0.7554597494309409,-0.2825552651693207,-1.6690993614607135,0.1414185955172306,2.4034451173676383,1.0273381002308042,-0.000678795982375225,0.0007114716585412531,0.0004450502036158464,0.0005884364976725009,0.0002347467673686744,4.903547475589219e-06,-0.0008544026079895504,0.0,0.0,0.0,0.0,0.0,0.0,0.0,1.5974044799804688e-05,1.546557031717466e-05,-3.851888396577685e-06,-1.948514782856847e-06,9.953404690621337e-06,-1.4241536541170774e-06,-3.532127097471971e-07,0.000678795982375225,-0.0007114716585412531,-0.0004450502036158464,-0.0005884364976725009,-0.0002347467673686744,-4.903547475589219e-06,0.0008544026079895504,0.7838374972343445,46.22665023803711,5.635891437530518,-19.559053421020508,-0.7372947335243225,-2.4108920097351074,0.11111776530742645,0
71,0.3500051498413086,-0.8592159152030945,-46.20284652709961,-5.635891437530518,19.634431838989258,0.7427878975868225,2.4108920097351074,-0.17978231608867645,0.0,0.0,0.0,0.0,0.0,0.0,0.0,-0.8218588290630934,0.09630811070229803,-0.4573504847100107,0.39373776052885767,0.15928634875477754,0.14988858389258608,-0.14456037557079762,0.8780821917391659,0.7554428577302426,-0.2825504596119892,-1.6691027025504566,0.14140803176164624,2.4034465415212845,1.0273460828380452,0.878092876070424,0.7554597494309409,-0.2825552651693207,-1.6690993614607135,0.1414185955172306,2.4034451173676383,1.0273381002308042,0.0007172617937549878,-0.0006432038150939743,0.0005039082034098204,-0.0005232633686865871,-0.004186687748416,0.0002185351258807469,0.0014174419741645092,0.0,0.0,0.0,0.0,0.0,0.0,0.0,1.0684331258059565e-05,1.689170069829604e-05,-4.80555733151089e-06,3.341089743091885e-06,1.0563755584364065e-05,-1.4241536461234716e-06,-7.982607240997197e-06,-0.0007172617937549878,0.0006432038150939743,-0.0005039082034098204,0.0005232633686865871,0.004186687748416,-0.0002185351258807469,-0.0014174419741645092,0.8592159152030945,46.20284652709961,5.635891437530518,-19.634431838989258,-0.7427878975868225,-2.4108920097351074,0.17978231608867645,0
72,0.3549988269805908,-0.8592159152030945,-46.20284652709961,-5.635891437530518,19.634431838989258,0.7427878975868225,2.4108920097351074,-0.17978231608867645,0.0,0.0,0.0,0.0,0.0,0.0,0.0,-0.8218588290630934,0.09630811070229803,-0.4573504847100107,0.39373776052885767,0.15928634875477754,0.14988858389258608,-0.14456037557079762,0.8780821917391659,0.7554428577302426,-0.2825504596119892,-1.6691027025504566,0.14140803176164624,2.4034465415212845,1.0273460828380452,0.878092876070424,0.7554597494309409,-0.2825552651693207,-1.6690993614607135,0.1414185955172306,2.4034451173676383,1.0273381002308042,0.0007172617937549878,-0.0006432038150939743,0.0005039082034098204,-0.0005232633686865871,-0.004186687748416,0.0002185351258807469,0.0014174419741645092,0.0,0.0,0.0,0.0,0.0,0.0,0.0,1.0684331258059565e-05,1.689170069829604e-05,-4.80555733151089e-06,3.341089743091885e-06,1.0563755584364065e-05,-1.4241536461234716e-06,-7.982607240997197e-06,-0.0007172617937549878,0.0006432038150939743,-0.0005039082034098204,0.0005232633686865871,0.004186687748416,-0.0002185351258807469,-0.0014174419741645092,0.8592159152030945,46.20284652709961,5.635891437530518,-19.634431838989258,-0.7427878975868225,-2.4108920097351074,0.17978231608867645,0
73,0.3600003719329834,-0.7838374972343445,-46.22665023803711,-5.612087726593018,19.610628128051758,0.7427878975868225,2.4173007011413574,-0.15231649577617645,0.0,0.0,0.0,0.0,0.0,0.0,0.0,-0.8140002759649136,0.10694235807725576,-0.44803631638498403,0.39106436221632385,0.15800233466396,0.14940205842105675,-0.14558015380170952,0.8780769020256242,0.7554445193371593,-0.28255213036950977,-1.6691010322236168,0.14140803176164624,2.4034458294444616,1.0273430355498998,0.878092876070424,0.7554597494309409,-0.2825552651693207,-1.6690993614607135,0.1414185955172306,2.4034451173676383,1.0273381002308042,-0.0006608363457234018,0.0002022795306030594,-0.00019601616443588985,-9.081580887049968e-05,-0.00018433636664865803,5.999505003210724e-06,0.00044651258140335654,0.0,0.0,0.0,0.0,0.0,0.0,0.0,1.5974044799804688e-05,1.5230093781570808e-05,-3.1347998109554354e-06,1.6707629033607674e-06,1.0563755584364065e-05,-7.120768232837804e-07,-4.9353190956225035e-06,0.0006608363457234018,-0.0002022795306030594,0.00019601616443588985,9.081580887049968e-05,0.00018433636664865803,-5.999505003210724e-06,-0.00044651258140335654,0.7838374972343445,46.22665023803711,5.612087726593018,-19.610628128051758,-0.7427878975868225,-2.4173007011413574,0.15231649577617645,0
74,0.36499571800231934,-0.7838374972343445,-46.22665023803711,-5.612087726593018,19.610628128051758,0.7427878975868225,2.4173007011413574,-0.15231649577617645,0.0,0.0,0.0,0.0,0.0,0.0,0.0,-0.8140002759649136,0.10694235807725576,-0.44803631638498403,0.39106436221632385,0.15800233466396,0.14940205842105675,-0.14558015380170952,0.8780769020256242,0.7554445193371593,-0.28255213036950977,-1.6691010322236168,0.14140803176164624,2.4034458294444616,1.0273430355498998,0.878092876070424,0.7554597494309409,-0.2825552651693207,-1.6690993614607135,0.1414185955172306,2.4034451173676383,1.0273381002308042,-0.0006608363457234018,0.0002022795306030594,-0.00019601616443588985,-9.081580887049968e-05,-0.00018433636664865803,5.999505003210724e-06,0.00044651258140335654,0.0,0.0,0.0,0.0,0.0,0.0,0.0,1.5974044799804688e-05,1.5230093781570808e-05,-3.1347998109554354e-06,1.6707629033607674e-06,1.0563755584364065e-05,-7.120768232837804e-07,-4.9353190956225035e-06,0.0006608363457234018,-0.0002022795306030594,0.00019601616443588985,9.081580887049968e-05,0.00018433636664865803,-5.999505003210724e-06,-0.00044651258140335654,0.7838374972343445,46.22665023803711,5.612087726593018,-19.610628128051758,-0.7427878975868225,-2.4173007011413574,0.15231649577617645,0
75,0.3699965476989746,-0.8354122042655945,-46.25045394897461,-5.588284015655518,19.559053421020508,0.7427878975868225,2.4108920097351074,-0.11844198405742645,0.0,0.0,0.0,0.0,0.0,0.0,0.0,-0.814906861282882,0.10771766262159546,-0.44723415337662875,0.39012244748357533,0.15766228709920915,0.14954110882492497,-0.14661472607572568,0.8780805213033106,0.7554459601847032,-0.28255380080536685,-1.6690974041156135,0.14140803176164624,2.4034465415212845,1.0273392672456225,0.878092876070424,0.7554597494309409,-0.2825552651693207,-1.6690993614607135,0.1414185955172306,2.4034451173676383,1.0273381002308042,0.0009786552718657863,0.00032764765890176564,-0.00035477510023916483,0.0006857168779611093,7.294709556578485e-05,0.00023412009278956131,-0.0009034621440801903,0.0,0.0,0.0,0.0,0.0,0.0,0.0,1.2354767113365028e-05,1.3789246237627673e-05,-1.4643639538736153e-06,-1.9573451000010067e-06,1.0563755584364065e-05,-1.4241536461234716e-06,-1.167014818337364e-06,-0.0009786552718657863,-0.00032764765890176564,0.00035477510023916483,-0.0006857168779611093,-7.294709556578485e-05,-0.00023412009278956131,0.0009034621440801903,0.8354122042655945,46.25045394897461,5.588284015655518,-19.559053421020508,-0.7427878975868225,-2.4108920097351074,0.11844198405742645,0
76,0.3749964237213135,-0.8354122042655945,-46.25045394897461,-5.588284015655518,19.559053421020508,0.7427878975868225,2.4108920097351074,-0.11844198405742645,0.0,0.0,0.0,0.0,0.0,0.0,0.0,-0.814906861282882,0.10771766262159546,-0.44723415337662875,0.39012244748357533,0.15766228709920915,0.14954110882492497,-0.14661472607572568,0.8780805213033106,0.7554459601847032,-0.28255380080536685,-1.6690974041156135,0.14140803176164624,2.4034465415212845,1.0273392672456225,0.878092876070424,0.7554597494309409,-0.2825552651693207,-1.6690993614607135,0.1414185955172306,2.4034451173676383,1.0273381002308042,0.0009786552718657863,0.00032764765890176564,-0.00035477510023916483,0.0006857168779611093,7.294709556578485e-05,0.00023412009278956131,-0.0009034621440801903,0.0,0.0,0.0,0.0,0.0,0.0,0.0,1.2354767113365028e-05,1.3789246237627673e-05,-1.4643639538736153e-06,-1.9573451000010067e-06,1.0563755584364065e-05,-1.4241536461234716e-06,-1.167014818337364e-06,-0.0009786552718657863,-0.00032764765890176564,0.00035477510023916483,-0.0006857168779611093,-7.294709556578485e-05,-0.00023412009278956131,0.0009034621440801903,0.8354122042655945,46.25045394897461,5.588284015655518,-19.559053421020508,-0.7427878975868225,-2.4108920097351074,0.11844198405742645,0
77,0.3799903392791748,-0.8354122042655945,-46.22665023803711,-5.588284015655518,19.559053421020508,0.7372947335243225,2.4108920097351074,-0.15231649577617645,0.0,0.0,0.0,0.0,0.0,0.0,0.0,-0.8178001135814784,0.10702004929811247,-0.4483664450458678,0.38864266729079183,0.1577148004303524,0.1497711043035019,-0.14612123038448138,0.8780805213033106,0.7554449961729716,-0.2825538005873343,-1.6690974129458815,0.14140864211320875,2.4034465415212845,1.0273430310802327,0.878092876070424,0.7554597494309409,-0.2825552651693207,-1.6690993614607135,0.1414185955172306,2.4034451173676383,1.0273381002308042,0.0006954910413683491,0.00013221990072716458,-0.0007128347546775771,0.0008516604964776049,0.00012622660920526746,0.00026469427628156105,0.0005731476125669486,0.0,0.0,0.0,0.0,0.0,0.0,0.0,1.2354767113365028e-05,1.4753257969291056e-05,-1.464581986410085e-06,-1.948514831928705e-06,9.953404021850742e-06,-1.4241536461234716e-06,-4.930849428541606e-06,-0.0006954910413683491,-0.00013221990072716458,0.0007128347546775771,-0.0008516604964776049,-0.00012622660920526746,-0.00026469427628156105,-0.0005731476125669486,0.8354122042655945,46.22665023803711,5.588284015655518,-19.559053421020508,-0.7372947335243225,-2.4108920097351074,0.15231649577617645,0
78,0.38501811027526855,-0.8354122042655945,-46.22665023803711,-5.588284015655518,19.559053421020508,0.7372947335243225,2.4108920097351074,-0.15231649577617645,0.0,0.0,0.0,0.0,0.0,0.0,0.0,-0.8178001135814784,0.10702004929811247,-0.4483664450458678,0.38864266729079183,0.1577148004303524,0.1497711043035019,-0.14612123038448138,0.8780805213033106,0.7554449961729716,-0.2825538005873343,-1.6690974129458815,0.14140864211320875,2.4034465415212845,1.0273430310802327,0.878092876070424,0.7554597494309409,-0.2825552651693207,-1.6690993614607135,0.1414185955172306,2.4034451173676383,1.0273381002308042,0.0006954910413683491,0.00013221990072716458,-0.0007128347546775771,0.0008516604964776049,0.00012622660920526746,0.00026469427628156105,0.0005731476125669486,0.0,0.0,0.0,0.0,0.0,0.0,0.0,1.2354767113365028e-05,1.4753257969291056e-05,-1.464581986410085e-06,-1.948514831928705e-06,9.953404021850742e-06,-1.4241536461234716e-06,-4.930849428541606e-06,-0.0006954910413683491,-0.00013221990072716458,0.0007128347546775771,-0.0008516604964776049,-0.00012622660920526746,-0.00026469427628156105,-0.0005731476125669486,0.8354122042655945,46.22665023803711,5.588284015655518,-19.559053421020508,-0.7372947335243225,-2.4108920097351074,0.15231649577617645,0
79,0.38999485969543457,-0.8354122042655945,-46.25045394897461,-5.635891437530518,19.610628128051758,0.7427878975868225,2.4108920097351074,-0.10470907390117645,0.0,0.0,0.0,0.0,0.0,0.0,0.0,-0.8213641921924245,0.09603776349599887,-0.45418782028260446,0.39214193154737903,0.15762387040132503,0.15049779547509518,-0.1453880572208503,0.8780805213033106,0.7554459513570773,-0.28255048609755956,-1.6691010322236175,0.14140803176164624,2.4034465415212845,1.0273388274957735,0.878092876070424,0.7554597494309409,-0.2825552651693207,-1.6690993614607135,0.1414185955172306,2.4034451173676383,1.0273381002308042,0.00028195332902282606,0.000443119541728976,-0.00016948355594309836,-0.00010457970834888831,1.3762456757184785e-05,-3.0074206018038397e-05,-0.0018147760045292434,0.0,0.0,0.0,0.0,0.0,0.0,0.0,1.2354767113365028e-05,1.379807386359122e-05,-4.7790717611628786e-06,1.6707629040269012e-06,1.0563755584364065e-05,-1.4241536461234716e-06,-7.272649693579325e-07,-0.00028195332902282606,-0.000443119541728976,0.00016948355594309836,0.00010457970834888831,-1.3762456757184785e-05,3.0074206018038397e-05,0.0018147760045292434,0.8354122042655945,46.25045394897461,5.635891437530518,-19.610628128051758,-0.7427878975868225,-2.4108920097351074,0.10470907390117645,0
80,0.3950188159942627,-0.8354122042655945,-46.25045394897461,-5.635891437530518,19.610628128051758,0.7427878975868225,2.4108920097351074,-0.10470907390117645,0.0,0.0,0.0,0.0,0.0,0.0,0.0,-0.8213641921924245,0.09603776349599887,-0.45418782028260446,0.39214193154737903,0.15762387040132503,0.15049779547509518,-0.1453880572208503,0.8780805213033106,0.7554459513570773,-0.28255048609755956,-1.6691010322236175,0.14140803176164624,2.4034465415212845,1.0273388274957735,0.878092876070424,0.7554597494309409,-0.2825552651693207,-1.6690993614607135,0.1414185955172306,2.4034451173676383,1.0273381002308042,0.00028195332902282606,0.000443119541728976,-0.00016948355594309836,-0.00010457970834888831,1.3762456757184785e-05,-3.0074206018038397e-05,-0.0018147760045292434,0.0,0.0,0.0,0.0,0.0,0.0,0.0,1.2354767113365028e-05,1.379807386359122e-05,-4.7790717611628786e-06,1.6707629040269012e-06,1.0563755584364065e-05,-1.4241536461234716e-06,-7.272649693579325e-07,-0.00028195332902282606,-0.000443119541728976,0.00016948355594309836,0.00010457970834888831,-1.3762456757184785e-05,3.0074206018038397e-05,0.0018147760045292434,0.8354122042655945,46.25045394897461,5.635891437530518,-19.610628128051758,-0.7427878975868225,-2.4108920097351074,0.10470907390117645,0
