rezayati/contactInterpretation/dataset/franka_main/labeled_data/link2/f3_6.csv
index,time,tau_J0,tau_J1,tau_J2,tau_J3,tau_J4,tau_J5,tau_J6,tau_J_d0,tau_J_d1,tau_J_d2,tau_J_d3,tau_J_d4,tau_J_d5,tau_J_d6,tau_ext0,tau_ext1,tau_ext2,tau_ext3,tau_ext4,tau_ext5,tau_ext6,q0,q1,q2,q3,q4,q5,q6,q_d0,q_d1,q_d2,q_d3,q_d4,q_d5,q_d6,dq0,dq1,dq2,dq3,dq4,dq5,dq6,dq_d0,dq_d1,dq_d2,dq_d3,dq_d4,dq_d5,dq_d6,e0,e1,e2,e3,e4,e5,e6,de0,de1,de2,de3,de4,de5,de6,etau_J0,etau_J1,etau_J2,etau_J3,etau_J4,etau_J5,etau_J6,label
1,0.0,0.16037636995315552,-18.106531143188477,1.1918060779571533,17.999910354614258,0.4745383858680725,2.2424349784851074,-0.20724813640117645,0.0,0.0,0.0,0.0,0.0,0.0,0.0,0.13303567453584028,0.5124380255916962,0.31909263162585344,0.3474630068762922,0.05950141676588207,0.05377959345004749,-0.17712868415456587,-0.6093407496430956,-0.05753220394846291,-0.666598330204947,-2.5945537190019037,-0.05561960592619492,2.507973644705956,0.8763180113398755,-0.6090851748156966,-0.05753196718556838,-0.666603097082616,-2.5945565370258534,-0.05562143941554,2.507976027223799,0.8763108487046415,8.580912378261868e-05,-0.0009323969886707046,-0.0006015073075979313,-0.0008826748545906767,0.00047930555458398656,-6.233277208171693e-05,0.0010849127432369778,0.0,0.0,0.0,0.0,0.0,0.0,0.0,0.0002555748273990188,2.367628945260103e-07,-4.766877669037939e-06,-2.8180239497466175e-06,-1.8334893450780432e-06,2.3825178430136873e-06,-7.16263523403704e-06,-8.580912378261868e-05,0.0009323969886707046,0.0006015073075979313,0.0008826748545906767,-0.00047930555458398656,6.233277208171693e-05,-0.0010849127432369778,-0.16037636995315552,18.106531143188477,-1.1918060779571533,-17.999910354614258,-0.4745383858680725,-2.2424349784851074,0.20724813640117645,0
2,0.005102634429931641,0.13260537385940552,-18.154138565063477,1.1441986560821533,17.972139358520508,0.4928489327430725,2.2296175956726074,-0.20724813640117645,0.0,0.0,0.0,0.0,0.0,0.0,0.0,0.12536722055059984,0.5064535715410404,0.3178878519213505,0.34924741248102004,0.060583417760971606,0.0540869856249603,-0.17677391159428132,-0.6093408569085542,-0.05752870523615923,-0.6665949896602852,-2.5945517701600727,-0.05562309788357533,2.5079742457200744,0.8763191901693423,-0.6090851748156966,-0.05753196718556838,-0.666603097082616,-2.5945565370258534,-0.05562143941554,2.507976027223799,0.8763108487046415,0.00019479668527707904,-0.000319515935183597,0.00024246988005218956,-0.00021936703765655394,-0.0001553619418800342,0.00029675686160490755,0.0012699054367701645,0.0,0.0,0.0,0.0,0.0,0.0,0.0,0.0002556820928576453,-3.26194940915292e-06,-8.107422330816405e-06,-4.766865780769791e-06,1.6584680353273762e-06,1.7815037245405563e-06,-8.341464700856172e-06,-0.00019479668527707904,0.000319515935183597,-0.00024246988005218956,0.00021936703765655394,0.0001553619418800342,-0.00029675686160490755,-0.0012699054367701645,-0.13260537385940552,18.154138565063477,-1.1441986560821533,-17.972139358520508,-0.4928489327430725,-2.2296175956726074,0.20724813640117645,0
3,0.010000467300415039,0.13260537385940552,-18.154138565063477,1.1441986560821533,17.972139358520508,0.4928489327430725,2.2296175956726074,-0.20724813640117645,0.0,0.0,0.0,0.0,0.0,0.0,0.0,0.12536722055059984,0.5064535715410404,0.3178878519213505,0.34924741248102004,0.060583417760971606,0.0540869856249603,-0.17677391159428132,-0.6093408569085542,-0.05752870523615923,-0.6665949896602852,-2.5945517701600727,-0.05562309788357533,2.5079742457200744,0.8763191901693423,-0.6090851748156966,-0.05753196718556838,-0.666603097082616,-2.5945565370258534,-0.05562143941554,2.507976027223799,0.8763108487046415,0.00019479668527707904,-0.000319515935183597,0.00024246988005218956,-0.00021936703765655394,-0.0001553619418800342,0.00029675686160490755,0.0012699054367701645,0.0,0.0,0.0,0.0,0.0,0.0,0.0,0.0002556820928576453,-3.26194940915292e-06,-8.107422330816405e-06,-4.766865780769791e-06,1.6584680353273762e-06,1.7815037245405563e-06,-8.341464700856172e-06,-0.00019479668527707904,0.000319515935183597,-0.00024246988005218956,0.00021936703765655394,0.0001553619418800342,-0.00029675686160490755,-0.0012699054367701645,-0.13260537385940552,18.154138565063477,-1.1441986560821533,-17.972139358520508,-0.4928489327430725,-2.2296175956726074,0.20724813640117645,0
4,0.015136241912841797,0.08103066682815552,-18.154138565063477,1.0926239490509033,18.023714065551758,0.4864402413368225,2.2360262870788574,-0.17978231608867645,0.0,0.0,0.0,0.0,0.0,0.0,0.0,0.12639266955989237,0.5110501120942126,0.3212733290206413,0.34740118996612485,0.060859290889617244,0.05420653186541087,-0.176906447844748,-0.6093358071673388,-0.057528626314303374,-0.6665913700555518,-2.594555389437759,-0.05561771557166637,2.5079745932228987,0.8763161379336675,-0.6090851748156966,-0.05753196718556838,-0.666603097082616,-2.5945565370258534,-0.05562143941554,2.507976027223799,0.8763108487046415,0.0010929335908057185,-0.00020177806809509353,0.0005710438979399032,-0.0013788373143780429,-2.4824972341952683e-05,0.0003847149148080654,-0.00044815885683555974,0.0,0.0,0.0,0.0,0.0,0.0,0.0,0.00025063235164224373,-3.3408712650090377e-06,-1.1727027064201145e-05,-1.147588094330132e-06,-3.723843873627841e-06,1.4340009002467013e-06,-5.289229025984277e-06,-0.0010929335908057185,0.00020177806809509353,-0.0005710438979399032,0.0013788373143780429,2.4824972341952683e-05,-0.0003847149148080654,0.00044815885683555974,-0.08103066682815552,18.154138565063477,-1.0926239490509033,-18.023714065551758,-0.4864402413368225,-2.2360262870788574,0.17978231608867645,0
5,0.020001888275146484,0.08103066682815552,-18.154138565063477,1.0926239490509033,18.023714065551758,0.4864402413368225,2.2360262870788574,-0.17978231608867645,0.0,0.0,0.0,0.0,0.0,0.0,0.0,0.12639266955989237,0.5110501120942126,0.3212733290206413,0.34740118996612485,0.060859290889617244,0.05420653186541087,-0.176906447844748,-0.6093358071673388,-0.057528626314303374,-0.6665913700555518,-2.594555389437759,-0.05561771557166637,2.5079745932228987,0.8763161379336675,-0.6090851748156966,-0.05753196718556838,-0.666603097082616,-2.5945565370258534,-0.05562143941554,2.507976027223799,0.8763108487046415,0.0010929335908057185,-0.00020177806809509353,0.0005710438979399032,-0.0013788373143780429,-2.4824972341952683e-05,0.0003847149148080654,-0.00044815885683555974,0.0,0.0,0.0,0.0,0.0,0.0,0.0,0.00025063235164224373,-3.3408712650090377e-06,-1.1727027064201145e-05,-1.147588094330132e-06,-3.723843873627841e-06,1.4340009002467013e-06,-5.289229025984277e-06,-0.0010929335908057185,0.00020177806809509353,-0.0005710438979399032,0.0013788373143780429,2.4824972341952683e-05,-0.0003847149148080654,0.00044815885683555974,-0.08103066682815552,18.154138565063477,-1.0926239490509033,-18.023714065551758,-0.4864402413368225,-2.2360262870788574,0.17978231608867645,0
6,0.024997472763061523,0.08103066682815552,-18.106531143188477,1.0926239490509033,17.999910354614258,0.4864402413368225,2.2360262870788574,-0.20083944499492645,0.0,0.0,0.0,0.0,0.0,0.0,0.0,0.12257202743198406,0.5155665645578709,0.31506605924770587,0.3437816482100994,0.06061827457350036,0.05514422200525858,-0.17674555801808772,-0.6093356818632326,-0.05753196718556838,-0.66659137005555,-2.594553718662742,-0.05561789154617995,2.5079742842687,0.8763184780991712,-0.6090851748156966,-0.05753196718556838,-0.666603097082616,-2.5945565370258534,-0.05562143941554,2.507976027223799,0.8763108487046415,0.00012404528000998298,-0.000620305482216068,-3.715176923933301e-05,-0.0006573069007403416,-4.544769554982389e-05,0.0002740715771024314,0.0007846003639588681,0.0,0.0,0.0,0.0,0.0,0.0,0.0,0.0002505070475360416,0.0,-1.1727027065977502e-05,-2.818363111334321e-06,-3.5478693600488054e-06,1.742955098915644e-06,-7.629394529695688e-06,-0.00012404528000998298,0.000620305482216068,3.715176923933301e-05,0.0006573069007403416,4.544769554982389e-05,-0.0002740715771024314,-0.0007846003639588681,-0.08103066682815552,18.106531143188477,-1.0926239490509033,-17.999910354614258,-0.4864402413368225,-2.2360262870788574,0.20083944499492645,0
7,0.029999256134033203,0.08103066682815552,-18.106531143188477,1.0926239490509033,17.999910354614258,0.4864402413368225,2.2360262870788574,-0.20083944499492645,0.0,0.0,0.0,0.0,0.0,0.0,0.0,0.12257202743198406,0.5155665645578709,0.31506605924770587,0.3437816482100994,0.06061827457350036,0.05514422200525858,-0.17674555801808772,-0.6093356818632326,-0.05753196718556838,-0.66659137005555,-2.594553718662742,-0.05561789154617995,2.5079742842687,0.8763184780991712,-0.6090851748156966,-0.05753196718556838,-0.666603097082616,-2.5945565370258534,-0.05562143941554,2.507976027223799,0.8763108487046415,0.00012404528000998298,-0.000620305482216068,-3.715176923933301e-05,-0.0006573069007403416,-4.544769554982389e-05,0.0002740715771024314,0.0007846003639588681,0.0,0.0,0.0,0.0,0.0,0.0,0.0,0.0002505070475360416,0.0,-1.1727027065977502e-05,-2.818363111334321e-06,-3.5478693600488054e-06,1.742955098915644e-06,-7.629394529695688e-06,-0.00012404528000998298,0.000620305482216068,3.715176923933301e-05,0.0006573069007403416,4.544769554982389e-05,-0.0002740715771024314,-0.0007846003639588681,-0.08103066682815552,18.106531143188477,-1.0926239490509033,-17.999910354614258,-0.4864402413368225,-2.2360262870788574,0.20083944499492645,0
8,0.03499960899353027,0.08103066682815552,-18.106531143188477,1.0926239490509033,17.999910354614258,0.4864402413368225,2.2360262870788574,-0.20083944499492645,0.0,0.0,0.0,0.0,0.0,0.0,0.0,0.12257202743198406,0.5155665645578709,0.31506605924770587,0.3437816482100994,0.06061827457350036,0.05514422200525858,-0.17674555801808772,-0.6093356818632326,-0.05753196718556838,-0.66659137005555,-2.594553718662742,-0.05561789154617995,2.5079742842687,0.8763184780991712,-0.6090851748156966,-0.05753196718556838,-0.666603097082616,-2.5945565370258534,-0.05562143941554,2.507976027223799,0.8763108487046415,0.00012404528000998298,-0.000620305482216068,-3.715176923933301e-05,-0.0006573069007403416,-4.544769554982389e-05,0.0002740715771024314,0.0007846003639588681,0.0,0.0,0.0,0.0,0.0,0.0,0.0,0.0002505070475360416,0.0,-1.1727027065977502e-05,-2.818363111334321e-06,-3.5478693600488054e-06,1.742955098915644e-06,-7.629394529695688e-06,-0.00012404528000998298,0.000620305482216068,3.715176923933301e-05,0.0006573069007403416,4.544769554982389e-05,-0.0002740715771024314,-0.0007846003639588681,-0.08103066682815552,18.106531143188477,-1.0926239490509033,-17.999910354614258,-0.4864402413368225,-2.2360262870788574,0.20083944499492645,0
9,0.03999614715576172,0.08103066682815552,-18.106531143188477,1.0926239490509033,17.999910354614258,0.4864402413368225,2.2360262870788574,-0.20083944499492645,0.0,0.0,0.0,0.0,0.0,0.0,0.0,0.12257202743198406,0.5155665645578709,0.31506605924770587,0.3437816482100994,0.06061827457350036,0.05514422200525858,-0.17674555801808772,-0.6093356818632326,-0.05753196718556838,-0.66659137005555,-2.594553718662742,-0.05561789154617995,2.5079742842687,0.8763184780991712,-0.6090851748156966,-0.05753196718556838,-0.666603097082616,-2.5945565370258534,-0.05562143941554,2.507976027223799,0.8763108487046415,0.00012404528000998298,-0.000620305482216068,-3.715176923933301e-05,-0.0006573069007403416,-4.544769554982389e-05,0.0002740715771024314,0.0007846003639588681,0.0,0.0,0.0,0.0,0.0,0.0,0.0,0.0002505070475360416,0.0,-1.1727027065977502e-05,-2.818363111334321e-06,-3.5478693600488054e-06,1.742955098915644e-06,-7.629394529695688e-06,-0.00012404528000998298,0.000620305482216068,3.715176923933301e-05,0.0006573069007403416,4.544769554982389e-05,-0.0002740715771024314,-0.0007846003639588681,-0.08103066682815552,18.106531143188477,-1.0926239490509033,-17.999910354614258,-0.4864402413368225,-2.2360262870788574,0.20083944499492645,0
10,0.04500746726989746,0.10880166292190552,-18.078760147094727,1.1441986560821533,17.999910354614258,0.4928489327430725,2.2360262870788574,-0.13858358561992645,0.0,0.0,0.0,0.0,0.0,0.0,0.0,0.13447283628741694,0.5125421874235212,0.324740572428018,0.3447466389994768,0.05989162460762392,0.05621982405633876,-0.17728689194352962,-0.6093369095617406,-0.057533916027399525,-0.6665949893332365,-2.594553719001902,-0.05561996468302317,2.507976829433437,0.8763115564208148,-0.6090851748156966,-0.05753196718556838,-0.666603097082616,-2.5945565370258534,-0.05562143941554,2.507976027223799,0.8763108487046415,0.00030078176751929835,-0.0019690355546789764,4.978342340471019e-05,-0.0008698833312188439,-0.0001979831522794075,0.00034544151458640017,-0.0014081035272284915,0.0,0.0,0.0,0.0,0.0,0.0,0.0,0.0002517347460440078,1.948841831141135e-06,-8.107749379537843e-06,-2.8180239515229744e-06,-1.4747325168332215e-06,-8.022096378290655e-07,-7.077161733315407e-07,-0.00030078176751929835,0.0019690355546789764,-4.978342340471019e-05,0.0008698833312188439,0.0001979831522794075,-0.00034544151458640017,0.0014081035272284915,-0.10880166292190552,18.078760147094727,-1.1441986560821533,-17.999910354614258,-0.4928489327430725,-2.2360262870788574,0.13858358561992645,0
11,0.05002474784851074,0.10880166292190552,-18.078760147094727,1.1441986560821533,17.999910354614258,0.4928489327430725,2.2360262870788574,-0.13858358561992645,0.0,0.0,0.0,0.0,0.0,0.0,0.0,0.13447283628741694,0.5125421874235212,0.324740572428018,0.3447466389994768,0.05989162460762392,0.05621982405633876,-0.17728689194352962,-0.6093369095617406,-0.057533916027399525,-0.6665949893332365,-2.594553719001902,-0.05561996468302317,2.507976829433437,0.8763115564208148,-0.6090851748156966,-0.05753196718556838,-0.666603097082616,-2.5945565370258534,-0.05562143941554,2.507976027223799,0.8763108487046415,0.00030078176751929835,-0.0019690355546789764,4.978342340471019e-05,-0.0008698833312188439,-0.0001979831522794075,0.00034544151458640017,-0.0014081035272284915,0.0,0.0,0.0,0.0,0.0,0.0,0.0,0.0002517347460440078,1.948841831141135e-06,-8.107749379537843e-06,-2.8180239515229744e-06,-1.4747325168332215e-06,-8.022096378290655e-07,-7.077161733315407e-07,-0.00030078176751929835,0.0019690355546789764,-4.978342340471019e-05,0.0008698833312188439,0.0001979831522794075,-0.00034544151458640017,0.0014081035272284915,-0.10880166292190552,18.078760147094727,-1.1441986560821533,-17.999910354614258,-0.4928489327430725,-2.2360262870788574,0.13858358561992645,0
12,0.05500531196594238,0.18418008089065552,-18.154138565063477,1.1441986560821533,17.999910354614258,0.4928489327430725,2.2296175956726074,-0.15231649577617645,0.0,0.0,0.0,0.0,0.0,0.0,0.0,0.12896251531,0.5141548332719375,0.3205251286317743,0.3461467293267511,0.06098064381566207,0.05640975359865025,-0.1775682059756244,-0.609345278108665,-0.057528626313857856,-0.6665949893332365,-2.5945537190019037,-0.05562317332624342,2.507974951298089,0.8763127334476374,-0.6090851748156966,-0.05753196718556838,-0.666603097082616,-2.5945565370258534,-0.05562143941554,2.507976027223799,0.8763108487046415,-0.0008459149331499161,0.00033359848156712206,0.0004081442812315029,-0.00056990346897881,-0.00030366777983870444,0.0003374634928856639,-0.0016262735722328149,0.0,0.0,0.0,0.0,0.0,0.0,0.0,0.0002601032929684388,-3.3408717105276597e-06,-8.107749379537843e-06,-2.8180239497466175e-06,1.733910703419217e-06,1.075925709859149e-06,-1.8847429958945838e-06,0.0008459149331499161,-0.00033359848156712206,-0.0004081442812315029,0.00056990346897881,0.00030366777983870444,-0.0003374634928856639,0.0016262735722328149,-0.18418008089065552,18.154138565063477,-1.1441986560821533,-17.999910354614258,-0.4928489327430725,-2.2296175956726074,0.15231649577617645,0
13,0.06000065803527832,0.18418008089065552,-18.154138565063477,1.1441986560821533,17.999910354614258,0.4928489327430725,2.2296175956726074,-0.15231649577617645,0.0,0.0,0.0,0.0,0.0,0.0,0.0,0.12896251531,0.5141548332719375,0.3205251286317743,0.3461467293267511,0.06098064381566207,0.05640975359865025,-0.1775682059756244,-0.609345278108665,-0.057528626313857856,-0.6665949893332365,-2.5945537190019037,-0.05562317332624342,2.507974951298089,0.8763127334476374,-0.6090851748156966,-0.05753196718556838,-0.666603097082616,-2.5945565370258534,-0.05562143941554,2.507976027223799,0.8763108487046415,-0.0008459149331499161,0.00033359848156712206,0.0004081442812315029,-0.00056990346897881,-0.00030366777983870444,0.0003374634928856639,-0.0016262735722328149,0.0,0.0,0.0,0.0,0.0,0.0,0.0,0.0002601032929684388,-3.3408717105276597e-06,-8.107749379537843e-06,-2.8180239497466175e-06,1.733910703419217e-06,1.075925709859149e-06,-1.8847429958945838e-06,0.0008459149331499161,-0.00033359848156712206,-0.0004081442812315029,0.00056990346897881,0.00030366777983870444,-0.0003374634928856639,0.0016262735722328149,-0.18418008089065552,18.154138565063477,-1.1441986560821533,-17.999910354614258,-0.4928489327430725,-2.2296175956726074,0.15231649577617645,0
14,0.06499934196472168,0.13260537385940552,-18.130334854125977,1.2433807849884033,17.972139358520508,0.4864402413368225,2.2424349784851074,-0.20083944499492645,0.0,0.0,0.0,0.0,0.0,0.0,0.0,0.13826784134444112,0.5189038401085562,0.331424174062084,0.3430630576403025,0.06044808523041319,0.05515155263682452,-0.1790473375679606,-0.6093394630426795,-0.05753029674971312,-0.6666019494826334,-2.5945517701600727,-0.055619193243870005,2.5079760383801295,0.87631847809718,-0.6090851748156966,-0.05753196718556838,-0.666603097082616,-2.5945565370258534,-0.05562143941554,2.507976027223799,0.8763108487046415,0.001345441564912049,-0.00011479666421969802,-0.0012920717563236492,-6.819577276981585e-05,-0.00018304519625700032,-0.00016366356306725106,0.001309658268701303,0.0,0.0,0.0,0.0,0.0,0.0,0.0,0.00025428822698292386,-1.6704358552638299e-06,-1.1475999825982797e-06,-4.766865780769791e-06,-2.2461716699950784e-06,-1.115633052606313e-08,-7.629392538510693e-06,-0.001345441564912049,0.00011479666421969802,0.0012920717563236492,6.819577276981585e-05,0.00018304519625700032,0.00016366356306725106,-0.001309658268701303,-0.13260537385940552,18.130334854125977,-1.2433807849884033,-17.972139358520508,-0.4864402413368225,-2.2424349784851074,0.20083944499492645,0
15,0.06999707221984863,0.13260537385940552,-18.130334854125977,1.2433807849884033,17.972139358520508,0.4864402413368225,2.2424349784851074,-0.20083944499492645,0.0,0.0,0.0,0.0,0.0,0.0,0.0,0.13826784134444112,0.5189038401085562,0.331424174062084,0.3430630576403025,0.06044808523041319,0.05515155263682452,-0.1790473375679606,-0.6093394630426795,-0.05753029674971312,-0.6666019494826334,-2.5945517701600727,-0.055619193243870005,2.5079760383801295,0.87631847809718,-0.6090851748156966,-0.05753196718556838,-0.666603097082616,-2.5945565370258534,-0.05562143941554,2.507976027223799,0.8763108487046415,0.001345441564912049,-0.00011479666421969802,-0.0012920717563236492,-6.819577276981585e-05,-0.00018304519625700032,-0.00016366356306725106,0.001309658268701303,0.0,0.0,0.0,0.0,0.0,0.0,0.0,0.00025428822698292386,-1.6704358552638299e-06,-1.1475999825982797e-06,-4.766865780769791e-06,-2.2461716699950784e-06,-1.115633052606313e-08,-7.629392538510693e-06,-0.001345441564912049,0.00011479666421969802,0.0012920717563236492,6.819577276981585e-05,0.00018304519625700032,0.00016366356306725106,-0.001309658268701303,-0.13260537385940552,18.130334854125977,-1.2433807849884033,-17.972139358520508,-0.4864402413368225,-2.2424349784851074,0.20083944499492645,0
16,0.0749974250793457,0.16037636995315552,-18.154138565063477,1.1680023670196533,17.999910354614258,0.4809470772743225,2.2360262870788574,-0.15231649577617645,0.0,0.0,0.0,0.0,0.0,0.0,0.0,0.13209686674803206,0.517633979883656,0.3261213640603366,0.34556761123053475,0.0609661715778747,0.05499406787729475,-0.17981488555699404,-0.6093436250477199,-0.057528626313857856,-0.6665967392419513,-2.5945537190019037,-0.05562187572370687,2.507973178990504,0.8763130459609649,-0.6090851748156966,-0.05753196718556838,-0.666603097082616,-2.5945565370258534,-0.05562143941554,2.507976027223799,0.8763108487046415,-3.060036226761687e-05,0.0006222750620216048,-0.00034665736526923944,-0.000542769081981144,9.306787980429057e-05,9.918712036839896e-05,-0.0009397558206342035,0.0,0.0,0.0,0.0,0.0,0.0,0.0,0.00025845023202331063,-3.3408717105276597e-06,-6.357840664716896e-06,-2.8180239497466175e-06,4.3630816687345586e-07,2.8482332949941735e-06,-2.19725632344403e-06,3.060036226761687e-05,-0.0006222750620216048,0.00034665736526923944,0.000542769081981144,-9.306787980429057e-05,-9.918712036839896e-05,0.0009397558206342035,-0.16037636995315552,18.154138565063477,-1.1680023670196533,-17.999910354614258,-0.4809470772743225,-2.2360262870788574,0.15231649577617645,0
17,0.07999682426452637,0.16037636995315552,-18.154138565063477,1.1680023670196533,17.999910354614258,0.4809470772743225,2.2360262870788574,-0.15231649577617645,0.0,0.0,0.0,0.0,0.0,0.0,0.0,0.13209686674803206,0.517633979883656,0.3261213640603366,0.34556761123053475,0.0609661715778747,0.05499406787729475,-0.17981488555699404,-0.6093436250477199,-0.057528626313857856,-0.6665967392419513,-2.5945537190019037,-0.05562187572370687,2.507973178990504,0.8763130459609649,-0.6090851748156966,-0.05753196718556838,-0.666603097082616,-2.5945565370258534,-0.05562143941554,2.507976027223799,0.8763108487046415,-3.060036226761687e-05,0.0006222750620216048,-0.00034665736526923944,-0.000542769081981144,9.306787980429057e-05,9.918712036839896e-05,-0.0009397558206342035,0.0,0.0,0.0,0.0,0.0,0.0,0.0,0.00025845023202331063,-3.3408717105276597e-06,-6.357840664716896e-06,-2.8180239497466175e-06,4.3630816687345586e-07,2.8482332949941735e-06,-2.19725632344403e-06,3.060036226761687e-05,-0.0006222750620216048,0.00034665736526923944,0.000542769081981144,-9.306787980429057e-05,-9.918712036839896e-05,0.0009397558206342035,-0.16037636995315552,18.154138565063477,-1.1680023670196533,-17.999910354614258,-0.4809470772743225,-2.2360262870788574,0.15231649577617645,0
18,0.08500003814697266,0.08103066682815552,-18.177942276000977,1.1164276599884033,17.999910354614258,0.4809470772743225,2.2424349784851074,-0.13858358561992645,0.0,0.0,0.0,0.0,0.0,0.0,0.0,0.13293906332921065,0.5204522975641588,0.3242723194661266,0.34856035914029826,0.060900323396119345,0.055203693289693226,-0.17933231926811935,-0.6093351196669688,-0.05752695587800259,-0.6665930404915548,-2.5945537190019037,-0.05561714398348509,2.5079725061573215,0.876311560781389,-0.6090851748156966,-0.05753196718556838,-0.666603097082616,-2.5945565370258534,-0.05562143941554,2.507976027223799,0.8763108487046415,0.0011685814233776664,0.0012779603987352081,-0.0003932535352050399,-0.0002446322873164924,7.2081239969295e-05,5.6416988535804205e-06,-0.002002603298591834,0.0,0.0,0.0,0.0,0.0,0.0,0.0,0.00024994485127227684,-5.01130756579149e-06,-1.005659106123602e-05,-2.8180239497466175e-06,-4.295432054907122e-06,3.521066477496504e-06,-7.120767475665701e-07,-0.0011685814233776664,-0.0012779603987352081,0.0003932535352050399,0.0002446322873164924,-7.2081239969295e-05,-5.6416988535804205e-06,0.002002603298591834,-0.08103066682815552,18.177942276000977,-1.1164276599884033,-17.999910354614258,-0.4809470772743225,-2.2424349784851074,0.13858358561992645,0
19,0.09000015258789062,0.08103066682815552,-18.177942276000977,1.1164276599884033,17.999910354614258,0.4809470772743225,2.2424349784851074,-0.13858358561992645,0.0,0.0,0.0,0.0,0.0,0.0,0.0,0.13293906332921065,0.5204522975641588,0.3242723194661266,0.34856035914029826,0.060900323396119345,0.055203693289693226,-0.17933231926811935,-0.6093351196669688,-0.05752695587800259,-0.6665930404915548,-2.5945537190019037,-0.05561714398348509,2.5079725061573215,0.876311560781389,-0.6090851748156966,-0.05753196718556838,-0.666603097082616,-2.5945565370258534,-0.05562143941554,2.507976027223799,0.8763108487046415,0.0011685814233776664,0.0012779603987352081,-0.0003932535352050399,-0.0002446322873164924,7.2081239969295e-05,5.6416988535804205e-06,-0.002002603298591834,0.0,0.0,0.0,0.0,0.0,0.0,0.0,0.00024994485127227684,-5.01130756579149e-06,-1.005659106123602e-05,-2.8180239497466175e-06,-4.295432054907122e-06,3.521066477496504e-06,-7.120767475665701e-07,-0.0011685814233776664,-0.0012779603987352081,0.0003932535352050399,0.0002446322873164924,-7.2081239969295e-05,-5.6416988535804205e-06,0.002002603298591834,-0.08103066682815552,18.177942276000977,-1.1164276599884033,-17.999910354614258,-0.4809470772743225,-2.2424349784851074,0.13858358561992645,0
20,0.09499883651733398,0.10880166292190552,-18.154138565063477,1.1680023670196533,17.924531936645508,0.4928489327430725,2.2424349784851074,-0.16604940593242645,0.0,0.0,0.0,0.0,0.0,0.0,0.0,0.13508331562065265,0.51685394982685,0.3225538533596314,0.35037652460610974,0.06029350881517175,0.05589213727883624,-0.17955836697450367,-0.6093376305921665,-0.057528626313857856,-0.6665966597690917,-2.5945484292883623,-0.05562308163939386,2.507975764945414,0.876314612539278,-0.6090851748156966,-0.05753196718556838,-0.666603097082616,-2.5945565370258534,-0.05562143941554,2.507976027223799,0.8763108487046415,0.00020836761604874543,-0.00034331207126895213,-0.0017583074515935095,0.001418241888044506,-0.0004069709917938396,-0.00016150639693521927,-0.00015492920747138097,0.0,0.0,0.0,0.0,0.0,0.0,0.0,0.00025245577646992867,-3.3408717105276597e-06,-6.437313524343402e-06,-8.107737491158673e-06,1.6422238538621459e-06,2.62278384788317e-07,-3.7638346365165276e-06,-0.00020836761604874543,0.00034331207126895213,0.0017583074515935095,-0.001418241888044506,0.0004069709917938396,0.00016150639693521927,0.00015492920747138097,-0.10880166292190552,18.154138565063477,-1.1680023670196533,-17.924531936645508,-0.4928489327430725,-2.2424349784851074,0.16604940593242645,0
21,0.10001587867736816,0.10880166292190552,-18.154138565063477,1.1680023670196533,17.924531936645508,0.4928489327430725,2.2424349784851074,-0.16604940593242645,0.0,0.0,0.0,0.0,0.0,0.0,0.0,0.13508331562065265,0.51685394982685,0.3225538533596314,0.35037652460610974,0.06029350881517175,0.05589213727883624,-0.17955836697450367,-0.6093376305921665,-0.057528626313857856,-0.6665966597690917,-2.5945484292883623,-0.05562308163939386,2.507975764945414,0.876314612539278,-0.6090851748156966,-0.05753196718556838,-0.666603097082616,-2.5945565370258534,-0.05562143941554,2.507976027223799,0.8763108487046415,0.00020836761604874543,-0.00034331207126895213,-0.0017583074515935095,0.001418241888044506,-0.0004069709917938396,-0.00016150639693521927,-0.00015492920747138097,0.0,0.0,0.0,0.0,0.0,0.0,0.0,0.00025245577646992867,-3.3408717105276597e-06,-6.437313524343402e-06,-8.107737491158673e-06,1.6422238538621459e-06,2.62278384788317e-07,-3.7638346365165276e-06,-0.00020836761604874543,0.00034331207126895213,0.0017583074515935095,-0.001418241888044506,0.0004069709917938396,0.00016150639693521927,0.00015492920747138097,-0.10880166292190552,18.154138565063477,-1.1680023670196533,-17.924531936645508,-0.4928489327430725,-2.2424349784851074,0.16604940593242645,0
22,0.10500550270080566,0.16037636995315552,-18.130334854125977,1.1918060779571533,17.972139358520508,0.4745383858680725,2.2488436698913574,-0.14590780436992645,0.0,0.0,0.0,0.0,0.0,0.0,0.0,0.1436820261796483,0.5192397027577994,0.33116502433965994,0.34535670699471704,0.05951800215563492,0.05526230624225276,-0.17939137666719251,-0.6093435545953433,-0.05753029674971312,-0.666598330204947,-2.5945517701600727,-0.05562010035619694,2.5079729496370176,0.8763123745835488,-0.6090851748156966,-0.05753196718556838,-0.666603097082616,-2.5945565370258534,-0.05562143941554,2.507976027223799,0.8763108487046415,-0.00034774983660116417,-0.0009248361362874443,-0.001044048100335377,-0.0004560352501746597,0.0006587313925498136,-0.0004870694441082688,-0.0008596206891268739,0.0,0.0,0.0,0.0,0.0,0.0,0.0,0.00025837977964671133,-1.6704358552638299e-06,-4.766877669037939e-06,-4.766865780769791e-06,-1.3390593430612219e-06,3.077586781419228e-06,-1.5258789073380186e-06,0.00034774983660116417,0.0009248361362874443,0.001044048100335377,0.0004560352501746597,-0.0006587313925498136,0.0004870694441082688,0.0008596206891268739,-0.16037636995315552,18.130334854125977,-1.1918060779571533,-17.972139358520508,-0.4745383858680725,-2.2488436698913574,0.14590780436992645,0
23,0.11000251770019531,0.16037636995315552,-18.130334854125977,1.1918060779571533,17.972139358520508,0.4745383858680725,2.2488436698913574,-0.14590780436992645,0.0,0.0,0.0,0.0,0.0,0.0,0.0,0.1436820261796483,0.5192397027577994,0.33116502433965994,0.34535670699471704,0.05951800215563492,0.05526230624225276,-0.17939137666719251,-0.6093435545953433,-0.05753029674971312,-0.666598330204947,-2.5945517701600727,-0.05562010035619694,2.5079729496370176,0.8763123745835488,-0.6090851748156966,-0.05753196718556838,-0.666603097082616,-2.5945565370258534,-0.05562143941554,2.507976027223799,0.8763108487046415,-0.00034774983660116417,-0.0009248361362874443,-0.001044048100335377,-0.0004560352501746597,0.0006587313925498136,-0.0004870694441082688,-0.0008596206891268739,0.0,0.0,0.0,0.0,0.0,0.0,0.0,0.00025837977964671133,-1.6704358552638299e-06,-4.766877669037939e-06,-4.766865780769791e-06,-1.3390593430612219e-06,3.077586781419228e-06,-1.5258789073380186e-06,0.00034774983660116417,0.0009248361362874443,0.001044048100335377,0.0004560352501746597,-0.0006587313925498136,0.0004870694441082688,0.0008596206891268739,-0.16037636995315552,18.130334854125977,-1.1918060779571533,-17.972139358520508,-0.4745383858680725,-2.2488436698913574,0.14590780436992645,0
24,0.11500859260559082,0.16037636995315552,-18.177942276000977,1.1680023670196533,17.948335647583008,0.4864402413368225,2.2424349784851074,-0.18710653483867645,0.0,0.0,0.0,0.0,0.0,0.0,0.0,0.1367669871840473,0.5188194802543045,0.32641298534496604,0.342186674966315,0.06062611248371427,0.054846174015114345,-0.1773339619344233,-0.6093407407800624,-0.05752695587800259,-0.6665966597690917,-2.5945500997242177,-0.055620967796329815,2.5079760165776355,0.8763169391383154,-0.6090851748156966,-0.05753196718556838,-0.666603097082616,-2.5945565370258534,-0.05562143941554,2.507976027223799,0.8763108487046415,-0.0002565780509341061,0.0009146781363120912,-8.616852365631219e-05,0.00024816872026932536,2.8885533132231147e-05,-0.00019970589007306544,0.0009552950713721127,0.0,0.0,0.0,0.0,0.0,0.0,0.0,0.0002555659643658226,-5.01130756579149e-06,-6.437313524343402e-06,-6.4373016357421875e-06,-4.7161921018501474e-07,1.0646163506322637e-08,-6.09043367394424e-06,0.0002565780509341061,-0.0009146781363120912,8.616852365631219e-05,-0.00024816872026932536,-2.8885533132231147e-05,0.00019970589007306544,-0.0009552950713721127,-0.16037636995315552,18.177942276000977,-1.1680023670196533,-17.948335647583008,-0.4864402413368225,-2.2424349784851074,0.18710653483867645,0
25,0.12000513076782227,0.16037636995315552,-18.177942276000977,1.1680023670196533,17.948335647583008,0.4864402413368225,2.2424349784851074,-0.18710653483867645,0.0,0.0,0.0,0.0,0.0,0.0,0.0,0.1367669871840473,0.5188194802543045,0.32641298534496604,0.342186674966315,0.06062611248371427,0.054846174015114345,-0.1773339619344233,-0.6093407407800624,-0.05752695587800259,-0.6665966597690917,-2.5945500997242177,-0.055620967796329815,2.5079760165776355,0.8763169391383154,-0.6090851748156966,-0.05753196718556838,-0.666603097082616,-2.5945565370258534,-0.05562143941554,2.507976027223799,0.8763108487046415,-0.0002565780509341061,0.0009146781363120912,-8.616852365631219e-05,0.00024816872026932536,2.8885533132231147e-05,-0.00019970589007306544,0.0009552950713721127,0.0,0.0,0.0,0.0,0.0,0.0,0.0,0.0002555659643658226,-5.01130756579149e-06,-6.437313524343402e-06,-6.4373016357421875e-06,-4.7161921018501474e-07,1.0646163506322637e-08,-6.09043367394424e-06,0.0002565780509341061,-0.0009146781363120912,8.616852365631219e-05,-0.00024816872026932536,-2.8885533132231147e-05,0.00019970589007306544,-0.0009552950713721127,-0.16037636995315552,18.177942276000977,-1.1680023670196533,-17.948335647583008,-0.4864402413368225,-2.2424349784851074,0.18710653483867645,0
26,0.12509846687316895,0.16037636995315552,-18.177942276000977,1.1680023670196533,17.948335647583008,0.4864402413368225,2.2424349784851074,-0.18710653483867645,0.0,0.0,0.0,0.0,0.0,0.0,0.0,0.1367669871840473,0.5188194802543045,0.32641298534496604,0.342186674966315,0.06062611248371427,0.054846174015114345,-0.1773339619344233,-0.6093407407800624,-0.05752695587800259,-0.6665966597690917,-2.5945500997242177,-0.055620967796329815,2.5079760165776355,0.8763169391383154,-0.6090851748156966,-0.05753196718556838,-0.666603097082616,-2.5945565370258534,-0.05562143941554,2.507976027223799,0.8763108487046415,-0.0002565780509341061,0.0009146781363120912,-8.616852365631219e-05,0.00024816872026932536,2.8885533132231147e-05,-0.00019970589007306544,0.0009552950713721127,0.0,0.0,0.0,0.0,0.0,0.0,0.0,0.0002555659643658226,-5.01130756579149e-06,-6.437313524343402e-06,-6.4373016357421875e-06,-4.7161921018501474e-07,1.0646163506322637e-08,-6.09043367394424e-06,0.0002565780509341061,-0.0009146781363120912,8.616852365631219e-05,-0.00024816872026932536,-2.8885533132231147e-05,0.00019970589007306544,-0.0009552950713721127,-0.16037636995315552,18.177942276000977,-1.1680023670196533,-17.948335647583008,-0.4864402413368225,-2.2424349784851074,0.18710653483867645,0
27,0.13000106811523438,0.13260537385940552,-18.154138565063477,1.1164276599884033,17.924531936645508,0.4864402413368225,2.2424349784851074,-0.15231649577617645,0.0,0.0,0.0,0.0,0.0,0.0,0.0,0.13181105363189954,0.5123010353982114,0.3225821220908872,0.34496898698181727,0.06148816958146083,0.05540274913006797,-0.17703923727648602,-0.6093415813203953,-0.057528626313857856,-0.6665930404914053,-2.5945484292883623,-0.05561812230780054,2.507972598222183,0.8763130866603472,-0.6090851748156966,-0.05753196718556838,-0.666603097082616,-2.5945565370258534,-0.05562143941554,2.507976027223799,0.8763108487046415,9.42510893971366e-05,-6.958824286551473e-05,0.0003958624723649791,0.0011652199290778193,4.361274464236003e-05,-5.486714965127381e-05,-0.000423401454983074,0.0,0.0,0.0,0.0,0.0,0.0,0.0,0.00025640650469871407,-3.3408717105276597e-06,-1.0056591210672039e-05,-8.107737491158673e-06,-3.3171077394589243e-06,3.4290016159843617e-06,-2.2379557057528032e-06,-9.42510893971366e-05,6.958824286551473e-05,-0.0003958624723649791,-0.0011652199290778193,-4.361274464236003e-05,5.486714965127381e-05,0.000423401454983074,-0.13260537385940552,18.154138565063477,-1.1164276599884033,-17.924531936645508,-0.4864402413368225,-2.2424349784851074,0.15231649577617645,0
28,0.13500332832336426,0.13260537385940552,-18.154138565063477,1.1164276599884033,17.924531936645508,0.4864402413368225,2.2424349784851074,-0.15231649577617645,0.0,0.0,0.0,0.0,0.0,0.0,0.0,0.13181105363189954,0.5123010353982114,0.3225821220908872,0.34496898698181727,0.06148816958146083,0.05540274913006797,-0.17703923727648602,-0.6093415813203953,-0.057528626313857856,-0.6665930404914053,-2.5945484292883623,-0.05561812230780054,2.507972598222183,0.8763130866603472,-0.6090851748156966,-0.05753196718556838,-0.666603097082616,-2.5945565370258534,-0.05562143941554,2.507976027223799,0.8763108487046415,9.42510893971366e-05,-6.958824286551473e-05,0.0003958624723649791,0.0011652199290778193,4.361274464236003e-05,-5.486714965127381e-05,-0.000423401454983074,0.0,0.0,0.0,0.0,0.0,0.0,0.0,0.00025640650469871407,-3.3408717105276597e-06,-1.0056591210672039e-05,-8.107737491158673e-06,-3.3171077394589243e-06,3.4290016159843617e-06,-2.2379557057528032e-06,-9.42510893971366e-05,6.958824286551473e-05,-0.0003958624723649791,-0.0011652199290778193,-4.361274464236003e-05,5.486714965127381e-05,0.000423401454983074,-0.13260537385940552,18.154138565063477,-1.1164276599884033,-17.924531936645508,-0.4864402413368225,-2.2424349784851074,0.15231649577617645,0
29,0.1399991512298584,0.16037636995315552,-18.205713272094727,1.1164276599884033,17.972139358520508,0.4809470772743225,2.2488436698913574,-0.20083944499492645,0.0,0.0,0.0,0.0,0.0,0.0,0.0,0.13443685845178166,0.5159278326955858,0.3240538932810711,0.3410052686850428,0.061372379583454144,0.0546885195040904,-0.17522313392786637,-0.6093428865471364,-0.05752500703617146,-0.6665930404914053,-2.5945517701600727,-0.055617579327471287,2.5079750907152527,0.8763184780991738,-0.6090851748156966,-0.05753196718556838,-0.666603097082616,-2.5945565370258534,-0.05562143941554,2.507976027223799,0.8763108487046415,-0.0010934580640292282,0.0012652545497904926,0.00039197369517521557,-2.4480104606519393e-05,0.00022496337486626252,-0.00021285811142832868,0.0007217234022531833,0.0,0.0,0.0,0.0,0.0,0.0,0.0,0.00025771173143984694,-6.9601493969256856e-06,-1.0056591210672039e-05,-4.766865780769791e-06,-3.860088068713408e-06,9.365085462675893e-07,-7.629394532360223e-06,0.0010934580640292282,-0.0012652545497904926,-0.00039197369517521557,2.4480104606519393e-05,-0.00022496337486626252,0.00021285811142832868,-0.0007217234022531833,-0.16037636995315552,18.205713272094727,-1.1164276599884033,-17.972139358520508,-0.4809470772743225,-2.2488436698913574,0.20083944499492645,0
30,0.14499878883361816,0.16037636995315552,-18.205713272094727,1.1164276599884033,17.972139358520508,0.4809470772743225,2.2488436698913574,-0.20083944499492645,0.0,0.0,0.0,0.0,0.0,0.0,0.0,0.13443685845178166,0.5159278326955858,0.3240538932810711,0.3410052686850428,0.061372379583454144,0.0546885195040904,-0.17522313392786637,-0.6093428865471364,-0.05752500703617146,-0.6665930404914053,-2.5945517701600727,-0.055617579327471287,2.5079750907152527,0.8763184780991738,-0.6090851748156966,-0.05753196718556838,-0.666603097082616,-2.5945565370258534,-0.05562143941554,2.507976027223799,0.8763108487046415,-0.0010934580640292282,0.0012652545497904926,0.00039197369517521557,-2.4480104606519393e-05,0.00022496337486626252,-0.00021285811142832868,0.0007217234022531833,0.0,0.0,0.0,0.0,0.0,0.0,0.0,0.00025771173143984694,-6.9601493969256856e-06,-1.0056591210672039e-05,-4.766865780769791e-06,-3.860088068713408e-06,9.365085462675893e-07,-7.629394532360223e-06,0.0010934580640292282,-0.0012652545497904926,-0.00039197369517521557,2.4480104606519393e-05,-0.00022496337486626252,0.00021285811142832868,-0.0007217234022531833,-0.16037636995315552,18.205713272094727,-1.1164276599884033,-17.972139358520508,-0.4809470772743225,-2.2488436698913574,0.20083944499492645,0
31,0.14999842643737793,0.16037636995315552,-18.177942276000977,1.1441986560821533,17.972139358520508,0.4864402413368225,2.2360262870788574,-0.17978231608867645,0.0,0.0,0.0,0.0,0.0,0.0,0.0,0.13756900237063482,0.5095623278255251,0.3251216909562026,0.3459340119041474,0.06116594618234314,0.05542369133283256,-0.17598342457996116,-0.6093428056897707,-0.05752695587800259,-0.6665949893332365,-2.5945517701600727,-0.05562197932337853,2.5079763753461646,0.8763161384181842,-0.6090851748156966,-0.05753196718556838,-0.666603097082616,-2.5945565370258534,-0.05562143941554,2.507976027223799,0.8763108487046415,-0.00028886921506592365,0.0001734922464593875,-0.0003489077307959101,0.0004232627051698171,-7.274090233230818e-05,8.986750627088067e-05,0.0005802510628778757,0.0,0.0,0.0,0.0,0.0,0.0,0.0,0.0002576308740741551,-5.01130756579149e-06,-8.107749379537843e-06,-4.766865780769791e-06,5.399078385273648e-07,-3.481223656010002e-07,-5.289713542744323e-06,0.00028886921506592365,-0.0001734922464593875,0.0003489077307959101,-0.0004232627051698171,7.274090233230818e-05,-8.986750627088067e-05,-0.0005802510628778757,-0.16037636995315552,18.177942276000977,-1.1441986560821533,-17.972139358520508,-0.4864402413368225,-2.2360262870788574,0.17978231608867645,0
32,0.15509414672851562,0.16037636995315552,-18.177942276000977,1.1441986560821533,17.972139358520508,0.4864402413368225,2.2360262870788574,-0.17978231608867645,0.0,0.0,0.0,0.0,0.0,0.0,0.0,0.13756900237063482,0.5095623278255251,0.3251216909562026,0.3459340119041474,0.06116594618234314,0.05542369133283256,-0.17598342457996116,-0.6093428056897707,-0.05752695587800259,-0.6665949893332365,-2.5945517701600727,-0.05562197932337853,2.5079763753461646,0.8763161384181842,-0.6090851748156966,-0.05753196718556838,-0.666603097082616,-2.5945565370258534,-0.05562143941554,2.507976027223799,0.8763108487046415,-0.00028886921506592365,0.0001734922464593875,-0.0003489077307959101,0.0004232627051698171,-7.274090233230818e-05,8.986750627088067e-05,0.0005802510628778757,0.0,0.0,0.0,0.0,0.0,0.0,0.0,0.0002576308740741551,-5.01130756579149e-06,-8.107749379537843e-06,-4.766865780769791e-06,5.399078385273648e-07,-3.481223656010002e-07,-5.289713542744323e-06,0.00028886921506592365,-0.0001734922464593875,0.0003489077307959101,-0.0004232627051698171,7.274090233230818e-05,-8.986750627088067e-05,-0.0005802510628778757,-0.16037636995315552,18.177942276000977,-1.1441986560821533,-17.972139358520508,-0.4864402413368225,-2.2360262870788574,0.17978231608867645,0
33,0.15999984741210938,0.16037636995315552,-18.177942276000977,1.1441986560821533,17.972139358520508,0.4864402413368225,2.2360262870788574,-0.17978231608867645,0.0,0.0,0.0,0.0,0.0,0.0,0.0,0.13756900237063482,0.5095623278255251,0.3251216909562026,0.3459340119041474,0.06116594618234314,0.05542369133283256,-0.17598342457996116,-0.6093428056897707,-0.05752695587800259,-0.6665949893332365,-2.5945517701600727,-0.05562197932337853,2.5079763753461646,0.8763161384181842,-0.6090851748156966,-0.05753196718556838,-0.666603097082616,-2.5945565370258534,-0.05562143941554,2.507976027223799,0.8763108487046415,-0.00028886921506592365,0.0001734922464593875,-0.0003489077307959101,0.0004232627051698171,-7.274090233230818e-05,8.986750627088067e-05,0.0005802510628778757,0.0,0.0,0.0,0.0,0.0,0.0,0.0,0.0002576308740741551,-5.01130756579149e-06,-8.107749379537843e-06,-4.766865780769791e-06,5.399078385273648e-07,-3.481223656010002e-07,-5.289713542744323e-06,0.00028886921506592365,-0.0001734922464593875,0.0003489077307959101,-0.0004232627051698171,7.274090233230818e-05,-8.986750627088067e-05,-0.0005802510628778757,-0.16037636995315552,18.177942276000977,-1.1441986560821533,-17.972139358520508,-0.4864402413368225,-2.2360262870788574,0.17978231608867645,0
34,0.16500186920166016,0.16037636995315552,-18.177942276000977,1.1441986560821533,17.972139358520508,0.4864402413368225,2.2360262870788574,-0.17978231608867645,0.0,0.0,0.0,0.0,0.0,0.0,0.0,0.13756900237063482,0.5095623278255251,0.3251216909562026,0.3459340119041474,0.06116594618234314,0.05542369133283256,-0.17598342457996116,-0.6093428056897707,-0.05752695587800259,-0.6665949893332365,-2.5945517701600727,-0.05562197932337853,2.5079763753461646,0.8763161384181842,-0.6090851748156966,-0.05753196718556838,-0.666603097082616,-2.5945565370258534,-0.05562143941554,2.507976027223799,0.8763108487046415,-0.00028886921506592365,0.0001734922464593875,-0.0003489077307959101,0.0004232627051698171,-7.274090233230818e-05,8.986750627088067e-05,0.0005802510628778757,0.0,0.0,0.0,0.0,0.0,0.0,0.0,0.0002576308740741551,-5.01130756579149e-06,-8.107749379537843e-06,-4.766865780769791e-06,5.399078385273648e-07,-3.481223656010002e-07,-5.289713542744323e-06,0.00028886921506592365,-0.0001734922464593875,0.0003489077307959101,-0.0004232627051698171,7.274090233230818e-05,-8.986750627088067e-05,-0.0005802510628778757,-0.16037636995315552,18.177942276000977,-1.1441986560821533,-17.972139358520508,-0.4864402413368225,-2.2360262870788574,0.17978231608867645,0
35,0.17000341415405273,0.13260537385940552,-18.106531143188477,1.1441986560821533,17.999910354614258,0.4864402413368225,2.2360262870788574,-0.19351522624492645,0.0,0.0,0.0,0.0,0.0,0.0,0.0,0.13918029386828212,0.5128125928335682,0.32075796004578094,0.3441137526705995,0.06088984666108654,0.05444675527923112,-0.17610297736661523,-0.6093395072260798,-0.05753196718556838,-0.6665949893332365,-2.5945537190019037,-0.055621085926673634,2.5079764799471596,0.8763176642970906,-0.6090851748156966,-0.05753196718556838,-0.666603097082616,-2.5945565370258534,-0.05562143941554,2.507976027223799,0.8763108487046415,0.0005277780790268136,-0.0009003749286440883,-0.00031585370282597,-0.0007100209857605047,-9.86091173176885e-05,0.0002189224811157839,0.00031147521500477556,0.0,0.0,0.0,0.0,0.0,0.0,0.0,0.00025433241038319565,0.0,-8.107749379537843e-06,-2.8180239497466175e-06,-3.534888663656033e-07,-4.5272336057777807e-07,-6.815592449083141e-06,-0.0005277780790268136,0.0009003749286440883,0.00031585370282597,0.0007100209857605047,9.86091173176885e-05,-0.0002189224811157839,-0.00031147521500477556,-0.13260537385940552,18.106531143188477,-1.1441986560821533,-17.999910354614258,-0.4864402413368225,-2.2360262870788574,0.19351522624492645,0
36,0.1750338077545166,0.13260537385940552,-18.106531143188477,1.1441986560821533,17.999910354614258,0.4864402413368225,2.2360262870788574,-0.19351522624492645,0.0,0.0,0.0,0.0,0.0,0.0,0.0,0.13918029386828212,0.5128125928335682,0.32075796004578094,0.3441137526705995,0.06088984666108654,0.05444675527923112,-0.17610297736661523,-0.6093395072260798,-0.05753196718556838,-0.6665949893332365,-2.5945537190019037,-0.055621085926673634,2.5079764799471596,0.8763176642970906,-0.6090851748156966,-0.05753196718556838,-0.666603097082616,-2.5945565370258534,-0.05562143941554,2.507976027223799,0.8763108487046415,0.0005277780790268136,-0.0009003749286440883,-0.00031585370282597,-0.0007100209857605047,-9.86091173176885e-05,0.0002189224811157839,0.00031147521500477556,0.0,0.0,0.0,0.0,0.0,0.0,0.0,0.00025433241038319565,0.0,-8.107749379537843e-06,-2.8180239497466175e-06,-3.534888663656033e-07,-4.5272336057777807e-07,-6.815592449083141e-06,-0.0005277780790268136,0.0009003749286440883,0.00031585370282597,0.0007100209857605047,9.86091173176885e-05,-0.0002189224811157839,-0.00031147521500477556,-0.13260537385940552,18.106531143188477,-1.1441986560821533,-17.999910354614258,-0.4864402413368225,-2.2360262870788574,0.19351522624492645,0
37,0.18000006675720215,0.16037636995315552,-18.154138565063477,1.1680023670196533,17.972139358520508,0.4809470772743225,2.2296175956726074,-0.21457235515117645,0.0,0.0,0.0,0.0,0.0,0.0,0.0,0.14392072318812815,0.5119692243569479,0.3220032308484679,0.3446339658297914,0.06049650041679557,0.05437040619381114,-0.17634191911852842,-0.6093406966529662,-0.057528626313857856,-0.6665966597690917,-2.5945517701600727,-0.055618537180566745,2.5079749508654343,0.8763199603715728,-0.6090851748156966,-0.05753196718556838,-0.666603097082616,-2.5945565370258534,-0.05562143941554,2.507976027223799,0.8763108487046415,-0.00025721372488666134,0.0004758405587373024,-0.000147673920601385,-0.00028921555700989215,0.00023129192201823697,0.000263481495206971,0.0012649994833664308,0.0,0.0,0.0,0.0,0.0,0.0,0.0,0.0002555218372696233,-3.3408717105276597e-06,-6.437313524343402e-06,-4.766865780769791e-06,-2.902234973255202e-06,1.0763583646600239e-06,-9.11166693129406e-06,0.00025721372488666134,-0.0004758405587373024,0.000147673920601385,0.00028921555700989215,-0.00023129192201823697,-0.000263481495206971,-0.0012649994833664308,-0.16037636995315552,18.154138565063477,-1.1680023670196533,-17.972139358520508,-0.4809470772743225,-2.2296175956726074,0.21457235515117645,0
38,0.18500041961669922,0.16037636995315552,-18.154138565063477,1.1680023670196533,17.972139358520508,0.4809470772743225,2.2296175956726074,-0.21457235515117645,0.0,0.0,0.0,0.0,0.0,0.0,0.0,0.14392072318812815,0.5119692243569479,0.3220032308484679,0.3446339658297914,0.06049650041679557,0.05437040619381114,-0.17634191911852842,-0.6093406966529662,-0.057528626313857856,-0.6665966597690917,-2.5945517701600727,-0.055618537180566745,2.5079749508654343,0.8763199603715728,-0.6090851748156966,-0.05753196718556838,-0.666603097082616,-2.5945565370258534,-0.05562143941554,2.507976027223799,0.8763108487046415,-0.00025721372488666134,0.0004758405587373024,-0.000147673920601385,-0.00028921555700989215,0.00023129192201823697,0.000263481495206971,0.0012649994833664308,0.0,0.0,0.0,0.0,0.0,0.0,0.0,0.0002555218372696233,-3.3408717105276597e-06,-6.437313524343402e-06,-4.766865780769791e-06,-2.902234973255202e-06,1.0763583646600239e-06,-9.11166693129406e-06,0.00025721372488666134,-0.0004758405587373024,0.000147673920601385,0.00028921555700989215,-0.00023129192201823697,-0.000263481495206971,-0.0012649994833664308,-0.16037636995315552,18.154138565063477,-1.1680023670196533,-17.972139358520508,-0.4809470772743225,-2.2296175956726074,0.21457235515117645,0
39,0.1900022029876709,0.16037636995315552,-18.177942276000977,1.1680023670196533,17.999910354614258,0.4864402413368225,2.2424349784851074,-0.17337362468242645,0.0,0.0,0.0,0.0,0.0,0.0,0.0,0.14252783235689534,0.5065748431046866,0.32111456679283995,0.3498799268914207,0.06102384722359512,0.0545327667369453,-0.17689710127965583,-0.6093425735817732,-0.05752695587800259,-0.6665966597690917,-2.5945537190019037,-0.05562132248961767,2.507973884057157,0.8763154132591631,-0.6090851748156966,-0.05753196718556838,-0.666603097082616,-2.5945565370258534,-0.05562143941554,2.507976027223799,0.8763108487046415,-0.00017107618926848436,0.00011398471755755953,-0.00048737243350926247,-0.0006014967765394842,7.370312095464041e-05,-7.899183038223834e-05,-0.0005375894623400278,0.0,0.0,0.0,0.0,0.0,0.0,0.0,0.00025739876607666634,-5.01130756579149e-06,-6.437313524343402e-06,-2.8180239497466175e-06,-1.1692592233325527e-07,2.1431666419324813e-06,-4.56455452158e-06,0.00017107618926848436,-0.00011398471755755953,0.00048737243350926247,0.0006014967765394842,-7.370312095464041e-05,7.899183038223834e-05,0.0005375894623400278,-0.16037636995315552,18.177942276000977,-1.1680023670196533,-17.999910354614258,-0.4864402413368225,-2.2424349784851074,0.17337362468242645,0
40,0.19499659538269043,0.16037636995315552,-18.177942276000977,1.1680023670196533,17.999910354614258,0.4864402413368225,2.2424349784851074,-0.17337362468242645,0.0,0.0,0.0,0.0,0.0,0.0,0.0,0.14252783235689534,0.5065748431046866,0.32111456679283995,0.3498799268914207,0.06102384722359512,0.0545327667369453,-0.17689710127965583,-0.6093425735817732,-0.05752695587800259,-0.6665966597690917,-2.5945537190019037,-0.05562132248961767,2.507973884057157,0.8763154132591631,-0.6090851748156966,-0.05753196718556838,-0.666603097082616,-2.5945565370258534,-0.05562143941554,2.507976027223799,0.8763108487046415,-0.00017107618926848436,0.00011398471755755953,-0.00048737243350926247,-0.0006014967765394842,7.370312095464041e-05,-7.899183038223834e-05,-0.0005375894623400278,0.0,0.0,0.0,0.0,0.0,0.0,0.0,0.00025739876607666634,-5.01130756579149e-06,-6.437313524343402e-06,-2.8180239497466175e-06,-1.1692592233325527e-07,2.1431666419324813e-06,-4.56455452158e-06,0.00017107618926848436,-0.00011398471755755953,0.00048737243350926247,0.0006014967765394842,-7.370312095464041e-05,7.899183038223834e-05,0.0005375894623400278,-0.16037636995315552,18.177942276000977,-1.1680023670196533,-17.999910354614258,-0.4864402413368225,-2.2424349784851074,0.17337362468242645,0
41,0.20000648498535156,0.10880166292190552,-18.177942276000977,1.1441986560821533,17.948335647583008,0.4809470772743225,2.2552523612976074,-0.20083944499492645,0.0,0.0,0.0,0.0,0.0,0.0,0.0,0.13492409371554973,0.5112749108465666,0.3172562776934161,0.3450862179754103,0.061598386460291706,0.053738077694526466,-0.17785327164266077,-0.6093399902962813,-0.05752695587800259,-0.6665949893332365,-2.5945500997242177,-0.055617479067224695,2.5079710819398957,0.8763184775607481,-0.6090851748156966,-0.05753196718556838,-0.666603097082616,-2.5945565370258534,-0.05562143941554,2.507976027223799,0.8763108487046415,1.9056611432982175e-05,0.00026387721302367664,-0.0003993086535322693,0.0005144088030121615,0.00014337322322437073,-0.000617867998218099,0.0008989454691194702,0.0,0.0,0.0,0.0,0.0,0.0,0.0,0.0002548154805847025,-5.01130756579149e-06,-8.107749379537843e-06,-6.4373016357421875e-06,-3.960348315304452e-06,4.945283903268205e-06,-7.628856106611792e-06,-1.9056611432982175e-05,-0.00026387721302367664,0.0003993086535322693,-0.0005144088030121615,-0.00014337322322437073,0.000617867998218099,-0.0008989454691194702,-0.10880166292190552,18.177942276000977,-1.1441986560821533,-17.948335647583008,-0.4809470772743225,-2.2552523612976074,0.20083944499492645,0
42,0.20499944686889648,0.10880166292190552,-18.177942276000977,1.1441986560821533,17.948335647583008,0.4809470772743225,2.2552523612976074,-0.20083944499492645,0.0,0.0,0.0,0.0,0.0,0.0,0.0,0.13492409371554973,0.5112749108465666,0.3172562776934161,0.3450862179754103,0.061598386460291706,0.053738077694526466,-0.17785327164266077,-0.6093399902962813,-0.05752695587800259,-0.6665949893332365,-2.5945500997242177,-0.055617479067224695,2.5079710819398957,0.8763184775607481,-0.6090851748156966,-0.05753196718556838,-0.666603097082616,-2.5945565370258534,-0.05562143941554,2.507976027223799,0.8763108487046415,1.9056611432982175e-05,0.00026387721302367664,-0.0003993086535322693,0.0005144088030121615,0.00014337322322437073,-0.000617867998218099,0.0008989454691194702,0.0,0.0,0.0,0.0,0.0,0.0,0.0,0.0002548154805847025,-5.01130756579149e-06,-8.107749379537843e-06,-6.4373016357421875e-06,-3.960348315304452e-06,4.945283903268205e-06,-7.628856106611792e-06,-1.9056611432982175e-05,-0.00026387721302367664,0.0003993086535322693,-0.0005144088030121615,-0.00014337322322437073,0.000617867998218099,-0.0008989454691194702,-0.10880166292190552,18.177942276000977,-1.1441986560821533,-17.948335647583008,-0.4809470772743225,-2.2552523612976074,0.20083944499492645,0
43,0.20999741554260254,0.08103066682815552,-18.177942276000977,1.1441986560821533,17.972139358520508,0.4983420968055725,2.2360262870788574,-0.21457235515117645,0.0,0.0,0.0,0.0,0.0,0.0,0.0,0.1397633743356418,0.5096622043048008,0.324829993391031,0.3459234377648125,0.060833550681518196,0.05532137141763658,-0.17673289542834728,-0.6093356452464829,-0.05752695587800259,-0.6665949893332365,-2.5945517701600727,-0.05562227496982961,2.507973178916581,0.8763200039780791,-0.6090851748156966,-0.05753196718556838,-0.666603097082616,-2.5945565370258534,-0.05562143941554,2.507976027223799,0.8763108487046415,0.001212738720817224,0.00022505152193221173,-0.00039856904620747734,0.00024741809904159226,-0.0005183641137674818,0.00010149314187917987,0.001896570793519908,0.0,0.0,0.0,0.0,0.0,0.0,0.0,0.00025047043078629816,-5.01130756579149e-06,-8.107749379537843e-06,-4.766865780769791e-06,8.355542896118506e-07,2.848307218084045e-06,-9.155273437588818e-06,-0.001212738720817224,-0.00022505152193221173,0.00039856904620747734,-0.00024741809904159226,0.0005183641137674818,-0.00010149314187917987,-0.001896570793519908,-0.08103066682815552,18.177942276000977,-1.1441986560821533,-17.972139358520508,-0.4983420968055725,-2.2360262870788574,0.21457235515117645,0
44,0.21500468254089355,0.08103066682815552,-18.177942276000977,1.1441986560821533,17.972139358520508,0.4983420968055725,2.2360262870788574,-0.21457235515117645,0.0,0.0,0.0,0.0,0.0,0.0,0.0,0.1397633743356418,0.5096622043048008,0.324829993391031,0.3459234377648125,0.060833550681518196,0.05532137141763658,-0.17673289542834728,-0.6093356452464829,-0.05752695587800259,-0.6665949893332365,-2.5945517701600727,-0.05562227496982961,2.507973178916581,0.8763200039780791,-0.6090851748156966,-0.05753196718556838,-0.666603097082616,-2.5945565370258534,-0.05562143941554,2.507976027223799,0.8763108487046415,0.001212738720817224,0.00022505152193221173,-0.00039856904620747734,0.00024741809904159226,-0.0005183641137674818,0.00010149314187917987,0.001896570793519908,0.0,0.0,0.0,0.0,0.0,0.0,0.0,0.00025047043078629816,-5.01130756579149e-06,-8.107749379537843e-06,-4.766865780769791e-06,8.355542896118506e-07,2.848307218084045e-06,-9.155273437588818e-06,-0.001212738720817224,-0.00022505152193221173,0.00039856904620747734,-0.00024741809904159226,0.0005183641137674818,-0.00010149314187917987,-0.001896570793519908,-0.08103066682815552,18.177942276000977,-1.1441986560821533,-17.972139358520508,-0.4983420968055725,-2.2360262870788574,0.21457235515117645,0
45,0.2200150489807129,0.13260537385940552,-18.229516983032227,1.1164276599884033,17.972139358520508,0.4809470772743225,2.2360262870788574,-0.17337362468242645,0.0,0.0,0.0,0.0,0.0,0.0,0.0,0.14369237922518777,0.5131997394003144,0.3278170155984091,0.3414581857990119,0.06055546918191871,0.05489614270158567,-0.1763113244739285,-0.6093387465015698,-0.057523336600316194,-0.6665930404914053,-2.5945517701600727,-0.05562047129639873,2.507974295727613,0.8763154262875262,-0.6090851748156966,-0.05753196718556838,-0.666603097082616,-2.5945565370258534,-0.05562143941554,2.507976027223799,0.8763108487046415,0.00016159466451648682,0.002005268151533918,0.000505774016299804,-0.00011524293388192923,7.789935499780332e-05,0.00011832736065795533,-0.0008911369782480346,0.0,0.0,0.0,0.0,0.0,0.0,0.0,0.00025357168587325507,-8.630585252189515e-06,-1.0056591210672039e-05,-4.766865780769791e-06,-9.681191412702628e-07,1.7314961859860034e-06,-4.577582884746079e-06,-0.00016159466451648682,-0.002005268151533918,-0.000505774016299804,0.00011524293388192923,-7.789935499780332e-05,-0.00011832736065795533,0.0008911369782480346,-0.13260537385940552,18.229516983032227,-1.1164276599884033,-17.972139358520508,-0.4809470772743225,-2.2360262870788574,0.17337362468242645,0
46,0.22503113746643066,0.13260537385940552,-18.229516983032227,1.1164276599884033,17.972139358520508,0.4809470772743225,2.2360262870788574,-0.17337362468242645,0.0,0.0,0.0,0.0,0.0,0.0,0.0,0.14369237922518777,0.5131997394003144,0.3278170155984091,0.3414581857990119,0.06055546918191871,0.05489614270158567,-0.1763113244739285,-0.6093387465015698,-0.057523336600316194,-0.6665930404914053,-2.5945517701600727,-0.05562047129639873,2.507974295727613,0.8763154262875262,-0.6090851748156966,-0.05753196718556838,-0.666603097082616,-2.5945565370258534,-0.05562143941554,2.507976027223799,0.8763108487046415,0.00016159466451648682,0.002005268151533918,0.000505774016299804,-0.00011524293388192923,7.789935499780332e-05,0.00011832736065795533,-0.0008911369782480346,0.0,0.0,0.0,0.0,0.0,0.0,0.0,0.00025357168587325507,-8.630585252189515e-06,-1.0056591210672039e-05,-4.766865780769791e-06,-9.681191412702628e-07,1.7314961859860034e-06,-4.577582884746079e-06,-0.00016159466451648682,-0.002005268151533918,-0.000505774016299804,0.00011524293388192923,-7.789935499780332e-05,-0.00011832736065795533,0.0008911369782480346,-0.13260537385940552,18.229516983032227,-1.1164276599884033,-17.972139358520508,-0.4809470772743225,-2.2360262870788574,0.17337362468242645,0
47,0.23000431060791016,0.13260537385940552,-18.130334854125977,1.1441986560821533,17.999910354614258,0.4864402413368225,2.2360262870788574,-0.20083944499492645,0.0,0.0,0.0,0.0,0.0,0.0,0.0,0.13603385787821012,0.5085232998313246,0.32114209917713393,0.3464483834843198,0.06054904987878253,0.055360419694274396,-0.17754699435819687,-0.6093384709781964,-0.05753029674971312,-0.6665949893332365,-2.5945537190019037,-0.055621068018628254,2.50797647993542,0.8763180855867719,-0.6090851748156966,-0.05753196718556838,-0.666603097082616,-2.5945565370258534,-0.05562143941554,2.507976027223799,0.8763108487046415,0.00018977301992559122,-0.00050868441460465,-0.00015794749008741292,-0.0004993456370727756,-0.0001914383407337663,0.000105988573922672,0.0007160391178613084,0.0,0.0,0.0,0.0,0.0,0.0,0.0,0.00025329616249980536,-1.6704358552638299e-06,-8.107749379537843e-06,-2.8180239497466175e-06,-3.7139691174553624e-07,-4.527116210795157e-07,-7.236882130445821e-06,-0.00018977301992559122,0.00050868441460465,0.00015794749008741292,0.0004993456370727756,0.0001914383407337663,-0.000105988573922672,-0.0007160391178613084,-0.13260537385940552,18.130334854125977,-1.1441986560821533,-17.999910354614258,-0.4864402413368225,-2.2360262870788574,0.20083944499492645,0
48,0.23499560356140137,0.13260537385940552,-18.130334854125977,1.1441986560821533,17.999910354614258,0.4864402413368225,2.2360262870788574,-0.20083944499492645,0.0,0.0,0.0,0.0,0.0,0.0,0.0,0.13603385787821012,0.5085232998313246,0.32114209917713393,0.3464483834843198,0.06054904987878253,0.055360419694274396,-0.17754699435819687,-0.6093384709781964,-0.05753029674971312,-0.6665949893332365,-2.5945537190019037,-0.055621068018628254,2.50797647993542,0.8763180855867719,-0.6090851748156966,-0.05753196718556838,-0.666603097082616,-2.5945565370258534,-0.05562143941554,2.507976027223799,0.8763108487046415,0.00018977301992559122,-0.00050868441460465,-0.00015794749008741292,-0.0004993456370727756,-0.0001914383407337663,0.000105988573922672,0.0007160391178613084,0.0,0.0,0.0,0.0,0.0,0.0,0.0,0.00025329616249980536,-1.6704358552638299e-06,-8.107749379537843e-06,-2.8180239497466175e-06,-3.7139691174553624e-07,-4.527116210795157e-07,-7.236882130445821e-06,-0.00018977301992559122,0.00050868441460465,0.00015794749008741292,0.0004993456370727756,0.0001914383407337663,-0.000105988573922672,-0.0007160391178613084,-0.13260537385940552,18.130334854125977,-1.1441986560821533,-17.999910354614258,-0.4864402413368225,-2.2360262870788574,0.20083944499492645,0
49,0.24001097679138184,0.18418008089065552,-18.154138565063477,1.1680023670196533,17.948335647583008,0.4864402413368225,2.2360262870788574,-0.15231649577617645,0.0,0.0,0.0,0.0,0.0,0.0,0.0,0.14127572981892703,0.5145796027167383,0.32655491632855954,0.3444484800013493,0.06006509205104234,0.054785915980399585,-0.17790537336470086,-0.6093421197250588,-0.057528626313857856,-0.6665966597690917,-2.5945500997242177,-0.05562128177253615,2.5079732188270203,0.8763130864966505,-0.6090851748156966,-0.05753196718556838,-0.666603097082616,-2.5945565370258534,-0.05562143941554,2.507976027223799,0.8763108487046415,-0.0007085728861880608,0.0006769395782610231,7.02841599571589e-06,0.0007472529291210171,-0.00011303964549892322,5.1354946219734933e-05,-0.0009065974364755167,0.0,0.0,0.0,0.0,0.0,0.0,0.0,0.00025694490936223335,-3.3408717105276597e-06,-6.437313524343402e-06,-6.4373016357421875e-06,-1.5764300385218144e-07,2.808396778686273e-06,-2.2377920090299597e-06,0.0007085728861880608,-0.0006769395782610231,-7.02841599571589e-06,-0.0007472529291210171,0.00011303964549892322,-5.1354946219734933e-05,0.0009065974364755167,-0.18418008089065552,18.154138565063477,-1.1680023670196533,-17.948335647583008,-0.4864402413368225,-2.2360262870788574,0.15231649577617645,0
50,0.2449939250946045,0.18418008089065552,-18.154138565063477,1.1680023670196533,17.948335647583008,0.4864402413368225,2.2360262870788574,-0.15231649577617645,0.0,0.0,0.0,0.0,0.0,0.0,0.0,0.14127572981892703,0.5145796027167383,0.32655491632855954,0.3444484800013493,0.06006509205104234,0.054785915980399585,-0.17790537336470086,-0.6093421197250588,-0.057528626313857856,-0.6665966597690917,-2.5945500997242177,-0.05562128177253615,2.5079732188270203,0.8763130864966505,-0.6090851748156966,-0.05753196718556838,-0.666603097082616,-2.5945565370258534,-0.05562143941554,2.507976027223799,0.8763108487046415,-0.0007085728861880608,0.0006769395782610231,7.02841599571589e-06,0.0007472529291210171,-0.00011303964549892322,5.1354946219734933e-05,-0.0009065974364755167,0.0,0.0,0.0,0.0,0.0,0.0,0.0,0.00025694490936223335,-3.3408717105276597e-06,-6.437313524343402e-06,-6.4373016357421875e-06,-1.5764300385218144e-07,2.808396778686273e-06,-2.2377920090299597e-06,0.0007085728861880608,-0.0006769395782610231,-7.02841599571589e-06,-0.0007472529291210171,0.00011303964549892322,-5.1354946219734933e-05,0.0009065974364755167,-0.18418008089065552,18.154138565063477,-1.1680023670196533,-17.948335647583008,-0.4864402413368225,-2.2360262870788574,0.15231649577617645,0
51,0.24999690055847168,0.08103066682815552,-18.154138565063477,1.1164276599884033,17.972139358520508,0.4864402413368225,2.2360262870788574,-0.20083944499492645,0.0,0.0,0.0,0.0,0.0,0.0,0.0,0.13027828459510615,0.5102142580568391,0.3172607142695343,0.3491392845744035,0.06093154113373793,0.05517275825518454,-0.17697370612806346,-0.6093380649899724,-0.057528626313857856,-0.6665930404914053,-2.5945517701600727,-0.05561917522605875,2.5079732188086115,0.8763184778838322,-0.6090851748156966,-0.05753196718556838,-0.666603097082616,-2.5945565370258534,-0.05562143941554,2.507976027223799,0.8763108487046415,0.0012529606695316502,0.00016844149874949022,0.0001556140560815015,0.00029540908968921504,-0.0002076320302443176,3.667449345660958e-05,0.0004818664967680103,0.0,0.0,0.0,0.0,0.0,0.0,0.0,0.0002528901742758771,-3.3408717105276597e-06,-1.0056591210672039e-05,-4.766865780769791e-06,-2.2641894812519547e-06,2.808415187516289e-06,-7.629179190726809e-06,-0.0012529606695316502,-0.00016844149874949022,-0.0001556140560815015,-0.00029540908968921504,0.0002076320302443176,-3.667449345660958e-05,-0.0004818664967680103,-0.08103066682815552,18.154138565063477,-1.1164276599884033,-17.972139358520508,-0.4864402413368225,-2.2360262870788574,0.20083944499492645,0
52,0.25499749183654785,0.08103066682815552,-18.154138565063477,1.1164276599884033,17.972139358520508,0.4864402413368225,2.2360262870788574,-0.20083944499492645,0.0,0.0,0.0,0.0,0.0,0.0,0.0,0.13027828459510615,0.5102142580568391,0.3172607142695343,0.3491392845744035,0.06093154113373793,0.05517275825518454,-0.17697370612806346,-0.6093380649899724,-0.057528626313857856,-0.6665930404914053,-2.5945517701600727,-0.05561917522605875,2.5079732188086115,0.8763184778838322,-0.6090851748156966,-0.05753196718556838,-0.666603097082616,-2.5945565370258534,-0.05562143941554,2.507976027223799,0.8763108487046415,0.0012529606695316502,0.00016844149874949022,0.0001556140560815015,0.00029540908968921504,-0.0002076320302443176,3.667449345660958e-05,0.0004818664967680103,0.0,0.0,0.0,0.0,0.0,0.0,0.0,0.0002528901742758771,-3.3408717105276597e-06,-1.0056591210672039e-05,-4.766865780769791e-06,-2.2641894812519547e-06,2.808415187516289e-06,-7.629179190726809e-06,-0.0012529606695316502,-0.00016844149874949022,-0.0001556140560815015,-0.00029540908968921504,0.0002076320302443176,-3.667449345660958e-05,-0.0004818664967680103,-0.08103066682815552,18.154138565063477,-1.1164276599884033,-17.972139358520508,-0.4864402413368225,-2.2360262870788574,0.20083944499492645,0
53,0.26000547409057617,0.13260537385940552,-18.177942276000977,1.0926239490509033,17.999910354614258,0.4745383858680725,2.2360262870788574,-0.21457235515117645,0.0,0.0,0.0,0.0,0.0,0.0,0.0,0.13345298736437528,0.5165611438271721,0.324210169422077,0.34394373623534324,0.060389452547510096,0.053772427545533,-0.17679095177563847,-0.6093414466301663,-0.05752695587800259,-0.66659137005555,-2.5945537190019037,-0.0556210253990127,2.507973532613959,0.8763168250636909,-0.6090851748156966,-0.05753196718556838,-0.666603097082616,-2.5945565370258534,-0.05562143941554,2.507976027223799,0.8763108487046415,-0.00021341678900970774,0.0007798942474252993,0.0009656783994883823,-0.0008363949413311033,0.0003974265155329287,0.0001451008392635258,0.0014418077157022466,0.0,0.0,0.0,0.0,0.0,0.0,0.0,0.000256271814469744,-5.01130756579149e-06,-1.1727027065977502e-05,-2.8180239497466175e-06,-4.14016527297556e-07,2.4946098400313588e-06,-5.976359049419955e-06,0.00021341678900970774,-0.0007798942474252993,-0.0009656783994883823,0.0008363949413311033,-0.0003974265155329287,-0.0001451008392635258,-0.0014418077157022466,-0.13260537385940552,18.177942276000977,-1.0926239490509033,-17.999910354614258,-0.4745383858680725,-2.2360262870788574,0.21457235515117645,0
54,0.26500701904296875,0.13260537385940552,-18.177942276000977,1.0926239490509033,17.999910354614258,0.4745383858680725,2.2360262870788574,-0.21457235515117645,0.0,0.0,0.0,0.0,0.0,0.0,0.0,0.13345298736437528,0.5165611438271721,0.324210169422077,0.34394373623534324,0.060389452547510096,0.053772427545533,-0.17679095177563847,-0.6093414466301663,-0.05752695587800259,-0.66659137005555,-2.5945537190019037,-0.0556210253990127,2.507973532613959,0.8763168250636909,-0.6090851748156966,-0.05753196718556838,-0.666603097082616,-2.5945565370258534,-0.05562143941554,2.507976027223799,0.8763108487046415,-0.00021341678900970774,0.0007798942474252993,0.0009656783994883823,-0.0008363949413311033,0.0003974265155329287,0.0001451008392635258,0.0014418077157022466,0.0,0.0,0.0,0.0,0.0,0.0,0.0,0.000256271814469744,-5.01130756579149e-06,-1.1727027065977502e-05,-2.8180239497466175e-06,-4.14016527297556e-07,2.4946098400313588e-06,-5.976359049419955e-06,0.00021341678900970774,-0.0007798942474252993,-0.0009656783994883823,0.0008363949413311033,-0.0003974265155329287,-0.0001451008392635258,-0.0014418077157022466,-0.13260537385940552,18.177942276000977,-1.0926239490509033,-17.999910354614258,-0.4745383858680725,-2.2360262870788574,0.21457235515117645,0
55,0.2699921131134033,0.13260537385940552,-18.177942276000977,1.0926239490509033,17.999910354614258,0.4745383858680725,2.2360262870788574,-0.21457235515117645,0.0,0.0,0.0,0.0,0.0,0.0,0.0,0.13345298736437528,0.5165611438271721,0.324210169422077,0.34394373623534324,0.060389452547510096,0.053772427545533,-0.17679095177563847,-0.6093414466301663,-0.05752695587800259,-0.66659137005555,-2.5945537190019037,-0.0556210253990127,2.507973532613959,0.8763168250636909,-0.6090851748156966,-0.05753196718556838,-0.666603097082616,-2.5945565370258534,-0.05562143941554,2.507976027223799,0.8763108487046415,-0.00021341678900970774,0.0007798942474252993,0.0009656783994883823,-0.0008363949413311033,0.0003974265155329287,0.0001451008392635258,0.0014418077157022466,0.0,0.0,0.0,0.0,0.0,0.0,0.0,0.000256271814469744,-5.01130756579149e-06,-1.1727027065977502e-05,-2.8180239497466175e-06,-4.14016527297556e-07,2.4946098400313588e-06,-5.976359049419955e-06,0.00021341678900970774,-0.0007798942474252993,-0.0009656783994883823,0.0008363949413311033,-0.0003974265155329287,-0.0001451008392635258,-0.0014418077157022466,-0.13260537385940552,18.177942276000977,-1.0926239490509033,-17.999910354614258,-0.4745383858680725,-2.2360262870788574,0.21457235515117645,0
56,0.2749967575073242,0.13260537385940552,-18.177942276000977,1.0926239490509033,17.999910354614258,0.4745383858680725,2.2360262870788574,-0.21457235515117645,0.0,0.0,0.0,0.0,0.0,0.0,0.0,0.13345298736437528,0.5165611438271721,0.324210169422077,0.34394373623534324,0.060389452547510096,0.053772427545533,-0.17679095177563847,-0.6093414466301663,-0.05752695587800259,-0.66659137005555,-2.5945537190019037,-0.0556210253990127,2.507973532613959,0.8763168250636909,-0.6090851748156966,-0.05753196718556838,-0.666603097082616,-2.5945565370258534,-0.05562143941554,2.507976027223799,0.8763108487046415,-0.00021341678900970774,0.0007798942474252993,0.0009656783994883823,-0.0008363949413311033,0.0003974265155329287,0.0001451008392635258,0.0014418077157022466,0.0,0.0,0.0,0.0,0.0,0.0,0.0,0.000256271814469744,-5.01130756579149e-06,-1.1727027065977502e-05,-2.8180239497466175e-06,-4.14016527297556e-07,2.4946098400313588e-06,-5.976359049419955e-06,0.00021341678900970774,-0.0007798942474252993,-0.0009656783994883823,0.0008363949413311033,-0.0003974265155329287,-0.0001451008392635258,-0.0014418077157022466,-0.13260537385940552,18.177942276000977,-1.0926239490509033,-17.999910354614258,-0.4745383858680725,-2.2360262870788574,0.21457235515117645,0
57,0.2800137996673584,0.13260537385940552,-18.106531143188477,1.1680023670196533,17.948335647583008,0.4864402413368225,2.2360262870788574,-0.17337362468242645,0.0,0.0,0.0,0.0,0.0,0.0,0.0,0.1349425087659937,0.5140529888222507,0.3262204759250615,0.34445168959124206,0.05995534139276675,0.05430496060696562,-0.17717912275866146,-0.6093413674830139,-0.05753196718556838,-0.6665966685994094,-2.5945500997242177,-0.05561820765995249,2.507973178972339,0.8763154263234164,-0.6090851748156966,-0.05753196718556838,-0.666603097082616,-2.5945565370258534,-0.05562143941554,2.507976027223799,0.8763108487046415,0.0004612314652844602,-0.0013972570068035784,-0.0010975201064118171,0.0005221176289956677,-6.878659008796966e-05,0.00010852903309445,-0.0007914150130189202,0.0,0.0,0.0,0.0,0.0,0.0,0.0,0.00025619266731735646,0.0,-6.428483206644131e-06,-6.4373016357421875e-06,-3.2317555875086e-06,2.8482514600192133e-06,-4.577618774925796e-06,-0.0004612314652844602,0.0013972570068035784,0.0010975201064118171,-0.0005221176289956677,6.878659008796966e-05,-0.00010852903309445,0.0007914150130189202,-0.13260537385940552,18.106531143188477,-1.1680023670196533,-17.948335647583008,-0.4864402413368225,-2.2360262870788574,0.17337362468242645,0
58,0.2850069999694824,0.13260537385940552,-18.106531143188477,1.1680023670196533,17.948335647583008,0.4864402413368225,2.2360262870788574,-0.17337362468242645,0.0,0.0,0.0,0.0,0.0,0.0,0.0,0.1349425087659937,0.5140529888222507,0.3262204759250615,0.34445168959124206,0.05995534139276675,0.05430496060696562,-0.17717912275866146,-0.6093413674830139,-0.05753196718556838,-0.6665966685994094,-2.5945500997242177,-0.05561820765995249,2.507973178972339,0.8763154263234164,-0.6090851748156966,-0.05753196718556838,-0.666603097082616,-2.5945565370258534,-0.05562143941554,2.507976027223799,0.8763108487046415,0.0004612314652844602,-0.0013972570068035784,-0.0010975201064118171,0.0005221176289956677,-6.878659008796966e-05,0.00010852903309445,-0.0007914150130189202,0.0,0.0,0.0,0.0,0.0,0.0,0.0,0.00025619266731735646,0.0,-6.428483206644131e-06,-6.4373016357421875e-06,-3.2317555875086e-06,2.8482514600192133e-06,-4.577618774925796e-06,-0.0004612314652844602,0.0013972570068035784,0.0010975201064118171,-0.0005221176289956677,6.878659008796966e-05,-0.00010852903309445,0.0007914150130189202,-0.13260537385940552,18.106531143188477,-1.1680023670196533,-17.948335647583008,-0.4864402413368225,-2.2360262870788574,0.17337362468242645,0
59,0.29000091552734375,0.13260537385940552,-18.154138565063477,1.1441986560821533,17.999910354614258,0.4809470772743225,2.2232089042663574,-0.20083944499492645,0.0,0.0,0.0,0.0,0.0,0.0,0.0,0.14059992632771875,0.518062296144058,0.3283525875294513,0.34035117019266914,0.05992896492283913,0.05389352005972058,-0.17684961323055745,-0.6093416762166394,-0.057528626313857856,-0.6665949893332862,-2.5945537190019037,-0.05561747899555384,2.507976016567015,0.8763184775608218,-0.6090851748156966,-0.05753196718556838,-0.666603097082616,-2.5945565370258534,-0.05562143941554,2.507976027223799,0.8763108487046415,0.00028996657201093434,0.00043803525351641026,0.0005081587793613728,-0.0012378600059674825,7.432021387933845e-05,0.0006211679735652472,0.0010553022923240995,0.0,0.0,0.0,0.0,0.0,0.0,0.0,0.00025650140094279905,-3.3408717105276597e-06,-8.107749329799852e-06,-2.8180239497466175e-06,-3.960419986161201e-06,1.0656783899776201e-08,-7.628856180330601e-06,-0.00028996657201093434,-0.00043803525351641026,-0.0005081587793613728,0.0012378600059674825,-7.432021387933845e-05,-0.0006211679735652472,-0.0010553022923240995,-0.13260537385940552,18.154138565063477,-1.1441986560821533,-17.999910354614258,-0.4809470772743225,-2.2232089042663574,0.20083944499492645,0
60,0.2950000762939453,0.13260537385940552,-18.154138565063477,1.1441986560821533,17.999910354614258,0.4809470772743225,2.2232089042663574,-0.20083944499492645,0.0,0.0,0.0,0.0,0.0,0.0,0.0,0.14059992632771875,0.518062296144058,0.3283525875294513,0.34035117019266914,0.05992896492283913,0.05389352005972058,-0.17684961323055745,-0.6093416762166394,-0.057528626313857856,-0.6665949893332862,-2.5945537190019037,-0.05561747899555384,2.507976016567015,0.8763184775608218,-0.6090851748156966,-0.05753196718556838,-0.666603097082616,-2.5945565370258534,-0.05562143941554,2.507976027223799,0.8763108487046415,0.00028996657201093434,0.00043803525351641026,0.0005081587793613728,-0.0012378600059674825,7.432021387933845e-05,0.0006211679735652472,0.0010553022923240995,0.0,0.0,0.0,0.0,0.0,0.0,0.0,0.00025650140094279905,-3.3408717105276597e-06,-8.107749329799852e-06,-2.8180239497466175e-06,-3.960419986161201e-06,1.0656783899776201e-08,-7.628856180330601e-06,-0.00028996657201093434,-0.00043803525351641026,-0.0005081587793613728,0.0012378600059674825,-7.432021387933845e-05,-0.0006211679735652472,-0.0010553022923240995,-0.13260537385940552,18.154138565063477,-1.1441986560821533,-17.999910354614258,-0.4809470772743225,-2.2232089042663574,0.20083944499492645,0
61,0.2999904155731201,0.16037636995315552,-18.130334854125977,1.1680023670196533,17.972139358520508,0.4928489327430725,2.2360262870788574,-0.16604940593242645,0.0,0.0,0.0,0.0,0.0,0.0,0.0,0.13771457335847084,0.515031368761504,0.3282380378867375,0.34231643444921456,0.06013897845497661,0.053973603977039285,-0.1772199874841255,-0.6093428322939092,-0.05753029674971312,-0.6665966600961404,-2.5945517701600727,-0.05562179652117376,2.5079731789783217,0.8763146081247891,-0.6090851748156966,-0.05753196718556838,-0.666603097082616,-2.5945565370258534,-0.05562143941554,2.507976027223799,0.8763108487046415,-5.47532512582949e-05,-0.00030338945092105174,-0.0003812786879225015,-0.0005415168890022471,-0.000364404105757072,0.00016134063938728126,-0.0003703103130310292,0.0,0.0,0.0,0.0,0.0,0.0,0.0,0.0002576574782126029,-1.6704358552638299e-06,-6.436986475621964e-06,-4.766865780769791e-06,3.5710563375812576e-07,2.848245477249378e-06,-3.7594201476309763e-06,5.47532512582949e-05,0.00030338945092105174,0.0003812786879225015,0.0005415168890022471,0.000364404105757072,-0.00016134063938728126,0.0003703103130310292,-0.16037636995315552,18.130334854125977,-1.1680023670196533,-17.972139358520508,-0.4928489327430725,-2.2360262870788574,0.16604940593242645,0
62,0.3053398132324219,0.16037636995315552,-18.130334854125977,1.1680023670196533,17.972139358520508,0.4928489327430725,2.2360262870788574,-0.16604940593242645,0.0,0.0,0.0,0.0,0.0,0.0,0.0,0.13771457335847084,0.515031368761504,0.3282380378867375,0.34231643444921456,0.06013897845497661,0.053973603977039285,-0.1772199874841255,-0.6093428322939092,-0.05753029674971312,-0.6665966600961404,-2.5945517701600727,-0.05562179652117376,2.5079731789783217,0.8763146081247891,-0.6090851748156966,-0.05753196718556838,-0.666603097082616,-2.5945565370258534,-0.05562143941554,2.507976027223799,0.8763108487046415,-5.47532512582949e-05,-0.00030338945092105174,-0.0003812786879225015,-0.0005415168890022471,-0.000364404105757072,0.00016134063938728126,-0.0003703103130310292,0.0,0.0,0.0,0.0,0.0,0.0,0.0,0.0002576574782126029,-1.6704358552638299e-06,-6.436986475621964e-06,-4.766865780769791e-06,3.5710563375812576e-07,2.848245477249378e-06,-3.7594201476309763e-06,5.47532512582949e-05,0.00030338945092105174,0.0003812786879225015,0.0005415168890022471,0.000364404105757072,-0.00016134063938728126,0.0003703103130310292,-0.16037636995315552,18.130334854125977,-1.1680023670196533,-17.972139358520508,-0.4928489327430725,-2.2360262870788574,0.16604940593242645,0
63,0.30999755859375,0.10880166292190552,-18.154138565063477,1.0926239490509033,17.999910354614258,0.4928489327430725,2.2296175956726074,-0.18710653483867645,0.0,0.0,0.0,0.0,0.0,0.0,0.0,0.1323022578377769,0.50831605610114,0.321494560573683,0.34655730339430796,0.06046855096524257,0.054674167086401236,-0.17699293959406134,-0.6093399354625587,-0.057528626313857856,-0.6665913700555518,-2.5945537190019037,-0.055619892331909594,2.507973932177254,0.8763168344826728,-0.6090851748156966,-0.05753196718556838,-0.666603097082616,-2.5945565370258534,-0.05562143941554,2.507976027223799,0.8763108487046415,0.0007808264365567524,-0.00030486997292554534,0.0006659370791598917,-0.0006377977743972164,-0.00039192103201188413,0.00027065017498142165,-1.0114305535801667e-06,0.0,0.0,0.0,0.0,0.0,0.0,0.0,0.00025476064686213995,-3.3408717105276597e-06,-1.1727027064201145e-05,-2.8180239497466175e-06,-1.5470836304057323e-06,2.0950465451363698e-06,-5.985778031347699e-06,-0.0007808264365567524,0.00030486997292554534,-0.0006659370791598917,0.0006377977743972164,0.00039192103201188413,-0.00027065017498142165,1.0114305535801667e-06,-0.10880166292190552,18.154138565063477,-1.0926239490509033,-17.999910354614258,-0.4928489327430725,-2.2296175956726074,0.18710653483867645,0
64,0.31497645378112793,0.10880166292190552,-18.154138565063477,1.0926239490509033,17.999910354614258,0.4928489327430725,2.2296175956726074,-0.18710653483867645,0.0,0.0,0.0,0.0,0.0,0.0,0.0,0.1323022578377769,0.50831605610114,0.321494560573683,0.34655730339430796,0.06046855096524257,0.054674167086401236,-0.17699293959406134,-0.6093399354625587,-0.057528626313857856,-0.6665913700555518,-2.5945537190019037,-0.055619892331909594,2.507973932177254,0.8763168344826728,-0.6090851748156966,-0.05753196718556838,-0.666603097082616,-2.5945565370258534,-0.05562143941554,2.507976027223799,0.8763108487046415,0.0007808264365567524,-0.00030486997292554534,0.0006659370791598917,-0.0006377977743972164,-0.00039192103201188413,0.00027065017498142165,-1.0114305535801667e-06,0.0,0.0,0.0,0.0,0.0,0.0,0.0,0.00025476064686213995,-3.3408717105276597e-06,-1.1727027064201145e-05,-2.8180239497466175e-06,-1.5470836304057323e-06,2.0950465451363698e-06,-5.985778031347699e-06,-0.0007808264365567524,0.00030486997292554534,-0.0006659370791598917,0.0006377977743972164,0.00039192103201188413,-0.00027065017498142165,1.0114305535801667e-06,-0.10880166292190552,18.154138565063477,-1.0926239490509033,-17.999910354614258,-0.4928489327430725,-2.2296175956726074,0.18710653483867645,0
65,0.3200070858001709,0.13260537385940552,-18.177942276000977,1.1441986560821533,17.972139358520508,0.4864402413368225,2.2360262870788574,-0.17978231608867645,0.0,0.0,0.0,0.0,0.0,0.0,0.0,0.13526929366356774,0.5100837161806604,0.32136835711604916,0.34146663729224436,0.059990940551851446,0.05387319994361369,-0.17762777632524399,-0.6093414380174387,-0.05752695587800259,-0.6665949893332365,-2.5945517701600727,-0.055622346367062744,2.5079731832773904,0.8763161384175197,-0.6090851748156966,-0.05753196718556838,-0.666603097082616,-2.5945565370258534,-0.05562143941554,2.507976027223799,0.8763108487046415,-0.0004638891229944038,8.224757311680227e-05,-0.0008246398264730693,-0.00015463972523137274,-0.00013526467981845542,0.00013648637705095365,0.0005385665011739146,0.0,0.0,0.0,0.0,0.0,0.0,0.0,0.0002562632017421018,-5.01130756579149e-06,-8.107749379537843e-06,-4.766865780769791e-06,9.06951522744448e-07,2.843946408592757e-06,-5.289712878164821e-06,0.0004638891229944038,-8.224757311680227e-05,0.0008246398264730693,0.00015463972523137274,0.00013526467981845542,-0.00013648637705095365,-0.0005385665011739146,-0.13260537385940552,18.177942276000977,-1.1441986560821533,-17.972139358520508,-0.4864402413368225,-2.2360262870788574,0.17978231608867645,0
66,0.32501792907714844,0.13260537385940552,-18.177942276000977,1.1441986560821533,17.972139358520508,0.4864402413368225,2.2360262870788574,-0.17978231608867645,0.0,0.0,0.0,0.0,0.0,0.0,0.0,0.13526929366356774,0.5100837161806604,0.32136835711604916,0.34146663729224436,0.059990940551851446,0.05387319994361369,-0.17762777632524399,-0.6093414380174387,-0.05752695587800259,-0.6665949893332365,-2.5945517701600727,-0.055622346367062744,2.5079731832773904,0.8763161384175197,-0.6090851748156966,-0.05753196718556838,-0.666603097082616,-2.5945565370258534,-0.05562143941554,2.507976027223799,0.8763108487046415,-0.0004638891229944038,8.224757311680227e-05,-0.0008246398264730693,-0.00015463972523137274,-0.00013526467981845542,0.00013648637705095365,0.0005385665011739146,0.0,0.0,0.0,0.0,0.0,0.0,0.0,0.0002562632017421018,-5.01130756579149e-06,-8.107749379537843e-06,-4.766865780769791e-06,9.06951522744448e-07,2.843946408592757e-06,-5.289712878164821e-06,0.0004638891229944038,-8.224757311680227e-05,0.0008246398264730693,0.00015463972523137274,0.00013526467981845542,-0.00013648637705095365,-0.0005385665011739146,-0.13260537385940552,18.177942276000977,-1.1441986560821533,-17.972139358520508,-0.4864402413368225,-2.2360262870788574,0.17978231608867645,0
67,0.3299999237060547,0.10880166292190552,-18.154138565063477,1.1680023670196533,17.999910354614258,0.4864402413368225,2.2424349784851074,-0.15964071452617645,0.0,0.0,0.0,0.0,0.0,0.0,0.0,0.13748686084687814,0.5102213287797597,0.3245157596360158,0.3379991136688828,0.059438145106314864,0.05393556037947074,-0.17696608961757337,-0.6093399874301105,-0.057528626313857856,-0.6665966597690917,-2.5945537190019037,-0.05562249901999252,2.5079724668397088,0.876313900462455,-0.6090851748156966,-0.05753196718556838,-0.666603097082616,-2.5945565370258534,-0.05562143941554,2.507976027223799,0.8763108487046415,0.0005421324169674997,-0.0005066099754195755,-0.0010947318730421315,-0.000839798471340519,-3.065490105379447e-05,-0.00016757484284213618,-0.0006025649687278433,0.0,0.0,0.0,0.0,0.0,0.0,0.0,0.0002548126144139573,-3.3408717105276597e-06,-6.437313524343402e-06,-2.8180239497466175e-06,1.0596044525204573e-06,3.5603840902176387e-06,-3.051757813565814e-06,-0.0005421324169674997,0.0005066099754195755,0.0010947318730421315,0.000839798471340519,3.065490105379447e-05,0.00016757484284213618,0.0006025649687278433,-0.10880166292190552,18.154138565063477,-1.1680023670196533,-17.999910354614258,-0.4864402413368225,-2.2424349784851074,0.15964071452617645,0
68,0.33499741554260254,0.10880166292190552,-18.154138565063477,1.1680023670196533,17.999910354614258,0.4864402413368225,2.2424349784851074,-0.15964071452617645,0.0,0.0,0.0,0.0,0.0,0.0,0.0,0.13748686084687814,0.5102213287797597,0.3245157596360158,0.3379991136688828,0.059438145106314864,0.05393556037947074,-0.17696608961757337,-0.6093399874301105,-0.057528626313857856,-0.6665966597690917,-2.5945537190019037,-0.05562249901999252,2.5079724668397088,0.876313900462455,-0.6090851748156966,-0.05753196718556838,-0.666603097082616,-2.5945565370258534,-0.05562143941554,2.507976027223799,0.8763108487046415,0.0005421324169674997,-0.0005066099754195755,-0.0010947318730421315,-0.000839798471340519,-3.065490105379447e-05,-0.00016757484284213618,-0.0006025649687278433,0.0,0.0,0.0,0.0,0.0,0.0,0.0,0.0002548126144139573,-3.3408717105276597e-06,-6.437313524343402e-06,-2.8180239497466175e-06,1.0596044525204573e-06,3.5603840902176387e-06,-3.051757813565814e-06,-0.0005421324169674997,0.0005066099754195755,0.0010947318730421315,0.000839798471340519,3.065490105379447e-05,0.00016757484284213618,0.0006025649687278433,-0.10880166292190552,18.154138565063477,-1.1680023670196533,-17.999910354614258,-0.4864402413368225,-2.2424349784851074,0.15964071452617645,0
69,0.3400087356567383,0.08103066682815552,-18.106531143188477,1.1441986560821533,17.948335647583008,0.4864402413368225,2.2360262870788574,-0.20083944499492645,0.0,0.0,0.0,0.0,0.0,0.0,0.0,0.1390285077899986,0.5104204283291761,0.3253222413296835,0.34003724258929185,0.059752750165826346,0.0545819014038812,-0.1762406084308005,-0.6093370004639348,-0.057531993492556666,-0.6665949893332365,-2.5945500997242177,-0.05561820766080598,2.507976359768962,0.8763184780991738,-0.6090851748156966,-0.05753196718556838,-0.666603097082616,-2.5945565370258534,-0.05562143941554,2.507976027223799,0.8763108487046415,0.0015177932688861873,-0.0008312632951639558,0.00022452486002863257,0.0005806034611363842,-0.00017445885588289578,0.00011121706428538712,0.0007665533105687742,0.0,0.0,0.0,0.0,0.0,0.0,0.0,0.0002518256482382242,2.6306988282209787e-08,-8.107749379537843e-06,-6.4373016357421875e-06,-3.231754734017711e-06,-3.325451629621057e-07,-7.629394532360223e-06,-0.0015177932688861873,0.0008312632951639558,-0.00022452486002863257,-0.0005806034611363842,0.00017445885588289578,-0.00011121706428538712,-0.0007665533105687742,-0.08103066682815552,18.106531143188477,-1.1441986560821533,-17.948335647583008,-0.4864402413368225,-2.2360262870788574,0.20083944499492645,0
70,0.3449993133544922,0.08103066682815552,-18.106531143188477,1.1441986560821533,17.948335647583008,0.4864402413368225,2.2360262870788574,-0.20083944499492645,0.0,0.0,0.0,0.0,0.0,0.0,0.0,0.1390285077899986,0.5104204283291761,0.3253222413296835,0.34003724258929185,0.059752750165826346,0.0545819014038812,-0.1762406084308005,-0.6093370004639348,-0.057531993492556666,-0.6665949893332365,-2.5945500997242177,-0.05561820766080598,2.507976359768962,0.8763184780991738,-0.6090851748156966,-0.05753196718556838,-0.666603097082616,-2.5945565370258534,-0.05562143941554,2.507976027223799,0.8763108487046415,0.0015177932688861873,-0.0008312632951639558,0.00022452486002863257,0.0005806034611363842,-0.00017445885588289578,0.00011121706428538712,0.0007665533105687742,0.0,0.0,0.0,0.0,0.0,0.0,0.0,0.0002518256482382242,2.6306988282209787e-08,-8.107749379537843e-06,-6.4373016357421875e-06,-3.231754734017711e-06,-3.325451629621057e-07,-7.629394532360223e-06,-0.0015177932688861873,0.0008312632951639558,-0.00022452486002863257,-0.0005806034611363842,0.00017445885588289578,-0.00011121706428538712,-0.0007665533105687742,-0.08103066682815552,18.106531143188477,-1.1441986560821533,-17.948335647583008,-0.4864402413368225,-2.2360262870788574,0.20083944499492645,0
71,0.34996867179870605,0.18418008089065552,-18.130334854125977,1.1441986560821533,17.948335647583008,0.4690452218055725,2.2232089042663574,-0.17978231608867645,0.0,0.0,0.0,0.0,0.0,0.0,0.0,0.14203968055611152,0.5125644417528155,0.329741088241328,0.3413693444635666,0.05908171457744255,0.05493993438019414,-0.1755662534799974,-0.6093445909906393,-0.057530296749861626,-0.6665949893332365,-2.5945500997242177,-0.05562043640656924,2.507978847616333,0.8763161384181842,-0.6090851748156966,-0.05753196718556838,-0.666603097082616,-2.5945565370258534,-0.05562143941554,2.507976027223799,0.8763108487046415,-0.00021931323037773483,0.00028675451047192446,0.0006463962951423138,0.0006643226629899294,0.000517433842837656,0.0004634863359464539,0.00048695656344226754,0.0,0.0,0.0,0.0,0.0,0.0,0.0,0.0002594161749427393,-1.6704357067576225e-06,-8.107749379537843e-06,-6.4373016357421875e-06,-1.0030089707610546e-06,-2.820392534186311e-06,-5.289713542744323e-06,0.00021931323037773483,-0.00028675451047192446,-0.0006463962951423138,-0.0006643226629899294,-0.000517433842837656,-0.0004634863359464539,-0.00048695656344226754,-0.18418008089065552,18.130334854125977,-1.1441986560821533,-17.948335647583008,-0.4690452218055725,-2.2232089042663574,0.17978231608867645,0
72,0.35500526428222656,0.18418008089065552,-18.130334854125977,1.1441986560821533,17.948335647583008,0.4690452218055725,2.2232089042663574,-0.17978231608867645,0.0,0.0,0.0,0.0,0.0,0.0,0.0,0.14203968055611152,0.5125644417528155,0.329741088241328,0.3413693444635666,0.05908171457744255,0.05493993438019414,-0.1755662534799974,-0.6093445909906393,-0.057530296749861626,-0.6665949893332365,-2.5945500997242177,-0.05562043640656924,2.507978847616333,0.8763161384181842,-0.6090851748156966,-0.05753196718556838,-0.666603097082616,-2.5945565370258534,-0.05562143941554,2.507976027223799,0.8763108487046415,-0.00021931323037773483,0.00028675451047192446,0.0006463962951423138,0.0006643226629899294,0.000517433842837656,0.0004634863359464539,0.00048695656344226754,0.0,0.0,0.0,0.0,0.0,0.0,0.0,0.0002594161749427393,-1.6704357067576225e-06,-8.107749379537843e-06,-6.4373016357421875e-06,-1.0030089707610546e-06,-2.820392534186311e-06,-5.289713542744323e-06,0.00021931323037773483,-0.00028675451047192446,-0.0006463962951423138,-0.0006643226629899294,-0.000517433842837656,-0.0004634863359464539,-0.00048695656344226754,-0.18418008089065552,18.130334854125977,-1.1441986560821533,-17.948335647583008,-0.4690452218055725,-2.2232089042663574,0.17978231608867645,0
73,0.3599996566772461,0.16037636995315552,-18.154138565063477,1.1680023670196533,17.948335647583008,0.4864402413368225,2.2424349784851074,-0.19351522624492645,0.0,0.0,0.0,0.0,0.0,0.0,0.0,0.13667829758120362,0.5196394263383121,0.3219712574167453,0.3404883333605397,0.059502851503121616,0.05366469274719462,-0.17574871516719529,-0.6093429096833923,-0.057528626313857856,-0.6665966597690917,-2.5945500997242177,-0.05562197966995753,2.5079728593701325,0.8763176642970906,-0.6090851748156966,-0.05753196718556838,-0.666603097082616,-2.5945565370258534,-0.05562143941554,2.507976027223799,0.8763108487046415,-0.00023640934762329794,0.0013258558619214252,-0.0005350412326534589,0.0003472539608996739,-3.983690745515855e-05,-0.00028778381572862506,0.00035614068156277493,0.0,0.0,0.0,0.0,0.0,0.0,0.0,0.00025773486769575804,-3.3408717105276597e-06,-6.437313524343402e-06,-6.4373016357421875e-06,5.402544175289736e-07,3.167853666496967e-06,-6.815592449083141e-06,0.00023640934762329794,-0.0013258558619214252,0.0005350412326534589,-0.0003472539608996739,3.983690745515855e-05,0.00028778381572862506,-0.00035614068156277493,-0.16037636995315552,18.154138565063477,-1.1680023670196533,-17.948335647583008,-0.4864402413368225,-2.2424349784851074,0.19351522624492645,0
74,0.3650081157684326,0.16037636995315552,-18.154138565063477,1.1680023670196533,17.948335647583008,0.4864402413368225,2.2424349784851074,-0.19351522624492645,0.0,0.0,0.0,0.0,0.0,0.0,0.0,0.13667829758120362,0.5196394263383121,0.3219712574167453,0.3404883333605397,0.059502851503121616,0.05366469274719462,-0.17574871516719529,-0.6093429096833923,-0.057528626313857856,-0.6665966597690917,-2.5945500997242177,-0.05562197966995753,2.5079728593701325,0.8763176642970906,-0.6090851748156966,-0.05753196718556838,-0.666603097082616,-2.5945565370258534,-0.05562143941554,2.507976027223799,0.8763108487046415,-0.00023640934762329794,0.0013258558619214252,-0.0005350412326534589,0.0003472539608996739,-3.983690745515855e-05,-0.00028778381572862506,0.00035614068156277493,0.0,0.0,0.0,0.0,0.0,0.0,0.0,0.00025773486769575804,-3.3408717105276597e-06,-6.437313524343402e-06,-6.4373016357421875e-06,5.402544175289736e-07,3.167853666496967e-06,-6.815592449083141e-06,0.00023640934762329794,-0.0013258558619214252,0.0005350412326534589,-0.0003472539608996739,3.983690745515855e-05,0.00028778381572862506,-0.00035614068156277493,-0.16037636995315552,18.154138565063477,-1.1680023670196533,-17.948335647583008,-0.4864402413368225,-2.2424349784851074,0.19351522624492645,0
75,0.37000131607055664,0.16037636995315552,-18.154138565063477,1.1680023670196533,17.948335647583008,0.4864402413368225,2.2424349784851074,-0.19351522624492645,0.0,0.0,0.0,0.0,0.0,0.0,0.0,0.13667829758120362,0.5196394263383121,0.3219712574167453,0.3404883333605397,0.059502851503121616,0.05366469274719462,-0.17574871516719529,-0.6093429096833923,-0.057528626313857856,-0.6665966597690917,-2.5945500997242177,-0.05562197966995753,2.5079728593701325,0.8763176642970906,-0.6090851748156966,-0.05753196718556838,-0.666603097082616,-2.5945565370258534,-0.05562143941554,2.507976027223799,0.8763108487046415,-0.00023640934762329794,0.0013258558619214252,-0.0005350412326534589,0.0003472539608996739,-3.983690745515855e-05,-0.00028778381572862506,0.00035614068156277493,0.0,0.0,0.0,0.0,0.0,0.0,0.0,0.00025773486769575804,-3.3408717105276597e-06,-6.437313524343402e-06,-6.4373016357421875e-06,5.402544175289736e-07,3.167853666496967e-06,-6.815592449083141e-06,0.00023640934762329794,-0.0013258558619214252,0.0005350412326534589,-0.0003472539608996739,3.983690745515855e-05,0.00028778381572862506,-0.00035614068156277493,-0.16037636995315552,18.154138565063477,-1.1680023670196533,-17.948335647583008,-0.4864402413368225,-2.2424349784851074,0.19351522624492645,0
76,0.3750946521759033,0.16037636995315552,-18.154138565063477,1.1680023670196533,17.948335647583008,0.4864402413368225,2.2424349784851074,-0.19351522624492645,0.0,0.0,0.0,0.0,0.0,0.0,0.0,0.13667829758120362,0.5196394263383121,0.3219712574167453,0.3404883333605397,0.059502851503121616,0.05366469274719462,-0.17574871516719529,-0.6093429096833923,-0.057528626313857856,-0.6665966597690917,-2.5945500997242177,-0.05562197966995753,2.5079728593701325,0.8763176642970906,-0.6090851748156966,-0.05753196718556838,-0.666603097082616,-2.5945565370258534,-0.05562143941554,2.507976027223799,0.8763108487046415,-0.00023640934762329794,0.0013258558619214252,-0.0005350412326534589,0.0003472539608996739,-3.983690745515855e-05,-0.00028778381572862506,0.00035614068156277493,0.0,0.0,0.0,0.0,0.0,0.0,0.0,0.00025773486769575804,-3.3408717105276597e-06,-6.437313524343402e-06,-6.4373016357421875e-06,5.402544175289736e-07,3.167853666496967e-06,-6.815592449083141e-06,0.00023640934762329794,-0.0013258558619214252,0.0005350412326534589,-0.0003472539608996739,3.983690745515855e-05,0.00028778381572862506,-0.00035614068156277493,-0.16037636995315552,18.154138565063477,-1.1680023670196533,-17.948335647583008,-0.4864402413368225,-2.2424349784851074,0.19351522624492645,0
77,0.37999963760375977,0.16037636995315552,-18.106531143188477,1.1680023670196533,17.972139358520508,0.4864402413368225,2.2360262870788574,-0.17978231608867645,0.0,0.0,0.0,0.0,0.0,0.0,0.0,0.13796077132792348,0.521874850789646,0.32171838611043946,0.34250017477068717,0.05980192877016188,0.053365010179903034,-0.17643973672360916,-0.6093412516547814,-0.05753196718556838,-0.6665966597690917,-2.5945517701600727,-0.05561878438744805,2.5079742392073063,0.8763160074371565,-0.6090851748156966,-0.05753196718556838,-0.666603097082616,-2.5945565370258534,-0.05562143941554,2.507976027223799,0.8763108487046415,-0.0005599639707693555,-0.000651699753516889,-0.0011917907130360931,-0.0001277849504552741,-0.00013724961745673652,6.405222278957091e-06,0.0003722501773218971,0.0,0.0,0.0,0.0,0.0,0.0,0.0,0.0002560768390847956,0.0,-6.437313524343402e-06,-4.766865780769791e-06,-2.6550280919496183e-06,1.7880164926431519e-06,-5.158732515053721e-06,0.0005599639707693555,0.000651699753516889,0.0011917907130360931,0.0001277849504552741,0.00013724961745673652,-6.405222278957091e-06,-0.0003722501773218971,-0.16037636995315552,18.106531143188477,-1.1680023670196533,-17.972139358520508,-0.4864402413368225,-2.2360262870788574,0.17978231608867645,0
78,0.3850116729736328,0.16037636995315552,-18.106531143188477,1.1680023670196533,17.972139358520508,0.4864402413368225,2.2360262870788574,-0.17978231608867645,0.0,0.0,0.0,0.0,0.0,0.0,0.0,0.13796077132792348,0.521874850789646,0.32171838611043946,0.34250017477068717,0.05980192877016188,0.053365010179903034,-0.17643973672360916,-0.6093412516547814,-0.05753196718556838,-0.6665966597690917,-2.5945517701600727,-0.05561878438744805,2.5079742392073063,0.8763160074371565,-0.6090851748156966,-0.05753196718556838,-0.666603097082616,-2.5945565370258534,-0.05562143941554,2.507976027223799,0.8763108487046415,-0.0005599639707693555,-0.000651699753516889,-0.0011917907130360931,-0.0001277849504552741,-0.00013724961745673652,6.405222278957091e-06,0.0003722501773218971,0.0,0.0,0.0,0.0,0.0,0.0,0.0,0.0002560768390847956,0.0,-6.437313524343402e-06,-4.766865780769791e-06,-2.6550280919496183e-06,1.7880164926431519e-06,-5.158732515053721e-06,0.0005599639707693555,0.000651699753516889,0.0011917907130360931,0.0001277849504552741,0.00013724961745673652,-6.405222278957091e-06,-0.0003722501773218971,-0.16037636995315552,18.106531143188477,-1.1680023670196533,-17.972139358520508,-0.4864402413368225,-2.2360262870788574,0.17978231608867645,0
79,0.3899955749511719,0.18418008089065552,-18.177942276000977,1.0688202381134033,17.972139358520508,0.4809470772743225,2.2488436698913574,-0.22098104655742645,0.0,0.0,0.0,0.0,0.0,0.0,0.0,0.13675613968491218,0.517450339875107,0.31851488818981233,0.34367425316500455,0.05974866724833413,0.05372702280872231,-0.1773890908048325,-0.6093428164480811,-0.05752695587800259,-0.6665896996196947,-2.5945517701600727,-0.05561749902994537,2.5079717562344306,0.8763207145415268,-0.6090851748156966,-0.05753196718556838,-0.666603097082616,-2.5945565370258534,-0.05562143941554,2.507976027223799,0.8763108487046415,-0.0017458744487782538,-0.00035955902393735494,0.0012627878397533441,3.315250680674861e-05,-0.0001326701249527214,-0.0004840703834545594,0.0013700883093178727,0.0,0.0,0.0,0.0,0.0,0.0,0.0,0.00025764163238450877,-5.01130756579149e-06,-1.3397462921282965e-05,-4.766865780769791e-06,-3.940385594626561e-06,4.27098936839343e-06,-9.865836885336599e-06,0.0017458744487782538,0.00035955902393735494,-0.0012627878397533441,-3.315250680674861e-05,0.0001326701249527214,0.0004840703834545594,-0.0013700883093178727,-0.18418008089065552,18.177942276000977,-1.0688202381134033,-17.972139358520508,-0.4809470772743225,-2.2488436698913574,0.22098104655742645,0
