rezayati/contactInterpretation/dataset/franka_main/labeled_data/link2/f3_7.csv
index,time,tau_J0,tau_J1,tau_J2,tau_J3,tau_J4,tau_J5,tau_J6,tau_J_d0,tau_J_d1,tau_J_d2,tau_J_d3,tau_J_d4,tau_J_d5,tau_J_d6,tau_ext0,tau_ext1,tau_ext2,tau_ext3,tau_ext4,tau_ext5,tau_ext6,q0,q1,q2,q3,q4,q5,q6,q_d0,q_d1,q_d2,q_d3,q_d4,q_d5,q_d6,dq0,dq1,dq2,dq3,dq4,dq5,dq6,dq_d0,dq_d1,dq_d2,dq_d3,dq_d4,dq_d5,dq_d6,e0,e1,e2,e3,e4,e5,e6,de0,de1,de2,de3,de4,de5,de6,etau_J0,etau_J1,etau_J2,etau_J3,etau_J4,etau_J5,etau_J6,label
1,0.0,-0.04592245817184448,-11.925500869750977,1.3147919178009033,21.717256546020508,0.4031272530555725,2.5207552909851074,-0.21457235515117645,0.0,0.0,0.0,0.0,0.0,0.0,0.0,-0.07523893984415886,0.362304563832256,0.1109501632770265,0.4317980033778872,-0.13154556360978223,0.1270093036107841,-0.20598119558064787,0.17267197412646176,-0.4874739962544357,-0.1114656757283629,-1.9464040267133005,0.1336080712982429,2.595551071855757,0.9452484245217508,0.1728802376190821,-0.48752024683155326,-0.11147110072896137,-1.9463801863486305,0.1336059019074957,2.595550359778934,0.9452445589611904,-0.00048326185459763053,-0.001071473622609688,-8.798831564841017e-05,0.0002876227562915688,-8.038152361127795e-05,0.0004590499876349289,0.0008166593443059115,0.0,0.0,0.0,0.0,0.0,0.0,0.0,0.0002082634926203475,-4.625057711754588e-05,-5.425000598469065e-06,2.3840364669958092e-05,-2.169390747208677e-06,-7.120768228396912e-07,-3.865560560423198e-06,0.00048326185459763053,0.001071473622609688,8.798831564841017e-05,-0.0002876227562915688,8.038152361127795e-05,-0.0004590499876349289,-0.0008166593443059115,0.04592245817184448,11.925500869750977,-1.3147919178009033,-21.717256546020508,-0.4031272530555725,-2.5207552909851074,0.21457235515117645,0
2,0.00500178337097168,-0.04592245817184448,-11.925500869750977,1.3147919178009033,21.717256546020508,0.4031272530555725,2.5207552909851074,-0.21457235515117645,0.0,0.0,0.0,0.0,0.0,0.0,0.0,-0.07523893984415886,0.362304563832256,0.1109501632770265,0.4317980033778872,-0.13154556360978223,0.1270093036107841,-0.20598119558064787,0.17267197412646176,-0.4874739962544357,-0.1114656757283629,-1.9464040267133005,0.1336080712982429,2.595551071855757,0.9452484245217508,0.1728802376190821,-0.48752024683155326,-0.11147110072896137,-1.9463801863486305,0.1336059019074957,2.595550359778934,0.9452445589611904,-0.00048326185459763053,-0.001071473622609688,-8.798831564841017e-05,0.0002876227562915688,-8.038152361127795e-05,0.0004590499876349289,0.0008166593443059115,0.0,0.0,0.0,0.0,0.0,0.0,0.0,0.0002082634926203475,-4.625057711754588e-05,-5.425000598469065e-06,2.3840364669958092e-05,-2.169390747208677e-06,-7.120768228396912e-07,-3.865560560423198e-06,0.00048326185459763053,0.001071473622609688,8.798831564841017e-05,-0.0002876227562915688,8.038152361127795e-05,-0.0004590499876349289,-0.0008166593443059115,0.04592245817184448,11.925500869750977,-1.3147919178009033,-21.717256546020508,-0.4031272530555725,-2.5207552909851074,0.21457235515117645,0
3,0.010363340377807617,-0.09352988004684448,-11.925500869750977,1.2909882068634033,21.717256546020508,0.4031272530555725,2.5079379081726074,-0.23471395671367645,0.0,0.0,0.0,0.0,0.0,0.0,0.0,-0.07991225560582925,0.37213181898663195,0.1023995756893178,0.4278124618702904,-0.13136205018771152,0.1264808230152818,-0.20625870620724884,0.1726752887526538,-0.4874739962544357,-0.11146400529250763,-1.946404026700739,0.13360488813796118,2.595548963882305,0.9452503092647703,0.1728802376190821,-0.48752024683155326,-0.11147110072896137,-1.9463801863486305,0.1336059019074957,2.595550359778934,0.9452445589611904,0.00026511965912309434,-0.0005111974453466057,4.643281090414323e-05,9.667883944967034e-05,-4.17165583229233e-05,0.0006871960032277713,0.0017276695943047005,0.0,0.0,0.0,0.0,0.0,0.0,0.0,0.00020494886642830057,-4.625057711754588e-05,-7.095436453732895e-06,2.3840352108450702e-05,1.0137695345135977e-06,1.3958966289528973e-06,-5.75030357985451e-06,-0.00026511965912309434,0.0005111974453466057,-4.643281090414323e-05,-9.667883944967034e-05,4.17165583229233e-05,-0.0006871960032277713,-0.0017276695943047005,0.09352988004684448,11.925500869750977,-1.2909882068634033,-21.717256546020508,-0.4031272530555725,-2.5079379081726074,0.23471395671367645,0
4,0.0149993896484375,-0.09352988004684448,-11.925500869750977,1.2909882068634033,21.717256546020508,0.4031272530555725,2.5079379081726074,-0.23471395671367645,0.0,0.0,0.0,0.0,0.0,0.0,0.0,-0.07991225560582925,0.37213181898663195,0.1023995756893178,0.4278124618702904,-0.13136205018771152,0.1264808230152818,-0.20625870620724884,0.1726752887526538,-0.4874739962544357,-0.11146400529250763,-1.946404026700739,0.13360488813796118,2.595548963882305,0.9452503092647703,0.1728802376190821,-0.48752024683155326,-0.11147110072896137,-1.9463801863486305,0.1336059019074957,2.595550359778934,0.9452445589611904,0.00026511965912309434,-0.0005111974453466057,4.643281090414323e-05,9.667883944967034e-05,-4.17165583229233e-05,0.0006871960032277713,0.0017276695943047005,0.0,0.0,0.0,0.0,0.0,0.0,0.0,0.00020494886642830057,-4.625057711754588e-05,-7.095436453732895e-06,2.3840352108450702e-05,1.0137695345135977e-06,1.3958966289528973e-06,-5.75030357985451e-06,-0.00026511965912309434,0.0005111974453466057,-4.643281090414323e-05,-9.667883944967034e-05,4.17165583229233e-05,-0.0006871960032277713,-0.0017276695943047005,0.09352988004684448,11.925500869750977,-1.2909882068634033,-21.717256546020508,-0.4031272530555725,-2.5079379081726074,0.23471395671367645,0
5,0.019997119903564453,-0.09352988004684448,-11.973108291625977,1.2909882068634033,21.669649124145508,0.3976340889930725,2.5335726737976074,-0.22098104655742645,0.0,0.0,0.0,0.0,0.0,0.0,0.0,-0.08037845063999072,0.3610588769555135,0.10599936499492307,0.434863774387199,-0.13183807363593725,0.12702306974935507,-0.20621730885396866,0.1726752888605125,-0.48747065538272516,-0.11146400529250763,-1.9464006858290286,0.13360834183386838,2.595549647628337,0.9452491365965799,0.1728802376190821,-0.48752024683155326,-0.11147110072896137,-1.9463801863486305,0.1336059019074957,2.595550359778934,0.9452445589611904,-0.00010311291000343811,0.00039200279910088726,0.00016334930805322905,0.0012542722780989253,0.00017346827112224399,-0.00036595523730364706,0.0009504467648070917,0.0,0.0,0.0,0.0,0.0,0.0,0.0,0.00020494875856960637,-4.959144882810129e-05,-7.095436453732895e-06,2.049948039806182e-05,-2.439926372693746e-06,7.121505971596775e-07,-4.5776353895243815e-06,0.00010311291000343811,-0.00039200279910088726,-0.00016334930805322905,-0.0012542722780989253,-0.00017346827112224399,0.00036595523730364706,-0.0009504467648070917,0.09352988004684448,11.973108291625977,-1.2909882068634033,-21.669649124145508,-0.3976340889930725,-2.5335726737976074,0.22098104655742645,0
6,0.02499699592590332,-0.09352988004684448,-11.973108291625977,1.2909882068634033,21.669649124145508,0.3976340889930725,2.5335726737976074,-0.22098104655742645,0.0,0.0,0.0,0.0,0.0,0.0,0.0,-0.08037845063999072,0.3610588769555135,0.10599936499492307,0.434863774387199,-0.13183807363593725,0.12702306974935507,-0.20621730885396866,0.1726752888605125,-0.48747065538272516,-0.11146400529250763,-1.9464006858290286,0.13360834183386838,2.595549647628337,0.9452491365965799,0.1728802376190821,-0.48752024683155326,-0.11147110072896137,-1.9463801863486305,0.1336059019074957,2.595550359778934,0.9452445589611904,-0.00010311291000343811,0.00039200279910088726,0.00016334930805322905,0.0012542722780989253,0.00017346827112224399,-0.00036595523730364706,0.0009504467648070917,0.0,0.0,0.0,0.0,0.0,0.0,0.0,0.00020494875856960637,-4.959144882810129e-05,-7.095436453732895e-06,2.049948039806182e-05,-2.439926372693746e-06,7.121505971596775e-07,-4.5776353895243815e-06,0.00010311291000343811,-0.00039200279910088726,-0.00016334930805322905,-0.0012542722780989253,-0.00017346827112224399,0.00036595523730364706,-0.0009504467648070917,0.09352988004684448,11.973108291625977,-1.2909882068634033,-21.669649124145508,-0.3976340889930725,-2.5335726737976074,0.22098104655742645,0
7,0.029996871948242188,-0.09352988004684448,-11.949304580688477,1.2909882068634033,21.717256546020508,0.4031272530555725,2.5143465995788574,-0.17978231608867645,0.0,0.0,0.0,0.0,0.0,0.0,0.0,-0.08292591044945505,0.3758926016825119,0.10392764006469286,0.42808871612139476,-0.13195386717221122,0.12601760401858728,-0.2069675515953974,0.17267537040569134,-0.48747232581858047,-0.11146400529250763,-1.946404026700739,0.13360807570511135,2.5955517839325792,0.945244558961855,0.1728802376190821,-0.48752024683155326,-0.11147110072896137,-1.9463801863486305,0.1336059019074957,2.595550359778934,0.9452445589611904,6.33822164482326e-05,0.0004856614584252102,-0.00016983504082656982,-1.7937844408775536e-06,-7.292278396150736e-05,0.00048261850417098304,-0.0009641443883875284,0.0,0.0,0.0,0.0,0.0,0.0,0.0,0.00020486721339077474,-4.792101297279583e-05,-7.095436453732895e-06,2.3840352108450702e-05,-2.1737976156621652e-06,-1.4241536452352932e-06,-6.645795025406187e-13,-6.33822164482326e-05,-0.0004856614584252102,0.00016983504082656982,1.7937844408775536e-06,7.292278396150736e-05,-0.00048261850417098304,0.0009641443883875284,0.09352988004684448,11.949304580688477,-1.2909882068634033,-21.717256546020508,-0.4031272530555725,-2.5143465995788574,0.17978231608867645,0
8,0.03499770164489746,-0.09352988004684448,-11.949304580688477,1.2909882068634033,21.717256546020508,0.4031272530555725,2.5143465995788574,-0.17978231608867645,0.0,0.0,0.0,0.0,0.0,0.0,0.0,-0.08292591044945505,0.3758926016825119,0.10392764006469286,0.42808871612139476,-0.13195386717221122,0.12601760401858728,-0.2069675515953974,0.17267537040569134,-0.48747232581858047,-0.11146400529250763,-1.946404026700739,0.13360807570511135,2.5955517839325792,0.945244558961855,0.1728802376190821,-0.48752024683155326,-0.11147110072896137,-1.9463801863486305,0.1336059019074957,2.595550359778934,0.9452445589611904,6.33822164482326e-05,0.0004856614584252102,-0.00016983504082656982,-1.7937844408775536e-06,-7.292278396150736e-05,0.00048261850417098304,-0.0009641443883875284,0.0,0.0,0.0,0.0,0.0,0.0,0.0,0.00020486721339077474,-4.792101297279583e-05,-7.095436453732895e-06,2.3840352108450702e-05,-2.1737976156621652e-06,-1.4241536452352932e-06,-6.645795025406187e-13,-6.33822164482326e-05,-0.0004856614584252102,0.00016983504082656982,1.7937844408775536e-06,7.292278396150736e-05,-0.00048261850417098304,0.0009641443883875284,0.09352988004684448,11.949304580688477,-1.2909882068634033,-21.717256546020508,-0.4031272530555725,-2.5143465995788574,0.17978231608867645,0
9,0.03499770164489746,-0.09352988004684448,-11.949304580688477,1.2909882068634033,21.717256546020508,0.4031272530555725,2.5143465995788574,-0.17978231608867645,0.0,0.0,0.0,0.0,0.0,0.0,0.0,-0.08292591044945505,0.3758926016825119,0.10392764006469286,0.42808871612139476,-0.13195386717221122,0.12601760401858728,-0.2069675515953974,0.17267537040569134,-0.48747232581858047,-0.11146400529250763,-1.946404026700739,0.13360807570511135,2.5955517839325792,0.945244558961855,0.1728802376190821,-0.48752024683155326,-0.11147110072896137,-1.9463801863486305,0.1336059019074957,2.595550359778934,0.9452445589611904,6.33822164482326e-05,0.0004856614584252102,-0.00016983504082656982,-1.7937844408775536e-06,-7.292278396150736e-05,0.00048261850417098304,-0.0009641443883875284,0.0,0.0,0.0,0.0,0.0,0.0,0.0,0.00020486721339077474,-4.792101297279583e-05,-7.095436453732895e-06,2.3840352108450702e-05,-2.1737976156621652e-06,-1.4241536452352932e-06,-6.645795025406187e-13,-6.33822164482326e-05,-0.0004856614584252102,0.00016983504082656982,1.7937844408775536e-06,7.292278396150736e-05,-0.00048261850417098304,0.0009641443883875284,0.09352988004684448,11.949304580688477,-1.2909882068634033,-21.717256546020508,-0.4031272530555725,-2.5143465995788574,0.17978231608867645,0
10,0.04500770568847656,-0.09352988004684448,-11.949304580688477,1.2909882068634033,21.717256546020508,0.4031272530555725,2.5143465995788574,-0.17978231608867645,0.0,0.0,0.0,0.0,0.0,0.0,0.0,-0.08292591044945505,0.3758926016825119,0.10392764006469286,0.42808871612139476,-0.13195386717221122,0.12601760401858728,-0.2069675515953974,0.17267537040569134,-0.48747232581858047,-0.11146400529250763,-1.946404026700739,0.13360807570511135,2.5955517839325792,0.945244558961855,0.1728802376190821,-0.48752024683155326,-0.11147110072896137,-1.9463801863486305,0.1336059019074957,2.595550359778934,0.9452445589611904,6.33822164482326e-05,0.0004856614584252102,-0.00016983504082656982,-1.7937844408775536e-06,-7.292278396150736e-05,0.00048261850417098304,-0.0009641443883875284,0.0,0.0,0.0,0.0,0.0,0.0,0.0,0.00020486721339077474,-4.792101297279583e-05,-7.095436453732895e-06,2.3840352108450702e-05,-2.1737976156621652e-06,-1.4241536452352932e-06,-6.645795025406187e-13,-6.33822164482326e-05,-0.0004856614584252102,0.00016983504082656982,1.7937844408775536e-06,7.292278396150736e-05,-0.00048261850417098304,0.0009641443883875284,0.09352988004684448,11.949304580688477,-1.2909882068634033,-21.717256546020508,-0.4031272530555725,-2.5143465995788574,0.17978231608867645,0
11,0.05041074752807617,-0.09352988004684448,-11.949304580688477,1.2909882068634033,21.717256546020508,0.4031272530555725,2.5143465995788574,-0.17978231608867645,0.0,0.0,0.0,0.0,0.0,0.0,0.0,-0.08292591044945505,0.3758926016825119,0.10392764006469286,0.42808871612139476,-0.13195386717221122,0.12601760401858728,-0.2069675515953974,0.17267537040569134,-0.48747232581858047,-0.11146400529250763,-1.946404026700739,0.13360807570511135,2.5955517839325792,0.945244558961855,0.1728802376190821,-0.48752024683155326,-0.11147110072896137,-1.9463801863486305,0.1336059019074957,2.595550359778934,0.9452445589611904,6.33822164482326e-05,0.0004856614584252102,-0.00016983504082656982,-1.7937844408775536e-06,-7.292278396150736e-05,0.00048261850417098304,-0.0009641443883875284,0.0,0.0,0.0,0.0,0.0,0.0,0.0,0.00020486721339077474,-4.792101297279583e-05,-7.095436453732895e-06,2.3840352108450702e-05,-2.1737976156621652e-06,-1.4241536452352932e-06,-6.645795025406187e-13,-6.33822164482326e-05,-0.0004856614584252102,0.00016983504082656982,1.7937844408775536e-06,7.292278396150736e-05,-0.00048261850417098304,0.0009641443883875284,0.09352988004684448,11.949304580688477,-1.2909882068634033,-21.717256546020508,-0.4031272530555725,-2.5143465995788574,0.17978231608867645,0
12,0.05500626564025879,-0.09352988004684448,-11.949304580688477,1.2909882068634033,21.717256546020508,0.4031272530555725,2.5143465995788574,-0.17978231608867645,0.0,0.0,0.0,0.0,0.0,0.0,0.0,-0.08292591044945505,0.3758926016825119,0.10392764006469286,0.42808871612139476,-0.13195386717221122,0.12601760401858728,-0.2069675515953974,0.17267537040569134,-0.48747232581858047,-0.11146400529250763,-1.946404026700739,0.13360807570511135,2.5955517839325792,0.945244558961855,0.1728802376190821,-0.48752024683155326,-0.11147110072896137,-1.9463801863486305,0.1336059019074957,2.595550359778934,0.9452445589611904,6.33822164482326e-05,0.0004856614584252102,-0.00016983504082656982,-1.7937844408775536e-06,-7.292278396150736e-05,0.00048261850417098304,-0.0009641443883875284,0.0,0.0,0.0,0.0,0.0,0.0,0.0,0.00020486721339077474,-4.792101297279583e-05,-7.095436453732895e-06,2.3840352108450702e-05,-2.1737976156621652e-06,-1.4241536452352932e-06,-6.645795025406187e-13,-6.33822164482326e-05,-0.0004856614584252102,0.00016983504082656982,1.7937844408775536e-06,7.292278396150736e-05,-0.00048261850417098304,0.0009641443883875284,0.09352988004684448,11.949304580688477,-1.2909882068634033,-21.717256546020508,-0.4031272530555725,-2.5143465995788574,0.17978231608867645,0
13,0.060004234313964844,-0.09352988004684448,-11.949304580688477,1.2909882068634033,21.717256546020508,0.4031272530555725,2.5143465995788574,-0.17978231608867645,0.0,0.0,0.0,0.0,0.0,0.0,0.0,-0.08292591044945505,0.3758926016825119,0.10392764006469286,0.42808871612139476,-0.13195386717221122,0.12601760401858728,-0.2069675515953974,0.17267537040569134,-0.48747232581858047,-0.11146400529250763,-1.946404026700739,0.13360807570511135,2.5955517839325792,0.945244558961855,0.1728802376190821,-0.48752024683155326,-0.11147110072896137,-1.9463801863486305,0.1336059019074957,2.595550359778934,0.9452445589611904,6.33822164482326e-05,0.0004856614584252102,-0.00016983504082656982,-1.7937844408775536e-06,-7.292278396150736e-05,0.00048261850417098304,-0.0009641443883875284,0.0,0.0,0.0,0.0,0.0,0.0,0.0,0.00020486721339077474,-4.792101297279583e-05,-7.095436453732895e-06,2.3840352108450702e-05,-2.1737976156621652e-06,-1.4241536452352932e-06,-6.645795025406187e-13,-6.33822164482326e-05,-0.0004856614584252102,0.00016983504082656982,1.7937844408775536e-06,7.292278396150736e-05,-0.00048261850417098304,0.0009641443883875284,0.09352988004684448,11.949304580688477,-1.2909882068634033,-21.717256546020508,-0.4031272530555725,-2.5143465995788574,0.17978231608867645,0
14,0.06499862670898438,-0.09352988004684448,-11.973108291625977,1.3425629138946533,21.717256546020508,0.4031272530555725,2.5335726737976074,-0.19351522624492645,0.0,0.0,0.0,0.0,0.0,0.0,0.0,-0.08650937171552543,0.3712641809133635,0.10239426022912165,0.4322377916259786,-0.13195767527721744,0.12666790344777515,-0.20374364100348483,0.1726752887525221,-0.48747065538272516,-0.11146762457019405,-1.946404026700739,0.13360698100312926,2.5955496477021103,0.9452460848407613,0.1728802376190821,-0.48752024683155326,-0.11147110072896137,-1.9463801863486305,0.1336059019074957,2.595550359778934,0.9452445589611904,0.0005447475824909533,0.0005771209061867666,-0.0012254640650051158,9.457641547567094e-05,-5.0755345478798196e-05,-0.0003315271181060347,0.00046306077450923827,0.0,0.0,0.0,0.0,0.0,0.0,0.0,0.00020494886656000078,-4.959144882810129e-05,-3.4761587673209915e-06,2.3840352108450702e-05,-1.0790956335715585e-06,7.120768237278696e-07,-1.5258795709183204e-06,-0.0005447475824909533,-0.0005771209061867666,0.0012254640650051158,-9.457641547567094e-05,5.0755345478798196e-05,0.0003315271181060347,-0.00046306077450923827,0.09352988004684448,11.973108291625977,-1.3425629138946533,-21.717256546020508,-0.4031272530555725,-2.5335726737976074,0.19351522624492645,0
15,0.06999588012695312,-0.09352988004684448,-11.973108291625977,1.3425629138946533,21.717256546020508,0.4031272530555725,2.5335726737976074,-0.19351522624492645,0.0,0.0,0.0,0.0,0.0,0.0,0.0,-0.08650937171552543,0.3712641809133635,0.10239426022912165,0.4322377916259786,-0.13195767527721744,0.12666790344777515,-0.20374364100348483,0.1726752887525221,-0.48747065538272516,-0.11146762457019405,-1.946404026700739,0.13360698100312926,2.5955496477021103,0.9452460848407613,0.1728802376190821,-0.48752024683155326,-0.11147110072896137,-1.9463801863486305,0.1336059019074957,2.595550359778934,0.9452445589611904,0.0005447475824909533,0.0005771209061867666,-0.0012254640650051158,9.457641547567094e-05,-5.0755345478798196e-05,-0.0003315271181060347,0.00046306077450923827,0.0,0.0,0.0,0.0,0.0,0.0,0.0,0.00020494886656000078,-4.959144882810129e-05,-3.4761587673209915e-06,2.3840352108450702e-05,-1.0790956335715585e-06,7.120768237278696e-07,-1.5258795709183204e-06,-0.0005447475824909533,-0.0005771209061867666,0.0012254640650051158,-9.457641547567094e-05,5.0755345478798196e-05,0.0003315271181060347,-0.00046306077450923827,0.09352988004684448,11.973108291625977,-1.3425629138946533,-21.717256546020508,-0.4031272530555725,-2.5335726737976074,0.19351522624492645,0
16,0.07500672340393066,-0.06972616910934448,-12.000879287719727,1.2909882068634033,21.717256546020508,0.3976340889930725,2.5207552909851074,-0.19351522624492645,0.0,0.0,0.0,0.0,0.0,0.0,0.0,-0.07595652632687946,0.3695515865524548,0.1163536356813626,0.4320628445036365,-0.13232225989200694,0.12664007748000372,-0.20167528569729967,0.1726736970536503,-0.487468706540894,-0.11146400529250763,-1.946404026700739,0.13360822077201304,2.5955500122176276,0.9452460848407613,0.1728802376190821,-0.48752024683155326,-0.11147110072896137,-1.9463801863486305,0.1336059019074957,2.595550359778934,0.9452445589611904,0.00032651963768973256,0.0005040253413715323,0.0007508040662118913,7.637979964275556e-05,5.936408880737139e-05,0.00022478733348859568,0.0005883188386698684,0.0,0.0,0.0,0.0,0.0,0.0,0.0,0.00020654056543181754,-5.154029065923549e-05,-7.095436453732895e-06,2.3840352108450702e-05,-2.3188645173477518e-06,3.475613064019001e-07,-1.5258795709183204e-06,-0.00032651963768973256,-0.0005040253413715323,-0.0007508040662118913,-7.637979964275556e-05,-5.936408880737139e-05,-0.00022478733348859568,-0.0005883188386698684,0.06972616910934448,12.000879287719727,-1.2909882068634033,-21.717256546020508,-0.3976340889930725,-2.5207552909851074,0.19351522624492645,0
17,0.07999610900878906,-0.06972616910934448,-12.000879287719727,1.2909882068634033,21.717256546020508,0.3976340889930725,2.5207552909851074,-0.19351522624492645,0.0,0.0,0.0,0.0,0.0,0.0,0.0,-0.07595652632687946,0.3695515865524548,0.1163536356813626,0.4320628445036365,-0.13232225989200694,0.12664007748000372,-0.20167528569729967,0.1726736970536503,-0.487468706540894,-0.11146400529250763,-1.946404026700739,0.13360822077201304,2.5955500122176276,0.9452460848407613,0.1728802376190821,-0.48752024683155326,-0.11147110072896137,-1.9463801863486305,0.1336059019074957,2.595550359778934,0.9452445589611904,0.00032651963768973256,0.0005040253413715323,0.0007508040662118913,7.637979964275556e-05,5.936408880737139e-05,0.00022478733348859568,0.0005883188386698684,0.0,0.0,0.0,0.0,0.0,0.0,0.0,0.00020654056543181754,-5.154029065923549e-05,-7.095436453732895e-06,2.3840352108450702e-05,-2.3188645173477518e-06,3.475613064019001e-07,-1.5258795709183204e-06,-0.00032651963768973256,-0.0005040253413715323,-0.0007508040662118913,-7.637979964275556e-05,-5.936408880737139e-05,-0.00022478733348859568,-0.0005883188386698684,0.06972616910934448,12.000879287719727,-1.2909882068634033,-21.717256546020508,-0.3976340889930725,-2.5207552909851074,0.19351522624492645,0
18,0.08499455451965332,-0.06972616910934448,-12.000879287719727,1.3425629138946533,21.693452835083008,0.4095359444618225,2.5207552909851074,-0.17978231608867645,0.0,0.0,0.0,0.0,0.0,0.0,0.0,-0.08075781736974406,0.3736103498926799,0.10427277636350488,0.4272700781847328,-0.13183853966809736,0.12559097217856785,-0.20002445563268823,0.17267361831709488,-0.487468706540894,-0.11146762457019405,-1.9464023562648838,0.1336073767371478,2.595551071849775,0.945244558961855,0.1728802376190821,-0.48752024683155326,-0.11147110072896137,-1.9463801863486305,0.1336059019074957,2.595550359778934,0.9452445589611904,-0.0006785693910855753,0.0008271959483697177,-0.001042024441074492,0.0003806154082265899,-0.00023686902234636354,9.989145670465571e-05,-0.00036262903212484987,0.0,0.0,0.0,0.0,0.0,0.0,0.0,0.000206619301987232,-5.154029065923549e-05,-3.4761587673209915e-06,2.216991625325626e-05,-1.4748296520983306e-06,-7.120708409580345e-07,-6.645795025406187e-13,0.0006785693910855753,-0.0008271959483697177,0.001042024441074492,-0.0003806154082265899,0.00023686902234636354,-9.989145670465571e-05,0.00036262903212484987,0.06972616910934448,12.000879287719727,-1.3425629138946533,-21.693452835083008,-0.4095359444618225,-2.5207552909851074,0.17978231608867645,0
19,0.08999466896057129,-0.06972616910934448,-12.000879287719727,1.3425629138946533,21.693452835083008,0.4095359444618225,2.5207552909851074,-0.17978231608867645,0.0,0.0,0.0,0.0,0.0,0.0,0.0,-0.08075781736974406,0.3736103498926799,0.10427277636350488,0.4272700781847328,-0.13183853966809736,0.12559097217856785,-0.20002445563268823,0.17267361831709488,-0.487468706540894,-0.11146762457019405,-1.9464023562648838,0.1336073767371478,2.595551071849775,0.945244558961855,0.1728802376190821,-0.48752024683155326,-0.11147110072896137,-1.9463801863486305,0.1336059019074957,2.595550359778934,0.9452445589611904,-0.0006785693910855753,0.0008271959483697177,-0.001042024441074492,0.0003806154082265899,-0.00023686902234636354,9.989145670465571e-05,-0.00036262903212484987,0.0,0.0,0.0,0.0,0.0,0.0,0.0,0.000206619301987232,-5.154029065923549e-05,-3.4761587673209915e-06,2.216991625325626e-05,-1.4748296520983306e-06,-7.120708409580345e-07,-6.645795025406187e-13,0.0006785693910855753,-0.0008271959483697177,0.001042024441074492,-0.0003806154082265899,0.00023686902234636354,-9.989145670465571e-05,0.00036262903212484987,0.06972616910934448,12.000879287719727,-1.3425629138946533,-21.693452835083008,-0.4095359444618225,-2.5207552909851074,0.17978231608867645,0
20,0.0954124927520752,-0.12130087614059448,-11.973108291625977,1.3425629138946533,21.717256546020508,0.4095359444618225,2.5207552909851074,-0.19351522624492645,0.0,0.0,0.0,0.0,0.0,0.0,0.0,-0.07627846710690593,0.3744231301089077,0.11478605884073888,0.4260672069518321,-0.13190840513200366,0.12536657976407353,-0.19975854083778738,0.17267723759433679,-0.48747065538272516,-0.11146762457019405,-1.946404026700739,0.1336061787334932,2.595551071855757,0.9452460848407613,0.1728802376190821,-0.48752024683155326,-0.11147110072896137,-1.9463801863486305,0.1336059019074957,2.595550359778934,0.9452445589611904,0.0007550160543719175,0.000263893712941882,-0.0005257778469971783,0.00015056002140949041,-0.00022543526562658611,0.00038846045230795783,-0.00016533100367814837,0.0,0.0,0.0,0.0,0.0,0.0,0.0,0.00020300002474532564,-4.959144882810129e-05,-3.4761587673209915e-06,2.3840352108450702e-05,-2.7682599751388537e-07,-7.120768228396912e-07,-1.5258795709183204e-06,-0.0007550160543719175,-0.000263893712941882,0.0005257778469971783,-0.00015056002140949041,0.00022543526562658611,-0.00038846045230795783,0.00016533100367814837,0.12130087614059448,11.973108291625977,-1.3425629138946533,-21.717256546020508,-0.4095359444618225,-2.5207552909851074,0.19351522624492645,0
21,0.10000777244567871,-0.12130087614059448,-11.973108291625977,1.3425629138946533,21.717256546020508,0.4095359444618225,2.5207552909851074,-0.19351522624492645,0.0,0.0,0.0,0.0,0.0,0.0,0.0,-0.07627846710690593,0.3744231301089077,0.11478605884073888,0.4260672069518321,-0.13190840513200366,0.12536657976407353,-0.19975854083778738,0.17267723759433679,-0.48747065538272516,-0.11146762457019405,-1.946404026700739,0.1336061787334932,2.595551071855757,0.9452460848407613,0.1728802376190821,-0.48752024683155326,-0.11147110072896137,-1.9463801863486305,0.1336059019074957,2.595550359778934,0.9452445589611904,0.0007550160543719175,0.000263893712941882,-0.0005257778469971783,0.00015056002140949041,-0.00022543526562658611,0.00038846045230795783,-0.00016533100367814837,0.0,0.0,0.0,0.0,0.0,0.0,0.0,0.00020300002474532564,-4.959144882810129e-05,-3.4761587673209915e-06,2.3840352108450702e-05,-2.7682599751388537e-07,-7.120768228396912e-07,-1.5258795709183204e-06,-0.0007550160543719175,-0.000263893712941882,0.0005257778469971783,-0.00015056002140949041,0.00022543526562658611,-0.00038846045230795783,0.00016533100367814837,0.12130087614059448,11.973108291625977,-1.3425629138946533,-21.717256546020508,-0.4095359444618225,-2.5207552909851074,0.19351522624492645,0
22,0.10643982887268066,-0.04592245817184448,-11.949304580688477,1.3147919178009033,21.741060256958008,0.4031272530555725,2.5207552909851074,-0.16604940593242645,0.0,0.0,0.0,0.0,0.0,0.0,0.0,-0.07517635410752917,0.3669263091750739,0.11918878099686653,0.4305510960347238,-0.13197583203260008,0.126392451237448,-0.20034065969114478,0.17267194788079512,-0.48747232581858047,-0.1114656757283629,-1.946405459057177,0.13360471749055486,2.595551071855757,0.9452430316293985,0.1728802376190821,-0.48752024683155326,-0.11147110072896137,-1.9463801863486305,0.1336059019074957,2.595550359778934,0.9452445589611904,-0.000339694012095425,-0.0004212554988522038,2.1632097275237198e-05,-0.00022646655720603257,-0.00017547954055896565,-9.232736287063367e-05,-0.0012318919749541315,0.0,0.0,0.0,0.0,0.0,0.0,0.0,0.0002082897382869875,-4.792101297279583e-05,-5.425000598469065e-06,2.5272708546575373e-05,1.1844169408303795e-06,-7.120768228396912e-07,1.5273317919284324e-06,0.000339694012095425,0.0004212554988522038,-2.1632097275237198e-05,0.00022646655720603257,0.00017547954055896565,9.232736287063367e-05,0.0012318919749541315,0.04592245817184448,11.949304580688477,-1.3147919178009033,-21.741060256958008,-0.4031272530555725,-2.5207552909851074,0.16604940593242645,0
23,0.11000680923461914,-0.04592245817184448,-11.949304580688477,1.3147919178009033,21.741060256958008,0.4031272530555725,2.5207552909851074,-0.16604940593242645,0.0,0.0,0.0,0.0,0.0,0.0,0.0,-0.07517635410752917,0.3669263091750739,0.11918878099686653,0.4305510960347238,-0.13197583203260008,0.126392451237448,-0.20034065969114478,0.17267194788079512,-0.48747232581858047,-0.1114656757283629,-1.946405459057177,0.13360471749055486,2.595551071855757,0.9452430316293985,0.1728802376190821,-0.48752024683155326,-0.11147110072896137,-1.9463801863486305,0.1336059019074957,2.595550359778934,0.9452445589611904,-0.000339694012095425,-0.0004212554988522038,2.1632097275237198e-05,-0.00022646655720603257,-0.00017547954055896565,-9.232736287063367e-05,-0.0012318919749541315,0.0,0.0,0.0,0.0,0.0,0.0,0.0,0.0002082897382869875,-4.792101297279583e-05,-5.425000598469065e-06,2.5272708546575373e-05,1.1844169408303795e-06,-7.120768228396912e-07,1.5273317919284324e-06,0.000339694012095425,0.0004212554988522038,-2.1632097275237198e-05,0.00022646655720603257,0.00017547954055896565,9.232736287063367e-05,0.0012318919749541315,0.04592245817184448,11.949304580688477,-1.3147919178009033,-21.741060256958008,-0.4031272530555725,-2.5207552909851074,0.16604940593242645,0
24,0.11501622200012207,-0.09352988004684448,-11.973108291625977,1.2909882068634033,21.717256546020508,0.3976340889930725,2.5271639823913574,-0.20724813640117645,0.0,0.0,0.0,0.0,0.0,0.0,0.0,-0.07678266566771617,0.36623138293412283,0.1108172897828053,0.4298124274286341,-0.13226170488965022,0.12565986734606718,-0.20140061687332925,0.17267528907652624,-0.48747065538272516,-0.11146400529250763,-1.946404026699395,0.13360864064380515,2.595550359778934,0.9452476107196593,0.1728802376190821,-0.48752024683155326,-0.11147110072896137,-1.9463801863486305,0.1336059019074957,2.595550359778934,0.9452445589611904,0.0005990523544176937,-0.00022843322063684901,0.00031858595727304797,-4.215674581153719e-05,0.0002372097128073591,-3.8072706119380466e-05,0.0010134124973767207,0.0,0.0,0.0,0.0,0.0,0.0,0.0,0.0002049485425558717,-4.959144882810129e-05,-7.095436453732895e-06,2.384035076441471e-05,-2.738736309459977e-06,0.0,-3.0517584689304655e-06,-0.0005990523544176937,0.00022843322063684901,-0.00031858595727304797,4.215674581153719e-05,-0.0002372097128073591,3.8072706119380466e-05,-0.0010134124973767207,0.09352988004684448,11.973108291625977,-1.2909882068634033,-21.717256546020508,-0.3976340889930725,-2.5271639823913574,0.20724813640117645,0
25,0.1211545467376709,-0.09352988004684448,-11.949304580688477,1.3147919178009033,21.741060256958008,0.3976340889930725,2.5271639823913574,-0.23471395671367645,0.0,0.0,0.0,0.0,0.0,0.0,0.0,-0.07739399428791814,0.31858303460588455,0.11298941991558482,0.47331453503260107,-0.13207482467797818,0.13199945917672526,-0.20166268807690058,0.17267528886051434,-0.48747232581858047,-0.1114656757283629,-1.9464056176637348,0.1336076285733026,2.5955493001408048,0.94525066247748,0.1728802376190821,-0.48752024683155326,-0.11147110072896137,-1.9463801863486305,0.1336059019074957,2.595550359778934,0.9452445589611904,-6.562614240459786e-05,-0.00017209189856414844,2.802112924819168e-05,-0.0008986594682922262,1.715815920862035e-05,0.00011236050795415678,0.001594711976084495,0.0,0.0,0.0,0.0,0.0,0.0,0.0,0.0002049487585677745,-4.792101297279583e-05,-5.425000598469065e-06,2.543131510424068e-05,-1.7266658069170493e-06,1.0596381292415913e-06,-6.103516289601707e-06,6.562614240459786e-05,0.00017209189856414844,-2.802112924819168e-05,0.0008986594682922262,-1.715815920862035e-05,-0.00011236050795415678,-0.001594711976084495,0.09352988004684448,11.949304580688477,-1.3147919178009033,-21.741060256958008,-0.3976340889930725,-2.5271639823913574,0.23471395671367645,0
26,0.12499856948852539,-0.09352988004684448,-11.949304580688477,1.3147919178009033,21.741060256958008,0.3976340889930725,2.5271639823913574,-0.23471395671367645,0.0,0.0,0.0,0.0,0.0,0.0,0.0,-0.07739399428791814,0.31858303460588455,0.11298941991558482,0.47331453503260107,-0.13207482467797818,0.13199945917672526,-0.20166268807690058,0.17267528886051434,-0.48747232581858047,-0.1114656757283629,-1.9464056176637348,0.1336076285733026,2.5955493001408048,0.94525066247748,0.1728802376190821,-0.48752024683155326,-0.11147110072896137,-1.9463801863486305,0.1336059019074957,2.595550359778934,0.9452445589611904,-6.562614240459786e-05,-0.00017209189856414844,2.802112924819168e-05,-0.0008986594682922262,1.715815920862035e-05,0.00011236050795415678,0.001594711976084495,0.0,0.0,0.0,0.0,0.0,0.0,0.0,0.0002049487585677745,-4.792101297279583e-05,-5.425000598469065e-06,2.543131510424068e-05,-1.7266658069170493e-06,1.0596381292415913e-06,-6.103516289601707e-06,6.562614240459786e-05,0.00017209189856414844,-2.802112924819168e-05,0.0008986594682922262,-1.715815920862035e-05,-0.00011236050795415678,-0.001594711976084495,0.09352988004684448,11.949304580688477,-1.3147919178009033,-21.741060256958008,-0.3976340889930725,-2.5271639823913574,0.23471395671367645,0
27,0.12999272346496582,-0.09352988004684448,-11.949304580688477,1.3147919178009033,21.741060256958008,0.3976340889930725,2.5271639823913574,-0.23471395671367645,0.0,0.0,0.0,0.0,0.0,0.0,0.0,-0.07739399428791814,0.31858303460588455,0.11298941991558482,0.47331453503260107,-0.13207482467797818,0.13199945917672526,-0.20166268807690058,0.17267528886051434,-0.48747232581858047,-0.1114656757283629,-1.9464056176637348,0.1336076285733026,2.5955493001408048,0.94525066247748,0.1728802376190821,-0.48752024683155326,-0.11147110072896137,-1.9463801863486305,0.1336059019074957,2.595550359778934,0.9452445589611904,-6.562614240459786e-05,-0.00017209189856414844,2.802112924819168e-05,-0.0008986594682922262,1.715815920862035e-05,0.00011236050795415678,0.001594711976084495,0.0,0.0,0.0,0.0,0.0,0.0,0.0,0.0002049487585677745,-4.792101297279583e-05,-5.425000598469065e-06,2.543131510424068e-05,-1.7266658069170493e-06,1.0596381292415913e-06,-6.103516289601707e-06,6.562614240459786e-05,0.00017209189856414844,-2.802112924819168e-05,0.0008986594682922262,-1.715815920862035e-05,-0.00011236050795415678,-0.001594711976084495,0.09352988004684448,11.949304580688477,-1.3147919178009033,-21.741060256958008,-0.3976340889930725,-2.5271639823913574,0.23471395671367645,0
28,0.1359264850616455,-0.06972616910934448,-11.925500869750977,1.3425629138946533,21.717256546020508,0.4095359444618225,2.5271639823913574,-0.16604940593242645,0.0,0.0,0.0,0.0,0.0,0.0,0.0,-0.07669994269610696,0.3757915049405182,0.1142798466978514,0.42646247925235653,-0.13346408869151852,0.12500458803068368,-0.20251552543400475,0.17267385456365297,-0.4874739962544357,-0.11146762457019405,-1.9464040267002904,0.13360733090457683,2.595550359772952,0.9452430330829488,0.1728802376190821,-0.48752024683155326,-0.11147110072896137,-1.9463801863486305,0.1336059019074957,2.595550359778934,0.9452445589611904,-0.0005965057201276928,-0.00038872817456782934,-0.0009667394710705823,0.0001396207653101971,-0.00024491284313012357,-0.00017879135125078264,-0.0013130798434957372,0.0,0.0,0.0,0.0,0.0,0.0,0.0,0.00020638305542913793,-4.625057711754588e-05,-3.4761587673209915e-06,2.38403516599206e-05,-1.4289970811376396e-06,5.9818816566803434e-12,1.525878241648293e-06,0.0005965057201276928,0.00038872817456782934,0.0009667394710705823,-0.0001396207653101971,0.00024491284313012357,0.00017879135125078264,0.0013130798434957372,0.06972616910934448,11.925500869750977,-1.3425629138946533,-21.717256546020508,-0.4095359444618225,-2.5271639823913574,0.16604940593242645,0
29,0.13999652862548828,-0.06972616910934448,-11.925500869750977,1.3425629138946533,21.717256546020508,0.4095359444618225,2.5271639823913574,-0.16604940593242645,0.0,0.0,0.0,0.0,0.0,0.0,0.0,-0.07669994269610696,0.3757915049405182,0.1142798466978514,0.42646247925235653,-0.13346408869151852,0.12500458803068368,-0.20251552543400475,0.17267385456365297,-0.4874739962544357,-0.11146762457019405,-1.9464040267002904,0.13360733090457683,2.595550359772952,0.9452430330829488,0.1728802376190821,-0.48752024683155326,-0.11147110072896137,-1.9463801863486305,0.1336059019074957,2.595550359778934,0.9452445589611904,-0.0005965057201276928,-0.00038872817456782934,-0.0009667394710705823,0.0001396207653101971,-0.00024491284313012357,-0.00017879135125078264,-0.0013130798434957372,0.0,0.0,0.0,0.0,0.0,0.0,0.0,0.00020638305542913793,-4.625057711754588e-05,-3.4761587673209915e-06,2.38403516599206e-05,-1.4289970811376396e-06,5.9818816566803434e-12,1.525878241648293e-06,0.0005965057201276928,0.00038872817456782934,0.0009667394710705823,-0.0001396207653101971,0.00024491284313012357,0.00017879135125078264,0.0013130798434957372,0.06972616910934448,11.925500869750977,-1.3425629138946533,-21.717256546020508,-0.4095359444618225,-2.5271639823913574,0.16604940593242645,0
30,0.14499592781066895,-0.06972616910934448,-11.901697158813477,1.3147919178009033,21.741060256958008,0.4095359444618225,2.5207552909851074,-0.18710653483867645,0.0,0.0,0.0,0.0,0.0,0.0,0.0,-0.07614746956410416,0.3936899531869385,0.11536457532500569,0.41518912922030665,-0.1336027630231227,0.12315298780285122,-0.20398369217893267,0.17267364456365064,-0.48747566669029097,-0.1114656757283629,-1.9464056971365944,0.13360630468235388,2.595551071855757,0.9452453727639384,0.1728802376190821,-0.48752024683155326,-0.11147110072896137,-1.9463801863486305,0.1336059019074957,2.595550359778934,0.9452445589611904,-0.0007193399781280321,-0.00047066816078262483,0.00016070890694711273,-0.0010678307188993473,-0.00022816345726978205,0.0001716883044027516,0.0010031955462134691,0.0,0.0,0.0,0.0,0.0,0.0,0.0,0.00020659305543146989,-4.4580141262295925e-05,-5.425000598469065e-06,2.5510787963867188e-05,-4.027748581880708e-07,-7.120768228396912e-07,-8.138027479676069e-07,0.0007193399781280321,0.00047066816078262483,-0.00016070890694711273,0.0010678307188993473,0.00022816345726978205,-0.0001716883044027516,-0.0010031955462134691,0.06972616910934448,11.901697158813477,-1.3147919178009033,-21.741060256958008,-0.4095359444618225,-2.5207552909851074,0.18710653483867645,0
31,0.14999723434448242,-0.06972616910934448,-11.901697158813477,1.3147919178009033,21.741060256958008,0.4095359444618225,2.5207552909851074,-0.18710653483867645,0.0,0.0,0.0,0.0,0.0,0.0,0.0,-0.07614746956410416,0.3936899531869385,0.11536457532500569,0.41518912922030665,-0.1336027630231227,0.12315298780285122,-0.20398369217893267,0.17267364456365064,-0.48747566669029097,-0.1114656757283629,-1.9464056971365944,0.13360630468235388,2.595551071855757,0.9452453727639384,0.1728802376190821,-0.48752024683155326,-0.11147110072896137,-1.9463801863486305,0.1336059019074957,2.595550359778934,0.9452445589611904,-0.0007193399781280321,-0.00047066816078262483,0.00016070890694711273,-0.0010678307188993473,-0.00022816345726978205,0.0001716883044027516,0.0010031955462134691,0.0,0.0,0.0,0.0,0.0,0.0,0.0,0.00020659305543146989,-4.4580141262295925e-05,-5.425000598469065e-06,2.5510787963867188e-05,-4.027748581880708e-07,-7.120768228396912e-07,-8.138027479676069e-07,0.0007193399781280321,0.00047066816078262483,-0.00016070890694711273,0.0010678307188993473,0.00022816345726978205,-0.0001716883044027516,-0.0010031955462134691,0.06972616910934448,11.901697158813477,-1.3147919178009033,-21.741060256958008,-0.4095359444618225,-2.5207552909851074,0.18710653483867645,0
32,0.15499401092529297,-0.04592245817184448,-11.949304580688477,1.3147919178009033,21.717256546020508,0.4031272530555725,2.5335726737976074,-0.21457235515117645,0.0,0.0,0.0,0.0,0.0,0.0,0.0,-0.08044617380708209,0.3837801030603274,0.11309943302196981,0.424210791424562,-0.13250021880441856,0.12485670552831879,-0.2057375919503819,0.17267407377994026,-0.48747232581858047,-0.1114656757283629,-1.946404026700739,0.13360803620993347,2.595549647702111,0.9452483852758942,0.1728802376190821,-0.48752024683155326,-0.11147110072896137,-1.9463801863486305,0.1336059019074957,2.595550359778934,0.9452445589611904,-0.0011949964927361226,0.0004456640670553348,-0.00017675550428184104,0.0002076315304650474,-0.0002436144683089173,-0.000252296962937383,0.0008425127819399992,0.0,0.0,0.0,0.0,0.0,0.0,0.0,0.00020616383914184855,-4.792101297279583e-05,-5.425000598469065e-06,2.3840352108450702e-05,-2.134302437784008e-06,7.120768228396912e-07,-3.826314703747613e-06,0.0011949964927361226,-0.0004456640670553348,0.00017675550428184104,-0.0002076315304650474,0.0002436144683089173,0.000252296962937383,-0.0008425127819399992,0.04592245817184448,11.949304580688477,-1.3147919178009033,-21.717256546020508,-0.4031272530555725,-2.5335726737976074,0.21457235515117645,0
33,0.15999627113342285,-0.04592245817184448,-11.949304580688477,1.3147919178009033,21.717256546020508,0.4031272530555725,2.5335726737976074,-0.21457235515117645,0.0,0.0,0.0,0.0,0.0,0.0,0.0,-0.08044617380708209,0.3837801030603274,0.11309943302196981,0.424210791424562,-0.13250021880441856,0.12485670552831879,-0.2057375919503819,0.17267407377994026,-0.48747232581858047,-0.1114656757283629,-1.946404026700739,0.13360803620993347,2.595549647702111,0.9452483852758942,0.1728802376190821,-0.48752024683155326,-0.11147110072896137,-1.9463801863486305,0.1336059019074957,2.595550359778934,0.9452445589611904,-0.0011949964927361226,0.0004456640670553348,-0.00017675550428184104,0.0002076315304650474,-0.0002436144683089173,-0.000252296962937383,0.0008425127819399992,0.0,0.0,0.0,0.0,0.0,0.0,0.0,0.00020616383914184855,-4.792101297279583e-05,-5.425000598469065e-06,2.3840352108450702e-05,-2.134302437784008e-06,7.120768228396912e-07,-3.826314703747613e-06,0.0011949964927361226,-0.0004456640670553348,0.00017675550428184104,-0.0002076315304650474,0.0002436144683089173,0.000252296962937383,-0.0008425127819399992,0.04592245817184448,11.949304580688477,-1.3147919178009033,-21.717256546020508,-0.4031272530555725,-2.5335726737976074,0.21457235515117645,0
34,0.16499829292297363,-0.04592245817184448,-11.925500869750977,1.2671844959259033,21.741060256958008,0.3976340889930725,2.5271639823913574,-0.21457235515117645,0.0,0.0,0.0,0.0,0.0,0.0,0.0,-0.0819482984646764,0.3890826564694962,0.11254693106330295,0.42375850748439475,-0.13283363048785052,0.1249507910835472,-0.2070620091429157,0.1726726565257949,-0.4874739962544357,-0.11146304348965136,-1.9464056971365944,0.13360869900542183,2.595550359778934,0.9452484245215294,0.1728802376190821,-0.48752024683155326,-0.11147110072896137,-1.9463801863486305,0.1336059019074957,2.595550359778934,0.9452445589611904,-0.0006942124447698054,-0.0006162575015923788,0.0009494421528379076,-0.0004081397695674439,0.00013811290922138587,-5.415183641264935e-05,0.0006284893639996944,0.0,0.0,0.0,0.0,0.0,0.0,0.0,0.00020758109328722352,-4.625057711754588e-05,-8.057239310008124e-06,2.5510787963867188e-05,-2.797097926138248e-06,0.0,-3.8655603389337045e-06,0.0006942124447698054,0.0006162575015923788,-0.0009494421528379076,0.0004081397695674439,-0.00013811290922138587,5.415183641264935e-05,-0.0006284893639996944,0.04592245817184448,11.925500869750977,-1.2671844959259033,-21.741060256958008,-0.3976340889930725,-2.5271639823913574,0.21457235515117645,0
35,0.1699974536895752,-0.04592245817184448,-11.925500869750977,1.2671844959259033,21.741060256958008,0.3976340889930725,2.5271639823913574,-0.21457235515117645,0.0,0.0,0.0,0.0,0.0,0.0,0.0,-0.0819482984646764,0.3890826564694962,0.11254693106330295,0.42375850748439475,-0.13283363048785052,0.1249507910835472,-0.2070620091429157,0.1726726565257949,-0.4874739962544357,-0.11146304348965136,-1.9464056971365944,0.13360869900542183,2.595550359778934,0.9452484245215294,0.1728802376190821,-0.48752024683155326,-0.11147110072896137,-1.9463801863486305,0.1336059019074957,2.595550359778934,0.9452445589611904,-0.0006942124447698054,-0.0006162575015923788,0.0009494421528379076,-0.0004081397695674439,0.00013811290922138587,-5.415183641264935e-05,0.0006284893639996944,0.0,0.0,0.0,0.0,0.0,0.0,0.0,0.00020758109328722352,-4.625057711754588e-05,-8.057239310008124e-06,2.5510787963867188e-05,-2.797097926138248e-06,0.0,-3.8655603389337045e-06,0.0006942124447698054,0.0006162575015923788,-0.0009494421528379076,0.0004081397695674439,-0.00013811290922138587,5.415183641264935e-05,-0.0006284893639996944,0.04592245817184448,11.925500869750977,-1.2671844959259033,-21.741060256958008,-0.3976340889930725,-2.5271639823913574,0.21457235515117645,0
36,0.17499518394470215,-0.04592245817184448,-11.925500869750977,1.2671844959259033,21.741060256958008,0.3976340889930725,2.5271639823913574,-0.21457235515117645,0.0,0.0,0.0,0.0,0.0,0.0,0.0,-0.0819482984646764,0.3890826564694962,0.11254693106330295,0.42375850748439475,-0.13283363048785052,0.1249507910835472,-0.2070620091429157,0.1726726565257949,-0.4874739962544357,-0.11146304348965136,-1.9464056971365944,0.13360869900542183,2.595550359778934,0.9452484245215294,0.1728802376190821,-0.48752024683155326,-0.11147110072896137,-1.9463801863486305,0.1336059019074957,2.595550359778934,0.9452445589611904,-0.0006942124447698054,-0.0006162575015923788,0.0009494421528379076,-0.0004081397695674439,0.00013811290922138587,-5.415183641264935e-05,0.0006284893639996944,0.0,0.0,0.0,0.0,0.0,0.0,0.0,0.00020758109328722352,-4.625057711754588e-05,-8.057239310008124e-06,2.5510787963867188e-05,-2.797097926138248e-06,0.0,-3.8655603389337045e-06,0.0006942124447698054,0.0006162575015923788,-0.0009494421528379076,0.0004081397695674439,-0.00013811290922138587,5.415183641264935e-05,-0.0006284893639996944,0.04592245817184448,11.925500869750977,-1.2671844959259033,-21.741060256958008,-0.3976340889930725,-2.5271639823913574,0.21457235515117645,0
37,0.17999982833862305,-0.04592245817184448,-11.925500869750977,1.2671844959259033,21.741060256958008,0.3976340889930725,2.5271639823913574,-0.21457235515117645,0.0,0.0,0.0,0.0,0.0,0.0,0.0,-0.0819482984646764,0.3890826564694962,0.11254693106330295,0.42375850748439475,-0.13283363048785052,0.1249507910835472,-0.2070620091429157,0.1726726565257949,-0.4874739962544357,-0.11146304348965136,-1.9464056971365944,0.13360869900542183,2.595550359778934,0.9452484245215294,0.1728802376190821,-0.48752024683155326,-0.11147110072896137,-1.9463801863486305,0.1336059019074957,2.595550359778934,0.9452445589611904,-0.0006942124447698054,-0.0006162575015923788,0.0009494421528379076,-0.0004081397695674439,0.00013811290922138587,-5.415183641264935e-05,0.0006284893639996944,0.0,0.0,0.0,0.0,0.0,0.0,0.0,0.00020758109328722352,-4.625057711754588e-05,-8.057239310008124e-06,2.5510787963867188e-05,-2.797097926138248e-06,0.0,-3.8655603389337045e-06,0.0006942124447698054,0.0006162575015923788,-0.0009494421528379076,0.0004081397695674439,-0.00013811290922138587,5.415183641264935e-05,-0.0006284893639996944,0.04592245817184448,11.925500869750977,-1.2671844959259033,-21.741060256958008,-0.3976340889930725,-2.5271639823913574,0.21457235515117645,0
38,0.18500566482543945,-0.06972616910934448,-11.973108291625977,1.2909882068634033,21.768831253051758,0.3976340889930725,2.5207552909851074,-0.16604940593242645,0.0,0.0,0.0,0.0,0.0,0.0,0.0,-0.08103332082271428,0.3836626252513282,0.11077242070086551,0.42609882169963864,-0.13296403517066302,0.1254901173616407,-0.20783076374886936,0.17267361832065073,-0.48747065538272516,-0.11146400529650789,-1.9464076459784254,0.13360865323066157,2.595550010764077,0.9452430330829488,0.1728802376190821,-0.48752024683155326,-0.11147110072896137,-1.9463801863486305,0.1336059019074957,2.595550359778934,0.9452445589611904,2.174363047738457e-05,0.00029474711776817156,-7.430175280764858e-06,-0.0009544832734601169,9.727004931263526e-05,0.0003025835259330047,-0.0010977283086922335,0.0,0.0,0.0,0.0,0.0,0.0,0.0,0.00020661929843138194,-4.959144882810129e-05,-7.095432453474437e-06,2.745962979489036e-05,-2.7513231658782278e-06,3.4901485701510637e-07,1.525878241648293e-06,-2.174363047738457e-05,-0.00029474711776817156,7.430175280764858e-06,0.0009544832734601169,-9.727004931263526e-05,-0.0003025835259330047,0.0010977283086922335,0.06972616910934448,11.973108291625977,-1.2909882068634033,-21.768831253051758,-0.3976340889930725,-2.5207552909851074,0.16604940593242645,0
39,0.18999981880187988,-0.06972616910934448,-11.973108291625977,1.2909882068634033,21.768831253051758,0.3976340889930725,2.5207552909851074,-0.16604940593242645,0.0,0.0,0.0,0.0,0.0,0.0,0.0,-0.08103332082271428,0.3836626252513282,0.11077242070086551,0.42609882169963864,-0.13296403517066302,0.1254901173616407,-0.20783076374886936,0.17267361832065073,-0.48747065538272516,-0.11146400529650789,-1.9464076459784254,0.13360865323066157,2.595550010764077,0.9452430330829488,0.1728802376190821,-0.48752024683155326,-0.11147110072896137,-1.9463801863486305,0.1336059019074957,2.595550359778934,0.9452445589611904,2.174363047738457e-05,0.00029474711776817156,-7.430175280764858e-06,-0.0009544832734601169,9.727004931263526e-05,0.0003025835259330047,-0.0010977283086922335,0.0,0.0,0.0,0.0,0.0,0.0,0.0,0.00020661929843138194,-4.959144882810129e-05,-7.095432453474437e-06,2.745962979489036e-05,-2.7513231658782278e-06,3.4901485701510637e-07,1.525878241648293e-06,-2.174363047738457e-05,-0.00029474711776817156,7.430175280764858e-06,0.0009544832734601169,-9.727004931263526e-05,-0.0003025835259330047,0.0010977283086922335,0.06972616910934448,11.973108291625977,-1.2909882068634033,-21.768831253051758,-0.3976340889930725,-2.5207552909851074,0.16604940593242645,0
40,0.19500327110290527,-0.09352988004684448,-11.925500869750977,1.3147919178009033,21.717256546020508,0.3912253975868225,2.5335726737976074,-0.22830526530742645,0.0,0.0,0.0,0.0,0.0,0.0,0.0,-0.076665952882683,0.38221771909995617,0.11560452913147824,0.4255699048160955,-0.13300037945273638,0.12558239785837833,-0.20743338962806124,0.17267529166869086,-0.4874739962544357,-0.11146567572836293,-1.946404026700739,0.13360822201425185,2.5955496476961213,0.9452499504006571,0.1728802376190821,-0.48752024683155326,-0.11147110072896137,-1.9463801863486305,0.1336059019074957,2.595550359778934,0.9452445589611904,0.0001811688217937455,-0.0010849196935311346,-3.327830112562628e-05,-5.060479579220066e-05,0.0003154525923815072,-0.0004069970486204233,0.0013779901104589941,0.0,0.0,0.0,0.0,0.0,0.0,0.0,0.00020494595039124985,-4.625057711754588e-05,-5.42500059844131e-06,2.3840352108450702e-05,-2.320106756159568e-06,7.120828127149537e-07,-5.3914394666509935e-06,-0.0001811688217937455,0.0010849196935311346,3.327830112562628e-05,5.060479579220066e-05,-0.0003154525923815072,0.0004069970486204233,-0.0013779901104589941,0.09352988004684448,11.925500869750977,-1.3147919178009033,-21.717256546020508,-0.3912253975868225,-2.5335726737976074,0.22830526530742645,0
41,0.1999971866607666,-0.09352988004684448,-11.925500869750977,1.3147919178009033,21.717256546020508,0.3912253975868225,2.5335726737976074,-0.22830526530742645,0.0,0.0,0.0,0.0,0.0,0.0,0.0,-0.076665952882683,0.38221771909995617,0.11560452913147824,0.4255699048160955,-0.13300037945273638,0.12558239785837833,-0.20743338962806124,0.17267529166869086,-0.4874739962544357,-0.11146567572836293,-1.946404026700739,0.13360822201425185,2.5955496476961213,0.9452499504006571,0.1728802376190821,-0.48752024683155326,-0.11147110072896137,-1.9463801863486305,0.1336059019074957,2.595550359778934,0.9452445589611904,0.0001811688217937455,-0.0010849196935311346,-3.327830112562628e-05,-5.060479579220066e-05,0.0003154525923815072,-0.0004069970486204233,0.0013779901104589941,0.0,0.0,0.0,0.0,0.0,0.0,0.0,0.00020494595039124985,-4.625057711754588e-05,-5.42500059844131e-06,2.3840352108450702e-05,-2.320106756159568e-06,7.120828127149537e-07,-5.3914394666509935e-06,-0.0001811688217937455,0.0010849196935311346,3.327830112562628e-05,5.060479579220066e-05,-0.0003154525923815072,0.0004069970486204233,-0.0013779901104589941,0.09352988004684448,11.925500869750977,-1.3147919178009033,-21.717256546020508,-0.3912253975868225,-2.5335726737976074,0.22830526530742645,0
42,0.20499801635742188,-0.09352988004684448,-11.925500869750977,1.3147919178009033,21.717256546020508,0.4095359444618225,2.5271639823913574,-0.22830526530742645,0.0,0.0,0.0,0.0,0.0,0.0,0.0,-0.08343764595359483,0.3683267364495649,0.11059767299216518,0.4311801400990897,-0.1329754558272517,0.12713228193595724,-0.2067558947104107,0.1726752887525221,-0.48747398742411796,-0.1114656757283629,-1.946404026700739,0.13360590228877725,2.5955514194170632,0.9452499504006571,0.1728802376190821,-0.48752024683155326,-0.11147110072896137,-1.9463801863486305,0.1336059019074957,2.595550359778934,0.9452445589611904,0.00018414349872560143,-0.0014110602631958672,-0.0005503224612308007,0.0001634344506519984,-0.00026543139661887777,-0.00013368121896322716,0.0013441823364725367,0.0,0.0,0.0,0.0,0.0,0.0,0.0,0.00020494886656000078,-4.625940743530066e-05,-5.425000598469065e-06,2.3840352108450702e-05,-3.812815618786658e-10,-1.0596381292415913e-06,-5.3914394666509935e-06,-0.00018414349872560143,0.0014110602631958672,0.0005503224612308007,-0.0001634344506519984,0.00026543139661887777,0.00013368121896322716,-0.0013441823364725367,0.09352988004684448,11.925500869750977,-1.3147919178009033,-21.717256546020508,-0.4095359444618225,-2.5271639823913574,0.22830526530742645,0
43,0.20999956130981445,-0.09352988004684448,-11.925500869750977,1.3147919178009033,21.717256546020508,0.4095359444618225,2.5271639823913574,-0.22830526530742645,0.0,0.0,0.0,0.0,0.0,0.0,0.0,-0.08343764595359483,0.3683267364495649,0.11059767299216518,0.4311801400990897,-0.1329754558272517,0.12713228193595724,-0.2067558947104107,0.1726752887525221,-0.48747398742411796,-0.1114656757283629,-1.946404026700739,0.13360590228877725,2.5955514194170632,0.9452499504006571,0.1728802376190821,-0.48752024683155326,-0.11147110072896137,-1.9463801863486305,0.1336059019074957,2.595550359778934,0.9452445589611904,0.00018414349872560143,-0.0014110602631958672,-0.0005503224612308007,0.0001634344506519984,-0.00026543139661887777,-0.00013368121896322716,0.0013441823364725367,0.0,0.0,0.0,0.0,0.0,0.0,0.0,0.00020494886656000078,-4.625940743530066e-05,-5.425000598469065e-06,2.3840352108450702e-05,-3.812815618786658e-10,-1.0596381292415913e-06,-5.3914394666509935e-06,-0.00018414349872560143,0.0014110602631958672,0.0005503224612308007,-0.0001634344506519984,0.00026543139661887777,0.00013368121896322716,-0.0013441823364725367,0.09352988004684448,11.925500869750977,-1.3147919178009033,-21.717256546020508,-0.4095359444618225,-2.5271639823913574,0.22830526530742645,0
44,0.21500182151794434,-0.09352988004684448,-11.973108291625977,1.2909882068634033,21.741060256958008,0.4031272530555725,2.5207552909851074,-0.17978231608867645,0.0,0.0,0.0,0.0,0.0,0.0,0.0,-0.08180481031466495,0.36946456985573756,0.11313598858972271,0.43117826202290105,-0.13300244153223761,0.12699413624808387,-0.20654290986290474,0.17267539373517216,-0.4874685096154634,-0.11146400529250763,-1.9464056971365944,0.13360757499011242,2.5955510718617387,0.9452444412242851,0.1728802376190821,-0.48752024683155326,-0.11147110072896137,-1.9463801863486305,0.1336059019074957,2.595550359778934,0.9452445589611904,0.0005309536096259218,0.00034481436620427137,8.254996854971074e-05,-0.00021520014736669152,-0.00021190212369096739,0.0001630127625086838,-0.0007473984659806113,0.0,0.0,0.0,0.0,0.0,0.0,0.0,0.00020484388390995534,-5.173721608986437e-05,-7.095436453732895e-06,2.5510787963867188e-05,-1.6730826167266066e-06,-7.120828047213479e-07,1.1773690533622982e-07,-0.0005309536096259218,-0.00034481436620427137,-8.254996854971074e-05,0.00021520014736669152,0.00021190212369096739,-0.0001630127625086838,0.0007473984659806113,0.09352988004684448,11.973108291625977,-1.2909882068634033,-21.741060256958008,-0.4031272530555725,-2.5207552909851074,0.17978231608867645,0
45,0.2200002670288086,-0.09352988004684448,-11.973108291625977,1.2909882068634033,21.741060256958008,0.4031272530555725,2.5207552909851074,-0.17978231608867645,0.0,0.0,0.0,0.0,0.0,0.0,0.0,-0.08180481031466495,0.36946456985573756,0.11313598858972271,0.43117826202290105,-0.13300244153223761,0.12699413624808387,-0.20654290986290474,0.17267539373517216,-0.4874685096154634,-0.11146400529250763,-1.9464056971365944,0.13360757499011242,2.5955510718617387,0.9452444412242851,0.1728802376190821,-0.48752024683155326,-0.11147110072896137,-1.9463801863486305,0.1336059019074957,2.595550359778934,0.9452445589611904,0.0005309536096259218,0.00034481436620427137,8.254996854971074e-05,-0.00021520014736669152,-0.00021190212369096739,0.0001630127625086838,-0.0007473984659806113,0.0,0.0,0.0,0.0,0.0,0.0,0.0,0.00020484388390995534,-5.173721608986437e-05,-7.095436453732895e-06,2.5510787963867188e-05,-1.6730826167266066e-06,-7.120828047213479e-07,1.1773690533622982e-07,-0.0005309536096259218,-0.00034481436620427137,-8.254996854971074e-05,0.00021520014736669152,0.00021190212369096739,-0.0001630127625086838,0.0007473984659806113,0.09352988004684448,11.973108291625977,-1.2909882068634033,-21.741060256958008,-0.4031272530555725,-2.5207552909851074,0.17978231608867645,0
46,0.22499632835388184,-0.12130087614059448,-11.925500869750977,1.3147919178009033,21.693452835083008,0.4095359444618225,2.5271639823913574,-0.18710653483867645,0.0,0.0,0.0,0.0,0.0,0.0,0.0,-0.08176071061023082,0.3817480101917514,0.10963837667619987,0.42536217061620063,-0.13321513416385056,0.12573728109222898,-0.20506244113777733,0.1726779462279284,-0.4874739962423228,-0.1114656757283629,-1.9464021178463047,0.13360721427612665,2.595550359778934,0.9452453727632738,0.1728802376190821,-0.48752024683155326,-0.11147110072896137,-1.9463801863486305,0.1336059019074957,2.595550359778934,0.9452445589611904,0.0008256559101743299,-0.000242724913609688,-0.0004909689610878358,0.0006194075270178256,-0.0003222446406097781,-0.00011461419241733164,-0.00012951290211632755,0.0,0.0,0.0,0.0,0.0,0.0,0.0,0.00020229139115371386,-4.6250589230467654e-05,-5.425000598469065e-06,2.19314976741547e-05,-1.3123686309624016e-06,0.0,-8.138020833881043e-07,-0.0008256559101743299,0.000242724913609688,0.0004909689610878358,-0.0006194075270178256,0.0003222446406097781,0.00011461419241733164,0.00012951290211632755,0.12130087614059448,11.925500869750977,-1.3147919178009033,-21.693452835083008,-0.4095359444618225,-2.5271639823913574,0.18710653483867645,0
47,0.2299957275390625,-0.12130087614059448,-11.925500869750977,1.3147919178009033,21.693452835083008,0.4095359444618225,2.5271639823913574,-0.18710653483867645,0.0,0.0,0.0,0.0,0.0,0.0,0.0,-0.08176071061023082,0.3817480101917514,0.10963837667619987,0.42536217061620063,-0.13321513416385056,0.12573728109222898,-0.20506244113777733,0.1726779462279284,-0.4874739962423228,-0.1114656757283629,-1.9464021178463047,0.13360721427612665,2.595550359778934,0.9452453727632738,0.1728802376190821,-0.48752024683155326,-0.11147110072896137,-1.9463801863486305,0.1336059019074957,2.595550359778934,0.9452445589611904,0.0008256559101743299,-0.000242724913609688,-0.0004909689610878358,0.0006194075270178256,-0.0003222446406097781,-0.00011461419241733164,-0.00012951290211632755,0.0,0.0,0.0,0.0,0.0,0.0,0.0,0.00020229139115371386,-4.6250589230467654e-05,-5.425000598469065e-06,2.19314976741547e-05,-1.3123686309624016e-06,0.0,-8.138020833881043e-07,-0.0008256559101743299,0.000242724913609688,0.0004909689610878358,-0.0006194075270178256,0.0003222446406097781,0.00011461419241733164,0.00012951290211632755,0.12130087614059448,11.925500869750977,-1.3147919178009033,-21.693452835083008,-0.4095359444618225,-2.5271639823913574,0.18710653483867645,0
48,0.23499774932861328,-0.06972616910934448,-12.000879287719727,1.3147919178009033,21.693452835083008,0.4031272530555725,2.5207552909851074,-0.21457235515117645,0.0,0.0,0.0,0.0,0.0,0.0,0.0,-0.044624986744038496,0.36779358787416483,0.17055336037301352,0.4380731567881339,-0.13621180339585523,0.1258482904704884,-0.204055441168836,0.17267364748250247,-0.48746870654089397,-0.1114656757283629,-1.946402356263538,0.13360807353934484,2.595551071855757,0.9452484245217508,0.1728802376190821,-0.48752024683155326,-0.11147110072896137,-1.9463801863486305,0.1336059019074957,2.595550359778934,0.9452445589611904,0.00010716440069362161,0.0010739147842877574,-0.001097356716888087,0.0010988452123205821,-0.00012183099225155091,6.675650890880957e-05,0.0010746145411236554,0.0,0.0,0.0,0.0,0.0,0.0,0.0,0.00020659013657964298,-5.1540290659291e-05,-5.425000598469065e-06,2.216991490744391e-05,-2.1716318491515896e-06,-7.120768228396912e-07,-3.865560560423198e-06,-0.00010716440069362161,-0.0010739147842877574,0.001097356716888087,-0.0010988452123205821,0.00012183099225155091,-6.675650890880957e-05,-0.0010746145411236554,0.06972616910934448,12.000879287719727,-1.3147919178009033,-21.693452835083008,-0.4031272530555725,-2.5207552909851074,0.21457235515117645,0
49,0.23999476432800293,-0.06972616910934448,-12.000879287719727,1.3147919178009033,21.693452835083008,0.4031272530555725,2.5207552909851074,-0.21457235515117645,0.0,0.0,0.0,0.0,0.0,0.0,0.0,-0.044624986744038496,0.36779358787416483,0.17055336037301352,0.4380731567881339,-0.13621180339585523,0.1258482904704884,-0.204055441168836,0.17267364748250247,-0.48746870654089397,-0.1114656757283629,-1.946402356263538,0.13360807353934484,2.595551071855757,0.9452484245217508,0.1728802376190821,-0.48752024683155326,-0.11147110072896137,-1.9463801863486305,0.1336059019074957,2.595550359778934,0.9452445589611904,0.00010716440069362161,0.0010739147842877574,-0.001097356716888087,0.0010988452123205821,-0.00012183099225155091,6.675650890880957e-05,0.0010746145411236554,0.0,0.0,0.0,0.0,0.0,0.0,0.0,0.00020659013657964298,-5.1540290659291e-05,-5.425000598469065e-06,2.216991490744391e-05,-2.1716318491515896e-06,-7.120768228396912e-07,-3.865560560423198e-06,-0.00010716440069362161,-0.0010739147842877574,0.001097356716888087,-0.0010988452123205821,0.00012183099225155091,-6.675650890880957e-05,-0.0010746145411236554,0.06972616910934448,12.000879287719727,-1.3147919178009033,-21.693452835083008,-0.4031272530555725,-2.5207552909851074,0.21457235515117645,0
50,0.24500608444213867,-0.06972616910934448,-11.925500869750977,1.3147919178009033,21.693452835083008,0.4031272530555725,2.5143465995788574,-0.15964071452617645,0.0,0.0,0.0,0.0,0.0,0.0,0.0,-0.08403114073099775,0.38034417767863815,0.1017062417855554,0.430239546043677,-0.13335584150421,0.12489507760291756,-0.2040827548879064,0.1726736184248219,-0.4874739962544357,-0.1114656757283629,-1.9464023533214445,0.13360767917045988,2.5955517839325797,0.9452423210061258,0.1728802376190821,-0.48752024683155326,-0.11147110072896137,-1.9463801863486305,0.1336059019074957,2.595550359778934,0.9452445589611904,-0.00023185596157756675,-0.0004561976549023399,-0.0005644363970966739,0.00041948984377398357,-0.0001287455216233195,0.0003859509601211931,-0.0015145262275727584,0.0,0.0,0.0,0.0,0.0,0.0,0.0,0.00020661919426021025,-4.625057711754588e-05,-5.425000598469065e-06,2.2166972813986163e-05,-1.7772629641865656e-06,-1.4241536456793824e-06,2.2379550645990065e-06,0.00023185596157756675,0.0004561976549023399,0.0005644363970966739,-0.00041948984377398357,0.0001287455216233195,-0.0003859509601211931,0.0015145262275727584,0.06972616910934448,11.925500869750977,-1.3147919178009033,-21.693452835083008,-0.4031272530555725,-2.5143465995788574,0.15964071452617645,0
51,0.2500002384185791,-0.06972616910934448,-11.925500869750977,1.3147919178009033,21.693452835083008,0.4031272530555725,2.5143465995788574,-0.15964071452617645,0.0,0.0,0.0,0.0,0.0,0.0,0.0,-0.08403114073099775,0.38034417767863815,0.1017062417855554,0.430239546043677,-0.13335584150421,0.12489507760291756,-0.2040827548879064,0.1726736184248219,-0.4874739962544357,-0.1114656757283629,-1.9464023533214445,0.13360767917045988,2.5955517839325797,0.9452423210061258,0.1728802376190821,-0.48752024683155326,-0.11147110072896137,-1.9463801863486305,0.1336059019074957,2.595550359778934,0.9452445589611904,-0.00023185596157756675,-0.0004561976549023399,-0.0005644363970966739,0.00041948984377398357,-0.0001287455216233195,0.0003859509601211931,-0.0015145262275727584,0.0,0.0,0.0,0.0,0.0,0.0,0.0,0.00020661919426021025,-4.625057711754588e-05,-5.425000598469065e-06,2.2166972813986163e-05,-1.7772629641865656e-06,-1.4241536456793824e-06,2.2379550645990065e-06,0.00023185596157756675,0.0004561976549023399,0.0005644363970966739,-0.00041948984377398357,0.0001287455216233195,-0.0003859509601211931,0.0015145262275727584,0.06972616910934448,11.925500869750977,-1.3147919178009033,-21.693452835083008,-0.4031272530555725,-2.5143465995788574,0.15964071452617645,0
52,0.2550516128540039,-0.04592245817184448,-11.973108291625977,1.3147919178009033,21.741060256958008,0.3976340889930725,2.5207552909851074,-0.17337362468242645,0.0,0.0,0.0,0.0,0.0,0.0,0.0,-0.08632031639678324,0.3821227962653171,0.09402884174156957,0.43255798741875107,-0.13303862414091147,0.12525140635113016,-0.20402746938449348,0.17267289272479439,-0.48747065538272516,-0.1114656757283629,-1.9464056971365777,0.13360714573927696,2.595551071855757,0.9452438468850322,0.1728802376190821,-0.48752024683155326,-0.11147110072896137,-1.9463801863486305,0.1336059019074957,2.595550359778934,0.9452445589611904,-0.00012696811574346113,0.0010585706218998584,-0.0005880949851460025,-0.00034781009755139924,0.00012805713655976642,0.00011960211621959848,-0.0005856025563074174,0.0,0.0,0.0,0.0,0.0,0.0,0.0,0.0002073448942877254,-4.959144882810129e-05,-5.425000598469065e-06,2.5510787947213842e-05,-1.2438317812668576e-06,-7.120768228396912e-07,7.120761582601887e-07,0.00012696811574346113,-0.0010585706218998584,0.0005880949851460025,0.00034781009755139924,-0.00012805713655976642,-0.00011960211621959848,0.0005856025563074174,0.04592245817184448,11.973108291625977,-1.3147919178009033,-21.741060256958008,-0.3976340889930725,-2.5207552909851074,0.17337362468242645,0
53,0.26000022888183594,-0.04592245817184448,-11.973108291625977,1.3147919178009033,21.741060256958008,0.3976340889930725,2.5207552909851074,-0.17337362468242645,0.0,0.0,0.0,0.0,0.0,0.0,0.0,-0.08632031639678324,0.3821227962653171,0.09402884174156957,0.43255798741875107,-0.13303862414091147,0.12525140635113016,-0.20402746938449348,0.17267289272479439,-0.48747065538272516,-0.1114656757283629,-1.9464056971365777,0.13360714573927696,2.595551071855757,0.9452438468850322,0.1728802376190821,-0.48752024683155326,-0.11147110072896137,-1.9463801863486305,0.1336059019074957,2.595550359778934,0.9452445589611904,-0.00012696811574346113,0.0010585706218998584,-0.0005880949851460025,-0.00034781009755139924,0.00012805713655976642,0.00011960211621959848,-0.0005856025563074174,0.0,0.0,0.0,0.0,0.0,0.0,0.0,0.0002073448942877254,-4.959144882810129e-05,-5.425000598469065e-06,2.5510787947213842e-05,-1.2438317812668576e-06,-7.120768228396912e-07,7.120761582601887e-07,0.00012696811574346113,-0.0010585706218998584,0.0005880949851460025,0.00034781009755139924,-0.00012805713655976642,-0.00011960211621959848,0.0005856025563074174,0.04592245817184448,11.973108291625977,-1.3147919178009033,-21.741060256958008,-0.3976340889930725,-2.5207552909851074,0.17337362468242645,0
54,0.2649965286254883,-0.04592245817184448,-11.901697158813477,1.2909882068634033,21.693452835083008,0.3976340889930725,2.5335726737976074,-0.19351522624492645,0.0,0.0,0.0,0.0,0.0,0.0,0.0,-0.08673056906546905,0.3824650508071727,0.09047085276782028,0.4335730321862407,-0.1331300391291252,0.12509009358906928,-0.2040544785556576,0.17267194822081672,-0.48747566669029097,-0.11146400529250763,-1.9464023562648838,0.13360852758026498,2.595549647702111,0.9452460848407613,0.1728802376190821,-0.48752024683155326,-0.11147110072896137,-1.9463801863486305,0.1336059019074957,2.595550359778934,0.9452445589611904,-0.0008541526794293987,-0.0006782588463653881,0.00014391553660820914,0.0007277845271830798,0.0001616710771769652,-0.0002137232159576772,-0.0001235778156824271,0.0,0.0,0.0,0.0,0.0,0.0,0.0,0.00020828939826539328,-4.4580141262295925e-05,-7.095436453732895e-06,2.216991625325626e-05,-2.625672769290821e-06,7.120768228396912e-07,-1.5258795709183204e-06,0.0008541526794293987,0.0006782588463653881,-0.00014391553660820914,-0.0007277845271830798,-0.0001616710771769652,0.0002137232159576772,0.0001235778156824271,0.04592245817184448,11.901697158813477,-1.2909882068634033,-21.693452835083008,-0.3976340889930725,-2.5335726737976074,0.19351522624492645,0
55,0.27000856399536133,-0.04592245817184448,-11.901697158813477,1.2909882068634033,21.693452835083008,0.3976340889930725,2.5335726737976074,-0.19351522624492645,0.0,0.0,0.0,0.0,0.0,0.0,0.0,-0.08673056906546905,0.3824650508071727,0.09047085276782028,0.4335730321862407,-0.1331300391291252,0.12509009358906928,-0.2040544785556576,0.17267194822081672,-0.48747566669029097,-0.11146400529250763,-1.9464023562648838,0.13360852758026498,2.595549647702111,0.9452460848407613,0.1728802376190821,-0.48752024683155326,-0.11147110072896137,-1.9463801863486305,0.1336059019074957,2.595550359778934,0.9452445589611904,-0.0008541526794293987,-0.0006782588463653881,0.00014391553660820914,0.0007277845271830798,0.0001616710771769652,-0.0002137232159576772,-0.0001235778156824271,0.0,0.0,0.0,0.0,0.0,0.0,0.0,0.00020828939826539328,-4.4580141262295925e-05,-7.095436453732895e-06,2.216991625325626e-05,-2.625672769290821e-06,7.120768228396912e-07,-1.5258795709183204e-06,0.0008541526794293987,0.0006782588463653881,-0.00014391553660820914,-0.0007277845271830798,-0.0001616710771769652,0.0002137232159576772,0.0001235778156824271,0.04592245817184448,11.901697158813477,-1.2909882068634033,-21.693452835083008,-0.3976340889930725,-2.5335726737976074,0.19351522624492645,0
56,0.275007963180542,-0.09352988004684448,-11.949304580688477,1.3425629138946533,21.717256546020508,0.4095359444618225,2.5399813652038574,-0.22830526530742645,0.0,0.0,0.0,0.0,0.0,0.0,0.0,-0.08672356684519703,0.37239915449000455,0.08981427663728028,0.44128910306894775,-0.13265373131758756,0.12705032863157287,-0.204350879043088,0.17267552787969243,-0.48747232581858047,-0.11146762457019405,-1.9464033114450017,0.13360298823818628,2.5955489356252883,0.9452499373187049,0.1728802376190821,-0.48752024683155326,-0.11147110072896137,-1.9463801863486305,0.1336059019074957,2.595550359778934,0.9452445589611904,5.1040722888497034e-05,2.5718793383603742e-05,-0.0013316961754440532,0.0008616802269572497,-0.00026934487405077607,-0.0006598959147551191,0.0014473025209444882,0.0,0.0,0.0,0.0,0.0,0.0,0.0,0.00020470973938968573,-4.792101297279583e-05,-3.4761587673209915e-06,2.3125096371146014e-05,2.91366930940673e-06,1.4241536456793824e-06,-5.378357514462806e-06,-5.1040722888497034e-05,-2.5718793383603742e-05,0.0013316961754440532,-0.0008616802269572497,0.00026934487405077607,0.0006598959147551191,-0.0014473025209444882,0.09352988004684448,11.949304580688477,-1.3425629138946533,-21.717256546020508,-0.4095359444618225,-2.5399813652038574,0.22830526530742645,0
57,0.2799968719482422,-0.09352988004684448,-11.949304580688477,1.3425629138946533,21.717256546020508,0.4095359444618225,2.5399813652038574,-0.22830526530742645,0.0,0.0,0.0,0.0,0.0,0.0,0.0,-0.08672356684519703,0.37239915449000455,0.08981427663728028,0.44128910306894775,-0.13265373131758756,0.12705032863157287,-0.204350879043088,0.17267552787969243,-0.48747232581858047,-0.11146762457019405,-1.9464033114450017,0.13360298823818628,2.5955489356252883,0.9452499373187049,0.1728802376190821,-0.48752024683155326,-0.11147110072896137,-1.9463801863486305,0.1336059019074957,2.595550359778934,0.9452445589611904,5.1040722888497034e-05,2.5718793383603742e-05,-0.0013316961754440532,0.0008616802269572497,-0.00026934487405077607,-0.0006598959147551191,0.0014473025209444882,0.0,0.0,0.0,0.0,0.0,0.0,0.0,0.00020470973938968573,-4.792101297279583e-05,-3.4761587673209915e-06,2.3125096371146014e-05,2.91366930940673e-06,1.4241536456793824e-06,-5.378357514462806e-06,-5.1040722888497034e-05,-2.5718793383603742e-05,0.0013316961754440532,-0.0008616802269572497,0.00026934487405077607,0.0006598959147551191,-0.0014473025209444882,0.09352988004684448,11.949304580688477,-1.3425629138946533,-21.717256546020508,-0.4095359444618225,-2.5399813652038574,0.22830526530742645,0
58,0.28502631187438965,-0.09352988004684448,-11.949304580688477,1.3425629138946533,21.717256546020508,0.4095359444618225,2.5399813652038574,-0.22830526530742645,0.0,0.0,0.0,0.0,0.0,0.0,0.0,-0.08672356684519703,0.37239915449000455,0.08981427663728028,0.44128910306894775,-0.13265373131758756,0.12705032863157287,-0.204350879043088,0.17267552787969243,-0.48747232581858047,-0.11146762457019405,-1.9464033114450017,0.13360298823818628,2.5955489356252883,0.9452499373187049,0.1728802376190821,-0.48752024683155326,-0.11147110072896137,-1.9463801863486305,0.1336059019074957,2.595550359778934,0.9452445589611904,5.1040722888497034e-05,2.5718793383603742e-05,-0.0013316961754440532,0.0008616802269572497,-0.00026934487405077607,-0.0006598959147551191,0.0014473025209444882,0.0,0.0,0.0,0.0,0.0,0.0,0.0,0.00020470973938968573,-4.792101297279583e-05,-3.4761587673209915e-06,2.3125096371146014e-05,2.91366930940673e-06,1.4241536456793824e-06,-5.378357514462806e-06,-5.1040722888497034e-05,-2.5718793383603742e-05,0.0013316961754440532,-0.0008616802269572497,0.00026934487405077607,0.0006598959147551191,-0.0014473025209444882,0.09352988004684448,11.949304580688477,-1.3425629138946533,-21.717256546020508,-0.4095359444618225,-2.5399813652038574,0.22830526530742645,0
59,0.290036678314209,-0.09352988004684448,-11.949304580688477,1.3425629138946533,21.717256546020508,0.4095359444618225,2.5399813652038574,-0.22830526530742645,0.0,0.0,0.0,0.0,0.0,0.0,0.0,-0.08672356684519703,0.37239915449000455,0.08981427663728028,0.44128910306894775,-0.13265373131758756,0.12705032863157287,-0.204350879043088,0.17267552787969243,-0.48747232581858047,-0.11146762457019405,-1.9464033114450017,0.13360298823818628,2.5955489356252883,0.9452499373187049,0.1728802376190821,-0.48752024683155326,-0.11147110072896137,-1.9463801863486305,0.1336059019074957,2.595550359778934,0.9452445589611904,5.1040722888497034e-05,2.5718793383603742e-05,-0.0013316961754440532,0.0008616802269572497,-0.00026934487405077607,-0.0006598959147551191,0.0014473025209444882,0.0,0.0,0.0,0.0,0.0,0.0,0.0,0.00020470973938968573,-4.792101297279583e-05,-3.4761587673209915e-06,2.3125096371146014e-05,2.91366930940673e-06,1.4241536456793824e-06,-5.378357514462806e-06,-5.1040722888497034e-05,-2.5718793383603742e-05,0.0013316961754440532,-0.0008616802269572497,0.00026934487405077607,0.0006598959147551191,-0.0014473025209444882,0.09352988004684448,11.949304580688477,-1.3425629138946533,-21.717256546020508,-0.4095359444618225,-2.5399813652038574,0.22830526530742645,0
60,0.29499340057373047,-0.09352988004684448,-11.973108291625977,1.3663666248321533,21.741060256958008,0.3912253975868225,2.5207552909851074,-0.20083944499492645,0.0,0.0,0.0,0.0,0.0,0.0,0.0,-0.08099234372287988,0.374076757595156,0.09801819758784835,0.44034942902846996,-0.13234660557448943,0.12679441554808465,-0.20440387090044668,0.17267552507196213,-0.48747065538272516,-0.11146930375460486,-1.9464056971352486,0.13360798959175674,2.595551071855757,0.94524689864282,0.1728802376190821,-0.48752024683155326,-0.11147110072896137,-1.9463801863486305,0.1336059019074957,2.595550359778934,0.9452445589611904,0.0005008987491631647,0.0001373557613318551,-0.0014621522006259095,0.00013691201136344102,0.00043583398786036946,0.00031885309441459736,9.082616441470586e-05,0.0,0.0,0.0,0.0,0.0,0.0,0.0,0.000204712547119984,-4.959144882810129e-05,-1.7969743565104945e-06,2.5510786618054837e-05,-2.087684261048439e-06,-7.120768228396912e-07,-2.3396816295484513e-06,-0.0005008987491631647,-0.0001373557613318551,0.0014621522006259095,-0.00013691201136344102,-0.00043583398786036946,-0.00031885309441459736,-9.082616441470586e-05,0.09352988004684448,11.973108291625977,-1.3663666248321533,-21.741060256958008,-0.3912253975868225,-2.5207552909851074,0.20083944499492645,0
61,0.3000199794769287,-0.09352988004684448,-11.973108291625977,1.3663666248321533,21.741060256958008,0.3912253975868225,2.5207552909851074,-0.20083944499492645,0.0,0.0,0.0,0.0,0.0,0.0,0.0,-0.08099234372287988,0.374076757595156,0.09801819758784835,0.44034942902846996,-0.13234660557448943,0.12679441554808465,-0.20440387090044668,0.17267552507196213,-0.48747065538272516,-0.11146930375460486,-1.9464056971352486,0.13360798959175674,2.595551071855757,0.94524689864282,0.1728802376190821,-0.48752024683155326,-0.11147110072896137,-1.9463801863486305,0.1336059019074957,2.595550359778934,0.9452445589611904,0.0005008987491631647,0.0001373557613318551,-0.0014621522006259095,0.00013691201136344102,0.00043583398786036946,0.00031885309441459736,9.082616441470586e-05,0.0,0.0,0.0,0.0,0.0,0.0,0.0,0.000204712547119984,-4.959144882810129e-05,-1.7969743565104945e-06,2.5510786618054837e-05,-2.087684261048439e-06,-7.120768228396912e-07,-2.3396816295484513e-06,-0.0005008987491631647,-0.0001373557613318551,0.0014621522006259095,-0.00013691201136344102,-0.00043583398786036946,-0.00031885309441459736,-9.082616441470586e-05,0.09352988004684448,11.973108291625977,-1.3663666248321533,-21.741060256958008,-0.3912253975868225,-2.5207552909851074,0.20083944499492645,0
62,0.30500125885009766,-0.04592245817184448,-11.949304580688477,1.2909882068634033,21.741060256958008,0.3976340889930725,2.5335726737976074,-0.17337362468242645,0.0,0.0,0.0,0.0,0.0,0.0,0.0,-0.07978220359661987,0.38640231471739217,0.10181764711176637,0.43176709693856663,-0.13207593070797352,0.12544677877900542,-0.20445520391657984,0.17267194798924665,-0.48747232581858047,-0.1114640052925241,-1.9464056971365944,0.1336072758592521,2.595549647702111,0.9452438468850322,0.1728802376190821,-0.48752024683155326,-0.11147110072896137,-1.9463801863486305,0.1336059019074957,2.595550359778934,0.9452445589611904,-0.0008799876519436505,-0.00018005681762924412,0.00087842480177578,-0.00025873817170798984,0.00021101615904565183,-0.00032736378260899514,-0.0008861791436770598,0.0,0.0,0.0,0.0,0.0,0.0,0.0,0.00020828962983546195,-4.792101297279583e-05,-7.095436437273839e-06,2.5510787963867188e-05,-1.3739517564226311e-06,7.120768228396912e-07,7.120761582601887e-07,0.0008799876519436505,0.00018005681762924412,-0.00087842480177578,0.00025873817170798984,-0.00021101615904565183,0.00032736378260899514,0.0008861791436770598,0.04592245817184448,11.949304580688477,-1.2909882068634033,-21.741060256958008,-0.3976340889930725,-2.5335726737976074,0.17337362468242645,0
63,0.31000733375549316,-0.04592245817184448,-11.949304580688477,1.2909882068634033,21.741060256958008,0.3976340889930725,2.5335726737976074,-0.17337362468242645,0.0,0.0,0.0,0.0,0.0,0.0,0.0,-0.07978220359661987,0.38640231471739217,0.10181764711176637,0.43176709693856663,-0.13207593070797352,0.12544677877900542,-0.20445520391657984,0.17267194798924665,-0.48747232581858047,-0.1114640052925241,-1.9464056971365944,0.1336072758592521,2.595549647702111,0.9452438468850322,0.1728802376190821,-0.48752024683155326,-0.11147110072896137,-1.9463801863486305,0.1336059019074957,2.595550359778934,0.9452445589611904,-0.0008799876519436505,-0.00018005681762924412,0.00087842480177578,-0.00025873817170798984,0.00021101615904565183,-0.00032736378260899514,-0.0008861791436770598,0.0,0.0,0.0,0.0,0.0,0.0,0.0,0.00020828962983546195,-4.792101297279583e-05,-7.095436437273839e-06,2.5510787963867188e-05,-1.3739517564226311e-06,7.120768228396912e-07,7.120761582601887e-07,0.0008799876519436505,0.00018005681762924412,-0.00087842480177578,0.00025873817170798984,-0.00021101615904565183,0.00032736378260899514,0.0008861791436770598,0.04592245817184448,11.949304580688477,-1.2909882068634033,-21.741060256958008,-0.3976340889930725,-2.5335726737976074,0.17337362468242645,0
64,0.3150010108947754,-0.06972616910934448,-11.925500869750977,1.3147919178009033,21.693452835083008,0.4095359444618225,2.5271639823913574,-0.17978231608867645,0.0,0.0,0.0,0.0,0.0,0.0,0.0,-0.07507491663641627,0.3869986809279356,0.11135252785495663,0.42867749553697376,-0.13187287944629006,0.12489272571983617,-0.2049242177502202,0.17267582298865017,-0.4874739962544357,-0.1114656757283629,-1.9464023562648838,0.13360736215963603,2.595550359778934,0.945244558961855,0.1728802376190821,-0.48752024683155326,-0.11147110072896137,-1.9463801863486305,0.1336059019074957,2.595550359778934,0.9452445589611904,0.0003976560665266656,-0.0005616219069702659,-0.0002409657701137258,0.0006818660181679322,-0.00030834197033850844,2.347690893008412e-05,-0.0006085439303942641,0.0,0.0,0.0,0.0,0.0,0.0,0.0,0.00020441463043194275,-4.625057711754588e-05,-5.425000598469065e-06,2.216991625325626e-05,-1.4602521403450641e-06,0.0,-6.645795025406187e-13,-0.0003976560665266656,0.0005616219069702659,0.0002409657701137258,-0.0006818660181679322,0.00030834197033850844,-2.347690893008412e-05,0.0006085439303942641,0.06972616910934448,11.925500869750977,-1.3147919178009033,-21.693452835083008,-0.4095359444618225,-2.5271639823913574,0.17978231608867645,0
65,0.31999921798706055,-0.06972616910934448,-11.925500869750977,1.3147919178009033,21.693452835083008,0.4095359444618225,2.5271639823913574,-0.17978231608867645,0.0,0.0,0.0,0.0,0.0,0.0,0.0,-0.07507491663641627,0.3869986809279356,0.11135252785495663,0.42867749553697376,-0.13187287944629006,0.12489272571983617,-0.2049242177502202,0.17267582298865017,-0.4874739962544357,-0.1114656757283629,-1.9464023562648838,0.13360736215963603,2.595550359778934,0.945244558961855,0.1728802376190821,-0.48752024683155326,-0.11147110072896137,-1.9463801863486305,0.1336059019074957,2.595550359778934,0.9452445589611904,0.0003976560665266656,-0.0005616219069702659,-0.0002409657701137258,0.0006818660181679322,-0.00030834197033850844,2.347690893008412e-05,-0.0006085439303942641,0.0,0.0,0.0,0.0,0.0,0.0,0.0,0.00020441463043194275,-4.625057711754588e-05,-5.425000598469065e-06,2.216991625325626e-05,-1.4602521403450641e-06,0.0,-6.645795025406187e-13,-0.0003976560665266656,0.0005616219069702659,0.0002409657701137258,-0.0006818660181679322,0.00030834197033850844,-2.347690893008412e-05,0.0006085439303942641,0.06972616910934448,11.925500869750977,-1.3147919178009033,-21.693452835083008,-0.4095359444618225,-2.5271639823913574,0.17978231608867645,0
66,0.3250086307525635,-0.06972616910934448,-11.973108291625977,1.2909882068634033,21.669649124145508,0.4095359444618225,2.5335726737976074,-0.21457235515117645,0.0,0.0,0.0,0.0,0.0,0.0,0.0,-0.07838918477930355,0.3714999348182088,0.10549643624918904,0.43396689352100193,-0.13117553484695618,0.12658288999663997,-0.20482153716718016,0.17267361832909583,-0.48747065538272516,-0.11146400529250763,-1.9464006858290286,0.13360690241267376,2.595549647702111,0.9452484245217508,0.1728802376190821,-0.48752024683155326,-0.11147110072896137,-1.9463801863486305,0.1336059019074957,2.595550359778934,0.9452445589611904,-0.00025139279440540395,0.0003636494942684304,0.00015498181960042404,0.0011568493331843197,-0.0002634638384705048,-0.00023102984433708744,0.0010309978877701762,0.0,0.0,0.0,0.0,0.0,0.0,0.0,0.0002066192899862762,-4.959144882810129e-05,-7.095436453732895e-06,2.049948039806182e-05,-1.000505178067046e-06,7.120768228396912e-07,-3.865560560423198e-06,0.00025139279440540395,-0.0003636494942684304,-0.00015498181960042404,-0.0011568493331843197,0.0002634638384705048,0.00023102984433708744,-0.0010309978877701762,0.06972616910934448,11.973108291625977,-1.2909882068634033,-21.669649124145508,-0.4095359444618225,-2.5335726737976074,0.21457235515117645,0
67,0.3299996852874756,-0.06972616910934448,-11.973108291625977,1.2909882068634033,21.669649124145508,0.4095359444618225,2.5335726737976074,-0.21457235515117645,0.0,0.0,0.0,0.0,0.0,0.0,0.0,-0.07838918477930355,0.3714999348182088,0.10549643624918904,0.43396689352100193,-0.13117553484695618,0.12658288999663997,-0.20482153716718016,0.17267361832909583,-0.48747065538272516,-0.11146400529250763,-1.9464006858290286,0.13360690241267376,2.595549647702111,0.9452484245217508,0.1728802376190821,-0.48752024683155326,-0.11147110072896137,-1.9463801863486305,0.1336059019074957,2.595550359778934,0.9452445589611904,-0.00025139279440540395,0.0003636494942684304,0.00015498181960042404,0.0011568493331843197,-0.0002634638384705048,-0.00023102984433708744,0.0010309978877701762,0.0,0.0,0.0,0.0,0.0,0.0,0.0,0.0002066192899862762,-4.959144882810129e-05,-7.095436453732895e-06,2.049948039806182e-05,-1.000505178067046e-06,7.120768228396912e-07,-3.865560560423198e-06,0.00025139279440540395,-0.0003636494942684304,-0.00015498181960042404,-0.0011568493331843197,0.0002634638384705048,0.00023102984433708744,-0.0010309978877701762,0.06972616910934448,11.973108291625977,-1.2909882068634033,-21.669649124145508,-0.4095359444618225,-2.5335726737976074,0.21457235515117645,0
68,0.33499836921691895,-0.06972616910934448,-11.973108291625977,1.2671844959259033,21.741060256958008,0.4031272530555725,2.5335726737976074,-0.20724813640117645,0.0,0.0,0.0,0.0,0.0,0.0,0.0,-0.07262030009047005,0.37627775201517116,0.11274776605797719,0.43031473071127574,-0.13112439557466357,0.1265034676029123,-0.20364172371418326,0.17267361831665048,-0.48747065538272516,-0.11146233485665237,-1.9464056971365944,0.13360650868071886,2.595549647702111,0.9452476107196676,0.1728802376190821,-0.48752024683155326,-0.11147110072896137,-1.9463801863486305,0.1336059019074957,2.595550359778934,0.9452445589611904,-0.00015870318799415258,0.0007439012096313974,0.0012772474642495613,-0.0002461675842430392,-0.00021318405470068698,-0.0003059408124493962,0.000570854462955361,0.0,0.0,0.0,0.0,0.0,0.0,0.0,0.00020661930243162652,-4.959144882810129e-05,-8.765872308996725e-06,2.5510787963867188e-05,-6.067732231662681e-07,7.120768228396912e-07,-3.051758477146116e-06,0.00015870318799415258,-0.0007439012096313974,-0.0012772474642495613,0.0002461675842430392,0.00021318405470068698,0.0003059408124493962,-0.000570854462955361,0.06972616910934448,11.973108291625977,-1.2671844959259033,-21.741060256958008,-0.4031272530555725,-2.5335726737976074,0.20724813640117645,0
69,0.339996337890625,-0.06972616910934448,-11.973108291625977,1.2671844959259033,21.741060256958008,0.4031272530555725,2.5335726737976074,-0.20724813640117645,0.0,0.0,0.0,0.0,0.0,0.0,0.0,-0.07262030009047005,0.37627775201517116,0.11274776605797719,0.43031473071127574,-0.13112439557466357,0.1265034676029123,-0.20364172371418326,0.17267361831665048,-0.48747065538272516,-0.11146233485665237,-1.9464056971365944,0.13360650868071886,2.595549647702111,0.9452476107196676,0.1728802376190821,-0.48752024683155326,-0.11147110072896137,-1.9463801863486305,0.1336059019074957,2.595550359778934,0.9452445589611904,-0.00015870318799415258,0.0007439012096313974,0.0012772474642495613,-0.0002461675842430392,-0.00021318405470068698,-0.0003059408124493962,0.000570854462955361,0.0,0.0,0.0,0.0,0.0,0.0,0.0,0.00020661930243162652,-4.959144882810129e-05,-8.765872308996725e-06,2.5510787963867188e-05,-6.067732231662681e-07,7.120768228396912e-07,-3.051758477146116e-06,0.00015870318799415258,-0.0007439012096313974,-0.0012772474642495613,0.0002461675842430392,0.00021318405470068698,0.0003059408124493962,-0.000570854462955361,0.06972616910934448,11.973108291625977,-1.2671844959259033,-21.741060256958008,-0.4031272530555725,-2.5335726737976074,0.20724813640117645,0
70,0.34499692916870117,-0.06972616910934448,-11.949304580688477,1.2909882068634033,21.693452835083008,0.4031272530555725,2.5271639823913574,-0.19351522624492645,0.0,0.0,0.0,0.0,0.0,0.0,0.0,-0.07445337235034204,0.3655890892413328,0.10941330834078268,0.43476341373793004,-0.13149063630471589,0.12701217240367463,-0.2031016953649917,0.172673618640671,-0.48747232581858047,-0.11146400529250763,-1.9464023562648838,0.1336048710650659,2.595550359778934,0.9452460848407613,0.1728802376190821,-0.48752024683155326,-0.11147110072896137,-1.9463801863486305,0.1336059019074957,2.595550359778934,0.9452445589611904,0.00022237423835334545,-0.0006983365858514465,0.00034120537212729564,0.0006628597089506647,-4.3725066501184556e-05,-0.0001191996775926238,-0.00019493748641648793,0.0,0.0,0.0,0.0,0.0,0.0,0.0,0.00020661897841112165,-4.792101297279583e-05,-7.095436453732895e-06,2.216991625325626e-05,1.0308424297778007e-06,0.0,-1.5258795709183204e-06,-0.00022237423835334545,0.0006983365858514465,-0.00034120537212729564,-0.0006628597089506647,4.3725066501184556e-05,0.0001191996775926238,0.00019493748641648793,0.06972616910934448,11.949304580688477,-1.2909882068634033,-21.693452835083008,-0.4031272530555725,-2.5271639823913574,0.19351522624492645,0
71,0.3500063419342041,-0.06972616910934448,-11.949304580688477,1.2909882068634033,21.693452835083008,0.4031272530555725,2.5271639823913574,-0.19351522624492645,0.0,0.0,0.0,0.0,0.0,0.0,0.0,-0.07445337235034204,0.3655890892413328,0.10941330834078268,0.43476341373793004,-0.13149063630471589,0.12701217240367463,-0.2031016953649917,0.172673618640671,-0.48747232581858047,-0.11146400529250763,-1.9464023562648838,0.1336048710650659,2.595550359778934,0.9452460848407613,0.1728802376190821,-0.48752024683155326,-0.11147110072896137,-1.9463801863486305,0.1336059019074957,2.595550359778934,0.9452445589611904,0.00022237423835334545,-0.0006983365858514465,0.00034120537212729564,0.0006628597089506647,-4.3725066501184556e-05,-0.0001191996775926238,-0.00019493748641648793,0.0,0.0,0.0,0.0,0.0,0.0,0.0,0.00020661897841112165,-4.792101297279583e-05,-7.095436453732895e-06,2.216991625325626e-05,1.0308424297778007e-06,0.0,-1.5258795709183204e-06,-0.00022237423835334545,0.0006983365858514465,-0.00034120537212729564,-0.0006628597089506647,4.3725066501184556e-05,0.0001191996775926238,0.00019493748641648793,0.06972616910934448,11.949304580688477,-1.2909882068634033,-21.693452835083008,-0.4031272530555725,-2.5271639823913574,0.19351522624492645,0
72,0.35501766204833984,-0.04592245817184448,-11.901697158813477,1.3147919178009033,21.741060256958008,0.4031272530555725,2.5271639823913574,-0.15964071452617645,0.0,0.0,0.0,0.0,0.0,0.0,0.0,-0.07526577600374441,0.3781212692897426,0.1105729547696272,0.4276415020626586,-0.1317628323206708,0.1256587717399416,-0.20338937802297613,0.17267202953398203,-0.48747566669029097,-0.1114656757283629,-1.9464056971365944,0.13360808717335704,2.595550359778934,0.9452423210061258,0.1728802376190821,-0.48752024683155326,-0.11147110072896137,-1.9463801863486305,0.1336059019074957,2.595550359778934,0.9452445589611904,-0.0008464567906655858,-0.0012372672910339853,-0.0002965754164234699,-0.00036103634414841074,-1.787058663818425e-05,-9.651217975849688e-05,-0.0015726116506276904,0.0,0.0,0.0,0.0,0.0,0.0,0.0,0.00020820808510008115,-4.4580141262295925e-05,-5.425000598469065e-06,2.5510787963867188e-05,-2.1852658613485954e-06,0.0,2.2379550645990065e-06,0.0008464567906655858,0.0012372672910339853,0.0002965754164234699,0.00036103634414841074,1.787058663818425e-05,9.651217975849688e-05,0.0015726116506276904,0.04592245817184448,11.901697158813477,-1.3147919178009033,-21.741060256958008,-0.4031272530555725,-2.5271639823913574,0.15964071452617645,0
73,0.35999393463134766,-0.04592245817184448,-11.901697158813477,1.3147919178009033,21.741060256958008,0.4031272530555725,2.5271639823913574,-0.15964071452617645,0.0,0.0,0.0,0.0,0.0,0.0,0.0,-0.07526577600374441,0.3781212692897426,0.1105729547696272,0.4276415020626586,-0.1317628323206708,0.1256587717399416,-0.20338937802297613,0.17267202953398203,-0.48747566669029097,-0.1114656757283629,-1.9464056971365944,0.13360808717335704,2.595550359778934,0.9452423210061258,0.1728802376190821,-0.48752024683155326,-0.11147110072896137,-1.9463801863486305,0.1336059019074957,2.595550359778934,0.9452445589611904,-0.0008464567906655858,-0.0012372672910339853,-0.0002965754164234699,-0.00036103634414841074,-1.787058663818425e-05,-9.651217975849688e-05,-0.0015726116506276904,0.0,0.0,0.0,0.0,0.0,0.0,0.0,0.00020820808510008115,-4.4580141262295925e-05,-5.425000598469065e-06,2.5510787963867188e-05,-2.1852658613485954e-06,0.0,2.2379550645990065e-06,0.0008464567906655858,0.0012372672910339853,0.0002965754164234699,0.00036103634414841074,1.787058663818425e-05,9.651217975849688e-05,0.0015726116506276904,0.04592245817184448,11.901697158813477,-1.3147919178009033,-21.741060256958008,-0.4031272530555725,-2.5271639823913574,0.15964071452617645,0
74,0.36501336097717285,-0.09352988004684448,-11.973108291625977,1.3147919178009033,21.717256546020508,0.3976340889930725,2.5143465995788574,-0.15231649577617645,0.0,0.0,0.0,0.0,0.0,0.0,0.0,-0.07537158750533111,0.3711107803342602,0.1121120023071148,0.431127226558419,-0.13147788317411166,0.12573091971259193,-0.20360482490125742,0.17267531499955507,-0.48747065538272516,-0.1114656757283629,-1.946404026700739,0.13360746167070695,2.595551783448063,0.9452415072040425,0.1728802376190821,-0.48752024683155326,-0.11147110072896137,-1.9463801863486305,0.1336059019074957,2.595550359778934,0.9452445589611904,0.0006169574425083274,0.0002932870602319953,-0.00033705764900710027,-1.0136512533303309e-05,0.00022180463336083874,0.0003253204399420081,-0.0016172306453473854,0.0,0.0,0.0,0.0,0.0,0.0,0.0,0.00020492261952703705,-4.959144882810129e-05,-5.425000598469065e-06,2.3840352108450702e-05,-1.559763211256282e-06,-1.4236691288083136e-06,3.0517571478760885e-06,-0.0006169574425083274,-0.0002932870602319953,0.00033705764900710027,1.0136512533303309e-05,-0.00022180463336083874,-0.0003253204399420081,0.0016172306453473854,0.09352988004684448,11.973108291625977,-1.3147919178009033,-21.717256546020508,-0.3976340889930725,-2.5143465995788574,0.15231649577617645,0
75,0.37001514434814453,-0.09352988004684448,-11.973108291625977,1.3147919178009033,21.717256546020508,0.3976340889930725,2.5143465995788574,-0.15231649577617645,0.0,0.0,0.0,0.0,0.0,0.0,0.0,-0.07537158750533111,0.3711107803342602,0.1121120023071148,0.431127226558419,-0.13147788317411166,0.12573091971259193,-0.20360482490125742,0.17267531499955507,-0.48747065538272516,-0.1114656757283629,-1.946404026700739,0.13360746167070695,2.595551783448063,0.9452415072040425,0.1728802376190821,-0.48752024683155326,-0.11147110072896137,-1.9463801863486305,0.1336059019074957,2.595550359778934,0.9452445589611904,0.0006169574425083274,0.0002932870602319953,-0.00033705764900710027,-1.0136512533303309e-05,0.00022180463336083874,0.0003253204399420081,-0.0016172306453473854,0.0,0.0,0.0,0.0,0.0,0.0,0.0,0.00020492261952703705,-4.959144882810129e-05,-5.425000598469065e-06,2.3840352108450702e-05,-1.559763211256282e-06,-1.4236691288083136e-06,3.0517571478760885e-06,-0.0006169574425083274,-0.0002932870602319953,0.00033705764900710027,1.0136512533303309e-05,-0.00022180463336083874,-0.0003253204399420081,0.0016172306453473854,0.09352988004684448,11.973108291625977,-1.3147919178009033,-21.717256546020508,-0.3976340889930725,-2.5143465995788574,0.15231649577617645,0
76,0.375028133392334,-0.04592245817184448,-11.925500869750977,1.3425629138946533,21.693452835083008,0.4031272530555725,2.5271639823913574,-0.17337362468242645,0.0,0.0,0.0,0.0,0.0,0.0,0.0,-0.07234615749969205,0.3795451601733263,0.11369177992107647,0.42621611872772663,-0.1317846674488051,0.12453639901533116,-0.20408770727354544,0.17267195079712847,-0.4874739962544357,-0.11146762457019405,-1.9464023562648838,0.13360795722671306,2.5955503597789313,0.9452438468850322,0.1728802376190821,-0.48752024683155326,-0.11147110072896137,-1.9463801863486305,0.1336059019074957,2.595550359778934,0.9452445589611904,-0.00028882662935885117,-0.00041972754470670135,-0.0009277440255546876,0.00019674580869368798,-1.4304647331747078e-05,2.9483061247692518e-05,-0.0007297853880546274,0.0,0.0,0.0,0.0,0.0,0.0,0.0,0.000208286821953646,-4.625057711754588e-05,-3.4761587673209915e-06,2.216991625325626e-05,-2.055319217375562e-06,2.6645352591003757e-15,7.120761582601887e-07,0.00028882662935885117,0.00041972754470670135,0.0009277440255546876,-0.00019674580869368798,1.4304647331747078e-05,-2.9483061247692518e-05,0.0007297853880546274,0.04592245817184448,11.925500869750977,-1.3425629138946533,-21.693452835083008,-0.4031272530555725,-2.5271639823913574,0.17337362468242645,0
77,0.38000035285949707,-0.04592245817184448,-11.925500869750977,1.3425629138946533,21.693452835083008,0.4031272530555725,2.5271639823913574,-0.17337362468242645,0.0,0.0,0.0,0.0,0.0,0.0,0.0,-0.07234615749969205,0.3795451601733263,0.11369177992107647,0.42621611872772663,-0.1317846674488051,0.12453639901533116,-0.20408770727354544,0.17267195079712847,-0.4874739962544357,-0.11146762457019405,-1.9464023562648838,0.13360795722671306,2.5955503597789313,0.9452438468850322,0.1728802376190821,-0.48752024683155326,-0.11147110072896137,-1.9463801863486305,0.1336059019074957,2.595550359778934,0.9452445589611904,-0.00028882662935885117,-0.00041972754470670135,-0.0009277440255546876,0.00019674580869368798,-1.4304647331747078e-05,2.9483061247692518e-05,-0.0007297853880546274,0.0,0.0,0.0,0.0,0.0,0.0,0.0,0.000208286821953646,-4.625057711754588e-05,-3.4761587673209915e-06,2.216991625325626e-05,-2.055319217375562e-06,2.6645352591003757e-15,7.120761582601887e-07,0.00028882662935885117,0.00041972754470670135,0.0009277440255546876,-0.00019674580869368798,1.4304647331747078e-05,-2.9483061247692518e-05,0.0007297853880546274,0.04592245817184448,11.925500869750977,-1.3425629138946533,-21.693452835083008,-0.4031272530555725,-2.5271639823913574,0.17337362468242645,0
78,0.3850109577178955,-0.09352988004684448,-11.949304580688477,1.2909882068634033,21.717256546020508,0.4095359444618225,2.5271639823913574,-0.22098104655742645,0.0,0.0,0.0,0.0,0.0,0.0,0.0,-0.07210346186856485,0.3744165828334715,0.11376143314849727,0.4299602216226472,-0.13197449141998413,0.12476185943017583,-0.20417841614105903,0.1726752887525221,-0.48747232581858047,-0.11146400529250763,-1.946404026700739,0.13360416479278817,2.595550359778934,0.9452491365985738,0.1728802376190821,-0.48752024683155326,-0.11147110072896137,-1.9463801863486305,0.1336059019074957,2.595550359778934,0.9452445589611904,0.0007054412105422522,0.00018609812222346195,0.00041300235971152493,-7.927311137140977e-05,-0.0003616811957799408,-7.848535503260319e-05,0.001282583151835373,0.0,0.0,0.0,0.0,0.0,0.0,0.0,0.00020494886656000078,-4.792101297279583e-05,-7.095436453732895e-06,2.3840352108450702e-05,1.7371147075229132e-06,0.0,-4.5776373833739115e-06,-0.0007054412105422522,-0.00018609812222346195,-0.00041300235971152493,7.927311137140977e-05,0.0003616811957799408,7.848535503260319e-05,-0.001282583151835373,0.09352988004684448,11.949304580688477,-1.2909882068634033,-21.717256546020508,-0.4095359444618225,-2.5271639823913574,0.22098104655742645,0
79,0.38999271392822266,-0.09352988004684448,-11.949304580688477,1.2909882068634033,21.717256546020508,0.4095359444618225,2.5271639823913574,-0.22098104655742645,0.0,0.0,0.0,0.0,0.0,0.0,0.0,-0.07210346186856485,0.3744165828334715,0.11376143314849727,0.4299602216226472,-0.13197449141998413,0.12476185943017583,-0.20417841614105903,0.1726752887525221,-0.48747232581858047,-0.11146400529250763,-1.946404026700739,0.13360416479278817,2.595550359778934,0.9452491365985738,0.1728802376190821,-0.48752024683155326,-0.11147110072896137,-1.9463801863486305,0.1336059019074957,2.595550359778934,0.9452445589611904,0.0007054412105422522,0.00018609812222346195,0.00041300235971152493,-7.927311137140977e-05,-0.0003616811957799408,-7.848535503260319e-05,0.001282583151835373,0.0,0.0,0.0,0.0,0.0,0.0,0.0,0.00020494886656000078,-4.792101297279583e-05,-7.095436453732895e-06,2.3840352108450702e-05,1.7371147075229132e-06,0.0,-4.5776373833739115e-06,-0.0007054412105422522,-0.00018609812222346195,-0.00041300235971152493,7.927311137140977e-05,0.0003616811957799408,7.848535503260319e-05,-0.001282583151835373,0.09352988004684448,11.949304580688477,-1.2909882068634033,-21.717256546020508,-0.4095359444618225,-2.5271639823913574,0.22098104655742645,0
