rezayati/contactInterpretation/dataset/franka_main/labeled_data/link2/f3_8.csv
index,time,tau_J0,tau_J1,tau_J2,tau_J3,tau_J4,tau_J5,tau_J6,tau_J_d0,tau_J_d1,tau_J_d2,tau_J_d3,tau_J_d4,tau_J_d5,tau_J_d6,tau_ext0,tau_ext1,tau_ext2,tau_ext3,tau_ext4,tau_ext5,tau_ext6,q0,q1,q2,q3,q4,q5,q6,q_d0,q_d1,q_d2,q_d3,q_d4,q_d5,q_d6,dq0,dq1,dq2,dq3,dq4,dq5,dq6,dq_d0,dq_d1,dq_d2,dq_d3,dq_d4,dq_d5,dq_d6,e0,e1,e2,e3,e4,e5,e6,de0,de1,de2,de3,de4,de5,de6,etau_J0,etau_J1,etau_J2,etau_J3,etau_J4,etau_J5,etau_J6,label
1,0.0,-0.3752071261405945,-22.549890518188477,-0.09756157547235489,14.155611038208008,0.10558086633682251,2.1453890800476074,-0.24112264811992645,0.0,0.0,0.0,0.0,0.0,0.0,0.0,-0.3678730793042466,0.2599699668150951,-0.23694229170982067,0.31301473610424463,-0.1252490890301408,-0.03846817669061542,-0.24267830445611244,1.675369959208477,0.05213279035613552,0.029970616770326752,-2.752405529457226,0.03425315356362411,2.7663679543071322,0.7691600015875365,1.6754973547542302,0.052104326824870026,0.029969505109285054,-2.752394845125968,0.0342448039870148,2.7663679543071322,0.7691630533470046,0.000563617187733301,-9.29751790963354e-05,-0.0010133513763861944,0.0005411890430318706,0.00010743330442716621,-8.691149187485142e-05,-0.0003076880341016375,0.0,0.0,0.0,0.0,0.0,0.0,0.0,0.00012739554575325052,-2.8463531265496278e-05,-1.1116610416986306e-06,1.0684331257948543e-05,-8.349576609306686e-06,0.0,3.0517594681311877e-06,-0.000563617187733301,9.29751790963354e-05,0.0010133513763861944,-0.0005411890430318706,-0.00010743330442716621,8.691149187485142e-05,0.0003076880341016375,0.3752071261405945,22.549890518188477,0.09756157547235489,-14.155611038208008,-0.10558086633682251,-2.1453890800476074,0.24112264811992645,0
2,0.0053327083587646484,-0.3752071261405945,-22.549890518188477,-0.09756157547235489,14.155611038208008,0.10558086633682251,2.1453890800476074,-0.24112264811992645,0.0,0.0,0.0,0.0,0.0,0.0,0.0,-0.3678730793042466,0.2599699668150951,-0.23694229170982067,0.31301473610424463,-0.1252490890301408,-0.03846817669061542,-0.24267830445611244,1.675369959208477,0.05213279035613552,0.029970616770326752,-2.752405529457226,0.03425315356362411,2.7663679543071322,0.7691600015875365,1.6754973547542302,0.052104326824870026,0.029969505109285054,-2.752394845125968,0.0342448039870148,2.7663679543071322,0.7691630533470046,0.000563617187733301,-9.29751790963354e-05,-0.0010133513763861944,0.0005411890430318706,0.00010743330442716621,-8.691149187485142e-05,-0.0003076880341016375,0.0,0.0,0.0,0.0,0.0,0.0,0.0,0.00012739554575325052,-2.8463531265496278e-05,-1.1116610416986306e-06,1.0684331257948543e-05,-8.349576609306686e-06,0.0,3.0517594681311877e-06,-0.000563617187733301,9.29751790963354e-05,0.0010133513763861944,-0.0005411890430318706,-0.00010743330442716621,8.691149187485142e-05,0.0003076880341016375,0.3752071261405945,22.549890518188477,0.09756157547235489,-14.155611038208008,-0.10558086633682251,-2.1453890800476074,0.24112264811992645,0
3,0.009540796279907227,-0.3752071261405945,-22.549890518188477,-0.09756157547235489,14.155611038208008,0.10558086633682251,2.1453890800476074,-0.24112264811992645,0.0,0.0,0.0,0.0,0.0,0.0,0.0,-0.3678730793042466,0.2599699668150951,-0.23694229170982067,0.31301473610424463,-0.1252490890301408,-0.03846817669061542,-0.24267830445611244,1.675369959208477,0.05213279035613552,0.029970616770326752,-2.752405529457226,0.03425315356362411,2.7663679543071322,0.7691600015875365,1.6754973547542302,0.052104326824870026,0.029969505109285054,-2.752394845125968,0.0342448039870148,2.7663679543071322,0.7691630533470046,0.000563617187733301,-9.29751790963354e-05,-0.0010133513763861944,0.0005411890430318706,0.00010743330442716621,-8.691149187485142e-05,-0.0003076880341016375,0.0,0.0,0.0,0.0,0.0,0.0,0.0,0.00012739554575325052,-2.8463531265496278e-05,-1.1116610416986306e-06,1.0684331257948543e-05,-8.349576609306686e-06,0.0,3.0517594681311877e-06,-0.000563617187733301,9.29751790963354e-05,0.0010133513763861944,-0.0005411890430318706,-0.00010743330442716621,8.691149187485142e-05,0.0003076880341016375,0.3752071261405945,22.549890518188477,0.09756157547235489,-14.155611038208008,-0.10558086633682251,-2.1453890800476074,0.24112264811992645,0
4,0.014540672302246094,-0.3752071261405945,-22.549890518188477,-0.09756157547235489,14.155611038208008,0.10558086633682251,2.1453890800476074,-0.24112264811992645,0.0,0.0,0.0,0.0,0.0,0.0,0.0,-0.3678730793042466,0.2599699668150951,-0.23694229170982067,0.31301473610424463,-0.1252490890301408,-0.03846817669061542,-0.24267830445611244,1.675369959208477,0.05213279035613552,0.029970616770326752,-2.752405529457226,0.03425315356362411,2.7663679543071322,0.7691600015875365,1.6754973547542302,0.052104326824870026,0.029969505109285054,-2.752394845125968,0.0342448039870148,2.7663679543071322,0.7691630533470046,0.000563617187733301,-9.29751790963354e-05,-0.0010133513763861944,0.0005411890430318706,0.00010743330442716621,-8.691149187485142e-05,-0.0003076880341016375,0.0,0.0,0.0,0.0,0.0,0.0,0.0,0.00012739554575325052,-2.8463531265496278e-05,-1.1116610416986306e-06,1.0684331257948543e-05,-8.349576609306686e-06,0.0,3.0517594681311877e-06,-0.000563617187733301,9.29751790963354e-05,0.0010133513763861944,-0.0005411890430318706,-0.00010743330442716621,8.691149187485142e-05,0.0003076880341016375,0.3752071261405945,22.549890518188477,0.09756157547235489,-14.155611038208008,-0.10558086633682251,-2.1453890800476074,0.24112264811992645,0
5,0.019541501998901367,-0.4267818331718445,-22.498315811157227,-0.1729399859905243,14.207185745239258,0.10008770227432251,2.1389803886413574,-0.24112264811992645,0.0,0.0,0.0,0.0,0.0,0.0,0.0,-0.3549707226847195,0.2625938768016653,-0.23717383761944372,0.3096933309487255,-0.12495056677801332,-0.039120314995224954,-0.2427981153323821,1.6753735822963525,0.05212917140324345,0.029975897707437214,-2.7524091487349125,0.034252754941584064,2.766368666377973,0.7691600020781098,1.6754973547542302,0.052104326824870026,0.029969505109285054,-2.752394845125968,0.0342448039870148,2.7663679543071322,0.7691630533470046,0.0013008987932961542,-0.0007233458821257656,0.000349770836503624,-0.0008889947507266655,0.00032986572555868067,0.00020130771710396875,3.5985466231050425e-05,0.0,0.0,0.0,0.0,0.0,0.0,0.0,0.0001237724578777577,-2.4844578373421633e-05,-6.3925981521606445e-06,1.4303608944388202e-05,-7.950954569263535e-06,-7.120708409580345e-07,3.0512688948824973e-06,-0.0013008987932961542,0.0007233458821257656,-0.000349770836503624,0.0008889947507266655,-0.00032986572555868067,-0.00020130771710396875,-3.5985466231050425e-05,0.4267818331718445,22.498315811157227,0.1729399859905243,-14.207185745239258,-0.10008770227432251,-2.1389803886413574,0.24112264811992645,0
6,0.02454209327697754,-0.4267818331718445,-22.498315811157227,-0.1729399859905243,14.207185745239258,0.10008770227432251,2.1389803886413574,-0.24112264811992645,0.0,0.0,0.0,0.0,0.0,0.0,0.0,-0.3549707226847195,0.2625938768016653,-0.23717383761944372,0.3096933309487255,-0.12495056677801332,-0.039120314995224954,-0.2427981153323821,1.6753735822963525,0.05212917140324345,0.029975897707437214,-2.7524091487349125,0.034252754941584064,2.766368666377973,0.7691600020781098,1.6754973547542302,0.052104326824870026,0.029969505109285054,-2.752394845125968,0.0342448039870148,2.7663679543071322,0.7691630533470046,0.0013008987932961542,-0.0007233458821257656,0.000349770836503624,-0.0008889947507266655,0.00032986572555868067,0.00020130771710396875,3.5985466231050425e-05,0.0,0.0,0.0,0.0,0.0,0.0,0.0,0.0001237724578777577,-2.4844578373421633e-05,-6.3925981521606445e-06,1.4303608944388202e-05,-7.950954569263535e-06,-7.120708409580345e-07,3.0512688948824973e-06,-0.0013008987932961542,0.0007233458821257656,-0.000349770836503624,0.0008889947507266655,-0.00032986572555868067,-0.00020130771710396875,-3.5985466231050425e-05,0.4267818331718445,22.498315811157227,0.1729399859905243,-14.207185745239258,-0.10008770227432251,-2.1389803886413574,0.24112264811992645,0
7,0.029555082321166992,-0.4029781222343445,-22.522119522094727,-0.1491362750530243,14.207185745239258,0.11748272180557251,2.1389803886413574,-0.25485557317733765,0.0,0.0,0.0,0.0,0.0,0.0,0.0,-0.36839285822090007,0.2626252345166248,-0.24389282795865935,0.3107659440783017,-0.12486024066717087,-0.03931114326128255,-0.2425981192753125,1.6753697690407587,0.05213061297505772,0.02997425356323982,-2.7524091487349125,0.03424852231372048,2.766368666383955,0.7691615274681012,1.6754973547542302,0.052104326824870026,0.029969505109285054,-2.752394845125968,0.0342448039870148,2.7663679543071322,0.7691630533470046,-0.0005986959448087498,6.749924080962156e-08,-0.0003488990101637923,-0.0008013019437753552,-0.0004740207094398978,0.00014249407000814632,0.0007301574824643184,0.0,0.0,0.0,0.0,0.0,0.0,0.0,0.00012758571347148973,-2.6286150187695978e-05,-4.748453954765003e-06,1.4303608944388202e-05,-3.718326705676178e-06,-7.120768228396912e-07,1.525878903452238e-06,0.0005986959448087498,-6.749924080962156e-08,0.0003488990101637923,0.0008013019437753552,0.0004740207094398978,-0.00014249407000814632,-0.0007301574824643184,0.4029781222343445,22.522119522094727,0.1491362750530243,-14.207185745239258,-0.11748272180557251,-2.1389803886413574,0.25485557317733765,0
8,0.03454732894897461,-0.4029781222343445,-22.522119522094727,-0.1491362750530243,14.207185745239258,0.11748272180557251,2.1389803886413574,-0.25485557317733765,0.0,0.0,0.0,0.0,0.0,0.0,0.0,-0.36839285822090007,0.2626252345166248,-0.24389282795865935,0.3107659440783017,-0.12486024066717087,-0.03931114326128255,-0.2425981192753125,1.6753697690407587,0.05213061297505772,0.02997425356323982,-2.7524091487349125,0.03424852231372048,2.766368666383955,0.7691615274681012,1.6754973547542302,0.052104326824870026,0.029969505109285054,-2.752394845125968,0.0342448039870148,2.7663679543071322,0.7691630533470046,-0.0005986959448087498,6.749924080962156e-08,-0.0003488990101637923,-0.0008013019437753552,-0.0004740207094398978,0.00014249407000814632,0.0007301574824643184,0.0,0.0,0.0,0.0,0.0,0.0,0.0,0.00012758571347148973,-2.6286150187695978e-05,-4.748453954765003e-06,1.4303608944388202e-05,-3.718326705676178e-06,-7.120768228396912e-07,1.525878903452238e-06,0.0005986959448087498,-6.749924080962156e-08,0.0003488990101637923,0.0008013019437753552,0.0004740207094398978,-0.00014249407000814632,-0.0007301574824643184,0.4029781222343445,22.522119522094727,0.1491362750530243,-14.207185745239258,-0.11748272180557251,-2.1389803886413574,0.25485557317733765,0
9,0.03955721855163574,-0.4267818331718445,-22.573694229125977,-0.1491362750530243,14.131807327270508,0.10558086633682251,2.1453890800476074,-0.26217979192733765,0.0,0.0,0.0,0.0,0.0,0.0,0.0,-0.3753270796203874,0.254913052017611,-0.23901304984947908,0.31513967735581505,-0.12570141718640807,-0.03831779330380777,-0.24329455435047312,1.6753735822882907,0.05213226265553949,0.029974227307795743,-2.752403859021371,0.03424930381197527,2.766367952853582,0.7691623412701818,1.6754973547542302,0.052104326824870026,0.029969505109285054,-2.752394845125968,0.0342448039870148,2.7663679543071322,0.7691630533470046,0.0005179050116649633,0.0003099033898949296,-0.0005400248924442898,0.0012709349672150256,6.419607323287302e-05,6.607963428772911e-05,0.0009783395940375435,0.0,0.0,0.0,0.0,0.0,0.0,0.0,0.00012377246593953117,-2.7935830669463535e-05,-4.722198510689196e-06,9.013895402976146e-06,-4.499824960466081e-06,1.4535501691170793e-09,7.120768228396912e-07,-0.0005179050116649633,-0.0003099033898949296,0.0005400248924442898,-0.0012709349672150256,-6.419607323287302e-05,-6.607963428772911e-05,-0.0009783395940375435,0.4267818331718445,22.573694229125977,0.1491362750530243,-14.131807327270508,-0.10558086633682251,-2.1453890800476074,0.26217979192733765,0
10,0.04485940933227539,-0.4267818331718445,-22.573694229125977,-0.1491362750530243,14.131807327270508,0.10558086633682251,2.1453890800476074,-0.26217979192733765,0.0,0.0,0.0,0.0,0.0,0.0,0.0,-0.3753270796203874,0.254913052017611,-0.23901304984947908,0.31513967735581505,-0.12570141718640807,-0.03831779330380777,-0.24329455435047312,1.6753735822882907,0.05213226265553949,0.029974227307795743,-2.752403859021371,0.03424930381197527,2.766367952853582,0.7691623412701818,1.6754973547542302,0.052104326824870026,0.029969505109285054,-2.752394845125968,0.0342448039870148,2.7663679543071322,0.7691630533470046,0.0005179050116649633,0.0003099033898949296,-0.0005400248924442898,0.0012709349672150256,6.419607323287302e-05,6.607963428772911e-05,0.0009783395940375435,0.0,0.0,0.0,0.0,0.0,0.0,0.0,0.00012377246593953117,-2.7935830669463535e-05,-4.722198510689196e-06,9.013895402976146e-06,-4.499824960466081e-06,1.4535501691170793e-09,7.120768228396912e-07,-0.0005179050116649633,-0.0003099033898949296,0.0005400248924442898,-0.0012709349672150256,-6.419607323287302e-05,-6.607963428772911e-05,-0.0009783395940375435,0.4267818331718445,22.573694229125977,0.1491362750530243,-14.131807327270508,-0.10558086633682251,-2.1453890800476074,0.26217979192733765,0
11,0.049585819244384766,-0.3514034152030945,-22.522119522094727,-0.09756157547235489,14.179414749145508,0.10008770227432251,2.1582064628601074,-0.27591270208358765,0.0,0.0,0.0,0.0,0.0,0.0,0.0,-0.3755150787617327,0.2631549658385379,-0.2361017231357779,0.30963724827027544,-0.12614347196005388,-0.03870993133110792,-0.24486187027102393,1.675368292586845,0.052131554168228046,0.029970620004188243,-2.7524071998930815,0.03425046238512886,2.7663661769407684,0.769163867149088,1.6754973547542302,0.052104326824870026,0.029969505109285054,-2.752394845125968,0.0342448039870148,2.7663679543071322,0.7691630533470046,-0.0002854801154427826,-0.00026097100710049107,-0.0012766774870365037,0.000431633548314091,0.00032895884224984345,-0.00045170894457016155,0.0001703111151479782,0.0,0.0,0.0,0.0,0.0,0.0,0.0,0.00012906216738528542,-2.7227343358020295e-05,-1.1148949031897226e-06,1.2354767113365028e-05,-5.658398114061214e-06,1.7773663638642745e-06,-8.138020833881043e-07,0.0002854801154427826,0.00026097100710049107,0.0012766774870365037,-0.000431633548314091,-0.00032895884224984345,0.00045170894457016155,-0.0001703111151479782,0.3514034152030945,22.522119522094727,0.09756157547235489,-14.179414749145508,-0.10008770227432251,-2.1582064628601074,0.27591270208358765,0
12,0.05453777313232422,-0.3514034152030945,-22.522119522094727,-0.09756157547235489,14.179414749145508,0.10008770227432251,2.1582064628601074,-0.27591270208358765,0.0,0.0,0.0,0.0,0.0,0.0,0.0,-0.3755150787617327,0.2631549658385379,-0.2361017231357779,0.30963724827027544,-0.12614347196005388,-0.03870993133110792,-0.24486187027102393,1.675368292586845,0.052131554168228046,0.029970620004188243,-2.7524071998930815,0.03425046238512886,2.7663661769407684,0.769163867149088,1.6754973547542302,0.052104326824870026,0.029969505109285054,-2.752394845125968,0.0342448039870148,2.7663679543071322,0.7691630533470046,-0.0002854801154427826,-0.00026097100710049107,-0.0012766774870365037,0.000431633548314091,0.00032895884224984345,-0.00045170894457016155,0.0001703111151479782,0.0,0.0,0.0,0.0,0.0,0.0,0.0,0.00012906216738528542,-2.7227343358020295e-05,-1.1148949031897226e-06,1.2354767113365028e-05,-5.658398114061214e-06,1.7773663638642745e-06,-8.138020833881043e-07,0.0002854801154427826,0.00026097100710049107,0.0012766774870365037,-0.000431633548314091,-0.00032895884224984345,0.00045170894457016155,-0.0001703111151479782,0.3514034152030945,22.522119522094727,0.09756157547235489,-14.179414749145508,-0.10008770227432251,-2.1582064628601074,0.27591270208358765,0
13,0.05954241752624512,-0.3236324191093445,-22.522119522094727,-0.1253325641155243,14.230989456176758,0.11198955774307251,2.1453890800476074,-0.23471395671367645,0.0,0.0,0.0,0.0,0.0,0.0,0.0,-0.3731677849029761,0.25715495227311364,-0.23500931721011203,0.3099217932416918,-0.12656616001711357,-0.038198424804799916,-0.24552897607770574,1.6753661141567526,0.05213156089673062,0.029972556835794483,-2.752410819170768,0.03425233717911754,2.766363715752621,0.7691592895107136,1.6754973547542302,0.052104326824870026,0.029969505109285054,-2.752394845125968,0.0342448039870148,2.7663679543071322,0.7691630533470046,-8.850369948479478e-05,-0.0004043528203040246,-3.4301132921879614e-05,-0.0011032777329682785,-0.0002842160511140314,-6.933634351132407e-05,0.0002508134029858267,0.0,0.0,0.0,0.0,0.0,0.0,0.0,0.00013124059747759986,-2.7234071860594844e-05,-3.0517265094294477e-06,1.5974044799804688e-05,-7.533192102740505e-06,4.238554511371007e-06,3.763836291081901e-06,8.850369948479478e-05,0.0004043528203040246,3.4301132921879614e-05,0.0011032777329682785,0.0002842160511140314,6.933634351132407e-05,-0.0002508134029858267,0.3236324191093445,22.522119522094727,0.1253325641155243,-14.230989456176758,-0.11198955774307251,-2.1453890800476074,0.23471395671367645,0
14,0.06454253196716309,-0.3236324191093445,-22.522119522094727,-0.1253325641155243,14.230989456176758,0.11198955774307251,2.1453890800476074,-0.23471395671367645,0.0,0.0,0.0,0.0,0.0,0.0,0.0,-0.3731677849029761,0.25715495227311364,-0.23500931721011203,0.3099217932416918,-0.12656616001711357,-0.038198424804799916,-0.24552897607770574,1.6753661141567526,0.05213156089673062,0.029972556835794483,-2.752410819170768,0.03425233717911754,2.766363715752621,0.7691592895107136,1.6754973547542302,0.052104326824870026,0.029969505109285054,-2.752394845125968,0.0342448039870148,2.7663679543071322,0.7691630533470046,-8.850369948479478e-05,-0.0004043528203040246,-3.4301132921879614e-05,-0.0011032777329682785,-0.0002842160511140314,-6.933634351132407e-05,0.0002508134029858267,0.0,0.0,0.0,0.0,0.0,0.0,0.0,0.00013124059747759986,-2.7234071860594844e-05,-3.0517265094294477e-06,1.5974044799804688e-05,-7.533192102740505e-06,4.238554511371007e-06,3.763836291081901e-06,8.850369948479478e-05,0.0004043528203040246,3.4301132921879614e-05,0.0011032777329682785,0.0002842160511140314,6.933634351132407e-05,-0.0002508134029858267,0.3236324191093445,22.522119522094727,0.1253325641155243,-14.230989456176758,-0.11198955774307251,-2.1453890800476074,0.23471395671367645,0
15,0.0695645809173584,-0.3514034152030945,-22.549890518188477,-0.1253325641155243,14.155611038208008,0.10558086633682251,2.1453890800476074,-0.22098104655742645,0.0,0.0,0.0,0.0,0.0,0.0,0.0,-0.37024629506899437,0.2584228060933706,-0.23683374123488193,0.31067513595363655,-0.12644035862559155,-0.03885105309722388,-0.24189924581294292,1.675368292585549,0.0521312990855105,0.029972556835726687,-2.752405529457226,0.034249892760172845,2.7663679494380378,0.7691577636318073,1.6754973547542302,0.052104326824870026,0.029969505109285054,-2.752394845125968,0.0342448039870148,2.7663679543071322,0.7691630533470046,0.0004951293320798959,0.00042632827802055006,-0.0005906649390174934,0.0006073928141496385,-5.079976499786828e-05,0.00014598558547949855,-0.0005416452239351387,0.0,0.0,0.0,0.0,0.0,0.0,0.0,0.00012906216868113773,-2.6972260640474588e-05,-3.0517264416329848e-06,1.0684331257948543e-05,-5.088773158044846e-06,4.869094460957513e-09,5.289715197309697e-06,-0.0004951293320798959,-0.00042632827802055006,0.0005906649390174934,-0.0006073928141496385,5.079976499786828e-05,-0.00014598558547949855,0.0005416452239351387,0.3514034152030945,22.549890518188477,0.1253325641155243,-14.155611038208008,-0.10558086633682251,-2.1453890800476074,0.22098104655742645,0
16,0.07454204559326172,-0.3514034152030945,-22.549890518188477,-0.1253325641155243,14.155611038208008,0.10558086633682251,2.1453890800476074,-0.22098104655742645,0.0,0.0,0.0,0.0,0.0,0.0,0.0,-0.37024629506899437,0.2584228060933706,-0.23683374123488193,0.31067513595363655,-0.12644035862559155,-0.03885105309722388,-0.24189924581294292,1.675368292585549,0.0521312990855105,0.029972556835726687,-2.752405529457226,0.034249892760172845,2.7663679494380378,0.7691577636318073,1.6754973547542302,0.052104326824870026,0.029969505109285054,-2.752394845125968,0.0342448039870148,2.7663679543071322,0.7691630533470046,0.0004951293320798959,0.00042632827802055006,-0.0005906649390174934,0.0006073928141496385,-5.079976499786828e-05,0.00014598558547949855,-0.0005416452239351387,0.0,0.0,0.0,0.0,0.0,0.0,0.0,0.00012906216868113773,-2.6972260640474588e-05,-3.0517264416329848e-06,1.0684331257948543e-05,-5.088773158044846e-06,4.869094460957513e-09,5.289715197309697e-06,-0.0004951293320798959,-0.00042632827802055006,0.0005906649390174934,-0.0006073928141496385,5.079976499786828e-05,-0.00014598558547949855,0.0005416452239351387,0.3514034152030945,22.549890518188477,0.1253325641155243,-14.155611038208008,-0.10558086633682251,-2.1453890800476074,0.22098104655742645,0
17,0.07964253425598145,-0.2998287081718445,-22.522119522094727,-0.1729399859905243,14.179414749145508,0.10558086633682251,2.1325716972351074,-0.22830526530742645,0.0,0.0,0.0,0.0,0.0,0.0,0.0,-0.36485590953720165,0.2635046758932417,-0.23414570687551475,0.3079323189991102,-0.12660001269020582,-0.03946552824978862,-0.24044658361615232,1.6753619181450439,0.05213132603397427,0.029975897815633337,-2.7524071998930815,0.03425035186966832,2.7663693782992453,0.7691585774338906,1.6754973547542302,0.052104326824870026,0.029969505109285054,-2.752394845125968,0.0342448039870148,2.7663679543071322,0.7691630533470046,-0.0010235796900032494,0.00011423111384157293,0.000559227468165935,-2.6160890623564536e-05,0.00014666157785967184,0.0006332139069465116,-0.0004412881025736601,0.0,0.0,0.0,0.0,0.0,0.0,0.0,0.0001354366091863568,-2.699920910424758e-05,-6.392706348282845e-06,1.2354767113365028e-05,-5.547882653521297e-06,-1.4239921131142808e-06,4.475913114032615e-06,0.0010235796900032494,-0.00011423111384157293,-0.000559227468165935,2.6160890623564536e-05,-0.00014666157785967184,-0.0006332139069465116,0.0004412881025736601,0.2998287081718445,22.522119522094727,0.1729399859905243,-14.179414749145508,-0.10558086633682251,-2.1325716972351074,0.22830526530742645,0
18,0.08454275131225586,-0.2998287081718445,-22.522119522094727,-0.1729399859905243,14.179414749145508,0.10558086633682251,2.1325716972351074,-0.22830526530742645,0.0,0.0,0.0,0.0,0.0,0.0,0.0,-0.36485590953720165,0.2635046758932417,-0.23414570687551475,0.3079323189991102,-0.12660001269020582,-0.03946552824978862,-0.24044658361615232,1.6753619181450439,0.05213132603397427,0.029975897815633337,-2.7524071998930815,0.03425035186966832,2.7663693782992453,0.7691585774338906,1.6754973547542302,0.052104326824870026,0.029969505109285054,-2.752394845125968,0.0342448039870148,2.7663679543071322,0.7691630533470046,-0.0010235796900032494,0.00011423111384157293,0.000559227468165935,-2.6160890623564536e-05,0.00014666157785967184,0.0006332139069465116,-0.0004412881025736601,0.0,0.0,0.0,0.0,0.0,0.0,0.0,0.0001354366091863568,-2.699920910424758e-05,-6.392706348282845e-06,1.2354767113365028e-05,-5.547882653521297e-06,-1.4239921131142808e-06,4.475913114032615e-06,0.0010235796900032494,-0.00011423111384157293,-0.000559227468165935,2.6160890623564536e-05,-0.00014666157785967184,-0.0006332139069465116,0.0004412881025736601,0.2998287081718445,22.522119522094727,0.1729399859905243,-14.179414749145508,-0.10558086633682251,-2.1325716972351074,0.22830526530742645,0
19,0.0901026725769043,-0.3752071261405945,-22.522119522094727,-0.1491362750530243,14.179414749145508,0.10558086633682251,2.1517977714538574,-0.22098104655742645,0.0,0.0,0.0,0.0,0.0,0.0,0.0,-0.3609646767676329,0.25620862309988196,-0.23461629324493735,0.31250762462003795,-0.12643208128436065,-0.038630839960111366,-0.24126957921753414,1.6753692714079405,0.05213074837397761,0.02997423019287788,-2.7524071998930815,0.03425213192433738,2.7663640633159203,0.7691577636318073,1.6754973547542302,0.052104326824870026,0.029969505109285054,-2.752394845125968,0.0342448039870148,2.7663679543071322,0.7691630533470046,0.00047338835317081094,-0.0008066644434001352,-0.00040425771520243584,-0.00014330951623773685,3.8120880569282057e-05,-5.6656859174105173e-05,-0.001315617603802627,0.0,0.0,0.0,0.0,0.0,0.0,0.0,0.0001280833462897757,-2.6421549107584485e-05,-4.725083592827667e-06,1.2354767113365028e-05,-7.327937322582079e-06,3.890991211896733e-06,5.289715197309697e-06,-0.00047338835317081094,0.0008066644434001352,0.00040425771520243584,0.00014330951623773685,-3.8120880569282057e-05,5.6656859174105173e-05,0.001315617603802627,0.3752071261405945,22.522119522094727,0.1491362750530243,-14.179414749145508,-0.10558086633682251,-2.1517977714538574,0.22098104655742645,0
20,0.09455466270446777,-0.3752071261405945,-22.522119522094727,-0.1491362750530243,14.179414749145508,0.10558086633682251,2.1517977714538574,-0.22098104655742645,0.0,0.0,0.0,0.0,0.0,0.0,0.0,-0.3609646767676329,0.25620862309988196,-0.23461629324493735,0.31250762462003795,-0.12643208128436065,-0.038630839960111366,-0.24126957921753414,1.6753692714079405,0.05213074837397761,0.02997423019287788,-2.7524071998930815,0.03425213192433738,2.7663640633159203,0.7691577636318073,1.6754973547542302,0.052104326824870026,0.029969505109285054,-2.752394845125968,0.0342448039870148,2.7663679543071322,0.7691630533470046,0.00047338835317081094,-0.0008066644434001352,-0.00040425771520243584,-0.00014330951623773685,3.8120880569282057e-05,-5.6656859174105173e-05,-0.001315617603802627,0.0,0.0,0.0,0.0,0.0,0.0,0.0,0.0001280833462897757,-2.6421549107584485e-05,-4.725083592827667e-06,1.2354767113365028e-05,-7.327937322582079e-06,3.890991211896733e-06,5.289715197309697e-06,-0.00047338835317081094,0.0008066644434001352,0.00040425771520243584,0.00014330951623773685,-3.8120880569282057e-05,5.6656859174105173e-05,0.001315617603802627,0.3752071261405945,22.522119522094727,0.1491362750530243,-14.179414749145508,-0.10558086633682251,-2.1517977714538574,0.22098104655742645,0
21,0.09956645965576172,-0.3752071261405945,-22.549890518188477,-0.1729399859905243,14.207185745239258,0.10558086633682251,2.1389803886413574,-0.20724813640117645,0.0,0.0,0.0,0.0,0.0,0.0,0.0,-0.36076371590567624,0.2574636770301746,-0.23746418986083684,0.31040907099857706,-0.12656198088554163,-0.038372743126183814,-0.24295563335984446,1.6753699629138177,0.05213255369692042,0.029975906471339662,-2.7524091487349125,0.034253207489647435,2.7663686663121747,0.7691562377529011,1.6754973547542302,0.052104326824870026,0.029969505109285054,-2.752394845125968,0.0342448039870148,2.7663679543071322,0.7691630533470046,-0.00028699903213446547,-0.00031916875207749543,0.0004726745813612254,-0.0006530293793474798,-4.5742128177977106e-05,0.00023893084065049655,-0.0017285557309433218,0.0,0.0,0.0,0.0,0.0,0.0,0.0,0.00012739184041254958,-2.8226872050396423e-05,-6.401362054608145e-06,1.4303608944388202e-05,-8.403502632634008e-06,-7.120050424802571e-07,6.815594103537492e-06,0.00028699903213446547,0.00031916875207749543,-0.0004726745813612254,0.0006530293793474798,4.5742128177977106e-05,-0.00023893084065049655,0.0017285557309433218,0.3752071261405945,22.549890518188477,0.1729399859905243,-14.207185745239258,-0.10558086633682251,-2.1389803886413574,0.20724813640117645,0
22,0.1050722599029541,-0.3752071261405945,-22.549890518188477,-0.1729399859905243,14.207185745239258,0.10558086633682251,2.1389803886413574,-0.20724813640117645,0.0,0.0,0.0,0.0,0.0,0.0,0.0,-0.36076371590567624,0.2574636770301746,-0.23746418986083684,0.31040907099857706,-0.12656198088554163,-0.038372743126183814,-0.24295563335984446,1.6753699629138177,0.05213255369692042,0.029975906471339662,-2.7524091487349125,0.034253207489647435,2.7663686663121747,0.7691562377529011,1.6754973547542302,0.052104326824870026,0.029969505109285054,-2.752394845125968,0.0342448039870148,2.7663679543071322,0.7691630533470046,-0.00028699903213446547,-0.00031916875207749543,0.0004726745813612254,-0.0006530293793474798,-4.5742128177977106e-05,0.00023893084065049655,-0.0017285557309433218,0.0,0.0,0.0,0.0,0.0,0.0,0.0,0.00012739184041254958,-2.8226872050396423e-05,-6.401362054608145e-06,1.4303608944388202e-05,-8.403502632634008e-06,-7.120050424802571e-07,6.815594103537492e-06,0.00028699903213446547,0.00031916875207749543,-0.0004726745813612254,0.0006530293793474798,4.5742128177977106e-05,-0.00023893084065049655,0.0017285557309433218,0.3752071261405945,22.549890518188477,0.1729399859905243,-14.207185745239258,-0.10558086633682251,-2.1389803886413574,0.20724813640117645,0
23,0.10954451560974121,-0.3236324191093445,-22.549890518188477,-0.1729399859905243,14.179414749145508,0.11198955774307251,2.1389803886413574,-0.22098104655742645,0.0,0.0,0.0,0.0,0.0,0.0,0.0,-0.3654568395280562,0.25916710697112977,-0.23882792048370677,0.3059174198915871,-0.12721858522048443,-0.03934375663315551,-0.24301785270838808,1.6753663437450135,0.05213064494187416,0.029975926920439874,-2.7524071998930815,0.034252853161458964,2.7663654481698745,0.7691577636318073,1.6754973547542302,0.052104326824870026,0.029969505109285054,-2.752394845125968,0.0342448039870148,2.7663679543071322,0.7691630533470046,-0.001299036484093384,0.00022129703965856944,-0.00035976339197078675,-0.0002516207004500879,-0.00048203424889750325,0.0003591524189417083,-0.0005667853708035405,0.0,0.0,0.0,0.0,0.0,0.0,0.0,0.00013101100921675268,-2.6318117004132946e-05,-6.421811154819906e-06,1.2354767113365028e-05,-8.049174444163532e-06,2.5061372577184216e-06,5.289715197309697e-06,0.001299036484093384,-0.00022129703965856944,0.00035976339197078675,0.0002516207004500879,0.00048203424889750325,-0.0003591524189417083,0.0005667853708035405,0.3236324191093445,22.549890518188477,0.1729399859905243,-14.179414749145508,-0.11198955774307251,-2.1389803886413574,0.22098104655742645,0
24,0.11464595794677734,-0.3236324191093445,-22.549890518188477,-0.1729399859905243,14.179414749145508,0.11198955774307251,2.1389803886413574,-0.22098104655742645,0.0,0.0,0.0,0.0,0.0,0.0,0.0,-0.3654568395280562,0.25916710697112977,-0.23882792048370677,0.3059174198915871,-0.12721858522048443,-0.03934375663315551,-0.24301785270838808,1.6753663437450135,0.05213064494187416,0.029975926920439874,-2.7524071998930815,0.034252853161458964,2.7663654481698745,0.7691577636318073,1.6754973547542302,0.052104326824870026,0.029969505109285054,-2.752394845125968,0.0342448039870148,2.7663679543071322,0.7691630533470046,-0.001299036484093384,0.00022129703965856944,-0.00035976339197078675,-0.0002516207004500879,-0.00048203424889750325,0.0003591524189417083,-0.0005667853708035405,0.0,0.0,0.0,0.0,0.0,0.0,0.0,0.00013101100921675268,-2.6318117004132946e-05,-6.421811154819906e-06,1.2354767113365028e-05,-8.049174444163532e-06,2.5061372577184216e-06,5.289715197309697e-06,0.001299036484093384,-0.00022129703965856944,0.00035976339197078675,0.0002516207004500879,0.00048203424889750325,-0.0003591524189417083,0.0005667853708035405,0.3236324191093445,22.549890518188477,0.1729399859905243,-14.179414749145508,-0.11198955774307251,-2.1389803886413574,0.22098104655742645,0
25,0.11954045295715332,-0.3236324191093445,-22.549890518188477,-0.1729399859905243,14.179414749145508,0.11198955774307251,2.1389803886413574,-0.22098104655742645,0.0,0.0,0.0,0.0,0.0,0.0,0.0,-0.3654568395280562,0.25916710697112977,-0.23882792048370677,0.3059174198915871,-0.12721858522048443,-0.03934375663315551,-0.24301785270838808,1.6753663437450135,0.05213064494187416,0.029975926920439874,-2.7524071998930815,0.034252853161458964,2.7663654481698745,0.7691577636318073,1.6754973547542302,0.052104326824870026,0.029969505109285054,-2.752394845125968,0.0342448039870148,2.7663679543071322,0.7691630533470046,-0.001299036484093384,0.00022129703965856944,-0.00035976339197078675,-0.0002516207004500879,-0.00048203424889750325,0.0003591524189417083,-0.0005667853708035405,0.0,0.0,0.0,0.0,0.0,0.0,0.0,0.00013101100921675268,-2.6318117004132946e-05,-6.421811154819906e-06,1.2354767113365028e-05,-8.049174444163532e-06,2.5061372577184216e-06,5.289715197309697e-06,0.001299036484093384,-0.00022129703965856944,0.00035976339197078675,0.0002516207004500879,0.00048203424889750325,-0.0003591524189417083,0.0005667853708035405,0.3236324191093445,22.549890518188477,0.1729399859905243,-14.179414749145508,-0.11198955774307251,-2.1389803886413574,0.22098104655742645,0
26,0.1245417594909668,-0.3236324191093445,-22.549890518188477,-0.1729399859905243,14.179414749145508,0.11198955774307251,2.1389803886413574,-0.22098104655742645,0.0,0.0,0.0,0.0,0.0,0.0,0.0,-0.3654568395280562,0.25916710697112977,-0.23882792048370677,0.3059174198915871,-0.12721858522048443,-0.03934375663315551,-0.24301785270838808,1.6753663437450135,0.05213064494187416,0.029975926920439874,-2.7524071998930815,0.034252853161458964,2.7663654481698745,0.7691577636318073,1.6754973547542302,0.052104326824870026,0.029969505109285054,-2.752394845125968,0.0342448039870148,2.7663679543071322,0.7691630533470046,-0.001299036484093384,0.00022129703965856944,-0.00035976339197078675,-0.0002516207004500879,-0.00048203424889750325,0.0003591524189417083,-0.0005667853708035405,0.0,0.0,0.0,0.0,0.0,0.0,0.0,0.00013101100921675268,-2.6318117004132946e-05,-6.421811154819906e-06,1.2354767113365028e-05,-8.049174444163532e-06,2.5061372577184216e-06,5.289715197309697e-06,0.001299036484093384,-0.00022129703965856944,0.00035976339197078675,0.0002516207004500879,0.00048203424889750325,-0.0003591524189417083,0.0005667853708035405,0.3236324191093445,22.549890518188477,0.1729399859905243,-14.179414749145508,-0.11198955774307251,-2.1389803886413574,0.22098104655742645,0
27,0.12978172302246094,-0.4267818331718445,-22.498315811157227,-0.1491362750530243,14.131807327270508,0.11198955774307251,2.1517977714538574,-0.23471395671367645,0.0,0.0,0.0,0.0,0.0,0.0,0.0,-0.3684457917908289,0.26266970449995475,-0.24193340344090983,0.3027161635688081,-0.12797911994903036,-0.040006276959026185,-0.24176383301879434,1.6753735823003868,0.05212907792327629,0.029974228245511964,-2.752403859021371,0.03424948197164696,2.7663672029124506,0.7691592895107136,1.6754973547542302,0.052104326824870026,0.029969505109285054,-2.752394845125968,0.0342448039870148,2.7663679543071322,0.7691630533470046,0.0011785519399275296,-0.0006762560358435878,-0.00033640384737589833,0.0010603683889827136,-0.0002523332397482882,-0.00019173960415477145,6.397449406623601e-05,0.0,0.0,0.0,0.0,0.0,0.0,0.0,0.00012377245384342928,-2.4751098406265715e-05,-4.723136226909841e-06,9.013895402976146e-06,-4.677984632162069e-06,7.513946815862482e-07,3.763836291081901e-06,-0.0011785519399275296,0.0006762560358435878,0.00033640384737589833,-0.0010603683889827136,0.0002523332397482882,0.00019173960415477145,-6.397449406623601e-05,0.4267818331718445,22.498315811157227,0.1491362750530243,-14.131807327270508,-0.11198955774307251,-2.1517977714538574,0.23471395671367645,0
28,0.13453960418701172,-0.4267818331718445,-22.498315811157227,-0.1491362750530243,14.131807327270508,0.11198955774307251,2.1517977714538574,-0.23471395671367645,0.0,0.0,0.0,0.0,0.0,0.0,0.0,-0.3684457917908289,0.26266970449995475,-0.24193340344090983,0.3027161635688081,-0.12797911994903036,-0.040006276959026185,-0.24176383301879434,1.6753735823003868,0.05212907792327629,0.029974228245511964,-2.752403859021371,0.03424948197164696,2.7663672029124506,0.7691592895107136,1.6754973547542302,0.052104326824870026,0.029969505109285054,-2.752394845125968,0.0342448039870148,2.7663679543071322,0.7691630533470046,0.0011785519399275296,-0.0006762560358435878,-0.00033640384737589833,0.0010603683889827136,-0.0002523332397482882,-0.00019173960415477145,6.397449406623601e-05,0.0,0.0,0.0,0.0,0.0,0.0,0.0,0.00012377245384342928,-2.4751098406265715e-05,-4.723136226909841e-06,9.013895402976146e-06,-4.677984632162069e-06,7.513946815862482e-07,3.763836291081901e-06,-0.0011785519399275296,0.0006762560358435878,0.00033640384737589833,-0.0010603683889827136,0.0002523332397482882,0.00019173960415477145,-6.397449406623601e-05,0.4267818331718445,22.498315811157227,0.1491362750530243,-14.131807327270508,-0.11198955774307251,-2.1517977714538574,0.23471395671367645,0
29,0.13953924179077148,-0.3752071261405945,-22.549890518188477,-0.1729399859905243,14.179414749145508,0.10008770227432251,2.1325716972351074,-0.26217979192733765,0.0,0.0,0.0,0.0,0.0,0.0,0.0,-0.3714745077140894,0.25867855599150735,-0.23998204066051873,0.3041118415436532,-0.12818412720176853,-0.039762120003198675,-0.24187037120763497,1.6753678966933554,0.052133511781978434,0.029976607582201477,-2.7524071998930815,0.034253782442202875,2.7663693779761878,0.7691623412701818,1.6754973547542302,0.052104326824870026,0.029969505109285054,-2.752394845125968,0.0342448039870148,2.7663679543071322,0.7691630533470046,8.966937666303506e-05,0.00023308792360413608,0.00013342533945231644,-0.0006655513841941865,0.00019265471661108542,0.0005502158882727512,0.0004025270208195267,0.0,0.0,0.0,0.0,0.0,0.0,0.0,0.00012945806087483192,-2.918495710840796e-05,-7.102472916423186e-06,1.2354767113365028e-05,-8.978455188074497e-06,-1.423669055533594e-06,7.120768228396912e-07,-8.966937666303506e-05,-0.00023308792360413608,-0.00013342533945231644,0.0006655513841941865,-0.00019265471661108542,-0.0005502158882727512,-0.0004025270208195267,0.3752071261405945,22.549890518188477,0.1729399859905243,-14.179414749145508,-0.10008770227432251,-2.1325716972351074,0.26217979192733765,0
30,0.14454126358032227,-0.3752071261405945,-22.549890518188477,-0.1729399859905243,14.179414749145508,0.10008770227432251,2.1325716972351074,-0.26217979192733765,0.0,0.0,0.0,0.0,0.0,0.0,0.0,-0.3714745077140894,0.25867855599150735,-0.23998204066051873,0.3041118415436532,-0.12818412720176853,-0.039762120003198675,-0.24187037120763497,1.6753678966933554,0.052133511781978434,0.029976607582201477,-2.7524071998930815,0.034253782442202875,2.7663693779761878,0.7691623412701818,1.6754973547542302,0.052104326824870026,0.029969505109285054,-2.752394845125968,0.0342448039870148,2.7663679543071322,0.7691630533470046,8.966937666303506e-05,0.00023308792360413608,0.00013342533945231644,-0.0006655513841941865,0.00019265471661108542,0.0005502158882727512,0.0004025270208195267,0.0,0.0,0.0,0.0,0.0,0.0,0.0,0.00012945806087483192,-2.918495710840796e-05,-7.102472916423186e-06,1.2354767113365028e-05,-8.978455188074497e-06,-1.423669055533594e-06,7.120768228396912e-07,-8.966937666303506e-05,-0.00023308792360413608,-0.00013342533945231644,0.0006655513841941865,-0.00019265471661108542,-0.0005502158882727512,-0.0004025270208195267,0.3752071261405945,22.549890518188477,0.1729399859905243,-14.179414749145508,-0.10008770227432251,-2.1325716972351074,0.26217979192733765,0
31,0.14954328536987305,-0.3752071261405945,-22.498315811157227,-0.1491362750530243,14.179414749145508,0.10008770227432251,2.1517977714538574,-0.24112264811992645,0.0,0.0,0.0,0.0,0.0,0.0,0.0,-0.3713343551826852,0.2623575994733766,-0.23932567250020095,0.3034553819595462,-0.12777840538328392,-0.04068587344321446,-0.2430502826778268,1.6753677946774563,0.05212957488532472,0.02997422731165459,-2.7524071998930815,0.0342531062592876,2.7663672422303067,0.7691600015875365,1.6754973547542302,0.052104326824870026,0.029969505109285054,-2.752394845125968,0.0342448039870148,2.7663679543071322,0.7691630533470046,0.0005066597157193971,-0.0006464052931483651,2.4079418727256425e-05,-0.00010286486087853026,6.361261408683371e-05,-0.0004654546056522779,-0.00028395671817675367,0.0,0.0,0.0,0.0,0.0,0.0,0.0,0.00012956007677389358,-2.5248060454695354e-05,-4.722202369536466e-06,1.2354767113365028e-05,-8.302272272796285e-06,7.120768255042265e-07,3.0517594681311877e-06,-0.0005066597157193971,0.0006464052931483651,-2.4079418727256425e-05,0.00010286486087853026,-6.361261408683371e-05,0.0004654546056522779,0.00028395671817675367,0.3752071261405945,22.498315811157227,0.1491362750530243,-14.179414749145508,-0.10008770227432251,-2.1517977714538574,0.24112264811992645,0
32,0.15453743934631348,-0.3752071261405945,-22.498315811157227,-0.1491362750530243,14.179414749145508,0.10008770227432251,2.1517977714538574,-0.24112264811992645,0.0,0.0,0.0,0.0,0.0,0.0,0.0,-0.3713343551826852,0.2623575994733766,-0.23932567250020095,0.3034553819595462,-0.12777840538328392,-0.04068587344321446,-0.2430502826778268,1.6753677946774563,0.05212957488532472,0.02997422731165459,-2.7524071998930815,0.0342531062592876,2.7663672422303067,0.7691600015875365,1.6754973547542302,0.052104326824870026,0.029969505109285054,-2.752394845125968,0.0342448039870148,2.7663679543071322,0.7691630533470046,0.0005066597157193971,-0.0006464052931483651,2.4079418727256425e-05,-0.00010286486087853026,6.361261408683371e-05,-0.0004654546056522779,-0.00028395671817675367,0.0,0.0,0.0,0.0,0.0,0.0,0.0,0.00012956007677389358,-2.5248060454695354e-05,-4.722202369536466e-06,1.2354767113365028e-05,-8.302272272796285e-06,7.120768255042265e-07,3.0517594681311877e-06,-0.0005066597157193971,0.0006464052931483651,-2.4079418727256425e-05,0.00010286486087853026,-6.361261408683371e-05,0.0004654546056522779,0.00028395671817675367,0.3752071261405945,22.498315811157227,0.1491362750530243,-14.179414749145508,-0.10008770227432251,-2.1517977714538574,0.24112264811992645,0
33,0.15955424308776855,-0.3752071261405945,-22.498315811157227,-0.1491362750530243,14.179414749145508,0.10008770227432251,2.1517977714538574,-0.24112264811992645,0.0,0.0,0.0,0.0,0.0,0.0,0.0,-0.3713343551826852,0.2623575994733766,-0.23932567250020095,0.3034553819595462,-0.12777840538328392,-0.04068587344321446,-0.2430502826778268,1.6753677946774563,0.05212957488532472,0.02997422731165459,-2.7524071998930815,0.0342531062592876,2.7663672422303067,0.7691600015875365,1.6754973547542302,0.052104326824870026,0.029969505109285054,-2.752394845125968,0.0342448039870148,2.7663679543071322,0.7691630533470046,0.0005066597157193971,-0.0006464052931483651,2.4079418727256425e-05,-0.00010286486087853026,6.361261408683371e-05,-0.0004654546056522779,-0.00028395671817675367,0.0,0.0,0.0,0.0,0.0,0.0,0.0,0.00012956007677389358,-2.5248060454695354e-05,-4.722202369536466e-06,1.2354767113365028e-05,-8.302272272796285e-06,7.120768255042265e-07,3.0517594681311877e-06,-0.0005066597157193971,0.0006464052931483651,-2.4079418727256425e-05,0.00010286486087853026,-6.361261408683371e-05,0.0004654546056522779,0.00028395671817675367,0.3752071261405945,22.498315811157227,0.1491362750530243,-14.179414749145508,-0.10008770227432251,-2.1517977714538574,0.24112264811992645,0
34,0.16454434394836426,-0.3752071261405945,-22.498315811157227,-0.1491362750530243,14.179414749145508,0.10008770227432251,2.1517977714538574,-0.24112264811992645,0.0,0.0,0.0,0.0,0.0,0.0,0.0,-0.3713343551826852,0.2623575994733766,-0.23932567250020095,0.3034553819595462,-0.12777840538328392,-0.04068587344321446,-0.2430502826778268,1.6753677946774563,0.05212957488532472,0.02997422731165459,-2.7524071998930815,0.0342531062592876,2.7663672422303067,0.7691600015875365,1.6754973547542302,0.052104326824870026,0.029969505109285054,-2.752394845125968,0.0342448039870148,2.7663679543071322,0.7691630533470046,0.0005066597157193971,-0.0006464052931483651,2.4079418727256425e-05,-0.00010286486087853026,6.361261408683371e-05,-0.0004654546056522779,-0.00028395671817675367,0.0,0.0,0.0,0.0,0.0,0.0,0.0,0.00012956007677389358,-2.5248060454695354e-05,-4.722202369536466e-06,1.2354767113365028e-05,-8.302272272796285e-06,7.120768255042265e-07,3.0517594681311877e-06,-0.0005066597157193971,0.0006464052931483651,-2.4079418727256425e-05,0.00010286486087853026,-6.361261408683371e-05,0.0004654546056522779,0.00028395671817675367,0.3752071261405945,22.498315811157227,0.1491362750530243,-14.179414749145508,-0.10008770227432251,-2.1517977714538574,0.24112264811992645,0
35,0.16956233978271484,-0.3752071261405945,-22.498315811157227,-0.1491362750530243,14.179414749145508,0.10008770227432251,2.1517977714538574,-0.24112264811992645,0.0,0.0,0.0,0.0,0.0,0.0,0.0,-0.3713343551826852,0.2623575994733766,-0.23932567250020095,0.3034553819595462,-0.12777840538328392,-0.04068587344321446,-0.2430502826778268,1.6753677946774563,0.05212957488532472,0.02997422731165459,-2.7524071998930815,0.0342531062592876,2.7663672422303067,0.7691600015875365,1.6754973547542302,0.052104326824870026,0.029969505109285054,-2.752394845125968,0.0342448039870148,2.7663679543071322,0.7691630533470046,0.0005066597157193971,-0.0006464052931483651,2.4079418727256425e-05,-0.00010286486087853026,6.361261408683371e-05,-0.0004654546056522779,-0.00028395671817675367,0.0,0.0,0.0,0.0,0.0,0.0,0.0,0.00012956007677389358,-2.5248060454695354e-05,-4.722202369536466e-06,1.2354767113365028e-05,-8.302272272796285e-06,7.120768255042265e-07,3.0517594681311877e-06,-0.0005066597157193971,0.0006464052931483651,-2.4079418727256425e-05,0.00010286486087853026,-6.361261408683371e-05,0.0004654546056522779,0.00028395671817675367,0.3752071261405945,22.498315811157227,0.1491362750530243,-14.179414749145508,-0.10008770227432251,-2.1517977714538574,0.24112264811992645,0
36,0.174544095993042,-0.3514034152030945,-22.549890518188477,-0.1491362750530243,14.179414749145508,0.10008770227432251,2.1517977714538574,-0.21457235515117645,0.0,0.0,0.0,0.0,0.0,0.0,0.0,-0.3634095609329691,0.26184795027467556,-0.23852588731877597,0.30812266060523974,-0.12724007120616965,-0.03875355407183731,-0.24553862387071612,1.6753682925867963,0.052132696277566185,0.02997422727158195,-2.7524071998930815,0.03425270411441135,2.7663672417457916,0.7691570515549844,1.6754973547542302,0.052104326824870026,0.029969505109285054,-2.752394845125968,0.0342448039870148,2.7663679543071322,0.7691630533470046,0.0003586107841093761,0.00044582827850357193,0.0004155884185922852,-6.329533499125466e-06,0.0002808909285730529,-0.00018758849449657182,-0.0017749955379867696,0.0,0.0,0.0,0.0,0.0,0.0,0.0,0.0001290621674339132,-2.8369452696158648e-05,-4.722162296896815e-06,1.2354767113365028e-05,-7.900127396549828e-06,7.125613405989384e-07,6.00179202026041e-06,-0.0003586107841093761,-0.00044582827850357193,-0.0004155884185922852,6.329533499125466e-06,-0.0002808909285730529,0.00018758849449657182,0.0017749955379867696,0.3514034152030945,22.549890518188477,0.1491362750530243,-14.179414749145508,-0.10008770227432251,-2.1517977714538574,0.21457235515117645,0
37,0.17954659461975098,-0.3514034152030945,-22.549890518188477,-0.1491362750530243,14.179414749145508,0.10008770227432251,2.1517977714538574,-0.21457235515117645,0.0,0.0,0.0,0.0,0.0,0.0,0.0,-0.3634095609329691,0.26184795027467556,-0.23852588731877597,0.30812266060523974,-0.12724007120616965,-0.03875355407183731,-0.24553862387071612,1.6753682925867963,0.052132696277566185,0.02997422727158195,-2.7524071998930815,0.03425270411441135,2.7663672417457916,0.7691570515549844,1.6754973547542302,0.052104326824870026,0.029969505109285054,-2.752394845125968,0.0342448039870148,2.7663679543071322,0.7691630533470046,0.0003586107841093761,0.00044582827850357193,0.0004155884185922852,-6.329533499125466e-06,0.0002808909285730529,-0.00018758849449657182,-0.0017749955379867696,0.0,0.0,0.0,0.0,0.0,0.0,0.0,0.0001290621674339132,-2.8369452696158648e-05,-4.722162296896815e-06,1.2354767113365028e-05,-7.900127396549828e-06,7.125613405989384e-07,6.00179202026041e-06,-0.0003586107841093761,-0.00044582827850357193,-0.0004155884185922852,6.329533499125466e-06,-0.0002808909285730529,0.00018758849449657182,0.0017749955379867696,0.3514034152030945,22.549890518188477,0.1491362750530243,-14.179414749145508,-0.10008770227432251,-2.1517977714538574,0.21457235515117645,0
38,0.18449711799621582,-0.3514034152030945,-22.573694229125977,-0.1729399859905243,14.155611038208008,0.10008770227432251,2.1389803886413574,-0.20724813640117645,0.0,0.0,0.0,0.0,0.0,0.0,0.0,-0.3559767377047391,0.2639557609348968,-0.2332304452229325,0.3071645310573413,-0.1273003001940642,-0.03875531292604569,-0.24546424219925678,1.675368281249153,0.0521351467899396,0.029976134332358025,-2.7524033042171543,0.03425048995284742,2.7663686663839524,0.7691562774893309,1.6754973547542302,0.052104326824870026,0.029969505109285054,-2.752394845125968,0.0342448039870148,2.7663679543071322,0.7691630533470046,0.0005155084719859646,0.0009938964402449156,0.0005728661364266434,0.0006419388908481792,1.4240675863177316e-05,0.0002613946151403694,-0.0011258960085888605,0.0,0.0,0.0,0.0,0.0,0.0,0.0,0.00012907350507718185,-3.081996506957424e-05,-6.629223072970869e-06,8.45909118618593e-06,-5.685965832620543e-06,-7.120768201751559e-07,6.775857673724239e-06,-0.0005155084719859646,-0.0009938964402449156,-0.0005728661364266434,-0.0006419388908481792,-1.4240675863177316e-05,-0.0002613946151403694,0.0011258960085888605,0.3514034152030945,22.573694229125977,0.1729399859905243,-14.155611038208008,-0.10008770227432251,-2.1389803886413574,0.20724813640117645,0
39,0.18954038619995117,-0.3514034152030945,-22.573694229125977,-0.1729399859905243,14.155611038208008,0.10008770227432251,2.1389803886413574,-0.20724813640117645,0.0,0.0,0.0,0.0,0.0,0.0,0.0,-0.3559767377047391,0.2639557609348968,-0.2332304452229325,0.3071645310573413,-0.1273003001940642,-0.03875531292604569,-0.24546424219925678,1.675368281249153,0.0521351467899396,0.029976134332358025,-2.7524033042171543,0.03425048995284742,2.7663686663839524,0.7691562774893309,1.6754973547542302,0.052104326824870026,0.029969505109285054,-2.752394845125968,0.0342448039870148,2.7663679543071322,0.7691630533470046,0.0005155084719859646,0.0009938964402449156,0.0005728661364266434,0.0006419388908481792,1.4240675863177316e-05,0.0002613946151403694,-0.0011258960085888605,0.0,0.0,0.0,0.0,0.0,0.0,0.0,0.00012907350507718185,-3.081996506957424e-05,-6.629223072970869e-06,8.45909118618593e-06,-5.685965832620543e-06,-7.120768201751559e-07,6.775857673724239e-06,-0.0005155084719859646,-0.0009938964402449156,-0.0005728661364266434,-0.0006419388908481792,-1.4240675863177316e-05,-0.0002613946151403694,0.0011258960085888605,0.3514034152030945,22.573694229125977,0.1729399859905243,-14.155611038208008,-0.10008770227432251,-2.1389803886413574,0.20724813640117645,0
40,0.19454550743103027,-0.3752071261405945,-22.573694229125977,-0.1729399859905243,14.131807327270508,0.10008770227432251,2.1517977714538574,-0.24112264811992645,0.0,0.0,0.0,0.0,0.0,0.0,0.0,-0.35972030636893587,0.26309016793639556,-0.236064652280362,0.30674862450003915,-0.12706059834959296,-0.03861311849694395,-0.2437843153987375,1.6753672079635,0.05213201759793471,0.029976607583535396,-2.7524038590088096,0.03425413205085552,2.7663672402922423,0.7691600015339256,1.6754973547542302,0.052104326824870026,0.029969505109285054,-2.752394845125968,0.0342448039870148,2.7663679543071322,0.7691630533470046,-8.94220118116751e-06,0.0010354367285641951,0.0004899809643775491,0.0008643228975019955,0.00025388430859740946,-0.00012811250555867692,-0.00037552314117423143,0.0,0.0,0.0,0.0,0.0,0.0,0.0,0.0001301467907302012,-2.7690773064685537e-05,-7.102474250342272e-06,9.013882841468757e-06,-9.328063840720324e-06,7.14014889879877e-07,3.05181307902469e-06,8.94220118116751e-06,-0.0010354367285641951,-0.0004899809643775491,-0.0008643228975019955,-0.00025388430859740946,0.00012811250555867692,0.00037552314117423143,0.3752071261405945,22.573694229125977,0.1729399859905243,-14.131807327270508,-0.10008770227432251,-2.1517977714538574,0.24112264811992645,0
41,0.19978642463684082,-0.3752071261405945,-22.573694229125977,-0.1729399859905243,14.131807327270508,0.10008770227432251,2.1517977714538574,-0.24112264811992645,0.0,0.0,0.0,0.0,0.0,0.0,0.0,-0.35972030636893587,0.26309016793639556,-0.236064652280362,0.30674862450003915,-0.12706059834959296,-0.03861311849694395,-0.2437843153987375,1.6753672079635,0.05213201759793471,0.029976607583535396,-2.7524038590088096,0.03425413205085552,2.7663672402922423,0.7691600015339256,1.6754973547542302,0.052104326824870026,0.029969505109285054,-2.752394845125968,0.0342448039870148,2.7663679543071322,0.7691630533470046,-8.94220118116751e-06,0.0010354367285641951,0.0004899809643775491,0.0008643228975019955,0.00025388430859740946,-0.00012811250555867692,-0.00037552314117423143,0.0,0.0,0.0,0.0,0.0,0.0,0.0,0.0001301467907302012,-2.7690773064685537e-05,-7.102474250342272e-06,9.013882841468757e-06,-9.328063840720324e-06,7.14014889879877e-07,3.05181307902469e-06,8.94220118116751e-06,-0.0010354367285641951,-0.0004899809643775491,-0.0008643228975019955,-0.00025388430859740946,0.00012811250555867692,0.00037552314117423143,0.3752071261405945,22.573694229125977,0.1729399859905243,-14.131807327270508,-0.10008770227432251,-2.1517977714538574,0.24112264811992645,0
42,0.20454192161560059,-0.4267818331718445,-22.474512100219727,-0.1729399859905243,14.230989456176758,0.10558086633682251,2.1582064628601074,-0.22098104655742645,0.0,0.0,0.0,0.0,0.0,0.0,0.0,-0.3616414355101919,0.2606977833282215,-0.2332935629413161,0.30960707325699616,-0.12706758397604345,-0.03788684283010053,-0.24525689294553088,1.6753735822848346,0.052127512641520365,0.029975897711444485,-2.752410819170768,0.03425032699053525,2.7663665301534754,0.769157763631807,1.6754973547542302,0.052104326824870026,0.029969505109285054,-2.752394845125968,0.0342448039870148,2.7663679543071322,0.7691630533470046,0.0009714737065213694,-0.0013267957441843896,0.00022990197775408627,-0.0009655105147183818,0.00011998579440260771,-0.00036173819207575966,-0.0008407585264787566,0.0,0.0,0.0,0.0,0.0,0.0,0.0,0.00012377246939565545,-2.3185816650339586e-05,-6.392602159430855e-06,1.5974044799804688e-05,-5.523003520448155e-06,1.4241536567816127e-06,5.289715197642764e-06,-0.0009714737065213694,0.0013267957441843896,-0.00022990197775408627,0.0009655105147183818,-0.00011998579440260771,0.00036173819207575966,0.0008407585264787566,0.4267818331718445,22.474512100219727,0.1729399859905243,-14.230989456176758,-0.10558086633682251,-2.1582064628601074,0.22098104655742645,0
43,0.20998430252075195,-0.4267818331718445,-22.474512100219727,-0.1729399859905243,14.230989456176758,0.10558086633682251,2.1582064628601074,-0.22098104655742645,0.0,0.0,0.0,0.0,0.0,0.0,0.0,-0.3616414355101919,0.2606977833282215,-0.2332935629413161,0.30960707325699616,-0.12706758397604345,-0.03788684283010053,-0.24525689294553088,1.6753735822848346,0.052127512641520365,0.029975897711444485,-2.752410819170768,0.03425032699053525,2.7663665301534754,0.769157763631807,1.6754973547542302,0.052104326824870026,0.029969505109285054,-2.752394845125968,0.0342448039870148,2.7663679543071322,0.7691630533470046,0.0009714737065213694,-0.0013267957441843896,0.00022990197775408627,-0.0009655105147183818,0.00011998579440260771,-0.00036173819207575966,-0.0008407585264787566,0.0,0.0,0.0,0.0,0.0,0.0,0.0,0.00012377246939565545,-2.3185816650339586e-05,-6.392602159430855e-06,1.5974044799804688e-05,-5.523003520448155e-06,1.4241536567816127e-06,5.289715197642764e-06,-0.0009714737065213694,0.0013267957441843896,-0.00022990197775408627,0.0009655105147183818,-0.00011998579440260771,0.00036173819207575966,0.0008407585264787566,0.4267818331718445,22.474512100219727,0.1729399859905243,-14.230989456176758,-0.10558086633682251,-2.1582064628601074,0.22098104655742645,0
44,0.2145383358001709,-0.3514034152030945,-22.522119522094727,-0.1253325641155243,14.155611038208008,0.11198955774307251,2.1453890800476074,-0.22830526530742645,0.0,0.0,0.0,0.0,0.0,0.0,0.0,-0.3670686472946654,0.2648459258338508,-0.2338134762117084,0.3073274668210597,-0.1272190277662342,-0.038551810243027194,-0.24514296845538733,1.6753682925868447,0.052131475143459644,0.02997258312738462,-2.752405529457226,0.0342495228387667,2.76636794122518,0.7691585774338906,1.6754973547542302,0.052104326824870026,0.029969505109285054,-2.752394845125968,0.0342448039870148,2.7663679543071322,0.7691630533470046,-0.0007712275056384217,8.014237494617034e-05,-0.0010219412200334213,0.0011598187350031753,-0.00032678597494983794,0.00013328667992563813,-0.0006615656566437526,0.0,0.0,0.0,0.0,0.0,0.0,0.0,0.00012906216738550746,-2.7148318589617637e-05,-3.0780180995670925e-06,1.0684331257948543e-05,-4.718851751898956e-06,1.3081952410232134e-08,4.475913114032615e-06,0.0007712275056384217,-8.014237494617034e-05,0.0010219412200334213,-0.0011598187350031753,0.00032678597494983794,-0.00013328667992563813,0.0006615656566437526,0.3514034152030945,22.522119522094727,0.1253325641155243,-14.155611038208008,-0.11198955774307251,-2.1453890800476074,0.22830526530742645,0
45,0.21955275535583496,-0.3514034152030945,-22.522119522094727,-0.1253325641155243,14.155611038208008,0.11198955774307251,2.1453890800476074,-0.22830526530742645,0.0,0.0,0.0,0.0,0.0,0.0,0.0,-0.3670686472946654,0.2648459258338508,-0.2338134762117084,0.3073274668210597,-0.1272190277662342,-0.038551810243027194,-0.24514296845538733,1.6753682925868447,0.052131475143459644,0.02997258312738462,-2.752405529457226,0.0342495228387667,2.76636794122518,0.7691585774338906,1.6754973547542302,0.052104326824870026,0.029969505109285054,-2.752394845125968,0.0342448039870148,2.7663679543071322,0.7691630533470046,-0.0007712275056384217,8.014237494617034e-05,-0.0010219412200334213,0.0011598187350031753,-0.00032678597494983794,0.00013328667992563813,-0.0006615656566437526,0.0,0.0,0.0,0.0,0.0,0.0,0.0,0.00012906216738550746,-2.7148318589617637e-05,-3.0780180995670925e-06,1.0684331257948543e-05,-4.718851751898956e-06,1.3081952410232134e-08,4.475913114032615e-06,0.0007712275056384217,-8.014237494617034e-05,0.0010219412200334213,-0.0011598187350031753,0.00032678597494983794,-0.00013328667992563813,0.0006615656566437526,0.3514034152030945,22.522119522094727,0.1253325641155243,-14.155611038208008,-0.11198955774307251,-2.1453890800476074,0.22830526530742645,0
46,0.22457337379455566,-0.3752071261405945,-22.549890518188477,-0.1491362750530243,14.179414749145508,0.10558086633682251,2.1453890800476074,-0.20724813640117645,0.0,0.0,0.0,0.0,0.0,0.0,0.0,-0.37250787068446484,0.2592223874463905,-0.2379350535960745,0.3134280896776735,-0.12683320997314146,-0.037699814718727576,-0.24352406316398836,1.6753699630227004,0.05213350071684888,0.02997422727163142,-2.7524071998930815,0.03425248421169039,2.766367836569538,0.7691562377529011,1.6754973547542302,0.052104326824870026,0.029969505109285054,-2.752394845125968,0.0342448039870148,2.7663679543071322,0.7691630533470046,0.000252866502274702,0.00012217804239464215,-0.0004424925953781304,0.0002260413142034568,9.204332060779332e-05,0.00013130960532520386,-0.0012627439627810187,0.0,0.0,0.0,0.0,0.0,0.0,0.0,0.00012739173152986893,-2.9173891978852284e-05,-4.722162346367659e-06,1.2354767113365028e-05,-7.680224675586655e-06,1.1773759434063891e-07,6.815594103537492e-06,-0.000252866502274702,-0.00012217804239464215,0.0004424925953781304,-0.0002260413142034568,-9.204332060779332e-05,-0.00013130960532520386,0.0012627439627810187,0.3752071261405945,22.549890518188477,0.1491362750530243,-14.179414749145508,-0.10558086633682251,-2.1453890800476074,0.20724813640117645,0
47,0.22955727577209473,-0.3752071261405945,-22.549890518188477,-0.1491362750530243,14.179414749145508,0.10558086633682251,2.1453890800476074,-0.20724813640117645,0.0,0.0,0.0,0.0,0.0,0.0,0.0,-0.37250787068446484,0.2592223874463905,-0.2379350535960745,0.3134280896776735,-0.12683320997314146,-0.037699814718727576,-0.24352406316398836,1.6753699630227004,0.05213350071684888,0.02997422727163142,-2.7524071998930815,0.03425248421169039,2.766367836569538,0.7691562377529011,1.6754973547542302,0.052104326824870026,0.029969505109285054,-2.752394845125968,0.0342448039870148,2.7663679543071322,0.7691630533470046,0.000252866502274702,0.00012217804239464215,-0.0004424925953781304,0.0002260413142034568,9.204332060779332e-05,0.00013130960532520386,-0.0012627439627810187,0.0,0.0,0.0,0.0,0.0,0.0,0.0,0.00012739173152986893,-2.9173891978852284e-05,-4.722162346367659e-06,1.2354767113365028e-05,-7.680224675586655e-06,1.1773759434063891e-07,6.815594103537492e-06,-0.000252866502274702,-0.00012217804239464215,0.0004424925953781304,-0.0002260413142034568,-9.204332060779332e-05,-0.00013130960532520386,0.0012627439627810187,0.3752071261405945,22.549890518188477,0.1491362750530243,-14.179414749145508,-0.10558086633682251,-2.1453890800476074,0.20724813640117645,0
48,0.23460674285888672,-0.3236324191093445,-22.549890518188477,-0.07375786453485489,14.155611038208008,0.11198955774307251,2.1389803886413574,-0.22098104655742645,0.0,0.0,0.0,0.0,0.0,0.0,0.0,-0.3677180086541147,0.2656872263651767,-0.23738310243889657,0.3101153290922395,-0.12664658804351586,-0.038757529568883974,-0.24301014508255556,1.6753663405956551,0.052132767369052375,0.029968937666759253,-2.752405529457226,0.034252362418372435,2.7663686663832903,0.7691577636318073,1.6754973547542302,0.052104326824870026,0.029969505109285054,-2.752394845125968,0.0342448039870148,2.7663679543071322,0.7691630533470046,-0.0011515167890944603,0.0009804170185776777,-0.0013408786052812598,0.0006457066024520921,-0.00025218525293711715,0.00022892827003219657,-0.0011385934104144323,0.0,0.0,0.0,0.0,0.0,0.0,0.0,0.00013101415857508236,-2.8440544182349592e-05,5.674425258006544e-07,1.0684331257948543e-05,-7.558431357634898e-06,-7.120761580381441e-07,5.289715197309697e-06,0.0011515167890944603,-0.0009804170185776777,0.0013408786052812598,-0.0006457066024520921,0.00025218525293711715,-0.00022892827003219657,0.0011385934104144323,0.3236324191093445,22.549890518188477,0.07375786453485489,-14.155611038208008,-0.11198955774307251,-2.1389803886413574,0.22098104655742645,0
49,0.24033284187316895,-0.3236324191093445,-22.549890518188477,-0.07375786453485489,14.155611038208008,0.11198955774307251,2.1389803886413574,-0.22098104655742645,0.0,0.0,0.0,0.0,0.0,0.0,0.0,-0.3677180086541147,0.2656872263651767,-0.23738310243889657,0.3101153290922395,-0.12664658804351586,-0.038757529568883974,-0.24301014508255556,1.6753663405956551,0.052132767369052375,0.029968937666759253,-2.752405529457226,0.034252362418372435,2.7663686663832903,0.7691577636318073,1.6754973547542302,0.052104326824870026,0.029969505109285054,-2.752394845125968,0.0342448039870148,2.7663679543071322,0.7691630533470046,-0.0011515167890944603,0.0009804170185776777,-0.0013408786052812598,0.0006457066024520921,-0.00025218525293711715,0.00022892827003219657,-0.0011385934104144323,0.0,0.0,0.0,0.0,0.0,0.0,0.0,0.00013101415857508236,-2.8440544182349592e-05,5.674425258006544e-07,1.0684331257948543e-05,-7.558431357634898e-06,-7.120761580381441e-07,5.289715197309697e-06,0.0011515167890944603,-0.0009804170185776777,0.0013408786052812598,-0.0006457066024520921,0.00025218525293711715,-0.00022892827003219657,0.0011385934104144323,0.3236324191093445,22.549890518188477,0.07375786453485489,-14.155611038208008,-0.11198955774307251,-2.1389803886413574,0.22098104655742645,0
50,0.24455738067626953,-0.3236324191093445,-22.549890518188477,-0.07375786453485489,14.155611038208008,0.11198955774307251,2.1389803886413574,-0.22098104655742645,0.0,0.0,0.0,0.0,0.0,0.0,0.0,-0.3677180086541147,0.2656872263651767,-0.23738310243889657,0.3101153290922395,-0.12664658804351586,-0.038757529568883974,-0.24301014508255556,1.6753663405956551,0.052132767369052375,0.029968937666759253,-2.752405529457226,0.034252362418372435,2.7663686663832903,0.7691577636318073,1.6754973547542302,0.052104326824870026,0.029969505109285054,-2.752394845125968,0.0342448039870148,2.7663679543071322,0.7691630533470046,-0.0011515167890944603,0.0009804170185776777,-0.0013408786052812598,0.0006457066024520921,-0.00025218525293711715,0.00022892827003219657,-0.0011385934104144323,0.0,0.0,0.0,0.0,0.0,0.0,0.0,0.00013101415857508236,-2.8440544182349592e-05,5.674425258006544e-07,1.0684331257948543e-05,-7.558431357634898e-06,-7.120761580381441e-07,5.289715197309697e-06,0.0011515167890944603,-0.0009804170185776777,0.0013408786052812598,-0.0006457066024520921,0.00025218525293711715,-0.00022892827003219657,0.0011385934104144323,0.3236324191093445,22.549890518188477,0.07375786453485489,-14.155611038208008,-0.11198955774307251,-2.1389803886413574,0.22098104655742645,0
51,0.24954819679260254,-0.3236324191093445,-22.549890518188477,-0.07375786453485489,14.155611038208008,0.11198955774307251,2.1389803886413574,-0.22098104655742645,0.0,0.0,0.0,0.0,0.0,0.0,0.0,-0.3677180086541147,0.2656872263651767,-0.23738310243889657,0.3101153290922395,-0.12664658804351586,-0.038757529568883974,-0.24301014508255556,1.6753663405956551,0.052132767369052375,0.029968937666759253,-2.752405529457226,0.034252362418372435,2.7663686663832903,0.7691577636318073,1.6754973547542302,0.052104326824870026,0.029969505109285054,-2.752394845125968,0.0342448039870148,2.7663679543071322,0.7691630533470046,-0.0011515167890944603,0.0009804170185776777,-0.0013408786052812598,0.0006457066024520921,-0.00025218525293711715,0.00022892827003219657,-0.0011385934104144323,0.0,0.0,0.0,0.0,0.0,0.0,0.0,0.00013101415857508236,-2.8440544182349592e-05,5.674425258006544e-07,1.0684331257948543e-05,-7.558431357634898e-06,-7.120761580381441e-07,5.289715197309697e-06,0.0011515167890944603,-0.0009804170185776777,0.0013408786052812598,-0.0006457066024520921,0.00025218525293711715,-0.00022892827003219657,0.0011385934104144323,0.3236324191093445,22.549890518188477,0.07375786453485489,-14.155611038208008,-0.11198955774307251,-2.1389803886413574,0.22098104655742645,0
52,0.2545907497406006,-0.3752071261405945,-22.573694229125977,-0.1253325641155243,14.179414749145508,0.11748272180557251,2.1582064628601074,-0.22098104655742645,0.0,0.0,0.0,0.0,0.0,0.0,0.0,-0.37104079659531913,0.26061733931145675,-0.239185179405511,0.31018938131944634,-0.12589635676757038,-0.03978866228276387,-0.2442612465238937,1.6753699629177041,0.05213436667446623,0.029972556835727297,-2.7524071998930815,0.03424750511542297,2.7663665301534865,0.7691577636318073,1.6754973547542302,0.052104326824870026,0.029969505109285054,-2.752394845125968,0.0342448039870148,2.7663679543071322,0.7691630533470046,0.0006685600995997469,0.0006792798220894807,-0.0008708317466198347,-0.0004394033838966927,-0.0003829621298850943,-0.000385000634922345,-0.0012208895248161998,0.0,0.0,0.0,0.0,0.0,0.0,0.0,0.00012739183652610286,-3.0039849596201484e-05,-3.0517264422436075e-06,1.2354767113365028e-05,-2.7011284081668308e-06,1.4241536456793824e-06,5.289715197309697e-06,-0.0006685600995997469,-0.0006792798220894807,0.0008708317466198347,0.0004394033838966927,0.0003829621298850943,0.000385000634922345,0.0012208895248161998,0.3752071261405945,22.573694229125977,0.1253325641155243,-14.179414749145508,-0.11748272180557251,-2.1582064628601074,0.22098104655742645,0
53,0.2595555782318115,-0.3752071261405945,-22.573694229125977,-0.1253325641155243,14.179414749145508,0.11748272180557251,2.1582064628601074,-0.22098104655742645,0.0,0.0,0.0,0.0,0.0,0.0,0.0,-0.37104079659531913,0.26061733931145675,-0.239185179405511,0.31018938131944634,-0.12589635676757038,-0.03978866228276387,-0.2442612465238937,1.6753699629177041,0.05213436667446623,0.029972556835727297,-2.7524071998930815,0.03424750511542297,2.7663665301534865,0.7691577636318073,1.6754973547542302,0.052104326824870026,0.029969505109285054,-2.752394845125968,0.0342448039870148,2.7663679543071322,0.7691630533470046,0.0006685600995997469,0.0006792798220894807,-0.0008708317466198347,-0.0004394033838966927,-0.0003829621298850943,-0.000385000634922345,-0.0012208895248161998,0.0,0.0,0.0,0.0,0.0,0.0,0.0,0.00012739183652610286,-3.0039849596201484e-05,-3.0517264422436075e-06,1.2354767113365028e-05,-2.7011284081668308e-06,1.4241536456793824e-06,5.289715197309697e-06,-0.0006685600995997469,-0.0006792798220894807,0.0008708317466198347,0.0004394033838966927,0.0003829621298850943,0.000385000634922345,0.0012208895248161998,0.3752071261405945,22.573694229125977,0.1253325641155243,-14.179414749145508,-0.11748272180557251,-2.1582064628601074,0.22098104655742645,0
54,0.26462483406066895,-0.3236324191093445,-22.549890518188477,-0.1253325641155243,14.207185745239258,0.11198955774307251,2.1389803886413574,-0.21457235515117645,0.0,0.0,0.0,0.0,0.0,0.0,0.0,-0.3615194264265146,0.25871482750710667,-0.2328517472347026,0.31269080288424095,-0.12622052672681094,-0.03887776283386396,-0.24534479393003367,1.6753662417057862,0.05213316943922084,0.029972556835726687,-2.7524091487349125,0.03424964563282962,2.7663686533020027,0.7691570515549844,1.6754973547542302,0.052104326824870026,0.029969505109285054,-2.752394845125968,0.0342448039870148,2.7663679543071322,0.7691630533470046,-0.0007026682908886551,0.00031298594111175406,-0.0004636060378132377,-0.0003491587893270436,-0.00027144253138562473,0.0003810216244706132,-0.010346935483935662,0.0,0.0,0.0,0.0,0.0,0.0,0.0,0.0001311130484440426,-2.8842614350814422e-05,-3.0517264416329848e-06,1.4303608944388202e-05,-4.841645814816775e-06,-6.989948704294591e-07,6.00179202026041e-06,0.0007026682908886551,-0.00031298594111175406,0.0004636060378132377,0.0003491587893270436,0.00027144253138562473,-0.0003810216244706132,0.010346935483935662,0.3236324191093445,22.549890518188477,0.1253325641155243,-14.207185745239258,-0.11198955774307251,-2.1389803886413574,0.21457235515117645,0
55,0.2695584297180176,-0.3236324191093445,-22.549890518188477,-0.1253325641155243,14.207185745239258,0.11198955774307251,2.1389803886413574,-0.21457235515117645,0.0,0.0,0.0,0.0,0.0,0.0,0.0,-0.3615194264265146,0.25871482750710667,-0.2328517472347026,0.31269080288424095,-0.12622052672681094,-0.03887776283386396,-0.24534479393003367,1.6753662417057862,0.05213316943922084,0.029972556835726687,-2.7524091487349125,0.03424964563282962,2.7663686533020027,0.7691570515549844,1.6754973547542302,0.052104326824870026,0.029969505109285054,-2.752394845125968,0.0342448039870148,2.7663679543071322,0.7691630533470046,-0.0007026682908886551,0.00031298594111175406,-0.0004636060378132377,-0.0003491587893270436,-0.00027144253138562473,0.0003810216244706132,-0.010346935483935662,0.0,0.0,0.0,0.0,0.0,0.0,0.0,0.0001311130484440426,-2.8842614350814422e-05,-3.0517264416329848e-06,1.4303608944388202e-05,-4.841645814816775e-06,-6.989948704294591e-07,6.00179202026041e-06,0.0007026682908886551,-0.00031298594111175406,0.0004636060378132377,0.0003491587893270436,0.00027144253138562473,-0.0003810216244706132,0.010346935483935662,0.3236324191093445,22.549890518188477,0.1253325641155243,-14.207185745239258,-0.11198955774307251,-2.1389803886413574,0.21457235515117645,0
56,0.2745625972747803,-0.3752071261405945,-22.549890518188477,-0.1491362750530243,14.207185745239258,0.11198955774307251,2.1517977714538574,-0.21457235515117645,0.0,0.0,0.0,0.0,0.0,0.0,0.0,-0.36072948870714966,0.25798858918809786,-0.2313846857082088,0.309184444281304,-0.1260808512416464,-0.03929324016737091,-0.24377270265135598,1.6753699630221244,0.05213324645027752,0.02997422727158195,-2.7524091487349125,0.03425273454740619,2.7663640633158475,0.769155991916855,1.6754973547542302,0.052104326824870026,0.029969505109285054,-2.752394845125968,0.0342448039870148,2.7663679543071322,0.7691630533470046,0.00041539701226437785,-0.000133667972979387,7.302110954033547e-05,-0.00076272658773408,-0.00035280850651434406,-0.0002976629845540875,-0.0011604401462370043,0.0,0.0,0.0,0.0,0.0,0.0,0.0,0.00012739173210585264,-2.8919625407491933e-05,-4.722162296896815e-06,1.4303608944388202e-05,-7.930560391389285e-06,3.890991284727363e-06,7.061430149613024e-06,-0.00041539701226437785,0.000133667972979387,-7.302110954033547e-05,0.00076272658773408,0.00035280850651434406,0.0002976629845540875,0.0011604401462370043,0.3752071261405945,22.549890518188477,0.1491362750530243,-14.207185745239258,-0.11198955774307251,-2.1517977714538574,0.21457235515117645,0
57,0.2795398235321045,-0.3752071261405945,-22.549890518188477,-0.1491362750530243,14.207185745239258,0.11198955774307251,2.1517977714538574,-0.21457235515117645,0.0,0.0,0.0,0.0,0.0,0.0,0.0,-0.36072948870714966,0.25798858918809786,-0.2313846857082088,0.309184444281304,-0.1260808512416464,-0.03929324016737091,-0.24377270265135598,1.6753699630221244,0.05213324645027752,0.02997422727158195,-2.7524091487349125,0.03425273454740619,2.7663640633158475,0.769155991916855,1.6754973547542302,0.052104326824870026,0.029969505109285054,-2.752394845125968,0.0342448039870148,2.7663679543071322,0.7691630533470046,0.00041539701226437785,-0.000133667972979387,7.302110954033547e-05,-0.00076272658773408,-0.00035280850651434406,-0.0002976629845540875,-0.0011604401462370043,0.0,0.0,0.0,0.0,0.0,0.0,0.0,0.00012739173210585264,-2.8919625407491933e-05,-4.722162296896815e-06,1.4303608944388202e-05,-7.930560391389285e-06,3.890991284727363e-06,7.061430149613024e-06,-0.00041539701226437785,0.000133667972979387,-7.302110954033547e-05,0.00076272658773408,0.00035280850651434406,0.0002976629845540875,0.0011604401462370043,0.3752071261405945,22.549890518188477,0.1491362750530243,-14.207185745239258,-0.11198955774307251,-2.1517977714538574,0.21457235515117645,0
58,0.2845594882965088,-0.3514034152030945,-22.549890518188477,-0.2007109820842743,14.207185745239258,0.10558086633682251,2.1517977714538574,-0.20724813640117645,0.0,0.0,0.0,0.0,0.0,0.0,0.0,-0.3624224478949441,0.24489928795254418,-0.2296931537026275,0.3354266739080837,-0.1256705674518511,-0.03563141815717952,-0.24257059974325487,1.675368289752422,0.05213351276837139,0.02997997617355564,-2.7524091487349125,0.034253527565426364,2.7663672377978785,0.7691562377469194,1.6754973547542302,0.052104326824870026,0.029969505109285054,-2.752394845125968,0.0342448039870148,2.7663679543071322,0.7691630533470046,-0.00041037605598889126,0.0005129353014644347,0.0013786824211697505,-0.0041862459482416275,5.754883304021682e-05,-0.0003157675312377227,-0.0016264437687483297,0.0,0.0,0.0,0.0,0.0,0.0,0.0,0.00012906500180820402,-2.918594350136139e-05,-1.047106427058686e-05,1.4303608944388202e-05,-8.723578411563848e-06,7.165092537064766e-07,6.815600085197104e-06,0.00041037605598889126,-0.0005129353014644347,-0.0013786824211697505,0.0041862459482416275,-5.754883304021682e-05,0.0003157675312377227,0.0016264437687483297,0.3514034152030945,22.549890518188477,0.2007109820842743,-14.207185745239258,-0.10558086633682251,-2.1517977714538574,0.20724813640117645,0
59,0.28954005241394043,-0.3514034152030945,-22.549890518188477,-0.2007109820842743,14.207185745239258,0.10558086633682251,2.1517977714538574,-0.20724813640117645,0.0,0.0,0.0,0.0,0.0,0.0,0.0,-0.3624224478949441,0.24489928795254418,-0.2296931537026275,0.3354266739080837,-0.1256705674518511,-0.03563141815717952,-0.24257059974325487,1.675368289752422,0.05213351276837139,0.02997997617355564,-2.7524091487349125,0.034253527565426364,2.7663672377978785,0.7691562377469194,1.6754973547542302,0.052104326824870026,0.029969505109285054,-2.752394845125968,0.0342448039870148,2.7663679543071322,0.7691630533470046,-0.00041037605598889126,0.0005129353014644347,0.0013786824211697505,-0.0041862459482416275,5.754883304021682e-05,-0.0003157675312377227,-0.0016264437687483297,0.0,0.0,0.0,0.0,0.0,0.0,0.0,0.00012906500180820402,-2.918594350136139e-05,-1.047106427058686e-05,1.4303608944388202e-05,-8.723578411563848e-06,7.165092537064766e-07,6.815600085197104e-06,0.00041037605598889126,-0.0005129353014644347,-0.0013786824211697505,0.0041862459482416275,-5.754883304021682e-05,0.0003157675312377227,0.0016264437687483297,0.3514034152030945,22.549890518188477,0.2007109820842743,-14.207185745239258,-0.10558086633682251,-2.1517977714538574,0.20724813640117645,0
60,0.29456067085266113,-0.3514034152030945,-22.549890518188477,-0.1491362750530243,14.131807327270508,0.09367901086807251,2.1453890800476074,-0.22098104655742645,0.0,0.0,0.0,0.0,0.0,0.0,0.0,-0.3624865212453861,0.2524409939391502,-0.23063603016481662,0.3248600998692417,-0.12572454671204095,-0.03707313632395718,-0.24318882982937304,1.6753682670770222,0.052133197086015395,0.02997422728360374,-2.752403859021371,0.03425488793912217,2.766367941225155,0.7691577636318073,1.6754973547542302,0.052104326824870026,0.029969505109285054,-2.752394845125968,0.0342448039870148,2.7663679543071322,0.7691630533470046,-0.000758405170150471,0.0008183847853418077,-0.00015044423729930034,0.0007685054703940064,0.0004885155471069091,8.612928209830759e-05,-0.001450784785353202,0.0,0.0,0.0,0.0,0.0,0.0,0.0,0.00012908767720798409,-2.8870261145369502e-05,-4.722174318686628e-06,9.013895402976146e-06,-1.0083952107366179e-05,1.3081977279227885e-08,5.289715197309697e-06,0.000758405170150471,-0.0008183847853418077,0.00015044423729930034,-0.0007685054703940064,-0.0004885155471069091,-8.612928209830759e-05,0.001450784785353202,0.3514034152030945,22.549890518188477,0.1491362750530243,-14.131807327270508,-0.09367901086807251,-2.1453890800476074,0.22098104655742645,0
61,0.29956698417663574,-0.3514034152030945,-22.549890518188477,-0.1491362750530243,14.131807327270508,0.09367901086807251,2.1453890800476074,-0.22098104655742645,0.0,0.0,0.0,0.0,0.0,0.0,0.0,-0.3624865212453861,0.2524409939391502,-0.23063603016481662,0.3248600998692417,-0.12572454671204095,-0.03707313632395718,-0.24318882982937304,1.6753682670770222,0.052133197086015395,0.02997422728360374,-2.752403859021371,0.03425488793912217,2.766367941225155,0.7691577636318073,1.6754973547542302,0.052104326824870026,0.029969505109285054,-2.752394845125968,0.0342448039870148,2.7663679543071322,0.7691630533470046,-0.000758405170150471,0.0008183847853418077,-0.00015044423729930034,0.0007685054703940064,0.0004885155471069091,8.612928209830759e-05,-0.001450784785353202,0.0,0.0,0.0,0.0,0.0,0.0,0.0,0.00012908767720798409,-2.8870261145369502e-05,-4.722174318686628e-06,9.013895402976146e-06,-1.0083952107366179e-05,1.3081977279227885e-08,5.289715197309697e-06,0.000758405170150471,-0.0008183847853418077,0.00015044423729930034,-0.0007685054703940064,-0.0004885155471069091,-8.612928209830759e-05,0.001450784785353202,0.3514034152030945,22.549890518188477,0.1491362750530243,-14.131807327270508,-0.09367901086807251,-2.1453890800476074,0.22098104655742645,0
62,0.30455636978149414,-0.4029781222343445,-22.522119522094727,-0.2007109820842743,14.207185745239258,0.09367901086807251,2.1453890800476074,-0.19351522624492645,0.0,0.0,0.0,0.0,0.0,0.0,0.0,-0.3681535984511609,0.2634088422322786,-0.2342665659713621,0.30084053051157306,-0.1262941755017443,-0.04010353196404261,-0.24445116390343247,1.6753716822761262,0.052131248242402214,0.02997784947056374,-2.7524091487349125,0.03425345539932641,2.766367822033986,0.7691547118739949,1.6754973547542302,0.052104326824870026,0.029969505109285054,-2.752394845125968,0.0342448039870148,2.7663679543071322,0.7691630533470046,0.00023170880567228774,1.776889266466195e-05,0.0008528062971402284,-0.0009452881981152301,0.0005635635341170631,0.00023760702014192218,-0.0019604241144688165,0.0,0.0,0.0,0.0,0.0,0.0,0.0,0.00012567247810402193,-2.6921417532188574e-05,-8.344361278687928e-06,1.4303608944388202e-05,-8.651412311606876e-06,1.3227314621389041e-07,8.341473009765288e-06,-0.00023170880567228774,-1.776889266466195e-05,-0.0008528062971402284,0.0009452881981152301,-0.0005635635341170631,-0.00023760702014192218,0.0019604241144688165,0.4029781222343445,22.522119522094727,0.2007109820842743,-14.207185745239258,-0.09367901086807251,-2.1453890800476074,0.19351522624492645,0
63,0.30953550338745117,-0.4029781222343445,-22.522119522094727,-0.2007109820842743,14.207185745239258,0.09367901086807251,2.1453890800476074,-0.19351522624492645,0.0,0.0,0.0,0.0,0.0,0.0,0.0,-0.3681535984511609,0.2634088422322786,-0.2342665659713621,0.30084053051157306,-0.1262941755017443,-0.04010353196404261,-0.24445116390343247,1.6753716822761262,0.052131248242402214,0.02997784947056374,-2.7524091487349125,0.03425345539932641,2.766367822033986,0.7691547118739949,1.6754973547542302,0.052104326824870026,0.029969505109285054,-2.752394845125968,0.0342448039870148,2.7663679543071322,0.7691630533470046,0.00023170880567228774,1.776889266466195e-05,0.0008528062971402284,-0.0009452881981152301,0.0005635635341170631,0.00023760702014192218,-0.0019604241144688165,0.0,0.0,0.0,0.0,0.0,0.0,0.0,0.00012567247810402193,-2.6921417532188574e-05,-8.344361278687928e-06,1.4303608944388202e-05,-8.651412311606876e-06,1.3227314621389041e-07,8.341473009765288e-06,-0.00023170880567228774,-1.776889266466195e-05,-0.0008528062971402284,0.0009452881981152301,-0.0005635635341170631,-0.00023760702014192218,0.0019604241144688165,0.4029781222343445,22.522119522094727,0.2007109820842743,-14.207185745239258,-0.09367901086807251,-2.1453890800476074,0.19351522624492645,0
64,0.3145880699157715,-0.3514034152030945,-22.522119522094727,-0.1253325641155243,14.155611038208008,0.10558086633682251,2.1582064628601074,-0.19351522624492645,0.0,0.0,0.0,0.0,0.0,0.0,0.0,-0.3729289824363851,0.26512167088724425,-0.23636770771107274,0.2990943313821336,-0.12670383790588416,-0.03948698963620028,-0.24334545273239372,1.675368292585549,0.05213121767721829,0.029972556835743177,-2.752405529457226,0.034252382825113316,2.7663663731693133,0.7691547118739949,1.6754973547542302,0.052104326824870026,0.029969505109285054,-2.752394845125968,0.0342448039870148,2.7663679543071322,0.7691630533470046,-0.0011038791553529424,-0.00025611471567420094,-0.0009658526824792391,0.0005065354868801882,0.00011504654671747944,-0.000500944860455696,-0.001900771386926848,0.0,0.0,0.0,0.0,0.0,0.0,0.0,0.00012906216868113773,-2.689085234826305e-05,-3.051726458123266e-06,1.0684331257948543e-05,-7.578838098515339e-06,1.5811378188956837e-06,8.341473009765288e-06,0.0011038791553529424,0.00025611471567420094,0.0009658526824792391,-0.0005065354868801882,-0.00011504654671747944,0.000500944860455696,0.001900771386926848,0.3514034152030945,22.522119522094727,0.1253325641155243,-14.155611038208008,-0.10558086633682251,-2.1582064628601074,0.19351522624492645,0
65,0.3195631504058838,-0.3514034152030945,-22.522119522094727,-0.1253325641155243,14.155611038208008,0.10558086633682251,2.1582064628601074,-0.19351522624492645,0.0,0.0,0.0,0.0,0.0,0.0,0.0,-0.3729289824363851,0.26512167088724425,-0.23636770771107274,0.2990943313821336,-0.12670383790588416,-0.03948698963620028,-0.24334545273239372,1.675368292585549,0.05213121767721829,0.029972556835743177,-2.752405529457226,0.034252382825113316,2.7663663731693133,0.7691547118739949,1.6754973547542302,0.052104326824870026,0.029969505109285054,-2.752394845125968,0.0342448039870148,2.7663679543071322,0.7691630533470046,-0.0011038791553529424,-0.00025611471567420094,-0.0009658526824792391,0.0005065354868801882,0.00011504654671747944,-0.000500944860455696,-0.001900771386926848,0.0,0.0,0.0,0.0,0.0,0.0,0.0,0.00012906216868113773,-2.689085234826305e-05,-3.051726458123266e-06,1.0684331257948543e-05,-7.578838098515339e-06,1.5811378188956837e-06,8.341473009765288e-06,0.0011038791553529424,0.00025611471567420094,0.0009658526824792391,-0.0005065354868801882,-0.00011504654671747944,0.000500944860455696,0.001900771386926848,0.3514034152030945,22.522119522094727,0.1253325641155243,-14.155611038208008,-0.10558086633682251,-2.1582064628601074,0.19351522624492645,0
66,0.32460713386535645,-0.3514034152030945,-22.522119522094727,-0.1491362750530243,14.179414749145508,0.10558086633682251,2.1582064628601074,-0.25485557317733765,0.0,0.0,0.0,0.0,0.0,0.0,0.0,-0.3719186714205473,0.28110568640862793,-0.2328876359817242,0.2770142327540057,-0.12704911877638952,-0.04334833858610402,-0.24268501060829437,1.6753682840835762,0.05212871385931609,0.029974228257368847,-2.7524071998930815,0.03425356085358576,2.7663665301531912,0.769161646677388,1.6754973547542302,0.052104326824870026,0.029969505109285054,-2.752394845125968,0.0342448039870148,2.7663679543071322,0.7691630533470046,-0.0002663777288280639,3.361776025126964e-05,-0.0001719005642653706,0.003892948292854725,6.875024891372507e-05,-0.0004522165325619195,0.00026447313618529155,0.0,0.0,0.0,0.0,0.0,0.0,0.0,0.0001290706706540412,-2.438703444606477e-05,-4.7231480837933715e-06,1.2354767113365028e-05,-8.756866570959476e-06,1.424153940998707e-06,1.4066696166770143e-06,0.0002663777288280639,-3.361776025126964e-05,0.0001719005642653706,-0.003892948292854725,-6.875024891372507e-05,0.0004522165325619195,-0.00026447313618529155,0.3514034152030945,22.522119522094727,0.1491362750530243,-14.179414749145508,-0.10558086633682251,-2.1582064628601074,0.25485557317733765,0
67,0.32961153984069824,-0.3514034152030945,-22.522119522094727,-0.1491362750530243,14.179414749145508,0.10558086633682251,2.1582064628601074,-0.25485557317733765,0.0,0.0,0.0,0.0,0.0,0.0,0.0,-0.3719186714205473,0.28110568640862793,-0.2328876359817242,0.2770142327540057,-0.12704911877638952,-0.04334833858610402,-0.24268501060829437,1.6753682840835762,0.05212871385931609,0.029974228257368847,-2.7524071998930815,0.03425356085358576,2.7663665301531912,0.769161646677388,1.6754973547542302,0.052104326824870026,0.029969505109285054,-2.752394845125968,0.0342448039870148,2.7663679543071322,0.7691630533470046,-0.0002663777288280639,3.361776025126964e-05,-0.0001719005642653706,0.003892948292854725,6.875024891372507e-05,-0.0004522165325619195,0.00026447313618529155,0.0,0.0,0.0,0.0,0.0,0.0,0.0,0.0001290706706540412,-2.438703444606477e-05,-4.7231480837933715e-06,1.2354767113365028e-05,-8.756866570959476e-06,1.424153940998707e-06,1.4066696166770143e-06,0.0002663777288280639,-3.361776025126964e-05,0.0001719005642653706,-0.003892948292854725,-6.875024891372507e-05,0.0004522165325619195,-0.00026447313618529155,0.3514034152030945,22.522119522094727,0.1491362750530243,-14.179414749145508,-0.10558086633682251,-2.1582064628601074,0.25485557317733765,0
68,0.3345787525177002,-0.2998287081718445,-22.522119522094727,-0.1253325641155243,14.155611038208008,0.11198955774307251,2.1517977714538574,-0.27591270208358765,0.0,0.0,0.0,0.0,0.0,0.0,0.0,-0.36731288730420747,0.2730378408798853,-0.2315008825614777,0.286814256163715,-0.12729778810647768,-0.04214872065772257,-0.2445864993357344,1.675364672994175,0.052130604843604385,0.02997256559961821,-2.752405529457226,0.03424858688446541,2.7663672422303094,0.7691638671497609,1.6754973547542302,0.052104326824870026,0.029969505109285054,-2.752394845125968,0.0342448039870148,2.7663679543071322,0.7691630533470046,-0.0007615982487654688,-0.0005197356350576775,-0.00024266997736667134,0.0008468296120044304,-0.00020349581398655791,-0.00016883769019537998,0.0015258267392972754,0.0,0.0,0.0,0.0,0.0,0.0,0.0,0.00013268176005531984,-2.627801873435892e-05,-3.060490333155197e-06,1.0684331257948543e-05,-3.7828974506076696e-06,7.120768228396912e-07,-8.138027562942796e-07,0.0007615982487654688,0.0005197356350576775,0.00024266997736667134,-0.0008468296120044304,0.00020349581398655791,0.00016883769019537998,-0.0015258267392972754,0.2998287081718445,22.522119522094727,0.1253325641155243,-14.155611038208008,-0.11198955774307251,-2.1517977714538574,0.27591270208358765,0
69,0.3396186828613281,-0.2998287081718445,-22.522119522094727,-0.1253325641155243,14.155611038208008,0.11198955774307251,2.1517977714538574,-0.27591270208358765,0.0,0.0,0.0,0.0,0.0,0.0,0.0,-0.36731288730420747,0.2730378408798853,-0.2315008825614777,0.286814256163715,-0.12729778810647768,-0.04214872065772257,-0.2445864993357344,1.675364672994175,0.052130604843604385,0.02997256559961821,-2.752405529457226,0.03424858688446541,2.7663672422303094,0.7691638671497609,1.6754973547542302,0.052104326824870026,0.029969505109285054,-2.752394845125968,0.0342448039870148,2.7663679543071322,0.7691630533470046,-0.0007615982487654688,-0.0005197356350576775,-0.00024266997736667134,0.0008468296120044304,-0.00020349581398655791,-0.00016883769019537998,0.0015258267392972754,0.0,0.0,0.0,0.0,0.0,0.0,0.0,0.00013268176005531984,-2.627801873435892e-05,-3.060490333155197e-06,1.0684331257948543e-05,-3.7828974506076696e-06,7.120768228396912e-07,-8.138027562942796e-07,0.0007615982487654688,0.0005197356350576775,0.00024266997736667134,-0.0008468296120044304,0.00020349581398655791,0.00016883769019537998,-0.0015258267392972754,0.2998287081718445,22.522119522094727,0.1253325641155243,-14.155611038208008,-0.11198955774307251,-2.1517977714538574,0.27591270208358765,0
70,0.3445584774017334,-0.3236324191093445,-22.522119522094727,-0.1253325641155243,14.179414749145508,0.10558086633682251,2.1453890800476074,-0.26217979192733765,0.0,0.0,0.0,0.0,0.0,0.0,0.0,-0.3646430705414925,0.2580879964403602,-0.23089525024136892,0.3191022753888546,-0.12626644025828837,-0.03774003725204573,-0.24432132692889152,1.6753663352417434,0.05213073563140597,0.029972557160364528,-2.7524071998930815,0.03425198436108905,2.7663679543071322,0.7691623412701818,1.6754973547542302,0.052104326824870026,0.029969505109285054,-2.752394845125968,0.0342448039870148,2.7663679543071322,0.7691630533470046,-0.0005212769746791232,-0.0002896339663398385,-3.712948220163659e-05,0.0004890010849879326,-0.00011455377770923004,6.047391979754495e-05,0.0009183880862661424,0.0,0.0,0.0,0.0,0.0,0.0,0.0,0.00013101951248684074,-2.64088065359408e-05,-3.0520510794738998e-06,1.2354767113365028e-05,-7.180374074246265e-06,0.0,7.120768228396912e-07,0.0005212769746791232,0.0002896339663398385,3.712948220163659e-05,-0.0004890010849879326,0.00011455377770923004,-6.047391979754495e-05,-0.0009183880862661424,0.3236324191093445,22.522119522094727,0.1253325641155243,-14.179414749145508,-0.10558086633682251,-2.1453890800476074,0.26217979192733765,0
71,0.34955787658691406,-0.3236324191093445,-22.522119522094727,-0.1253325641155243,14.179414749145508,0.10558086633682251,2.1453890800476074,-0.26217979192733765,0.0,0.0,0.0,0.0,0.0,0.0,0.0,-0.3646430705414925,0.2580879964403602,-0.23089525024136892,0.3191022753888546,-0.12626644025828837,-0.03774003725204573,-0.24432132692889152,1.6753663352417434,0.05213073563140597,0.029972557160364528,-2.7524071998930815,0.03425198436108905,2.7663679543071322,0.7691623412701818,1.6754973547542302,0.052104326824870026,0.029969505109285054,-2.752394845125968,0.0342448039870148,2.7663679543071322,0.7691630533470046,-0.0005212769746791232,-0.0002896339663398385,-3.712948220163659e-05,0.0004890010849879326,-0.00011455377770923004,6.047391979754495e-05,0.0009183880862661424,0.0,0.0,0.0,0.0,0.0,0.0,0.0,0.00013101951248684074,-2.64088065359408e-05,-3.0520510794738998e-06,1.2354767113365028e-05,-7.180374074246265e-06,0.0,7.120768228396912e-07,0.0005212769746791232,0.0002896339663398385,3.712948220163659e-05,-0.0004890010849879326,0.00011455377770923004,-6.047391979754495e-05,-0.0009183880862661424,0.3236324191093445,22.522119522094727,0.1253325641155243,-14.179414749145508,-0.10558086633682251,-2.1453890800476074,0.26217979192733765,0
72,0.3545558452606201,-0.3236324191093445,-22.522119522094727,-0.1253325641155243,14.179414749145508,0.10558086633682251,2.1453890800476074,-0.26217979192733765,0.0,0.0,0.0,0.0,0.0,0.0,0.0,-0.3646430705414925,0.2580879964403602,-0.23089525024136892,0.3191022753888546,-0.12626644025828837,-0.03774003725204573,-0.24432132692889152,1.6753663352417434,0.05213073563140597,0.029972557160364528,-2.7524071998930815,0.03425198436108905,2.7663679543071322,0.7691623412701818,1.6754973547542302,0.052104326824870026,0.029969505109285054,-2.752394845125968,0.0342448039870148,2.7663679543071322,0.7691630533470046,-0.0005212769746791232,-0.0002896339663398385,-3.712948220163659e-05,0.0004890010849879326,-0.00011455377770923004,6.047391979754495e-05,0.0009183880862661424,0.0,0.0,0.0,0.0,0.0,0.0,0.0,0.00013101951248684074,-2.64088065359408e-05,-3.0520510794738998e-06,1.2354767113365028e-05,-7.180374074246265e-06,0.0,7.120768228396912e-07,0.0005212769746791232,0.0002896339663398385,3.712948220163659e-05,-0.0004890010849879326,0.00011455377770923004,-6.047391979754495e-05,-0.0009183880862661424,0.3236324191093445,22.522119522094727,0.1253325641155243,-14.179414749145508,-0.10558086633682251,-2.1453890800476074,0.26217979192733765,0
73,0.3595390319824219,-0.3236324191093445,-22.522119522094727,-0.1253325641155243,14.179414749145508,0.10558086633682251,2.1453890800476074,-0.26217979192733765,0.0,0.0,0.0,0.0,0.0,0.0,0.0,-0.3646430705414925,0.2580879964403602,-0.23089525024136892,0.3191022753888546,-0.12626644025828837,-0.03774003725204573,-0.24432132692889152,1.6753663352417434,0.05213073563140597,0.029972557160364528,-2.7524071998930815,0.03425198436108905,2.7663679543071322,0.7691623412701818,1.6754973547542302,0.052104326824870026,0.029969505109285054,-2.752394845125968,0.0342448039870148,2.7663679543071322,0.7691630533470046,-0.0005212769746791232,-0.0002896339663398385,-3.712948220163659e-05,0.0004890010849879326,-0.00011455377770923004,6.047391979754495e-05,0.0009183880862661424,0.0,0.0,0.0,0.0,0.0,0.0,0.0,0.00013101951248684074,-2.64088065359408e-05,-3.0520510794738998e-06,1.2354767113365028e-05,-7.180374074246265e-06,0.0,7.120768228396912e-07,0.0005212769746791232,0.0002896339663398385,3.712948220163659e-05,-0.0004890010849879326,0.00011455377770923004,-6.047391979754495e-05,-0.0009183880862661424,0.3236324191093445,22.522119522094727,0.1253325641155243,-14.179414749145508,-0.10558086633682251,-2.1453890800476074,0.26217979192733765,0
74,0.3645451068878174,-0.3752071261405945,-22.573694229125977,-0.1253325641155243,14.179414749145508,0.10008770227432251,2.1453890800476074,-0.25485557317733765,0.0,0.0,0.0,0.0,0.0,0.0,0.0,-0.3600501963331443,0.2612912384217379,-0.22793688742696935,0.31642066198366436,-0.12677286792319956,-0.03794143155373543,-0.24409287713685893,1.6753699630226524,0.05213507782875554,0.02997255683572852,-2.7524071998930815,0.03424975211157706,2.7663678365695623,0.7691615274142632,1.6754973547542302,0.052104326824870026,0.029969505109285054,-2.752394845125968,0.0342448039870148,2.7663679543071322,0.7691630533470046,0.00020600096737413064,0.0011928745400485588,8.203540306818542e-06,-0.00022803559629934453,0.00014930737649629402,0.0001752107317827,0.0012503666755215546,0.0,0.0,0.0,0.0,0.0,0.0,0.0,0.00012739173157783057,-3.075100388551244e-05,-3.0517264434648528e-06,1.2354767113365028e-05,-4.948124562260958e-06,1.1773756991573237e-07,1.5259327413863488e-06,-0.00020600096737413064,-0.0011928745400485588,-8.203540306818542e-06,0.00022803559629934453,-0.00014930737649629402,-0.0001752107317827,-0.0012503666755215546,0.3752071261405945,22.573694229125977,0.1253325641155243,-14.179414749145508,-0.10008770227432251,-2.1453890800476074,0.25485557317733765,0
75,0.3695845603942871,-0.3752071261405945,-22.573694229125977,-0.1253325641155243,14.179414749145508,0.10008770227432251,2.1453890800476074,-0.25485557317733765,0.0,0.0,0.0,0.0,0.0,0.0,0.0,-0.3600501963331443,0.2612912384217379,-0.22793688742696935,0.31642066198366436,-0.12677286792319956,-0.03794143155373543,-0.24409287713685893,1.6753699630226524,0.05213507782875554,0.02997255683572852,-2.7524071998930815,0.03424975211157706,2.7663678365695623,0.7691615274142632,1.6754973547542302,0.052104326824870026,0.029969505109285054,-2.752394845125968,0.0342448039870148,2.7663679543071322,0.7691630533470046,0.00020600096737413064,0.0011928745400485588,8.203540306818542e-06,-0.00022803559629934453,0.00014930737649629402,0.0001752107317827,0.0012503666755215546,0.0,0.0,0.0,0.0,0.0,0.0,0.0,0.00012739173157783057,-3.075100388551244e-05,-3.0517264434648528e-06,1.2354767113365028e-05,-4.948124562260958e-06,1.1773756991573237e-07,1.5259327413863488e-06,-0.00020600096737413064,-0.0011928745400485588,-8.203540306818542e-06,0.00022803559629934453,-0.00014930737649629402,-0.0001752107317827,-0.0012503666755215546,0.3752071261405945,22.573694229125977,0.1253325641155243,-14.179414749145508,-0.10008770227432251,-2.1453890800476074,0.25485557317733765,0
76,0.3745710849761963,-0.3514034152030945,-22.498315811157227,-0.1491362750530243,14.207185745239258,0.11198955774307251,2.1453890800476074,-0.20083944499492645,0.0,0.0,0.0,0.0,0.0,0.0,0.0,-0.3636019349081687,0.2634135146760553,-0.2276099369721953,0.31448849616522107,-0.12700490626837374,-0.03789400478184993,-0.2448085478769897,1.6753682132230017,0.05212988428956057,0.02997422727158195,-2.7524091487349125,0.034252499239146944,2.7663647753920793,0.7691555256760778,1.6754973547542302,0.052104326824870026,0.029969505109285054,-2.752394845125968,0.0342448039870148,2.7663679543071322,0.7691630533470046,-0.00027467909652539407,-0.0003707852351497989,-3.11330485858045e-05,-0.0011111454375272963,-0.0002275153094779581,5.37108467417087e-05,-0.0015684998604896096,0.0,0.0,0.0,0.0,0.0,0.0,0.0,0.00012914153122856042,-2.555746469054543e-05,-4.722162296896815e-06,1.4303608944388202e-05,-7.69525213214356e-06,3.1789150529704102e-06,7.527670926821273e-06,0.00027467909652539407,0.0003707852351497989,3.11330485858045e-05,0.0011111454375272963,0.0002275153094779581,-5.37108467417087e-05,0.0015684998604896096,0.3514034152030945,22.498315811157227,0.1491362750530243,-14.207185745239258,-0.11198955774307251,-2.1453890800476074,0.20083944499492645,0
77,0.3795456886291504,-0.3514034152030945,-22.498315811157227,-0.1491362750530243,14.207185745239258,0.11198955774307251,2.1453890800476074,-0.20083944499492645,0.0,0.0,0.0,0.0,0.0,0.0,0.0,-0.3636019349081687,0.2634135146760553,-0.2276099369721953,0.31448849616522107,-0.12700490626837374,-0.03789400478184993,-0.2448085478769897,1.6753682132230017,0.05212988428956057,0.02997422727158195,-2.7524091487349125,0.034252499239146944,2.7663647753920793,0.7691555256760778,1.6754973547542302,0.052104326824870026,0.029969505109285054,-2.752394845125968,0.0342448039870148,2.7663679543071322,0.7691630533470046,-0.00027467909652539407,-0.0003707852351497989,-3.11330485858045e-05,-0.0011111454375272963,-0.0002275153094779581,5.37108467417087e-05,-0.0015684998604896096,0.0,0.0,0.0,0.0,0.0,0.0,0.0,0.00012914153122856042,-2.555746469054543e-05,-4.722162296896815e-06,1.4303608944388202e-05,-7.69525213214356e-06,3.1789150529704102e-06,7.527670926821273e-06,0.00027467909652539407,0.0003707852351497989,3.11330485858045e-05,0.0011111454375272963,0.0002275153094779581,-5.37108467417087e-05,0.0015684998604896096,0.3514034152030945,22.498315811157227,0.1491362750530243,-14.207185745239258,-0.11198955774307251,-2.1453890800476074,0.20083944499492645,0
78,0.3845522403717041,-0.3514034152030945,-22.498315811157227,-0.1253325641155243,14.179414749145508,0.09367901086807251,2.1517977714538574,-0.22098104655742645,0.0,0.0,0.0,0.0,0.0,0.0,0.0,-0.36250623378444563,0.26033161759718126,-0.22755329221111625,0.31471984509235423,-0.12729978086904112,-0.03752299382858923,-0.24354950160290864,1.6753682925514042,0.052127052301315716,0.029972565635678017,-2.7524071998930815,0.03425439784788859,2.766367229130412,0.7691577636318073,1.6754973547542302,0.052104326824870026,0.029969505109285054,-2.752394845125968,0.0342448039870148,2.7663679543071322,0.7691630533470046,-0.0004185426328313257,-0.0008121114228759087,-0.0008405378582167549,-6.259963575772434e-05,0.0004670956865778114,-0.0002642326992330055,-0.0010163030486590322,0.0,0.0,0.0,0.0,0.0,0.0,0.0,0.00012906220282604686,-2.2725476445689674e-05,-3.0605263929631144e-06,1.2354767113365028e-05,-9.593860873791105e-06,7.25176720006715e-07,5.289715197309697e-06,0.0004185426328313257,0.0008121114228759087,0.0008405378582167549,6.259963575772434e-05,-0.0004670956865778114,0.0002642326992330055,0.0010163030486590322,0.3514034152030945,22.498315811157227,0.1253325641155243,-14.179414749145508,-0.09367901086807251,-2.1517977714538574,0.22098104655742645,0
79,0.3895728588104248,-0.3514034152030945,-22.498315811157227,-0.1253325641155243,14.179414749145508,0.09367901086807251,2.1517977714538574,-0.22098104655742645,0.0,0.0,0.0,0.0,0.0,0.0,0.0,-0.36250623378444563,0.26033161759718126,-0.22755329221111625,0.31471984509235423,-0.12729978086904112,-0.03752299382858923,-0.24354950160290864,1.6753682925514042,0.052127052301315716,0.029972565635678017,-2.7524071998930815,0.03425439784788859,2.766367229130412,0.7691577636318073,1.6754973547542302,0.052104326824870026,0.029969505109285054,-2.752394845125968,0.0342448039870148,2.7663679543071322,0.7691630533470046,-0.0004185426328313257,-0.0008121114228759087,-0.0008405378582167549,-6.259963575772434e-05,0.0004670956865778114,-0.0002642326992330055,-0.0010163030486590322,0.0,0.0,0.0,0.0,0.0,0.0,0.0,0.00012906220282604686,-2.2725476445689674e-05,-3.0605263929631144e-06,1.2354767113365028e-05,-9.593860873791105e-06,7.25176720006715e-07,5.289715197309697e-06,0.0004185426328313257,0.0008121114228759087,0.0008405378582167549,6.259963575772434e-05,-0.0004670956865778114,0.0002642326992330055,0.0010163030486590322,0.3514034152030945,22.498315811157227,0.1253325641155243,-14.179414749145508,-0.09367901086807251,-2.1517977714538574,0.22098104655742645,0
