rezayati/contactInterpretation/dataset/franka_main/labeled_data/link2/f4_1.csv
index,time,tau_J0,tau_J1,tau_J2,tau_J3,tau_J4,tau_J5,tau_J6,tau_J_d0,tau_J_d1,tau_J_d2,tau_J_d3,tau_J_d4,tau_J_d5,tau_J_d6,tau_ext0,tau_ext1,tau_ext2,tau_ext3,tau_ext4,tau_ext5,tau_ext6,q0,q1,q2,q3,q4,q5,q6,q_d0,q_d1,q_d2,q_d3,q_d4,q_d5,q_d6,dq0,dq1,dq2,dq3,dq4,dq5,dq6,dq_d0,dq_d1,dq_d2,dq_d3,dq_d4,dq_d5,dq_d6,e0,e1,e2,e3,e4,e5,e6,de0,de1,de2,de3,de4,de5,de6,etau_J0,etau_J1,etau_J2,etau_J3,etau_J4,etau_J5,etau_J6,label
1,0.0,-0.5021602511405945,-47.19466781616211,-1.2679107189178467,20.923799514770508,0.5642600655555725,2.3266634941101074,-0.35831016302108765,0.0,0.0,0.0,0.0,0.0,0.0,0.0,-0.5262597461699653,-0.40050526519097446,-0.3808238480649552,0.5364029329380359,-0.016472202665969434,0.10772221298096561,-0.3240918423899,0.06228610306455048,0.6884229524578146,-0.07863725696910186,-1.6209431054466648,0.02816734570264816,2.2878320729302812,0.8466390334698889,0.06226373270833701,0.6884179775783729,-0.07863937525950354,-1.6210372792796082,0.028167345702647853,2.2878312372101677,0.8466366937888992,-0.0009021382905433384,0.0003750078172293389,0.00019381275512365357,0.000307279594944853,-0.00024117046180764158,-1.551866789073976e-05,0.0016045739467363766,0.0,0.0,0.0,0.0,0.0,0.0,0.0,-2.2370356213469167e-05,-4.9748794417325826e-06,-2.1182904016842086e-06,-9.417383294341164e-05,-3.0531133177191805e-16,-8.357201135567038e-07,-2.339680989726922e-06,0.0009021382905433384,-0.0003750078172293389,-0.00019381275512365357,-0.000307279594944853,0.00024117046180764158,1.551866789073976e-05,-0.0016045739467363766,0.5021602511405945,47.19466781616211,1.2679107189178467,-20.923799514770508,-0.5642600655555725,-2.3266634941101074,0.35831016302108765,0
2,0.004990339279174805,-0.5537349581718445,-47.24624252319336,-1.2679107189178467,20.923799514770508,0.5523582100868225,2.3330721855163574,-0.35831016302108765,0.0,0.0,0.0,0.0,0.0,0.0,0.0,-0.5296628107597352,-0.40385512677046514,-0.384224575080188,0.5353697918013784,-0.017581769640549586,0.10843685670321823,-0.3238805782399912,0.06228972235426568,0.6884265716285036,-0.07863940159164111,-1.6209431054466648,0.028168707576185587,2.2878316218195884,0.8466390334698889,0.06226373270833701,0.6884179775783729,-0.07863937525950354,-1.6210372792796082,0.028167345702647853,2.2878312372101677,0.8466366937888992,0.0003191080398397787,0.0007930293381010788,0.00027798989199781185,0.0005787955837957409,0.00043710017232472014,-0.0005406312045319317,0.001710016235332386,0.0,0.0,0.0,0.0,0.0,0.0,0.0,-2.598964592866876e-05,-8.59405013076131e-06,2.6332137567641745e-08,-9.417383294341164e-05,-1.3618735377335378e-06,-3.8460942075602134e-07,-2.339680989726922e-06,-0.0003191080398397787,-0.0007930293381010788,-0.00027798989199781185,-0.0005787955837957409,-0.00043710017232472014,0.0005406312045319317,-0.001710016235332386,0.5537349581718445,47.24624252319336,1.2679107189178467,-20.923799514770508,-0.5523582100868225,-2.3330721855163574,0.35831016302108765,0
3,0.00999903678894043,-0.5537349581718445,-47.24624252319336,-1.2679107189178467,20.923799514770508,0.5523582100868225,2.3330721855163574,-0.35831016302108765,0.0,0.0,0.0,0.0,0.0,0.0,0.0,-0.5296628107597352,-0.40385512677046514,-0.384224575080188,0.5353697918013784,-0.017581769640549586,0.10843685670321823,-0.3238805782399912,0.06228972235426568,0.6884265716285036,-0.07863940159164111,-1.6209431054466648,0.028168707576185587,2.2878316218195884,0.8466390334698889,0.06226373270833701,0.6884179775783729,-0.07863937525950354,-1.6210372792796082,0.028167345702647853,2.2878312372101677,0.8466366937888992,0.0003191080398397787,0.0007930293381010788,0.00027798989199781185,0.0005787955837957409,0.00043710017232472014,-0.0005406312045319317,0.001710016235332386,0.0,0.0,0.0,0.0,0.0,0.0,0.0,-2.598964592866876e-05,-8.59405013076131e-06,2.6332137567641745e-08,-9.417383294341164e-05,-1.3618735377335378e-06,-3.8460942075602134e-07,-2.339680989726922e-06,-0.0003191080398397787,-0.0007930293381010788,-0.00027798989199781185,-0.0005787955837957409,-0.00043710017232472014,0.0005406312045319317,-0.001710016235332386,0.5537349581718445,47.24624252319336,1.2679107189178467,-20.923799514770508,-0.5523582100868225,-2.3330721855163574,0.35831016302108765,0
4,0.015012502670288086,-0.5299312472343445,-47.17086410522461,-1.2917144298553467,20.947603225708008,0.5578513741493225,2.3330721855163574,-0.34457725286483765,0.0,0.0,0.0,0.0,0.0,0.0,0.0,-0.5376187335380505,-0.40431112206525277,-0.38903170757879607,0.5287266805115195,-0.018010898325426343,0.10797720303171417,-0.32316082860258627,0.06228805191841042,0.688421281914962,-0.0786370192480364,-1.62094477588252,0.028168057779693743,2.2878312372688656,0.8466375075909827,0.06226373270833701,0.6884179775783729,-0.07863937525950354,-1.6210372792796082,0.028167345702647853,2.2878312372101677,0.8466366937888992,-0.00048447481766852695,-0.0013042858720905377,0.0005796520626541803,-0.00038352669368877995,0.00011572757268418664,-0.00013635168056699937,0.003274876422217359,0.0,0.0,0.0,0.0,0.0,0.0,0.0,-2.4319210073411868e-05,-3.3043365891272103e-06,-2.3560114671417054e-06,-9.25033970882172e-05,-7.120770458904357e-07,-5.869793540114188e-11,-8.138020834991266e-07,0.00048447481766852695,0.0013042858720905377,-0.0005796520626541803,0.00038352669368877995,-0.00011572757268418664,0.00013635168056699937,-0.003274876422217359,0.5299312472343445,47.17086410522461,1.2917144298553467,-20.947603225708008,-0.5578513741493225,-2.3330721855163574,0.34457725286483765,0
5,0.020008563995361328,-0.5299312472343445,-47.17086410522461,-1.2917144298553467,20.947603225708008,0.5578513741493225,2.3330721855163574,-0.34457725286483765,0.0,0.0,0.0,0.0,0.0,0.0,0.0,-0.5376187335380505,-0.40431112206525277,-0.38903170757879607,0.5287266805115195,-0.018010898325426343,0.10797720303171417,-0.32316082860258627,0.06228805191841042,0.688421281914962,-0.0786370192480364,-1.62094477588252,0.028168057779693743,2.2878312372688656,0.8466375075909827,0.06226373270833701,0.6884179775783729,-0.07863937525950354,-1.6210372792796082,0.028167345702647853,2.2878312372101677,0.8466366937888992,-0.00048447481766852695,-0.0013042858720905377,0.0005796520626541803,-0.00038352669368877995,0.00011572757268418664,-0.00013635168056699937,0.003274876422217359,0.0,0.0,0.0,0.0,0.0,0.0,0.0,-2.4319210073411868e-05,-3.3043365891272103e-06,-2.3560114671417054e-06,-9.25033970882172e-05,-7.120770458904357e-07,-5.869793540114188e-11,-8.138020834991266e-07,0.00048447481766852695,0.0013042858720905377,-0.0005796520626541803,0.00038352669368877995,-0.00011572757268418664,0.00013635168056699937,-0.003274876422217359,0.5299312472343445,47.17086410522461,1.2917144298553467,-20.947603225708008,-0.5578513741493225,-2.3330721855163574,0.34457725286483765,0
6,0.024956703186035156,-0.5537349581718445,-47.21847152709961,-1.2917144298553467,20.975374221801758,0.5642600655555725,2.3394808769226074,-0.35098594427108765,0.0,0.0,0.0,0.0,0.0,0.0,0.0,-0.532980270647835,-0.4091634752322282,-0.38351170999080914,0.5280273720888085,-0.017993670034284318,0.1092186535781252,-0.3222270996781339,0.06228972235426568,0.6884246227866725,-0.07863773021178175,-1.6209467247243512,0.02816734570264816,2.287830525133345,0.8466378708702547,0.06226373270833701,0.6884179775783729,-0.07863937525950354,-1.6210372792796082,0.028167345702647853,2.2878312372101677,0.8466366937888992,0.0004706816383393548,0.0003749978411072705,0.0006284742436996271,-0.0006868631178173889,-4.135811779845429e-05,-0.000218418784704459,0.0017216782760230058,0.0,0.0,0.0,0.0,0.0,0.0,0.0,-2.598964592866876e-05,-6.6452082996271145e-06,-1.6450477217933024e-06,-9.055455525697198e-05,-3.0531133177191805e-16,7.120768228396912e-07,-1.1770813554967674e-06,-0.0004706816383393548,-0.0003749978411072705,-0.0006284742436996271,0.0006868631178173889,4.135811779845429e-05,0.000218418784704459,-0.0017216782760230058,0.5537349581718445,47.21847152709961,1.2917144298553467,-20.975374221801758,-0.5642600655555725,-2.3394808769226074,0.35098594427108765,0
7,0.029999494552612305,-0.5537349581718445,-47.21847152709961,-1.2917144298553467,20.975374221801758,0.5642600655555725,2.3394808769226074,-0.35098594427108765,0.0,0.0,0.0,0.0,0.0,0.0,0.0,-0.532980270647835,-0.4091634752322282,-0.38351170999080914,0.5280273720888085,-0.017993670034284318,0.1092186535781252,-0.3222270996781339,0.06228972235426568,0.6884246227866725,-0.07863773021178175,-1.6209467247243512,0.02816734570264816,2.287830525133345,0.8466378708702547,0.06226373270833701,0.6884179775783729,-0.07863937525950354,-1.6210372792796082,0.028167345702647853,2.2878312372101677,0.8466366937888992,0.0004706816383393548,0.0003749978411072705,0.0006284742436996271,-0.0006868631178173889,-4.135811779845429e-05,-0.000218418784704459,0.0017216782760230058,0.0,0.0,0.0,0.0,0.0,0.0,0.0,-2.598964592866876e-05,-6.6452082996271145e-06,-1.6450477217933024e-06,-9.055455525697198e-05,-3.0531133177191805e-16,7.120768228396912e-07,-1.1770813554967674e-06,-0.0004706816383393548,-0.0003749978411072705,-0.0006284742436996271,0.0006868631178173889,4.135811779845429e-05,0.000218418784704459,-0.0017216782760230058,0.5537349581718445,47.21847152709961,1.2917144298553467,-20.975374221801758,-0.5642600655555725,-2.3394808769226074,0.35098594427108765,0
8,0.03500080108642578,-0.5299312472343445,-47.19466781616211,-1.2401397228240967,20.975374221801758,0.5578513741493225,2.3394808769226074,-0.28964561223983765,0.0,0.0,0.0,0.0,0.0,0.0,0.0,-0.5381852285330855,-0.40032874255785045,-0.389817536138187,0.5245348985735244,-0.01771983493936269,0.1094867904628086,-0.32192238183763106,0.06228805191841042,0.6884229523508172,-0.07864134652749882,-1.6209467247243512,0.028168057779471074,2.287830648757793,0.8466314040733887,0.06226373270833701,0.6884179775783729,-0.07863937525950354,-1.6210372792796082,0.028167345702647853,2.2878312372101677,0.8466366937888992,-0.00035431565842339535,0.00043654379134038136,-0.0005411018885894156,-0.0005713205476576797,1.7292445019697304e-06,-0.0002444263396917635,-0.0014735271728780386,0.0,0.0,0.0,0.0,0.0,0.0,0.0,-2.4319210073411868e-05,-4.974772444321651e-06,1.9712679952821333e-06,-9.055455525697198e-05,-7.120768232213304e-07,5.884523748278525e-07,5.289715510503612e-06,0.00035431565842339535,-0.00043654379134038136,0.0005411018885894156,0.0005713205476576797,-1.7292445019697304e-06,0.0002444263396917635,0.0014735271728780386,0.5299312472343445,47.19466781616211,1.2401397228240967,-20.975374221801758,-0.5578513741493225,-2.3394808769226074,0.28964561223983765,0
9,0.03999733924865723,-0.5299312472343445,-47.19466781616211,-1.2401397228240967,20.975374221801758,0.5578513741493225,2.3394808769226074,-0.28964561223983765,0.0,0.0,0.0,0.0,0.0,0.0,0.0,-0.5381852285330855,-0.40032874255785045,-0.389817536138187,0.5245348985735244,-0.01771983493936269,0.1094867904628086,-0.32192238183763106,0.06228805191841042,0.6884229523508172,-0.07864134652749882,-1.6209467247243512,0.028168057779471074,2.287830648757793,0.8466314040733887,0.06226373270833701,0.6884179775783729,-0.07863937525950354,-1.6210372792796082,0.028167345702647853,2.2878312372101677,0.8466366937888992,-0.00035431565842339535,0.00043654379134038136,-0.0005411018885894156,-0.0005713205476576797,1.7292445019697304e-06,-0.0002444263396917635,-0.0014735271728780386,0.0,0.0,0.0,0.0,0.0,0.0,0.0,-2.4319210073411868e-05,-4.974772444321651e-06,1.9712679952821333e-06,-9.055455525697198e-05,-7.120768232213304e-07,5.884523748278525e-07,5.289715510503612e-06,0.00035431565842339535,-0.00043654379134038136,0.0005411018885894156,0.0005713205476576797,-1.7292445019697304e-06,0.0002444263396917635,0.0014735271728780386,0.5299312472343445,47.19466781616211,1.2401397228240967,-20.975374221801758,-0.5578513741493225,-2.3394808769226074,0.28964561223983765,0
10,0.04504799842834473,-0.5815059542655945,-47.19466781616211,-1.2917144298553467,20.899995803833008,0.5523582100868225,2.3330721855163574,-0.35831016302108765,0.0,0.0,0.0,0.0,0.0,0.0,0.0,-0.5285044578889513,-0.4084562602615247,-0.38461661880621484,0.5324016359375895,-0.01788844746387863,0.10993562398910514,-0.3219332304343709,0.06229167119609682,0.6884250583815992,-0.0786377311923825,-1.6209414350108093,0.028168668131033577,2.2878313608918406,0.8466390291092382,0.06226373270833701,0.6884179775783729,-0.07863937525950354,-1.6210372792796082,0.028167345702647853,2.2878312372101677,0.8466366937888992,0.0015722960411033555,0.00046080118455996453,0.0006483481153651235,0.0009087948439873489,7.29068153660309e-05,-0.00043105995244792686,0.0014903993439536816,0.0,0.0,0.0,0.0,0.0,0.0,0.0,-2.7938487759809894e-05,-7.0808032263114384e-06,-1.6440671210399271e-06,-9.584426879882812e-05,-1.3224283857242447e-06,-1.2368167290333076e-07,-2.3353203389975263e-06,-0.0015722960411033555,-0.00046080118455996453,-0.0006483481153651235,-0.0009087948439873489,-7.29068153660309e-05,0.00043105995244792686,-0.0014903993439536816,0.5815059542655945,47.19466781616211,1.2917144298553467,-20.899995803833008,-0.5523582100868225,-2.3330721855163574,0.35831016302108765,0
11,0.050009965896606445,-0.5815059542655945,-47.19466781616211,-1.2917144298553467,20.899995803833008,0.5523582100868225,2.3330721855163574,-0.35831016302108765,0.0,0.0,0.0,0.0,0.0,0.0,0.0,-0.5285044578889513,-0.4084562602615247,-0.38461661880621484,0.5324016359375895,-0.01788844746387863,0.10993562398910514,-0.3219332304343709,0.06229167119609682,0.6884250583815992,-0.0786377311923825,-1.6209414350108093,0.028168668131033577,2.2878313608918406,0.8466390291092382,0.06226373270833701,0.6884179775783729,-0.07863937525950354,-1.6210372792796082,0.028167345702647853,2.2878312372101677,0.8466366937888992,0.0015722960411033555,0.00046080118455996453,0.0006483481153651235,0.0009087948439873489,7.29068153660309e-05,-0.00043105995244792686,0.0014903993439536816,0.0,0.0,0.0,0.0,0.0,0.0,0.0,-2.7938487759809894e-05,-7.0808032263114384e-06,-1.6440671210399271e-06,-9.584426879882812e-05,-1.3224283857242447e-06,-1.2368167290333076e-07,-2.3353203389975263e-06,-0.0015722960411033555,-0.00046080118455996453,-0.0006483481153651235,-0.0009087948439873489,-7.29068153660309e-05,0.00043105995244792686,-0.0014903993439536816,0.5815059542655945,47.19466781616211,1.2917144298553467,-20.899995803833008,-0.5523582100868225,-2.3330721855163574,0.35831016302108765,0
12,0.05499982833862305,-0.5299312472343445,-47.17086410522461,-1.2163360118865967,20.899995803833008,0.5642600655555725,2.3138461112976074,-0.35098594427108765,0.0,0.0,0.0,0.0,0.0,0.0,0.0,-0.5247552763922269,-0.40451969545018834,-0.3831767422269091,0.5342917145074331,-0.018311140646072817,0.10922242181390354,-0.3218380853598604,0.06228805191841042,0.6884212819268506,-0.07864302090594644,-1.6209414350108093,0.02816734570264816,2.2878334283855337,0.846638219667781,0.06226373270833701,0.6884179775783729,-0.07863937525950354,-1.6210372792796082,0.028167345702647853,2.2878312372101677,0.8466366937888992,0.00010194415263275162,-8.801686568370451e-05,-0.00042388934474961134,0.0008604112173009407,-7.76657762791116e-05,0.00046611264448594234,0.0011044964787413028,0.0,0.0,0.0,0.0,0.0,0.0,0.0,-2.4319210073411868e-05,-3.304348477728425e-06,3.645646442895778e-06,-9.584426879882812e-05,-3.0531133177191805e-16,-2.1911753660397437e-06,-1.525878881802889e-06,-0.00010194415263275162,8.801686568370451e-05,0.00042388934474961134,-0.0008604112173009407,7.76657762791116e-05,-0.00046611264448594234,-0.0011044964787413028,0.5299312472343445,47.17086410522461,1.2163360118865967,-20.899995803833008,-0.5642600655555725,-2.3138461112976074,0.35098594427108765,0
13,0.0599977970123291,-0.5299312472343445,-47.17086410522461,-1.2163360118865967,20.899995803833008,0.5642600655555725,2.3138461112976074,-0.35098594427108765,0.0,0.0,0.0,0.0,0.0,0.0,0.0,-0.5247552763922269,-0.40451969545018834,-0.3831767422269091,0.5342917145074331,-0.018311140646072817,0.10922242181390354,-0.3218380853598604,0.06228805191841042,0.6884212819268506,-0.07864302090594644,-1.6209414350108093,0.02816734570264816,2.2878334283855337,0.846638219667781,0.06226373270833701,0.6884179775783729,-0.07863937525950354,-1.6210372792796082,0.028167345702647853,2.2878312372101677,0.8466366937888992,0.00010194415263275162,-8.801686568370451e-05,-0.00042388934474961134,0.0008604112173009407,-7.76657762791116e-05,0.00046611264448594234,0.0011044964787413028,0.0,0.0,0.0,0.0,0.0,0.0,0.0,-2.4319210073411868e-05,-3.304348477728425e-06,3.645646442895778e-06,-9.584426879882812e-05,-3.0531133177191805e-16,-2.1911753660397437e-06,-1.525878881802889e-06,-0.00010194415263275162,8.801686568370451e-05,0.00042388934474961134,-0.0008604112173009407,7.76657762791116e-05,-0.00046611264448594234,-0.0011044964787413028,0.5299312472343445,47.17086410522461,1.2163360118865967,-20.899995803833008,-0.5642600655555725,-2.3138461112976074,0.35098594427108765,0
14,0.06500244140625,-0.5299312472343445,-47.17086410522461,-1.2163360118865967,20.899995803833008,0.5642600655555725,2.3138461112976074,-0.35098594427108765,0.0,0.0,0.0,0.0,0.0,0.0,0.0,-0.5247552763922269,-0.40451969545018834,-0.3831767422269091,0.5342917145074331,-0.018311140646072817,0.10922242181390354,-0.3218380853598604,0.06228805191841042,0.6884212819268506,-0.07864302090594644,-1.6209414350108093,0.02816734570264816,2.2878334283855337,0.846638219667781,0.06226373270833701,0.6884179775783729,-0.07863937525950354,-1.6210372792796082,0.028167345702647853,2.2878312372101677,0.8466366937888992,0.00010194415263275162,-8.801686568370451e-05,-0.00042388934474961134,0.0008604112173009407,-7.76657762791116e-05,0.00046611264448594234,0.0011044964787413028,0.0,0.0,0.0,0.0,0.0,0.0,0.0,-2.4319210073411868e-05,-3.304348477728425e-06,3.645646442895778e-06,-9.584426879882812e-05,-3.0531133177191805e-16,-2.1911753660397437e-06,-1.525878881802889e-06,-0.00010194415263275162,8.801686568370451e-05,0.00042388934474961134,-0.0008604112173009407,7.76657762791116e-05,-0.00046611264448594234,-0.0011044964787413028,0.5299312472343445,47.17086410522461,1.2163360118865967,-20.899995803833008,-0.5642600655555725,-2.3138461112976074,0.35098594427108765,0
15,0.06999802589416504,-0.5299312472343445,-47.17086410522461,-1.2163360118865967,20.899995803833008,0.5642600655555725,2.3138461112976074,-0.35098594427108765,0.0,0.0,0.0,0.0,0.0,0.0,0.0,-0.5247552763922269,-0.40451969545018834,-0.3831767422269091,0.5342917145074331,-0.018311140646072817,0.10922242181390354,-0.3218380853598604,0.06228805191841042,0.6884212819268506,-0.07864302090594644,-1.6209414350108093,0.02816734570264816,2.2878334283855337,0.846638219667781,0.06226373270833701,0.6884179775783729,-0.07863937525950354,-1.6210372792796082,0.028167345702647853,2.2878312372101677,0.8466366937888992,0.00010194415263275162,-8.801686568370451e-05,-0.00042388934474961134,0.0008604112173009407,-7.76657762791116e-05,0.00046611264448594234,0.0011044964787413028,0.0,0.0,0.0,0.0,0.0,0.0,0.0,-2.4319210073411868e-05,-3.304348477728425e-06,3.645646442895778e-06,-9.584426879882812e-05,-3.0531133177191805e-16,-2.1911753660397437e-06,-1.525878881802889e-06,-0.00010194415263275162,8.801686568370451e-05,0.00042388934474961134,-0.0008604112173009407,7.76657762791116e-05,-0.00046611264448594234,-0.0011044964787413028,0.5299312472343445,47.17086410522461,1.2163360118865967,-20.899995803833008,-0.5642600655555725,-2.3138461112976074,0.35098594427108765,0
16,0.07500100135803223,-0.4783565402030945,-47.19466781616211,-1.2917144298553467,20.923799514770508,0.5578513741493225,2.3330721855163574,-0.31711143255233765,0.0,0.0,0.0,0.0,0.0,0.0,0.0,-0.5305186266597592,-0.40408645532456994,-0.38808819220097424,0.5359420131595132,-0.017784971546422113,0.10877338954743059,-0.3226376323218669,0.062284432640724016,0.6884229523508172,-0.07863773119240476,-1.6209431054466648,0.028164861480394994,2.2878323559354246,0.8466344558331701,0.06226373270833701,0.6884179775783729,-0.07863937525950354,-1.6210372792796082,0.028167345702647853,2.2878312372101677,0.8466366937888992,-0.0005424004181609418,0.0004796970364981642,0.0008025611323259045,0.00035194525780096915,0.00029384046175177,-9.671954230002176e-05,-0.0004640336298902883,0.0,0.0,0.0,0.0,0.0,0.0,0.0,-2.0699932387006903e-05,-4.974772444321651e-06,-1.6440670987799555e-06,-9.417383294341164e-05,2.484222252858992e-06,-1.1187252568767292e-06,2.2379557290674867e-06,0.0005424004181609418,-0.0004796970364981642,-0.0008025611323259045,-0.00035194525780096915,-0.00029384046175177,9.671954230002176e-05,0.0004640336298902883,0.4783565402030945,47.19466781616211,1.2917144298553467,-20.923799514770508,-0.5578513741493225,-2.3330721855163574,0.31711143255233765,0
17,0.08000731468200684,-0.4783565402030945,-47.19466781616211,-1.2917144298553467,20.923799514770508,0.5578513741493225,2.3330721855163574,-0.31711143255233765,0.0,0.0,0.0,0.0,0.0,0.0,0.0,-0.5305186266597592,-0.40408645532456994,-0.38808819220097424,0.5359420131595132,-0.017784971546422113,0.10877338954743059,-0.3226376323218669,0.062284432640724016,0.6884229523508172,-0.07863773119240476,-1.6209431054466648,0.028164861480394994,2.2878323559354246,0.8466344558331701,0.06226373270833701,0.6884179775783729,-0.07863937525950354,-1.6210372792796082,0.028167345702647853,2.2878312372101677,0.8466366937888992,-0.0005424004181609418,0.0004796970364981642,0.0008025611323259045,0.00035194525780096915,0.00029384046175177,-9.671954230002176e-05,-0.0004640336298902883,0.0,0.0,0.0,0.0,0.0,0.0,0.0,-2.0699932387006903e-05,-4.974772444321651e-06,-1.6440670987799555e-06,-9.417383294341164e-05,2.484222252858992e-06,-1.1187252568767292e-06,2.2379557290674867e-06,0.0005424004181609418,-0.0004796970364981642,-0.0008025611323259045,-0.00035194525780096915,-0.00029384046175177,9.671954230002176e-05,0.0004640336298902883,0.4783565402030945,47.19466781616211,1.2917144298553467,-20.923799514770508,-0.5578513741493225,-2.3330721855163574,0.31711143255233765,0
18,0.08499884605407715,-0.5299312472343445,-47.19466781616211,-1.2163360118865967,20.923799514770508,0.5578513741493225,2.3330721855163574,-0.33084434270858765,0.0,0.0,0.0,0.0,0.0,0.0,0.0,-0.5251077477021203,-0.40159297667151816,-0.3851868570878529,0.5361457624163162,-0.017421801787593554,0.10924343505785546,-0.32296462390247,0.06228805191841042,0.6884229523508172,-0.07864088214302976,-1.6209431054466648,0.028168057761427872,2.287832720766391,0.8466359817120764,0.06226373270833701,0.6884179775783729,-0.07863937525950354,-1.6210372792796082,0.028167345702647853,2.2878312372101677,0.8466366937888992,0.0004144162597189765,0.0001683771437248864,-0.0007326015914455302,0.00046604985758144787,-4.6951300993778484e-05,-8.006497668441338e-05,0.00031144121315246164,0.0,0.0,0.0,0.0,0.0,0.0,0.0,-2.4319210073411868e-05,-4.974772444321651e-06,1.5068835262227465e-06,-9.417383294341164e-05,-7.120587800189815e-07,-1.4835562232029531e-06,7.120768227286689e-07,-0.0004144162597189765,-0.0001683771437248864,0.0007326015914455302,-0.00046604985758144787,4.6951300993778484e-05,8.006497668441338e-05,-0.00031144121315246164,0.5299312472343445,47.19466781616211,1.2163360118865967,-20.923799514770508,-0.5578513741493225,-2.3330721855163574,0.33084434270858765,0
19,0.09000086784362793,-0.5299312472343445,-47.19466781616211,-1.2163360118865967,20.923799514770508,0.5578513741493225,2.3330721855163574,-0.33084434270858765,0.0,0.0,0.0,0.0,0.0,0.0,0.0,-0.5251077477021203,-0.40159297667151816,-0.3851868570878529,0.5361457624163162,-0.017421801787593554,0.10924343505785546,-0.32296462390247,0.06228805191841042,0.6884229523508172,-0.07864088214302976,-1.6209431054466648,0.028168057761427872,2.287832720766391,0.8466359817120764,0.06226373270833701,0.6884179775783729,-0.07863937525950354,-1.6210372792796082,0.028167345702647853,2.2878312372101677,0.8466366937888992,0.0004144162597189765,0.0001683771437248864,-0.0007326015914455302,0.00046604985758144787,-4.6951300993778484e-05,-8.006497668441338e-05,0.00031144121315246164,0.0,0.0,0.0,0.0,0.0,0.0,0.0,-2.4319210073411868e-05,-4.974772444321651e-06,1.5068835262227465e-06,-9.417383294341164e-05,-7.120587800189815e-07,-1.4835562232029531e-06,7.120768227286689e-07,-0.0004144162597189765,-0.0001683771437248864,0.0007326015914455302,-0.00046604985758144787,4.6951300993778484e-05,8.006497668441338e-05,-0.00031144121315246164,0.5299312472343445,47.19466781616211,1.2163360118865967,-20.923799514770508,-0.5578513741493225,-2.3330721855163574,0.33084434270858765,0
20,0.09522795677185059,-0.5815059542655945,-47.19466781616211,-1.2401397228240967,20.876192092895508,0.5816550850868225,2.3266634941101074,-0.33084434270858765,0.0,0.0,0.0,0.0,0.0,0.0,0.0,-0.5344388075126667,-0.4078096900204871,-0.3893235256759074,0.5376120548430825,-0.01707687689067481,0.11053310980550182,-0.3221071128111587,0.06229167119609682,0.6884229523508172,-0.0786406381639682,-1.6209397645749541,0.028165412922699938,2.2878319493121144,0.8466359817120764,0.06226373270833701,0.6884179775783729,-0.07863937525950354,-1.6210372792796082,0.028167345702647853,2.2878312372101677,0.8466366937888992,0.001102908307301326,-0.0004943437360267151,-3.918291571688832e-05,0.0015780920013110026,-0.0006220861313834507,0.00011586201990031857,0.00029872084703291585,0.0,0.0,0.0,0.0,0.0,0.0,0.0,-2.7938487759809894e-05,-4.974772444321651e-06,1.2629044646578214e-06,-9.751470465402257e-05,1.932779947914909e-06,-7.121019467426493e-07,7.120768227286689e-07,-0.001102908307301326,0.0004943437360267151,3.918291571688832e-05,-0.0015780920013110026,0.0006220861313834507,-0.00011586201990031857,-0.00029872084703291585,0.5815059542655945,47.19466781616211,1.2401397228240967,-20.876192092895508,-0.5816550850868225,-2.3266634941101074,0.33084434270858765,0
21,0.10001182556152344,-0.5815059542655945,-47.19466781616211,-1.2401397228240967,20.876192092895508,0.5816550850868225,2.3266634941101074,-0.33084434270858765,0.0,0.0,0.0,0.0,0.0,0.0,0.0,-0.5344388075126667,-0.4078096900204871,-0.3893235256759074,0.5376120548430825,-0.01707687689067481,0.11053310980550182,-0.3221071128111587,0.06229167119609682,0.6884229523508172,-0.0786406381639682,-1.6209397645749541,0.028165412922699938,2.2878319493121144,0.8466359817120764,0.06226373270833701,0.6884179775783729,-0.07863937525950354,-1.6210372792796082,0.028167345702647853,2.2878312372101677,0.8466366937888992,0.001102908307301326,-0.0004943437360267151,-3.918291571688832e-05,0.0015780920013110026,-0.0006220861313834507,0.00011586201990031857,0.00029872084703291585,0.0,0.0,0.0,0.0,0.0,0.0,0.0,-2.7938487759809894e-05,-4.974772444321651e-06,1.2629044646578214e-06,-9.751470465402257e-05,1.932779947914909e-06,-7.121019467426493e-07,7.120768227286689e-07,-0.001102908307301326,0.0004943437360267151,3.918291571688832e-05,-0.0015780920013110026,0.0006220861313834507,-0.00011586201990031857,-0.00029872084703291585,0.5815059542655945,47.19466781616211,1.2401397228240967,-20.876192092895508,-0.5816550850868225,-2.3266634941101074,0.33084434270858765,0
22,0.10499882698059082,-0.5021602511405945,-47.24624252319336,-1.2917144298553467,20.975374221801758,0.5578513741493225,2.3266634941101074,-0.29605430364608765,0.0,0.0,0.0,0.0,0.0,0.0,0.0,-0.5336276935523704,-0.4004817140327334,-0.3876195562012357,0.5311406452335066,-0.015081270157020179,0.11081033223184256,-0.3211545902197076,0.06228610307657928,0.6884265745174347,-0.07863701924758983,-1.62094672476069,0.028168057779471074,2.28783565807697,0.8466321161521806,0.06226373270833701,0.6884179775783729,-0.07863937525950354,-1.6210372792796082,0.028167345702647853,2.2878312372101677,0.8466366937888992,-0.0009328111124931307,0.0013842385545464499,0.0007369242166853782,-0.0006666835803950317,0.00017987979838855617,-9.706940508500549e-05,-0.0040788948172014085,0.0,0.0,0.0,0.0,0.0,0.0,0.0,-2.2370368242270733e-05,-8.596939061855657e-06,-2.3560119137150393e-06,-9.055451891826216e-05,-7.120768232213304e-07,-4.420866802412604e-06,4.577636718572364e-06,0.0009328111124931307,-0.0013842385545464499,-0.0007369242166853782,0.0006666835803950317,-0.00017987979838855617,9.706940508500549e-05,0.0040788948172014085,0.5021602511405945,47.24624252319336,1.2917144298553467,-20.975374221801758,-0.5578513741493225,-2.3266634941101074,0.29605430364608765,0
23,0.1100003719329834,-0.5021602511405945,-47.24624252319336,-1.2917144298553467,20.975374221801758,0.5578513741493225,2.3266634941101074,-0.29605430364608765,0.0,0.0,0.0,0.0,0.0,0.0,0.0,-0.5336276935523704,-0.4004817140327334,-0.3876195562012357,0.5311406452335066,-0.015081270157020179,0.11081033223184256,-0.3211545902197076,0.06228610307657928,0.6884265745174347,-0.07863701924758983,-1.62094672476069,0.028168057779471074,2.28783565807697,0.8466321161521806,0.06226373270833701,0.6884179775783729,-0.07863937525950354,-1.6210372792796082,0.028167345702647853,2.2878312372101677,0.8466366937888992,-0.0009328111124931307,0.0013842385545464499,0.0007369242166853782,-0.0006666835803950317,0.00017987979838855617,-9.706940508500549e-05,-0.0040788948172014085,0.0,0.0,0.0,0.0,0.0,0.0,0.0,-2.2370368242270733e-05,-8.596939061855657e-06,-2.3560119137150393e-06,-9.055451891826216e-05,-7.120768232213304e-07,-4.420866802412604e-06,4.577636718572364e-06,0.0009328111124931307,-0.0013842385545464499,-0.0007369242166853782,0.0006666835803950317,-0.00017987979838855617,9.706940508500549e-05,0.0040788948172014085,0.5021602511405945,47.24624252319336,1.2917144298553467,-20.975374221801758,-0.5578513741493225,-2.3266634941101074,0.29605430364608765,0
24,0.11499810218811035,-0.5537349581718445,-47.21847152709961,-1.2679107189178467,20.947603225708008,0.5578513741493225,2.3202548027038574,-0.27591270208358765,0.0,0.0,0.0,0.0,0.0,0.0,0.0,-0.5338520876315113,-0.395167512365627,-0.3889400293584151,0.5292351448106934,-0.015507797012568573,0.10948022683884939,-0.32075922108032245,0.06228972202948804,0.6884246227866887,-0.07863940162424107,-1.6209447758825202,0.028168057779471074,2.2878360405095335,0.8466298781964514,0.06226373270833701,0.6884179775783729,-0.07863937525950354,-1.6210372792796082,0.028167345702647853,2.2878312372101677,0.8466366937888992,1.075120298866776e-06,0.0011929928519024994,0.00011530105743123873,7.484598174526334e-05,2.9491613509400457e-05,0.00037194562591114577,-0.0018017424769337096,0.0,0.0,0.0,0.0,0.0,0.0,0.0,-2.5989321151033418e-05,-6.645208315836371e-06,2.6364737532036386e-08,-9.250339708799515e-05,-7.120768232213304e-07,-4.8032993658075895e-06,6.815592447750873e-06,-1.075120298866776e-06,-0.0011929928519024994,-0.00011530105743123873,-7.484598174526334e-05,-2.9491613509400457e-05,-0.00037194562591114577,0.0018017424769337096,0.5537349581718445,47.21847152709961,1.2679107189178467,-20.947603225708008,-0.5578513741493225,-2.3202548027038574,0.27591270208358765,0
25,0.12001204490661621,-0.5537349581718445,-47.21847152709961,-1.2679107189178467,20.947603225708008,0.5578513741493225,2.3202548027038574,-0.27591270208358765,0.0,0.0,0.0,0.0,0.0,0.0,0.0,-0.5338520876315113,-0.395167512365627,-0.3889400293584151,0.5292351448106934,-0.015507797012568573,0.10948022683884939,-0.32075922108032245,0.06228972202948804,0.6884246227866887,-0.07863940162424107,-1.6209447758825202,0.028168057779471074,2.2878360405095335,0.8466298781964514,0.06226373270833701,0.6884179775783729,-0.07863937525950354,-1.6210372792796082,0.028167345702647853,2.2878312372101677,0.8466366937888992,1.075120298866776e-06,0.0011929928519024994,0.00011530105743123873,7.484598174526334e-05,2.9491613509400457e-05,0.00037194562591114577,-0.0018017424769337096,0.0,0.0,0.0,0.0,0.0,0.0,0.0,-2.5989321151033418e-05,-6.645208315836371e-06,2.6364737532036386e-08,-9.250339708799515e-05,-7.120768232213304e-07,-4.8032993658075895e-06,6.815592447750873e-06,-1.075120298866776e-06,-0.0011929928519024994,-0.00011530105743123873,-7.484598174526334e-05,-2.9491613509400457e-05,-0.00037194562591114577,0.0018017424769337096,0.5537349581718445,47.21847152709961,1.2679107189178467,-20.947603225708008,-0.5578513741493225,-2.3202548027038574,0.27591270208358765,0
26,0.12501168251037598,-0.5021602511405945,-47.19466781616211,-1.2679107189178467,20.923799514770508,0.5697532296180725,2.3202548027038574,-0.35831016302108765,0.0,0.0,0.0,0.0,0.0,0.0,0.0,-0.5316012815853818,-0.4039744283662336,-0.38530368418092387,0.5361035967392921,-0.015728482473205976,0.10940111608407532,-0.319881182320976,0.06228610307657745,0.6884229523508172,-0.07863726286534334,-1.6209431054466648,0.02816673535108566,2.2878326613828888,0.8466390334698889,0.06226373270833701,0.6884179775783729,-0.07863937525950354,-1.6210372792796082,0.028167345702647853,2.2878312372101677,0.8466366937888992,-0.000971872693537344,0.00012415694655114857,-0.00022106551666560784,0.0004583829352578787,-0.00011786103507087001,0.00011021098168229977,0.001915058713679882,0.0,0.0,0.0,0.0,0.0,0.0,0.0,-2.2370368240438865e-05,-4.974772444321651e-06,-2.112394160203035e-06,-9.417383294341164e-05,6.103515621941336e-07,-1.4241727210873023e-06,-2.339680989726922e-06,0.000971872693537344,-0.00012415694655114857,0.00022106551666560784,-0.0004583829352578787,0.00011786103507087001,-0.00011021098168229977,-0.001915058713679882,0.5021602511405945,47.19466781616211,1.2679107189178467,-20.923799514770508,-0.5697532296180725,-2.3202548027038574,0.35831016302108765,0
27,0.13001465797424316,-0.5021602511405945,-47.19466781616211,-1.2679107189178467,20.923799514770508,0.5697532296180725,2.3202548027038574,-0.35831016302108765,0.0,0.0,0.0,0.0,0.0,0.0,0.0,-0.5316012815853818,-0.4039744283662336,-0.38530368418092387,0.5361035967392921,-0.015728482473205976,0.10940111608407532,-0.319881182320976,0.06228610307657745,0.6884229523508172,-0.07863726286534334,-1.6209431054466648,0.02816673535108566,2.2878326613828888,0.8466390334698889,0.06226373270833701,0.6884179775783729,-0.07863937525950354,-1.6210372792796082,0.028167345702647853,2.2878312372101677,0.8466366937888992,-0.000971872693537344,0.00012415694655114857,-0.00022106551666560784,0.0004583829352578787,-0.00011786103507087001,0.00011021098168229977,0.001915058713679882,0.0,0.0,0.0,0.0,0.0,0.0,0.0,-2.2370368240438865e-05,-4.974772444321651e-06,-2.112394160203035e-06,-9.417383294341164e-05,6.103515621941336e-07,-1.4241727210873023e-06,-2.339680989726922e-06,0.000971872693537344,-0.00012415694655114857,0.00022106551666560784,-0.0004583829352578787,0.00011786103507087001,-0.00011021098168229977,-0.001915058713679882,0.5021602511405945,47.19466781616211,1.2679107189178467,-20.923799514770508,-0.5697532296180725,-2.3202548027038574,0.35831016302108765,0
28,0.13500356674194336,-0.5815059542655945,-47.19466781616211,-1.2401397228240967,20.947603225708008,0.5642600655555725,2.3202548027038574,-0.32352012395858765,0.0,0.0,0.0,0.0,0.0,0.0,0.0,-0.5453265870786738,-0.3973299416139712,-0.39480227338277657,0.5331249065098478,-0.01501750282634054,0.10906148886028957,-0.3195426024101983,0.06229167119609682,0.6884229523508172,-0.07864135045801779,-1.62094477588252,0.028167385147800168,2.287832661363814,0.846635167909993,0.06226373270833701,0.6884179775783729,-0.07863937525950354,-1.6210372792796082,0.028167345702647853,2.2878312372101677,0.8466366937888992,0.000797821069932514,0.0005922506841100889,-0.0007985462878083609,-7.093470631998772e-05,0.00011392569014991708,0.00026642526015420773,-0.005504216278657426,0.0,0.0,0.0,0.0,0.0,0.0,0.0,-2.7938487759809894e-05,-4.974772444321651e-06,1.975198514247989e-06,-9.25033970882172e-05,-3.944515231460444e-08,-1.4241536461234716e-06,1.5258789061167732e-06,-0.000797821069932514,-0.0005922506841100889,0.0007985462878083609,7.093470631998772e-05,-0.00011392569014991708,-0.00026642526015420773,0.005504216278657426,0.5815059542655945,47.19466781616211,1.2401397228240967,-20.947603225708008,-0.5642600655555725,-2.3202548027038574,0.32352012395858765,0
29,0.14002013206481934,-0.5815059542655945,-47.19466781616211,-1.2401397228240967,20.947603225708008,0.5642600655555725,2.3202548027038574,-0.32352012395858765,0.0,0.0,0.0,0.0,0.0,0.0,0.0,-0.5453265870786738,-0.3973299416139712,-0.39480227338277657,0.5331249065098478,-0.01501750282634054,0.10906148886028957,-0.3195426024101983,0.06229167119609682,0.6884229523508172,-0.07864135045801779,-1.62094477588252,0.028167385147800168,2.287832661363814,0.846635167909993,0.06226373270833701,0.6884179775783729,-0.07863937525950354,-1.6210372792796082,0.028167345702647853,2.2878312372101677,0.8466366937888992,0.000797821069932514,0.0005922506841100889,-0.0007985462878083609,-7.093470631998772e-05,0.00011392569014991708,0.00026642526015420773,-0.005504216278657426,0.0,0.0,0.0,0.0,0.0,0.0,0.0,-2.7938487759809894e-05,-4.974772444321651e-06,1.975198514247989e-06,-9.25033970882172e-05,-3.944515231460444e-08,-1.4241536461234716e-06,1.5258789061167732e-06,-0.000797821069932514,-0.0005922506841100889,0.0007985462878083609,7.093470631998772e-05,-0.00011392569014991708,-0.00026642526015420773,0.005504216278657426,0.5815059542655945,47.19466781616211,1.2401397228240967,-20.947603225708008,-0.5642600655555725,-2.3202548027038574,0.32352012395858765,0
30,0.14504218101501465,-0.5299312472343445,-47.19466781616211,-1.2679107189178467,20.947603225708008,0.5761619210243225,2.3394808769226074,-0.33725303411483765,0.0,0.0,0.0,0.0,0.0,0.0,0.0,-0.5254663000946047,-0.40658202795947607,-0.3790808889178511,0.5381120495519103,-0.014269081186223114,0.10976158584483496,-0.32093541251696744,0.06228805191841042,0.6884229523508172,-0.07863932252333017,-1.62094477588252,0.028166023274485412,2.287830525133345,0.8466366937888993,0.06226373270833701,0.6884179775783729,-0.07863937525950354,-1.6210372792796082,0.028167345702647853,2.2878312372101677,0.8466366937888992,2.534205625733585e-05,-0.00010537063847822288,0.0005955973389387264,1.2315437844492149e-05,-0.0002176724141391639,-0.0003804509642960485,0.0005071998667636971,0.0,0.0,0.0,0.0,0.0,0.0,0.0,-2.4319210073411868e-05,-4.974772444321651e-06,-5.2736173372647244e-08,-9.25033970882172e-05,1.3224281624410472e-06,7.120768228396912e-07,-1.1102230246251565e-16,-2.534205625733585e-05,0.00010537063847822288,-0.0005955973389387264,-1.2315437844492149e-05,0.0002176724141391639,0.0003804509642960485,-0.0005071998667636971,0.5299312472343445,47.19466781616211,1.2679107189178467,-20.947603225708008,-0.5761619210243225,-2.3394808769226074,0.33725303411483765,0
31,0.15002059936523438,-0.5299312472343445,-47.19466781616211,-1.2679107189178467,20.947603225708008,0.5761619210243225,2.3394808769226074,-0.33725303411483765,0.0,0.0,0.0,0.0,0.0,0.0,0.0,-0.5254663000946047,-0.40658202795947607,-0.3790808889178511,0.5381120495519103,-0.014269081186223114,0.10976158584483496,-0.32093541251696744,0.06228805191841042,0.6884229523508172,-0.07863932252333017,-1.62094477588252,0.028166023274485412,2.287830525133345,0.8466366937888993,0.06226373270833701,0.6884179775783729,-0.07863937525950354,-1.6210372792796082,0.028167345702647853,2.2878312372101677,0.8466366937888992,2.534205625733585e-05,-0.00010537063847822288,0.0005955973389387264,1.2315437844492149e-05,-0.0002176724141391639,-0.0003804509642960485,0.0005071998667636971,0.0,0.0,0.0,0.0,0.0,0.0,0.0,-2.4319210073411868e-05,-4.974772444321651e-06,-5.2736173372647244e-08,-9.25033970882172e-05,1.3224281624410472e-06,7.120768228396912e-07,-1.1102230246251565e-16,-2.534205625733585e-05,0.00010537063847822288,-0.0005955973389387264,-1.2315437844492149e-05,0.0002176724141391639,0.0003804509642960485,-0.0005071998667636971,0.5299312472343445,47.19466781616211,1.2679107189178467,-20.947603225708008,-0.5761619210243225,-2.3394808769226074,0.33725303411483765,0
32,0.1550283432006836,-0.5021602511405945,-47.19466781616211,-1.2401397228240967,20.975374221801758,0.5642600655555725,2.3394808769226074,-0.30337852239608765,0.0,0.0,0.0,0.0,0.0,0.0,0.0,-0.5378283795784591,-0.4071514235617232,-0.38758329511955425,0.5379714988639156,-0.013013471757790218,0.10981571513613378,-0.3209840898902067,0.06228610307657928,0.6884229523508172,-0.07864134753983242,-1.6209467247243512,0.02816733254915402,2.287830694544626,0.8466329299542639,0.06226373270833701,0.6884179775783729,-0.07863937525950354,-1.6210372792796082,0.028167345702647853,2.2878312372101677,0.8466366937888992,-0.0006846256080989054,-6.359538829429334e-05,-0.00027963448498718313,-0.001032853222677975,0.00013162298756182056,-0.00045072920051851463,-0.000778501225162644,0.0,0.0,0.0,0.0,0.0,0.0,0.0,-2.2370368242270733e-05,-4.974772444321651e-06,1.9722803288740876e-06,-9.055455525697198e-05,1.3153493832324115e-08,5.426655418361293e-07,3.7638346352952823e-06,0.0006846256080989054,6.359538829429334e-05,0.00027963448498718313,0.001032853222677975,-0.00013162298756182056,0.00045072920051851463,0.000778501225162644,0.5021602511405945,47.19466781616211,1.2401397228240967,-20.975374221801758,-0.5642600655555725,-2.3394808769226074,0.30337852239608765,0
33,0.16003990173339844,-0.5021602511405945,-47.19466781616211,-1.2401397228240967,20.975374221801758,0.5642600655555725,2.3394808769226074,-0.30337852239608765,0.0,0.0,0.0,0.0,0.0,0.0,0.0,-0.5378283795784591,-0.4071514235617232,-0.38758329511955425,0.5379714988639156,-0.013013471757790218,0.10981571513613378,-0.3209840898902067,0.06228610307657928,0.6884229523508172,-0.07864134753983242,-1.6209467247243512,0.02816733254915402,2.287830694544626,0.8466329299542639,0.06226373270833701,0.6884179775783729,-0.07863937525950354,-1.6210372792796082,0.028167345702647853,2.2878312372101677,0.8466366937888992,-0.0006846256080989054,-6.359538829429334e-05,-0.00027963448498718313,-0.001032853222677975,0.00013162298756182056,-0.00045072920051851463,-0.000778501225162644,0.0,0.0,0.0,0.0,0.0,0.0,0.0,-2.2370368242270733e-05,-4.974772444321651e-06,1.9722803288740876e-06,-9.055455525697198e-05,1.3153493832324115e-08,5.426655418361293e-07,3.7638346352952823e-06,0.0006846256080989054,6.359538829429334e-05,0.00027963448498718313,0.001032853222677975,-0.00013162298756182056,0.00045072920051851463,0.000778501225162644,0.5021602511405945,47.19466781616211,1.2401397228240967,-20.975374221801758,-0.5642600655555725,-2.3394808769226074,0.30337852239608765,0
34,0.16501069068908691,-0.5815059542655945,-47.19466781616211,-1.2679107189178467,20.947603225708008,0.5642600655555725,2.3202548027038574,-0.34457725286483765,0.0,0.0,0.0,0.0,0.0,0.0,0.0,-0.5308501629153645,-0.39419938773956825,-0.3827751386033985,0.532190914514734,-0.012349941097887816,0.10945786732022897,-0.3213047701039243,0.06229167119609682,0.6884229523508172,-0.07863940162824348,-1.62094477588252,0.028167346189551093,2.2878326751008196,0.8466375075909827,0.06226373270833701,0.6884179775783729,-0.07863937525950354,-1.6210372792796082,0.028167345702647853,2.2878312372101677,0.8466366937888992,0.001453476339636364,0.00021735393263955694,0.0004460872623644993,-0.0003992955244768257,0.00017561696207155138,0.000427243924616306,0.0013150415691539942,0.0,0.0,0.0,0.0,0.0,0.0,0.0,-2.7938487759809894e-05,-4.974772444321651e-06,2.636873994155131e-08,-9.25033970882172e-05,-4.869032399490436e-10,-1.4378906518786039e-06,-8.138020834991266e-07,-0.001453476339636364,-0.00021735393263955694,-0.0004460872623644993,0.0003992955244768257,-0.00017561696207155138,-0.000427243924616306,-0.0013150415691539942,0.5815059542655945,47.19466781616211,1.2679107189178467,-20.947603225708008,-0.5642600655555725,-2.3202548027038574,0.34457725286483765,0
35,0.17001867294311523,-0.5815059542655945,-47.19466781616211,-1.2679107189178467,20.947603225708008,0.5642600655555725,2.3202548027038574,-0.34457725286483765,0.0,0.0,0.0,0.0,0.0,0.0,0.0,-0.5308501629153645,-0.39419938773956825,-0.3827751386033985,0.532190914514734,-0.012349941097887816,0.10945786732022897,-0.3213047701039243,0.06229167119609682,0.6884229523508172,-0.07863940162824348,-1.62094477588252,0.028167346189551093,2.2878326751008196,0.8466375075909827,0.06226373270833701,0.6884179775783729,-0.07863937525950354,-1.6210372792796082,0.028167345702647853,2.2878312372101677,0.8466366937888992,0.001453476339636364,0.00021735393263955694,0.0004460872623644993,-0.0003992955244768257,0.00017561696207155138,0.000427243924616306,0.0013150415691539942,0.0,0.0,0.0,0.0,0.0,0.0,0.0,-2.7938487759809894e-05,-4.974772444321651e-06,2.636873994155131e-08,-9.25033970882172e-05,-4.869032399490436e-10,-1.4378906518786039e-06,-8.138020834991266e-07,-0.001453476339636364,-0.00021735393263955694,-0.0004460872623644993,0.0003992955244768257,-0.00017561696207155138,-0.000427243924616306,-0.0013150415691539942,0.5815059542655945,47.19466781616211,1.2679107189178467,-20.947603225708008,-0.5642600655555725,-2.3202548027038574,0.34457725286483765,0
36,0.17500066757202148,-0.5815059542655945,-47.19466781616211,-1.2679107189178467,20.947603225708008,0.5642600655555725,2.3202548027038574,-0.34457725286483765,0.0,0.0,0.0,0.0,0.0,0.0,0.0,-0.5308501629153645,-0.39419938773956825,-0.3827751386033985,0.532190914514734,-0.012349941097887816,0.10945786732022897,-0.3213047701039243,0.06229167119609682,0.6884229523508172,-0.07863940162824348,-1.62094477588252,0.028167346189551093,2.2878326751008196,0.8466375075909827,0.06226373270833701,0.6884179775783729,-0.07863937525950354,-1.6210372792796082,0.028167345702647853,2.2878312372101677,0.8466366937888992,0.001453476339636364,0.00021735393263955694,0.0004460872623644993,-0.0003992955244768257,0.00017561696207155138,0.000427243924616306,0.0013150415691539942,0.0,0.0,0.0,0.0,0.0,0.0,0.0,-2.7938487759809894e-05,-4.974772444321651e-06,2.636873994155131e-08,-9.25033970882172e-05,-4.869032399490436e-10,-1.4378906518786039e-06,-8.138020834991266e-07,-0.001453476339636364,-0.00021735393263955694,-0.0004460872623644993,0.0003992955244768257,-0.00017561696207155138,-0.000427243924616306,-0.0013150415691539942,0.5815059542655945,47.19466781616211,1.2679107189178467,-20.947603225708008,-0.5642600655555725,-2.3202548027038574,0.34457725286483765,0
37,0.17999911308288574,-0.5815059542655945,-47.19466781616211,-1.2679107189178467,20.947603225708008,0.5642600655555725,2.3202548027038574,-0.34457725286483765,0.0,0.0,0.0,0.0,0.0,0.0,0.0,-0.5308501629153645,-0.39419938773956825,-0.3827751386033985,0.532190914514734,-0.012349941097887816,0.10945786732022897,-0.3213047701039243,0.06229167119609682,0.6884229523508172,-0.07863940162824348,-1.62094477588252,0.028167346189551093,2.2878326751008196,0.8466375075909827,0.06226373270833701,0.6884179775783729,-0.07863937525950354,-1.6210372792796082,0.028167345702647853,2.2878312372101677,0.8466366937888992,0.001453476339636364,0.00021735393263955694,0.0004460872623644993,-0.0003992955244768257,0.00017561696207155138,0.000427243924616306,0.0013150415691539942,0.0,0.0,0.0,0.0,0.0,0.0,0.0,-2.7938487759809894e-05,-4.974772444321651e-06,2.636873994155131e-08,-9.25033970882172e-05,-4.869032399490436e-10,-1.4378906518786039e-06,-8.138020834991266e-07,-0.001453476339636364,-0.00021735393263955694,-0.0004460872623644993,0.0003992955244768257,-0.00017561696207155138,-0.000427243924616306,-0.0013150415691539942,0.5815059542655945,47.19466781616211,1.2679107189178467,-20.947603225708008,-0.5642600655555725,-2.3202548027038574,0.34457725286483765,0
38,0.1850135326385498,-0.4783565402030945,-47.19466781616211,-1.2679107189178467,20.923799514770508,0.5642600655555725,2.3266634941101074,-0.34457725286483765,0.0,0.0,0.0,0.0,0.0,0.0,0.0,-0.5309715752042377,-0.3997065170024369,-0.3846031840878249,0.5347153013662979,-0.012170113505351497,0.11031033513798034,-0.3213566981614061,0.062284432640724016,0.6884229523508172,-0.07863718669022578,-1.6209431054466648,0.028167345702656405,2.2878331076940914,0.8466375075909827,0.06226373270833701,0.6884179775783729,-0.07863937525950354,-1.6210372792796082,0.028167345702647853,2.2878312372101677,0.8466366937888992,-0.001129696733650132,0.0003218505170892285,0.0006839602778514055,0.000441936816853736,-5.565126088088532e-05,0.0002930646337796931,0.0009102413987765297,0.0,0.0,0.0,0.0,0.0,0.0,0.0,-2.0699932387006903e-05,-4.974772444321651e-06,-2.1885692777640076e-06,-9.417383294341164e-05,-8.552186736565659e-15,-1.8704839237493331e-06,-8.138020834991266e-07,0.001129696733650132,-0.0003218505170892285,-0.0006839602778514055,-0.000441936816853736,5.565126088088532e-05,-0.0002930646337796931,-0.0009102413987765297,0.4783565402030945,47.19466781616211,1.2679107189178467,-20.923799514770508,-0.5642600655555725,-2.3266634941101074,0.34457725286483765,0
39,0.18999719619750977,-0.4783565402030945,-47.19466781616211,-1.2679107189178467,20.923799514770508,0.5642600655555725,2.3266634941101074,-0.34457725286483765,0.0,0.0,0.0,0.0,0.0,0.0,0.0,-0.5309715752042377,-0.3997065170024369,-0.3846031840878249,0.5347153013662979,-0.012170113505351497,0.11031033513798034,-0.3213566981614061,0.062284432640724016,0.6884229523508172,-0.07863718669022578,-1.6209431054466648,0.028167345702656405,2.2878331076940914,0.8466375075909827,0.06226373270833701,0.6884179775783729,-0.07863937525950354,-1.6210372792796082,0.028167345702647853,2.2878312372101677,0.8466366937888992,-0.001129696733650132,0.0003218505170892285,0.0006839602778514055,0.000441936816853736,-5.565126088088532e-05,0.0002930646337796931,0.0009102413987765297,0.0,0.0,0.0,0.0,0.0,0.0,0.0,-2.0699932387006903e-05,-4.974772444321651e-06,-2.1885692777640076e-06,-9.417383294341164e-05,-8.552186736565659e-15,-1.8704839237493331e-06,-8.138020834991266e-07,0.001129696733650132,-0.0003218505170892285,-0.0006839602778514055,-0.000441936816853736,5.565126088088532e-05,-0.0002930646337796931,-0.0009102413987765297,0.4783565402030945,47.19466781616211,1.2679107189178467,-20.923799514770508,-0.5642600655555725,-2.3266634941101074,0.34457725286483765,0
40,0.19500374794006348,-0.5537349581718445,-47.19466781616211,-1.2163360118865967,20.923799514770508,0.5642600655555725,2.3330721855163574,-0.31711143255233765,0.0,0.0,0.0,0.0,0.0,0.0,0.0,-0.5375649440963466,-0.4014557363899766,-0.3898616925706257,0.535781323570714,-0.012876618960585817,0.11086910625990615,-0.32111730671896366,0.06228972235426568,0.6884229523508172,-0.07864299449729818,-1.6209431054466648,0.02816734570264816,2.287831649293842,0.8466344558331701,0.06226373270833701,0.6884179775783729,-0.07863937525950354,-1.6210372792796082,0.028167345702647853,2.2878312372101677,0.8466366937888992,0.0006952197214649088,0.00025857130065182774,-0.001211870660445443,0.0005701758322064145,-0.00012862980614113996,-5.43360467183179e-06,0.0003214123521235934,0.0,0.0,0.0,0.0,0.0,0.0,0.0,-2.598964592866876e-05,-4.974772444321651e-06,3.619237794641461e-06,-9.417383294341164e-05,-3.0531133177191805e-16,-4.120836742949052e-07,2.2379557290674867e-06,-0.0006952197214649088,-0.00025857130065182774,0.001211870660445443,-0.0005701758322064145,0.00012862980614113996,5.43360467183179e-06,-0.0003214123521235934,0.5537349581718445,47.19466781616211,1.2163360118865967,-20.923799514770508,-0.5642600655555725,-2.3330721855163574,0.31711143255233765,0
41,0.20002007484436035,-0.5537349581718445,-47.19466781616211,-1.2163360118865967,20.923799514770508,0.5642600655555725,2.3330721855163574,-0.31711143255233765,0.0,0.0,0.0,0.0,0.0,0.0,0.0,-0.5375649440963466,-0.4014557363899766,-0.3898616925706257,0.535781323570714,-0.012876618960585817,0.11086910625990615,-0.32111730671896366,0.06228972235426568,0.6884229523508172,-0.07864299449729818,-1.6209431054466648,0.02816734570264816,2.287831649293842,0.8466344558331701,0.06226373270833701,0.6884179775783729,-0.07863937525950354,-1.6210372792796082,0.028167345702647853,2.2878312372101677,0.8466366937888992,0.0006952197214649088,0.00025857130065182774,-0.001211870660445443,0.0005701758322064145,-0.00012862980614113996,-5.43360467183179e-06,0.0003214123521235934,0.0,0.0,0.0,0.0,0.0,0.0,0.0,-2.598964592866876e-05,-4.974772444321651e-06,3.619237794641461e-06,-9.417383294341164e-05,-3.0531133177191805e-16,-4.120836742949052e-07,2.2379557290674867e-06,-0.0006952197214649088,-0.00025857130065182774,0.001211870660445443,-0.0005701758322064145,0.00012862980614113996,5.43360467183179e-06,-0.0003214123521235934,0.5537349581718445,47.19466781616211,1.2163360118865967,-20.923799514770508,-0.5642600655555725,-2.3330721855163574,0.31711143255233765,0
42,0.2050185203552246,-0.5299312472343445,-47.21847152709961,-1.2679107189178467,20.947603225708008,0.5578513741493225,2.3330721855163574,-0.33084434270858765,0.0,0.0,0.0,0.0,0.0,0.0,0.0,-0.5279732377734244,-0.39323963080560986,-0.3811505978959678,0.531660727285888,-0.013773798891709179,0.11060202614595427,-0.3200622632902084,0.062288048995411724,0.6884246227866725,-0.0786386893582081,-1.62094477588252,0.028168057779471074,2.287831237212494,0.8466359817120764,0.06226373270833701,0.6884179775783729,-0.07863937525950354,-1.6210372792796082,0.028167345702647853,2.2878312372101677,0.8466366937888992,0.00032294406446637574,0.0008183436982888471,0.0002138918314242477,-0.0002929758887790636,0.00017617134639294406,-8.442012694596623e-05,0.00026737908042624394,0.0,0.0,0.0,0.0,0.0,0.0,0.0,-2.4316287074714615e-05,-6.6452082996271145e-06,-6.859012954413268e-07,-9.25033970882172e-05,-7.120768232213304e-07,-2.326139281194628e-12,7.120768227286689e-07,-0.00032294406446637574,-0.0008183436982888471,-0.0002138918314242477,0.0002929758887790636,-0.00017617134639294406,8.442012694596623e-05,-0.00026737908042624394,0.5299312472343445,47.21847152709961,1.2679107189178467,-20.947603225708008,-0.5578513741493225,-2.3330721855163574,0.33084434270858765,0
43,0.2100205421447754,-0.5299312472343445,-47.21847152709961,-1.2679107189178467,20.947603225708008,0.5578513741493225,2.3330721855163574,-0.33084434270858765,0.0,0.0,0.0,0.0,0.0,0.0,0.0,-0.5279732377734244,-0.39323963080560986,-0.3811505978959678,0.531660727285888,-0.013773798891709179,0.11060202614595427,-0.3200622632902084,0.062288048995411724,0.6884246227866725,-0.0786386893582081,-1.62094477588252,0.028168057779471074,2.287831237212494,0.8466359817120764,0.06226373270833701,0.6884179775783729,-0.07863937525950354,-1.6210372792796082,0.028167345702647853,2.2878312372101677,0.8466366937888992,0.00032294406446637574,0.0008183436982888471,0.0002138918314242477,-0.0002929758887790636,0.00017617134639294406,-8.442012694596623e-05,0.00026737908042624394,0.0,0.0,0.0,0.0,0.0,0.0,0.0,-2.4316287074714615e-05,-6.6452082996271145e-06,-6.859012954413268e-07,-9.25033970882172e-05,-7.120768232213304e-07,-2.326139281194628e-12,7.120768227286689e-07,-0.00032294406446637574,-0.0008183436982888471,-0.0002138918314242477,0.0002929758887790636,-0.00017617134639294406,8.442012694596623e-05,-0.00026737908042624394,0.5299312472343445,47.21847152709961,1.2679107189178467,-20.947603225708008,-0.5578513741493225,-2.3330721855163574,0.33084434270858765,0
44,0.21500492095947266,-0.5537349581718445,-47.19466781616211,-1.2679107189178467,20.923799514770508,0.5578513741493225,2.3330721855163574,-0.30337852239608765,0.0,0.0,0.0,0.0,0.0,0.0,0.0,-0.5394016424010855,-0.4077221375389991,-0.38909724946783825,0.5365519977556569,-0.014448397245154105,0.11178374374583401,-0.32067164073544907,0.06228972235424918,0.6884229523508172,-0.07863726579113478,-1.6209431054466648,0.028168057779471074,2.2878312387363953,0.8466329299542639,0.06226373270833701,0.6884179775783729,-0.07863937525950354,-1.6210372792796082,0.028167345702647853,2.2878312372101677,0.8466366937888992,0.00023964477903097895,-0.0004936161504407161,8.608402509440982e-05,-3.176094491414681e-05,1.8740273853989897e-05,6.749951316364421e-05,-0.0011480069209467063,0.0,0.0,0.0,0.0,0.0,0.0,0.0,-2.598964591216807e-05,-4.974772444321651e-06,-2.109468368760581e-06,-9.417383294341164e-05,-7.120768232213304e-07,-1.5262275887550913e-09,3.7638346352952823e-06,-0.00023964477903097895,0.0004936161504407161,-8.608402509440982e-05,3.176094491414681e-05,-1.8740273853989897e-05,-6.749951316364421e-05,0.0011480069209467063,0.5537349581718445,47.19466781616211,1.2679107189178467,-20.923799514770508,-0.5578513741493225,-2.3330721855163574,0.30337852239608765,0
45,0.2200298309326172,-0.5537349581718445,-47.19466781616211,-1.2679107189178467,20.923799514770508,0.5578513741493225,2.3330721855163574,-0.30337852239608765,0.0,0.0,0.0,0.0,0.0,0.0,0.0,-0.5394016424010855,-0.4077221375389991,-0.38909724946783825,0.5365519977556569,-0.014448397245154105,0.11178374374583401,-0.32067164073544907,0.06228972235424918,0.6884229523508172,-0.07863726579113478,-1.6209431054466648,0.028168057779471074,2.2878312387363953,0.8466329299542639,0.06226373270833701,0.6884179775783729,-0.07863937525950354,-1.6210372792796082,0.028167345702647853,2.2878312372101677,0.8466366937888992,0.00023964477903097895,-0.0004936161504407161,8.608402509440982e-05,-3.176094491414681e-05,1.8740273853989897e-05,6.749951316364421e-05,-0.0011480069209467063,0.0,0.0,0.0,0.0,0.0,0.0,0.0,-2.598964591216807e-05,-4.974772444321651e-06,-2.109468368760581e-06,-9.417383294341164e-05,-7.120768232213304e-07,-1.5262275887550913e-09,3.7638346352952823e-06,-0.00023964477903097895,0.0004936161504407161,-8.608402509440982e-05,3.176094491414681e-05,-1.8740273853989897e-05,-6.749951316364421e-05,0.0011480069209467063,0.5537349581718445,47.19466781616211,1.2679107189178467,-20.923799514770508,-0.5578513741493225,-2.3330721855163574,0.30337852239608765,0
46,0.22499799728393555,-0.5537349581718445,-47.21847152709961,-1.2917144298553467,20.923799514770508,0.5697532296180725,2.3202548027038574,-0.35831016302108765,0.0,0.0,0.0,0.0,0.0,0.0,0.0,-0.545106708679435,-0.3992658190350383,-0.39263166785811116,0.531116812216603,-0.015187033985904477,0.11179112874075642,-0.3224860213045368,0.06228972235426568,0.6884246227866725,-0.07863773118034789,-1.6209431054466648,0.0281656699180603,2.2878326618725646,0.8466390334698889,0.06226373270833701,0.6884179775783729,-0.07863937525950354,-1.6210372792796082,0.028167345702647853,2.2878312372101677,0.8466366937888992,-0.0002618539907466372,0.0008060738032921367,0.0007135945721103388,0.0006903726422043657,-0.007542862205205701,0.00033718859654893946,0.0013658012152263836,0.0,0.0,0.0,0.0,0.0,0.0,0.0,-2.598964592866876e-05,-6.6452082996271145e-06,-1.6440791556493473e-06,-9.417383294341164e-05,1.675784587554241e-06,-1.424662396942722e-06,-2.339680989726922e-06,0.0002618539907466372,-0.0008060738032921367,-0.0007135945721103388,-0.0006903726422043657,0.007542862205205701,-0.00033718859654893946,-0.0013658012152263836,0.5537349581718445,47.21847152709961,1.2917144298553467,-20.923799514770508,-0.5697532296180725,-2.3202548027038574,0.35831016302108765,0
47,0.2299952507019043,-0.5537349581718445,-47.21847152709961,-1.2917144298553467,20.923799514770508,0.5697532296180725,2.3202548027038574,-0.35831016302108765,0.0,0.0,0.0,0.0,0.0,0.0,0.0,-0.545106708679435,-0.3992658190350383,-0.39263166785811116,0.531116812216603,-0.015187033985904477,0.11179112874075642,-0.3224860213045368,0.06228972235426568,0.6884246227866725,-0.07863773118034789,-1.6209431054466648,0.0281656699180603,2.2878326618725646,0.8466390334698889,0.06226373270833701,0.6884179775783729,-0.07863937525950354,-1.6210372792796082,0.028167345702647853,2.2878312372101677,0.8466366937888992,-0.0002618539907466372,0.0008060738032921367,0.0007135945721103388,0.0006903726422043657,-0.007542862205205701,0.00033718859654893946,0.0013658012152263836,0.0,0.0,0.0,0.0,0.0,0.0,0.0,-2.598964592866876e-05,-6.6452082996271145e-06,-1.6440791556493473e-06,-9.417383294341164e-05,1.675784587554241e-06,-1.424662396942722e-06,-2.339680989726922e-06,0.0002618539907466372,-0.0008060738032921367,-0.0007135945721103388,-0.0006903726422043657,0.007542862205205701,-0.00033718859654893946,-0.0013658012152263836,0.5537349581718445,47.21847152709961,1.2917144298553467,-20.923799514770508,-0.5697532296180725,-2.3202548027038574,0.35831016302108765,0
48,0.23499655723571777,-0.5299312472343445,-47.14706039428711,-1.2917144298553467,20.923799514770508,0.5697532296180725,2.3266634941101074,-0.30337852239608765,0.0,0.0,0.0,0.0,0.0,0.0,0.0,-0.5388299104904671,-0.3923510877310902,-0.38796018480678873,0.527855678654354,-0.015304353917259947,0.11049974177852431,-0.32282901522653806,0.06228805191841042,0.6884196114791067,-0.07863773119240469,-1.6209431054466648,0.028166735345071258,2.287833061907029,0.8466361486050817,0.06226373270833701,0.6884179775783729,-0.07863937525950354,-1.6210372792796082,0.028167345702647853,2.2878312372101677,0.8466366937888992,-0.0005388771183493557,-0.0008453569942722402,0.0005472586360840394,0.00023840770965580458,-0.000656474464859558,0.0003010380817770278,-0.0008909444940489436,0.0,0.0,0.0,0.0,0.0,0.0,0.0,-2.4319210073411868e-05,-1.633900733821747e-06,-1.6440670988493444e-06,-9.417383294341164e-05,6.103575765949165e-07,-1.8246968611634884e-06,5.451838174241885e-07,0.0005388771183493557,0.0008453569942722402,-0.0005472586360840394,-0.00023840770965580458,0.000656474464859558,-0.0003010380817770278,0.0008909444940489436,0.5299312472343445,47.14706039428711,1.2917144298553467,-20.923799514770508,-0.5697532296180725,-2.3266634941101074,0.30337852239608765,0
49,0.24000048637390137,-0.5299312472343445,-47.14706039428711,-1.2917144298553467,20.923799514770508,0.5697532296180725,2.3266634941101074,-0.30337852239608765,0.0,0.0,0.0,0.0,0.0,0.0,0.0,-0.5388299104904671,-0.3923510877310902,-0.38796018480678873,0.527855678654354,-0.015304353917259947,0.11049974177852431,-0.32282901522653806,0.06228805191841042,0.6884196114791067,-0.07863773119240469,-1.6209431054466648,0.028166735345071258,2.287833061907029,0.8466361486050817,0.06226373270833701,0.6884179775783729,-0.07863937525950354,-1.6210372792796082,0.028167345702647853,2.2878312372101677,0.8466366937888992,-0.0005388771183493557,-0.0008453569942722402,0.0005472586360840394,0.00023840770965580458,-0.000656474464859558,0.0003010380817770278,-0.0008909444940489436,0.0,0.0,0.0,0.0,0.0,0.0,0.0,-2.4319210073411868e-05,-1.633900733821747e-06,-1.6440670988493444e-06,-9.417383294341164e-05,6.103575765949165e-07,-1.8246968611634884e-06,5.451838174241885e-07,0.0005388771183493557,0.0008453569942722402,-0.0005472586360840394,-0.00023840770965580458,0.000656474464859558,-0.0003010380817770278,0.0008909444940489436,0.5299312472343445,47.14706039428711,1.2917144298553467,-20.923799514770508,-0.5697532296180725,-2.3266634941101074,0.30337852239608765,0
50,0.24501895904541016,-0.5537349581718445,-47.19466781616211,-1.2401397228240967,20.947603225708008,0.5697532296180725,2.3330721855163574,-0.28964561223983765,0.0,0.0,0.0,0.0,0.0,0.0,0.0,-0.5321209151340837,-0.39821102901429867,-0.38570099437899547,0.532196615110847,-0.015699931887392295,0.11130238683090067,-0.3230496138901501,0.06228972235426568,0.6884229523508172,-0.07864135047009117,-1.62094477588252,0.028166735351085624,2.287831250952498,0.846631404093527,0.06226373270833701,0.6884179775783729,-0.07863937525950354,-1.6210372792796082,0.028167345702647853,2.2878312372101677,0.8466366937888992,0.00045536128307342125,0.0006749332317120746,-0.0004808329053601403,-0.0003840766770031975,-0.0002585769620303287,8.022431480411387e-05,-0.001657188016767863,0.0,0.0,0.0,0.0,0.0,0.0,0.0,-2.598964592866876e-05,-4.974772444321651e-06,1.975210587631948e-06,-9.25033970882172e-05,6.10351562228828e-07,-1.3742330384758361e-08,5.289695372168168e-06,-0.00045536128307342125,-0.0006749332317120746,0.0004808329053601403,0.0003840766770031975,0.0002585769620303287,-8.022431480411387e-05,0.001657188016767863,0.5537349581718445,47.19466781616211,1.2401397228240967,-20.947603225708008,-0.5697532296180725,-2.3330721855163574,0.28964561223983765,0
51,0.25290656089782715,-0.5537349581718445,-47.19466781616211,-1.2401397228240967,20.947603225708008,0.5697532296180725,2.3330721855163574,-0.28964561223983765,0.0,0.0,0.0,0.0,0.0,0.0,0.0,-0.5321209151340837,-0.39821102901429867,-0.38570099437899547,0.532196615110847,-0.015699931887392295,0.11130238683090067,-0.3230496138901501,0.06228972235426568,0.6884229523508172,-0.07864135047009117,-1.62094477588252,0.028166735351085624,2.287831250952498,0.846631404093527,0.06226373270833701,0.6884179775783729,-0.07863937525950354,-1.6210372792796082,0.028167345702647853,2.2878312372101677,0.8466366937888992,0.00045536128307342125,0.0006749332317120746,-0.0004808329053601403,-0.0003840766770031975,-0.0002585769620303287,8.022431480411387e-05,-0.001657188016767863,0.0,0.0,0.0,0.0,0.0,0.0,0.0,-2.598964592866876e-05,-4.974772444321651e-06,1.975210587631948e-06,-9.25033970882172e-05,6.10351562228828e-07,-1.3742330384758361e-08,5.289695372168168e-06,-0.00045536128307342125,-0.0006749332317120746,0.0004808329053601403,0.0003840766770031975,0.0002585769620303287,-8.022431480411387e-05,0.001657188016767863,0.5537349581718445,47.19466781616211,1.2401397228240967,-20.947603225708008,-0.5697532296180725,-2.3330721855163574,0.28964561223983765,0
52,0.25499510765075684,-0.5299312472343445,-47.17086410522461,-1.2917144298553467,20.947603225708008,0.5642600655555725,2.3330721855163574,-0.29605430364608765,0.0,0.0,0.0,0.0,0.0,0.0,0.0,-0.5389585241659147,-0.40456063734663084,-0.39022937900161464,0.533743069308581,-0.014976756166786363,0.11160487755868712,-0.32294420396739726,0.06228805191841042,0.688421359916102,-0.07863773119240476,-1.62094477588252,0.02816734570264816,2.287831237210245,0.8466321030702285,0.06226373270833701,0.6884179775783729,-0.07863937525950354,-1.6210372792796082,0.028167345702647853,2.2878312372101677,0.8466366937888992,-0.00011239256137747638,-0.0004744392894910262,0.0005784733161128871,-0.0003989772630567442,0.00010452619541035578,-0.00037525965527364477,-0.0011263267858329846,0.0,0.0,0.0,0.0,0.0,0.0,0.0,-2.4319210073411868e-05,-3.3823377291186674e-06,-1.6440670987799555e-06,-9.25033970882172e-05,-3.0531133177191805e-16,-7.72715225139109e-14,4.5907186706495295e-06,0.00011239256137747638,0.0004744392894910262,-0.0005784733161128871,0.0003989772630567442,-0.00010452619541035578,0.00037525965527364477,0.0011263267858329846,0.5299312472343445,47.17086410522461,1.2917144298553467,-20.947603225708008,-0.5642600655555725,-2.3330721855163574,0.29605430364608765,0
53,0.2599966526031494,-0.5299312472343445,-47.17086410522461,-1.2917144298553467,20.947603225708008,0.5642600655555725,2.3330721855163574,-0.29605430364608765,0.0,0.0,0.0,0.0,0.0,0.0,0.0,-0.5389585241659147,-0.40456063734663084,-0.39022937900161464,0.533743069308581,-0.014976756166786363,0.11160487755868712,-0.32294420396739726,0.06228805191841042,0.688421359916102,-0.07863773119240476,-1.62094477588252,0.02816734570264816,2.287831237210245,0.8466321030702285,0.06226373270833701,0.6884179775783729,-0.07863937525950354,-1.6210372792796082,0.028167345702647853,2.2878312372101677,0.8466366937888992,-0.00011239256137747638,-0.0004744392894910262,0.0005784733161128871,-0.0003989772630567442,0.00010452619541035578,-0.00037525965527364477,-0.0011263267858329846,0.0,0.0,0.0,0.0,0.0,0.0,0.0,-2.4319210073411868e-05,-3.3823377291186674e-06,-1.6440670987799555e-06,-9.25033970882172e-05,-3.0531133177191805e-16,-7.72715225139109e-14,4.5907186706495295e-06,0.00011239256137747638,0.0004744392894910262,-0.0005784733161128871,0.0003989772630567442,-0.00010452619541035578,0.00037525965527364477,0.0011263267858329846,0.5299312472343445,47.17086410522461,1.2917144298553467,-20.947603225708008,-0.5642600655555725,-2.3330721855163574,0.29605430364608765,0
54,0.2650008201599121,-0.5021602511405945,-47.19466781616211,-1.2163360118865967,20.923799514770508,0.5578513741493225,2.3266634941101074,-0.28232139348983765,0.0,0.0,0.0,0.0,0.0,0.0,0.0,-0.5321893301261397,-0.41020298750448314,-0.3882848673955517,0.5359514481739059,-0.015076935679388974,0.11152256355925909,-0.3229995659860617,0.06228610307657928,0.6884229523521381,-0.07864302090594644,-1.6209431054466648,0.028168057779471074,2.2878323201603354,0.8466305902730529,0.06226373270833701,0.6884179775783729,-0.07863937525950354,-1.6210372792796082,0.028167345702647853,2.2878312372101677,0.8466366937888992,-0.0004571281428303019,-0.000153859161295425,-0.0011838339769690226,0.0006294558259191901,0.0009280593742928261,3.108058680131819e-05,-0.0019066289237327486,0.0,0.0,0.0,0.0,0.0,0.0,0.0,-2.2370368242270733e-05,-4.974773765265006e-06,3.645646442895778e-06,-9.417383294341164e-05,-7.120768232213304e-07,-1.0829501677633857e-06,6.103515846289653e-06,0.0004571281428303019,0.000153859161295425,0.0011838339769690226,-0.0006294558259191901,-0.0009280593742928261,-3.108058680131819e-05,0.0019066289237327486,0.5021602511405945,47.19466781616211,1.2163360118865967,-20.923799514770508,-0.5578513741493225,-2.3266634941101074,0.28232139348983765,0
55,0.26999974250793457,-0.5021602511405945,-47.19466781616211,-1.2163360118865967,20.923799514770508,0.5578513741493225,2.3266634941101074,-0.28232139348983765,0.0,0.0,0.0,0.0,0.0,0.0,0.0,-0.5321893301261397,-0.41020298750448314,-0.3882848673955517,0.5359514481739059,-0.015076935679388974,0.11152256355925909,-0.3229995659860617,0.06228610307657928,0.6884229523521381,-0.07864302090594644,-1.6209431054466648,0.028168057779471074,2.2878323201603354,0.8466305902730529,0.06226373270833701,0.6884179775783729,-0.07863937525950354,-1.6210372792796082,0.028167345702647853,2.2878312372101677,0.8466366937888992,-0.0004571281428303019,-0.000153859161295425,-0.0011838339769690226,0.0006294558259191901,0.0009280593742928261,3.108058680131819e-05,-0.0019066289237327486,0.0,0.0,0.0,0.0,0.0,0.0,0.0,-2.2370368242270733e-05,-4.974773765265006e-06,3.645646442895778e-06,-9.417383294341164e-05,-7.120768232213304e-07,-1.0829501677633857e-06,6.103515846289653e-06,0.0004571281428303019,0.000153859161295425,0.0011838339769690226,-0.0006294558259191901,-0.0009280593742928261,-3.108058680131819e-05,0.0019066289237327486,0.5021602511405945,47.19466781616211,1.2163360118865967,-20.923799514770508,-0.5578513741493225,-2.3266634941101074,0.28232139348983765,0
56,0.27499818801879883,-0.5021602511405945,-47.17086410522461,-1.2917144298553467,20.947603225708008,0.5697532296180725,2.3266634941101074,-0.32352012395858765,0.0,0.0,0.0,0.0,0.0,0.0,0.0,-0.534849788455803,-0.39925588811953555,-0.38904437542465187,0.5296216997365892,-0.014578029559477694,0.10984606627679873,-0.3231969026724196,0.06228610307657928,0.688421281914962,-0.07863773119240476,-1.62094477588252,0.02816673535108566,2.2878320774922156,0.846635167909993,0.06226373270833701,0.6884179775783729,-0.07863937525950354,-1.6210372792796082,0.028167345702647853,2.2878312372101677,0.8466366937888992,-0.0007456718548902207,-0.0007296761724091204,0.00135631272383335,-0.00023738478873012463,-0.00023416501127202264,3.021761408544371e-05,0.000138928388507482,0.0,0.0,0.0,0.0,0.0,0.0,0.0,-2.2370368242270733e-05,-3.3043365891272103e-06,-1.6440670987799555e-06,-9.25033970882172e-05,6.103515621941336e-07,-8.402820479425088e-07,1.5258789061167732e-06,0.0007456718548902207,0.0007296761724091204,-0.00135631272383335,0.00023738478873012463,0.00023416501127202264,-3.021761408544371e-05,-0.000138928388507482,0.5021602511405945,47.17086410522461,1.2917144298553467,-20.947603225708008,-0.5697532296180725,-2.3266634941101074,0.32352012395858765,0
57,0.2799992561340332,-0.5021602511405945,-47.17086410522461,-1.2917144298553467,20.947603225708008,0.5697532296180725,2.3266634941101074,-0.32352012395858765,0.0,0.0,0.0,0.0,0.0,0.0,0.0,-0.534849788455803,-0.39925588811953555,-0.38904437542465187,0.5296216997365892,-0.014578029559477694,0.10984606627679873,-0.3231969026724196,0.06228610307657928,0.688421281914962,-0.07863773119240476,-1.62094477588252,0.02816673535108566,2.2878320774922156,0.846635167909993,0.06226373270833701,0.6884179775783729,-0.07863937525950354,-1.6210372792796082,0.028167345702647853,2.2878312372101677,0.8466366937888992,-0.0007456718548902207,-0.0007296761724091204,0.00135631272383335,-0.00023738478873012463,-0.00023416501127202264,3.021761408544371e-05,0.000138928388507482,0.0,0.0,0.0,0.0,0.0,0.0,0.0,-2.2370368242270733e-05,-3.3043365891272103e-06,-1.6440670987799555e-06,-9.25033970882172e-05,6.103515621941336e-07,-8.402820479425088e-07,1.5258789061167732e-06,0.0007456718548902207,0.0007296761724091204,-0.00135631272383335,0.00023738478873012463,0.00023416501127202264,-3.021761408544371e-05,-0.000138928388507482,0.5021602511405945,47.17086410522461,1.2917144298553467,-20.947603225708008,-0.5697532296180725,-2.3266634941101074,0.32352012395858765,0
58,0.2850160598754883,-0.5021602511405945,-47.17086410522461,-1.2917144298553467,20.947603225708008,0.5697532296180725,2.3266634941101074,-0.32352012395858765,0.0,0.0,0.0,0.0,0.0,0.0,0.0,-0.534849788455803,-0.39925588811953555,-0.38904437542465187,0.5296216997365892,-0.014578029559477694,0.10984606627679873,-0.3231969026724196,0.06228610307657928,0.688421281914962,-0.07863773119240476,-1.62094477588252,0.02816673535108566,2.2878320774922156,0.846635167909993,0.06226373270833701,0.6884179775783729,-0.07863937525950354,-1.6210372792796082,0.028167345702647853,2.2878312372101677,0.8466366937888992,-0.0007456718548902207,-0.0007296761724091204,0.00135631272383335,-0.00023738478873012463,-0.00023416501127202264,3.021761408544371e-05,0.000138928388507482,0.0,0.0,0.0,0.0,0.0,0.0,0.0,-2.2370368242270733e-05,-3.3043365891272103e-06,-1.6440670987799555e-06,-9.25033970882172e-05,6.103515621941336e-07,-8.402820479425088e-07,1.5258789061167732e-06,0.0007456718548902207,0.0007296761724091204,-0.00135631272383335,0.00023738478873012463,0.00023416501127202264,-3.021761408544371e-05,-0.000138928388507482,0.5021602511405945,47.17086410522461,1.2917144298553467,-20.947603225708008,-0.5697532296180725,-2.3266634941101074,0.32352012395858765,0
59,0.2900114059448242,-0.5299312472343445,-47.17086410522461,-1.2163360118865967,20.923799514770508,0.5642600655555725,2.3266634941101074,-0.30337852239608765,0.0,0.0,0.0,0.0,0.0,0.0,0.0,-0.5356358785182811,-0.402072076473197,-0.38704964811669457,0.5314956014845255,-0.014221939549421274,0.1100355159946201,-0.32273506493864756,0.06228805191841042,0.688421281914962,-0.07864302086977591,-1.6209431054466648,0.02816734570264816,2.2878319493437584,0.8466329299542639,0.06226373270833701,0.6884179775783729,-0.07863937525950354,-1.6210372792796082,0.028167345702647853,2.2878312372101677,0.8466366937888992,-2.471543500067136e-05,-0.0009461773755924376,-0.0006524074711138299,0.0001990598547852731,-1.9936675553546507e-05,1.2354956362458054e-05,-0.0007247813553329071,0.0,0.0,0.0,0.0,0.0,0.0,0.0,-2.4319210073411868e-05,-3.3043365891272103e-06,3.6456102723708694e-06,-9.417383294341164e-05,-3.0531133177191805e-16,-7.121335907633863e-07,3.7638346352952823e-06,2.471543500067136e-05,0.0009461773755924376,0.0006524074711138299,-0.0001990598547852731,1.9936675553546507e-05,-1.2354956362458054e-05,0.0007247813553329071,0.5299312472343445,47.17086410522461,1.2163360118865967,-20.923799514770508,-0.5642600655555725,-2.3266634941101074,0.30337852239608765,0
60,0.29500293731689453,-0.5299312472343445,-47.17086410522461,-1.2163360118865967,20.923799514770508,0.5642600655555725,2.3266634941101074,-0.30337852239608765,0.0,0.0,0.0,0.0,0.0,0.0,0.0,-0.5356358785182811,-0.402072076473197,-0.38704964811669457,0.5314956014845255,-0.014221939549421274,0.1100355159946201,-0.32273506493864756,0.06228805191841042,0.688421281914962,-0.07864302086977591,-1.6209431054466648,0.02816734570264816,2.2878319493437584,0.8466329299542639,0.06226373270833701,0.6884179775783729,-0.07863937525950354,-1.6210372792796082,0.028167345702647853,2.2878312372101677,0.8466366937888992,-2.471543500067136e-05,-0.0009461773755924376,-0.0006524074711138299,0.0001990598547852731,-1.9936675553546507e-05,1.2354956362458054e-05,-0.0007247813553329071,0.0,0.0,0.0,0.0,0.0,0.0,0.0,-2.4319210073411868e-05,-3.3043365891272103e-06,3.6456102723708694e-06,-9.417383294341164e-05,-3.0531133177191805e-16,-7.121335907633863e-07,3.7638346352952823e-06,2.471543500067136e-05,0.0009461773755924376,0.0006524074711138299,-0.0001990598547852731,1.9936675553546507e-05,-1.2354956362458054e-05,0.0007247813553329071,0.5299312472343445,47.17086410522461,1.2163360118865967,-20.923799514770508,-0.5642600655555725,-2.3266634941101074,0.30337852239608765,0
61,0.30004048347473145,-0.5021602511405945,-47.17086410522461,-1.2917144298553467,20.975374221801758,0.5523582100868225,2.3138461112976074,-0.34457725286483765,0.0,0.0,0.0,0.0,0.0,0.0,0.0,-0.53880627407608,-0.41294689921174077,-0.388496826769444,0.5348984639926505,-0.01418112903094935,0.11097606194639648,-0.3219978620703047,0.06228610307657928,0.6884212848038931,-0.07863773119240455,-1.6209467247243512,0.028168668131033577,2.287833497065085,0.8466375075909827,0.06226373270833701,0.6884179775783729,-0.07863937525950354,-1.6210372792796082,0.028167345702647853,2.2878312372101677,0.8466366937888992,-0.0009278011684552853,-0.0008940735168525819,0.0013314895551390297,-0.0008356229048982572,0.0002753742917600475,0.0005629282048057493,0.0010972153671377509,0.0,0.0,0.0,0.0,0.0,0.0,0.0,-2.2370368242270733e-05,-3.3072255202215572e-06,-1.6440670989881223e-06,-9.055455525697198e-05,-1.3224283857242447e-06,-2.2598549174190907e-06,-8.138020834991266e-07,0.0009278011684552853,0.0008940735168525819,-0.0013314895551390297,0.0008356229048982572,-0.0002753742917600475,-0.0005629282048057493,-0.0010972153671377509,0.5021602511405945,47.17086410522461,1.2917144298553467,-20.975374221801758,-0.5523582100868225,-2.3138461112976074,0.34457725286483765,0
62,0.30501484870910645,-0.5021602511405945,-47.17086410522461,-1.2917144298553467,20.975374221801758,0.5523582100868225,2.3138461112976074,-0.34457725286483765,0.0,0.0,0.0,0.0,0.0,0.0,0.0,-0.53880627407608,-0.41294689921174077,-0.388496826769444,0.5348984639926505,-0.01418112903094935,0.11097606194639648,-0.3219978620703047,0.06228610307657928,0.6884212848038931,-0.07863773119240455,-1.6209467247243512,0.028168668131033577,2.287833497065085,0.8466375075909827,0.06226373270833701,0.6884179775783729,-0.07863937525950354,-1.6210372792796082,0.028167345702647853,2.2878312372101677,0.8466366937888992,-0.0009278011684552853,-0.0008940735168525819,0.0013314895551390297,-0.0008356229048982572,0.0002753742917600475,0.0005629282048057493,0.0010972153671377509,0.0,0.0,0.0,0.0,0.0,0.0,0.0,-2.2370368242270733e-05,-3.3072255202215572e-06,-1.6440670989881223e-06,-9.055455525697198e-05,-1.3224283857242447e-06,-2.2598549174190907e-06,-8.138020834991266e-07,0.0009278011684552853,0.0008940735168525819,-0.0013314895551390297,0.0008356229048982572,-0.0002753742917600475,-0.0005629282048057493,-0.0010972153671377509,0.5021602511405945,47.17086410522461,1.2917144298553467,-20.975374221801758,-0.5523582100868225,-2.3138461112976074,0.34457725286483765,0
63,0.3100414276123047,-0.5021602511405945,-47.17086410522461,-1.2917144298553467,20.975374221801758,0.5523582100868225,2.3138461112976074,-0.34457725286483765,0.0,0.0,0.0,0.0,0.0,0.0,0.0,-0.53880627407608,-0.41294689921174077,-0.388496826769444,0.5348984639926505,-0.01418112903094935,0.11097606194639648,-0.3219978620703047,0.06228610307657928,0.6884212848038931,-0.07863773119240455,-1.6209467247243512,0.028168668131033577,2.287833497065085,0.8466375075909827,0.06226373270833701,0.6884179775783729,-0.07863937525950354,-1.6210372792796082,0.028167345702647853,2.2878312372101677,0.8466366937888992,-0.0009278011684552853,-0.0008940735168525819,0.0013314895551390297,-0.0008356229048982572,0.0002753742917600475,0.0005629282048057493,0.0010972153671377509,0.0,0.0,0.0,0.0,0.0,0.0,0.0,-2.2370368242270733e-05,-3.3072255202215572e-06,-1.6440670989881223e-06,-9.055455525697198e-05,-1.3224283857242447e-06,-2.2598549174190907e-06,-8.138020834991266e-07,0.0009278011684552853,0.0008940735168525819,-0.0013314895551390297,0.0008356229048982572,-0.0002753742917600475,-0.0005629282048057493,-0.0010972153671377509,0.5021602511405945,47.17086410522461,1.2917144298553467,-20.975374221801758,-0.5523582100868225,-2.3138461112976074,0.34457725286483765,0
64,0.315021276473999,-0.5021602511405945,-47.17086410522461,-1.2917144298553467,20.975374221801758,0.5523582100868225,2.3138461112976074,-0.34457725286483765,0.0,0.0,0.0,0.0,0.0,0.0,0.0,-0.53880627407608,-0.41294689921174077,-0.388496826769444,0.5348984639926505,-0.01418112903094935,0.11097606194639648,-0.3219978620703047,0.06228610307657928,0.6884212848038931,-0.07863773119240455,-1.6209467247243512,0.028168668131033577,2.287833497065085,0.8466375075909827,0.06226373270833701,0.6884179775783729,-0.07863937525950354,-1.6210372792796082,0.028167345702647853,2.2878312372101677,0.8466366937888992,-0.0009278011684552853,-0.0008940735168525819,0.0013314895551390297,-0.0008356229048982572,0.0002753742917600475,0.0005629282048057493,0.0010972153671377509,0.0,0.0,0.0,0.0,0.0,0.0,0.0,-2.2370368242270733e-05,-3.3072255202215572e-06,-1.6440670989881223e-06,-9.055455525697198e-05,-1.3224283857242447e-06,-2.2598549174190907e-06,-8.138020834991266e-07,0.0009278011684552853,0.0008940735168525819,-0.0013314895551390297,0.0008356229048982572,-0.0002753742917600475,-0.0005629282048057493,-0.0010972153671377509,0.5021602511405945,47.17086410522461,1.2917144298553467,-20.975374221801758,-0.5523582100868225,-2.3138461112976074,0.34457725286483765,0
65,0.32002925872802734,-0.5537349581718445,-47.19466781616211,-1.2679107189178467,20.923799514770508,0.5523582100868225,2.3202548027038574,-0.29605430364608765,0.0,0.0,0.0,0.0,0.0,0.0,0.0,-0.5460256349138339,-0.4020858069077864,-0.39368720725775574,0.5287685887240795,-0.014962091725610738,0.10989036320303981,-0.3217756485667038,0.06228972235426568,0.6884229523508334,-0.07863905884023091,-1.6209431054466648,0.028168668131033577,2.287837487296683,0.8466321161521806,0.06226373270833701,0.6884179775783729,-0.07863937525950354,-1.6210372792796082,0.028167345702647853,2.2878312372101677,0.8466366937888992,-5.466225369111093e-05,7.50208741854393e-05,9.66770404313544e-05,0.0006190775965734571,0.0001730249597887042,0.0004898360917822045,-0.0009261767416237044,0.0,0.0,0.0,0.0,0.0,0.0,0.0,-2.598964592866876e-05,-4.974772460530907e-06,-3.16419272630708e-07,-9.417383294341164e-05,-1.3224283857242447e-06,-6.250086515446895e-06,4.577636718572364e-06,5.466225369111093e-05,-7.50208741854393e-05,-9.66770404313544e-05,-0.0006190775965734571,-0.0001730249597887042,-0.0004898360917822045,0.0009261767416237044,0.5537349581718445,47.19466781616211,1.2679107189178467,-20.923799514770508,-0.5523582100868225,-2.3202548027038574,0.29605430364608765,0
66,0.32500743865966797,-0.5537349581718445,-47.19466781616211,-1.2679107189178467,20.923799514770508,0.5523582100868225,2.3202548027038574,-0.29605430364608765,0.0,0.0,0.0,0.0,0.0,0.0,0.0,-0.5460256349138339,-0.4020858069077864,-0.39368720725775574,0.5287685887240795,-0.014962091725610738,0.10989036320303981,-0.3217756485667038,0.06228972235426568,0.6884229523508334,-0.07863905884023091,-1.6209431054466648,0.028168668131033577,2.287837487296683,0.8466321161521806,0.06226373270833701,0.6884179775783729,-0.07863937525950354,-1.6210372792796082,0.028167345702647853,2.2878312372101677,0.8466366937888992,-5.466225369111093e-05,7.50208741854393e-05,9.66770404313544e-05,0.0006190775965734571,0.0001730249597887042,0.0004898360917822045,-0.0009261767416237044,0.0,0.0,0.0,0.0,0.0,0.0,0.0,-2.598964592866876e-05,-4.974772460530907e-06,-3.16419272630708e-07,-9.417383294341164e-05,-1.3224283857242447e-06,-6.250086515446895e-06,4.577636718572364e-06,5.466225369111093e-05,-7.50208741854393e-05,-9.66770404313544e-05,-0.0006190775965734571,-0.0001730249597887042,-0.0004898360917822045,0.0009261767416237044,0.5537349581718445,47.19466781616211,1.2679107189178467,-20.923799514770508,-0.5523582100868225,-2.3202548027038574,0.29605430364608765,0
67,0.3300011157989502,-0.5537349581718445,-47.19466781616211,-1.2917144298553467,20.975374221801758,0.5642600655555725,2.3394808769226074,-0.33084434270858765,0.0,0.0,0.0,0.0,0.0,0.0,0.0,-0.5292013445305921,-0.4007653231411442,-0.3810394375753468,0.5283301618818003,-0.01613603963996005,0.11004843242439398,-0.32171380900759056,0.06228972235426568,0.6884229523508172,-0.07863773119046971,-1.6209467247243512,0.02816734570264816,2.2878306487850355,0.8466359817120764,0.06226373270833701,0.6884179775783729,-0.07863937525950354,-1.6210372792796082,0.028167345702647853,2.2878312372101677,0.8466366937888992,0.0004416599314222397,0.00043091635966436556,0.0007507410237867711,-0.00112796164343262,-7.698602630145797e-05,-0.0001772612331255894,0.0005274956664878984,0.0,0.0,0.0,0.0,0.0,0.0,0.0,-2.598964592866876e-05,-4.974772444321651e-06,-1.6440690338292985e-06,-9.055455525697198e-05,-3.0531133177191805e-16,5.884251321752743e-07,7.120768227286689e-07,-0.0004416599314222397,-0.00043091635966436556,-0.0007507410237867711,0.00112796164343262,7.698602630145797e-05,0.0001772612331255894,-0.0005274956664878984,0.5537349581718445,47.19466781616211,1.2917144298553467,-20.975374221801758,-0.5642600655555725,-2.3394808769226074,0.33084434270858765,0
68,0.33499789237976074,-0.5537349581718445,-47.19466781616211,-1.2917144298553467,20.975374221801758,0.5642600655555725,2.3394808769226074,-0.33084434270858765,0.0,0.0,0.0,0.0,0.0,0.0,0.0,-0.5292013445305921,-0.4007653231411442,-0.3810394375753468,0.5283301618818003,-0.01613603963996005,0.11004843242439398,-0.32171380900759056,0.06228972235426568,0.6884229523508172,-0.07863773119046971,-1.6209467247243512,0.02816734570264816,2.2878306487850355,0.8466359817120764,0.06226373270833701,0.6884179775783729,-0.07863937525950354,-1.6210372792796082,0.028167345702647853,2.2878312372101677,0.8466366937888992,0.0004416599314222397,0.00043091635966436556,0.0007507410237867711,-0.00112796164343262,-7.698602630145797e-05,-0.0001772612331255894,0.0005274956664878984,0.0,0.0,0.0,0.0,0.0,0.0,0.0,-2.598964592866876e-05,-4.974772444321651e-06,-1.6440690338292985e-06,-9.055455525697198e-05,-3.0531133177191805e-16,5.884251321752743e-07,7.120768227286689e-07,-0.0004416599314222397,-0.00043091635966436556,-0.0007507410237867711,0.00112796164343262,7.698602630145797e-05,0.0001772612331255894,-0.0005274956664878984,0.5537349581718445,47.19466781616211,1.2917144298553467,-20.975374221801758,-0.5642600655555725,-2.3394808769226074,0.33084434270858765,0
69,0.3400704860687256,-0.5299312472343445,-47.17086410522461,-1.2679107189178467,20.899995803833008,0.5523582100868225,2.3202548027038574,-0.32352012395858765,0.0,0.0,0.0,0.0,0.0,0.0,0.0,-0.5355281536596138,-0.3987039117450387,-0.3890990142463033,0.5288607017554653,-0.016395681979495882,0.11041911869440149,-0.3225789130687467,0.062288048995411724,0.688421281914962,-0.07863916431347064,-1.6209414350108093,0.028168668131033577,2.287833032237857,0.8466351674254763,0.06226373270833701,0.6884179775783729,-0.07863937525950354,-1.6210372792796082,0.028167345702647853,2.2878312372101677,0.8466366937888992,-2.71874005925691e-05,-0.0002605385138213313,-0.00010633422248149517,0.0008051900093546305,0.0002582097110273464,0.00010934445353985932,2.045903366959202e-05,0.0,0.0,0.0,0.0,0.0,0.0,0.0,-2.4316287074714615e-05,-3.3043365891272103e-06,-2.1094603290527925e-07,-9.584426879882812e-05,-1.3224283857242447e-06,-1.795027689155404e-06,1.5263634228768197e-06,2.71874005925691e-05,0.0002605385138213313,0.00010633422248149517,-0.0008051900093546305,-0.0002582097110273464,-0.00010934445353985932,-2.045903366959202e-05,0.5299312472343445,47.17086410522461,1.2679107189178467,-20.899995803833008,-0.5523582100868225,-2.3202548027038574,0.32352012395858765,0
70,0.34499406814575195,-0.5299312472343445,-47.17086410522461,-1.2679107189178467,20.899995803833008,0.5523582100868225,2.3202548027038574,-0.32352012395858765,0.0,0.0,0.0,0.0,0.0,0.0,0.0,-0.5355281536596138,-0.3987039117450387,-0.3890990142463033,0.5288607017554653,-0.016395681979495882,0.11041911869440149,-0.3225789130687467,0.062288048995411724,0.688421281914962,-0.07863916431347064,-1.6209414350108093,0.028168668131033577,2.287833032237857,0.8466351674254763,0.06226373270833701,0.6884179775783729,-0.07863937525950354,-1.6210372792796082,0.028167345702647853,2.2878312372101677,0.8466366937888992,-2.71874005925691e-05,-0.0002605385138213313,-0.00010633422248149517,0.0008051900093546305,0.0002582097110273464,0.00010934445353985932,2.045903366959202e-05,0.0,0.0,0.0,0.0,0.0,0.0,0.0,-2.4316287074714615e-05,-3.3043365891272103e-06,-2.1094603290527925e-07,-9.584426879882812e-05,-1.3224283857242447e-06,-1.795027689155404e-06,1.5263634228768197e-06,2.71874005925691e-05,0.0002605385138213313,0.00010633422248149517,-0.0008051900093546305,-0.0002582097110273464,-0.00010934445353985932,-2.045903366959202e-05,0.5299312472343445,47.17086410522461,1.2679107189178467,-20.899995803833008,-0.5523582100868225,-2.3202548027038574,0.32352012395858765,0
71,0.3499946594238281,-0.5537349581718445,-47.17086410522461,-1.2679107189178467,20.923799514770508,0.5642600655555725,2.3266634941101074,-0.31711143255233765,0.0,0.0,0.0,0.0,0.0,0.0,0.0,-0.5237007266241253,-0.39663818914958343,-0.38462660353683925,0.5304487426993912,-0.017162662742041014,0.10985554242706283,-0.3240989825443463,0.06228972235424918,0.688421281914962,-0.07863916431213099,-1.6209431054466648,0.02816734570264816,2.2878319904972333,0.8466344558331673,0.06226373270833701,0.6884179775783729,-0.07863937525950354,-1.6210372792796082,0.028167345702647853,2.2878312372101677,0.8466366937888992,0.0008140436355790375,0.0001739166064116048,0.0006888661390032526,0.00034275100011357123,-0.00016785988824615048,-3.1038131653986226e-05,-0.0006985494628524314,0.0,0.0,0.0,0.0,0.0,0.0,0.0,-2.598964591216807e-05,-3.3043365891272103e-06,-2.109473725558919e-07,-9.417383294341164e-05,-3.0531133177191805e-16,-7.53287065613506e-07,2.2379557318430443e-06,-0.0008140436355790375,-0.0001739166064116048,-0.0006888661390032526,-0.00034275100011357123,0.00016785988824615048,3.1038131653986226e-05,0.0006985494628524314,0.5537349581718445,47.17086410522461,1.2679107189178467,-20.923799514770508,-0.5642600655555725,-2.3266634941101074,0.31711143255233765,0
72,0.3549950122833252,-0.5537349581718445,-47.17086410522461,-1.2679107189178467,20.923799514770508,0.5642600655555725,2.3266634941101074,-0.31711143255233765,0.0,0.0,0.0,0.0,0.0,0.0,0.0,-0.5237007266241253,-0.39663818914958343,-0.38462660353683925,0.5304487426993912,-0.017162662742041014,0.10985554242706283,-0.3240989825443463,0.06228972235424918,0.688421281914962,-0.07863916431213099,-1.6209431054466648,0.02816734570264816,2.2878319904972333,0.8466344558331673,0.06226373270833701,0.6884179775783729,-0.07863937525950354,-1.6210372792796082,0.028167345702647853,2.2878312372101677,0.8466366937888992,0.0008140436355790375,0.0001739166064116048,0.0006888661390032526,0.00034275100011357123,-0.00016785988824615048,-3.1038131653986226e-05,-0.0006985494628524314,0.0,0.0,0.0,0.0,0.0,0.0,0.0,-2.598964591216807e-05,-3.3043365891272103e-06,-2.109473725558919e-07,-9.417383294341164e-05,-3.0531133177191805e-16,-7.53287065613506e-07,2.2379557318430443e-06,-0.0008140436355790375,-0.0001739166064116048,-0.0006888661390032526,-0.00034275100011357123,0.00016785988824615048,3.1038131653986226e-05,0.0006985494628524314,0.5537349581718445,47.17086410522461,1.2679107189178467,-20.923799514770508,-0.5642600655555725,-2.3266634941101074,0.31711143255233765,0
73,0.3600003719329834,-0.5537349581718445,-47.17086410522461,-1.2917144298553467,20.899995803833008,0.5578513741493225,2.3138461112976074,-0.34457725286483765,0.0,0.0,0.0,0.0,0.0,0.0,0.0,-0.5365529717838192,-0.4043805954747015,-0.39565276459769155,0.5352094893584932,-0.016935561015770265,0.10962252091053082,-0.3256853837714198,0.06228972235426568,0.688421281914962,-0.07863773086553041,-1.6209414350108093,0.028168057779471074,2.2878338694648903,0.8466375075909827,0.06226373270833701,0.6884179775783729,-0.07863937525950354,-1.6210372792796082,0.028167345702647853,2.2878312372101677,0.8466366937888992,0.0006658977684362897,-0.0002962871888062669,0.000847937614308085,0.0008870218552166366,0.00013701331670682319,0.0005113080813981335,0.0007514723222940382,0.0,0.0,0.0,0.0,0.0,0.0,0.0,-2.598964592866876e-05,-3.3043365891272103e-06,-1.6443939731269896e-06,-9.584426879882812e-05,-7.120768232213304e-07,-2.6322547226342863e-06,-8.138020834991266e-07,-0.0006658977684362897,0.0002962871888062669,-0.000847937614308085,-0.0008870218552166366,-0.00013701331670682319,-0.0005113080813981335,-0.0007514723222940382,0.5537349581718445,47.17086410522461,1.2917144298553467,-20.899995803833008,-0.5578513741493225,-2.3138461112976074,0.34457725286483765,0
74,0.3650088310241699,-0.5537349581718445,-47.17086410522461,-1.2917144298553467,20.899995803833008,0.5578513741493225,2.3138461112976074,-0.34457725286483765,0.0,0.0,0.0,0.0,0.0,0.0,0.0,-0.5365529717838192,-0.4043805954747015,-0.39565276459769155,0.5352094893584932,-0.016935561015770265,0.10962252091053082,-0.3256853837714198,0.06228972235426568,0.688421281914962,-0.07863773086553041,-1.6209414350108093,0.028168057779471074,2.2878338694648903,0.8466375075909827,0.06226373270833701,0.6884179775783729,-0.07863937525950354,-1.6210372792796082,0.028167345702647853,2.2878312372101677,0.8466366937888992,0.0006658977684362897,-0.0002962871888062669,0.000847937614308085,0.0008870218552166366,0.00013701331670682319,0.0005113080813981335,0.0007514723222940382,0.0,0.0,0.0,0.0,0.0,0.0,0.0,-2.598964592866876e-05,-3.3043365891272103e-06,-1.6443939731269896e-06,-9.584426879882812e-05,-7.120768232213304e-07,-2.6322547226342863e-06,-8.138020834991266e-07,-0.0006658977684362897,0.0002962871888062669,-0.000847937614308085,-0.0008870218552166366,-0.00013701331670682319,-0.0005113080813981335,-0.0007514723222940382,0.5537349581718445,47.17086410522461,1.2917144298553467,-20.899995803833008,-0.5578513741493225,-2.3138461112976074,0.34457725286483765,0
75,0.3700287342071533,-0.5299312472343445,-47.17086410522461,-1.2679107189178467,20.923799514770508,0.5459495186805725,2.3330721855163574,-0.28964561223983765,0.0,0.0,0.0,0.0,0.0,0.0,0.0,-0.5257749326894523,-0.4021077424949193,-0.3884389084184648,0.5317020678260704,-0.01711834833956433,0.10893692736461986,-0.3260704781496762,0.06228805191841042,0.688421281914962,-0.07863940130272348,-1.6209431054466648,0.028169378746357145,2.287831379208676,0.8466314040753576,0.06226373270833701,0.6884179775783729,-0.07863937525950354,-1.6210372792796082,0.028167345702647853,2.2878312372101677,0.8466366937888992,-2.66255024550254e-05,-0.0006901874686079416,0.0002937677837022228,0.00019451984965695743,0.000604868953243039,-9.433993809005115e-05,-0.0015099884014293458,0.0,0.0,0.0,0.0,0.0,0.0,0.0,-2.4319210073411868e-05,-3.3043365891272103e-06,2.6043219941707108e-08,-9.417383294341164e-05,-2.0330437092916376e-06,-1.4199850850715734e-07,5.289713541523078e-06,2.66255024550254e-05,0.0006901874686079416,-0.0002937677837022228,-0.00019451984965695743,-0.000604868953243039,9.433993809005115e-05,0.0015099884014293458,0.5299312472343445,47.17086410522461,1.2679107189178467,-20.923799514770508,-0.5459495186805725,-2.3330721855163574,0.28964561223983765,0
76,0.37502384185791016,-0.5299312472343445,-47.17086410522461,-1.2679107189178467,20.923799514770508,0.5459495186805725,2.3330721855163574,-0.28964561223983765,0.0,0.0,0.0,0.0,0.0,0.0,0.0,-0.5257749326894523,-0.4021077424949193,-0.3884389084184648,0.5317020678260704,-0.01711834833956433,0.10893692736461986,-0.3260704781496762,0.06228805191841042,0.688421281914962,-0.07863940130272348,-1.6209431054466648,0.028169378746357145,2.287831379208676,0.8466314040753576,0.06226373270833701,0.6884179775783729,-0.07863937525950354,-1.6210372792796082,0.028167345702647853,2.2878312372101677,0.8466366937888992,-2.66255024550254e-05,-0.0006901874686079416,0.0002937677837022228,0.00019451984965695743,0.000604868953243039,-9.433993809005115e-05,-0.0015099884014293458,0.0,0.0,0.0,0.0,0.0,0.0,0.0,-2.4319210073411868e-05,-3.3043365891272103e-06,2.6043219941707108e-08,-9.417383294341164e-05,-2.0330437092916376e-06,-1.4199850850715734e-07,5.289713541523078e-06,2.66255024550254e-05,0.0006901874686079416,-0.0002937677837022228,-0.00019451984965695743,-0.000604868953243039,9.433993809005115e-05,0.0015099884014293458,0.5299312472343445,47.17086410522461,1.2679107189178467,-20.923799514770508,-0.5459495186805725,-2.3330721855163574,0.28964561223983765,0
77,0.37999916076660156,-0.5299312472343445,-47.17086410522461,-1.2401397228240967,20.975374221801758,0.5578513741493225,2.3266634941101074,-0.33725303411483765,0.0,0.0,0.0,0.0,0.0,0.0,0.0,-0.5257838523152788,-0.40194953310513304,-0.38881166528236843,0.5306591464247586,-0.01750848444937179,0.10949238211313721,-0.32558415261826307,0.06228805191841042,0.688421281914962,-0.07864134754027712,-1.6209467247243512,0.028168057779462824,2.287831949287792,0.8466366937888993,0.06226373270833701,0.6884179775783729,-0.07863937525950354,-1.6210372792796082,0.028167345702647853,2.2878312372101677,0.8466366937888992,-1.35329151271794e-05,-0.0007081503331171798,-0.000316099461052144,-0.0007555044286556758,-3.476138754352991e-05,-2.8798420145828075e-05,-0.003163743684708069,0.0,0.0,0.0,0.0,0.0,0.0,0.0,-2.4319210073411868e-05,-3.3043365891272103e-06,1.97228077357392e-06,-9.055455525697198e-05,-7.120768149709855e-07,-7.12077624420715e-07,-1.1102230246251565e-16,1.35329151271794e-05,0.0007081503331171798,0.000316099461052144,0.0007555044286556758,3.476138754352991e-05,2.8798420145828075e-05,0.003163743684708069,0.5299312472343445,47.17086410522461,1.2401397228240967,-20.975374221801758,-0.5578513741493225,-2.3266634941101074,0.33725303411483765,0
78,0.3850080966949463,-0.5299312472343445,-47.17086410522461,-1.2401397228240967,20.975374221801758,0.5578513741493225,2.3266634941101074,-0.33725303411483765,0.0,0.0,0.0,0.0,0.0,0.0,0.0,-0.5257838523152788,-0.40194953310513304,-0.38881166528236843,0.5306591464247586,-0.01750848444937179,0.10949238211313721,-0.32558415261826307,0.06228805191841042,0.688421281914962,-0.07864134754027712,-1.6209467247243512,0.028168057779462824,2.287831949287792,0.8466366937888993,0.06226373270833701,0.6884179775783729,-0.07863937525950354,-1.6210372792796082,0.028167345702647853,2.2878312372101677,0.8466366937888992,-1.35329151271794e-05,-0.0007081503331171798,-0.000316099461052144,-0.0007555044286556758,-3.476138754352991e-05,-2.8798420145828075e-05,-0.003163743684708069,0.0,0.0,0.0,0.0,0.0,0.0,0.0,-2.4319210073411868e-05,-3.3043365891272103e-06,1.97228077357392e-06,-9.055455525697198e-05,-7.120768149709855e-07,-7.12077624420715e-07,-1.1102230246251565e-16,1.35329151271794e-05,0.0007081503331171798,0.000316099461052144,0.0007555044286556758,3.476138754352991e-05,2.8798420145828075e-05,0.003163743684708069,0.5299312472343445,47.17086410522461,1.2401397228240967,-20.975374221801758,-0.5578513741493225,-2.3266634941101074,0.33725303411483765,0
79,0.3900187015533447,-0.5299312472343445,-47.19466781616211,-1.2917144298553467,20.947603225708008,0.5697532296180725,2.3330721855163574,-0.35098594427108765,0.0,0.0,0.0,0.0,0.0,0.0,0.0,-0.5259140857335092,-0.3970315563806102,-0.38850066070076733,0.528615909746499,-0.017307198358946247,0.10870874294129756,-0.32462275940133345,0.06228805191841042,0.6884229523508172,-0.07863772240295158,-1.62094477588252,0.02816673535108566,2.287834575239856,0.8466382196678056,0.06226373270833701,0.6884179775783729,-0.07863937525950354,-1.6210372792796082,0.028167345702647853,2.2878312372101677,0.8466366937888992,0.00015506516736555728,0.0003245574474444787,0.0009521751242901985,-0.0002941733318693198,-0.0007735485157449472,-0.00026066041449762477,0.0010757003871071204,0.0,0.0,0.0,0.0,0.0,0.0,0.0,-2.4319210073411868e-05,-4.974772444321651e-06,-1.6528565519591254e-06,-9.25033970882172e-05,6.103515621941336e-07,-3.3380296882157268e-06,-1.5258789064498401e-06,-0.00015506516736555728,-0.0003245574474444787,-0.0009521751242901985,0.0002941733318693198,0.0007735485157449472,0.00026066041449762477,-0.0010757003871071204,0.5299312472343445,47.19466781616211,1.2917144298553467,-20.947603225708008,-0.5697532296180725,-2.3330721855163574,0.35098594427108765,0
