rezayati/contactInterpretation/dataset/franka_main/labeled_data/link2/f4_3.csv
index,time,tau_J0,tau_J1,tau_J2,tau_J3,tau_J4,tau_J5,tau_J6,tau_J_d0,tau_J_d1,tau_J_d2,tau_J_d3,tau_J_d4,tau_J_d5,tau_J_d6,tau_ext0,tau_ext1,tau_ext2,tau_ext3,tau_ext4,tau_ext5,tau_ext6,q0,q1,q2,q3,q4,q5,q6,q_d0,q_d1,q_d2,q_d3,q_d4,q_d5,q_d6,dq0,dq1,dq2,dq3,dq4,dq5,dq6,dq_d0,dq_d1,dq_d2,dq_d3,dq_d4,dq_d5,dq_d6,e0,e1,e2,e3,e4,e5,e6,de0,de1,de2,de3,de4,de5,de6,etau_J0,etau_J1,etau_J2,etau_J3,etau_J4,etau_J5,etau_J6,label
1,0.0,-0.3236324191093445,-34.03915023803711,-4.148159503936768,19.261507034301758,0.1714988350868225,1.777347207069397,-0.12485067546367645,0.0,0.0,0.0,0.0,0.0,0.0,0.0,-0.2900870209399312,0.007140733527365872,-0.531177048022442,0.2239134678033182,0.11771605981119686,-0.12522264642727288,-0.1540277670888091,1.0544140981274626,0.32386317504497997,-0.3925007087389628,-2.1532967988399037,0.8647530870071962,2.46587817577521,0.5444955669956814,1.0544104758940245,0.3238615046091247,-0.39250456234122666,-2.153291787532338,0.8647539153680389,2.46587817577521,0.5445020185570556,0.0007421925141577473,-0.0004829337396420364,0.0014334596148115693,-9.718528763330003e-05,-3.879872399941067e-05,0.00017891422176182693,-0.0009176038640820541,0.0,0.0,0.0,0.0,0.0,0.0,0.0,-3.6222334380831e-06,-1.670435855249952e-06,-3.8536022638480105e-06,5.011307565805367e-06,8.283608426973288e-07,0.0,6.4515613742432976e-06,-0.0007421925141577473,0.0004829337396420364,-0.0014334596148115693,9.718528763330003e-05,3.879872399941067e-05,-0.00017891422176182693,0.0009176038640820541,0.3236324191093445,34.03915023803711,4.148159503936768,-19.261507034301758,-0.1714988350868225,-1.777347207069397,0.12485067546367645,0
2,0.004999876022338867,-0.3236324191093445,-34.03915023803711,-4.148159503936768,19.261507034301758,0.1714988350868225,1.777347207069397,-0.12485067546367645,0.0,0.0,0.0,0.0,0.0,0.0,0.0,-0.2900870209399312,0.007140733527365872,-0.531177048022442,0.2239134678033182,0.11771605981119686,-0.12522264642727288,-0.1540277670888091,1.0544140981274626,0.32386317504497997,-0.3925007087389628,-2.1532967988399037,0.8647530870071962,2.46587817577521,0.5444955669956814,1.0544104758940245,0.3238615046091247,-0.39250456234122666,-2.153291787532338,0.8647539153680389,2.46587817577521,0.5445020185570556,0.0007421925141577473,-0.0004829337396420364,0.0014334596148115693,-9.718528763330003e-05,-3.879872399941067e-05,0.00017891422176182693,-0.0009176038640820541,0.0,0.0,0.0,0.0,0.0,0.0,0.0,-3.6222334380831e-06,-1.670435855249952e-06,-3.8536022638480105e-06,5.011307565805367e-06,8.283608426973288e-07,0.0,6.4515613742432976e-06,-0.0007421925141577473,0.0004829337396420364,-0.0014334596148115693,9.718528763330003e-05,3.879872399941067e-05,-0.00017891422176182693,0.0009176038640820541,0.3236324191093445,34.03915023803711,4.148159503936768,-19.261507034301758,-0.1714988350868225,-1.777347207069397,0.12485067546367645,0
3,0.009996414184570312,-0.2998287081718445,-33.99154281616211,-4.048977375030518,19.261507034301758,0.1650901436805725,1.783755898475647,-0.11111776530742645,0.0,0.0,0.0,0.0,0.0,0.0,0.0,-0.28697254962325275,-0.00012653971519119162,-0.5308573038261372,0.2285001264958244,0.11774979147696263,-0.1249284225386922,-0.15368207964987898,1.0544124600571434,0.3238598341732694,-0.39250695363262245,-2.1532967988399037,0.8647537976304771,2.465877463698387,0.5444941590157767,1.0544104758940245,0.3238615046091247,-0.39250456234122666,-2.153291787532338,0.8647539153680389,2.46587817577521,0.5445020185570556,0.0003367735078072209,-0.0019613306915601788,-0.001096518872562967,5.4707880031636325e-05,0.00021583455433698908,-7.767828844838696e-05,-0.0019341459583330654,0.0,0.0,0.0,0.0,0.0,0.0,0.0,-1.9841631189176923e-06,1.6704358553054632e-06,2.3912913957868653e-06,5.011307565805367e-06,1.1773756181110429e-07,7.120768228396912e-07,7.859541278909532e-06,-0.0003367735078072209,0.0019613306915601788,0.001096518872562967,-5.4707880031636325e-05,-0.00021583455433698908,7.767828844838696e-05,0.0019341459583330654,0.2998287081718445,33.99154281616211,4.048977375030518,-19.261507034301758,-0.1650901436805725,-1.783755898475647,0.11111776530742645,0
4,0.01499319076538086,-0.2998287081718445,-33.99154281616211,-4.048977375030518,19.261507034301758,0.1650901436805725,1.783755898475647,-0.11111776530742645,0.0,0.0,0.0,0.0,0.0,0.0,0.0,-0.28697254962325275,-0.00012653971519119162,-0.5308573038261372,0.2285001264958244,0.11774979147696263,-0.1249284225386922,-0.15368207964987898,1.0544124600571434,0.3238598341732694,-0.39250695363262245,-2.1532967988399037,0.8647537976304771,2.465877463698387,0.5444941590157767,1.0544104758940245,0.3238615046091247,-0.39250456234122666,-2.153291787532338,0.8647539153680389,2.46587817577521,0.5445020185570556,0.0003367735078072209,-0.0019613306915601788,-0.001096518872562967,5.4707880031636325e-05,0.00021583455433698908,-7.767828844838696e-05,-0.0019341459583330654,0.0,0.0,0.0,0.0,0.0,0.0,0.0,-1.9841631189176923e-06,1.6704358553054632e-06,2.3912913957868653e-06,5.011307565805367e-06,1.1773756181110429e-07,7.120768228396912e-07,7.859541278909532e-06,-0.0003367735078072209,0.0019613306915601788,0.001096518872562967,-5.4707880031636325e-05,-0.00021583455433698908,7.767828844838696e-05,0.0019341459583330654,0.2998287081718445,33.99154281616211,4.048977375030518,-19.261507034301758,-0.1650901436805725,-1.783755898475647,0.11111776530742645,0
5,0.01999688148498535,-0.2720577120780945,-34.03915023803711,-4.072781085968018,19.289278030395508,0.1714988350868225,1.783755898475647,-0.15964071452617645,0.0,0.0,0.0,0.0,0.0,0.0,0.0,-0.2899442537563966,0.0017495594386665596,-0.5330668677537972,0.23005792454670027,0.11781534714232574,-0.12466730599825032,-0.15481837050577846,1.0544127276252486,0.32386317504497997,-0.39250573059549526,-2.1532987476817347,0.864753085553646,2.465877463698387,0.5444994718020254,1.0544104758940245,0.3238615046091247,-0.39250456234122666,-2.153291787532338,0.8647539153680389,2.46587817577521,0.5445020185570556,-0.00040838226043877243,-0.00040935073554273035,-0.0005964717983837077,-0.0002288759987069789,-2.9749573321168866e-05,-3.325658102719943e-05,9.888247422009514e-05,0.0,0.0,0.0,0.0,0.0,0.0,0.0,-2.251731224145459e-06,-1.670435855249952e-06,1.1682542686020092e-06,6.960149396828541e-06,8.298143928664459e-07,7.120768228396912e-07,2.5467550301971897e-06,0.00040838226043877243,0.00040935073554273035,0.0005964717983837077,0.0002288759987069789,2.9749573321168866e-05,3.325658102719943e-05,-9.888247422009514e-05,0.2720577120780945,34.03915023803711,4.072781085968018,-19.289278030395508,-0.1714988350868225,-1.783755898475647,0.15964071452617645,0
6,0.0250093936920166,-0.2720577120780945,-34.03915023803711,-4.072781085968018,19.289278030395508,0.1714988350868225,1.783755898475647,-0.15964071452617645,0.0,0.0,0.0,0.0,0.0,0.0,0.0,-0.2899442537563966,0.0017495594386665596,-0.5330668677537972,0.23005792454670027,0.11781534714232574,-0.12466730599825032,-0.15481837050577846,1.0544127276252486,0.32386317504497997,-0.39250573059549526,-2.1532987476817347,0.864753085553646,2.465877463698387,0.5444994718020254,1.0544104758940245,0.3238615046091247,-0.39250456234122666,-2.153291787532338,0.8647539153680389,2.46587817577521,0.5445020185570556,-0.00040838226043877243,-0.00040935073554273035,-0.0005964717983837077,-0.0002288759987069789,-2.9749573321168866e-05,-3.325658102719943e-05,9.888247422009514e-05,0.0,0.0,0.0,0.0,0.0,0.0,0.0,-2.251731224145459e-06,-1.670435855249952e-06,1.1682542686020092e-06,6.960149396828541e-06,8.298143928664459e-07,7.120768228396912e-07,2.5467550301971897e-06,0.00040838226043877243,0.00040935073554273035,0.0005964717983837077,0.0002288759987069789,2.9749573321168866e-05,3.325658102719943e-05,-9.888247422009514e-05,0.2720577120780945,34.03915023803711,4.072781085968018,-19.289278030395508,-0.1714988350868225,-1.783755898475647,0.15964071452617645,0
7,0.030010700225830078,-0.3236324191093445,-34.06295394897461,-4.072781085968018,19.261507034301758,0.1769919991493225,1.777347207069397,-0.15964071452617645,0.0,0.0,0.0,0.0,0.0,0.0,0.0,-0.28991729390056276,-0.002314749716841124,-0.5328746962721572,0.2327977586903137,0.11793777121255385,-0.12447869358816566,-0.15457635885165308,1.0544141216753753,0.3238648454808352,-0.3925038526837805,-2.1532967988399037,0.8647524752020835,2.46587817577521,0.5444994761622322,1.0544104758940245,0.3238615046091247,-0.39250456234122666,-2.153291787532338,0.8647539153680389,2.46587817577521,0.5445020185570556,0.0010001801879810635,-0.00019114116019568707,-0.00025998787785484913,0.00011425030308384402,-0.0001210553614723935,-9.842821172623789e-06,0.00015135629479074727,0.0,0.0,0.0,0.0,0.0,0.0,0.0,-3.645781350813948e-06,-3.340871710499904e-06,-7.096574461407101e-07,5.011307565805367e-06,1.4401659553797685e-06,0.0,2.5423948234459814e-06,-0.0010001801879810635,0.00019114116019568707,0.00025998787785484913,-0.00011425030308384402,0.0001210553614723935,9.842821172623789e-06,-0.00015135629479074727,0.3236324191093445,34.06295394897461,4.072781085968018,-19.261507034301758,-0.1769919991493225,-1.777347207069397,0.15964071452617645,0
8,0.035002708435058594,-0.3236324191093445,-34.06295394897461,-4.072781085968018,19.261507034301758,0.1769919991493225,1.777347207069397,-0.15964071452617645,0.0,0.0,0.0,0.0,0.0,0.0,0.0,-0.28991729390056276,-0.002314749716841124,-0.5328746962721572,0.2327977586903137,0.11793777121255385,-0.12447869358816566,-0.15457635885165308,1.0544141216753753,0.3238648454808352,-0.3925038526837805,-2.1532967988399037,0.8647524752020835,2.46587817577521,0.5444994761622322,1.0544104758940245,0.3238615046091247,-0.39250456234122666,-2.153291787532338,0.8647539153680389,2.46587817577521,0.5445020185570556,0.0010001801879810635,-0.00019114116019568707,-0.00025998787785484913,0.00011425030308384402,-0.0001210553614723935,-9.842821172623789e-06,0.00015135629479074727,0.0,0.0,0.0,0.0,0.0,0.0,0.0,-3.645781350813948e-06,-3.340871710499904e-06,-7.096574461407101e-07,5.011307565805367e-06,1.4401659553797685e-06,0.0,2.5423948234459814e-06,-0.0010001801879810635,0.00019114116019568707,0.00025998787785484913,-0.00011425030308384402,0.0001210553614723935,9.842821172623789e-06,-0.00015135629479074727,0.3236324191093445,34.06295394897461,4.072781085968018,-19.261507034301758,-0.1769919991493225,-1.777347207069397,0.15964071452617645,0
9,0.04000091552734375,-0.2998287081718445,-34.03915023803711,-4.096584796905518,19.237703323364258,0.1714988350868225,1.790164589881897,-0.18710653483867645,0.0,0.0,0.0,0.0,0.0,0.0,0.0,-0.2997973218385484,0.00222967304026429,-0.5397836354817465,0.22994093892727344,0.11878780504071407,-0.1245127876951899,-0.1541091387026459,1.0544131501302556,0.32386317504497997,-0.39250432789552,-2.1532951284040482,0.864753085553646,2.4658767516215643,0.544502484313562,1.0544104758940245,0.3238615046091247,-0.39250456234122666,-2.153291787532338,0.8647539153680389,2.46587817577521,0.5445020185570556,2.095818697905732e-05,-0.0005590217385195062,-0.0001040350947356501,0.0007363109290096637,0.00017089721646782114,-0.0006239858851488281,0.0010794362472610565,0.0,0.0,0.0,0.0,0.0,0.0,0.0,-2.6742362311260592e-06,-1.670435855249952e-06,-2.3444570668162967e-07,3.340871710388882e-06,8.298143928664459e-07,1.4241536456793824e-06,-4.6575650636260235e-07,-2.095818697905732e-05,0.0005590217385195062,0.0001040350947356501,-0.0007363109290096637,-0.00017089721646782114,0.0006239858851488281,-0.0010794362472610565,0.2998287081718445,34.03915023803711,4.096584796905518,-19.237703323364258,-0.1714988350868225,-1.790164589881897,0.18710653483867645,0
10,0.04499411582946777,-0.2998287081718445,-34.03915023803711,-4.096584796905518,19.237703323364258,0.1714988350868225,1.790164589881897,-0.18710653483867645,0.0,0.0,0.0,0.0,0.0,0.0,0.0,-0.2997973218385484,0.00222967304026429,-0.5397836354817465,0.22994093892727344,0.11878780504071407,-0.1245127876951899,-0.1541091387026459,1.0544131501302556,0.32386317504497997,-0.39250432789552,-2.1532951284040482,0.864753085553646,2.4658767516215643,0.544502484313562,1.0544104758940245,0.3238615046091247,-0.39250456234122666,-2.153291787532338,0.8647539153680389,2.46587817577521,0.5445020185570556,2.095818697905732e-05,-0.0005590217385195062,-0.0001040350947356501,0.0007363109290096637,0.00017089721646782114,-0.0006239858851488281,0.0010794362472610565,0.0,0.0,0.0,0.0,0.0,0.0,0.0,-2.6742362311260592e-06,-1.670435855249952e-06,-2.3444570668162967e-07,3.340871710388882e-06,8.298143928664459e-07,1.4241536456793824e-06,-4.6575650636260235e-07,-2.095818697905732e-05,0.0005590217385195062,0.0001040350947356501,-0.0007363109290096637,-0.00017089721646782114,0.0006239858851488281,-0.0010794362472610565,0.2998287081718445,34.03915023803711,4.096584796905518,-19.237703323364258,-0.1714988350868225,-1.790164589881897,0.18710653483867645,0
11,0.049997806549072266,-0.3236324191093445,-34.06295394897461,-4.096584796905518,19.261507034301758,0.1714988350868225,1.783755898475647,-0.17337362468242645,0.0,0.0,0.0,0.0,0.0,0.0,0.0,-0.29285816182021646,-0.0010223152118196178,-0.5351657693913613,0.23104811613661358,0.11931123043597952,-0.12483512941921436,-0.15543282318703097,1.0544148192618608,0.3238648454808352,-0.39250432801664853,-2.1532967988399037,0.864753085553646,2.465877463698387,0.5445010762258147,1.0544104758940245,0.3238615046091247,-0.39250456234122666,-2.153291787532338,0.8647539153680389,2.46587817577521,0.5445020185570556,0.0006835436995651481,-0.00036404025679235056,-0.0003837718874828493,-0.0002543486771929753,8.657538521651724e-05,-0.00020849839299878428,0.0005436561722530407,0.0,0.0,0.0,0.0,0.0,0.0,0.0,-4.343367836279199e-06,-3.340871710499904e-06,-2.343245781299963e-07,5.011307565805367e-06,8.298143928664459e-07,7.120768228396912e-07,9.423312409273521e-07,-0.0006835436995651481,0.00036404025679235056,0.0003837718874828493,0.0002543486771929753,-8.657538521651724e-05,0.00020849839299878428,-0.0005436561722530407,0.3236324191093445,34.06295394897461,4.096584796905518,-19.261507034301758,-0.1714988350868225,-1.783755898475647,0.17337362468242645,0
12,0.055004119873046875,-0.3236324191093445,-34.06295394897461,-4.096584796905518,19.261507034301758,0.1714988350868225,1.783755898475647,-0.17337362468242645,0.0,0.0,0.0,0.0,0.0,0.0,0.0,-0.29285816182021646,-0.0010223152118196178,-0.5351657693913613,0.23104811613661358,0.11931123043597952,-0.12483512941921436,-0.15543282318703097,1.0544148192618608,0.3238648454808352,-0.39250432801664853,-2.1532967988399037,0.864753085553646,2.465877463698387,0.5445010762258147,1.0544104758940245,0.3238615046091247,-0.39250456234122666,-2.153291787532338,0.8647539153680389,2.46587817577521,0.5445020185570556,0.0006835436995651481,-0.00036404025679235056,-0.0003837718874828493,-0.0002543486771929753,8.657538521651724e-05,-0.00020849839299878428,0.0005436561722530407,0.0,0.0,0.0,0.0,0.0,0.0,0.0,-4.343367836279199e-06,-3.340871710499904e-06,-2.343245781299963e-07,5.011307565805367e-06,8.298143928664459e-07,7.120768228396912e-07,9.423312409273521e-07,-0.0006835436995651481,0.00036404025679235056,0.0003837718874828493,0.0002543486771929753,-8.657538521651724e-05,0.00020849839299878428,-0.0005436561722530407,0.3236324191093445,34.06295394897461,4.096584796905518,-19.261507034301758,-0.1714988350868225,-1.783755898475647,0.17337362468242645,0
13,0.061566829681396484,-0.2998287081718445,-34.11452865600586,-4.096584796905518,19.261507034301758,0.1650901436805725,1.783755898475647,-0.18710653483867645,0.0,0.0,0.0,0.0,0.0,0.0,0.0,-0.29237593758173847,-0.00027908295799953804,-0.5362508080669914,0.22957087487992187,0.11938921433637041,-0.12453609333040473,-0.1559056878640771,1.0544155242178104,0.32386846475852166,-0.3925021027765776,-2.1532967988399037,0.864753797630469,2.465877463698387,0.5445035439521101,1.0544104758940245,0.3238615046091247,-0.39250456234122666,-2.153291787532338,0.8647539153680389,2.46587817577521,0.5445020185570556,3.305136368494108e-05,0.000833179644210328,-0.00038448506787111016,0.00020584941438675088,0.00023786369557672244,-3.453183288900513e-05,0.0015411033524426,0.0,0.0,0.0,0.0,0.0,0.0,0.0,-5.048323785894482e-06,-6.960149396939563e-06,-2.459564649059942e-06,5.011307565805367e-06,1.1773756991573237e-07,7.120768228396912e-07,-1.5253950544913408e-06,-3.305136368494108e-05,-0.000833179644210328,0.00038448506787111016,-0.00020584941438675088,-0.00023786369557672244,3.453183288900513e-05,-0.0015411033524426,0.2998287081718445,34.11452865600586,4.096584796905518,-19.261507034301758,-0.1650901436805725,-1.783755898475647,0.18710653483867645,0
14,0.06499600410461426,-0.2998287081718445,-34.11452865600586,-4.096584796905518,19.261507034301758,0.1650901436805725,1.783755898475647,-0.18710653483867645,0.0,0.0,0.0,0.0,0.0,0.0,0.0,-0.29237593758173847,-0.00027908295799953804,-0.5362508080669914,0.22957087487992187,0.11938921433637041,-0.12453609333040473,-0.1559056878640771,1.0544155242178104,0.32386846475852166,-0.3925021027765776,-2.1532967988399037,0.864753797630469,2.465877463698387,0.5445035439521101,1.0544104758940245,0.3238615046091247,-0.39250456234122666,-2.153291787532338,0.8647539153680389,2.46587817577521,0.5445020185570556,3.305136368494108e-05,0.000833179644210328,-0.00038448506787111016,0.00020584941438675088,0.00023786369557672244,-3.453183288900513e-05,0.0015411033524426,0.0,0.0,0.0,0.0,0.0,0.0,0.0,-5.048323785894482e-06,-6.960149396939563e-06,-2.459564649059942e-06,5.011307565805367e-06,1.1773756991573237e-07,7.120768228396912e-07,-1.5253950544913408e-06,-3.305136368494108e-05,-0.000833179644210328,0.00038448506787111016,-0.00020584941438675088,-0.00023786369557672244,3.453183288900513e-05,-0.0015411033524426,0.2998287081718445,34.11452865600586,4.096584796905518,-19.261507034301758,-0.1650901436805725,-1.783755898475647,0.18710653483867645,0
15,0.07001781463623047,-0.2998287081718445,-34.03915023803711,-4.072781085968018,19.237703323364258,0.1714988350868225,1.770938515663147,-0.16604940593242645,0.0,0.0,0.0,0.0,0.0,0.0,0.0,-0.2818940031012536,0.007453642774872562,-0.5253234989109611,0.22508871687531362,0.118740654691572,-0.12575344209023437,-0.15568817289850076,1.0544124335836702,0.32386317504497997,-0.39250599843994294,-2.1532951284040482,0.864753085553646,2.4658789009339848,0.5445001446383079,1.0544104758940245,0.3238615046091247,-0.39250456234122666,-2.153291787532338,0.8647539153680389,2.46587817577521,0.5445020185570556,0.0005431265791697527,-0.0005067325933316173,-0.0004940423798321081,0.0005258390760105024,4.5721055455529645e-05,0.00031294974545912425,0.0010919640868187295,0.0,0.0,0.0,0.0,0.0,0.0,0.0,-1.9576896457262905e-06,-1.670435855249952e-06,1.4360987162786998e-06,3.340871710388882e-06,8.298143928664459e-07,-7.251587748058341e-07,1.87391874773013e-06,-0.0005431265791697527,0.0005067325933316173,0.0004940423798321081,-0.0005258390760105024,-4.5721055455529645e-05,-0.00031294974545912425,-0.0010919640868187295,0.2998287081718445,34.03915023803711,4.072781085968018,-19.237703323364258,-0.1714988350868225,-1.770938515663147,0.16604940593242645,0
16,0.07499480247497559,-0.2998287081718445,-34.03915023803711,-4.072781085968018,19.237703323364258,0.1714988350868225,1.770938515663147,-0.16604940593242645,0.0,0.0,0.0,0.0,0.0,0.0,0.0,-0.2818940031012536,0.007453642774872562,-0.5253234989109611,0.22508871687531362,0.118740654691572,-0.12575344209023437,-0.15568817289850076,1.0544124335836702,0.32386317504497997,-0.39250599843994294,-2.1532951284040482,0.864753085553646,2.4658789009339848,0.5445001446383079,1.0544104758940245,0.3238615046091247,-0.39250456234122666,-2.153291787532338,0.8647539153680389,2.46587817577521,0.5445020185570556,0.0005431265791697527,-0.0005067325933316173,-0.0004940423798321081,0.0005258390760105024,4.5721055455529645e-05,0.00031294974545912425,0.0010919640868187295,0.0,0.0,0.0,0.0,0.0,0.0,0.0,-1.9576896457262905e-06,-1.670435855249952e-06,1.4360987162786998e-06,3.340871710388882e-06,8.298143928664459e-07,-7.251587748058341e-07,1.87391874773013e-06,-0.0005431265791697527,0.0005067325933316173,0.0004940423798321081,-0.0005258390760105024,-4.5721055455529645e-05,-0.00031294974545912425,-0.0010919640868187295,0.2998287081718445,34.03915023803711,4.072781085968018,-19.237703323364258,-0.1714988350868225,-1.770938515663147,0.16604940593242645,0
17,0.08000397682189941,-0.2998287081718445,-34.03915023803711,-4.072781085968018,19.237703323364258,0.1714988350868225,1.770938515663147,-0.16604940593242645,0.0,0.0,0.0,0.0,0.0,0.0,0.0,-0.2818940031012536,0.007453642774872562,-0.5253234989109611,0.22508871687531362,0.118740654691572,-0.12575344209023437,-0.15568817289850076,1.0544124335836702,0.32386317504497997,-0.39250599843994294,-2.1532951284040482,0.864753085553646,2.4658789009339848,0.5445001446383079,1.0544104758940245,0.3238615046091247,-0.39250456234122666,-2.153291787532338,0.8647539153680389,2.46587817577521,0.5445020185570556,0.0005431265791697527,-0.0005067325933316173,-0.0004940423798321081,0.0005258390760105024,4.5721055455529645e-05,0.00031294974545912425,0.0010919640868187295,0.0,0.0,0.0,0.0,0.0,0.0,0.0,-1.9576896457262905e-06,-1.670435855249952e-06,1.4360987162786998e-06,3.340871710388882e-06,8.298143928664459e-07,-7.251587748058341e-07,1.87391874773013e-06,-0.0005431265791697527,0.0005067325933316173,0.0004940423798321081,-0.0005258390760105024,-4.5721055455529645e-05,-0.00031294974545912425,-0.0010919640868187295,0.2998287081718445,34.03915023803711,4.072781085968018,-19.237703323364258,-0.1714988350868225,-1.770938515663147,0.16604940593242645,0
18,0.0849924087524414,-0.2998287081718445,-34.03915023803711,-4.072781085968018,19.237703323364258,0.1714988350868225,1.770938515663147,-0.16604940593242645,0.0,0.0,0.0,0.0,0.0,0.0,0.0,-0.2818940031012536,0.007453642774872562,-0.5253234989109611,0.22508871687531362,0.118740654691572,-0.12575344209023437,-0.15568817289850076,1.0544124335836702,0.32386317504497997,-0.39250599843994294,-2.1532951284040482,0.864753085553646,2.4658789009339848,0.5445001446383079,1.0544104758940245,0.3238615046091247,-0.39250456234122666,-2.153291787532338,0.8647539153680389,2.46587817577521,0.5445020185570556,0.0005431265791697527,-0.0005067325933316173,-0.0004940423798321081,0.0005258390760105024,4.5721055455529645e-05,0.00031294974545912425,0.0010919640868187295,0.0,0.0,0.0,0.0,0.0,0.0,0.0,-1.9576896457262905e-06,-1.670435855249952e-06,1.4360987162786998e-06,3.340871710388882e-06,8.298143928664459e-07,-7.251587748058341e-07,1.87391874773013e-06,-0.0005431265791697527,0.0005067325933316173,0.0004940423798321081,-0.0005258390760105024,-4.5721055455529645e-05,-0.00031294974545912425,-0.0010919640868187295,0.2998287081718445,34.03915023803711,4.072781085968018,-19.237703323364258,-0.1714988350868225,-1.770938515663147,0.16604940593242645,0
19,0.08999514579772949,-0.2720577120780945,-34.09072494506836,-4.096584796905518,19.289278030395508,0.1769919991493225,1.790164589881897,-0.15964071452617645,0.0,0.0,0.0,0.0,0.0,0.0,0.0,-0.29280574050800146,0.007147851604872825,-0.5340493516638993,0.224442108400063,0.11971206939996006,-0.12515837273465574,-0.1553457118115544,1.0544104758941744,0.32386679432266635,-0.392504328016649,-2.1532987476817347,0.8647524752020835,2.4658767516217854,0.5444994325555033,1.0544104758940245,0.3238615046091247,-0.39250456234122666,-2.153291787532338,0.8647539153680389,2.46587817577521,0.5445020185570556,-0.0005878984074384981,0.0010711300679295472,0.00034567656005366626,-0.0007727743502465968,-0.00025384156643026335,-0.0004894898194715029,0.0006964966083015852,0.0,0.0,0.0,0.0,0.0,0.0,0.0,-1.4988010832439613e-13,-5.2897135416341e-06,-2.343245776859071e-07,6.960149396828541e-06,1.4401659553797685e-06,1.424153424522956e-06,2.5860015523404556e-06,0.0005878984074384981,-0.0010711300679295472,-0.00034567656005366626,0.0007727743502465968,0.00025384156643026335,0.0004894898194715029,-0.0006964966083015852,0.2720577120780945,34.09072494506836,4.096584796905518,-19.289278030395508,-0.1769919991493225,-1.790164589881897,0.15964071452617645,0
20,0.09540176391601562,-0.2720577120780945,-34.09072494506836,-4.096584796905518,19.289278030395508,0.1769919991493225,1.790164589881897,-0.15964071452617645,0.0,0.0,0.0,0.0,0.0,0.0,0.0,-0.29280574050800146,0.007147851604872825,-0.5340493516638993,0.224442108400063,0.11971206939996006,-0.12515837273465574,-0.1553457118115544,1.0544104758941744,0.32386679432266635,-0.392504328016649,-2.1532987476817347,0.8647524752020835,2.4658767516217854,0.5444994325555033,1.0544104758940245,0.3238615046091247,-0.39250456234122666,-2.153291787532338,0.8647539153680389,2.46587817577521,0.5445020185570556,-0.0005878984074384981,0.0010711300679295472,0.00034567656005366626,-0.0007727743502465968,-0.00025384156643026335,-0.0004894898194715029,0.0006964966083015852,0.0,0.0,0.0,0.0,0.0,0.0,0.0,-1.4988010832439613e-13,-5.2897135416341e-06,-2.343245776859071e-07,6.960149396828541e-06,1.4401659553797685e-06,1.424153424522956e-06,2.5860015523404556e-06,0.0005878984074384981,-0.0010711300679295472,-0.00034567656005366626,0.0007727743502465968,0.00025384156643026335,0.0004894898194715029,-0.0006964966083015852,0.2720577120780945,34.09072494506836,4.096584796905518,-19.289278030395508,-0.1769919991493225,-1.790164589881897,0.15964071452617645,0
21,0.10000824928283691,-0.2998287081718445,-34.09072494506836,-4.072781085968018,19.237703323364258,0.1834006905555725,1.777347207069397,-0.16604940593242645,0.0,0.0,0.0,0.0,0.0,0.0,0.0,-0.299624043116017,-0.0022162981775432334,-0.5424444007997149,0.22896793221094527,0.11969331750685344,-0.1237742783806869,-0.1551919649593421,1.0544125042087154,0.32386679432266635,-0.3925038526852926,-2.1532951284040482,0.8647518803662009,2.46587817577521,0.5445001446323262,1.0544104758940245,0.3238615046091247,-0.39250456234122666,-2.153291787532338,0.8647539153680389,2.46587817577521,0.5445020185570556,0.00010201301196381079,0.0005160883004809637,-0.0009253341918523038,0.0005440078838422815,-0.00047822420623950656,-1.650839980802798e-05,0.001104108949078718,0.0,0.0,0.0,0.0,0.0,0.0,0.0,-2.0283146908717242e-06,-5.2897135416341e-06,-7.096559340724617e-07,3.340871710388882e-06,2.0350018380410617e-06,0.0,1.873924729389742e-06,-0.00010201301196381079,-0.0005160883004809637,0.0009253341918523038,-0.0005440078838422815,0.00047822420623950656,1.650839980802798e-05,-0.001104108949078718,0.2998287081718445,34.09072494506836,4.072781085968018,-19.237703323364258,-0.1834006905555725,-1.777347207069397,0.16604940593242645,0
22,0.10499358177185059,-0.2998287081718445,-34.09072494506836,-4.072781085968018,19.237703323364258,0.1834006905555725,1.777347207069397,-0.16604940593242645,0.0,0.0,0.0,0.0,0.0,0.0,0.0,-0.299624043116017,-0.0022162981775432334,-0.5424444007997149,0.22896793221094527,0.11969331750685344,-0.1237742783806869,-0.1551919649593421,1.0544125042087154,0.32386679432266635,-0.3925038526852926,-2.1532951284040482,0.8647518803662009,2.46587817577521,0.5445001446323262,1.0544104758940245,0.3238615046091247,-0.39250456234122666,-2.153291787532338,0.8647539153680389,2.46587817577521,0.5445020185570556,0.00010201301196381079,0.0005160883004809637,-0.0009253341918523038,0.0005440078838422815,-0.00047822420623950656,-1.650839980802798e-05,0.001104108949078718,0.0,0.0,0.0,0.0,0.0,0.0,0.0,-2.0283146908717242e-06,-5.2897135416341e-06,-7.096559340724617e-07,3.340871710388882e-06,2.0350018380410617e-06,0.0,1.873924729389742e-06,-0.00010201301196381079,-0.0005160883004809637,0.0009253341918523038,-0.0005440078838422815,0.00047822420623950656,1.650839980802798e-05,-0.001104108949078718,0.2998287081718445,34.09072494506836,4.072781085968018,-19.237703323364258,-0.1834006905555725,-1.777347207069397,0.16604940593242645,0
23,0.10999584197998047,-0.2998287081718445,-34.03915023803711,-4.072781085968018,19.237703323364258,0.1769919991493225,1.783755898475647,-0.15231649577617645,0.0,0.0,0.0,0.0,0.0,0.0,0.0,-0.28349189839472944,0.0037455255794633245,-0.5289253692650783,0.22758058686568416,0.11865362223950018,-0.12586781863316746,-0.15493162810398411,1.0544146059335044,0.32386317504497997,-0.39250599746732046,-2.1532951314565034,0.8647524752023041,2.465877463698387,0.5444986202069702,1.0544104758940245,0.3238615046091247,-0.39250456234122666,-2.153291787532338,0.8647539153680389,2.46587817577521,0.5445020185570556,0.0002638884123540612,-0.0007243639738805438,-0.0002982726021206062,0.00047507861036162364,-0.00023117681350839578,-0.00026999210651566357,2.2516663019368905e-05,0.0,0.0,0.0,0.0,0.0,0.0,0.0,-4.13003947996593e-06,-1.670435855249952e-06,1.4351260937961463e-06,3.343924165566392e-06,1.4401657347784536e-06,7.120768228396912e-07,3.3983500854484205e-06,-0.0002638884123540612,0.0007243639738805438,0.0002982726021206062,-0.00047507861036162364,0.00023117681350839578,0.00026999210651566357,-2.2516663019368905e-05,0.2998287081718445,34.03915023803711,4.072781085968018,-19.237703323364258,-0.1769919991493225,-1.783755898475647,0.15231649577617645,0
24,0.11499452590942383,-0.2998287081718445,-34.03915023803711,-4.072781085968018,19.237703323364258,0.1769919991493225,1.783755898475647,-0.15231649577617645,0.0,0.0,0.0,0.0,0.0,0.0,0.0,-0.28349189839472944,0.0037455255794633245,-0.5289253692650783,0.22758058686568416,0.11865362223950018,-0.12586781863316746,-0.15493162810398411,1.0544146059335044,0.32386317504497997,-0.39250599746732046,-2.1532951314565034,0.8647524752023041,2.465877463698387,0.5444986202069702,1.0544104758940245,0.3238615046091247,-0.39250456234122666,-2.153291787532338,0.8647539153680389,2.46587817577521,0.5445020185570556,0.0002638884123540612,-0.0007243639738805438,-0.0002982726021206062,0.00047507861036162364,-0.00023117681350839578,-0.00026999210651566357,2.2516663019368905e-05,0.0,0.0,0.0,0.0,0.0,0.0,0.0,-4.13003947996593e-06,-1.670435855249952e-06,1.4351260937961463e-06,3.343924165566392e-06,1.4401657347784536e-06,7.120768228396912e-07,3.3983500854484205e-06,-0.0002638884123540612,0.0007243639738805438,0.0002982726021206062,-0.00047507861036162364,0.00023117681350839578,0.00026999210651566357,-2.2516663019368905e-05,0.2998287081718445,34.03915023803711,4.072781085968018,-19.237703323364258,-0.1769919991493225,-1.783755898475647,0.15231649577617645,0
25,0.12000322341918945,-0.2720577120780945,-34.09072494506836,-4.096584796905518,19.289278030395508,0.1834006905555725,1.777347207069397,-0.11844198405742645,0.0,0.0,0.0,0.0,0.0,0.0,0.0,-0.2933372370109083,0.00042481809468429766,-0.5364726823209548,0.22963563713329763,0.11930538837216545,-0.12511809424884335,-0.15483281551977524,1.0544105554073273,0.32386679432266635,-0.39250424821673885,-2.15329874768174,0.8647517762072129,2.46587817577521,0.5444948549187872,1.0544104758940245,0.3238615046091247,-0.39250456234122666,-2.153291787532338,0.8647539153680389,2.46587817577521,0.5445020185570556,-0.0007255256279866123,0.0002825277426699513,0.00023298053875355347,-0.0008914503847321755,-0.0004185212909291185,0.00018241233595592645,-0.0018142717660682656,0.0,0.0,0.0,0.0,0.0,0.0,0.0,-7.951330283084701e-08,-5.2897135416341e-06,-3.1412448781020785e-07,6.9601494021576116e-06,2.1391608260312722e-06,0.0,7.163638268359307e-06,0.0007255256279866123,-0.0002825277426699513,-0.00023298053875355347,0.0008914503847321755,0.0004185212909291185,-0.00018241233595592645,0.0018142717660682656,0.2720577120780945,34.09072494506836,4.096584796905518,-19.289278030395508,-0.1834006905555725,-1.777347207069397,0.11844198405742645,0
26,0.12500262260437012,-0.2720577120780945,-34.09072494506836,-4.096584796905518,19.289278030395508,0.1834006905555725,1.777347207069397,-0.11844198405742645,0.0,0.0,0.0,0.0,0.0,0.0,0.0,-0.2933372370109083,0.00042481809468429766,-0.5364726823209548,0.22963563713329763,0.11930538837216545,-0.12511809424884335,-0.15483281551977524,1.0544105554073273,0.32386679432266635,-0.39250424821673885,-2.15329874768174,0.8647517762072129,2.46587817577521,0.5444948549187872,1.0544104758940245,0.3238615046091247,-0.39250456234122666,-2.153291787532338,0.8647539153680389,2.46587817577521,0.5445020185570556,-0.0007255256279866123,0.0002825277426699513,0.00023298053875355347,-0.0008914503847321755,-0.0004185212909291185,0.00018241233595592645,-0.0018142717660682656,0.0,0.0,0.0,0.0,0.0,0.0,0.0,-7.951330283084701e-08,-5.2897135416341e-06,-3.1412448781020785e-07,6.9601494021576116e-06,2.1391608260312722e-06,0.0,7.163638268359307e-06,0.0007255256279866123,-0.0002825277426699513,-0.00023298053875355347,0.0008914503847321755,0.0004185212909291185,-0.00018241233595592645,0.0018142717660682656,0.2720577120780945,34.09072494506836,4.096584796905518,-19.289278030395508,-0.1834006905555725,-1.777347207069397,0.11844198405742645,0
27,0.12999224662780762,-0.3236324191093445,-34.09072494506836,-4.072781085968018,19.261507034301758,0.1714988350868225,1.777347207069397,-0.17978231608867645,0.0,0.0,0.0,0.0,0.0,0.0,0.0,-0.2857179095999086,-0.00508776120071651,-0.5285472136569552,0.2321555883746104,0.11930330141429195,-0.1252718665506963,-0.15505018290805567,1.0544141746459172,0.32386679432266635,-0.3925059719601999,-2.1532967988399037,0.8647530855538675,2.46587817577521,0.5445048494256205,1.0544104758940245,0.3238615046091247,-0.39250456234122666,-2.153291787532338,0.8647539153680389,2.46587817577521,0.5445020185570556,0.001096982710799521,-0.00023142665796837186,-0.0003317782175167286,-0.00016236377568370897,0.00027640113130646864,9.350996273113066e-05,0.0009841399843435864,0.0,0.0,0.0,0.0,0.0,0.0,0.0,-3.698751892766694e-06,-5.2897135416341e-06,1.4096189732137887e-06,5.011307565805367e-06,8.298141713769525e-07,0.0,-2.8308685648958942e-06,-0.001096982710799521,0.00023142665796837186,0.0003317782175167286,0.00016236377568370897,-0.00027640113130646864,-9.350996273113066e-05,-0.0009841399843435864,0.3236324191093445,34.09072494506836,4.072781085968018,-19.261507034301758,-0.1714988350868225,-1.777347207069397,0.17978231608867645,0
28,0.1349952220916748,-0.3236324191093445,-34.09072494506836,-4.072781085968018,19.261507034301758,0.1714988350868225,1.777347207069397,-0.17978231608867645,0.0,0.0,0.0,0.0,0.0,0.0,0.0,-0.2857179095999086,-0.00508776120071651,-0.5285472136569552,0.2321555883746104,0.11930330141429195,-0.1252718665506963,-0.15505018290805567,1.0544141746459172,0.32386679432266635,-0.3925059719601999,-2.1532967988399037,0.8647530855538675,2.46587817577521,0.5445048494256205,1.0544104758940245,0.3238615046091247,-0.39250456234122666,-2.153291787532338,0.8647539153680389,2.46587817577521,0.5445020185570556,0.001096982710799521,-0.00023142665796837186,-0.0003317782175167286,-0.00016236377568370897,0.00027640113130646864,9.350996273113066e-05,0.0009841399843435864,0.0,0.0,0.0,0.0,0.0,0.0,0.0,-3.698751892766694e-06,-5.2897135416341e-06,1.4096189732137887e-06,5.011307565805367e-06,8.298141713769525e-07,0.0,-2.8308685648958942e-06,-0.001096982710799521,0.00023142665796837186,0.0003317782175167286,0.00016236377568370897,-0.00027640113130646864,-9.350996273113066e-05,-0.0009841399843435864,0.3236324191093445,34.09072494506836,4.072781085968018,-19.261507034301758,-0.1714988350868225,-1.777347207069397,0.17978231608867645,0
29,0.14000701904296875,-0.2998287081718445,-34.11452865600586,-4.124355792999268,19.237703323364258,0.1714988350868225,1.783755898475647,-0.17978231608867645,0.0,0.0,0.0,0.0,0.0,0.0,0.0,-0.2870864293657832,-0.000797220019054614,-0.5288862736716944,0.2287527478818538,0.11969926947404717,-0.12564100425584654,-0.15457071569862002,1.054412425063054,0.32386846475852166,-0.3925023791747682,-2.1532951284040482,0.8647534387663558,2.465877463698387,0.5445016850527166,1.0544104758940245,0.3238615046091247,-0.39250456234122666,-2.153291787532338,0.8647539153680389,2.46587817577521,0.5445020185570556,0.00028016417216576814,0.0008467096308378906,0.0007844218041678788,0.0008026097733542353,-4.2233900467220184e-05,-0.00019716482721270477,0.0009229627659741518,0.0,0.0,0.0,0.0,0.0,0.0,0.0,-1.9491690295136976e-06,-6.960149396939563e-06,-2.1831664584470722e-06,3.340871710388882e-06,4.766016831192488e-07,7.120768228396912e-07,3.3350433903400756e-07,-0.00028016417216576814,-0.0008467096308378906,-0.0007844218041678788,-0.0008026097733542353,4.2233900467220184e-05,0.00019716482721270477,-0.0009229627659741518,0.2998287081718445,34.11452865600586,4.124355792999268,-19.237703323364258,-0.1714988350868225,-1.783755898475647,0.17978231608867645,0
30,0.14499449729919434,-0.2998287081718445,-34.11452865600586,-4.124355792999268,19.237703323364258,0.1714988350868225,1.783755898475647,-0.17978231608867645,0.0,0.0,0.0,0.0,0.0,0.0,0.0,-0.2870864293657832,-0.000797220019054614,-0.5288862736716944,0.2287527478818538,0.11969926947404717,-0.12564100425584654,-0.15457071569862002,1.054412425063054,0.32386846475852166,-0.3925023791747682,-2.1532951284040482,0.8647534387663558,2.465877463698387,0.5445016850527166,1.0544104758940245,0.3238615046091247,-0.39250456234122666,-2.153291787532338,0.8647539153680389,2.46587817577521,0.5445020185570556,0.00028016417216576814,0.0008467096308378906,0.0007844218041678788,0.0008026097733542353,-4.2233900467220184e-05,-0.00019716482721270477,0.0009229627659741518,0.0,0.0,0.0,0.0,0.0,0.0,0.0,-1.9491690295136976e-06,-6.960149396939563e-06,-2.1831664584470722e-06,3.340871710388882e-06,4.766016831192488e-07,7.120768228396912e-07,3.3350433903400756e-07,-0.00028016417216576814,-0.0008467096308378906,-0.0007844218041678788,-0.0008026097733542353,4.2233900467220184e-05,0.00019716482721270477,-0.0009229627659741518,0.2998287081718445,34.11452865600586,4.124355792999268,-19.237703323364258,-0.1714988350868225,-1.783755898475647,0.17978231608867645,0
31,0.1500692367553711,-0.3236324191093445,-34.06295394897461,-4.072781085968018,19.261507034301758,0.1834006905555725,1.777347207069397,-0.14590780436992645,0.0,0.0,0.0,0.0,0.0,0.0,0.0,-0.28700222693991545,-0.007258068690270453,-0.5305967377697757,0.23029515999781497,0.11899424194049403,-0.1256375636323496,-0.15460353131897098,1.0544148378995497,0.3238648454808352,-0.3925059984525045,-2.1532967988399037,0.8647517631272545,2.46587817577521,0.5444982598893888,1.0544104758940245,0.3238615046091247,-0.39250456234122666,-2.153291787532338,0.8647539153680389,2.46587817577521,0.5445020185570556,0.0006689635002022003,-0.0002212944037727026,-0.0004130688415701646,9.806394469598553e-05,-0.00040750932522542837,-8.290243923617788e-05,-0.00036375726152205475,0.0,0.0,0.0,0.0,0.0,0.0,0.0,-4.36200552522692e-06,-3.340871710499904e-06,1.4361112778416008e-06,5.011307565805367e-06,2.15224078436993e-06,0.0,3.7586676667755725e-06,-0.0006689635002022003,0.0002212944037727026,0.0004130688415701646,-9.806394469598553e-05,0.00040750932522542837,8.290243923617788e-05,0.00036375726152205475,0.3236324191093445,34.06295394897461,4.072781085968018,-19.261507034301758,-0.1834006905555725,-1.777347207069397,0.14590780436992645,0
32,0.1550307273864746,-0.3236324191093445,-34.06295394897461,-4.072781085968018,19.261507034301758,0.1834006905555725,1.777347207069397,-0.14590780436992645,0.0,0.0,0.0,0.0,0.0,0.0,0.0,-0.28700222693991545,-0.007258068690270453,-0.5305967377697757,0.23029515999781497,0.11899424194049403,-0.1256375636323496,-0.15460353131897098,1.0544148378995497,0.3238648454808352,-0.3925059984525045,-2.1532967988399037,0.8647517631272545,2.46587817577521,0.5444982598893888,1.0544104758940245,0.3238615046091247,-0.39250456234122666,-2.153291787532338,0.8647539153680389,2.46587817577521,0.5445020185570556,0.0006689635002022003,-0.0002212944037727026,-0.0004130688415701646,9.806394469598553e-05,-0.00040750932522542837,-8.290243923617788e-05,-0.00036375726152205475,0.0,0.0,0.0,0.0,0.0,0.0,0.0,-4.36200552522692e-06,-3.340871710499904e-06,1.4361112778416008e-06,5.011307565805367e-06,2.15224078436993e-06,0.0,3.7586676667755725e-06,-0.0006689635002022003,0.0002212944037727026,0.0004130688415701646,-9.806394469598553e-05,0.00040750932522542837,8.290243923617788e-05,0.00036375726152205475,0.3236324191093445,34.06295394897461,4.072781085968018,-19.261507034301758,-0.1834006905555725,-1.777347207069397,0.14590780436992645,0
33,0.16004490852355957,-0.2998287081718445,-34.06295394897461,-4.096584796905518,19.289278030395508,0.1769919991493225,1.777347207069397,-0.17337362468242645,0.0,0.0,0.0,0.0,0.0,0.0,0.0,-0.28909549902138315,-4.888766155016152e-05,-0.528908254744904,0.22662359124498552,0.11891039578051882,-0.12670325843038222,-0.15641261190017935,1.0544132197956944,0.3238648454808352,-0.39250432703550275,-2.1532987476817347,0.8647524752020835,2.46587817577521,0.5445009627970542,1.0544104758940245,0.3238615046091247,-0.39250456234122666,-2.153291787532338,0.8647539153680389,2.46587817577521,0.5445020185570556,-7.462474392145683e-05,0.00014100503054244968,0.00034701680223072896,-0.0007456905821728681,-8.18043701531497e-05,-7.668144188532608e-05,0.0011693696731549619,0.0,0.0,0.0,0.0,0.0,0.0,0.0,-2.7439016698771468e-06,-3.340871710499904e-06,-2.3530572390573212e-07,6.960149396828541e-06,1.4401659553797685e-06,0.0,1.055760001422712e-06,7.462474392145683e-05,-0.00014100503054244968,-0.00034701680223072896,0.0007456905821728681,8.18043701531497e-05,7.668144188532608e-05,-0.0011693696731549619,0.2998287081718445,34.06295394897461,4.096584796905518,-19.289278030395508,-0.1769919991493225,-1.777347207069397,0.17337362468242645,0
34,0.16504240036010742,-0.2998287081718445,-34.06295394897461,-4.096584796905518,19.289278030395508,0.1769919991493225,1.777347207069397,-0.17337362468242645,0.0,0.0,0.0,0.0,0.0,0.0,0.0,-0.28909549902138315,-4.888766155016152e-05,-0.528908254744904,0.22662359124498552,0.11891039578051882,-0.12670325843038222,-0.15641261190017935,1.0544132197956944,0.3238648454808352,-0.39250432703550275,-2.1532987476817347,0.8647524752020835,2.46587817577521,0.5445009627970542,1.0544104758940245,0.3238615046091247,-0.39250456234122666,-2.153291787532338,0.8647539153680389,2.46587817577521,0.5445020185570556,-7.462474392145683e-05,0.00014100503054244968,0.00034701680223072896,-0.0007456905821728681,-8.18043701531497e-05,-7.668144188532608e-05,0.0011693696731549619,0.0,0.0,0.0,0.0,0.0,0.0,0.0,-2.7439016698771468e-06,-3.340871710499904e-06,-2.3530572390573212e-07,6.960149396828541e-06,1.4401659553797685e-06,0.0,1.055760001422712e-06,7.462474392145683e-05,-0.00014100503054244968,-0.00034701680223072896,0.0007456905821728681,8.18043701531497e-05,7.668144188532608e-05,-0.0011693696731549619,0.2998287081718445,34.06295394897461,4.096584796905518,-19.289278030395508,-0.1769919991493225,-1.777347207069397,0.17337362468242645,0
35,0.1700270175933838,-0.3236324191093445,-34.09072494506836,-4.072781085968018,19.213899612426758,0.1714988350868225,1.770938515663147,-0.12485067546367645,0.0,0.0,0.0,0.0,0.0,0.0,0.0,-0.30725875776982947,-0.007804185389564828,-0.5437679283524033,0.23112409655793653,0.11976892394891508,-0.1253848118111985,-0.15641161441137633,1.0544140951851753,0.32386679432266635,-0.39250599550904863,-2.1532934579681933,0.8647530900758024,2.465878887852033,0.5444955669956814,1.0544104758940245,0.3238615046091247,-0.39250456234122666,-2.153291787532338,0.8647539153680389,2.46587817577521,0.5445020185570556,-8.353016594735851e-05,0.000698170220625073,-0.0008742644671487584,0.0011495004044848372,4.512600401193375e-05,0.00034202851161604225,-0.0009372366906792408,0.0,0.0,0.0,0.0,0.0,0.0,0.0,-3.6192911507804126e-06,-5.2897135416341e-06,1.4331678219736688e-06,1.6704358554164855e-06,8.252922365503679e-07,-7.120768228396912e-07,6.4515613742432976e-06,8.353016594735851e-05,-0.000698170220625073,0.0008742644671487584,-0.0011495004044848372,-4.512600401193375e-05,-0.00034202851161604225,0.0009372366906792408,0.3236324191093445,34.09072494506836,4.072781085968018,-19.213899612426758,-0.1714988350868225,-1.770938515663147,0.12485067546367645,0
36,0.1750476360321045,-0.3236324191093445,-34.09072494506836,-4.072781085968018,19.213899612426758,0.1714988350868225,1.770938515663147,-0.12485067546367645,0.0,0.0,0.0,0.0,0.0,0.0,0.0,-0.30725875776982947,-0.007804185389564828,-0.5437679283524033,0.23112409655793653,0.11976892394891508,-0.1253848118111985,-0.15641161441137633,1.0544140951851753,0.32386679432266635,-0.39250599550904863,-2.1532934579681933,0.8647530900758024,2.465878887852033,0.5444955669956814,1.0544104758940245,0.3238615046091247,-0.39250456234122666,-2.153291787532338,0.8647539153680389,2.46587817577521,0.5445020185570556,-8.353016594735851e-05,0.000698170220625073,-0.0008742644671487584,0.0011495004044848372,4.512600401193375e-05,0.00034202851161604225,-0.0009372366906792408,0.0,0.0,0.0,0.0,0.0,0.0,0.0,-3.6192911507804126e-06,-5.2897135416341e-06,1.4331678219736688e-06,1.6704358554164855e-06,8.252922365503679e-07,-7.120768228396912e-07,6.4515613742432976e-06,8.353016594735851e-05,-0.000698170220625073,0.0008742644671487584,-0.0011495004044848372,-4.512600401193375e-05,-0.00034202851161604225,0.0009372366906792408,0.3236324191093445,34.09072494506836,4.072781085968018,-19.213899612426758,-0.1714988350868225,-1.770938515663147,0.12485067546367645,0
37,0.18001341819763184,-0.3236324191093445,-34.06295394897461,-4.124355792999268,19.237703323364258,0.1714988350868225,1.783755898475647,-0.12485067546367645,0.0,0.0,0.0,0.0,0.0,0.0,0.0,-0.292786842591482,-0.0011562720504307855,-0.5295462748725288,0.23040801678042735,0.11907091129749148,-0.12649572160762185,-0.15518129249428178,1.0544141216626641,0.3238648454808352,-0.39250166355568766,-2.1532951284040482,0.8647530855536545,2.465877463698387,0.5444955674801242,1.0544104758940245,0.3238615046091247,-0.39250456234122666,-2.153291787532338,0.8647539153680389,2.46587817577521,0.5445020185570556,0.0008810089172806315,-0.00015307495490909806,0.0006107645512977169,0.000626482374880555,1.4195649333183973e-05,-0.00012207622969664057,-0.0011757141554349622,0.0,0.0,0.0,0.0,0.0,0.0,0.0,-3.6457686396484945e-06,-3.340871710499904e-06,-2.8987855389961403e-06,3.340871710388882e-06,8.298143844287509e-07,7.120768228396912e-07,6.4510769314241045e-06,-0.0008810089172806315,0.00015307495490909806,-0.0006107645512977169,-0.000626482374880555,-1.4195649333183973e-05,0.00012207622969664057,0.0011757141554349622,0.3236324191093445,34.06295394897461,4.124355792999268,-19.237703323364258,-0.1714988350868225,-1.783755898475647,0.12485067546367645,0
38,0.1850414276123047,-0.3236324191093445,-34.06295394897461,-4.124355792999268,19.237703323364258,0.1714988350868225,1.783755898475647,-0.12485067546367645,0.0,0.0,0.0,0.0,0.0,0.0,0.0,-0.292786842591482,-0.0011562720504307855,-0.5295462748725288,0.23040801678042735,0.11907091129749148,-0.12649572160762185,-0.15518129249428178,1.0544141216626641,0.3238648454808352,-0.39250166355568766,-2.1532951284040482,0.8647530855536545,2.465877463698387,0.5444955674801242,1.0544104758940245,0.3238615046091247,-0.39250456234122666,-2.153291787532338,0.8647539153680389,2.46587817577521,0.5445020185570556,0.0008810089172806315,-0.00015307495490909806,0.0006107645512977169,0.000626482374880555,1.4195649333183973e-05,-0.00012207622969664057,-0.0011757141554349622,0.0,0.0,0.0,0.0,0.0,0.0,0.0,-3.6457686396484945e-06,-3.340871710499904e-06,-2.8987855389961403e-06,3.340871710388882e-06,8.298143844287509e-07,7.120768228396912e-07,6.4510769314241045e-06,-0.0008810089172806315,0.00015307495490909806,-0.0006107645512977169,-0.000626482374880555,-1.4195649333183973e-05,0.00012207622969664057,0.0011757141554349622,0.3236324191093445,34.06295394897461,4.124355792999268,-19.237703323364258,-0.1714988350868225,-1.783755898475647,0.12485067546367645,0
39,0.19000768661499023,-0.3236324191093445,-34.06295394897461,-4.124355792999268,19.237703323364258,0.1714988350868225,1.783755898475647,-0.12485067546367645,0.0,0.0,0.0,0.0,0.0,0.0,0.0,-0.292786842591482,-0.0011562720504307855,-0.5295462748725288,0.23040801678042735,0.11907091129749148,-0.12649572160762185,-0.15518129249428178,1.0544141216626641,0.3238648454808352,-0.39250166355568766,-2.1532951284040482,0.8647530855536545,2.465877463698387,0.5444955674801242,1.0544104758940245,0.3238615046091247,-0.39250456234122666,-2.153291787532338,0.8647539153680389,2.46587817577521,0.5445020185570556,0.0008810089172806315,-0.00015307495490909806,0.0006107645512977169,0.000626482374880555,1.4195649333183973e-05,-0.00012207622969664057,-0.0011757141554349622,0.0,0.0,0.0,0.0,0.0,0.0,0.0,-3.6457686396484945e-06,-3.340871710499904e-06,-2.8987855389961403e-06,3.340871710388882e-06,8.298143844287509e-07,7.120768228396912e-07,6.4510769314241045e-06,-0.0008810089172806315,0.00015307495490909806,-0.0006107645512977169,-0.000626482374880555,-1.4195649333183973e-05,0.00012207622969664057,0.0011757141554349622,0.3236324191093445,34.06295394897461,4.124355792999268,-19.237703323364258,-0.1714988350868225,-1.783755898475647,0.12485067546367645,0
40,0.1950075626373291,-0.3236324191093445,-34.06295394897461,-4.124355792999268,19.237703323364258,0.1714988350868225,1.783755898475647,-0.12485067546367645,0.0,0.0,0.0,0.0,0.0,0.0,0.0,-0.292786842591482,-0.0011562720504307855,-0.5295462748725288,0.23040801678042735,0.11907091129749148,-0.12649572160762185,-0.15518129249428178,1.0544141216626641,0.3238648454808352,-0.39250166355568766,-2.1532951284040482,0.8647530855536545,2.465877463698387,0.5444955674801242,1.0544104758940245,0.3238615046091247,-0.39250456234122666,-2.153291787532338,0.8647539153680389,2.46587817577521,0.5445020185570556,0.0008810089172806315,-0.00015307495490909806,0.0006107645512977169,0.000626482374880555,1.4195649333183973e-05,-0.00012207622969664057,-0.0011757141554349622,0.0,0.0,0.0,0.0,0.0,0.0,0.0,-3.6457686396484945e-06,-3.340871710499904e-06,-2.8987855389961403e-06,3.340871710388882e-06,8.298143844287509e-07,7.120768228396912e-07,6.4510769314241045e-06,-0.0008810089172806315,0.00015307495490909806,-0.0006107645512977169,-0.000626482374880555,-1.4195649333183973e-05,0.00012207622969664057,0.0011757141554349622,0.3236324191093445,34.06295394897461,4.124355792999268,-19.237703323364258,-0.1714988350868225,-1.783755898475647,0.12485067546367645,0
41,0.20000195503234863,-0.2720577120780945,-34.06295394897461,-4.124355792999268,19.289278030395508,0.1769919991493225,1.790164589881897,-0.15231649577617645,0.0,0.0,0.0,0.0,0.0,0.0,0.0,-0.2922897236837029,0.003944554868663736,-0.531742771186337,0.2278702434271841,0.11970313786745673,-0.12641640289510772,-0.155063001013369,1.0544108212577126,0.3238648454808352,-0.39250237917077835,-2.1532987476817347,0.8647524752020835,2.4658767516215643,0.5444986187534226,1.0544104758940245,0.3238615046091247,-0.39250456234122666,-2.153291787532338,0.8647539153680389,2.46587817577521,0.5445020185570556,-6.461698230994667e-05,6.799720330283056e-05,0.0007026068753015921,-0.0007396475337778564,6.582582596475307e-05,-0.0004885736076237295,-3.3097161033736454e-05,0.0,0.0,0.0,0.0,0.0,0.0,0.0,-3.453636880923483e-07,-3.340871710499904e-06,-2.183170448311067e-06,6.960149396828541e-06,1.4401659553797685e-06,1.4241536456793824e-06,3.3998036329530024e-06,6.461698230994667e-05,-6.799720330283056e-05,-0.0007026068753015921,0.0007396475337778564,-6.582582596475307e-05,0.0004885736076237295,3.3097161033736454e-05,0.2720577120780945,34.06295394897461,4.124355792999268,-19.289278030395508,-0.1769919991493225,-1.790164589881897,0.15231649577617645,0
42,0.2050004005432129,-0.2720577120780945,-34.06295394897461,-4.124355792999268,19.289278030395508,0.1769919991493225,1.790164589881897,-0.15231649577617645,0.0,0.0,0.0,0.0,0.0,0.0,0.0,-0.2922897236837029,0.003944554868663736,-0.531742771186337,0.2278702434271841,0.11970313786745673,-0.12641640289510772,-0.155063001013369,1.0544108212577126,0.3238648454808352,-0.39250237917077835,-2.1532987476817347,0.8647524752020835,2.4658767516215643,0.5444986187534226,1.0544104758940245,0.3238615046091247,-0.39250456234122666,-2.153291787532338,0.8647539153680389,2.46587817577521,0.5445020185570556,-6.461698230994667e-05,6.799720330283056e-05,0.0007026068753015921,-0.0007396475337778564,6.582582596475307e-05,-0.0004885736076237295,-3.3097161033736454e-05,0.0,0.0,0.0,0.0,0.0,0.0,0.0,-3.453636880923483e-07,-3.340871710499904e-06,-2.183170448311067e-06,6.960149396828541e-06,1.4401659553797685e-06,1.4241536456793824e-06,3.3998036329530024e-06,6.461698230994667e-05,-6.799720330283056e-05,-0.0007026068753015921,0.0007396475337778564,-6.582582596475307e-05,0.0004885736076237295,3.3097161033736454e-05,0.2720577120780945,34.06295394897461,4.124355792999268,-19.289278030395508,-0.1769919991493225,-1.790164589881897,0.15231649577617645,0
43,0.21027541160583496,-0.2998287081718445,-34.01534652709961,-4.124355792999268,19.289278030395508,0.1714988350868225,1.783755898475647,-0.13217489421367645,0.0,0.0,0.0,0.0,0.0,0.0,0.0,-0.29798066352984537,-0.005091860330635628,-0.5378403217877932,0.2317327793142371,0.12095030025593163,-0.1249962123029847,-0.15523501611916093,1.0544125130409827,0.3238615046091247,-0.39250237917481806,-2.1532987476817347,0.864753085553646,2.465877463698387,0.5444974405973256,1.0544104758940245,0.3238615046091247,-0.39250456234122666,-2.153291787532338,0.8647539153680389,2.46587817577521,0.5445020185570556,-6.880717579811397e-05,-0.0015875881282184333,0.0006930351537752599,-0.0009047726167249655,7.53183074115517e-05,5.525398226104323e-05,-0.0009420006692527088,0.0,0.0,0.0,0.0,0.0,0.0,0.0,-2.0371469582336488e-06,0.0,-2.1831664085980584e-06,6.960149396828541e-06,8.298143928664459e-07,7.120768228396912e-07,4.577959729967773e-06,6.880717579811397e-05,0.0015875881282184333,-0.0006930351537752599,0.0009047726167249655,-7.53183074115517e-05,-5.525398226104323e-05,0.0009420006692527088,0.2998287081718445,34.01534652709961,4.124355792999268,-19.289278030395508,-0.1714988350868225,-1.783755898475647,0.13217489421367645,0
44,0.21501731872558594,-0.2998287081718445,-34.01534652709961,-4.124355792999268,19.289278030395508,0.1714988350868225,1.783755898475647,-0.13217489421367645,0.0,0.0,0.0,0.0,0.0,0.0,0.0,-0.29798066352984537,-0.005091860330635628,-0.5378403217877932,0.2317327793142371,0.12095030025593163,-0.1249962123029847,-0.15523501611916093,1.0544125130409827,0.3238615046091247,-0.39250237917481806,-2.1532987476817347,0.864753085553646,2.465877463698387,0.5444974405973256,1.0544104758940245,0.3238615046091247,-0.39250456234122666,-2.153291787532338,0.8647539153680389,2.46587817577521,0.5445020185570556,-6.880717579811397e-05,-0.0015875881282184333,0.0006930351537752599,-0.0009047726167249655,7.53183074115517e-05,5.525398226104323e-05,-0.0009420006692527088,0.0,0.0,0.0,0.0,0.0,0.0,0.0,-2.0371469582336488e-06,0.0,-2.1831664085980584e-06,6.960149396828541e-06,8.298143928664459e-07,7.120768228396912e-07,4.577959729967773e-06,6.880717579811397e-05,0.0015875881282184333,-0.0006930351537752599,0.0009047726167249655,-7.53183074115517e-05,-5.525398226104323e-05,0.0009420006692527088,0.2998287081718445,34.01534652709961,4.124355792999268,-19.289278030395508,-0.1714988350868225,-1.783755898475647,0.13217489421367645,0
45,0.2200164794921875,-0.2998287081718445,-34.06295394897461,-4.096584796905518,19.237703323364258,0.1834006905555725,1.777347207069397,-0.15231649577617645,0.0,0.0,0.0,0.0,0.0,0.0,0.0,-0.28759080298324613,0.005715794278209312,-0.5271651346290399,0.22605167226364575,0.12035681632771773,-0.1259652634718697,-0.1541244975892214,1.0544124247363542,0.3238648454808352,-0.3925043280166492,-2.1532951284040482,0.8647549420396488,2.4658781762597264,0.544498658489776,1.0544104758940245,0.3238615046091247,-0.39250456234122666,-2.153291787532338,0.8647539153680389,2.46587817577521,0.5445020185570556,0.0006146453772939895,-0.00011601554772915146,0.00023799529701827666,0.00037750437813815287,-0.0004556637502646948,0.00017312388370689194,3.995807275317042e-05,0.0,0.0,0.0,0.0,0.0,0.0,0.0,-1.9488423297353563e-06,-3.340871710499904e-06,-2.3432457746386248e-07,3.340871710388882e-06,-1.026671609838381e-06,-4.845164269795532e-10,3.3600672796341158e-06,-0.0006146453772939895,0.00011601554772915146,-0.00023799529701827666,-0.00037750437813815287,0.0004556637502646948,-0.00017312388370689194,-3.995807275317042e-05,0.2998287081718445,34.06295394897461,4.096584796905518,-19.237703323364258,-0.1834006905555725,-1.777347207069397,0.15231649577617645,0
46,0.22499752044677734,-0.2998287081718445,-34.06295394897461,-4.096584796905518,19.237703323364258,0.1834006905555725,1.777347207069397,-0.15231649577617645,0.0,0.0,0.0,0.0,0.0,0.0,0.0,-0.28759080298324613,0.005715794278209312,-0.5271651346290399,0.22605167226364575,0.12035681632771773,-0.1259652634718697,-0.1541244975892214,1.0544124247363542,0.3238648454808352,-0.3925043280166492,-2.1532951284040482,0.8647549420396488,2.4658781762597264,0.544498658489776,1.0544104758940245,0.3238615046091247,-0.39250456234122666,-2.153291787532338,0.8647539153680389,2.46587817577521,0.5445020185570556,0.0006146453772939895,-0.00011601554772915146,0.00023799529701827666,0.00037750437813815287,-0.0004556637502646948,0.00017312388370689194,3.995807275317042e-05,0.0,0.0,0.0,0.0,0.0,0.0,0.0,-1.9488423297353563e-06,-3.340871710499904e-06,-2.3432457746386248e-07,3.340871710388882e-06,-1.026671609838381e-06,-4.845164269795532e-10,3.3600672796341158e-06,-0.0006146453772939895,0.00011601554772915146,-0.00023799529701827666,-0.00037750437813815287,0.0004556637502646948,-0.00017312388370689194,-3.995807275317042e-05,0.2998287081718445,34.06295394897461,4.096584796905518,-19.237703323364258,-0.1834006905555725,-1.777347207069397,0.15231649577617645,0
47,0.2300715446472168,-0.2720577120780945,-34.11452865600586,-4.072781085968018,19.261507034301758,0.1650901436805725,1.770938515663147,-0.15231649577617645,0.0,0.0,0.0,0.0,0.0,0.0,0.0,-0.28664770129307154,-0.00022009912616866834,-0.5267772809124589,0.23100291785160362,0.12027325229132067,-0.12487176374616683,-0.15314303911261667,1.0544105023849777,0.32386846475852166,-0.39250599812545567,-2.1532967988399037,0.864753797648414,2.4658788878520355,0.5444986187536442,1.0544104758940245,0.3238615046091247,-0.39250456234122666,-2.153291787532338,0.8647539153680389,2.46587817577521,0.5445020185570556,1.8881826550029903e-06,0.0012471031992285734,-0.0005911504766089323,6.761220376088046e-05,0.00015505815196841929,0.00033125466578003517,-0.0008164519450481772,0.0,0.0,0.0,0.0,0.0,0.0,0.0,-2.6490953208835322e-08,-6.960149396939563e-06,1.4357842290091405e-06,5.011307565805367e-06,1.1771962493689614e-07,-7.120768255042265e-07,3.3998034113524866e-06,-1.8881826550029903e-06,-0.0012471031992285734,0.0005911504766089323,-6.761220376088046e-05,-0.00015505815196841929,-0.00033125466578003517,0.0008164519450481772,0.2720577120780945,34.11452865600586,4.072781085968018,-19.261507034301758,-0.1650901436805725,-1.770938515663147,0.15231649577617645,0
48,0.2350008487701416,-0.2720577120780945,-34.11452865600586,-4.072781085968018,19.261507034301758,0.1650901436805725,1.770938515663147,-0.15231649577617645,0.0,0.0,0.0,0.0,0.0,0.0,0.0,-0.28664770129307154,-0.00022009912616866834,-0.5267772809124589,0.23100291785160362,0.12027325229132067,-0.12487176374616683,-0.15314303911261667,1.0544105023849777,0.32386846475852166,-0.39250599812545567,-2.1532967988399037,0.864753797648414,2.4658788878520355,0.5444986187536442,1.0544104758940245,0.3238615046091247,-0.39250456234122666,-2.153291787532338,0.8647539153680389,2.46587817577521,0.5445020185570556,1.8881826550029903e-06,0.0012471031992285734,-0.0005911504766089323,6.761220376088046e-05,0.00015505815196841929,0.00033125466578003517,-0.0008164519450481772,0.0,0.0,0.0,0.0,0.0,0.0,0.0,-2.6490953208835322e-08,-6.960149396939563e-06,1.4357842290091405e-06,5.011307565805367e-06,1.1771962493689614e-07,-7.120768255042265e-07,3.3998034113524866e-06,-1.8881826550029903e-06,-0.0012471031992285734,0.0005911504766089323,-6.761220376088046e-05,-0.00015505815196841929,-0.00033125466578003517,0.0008164519450481772,0.2720577120780945,34.11452865600586,4.072781085968018,-19.261507034301758,-0.1650901436805725,-1.770938515663147,0.15231649577617645,0
49,0.23999404907226562,-0.2998287081718445,-34.06295394897461,-4.072781085968018,19.289278030395508,0.1714988350868225,1.783755898475647,-0.11844198405742645,0.0,0.0,0.0,0.0,0.0,0.0,0.0,-0.303191228723368,-0.0068848678672289955,-0.5439874128717711,0.23230760579419177,0.1200827098486647,-0.1236841749848146,-0.15526817748905314,1.054412425826168,0.3238648454808352,-0.39250599845250267,-2.1532987476817347,0.864753085553646,2.465877463698387,0.5444952081314943,1.0544104758940245,0.3238615046091247,-0.39250456234122666,-2.153291787532338,0.8647539153680389,2.46587817577521,0.5445020185570556,0.00014147772002267016,-0.000355697914009465,-0.0009924835848264973,-0.0004295785545623294,-0.00013739388587072655,-0.00018008746069767852,-0.0015479254081716051,0.0,0.0,0.0,0.0,0.0,0.0,0.0,-1.9499321435301198e-06,-3.340871710499904e-06,1.4361112760097328e-06,6.960149396828541e-06,8.298143928664459e-07,7.120768228396912e-07,6.810425561276645e-06,-0.00014147772002267016,0.000355697914009465,0.0009924835848264973,0.0004295785545623294,0.00013739388587072655,0.00018008746069767852,0.0015479254081716051,0.2998287081718445,34.06295394897461,4.072781085968018,-19.289278030395508,-0.1714988350868225,-1.783755898475647,0.11844198405742645,0
50,0.24499034881591797,-0.2998287081718445,-34.06295394897461,-4.072781085968018,19.289278030395508,0.1714988350868225,1.783755898475647,-0.11844198405742645,0.0,0.0,0.0,0.0,0.0,0.0,0.0,-0.303191228723368,-0.0068848678672289955,-0.5439874128717711,0.23230760579419177,0.1200827098486647,-0.1236841749848146,-0.15526817748905314,1.054412425826168,0.3238648454808352,-0.39250599845250267,-2.1532987476817347,0.864753085553646,2.465877463698387,0.5444952081314943,1.0544104758940245,0.3238615046091247,-0.39250456234122666,-2.153291787532338,0.8647539153680389,2.46587817577521,0.5445020185570556,0.00014147772002267016,-0.000355697914009465,-0.0009924835848264973,-0.0004295785545623294,-0.00013739388587072655,-0.00018008746069767852,-0.0015479254081716051,0.0,0.0,0.0,0.0,0.0,0.0,0.0,-1.9499321435301198e-06,-3.340871710499904e-06,1.4361112760097328e-06,6.960149396828541e-06,8.298143928664459e-07,7.120768228396912e-07,6.810425561276645e-06,-0.00014147772002267016,0.000355697914009465,0.0009924835848264973,0.0004295785545623294,0.00013739388587072655,0.00018008746069767852,0.0015479254081716051,0.2998287081718445,34.06295394897461,4.072781085968018,-19.289278030395508,-0.1714988350868225,-1.783755898475647,0.11844198405742645,0
51,0.24998807907104492,-0.2720577120780945,-34.03915023803711,-4.072781085968018,19.237703323364258,0.1650901436805725,1.783755898475647,-0.16604940593242645,0.0,0.0,0.0,0.0,0.0,0.0,0.0,-0.29042104894071263,0.009568359005651736,-0.5313979099050252,0.22509343784249436,0.11915919857318051,-0.12585703736854473,-0.15586430580467486,1.0544112267980836,0.32386317504497997,-0.39250575709048613,-2.153295128517102,0.864753797630469,2.465877463698387,0.5445001446329908,1.0544104758940245,0.3238615046091247,-0.39250456234122666,-2.153291787532338,0.8647539153680389,2.46587817577521,0.5445020185570556,-0.0005357353710485244,-0.00035386899548454573,-0.0005652660310263968,0.0005203694091243206,0.00038431089285523653,-0.00010188705866104093,0.0008244346137548547,0.0,0.0,0.0,0.0,0.0,0.0,0.0,-7.509040591546778e-07,-1.670435855249952e-06,1.1947492594699405e-06,3.3409847639553902e-06,1.1773756991573237e-07,7.120768228396912e-07,1.8739240648102395e-06,0.0005357353710485244,0.00035386899548454573,0.0005652660310263968,-0.0005203694091243206,-0.00038431089285523653,0.00010188705866104093,-0.0008244346137548547,0.2720577120780945,34.03915023803711,4.072781085968018,-19.237703323364258,-0.1650901436805725,-1.783755898475647,0.16604940593242645,0
52,0.25502443313598633,-0.2720577120780945,-34.03915023803711,-4.072781085968018,19.237703323364258,0.1650901436805725,1.783755898475647,-0.16604940593242645,0.0,0.0,0.0,0.0,0.0,0.0,0.0,-0.29042104894071263,0.009568359005651736,-0.5313979099050252,0.22509343784249436,0.11915919857318051,-0.12585703736854473,-0.15586430580467486,1.0544112267980836,0.32386317504497997,-0.39250575709048613,-2.153295128517102,0.864753797630469,2.465877463698387,0.5445001446329908,1.0544104758940245,0.3238615046091247,-0.39250456234122666,-2.153291787532338,0.8647539153680389,2.46587817577521,0.5445020185570556,-0.0005357353710485244,-0.00035386899548454573,-0.0005652660310263968,0.0005203694091243206,0.00038431089285523653,-0.00010188705866104093,0.0008244346137548547,0.0,0.0,0.0,0.0,0.0,0.0,0.0,-7.509040591546778e-07,-1.670435855249952e-06,1.1947492594699405e-06,3.3409847639553902e-06,1.1773756991573237e-07,7.120768228396912e-07,1.8739240648102395e-06,0.0005357353710485244,0.00035386899548454573,0.0005652660310263968,-0.0005203694091243206,-0.00038431089285523653,0.00010188705866104093,-0.0008244346137548547,0.2720577120780945,34.03915023803711,4.072781085968018,-19.237703323364258,-0.1650901436805725,-1.783755898475647,0.16604940593242645,0
53,0.25999951362609863,-0.2998287081718445,-34.06295394897461,-4.048977375030518,19.289278030395508,0.1650901436805725,1.783755898475647,-0.17337362468242645,0.0,0.0,0.0,0.0,0.0,0.0,0.0,-0.300417573714195,0.0015404304105243454,-0.5418215367254395,0.22903943446365382,0.11929229120987497,-0.12480758496734176,-0.1551342737377631,1.0544155255988343,0.3238648454808352,-0.39250766888699723,-2.1532987568391015,0.864753797630469,2.465877463698387,0.5445041388023478,1.0544104758940245,0.3238615046091247,-0.39250456234122666,-2.153291787532338,0.8647539153680389,2.46587817577521,0.5445020185570556,8.954568352035014e-05,-4.094219504208805e-05,-0.001631798124265195,-0.0008653143783974374,0.000388575943631177,-0.0001442267867549167,0.0008972176703611686,0.0,0.0,0.0,0.0,0.0,0.0,0.0,-5.049704809856337e-06,-3.340871710499904e-06,3.106545770570346e-06,6.969306763693339e-06,1.1773756991573237e-07,7.120768228396912e-07,-2.12024529222532e-06,-8.954568352035014e-05,4.094219504208805e-05,0.001631798124265195,0.0008653143783974374,-0.000388575943631177,0.0001442267867549167,-0.0008972176703611686,0.2998287081718445,34.06295394897461,4.048977375030518,-19.289278030395508,-0.1650901436805725,-1.783755898475647,0.17337362468242645,0
54,0.2649989128112793,-0.2998287081718445,-34.06295394897461,-4.048977375030518,19.289278030395508,0.1650901436805725,1.783755898475647,-0.17337362468242645,0.0,0.0,0.0,0.0,0.0,0.0,0.0,-0.300417573714195,0.0015404304105243454,-0.5418215367254395,0.22903943446365382,0.11929229120987497,-0.12480758496734176,-0.1551342737377631,1.0544155255988343,0.3238648454808352,-0.39250766888699723,-2.1532987568391015,0.864753797630469,2.465877463698387,0.5445041388023478,1.0544104758940245,0.3238615046091247,-0.39250456234122666,-2.153291787532338,0.8647539153680389,2.46587817577521,0.5445020185570556,8.954568352035014e-05,-4.094219504208805e-05,-0.001631798124265195,-0.0008653143783974374,0.000388575943631177,-0.0001442267867549167,0.0008972176703611686,0.0,0.0,0.0,0.0,0.0,0.0,0.0,-5.049704809856337e-06,-3.340871710499904e-06,3.106545770570346e-06,6.969306763693339e-06,1.1773756991573237e-07,7.120768228396912e-07,-2.12024529222532e-06,-8.954568352035014e-05,4.094219504208805e-05,0.001631798124265195,0.0008653143783974374,-0.000388575943631177,0.0001442267867549167,-0.0008972176703611686,0.2998287081718445,34.06295394897461,4.048977375030518,-19.289278030395508,-0.1650901436805725,-1.783755898475647,0.17337362468242645,0
55,0.26999998092651367,-0.2998287081718445,-34.06295394897461,-4.048977375030518,19.289278030395508,0.1650901436805725,1.783755898475647,-0.17337362468242645,0.0,0.0,0.0,0.0,0.0,0.0,0.0,-0.300417573714195,0.0015404304105243454,-0.5418215367254395,0.22903943446365382,0.11929229120987497,-0.12480758496734176,-0.1551342737377631,1.0544155255988343,0.3238648454808352,-0.39250766888699723,-2.1532987568391015,0.864753797630469,2.465877463698387,0.5445041388023478,1.0544104758940245,0.3238615046091247,-0.39250456234122666,-2.153291787532338,0.8647539153680389,2.46587817577521,0.5445020185570556,8.954568352035014e-05,-4.094219504208805e-05,-0.001631798124265195,-0.0008653143783974374,0.000388575943631177,-0.0001442267867549167,0.0008972176703611686,0.0,0.0,0.0,0.0,0.0,0.0,0.0,-5.049704809856337e-06,-3.340871710499904e-06,3.106545770570346e-06,6.969306763693339e-06,1.1773756991573237e-07,7.120768228396912e-07,-2.12024529222532e-06,-8.954568352035014e-05,4.094219504208805e-05,0.001631798124265195,0.0008653143783974374,-0.000388575943631177,0.0001442267867549167,-0.0008972176703611686,0.2998287081718445,34.06295394897461,4.048977375030518,-19.289278030395508,-0.1650901436805725,-1.783755898475647,0.17337362468242645,0
56,0.27500414848327637,-0.2998287081718445,-34.06295394897461,-4.048977375030518,19.289278030395508,0.1650901436805725,1.783755898475647,-0.17337362468242645,0.0,0.0,0.0,0.0,0.0,0.0,0.0,-0.300417573714195,0.0015404304105243454,-0.5418215367254395,0.22903943446365382,0.11929229120987497,-0.12480758496734176,-0.1551342737377631,1.0544155255988343,0.3238648454808352,-0.39250766888699723,-2.1532987568391015,0.864753797630469,2.465877463698387,0.5445041388023478,1.0544104758940245,0.3238615046091247,-0.39250456234122666,-2.153291787532338,0.8647539153680389,2.46587817577521,0.5445020185570556,8.954568352035014e-05,-4.094219504208805e-05,-0.001631798124265195,-0.0008653143783974374,0.000388575943631177,-0.0001442267867549167,0.0008972176703611686,0.0,0.0,0.0,0.0,0.0,0.0,0.0,-5.049704809856337e-06,-3.340871710499904e-06,3.106545770570346e-06,6.969306763693339e-06,1.1773756991573237e-07,7.120768228396912e-07,-2.12024529222532e-06,-8.954568352035014e-05,4.094219504208805e-05,0.001631798124265195,0.0008653143783974374,-0.000388575943631177,0.0001442267867549167,-0.0008972176703611686,0.2998287081718445,34.06295394897461,4.048977375030518,-19.289278030395508,-0.1650901436805725,-1.783755898475647,0.17337362468242645,0
57,0.27996349334716797,-0.2998287081718445,-34.06295394897461,-4.048977375030518,19.289278030395508,0.1650901436805725,1.783755898475647,-0.17337362468242645,0.0,0.0,0.0,0.0,0.0,0.0,0.0,-0.300417573714195,0.0015404304105243454,-0.5418215367254395,0.22903943446365382,0.11929229120987497,-0.12480758496734176,-0.1551342737377631,1.0544155255988343,0.3238648454808352,-0.39250766888699723,-2.1532987568391015,0.864753797630469,2.465877463698387,0.5445041388023478,1.0544104758940245,0.3238615046091247,-0.39250456234122666,-2.153291787532338,0.8647539153680389,2.46587817577521,0.5445020185570556,8.954568352035014e-05,-4.094219504208805e-05,-0.001631798124265195,-0.0008653143783974374,0.000388575943631177,-0.0001442267867549167,0.0008972176703611686,0.0,0.0,0.0,0.0,0.0,0.0,0.0,-5.049704809856337e-06,-3.340871710499904e-06,3.106545770570346e-06,6.969306763693339e-06,1.1773756991573237e-07,7.120768228396912e-07,-2.12024529222532e-06,-8.954568352035014e-05,4.094219504208805e-05,0.001631798124265195,0.0008653143783974374,-0.000388575943631177,0.0001442267867549167,-0.0008972176703611686,0.2998287081718445,34.06295394897461,4.048977375030518,-19.289278030395508,-0.1650901436805725,-1.783755898475647,0.17337362468242645,0
58,0.28500819206237793,-0.3514034152030945,-34.11452865600586,-4.124355792999268,19.261507034301758,0.1714988350868225,1.790164589881897,-0.13217489421367645,0.0,0.0,0.0,0.0,0.0,0.0,0.0,-0.3010859405391304,0.007811255817128458,-0.5397481944242771,0.22416088595391115,0.11851102928643557,-0.12454411197887953,-0.1565913450249235,1.0544168655602908,0.32386846475852166,-0.39250237917481806,-2.1532967988399037,0.864753085553646,2.4658767516215643,0.5444963807976908,1.0544104758940245,0.3238615046091247,-0.39250456234122666,-2.153291787532338,0.8647539153680389,2.46587817577521,0.5445020185570556,0.0010789035936678312,0.0011363546246463748,0.000674518086804465,-0.00029966748842167815,-5.921349865732738e-06,-9.04294290804466e-05,-0.001047779396444601,0.0,0.0,0.0,0.0,0.0,0.0,0.0,-6.38966626631543e-06,-6.960149396939563e-06,-2.1831664085980584e-06,5.011307565805367e-06,8.298143928664459e-07,1.4241536456793824e-06,5.637759364796047e-06,-0.0010789035936678312,-0.0011363546246463748,-0.000674518086804465,0.00029966748842167815,5.921349865732738e-06,9.04294290804466e-05,0.001047779396444601,0.3514034152030945,34.11452865600586,4.124355792999268,-19.261507034301758,-0.1714988350868225,-1.790164589881897,0.13217489421367645,0
59,0.290008544921875,-0.3514034152030945,-34.11452865600586,-4.124355792999268,19.261507034301758,0.1714988350868225,1.790164589881897,-0.13217489421367645,0.0,0.0,0.0,0.0,0.0,0.0,0.0,-0.3010859405391304,0.007811255817128458,-0.5397481944242771,0.22416088595391115,0.11851102928643557,-0.12454411197887953,-0.1565913450249235,1.0544168655602908,0.32386846475852166,-0.39250237917481806,-2.1532967988399037,0.864753085553646,2.4658767516215643,0.5444963807976908,1.0544104758940245,0.3238615046091247,-0.39250456234122666,-2.153291787532338,0.8647539153680389,2.46587817577521,0.5445020185570556,0.0010789035936678312,0.0011363546246463748,0.000674518086804465,-0.00029966748842167815,-5.921349865732738e-06,-9.04294290804466e-05,-0.001047779396444601,0.0,0.0,0.0,0.0,0.0,0.0,0.0,-6.38966626631543e-06,-6.960149396939563e-06,-2.1831664085980584e-06,5.011307565805367e-06,8.298143928664459e-07,1.4241536456793824e-06,5.637759364796047e-06,-0.0010789035936678312,-0.0011363546246463748,-0.000674518086804465,0.00029966748842167815,5.921349865732738e-06,9.04294290804466e-05,0.001047779396444601,0.3514034152030945,34.11452865600586,4.124355792999268,-19.261507034301758,-0.1714988350868225,-1.790164589881897,0.13217489421367645,0
60,0.2950265407562256,-0.2720577120780945,-34.09072494506836,-4.124355792999268,19.261507034301758,0.1888938546180725,1.783755898475647,-0.13858358561992645,0.0,0.0,0.0,0.0,0.0,0.0,0.0,-0.29068569192525007,0.004507320419395035,-0.5307571281974065,0.22805575986472149,0.11791536424468257,-0.1245236441125031,-0.15730581362632473,1.05441071435358,0.32386679432266635,-0.39250166391908076,-2.1532967988399037,0.8647511527736982,2.465877463698387,0.5444970972351645,1.0544104758940245,0.3238615046091247,-0.39250456234122666,-2.153291787532338,0.8647539153680389,2.46587817577521,0.5445020185570556,-0.00034740814944825944,0.0008173411966867435,0.00019565578954387132,0.00013249236591585863,-0.0006685844246250644,-0.0001505097573047648,-0.00021020738928017053,0.0,0.0,0.0,0.0,0.0,0.0,0.0,-2.3845955543499997e-07,-5.2897135416341e-06,-2.898422145902746e-06,5.011307565805367e-06,2.7625943407327824e-06,7.120768228396912e-07,4.921321891115937e-06,0.00034740814944825944,-0.0008173411966867435,-0.00019565578954387132,-0.00013249236591585863,0.0006685844246250644,0.0001505097573047648,0.00021020738928017053,0.2720577120780945,34.09072494506836,4.124355792999268,-19.261507034301758,-0.1888938546180725,-1.783755898475647,0.13858358561992645,0
61,0.30004143714904785,-0.2720577120780945,-34.09072494506836,-4.124355792999268,19.261507034301758,0.1888938546180725,1.783755898475647,-0.13858358561992645,0.0,0.0,0.0,0.0,0.0,0.0,0.0,-0.29068569192525007,0.004507320419395035,-0.5307571281974065,0.22805575986472149,0.11791536424468257,-0.1245236441125031,-0.15730581362632473,1.05441071435358,0.32386679432266635,-0.39250166391908076,-2.1532967988399037,0.8647511527736982,2.465877463698387,0.5444970972351645,1.0544104758940245,0.3238615046091247,-0.39250456234122666,-2.153291787532338,0.8647539153680389,2.46587817577521,0.5445020185570556,-0.00034740814944825944,0.0008173411966867435,0.00019565578954387132,0.00013249236591585863,-0.0006685844246250644,-0.0001505097573047648,-0.00021020738928017053,0.0,0.0,0.0,0.0,0.0,0.0,0.0,-2.3845955543499997e-07,-5.2897135416341e-06,-2.898422145902746e-06,5.011307565805367e-06,2.7625943407327824e-06,7.120768228396912e-07,4.921321891115937e-06,0.00034740814944825944,-0.0008173411966867435,-0.00019565578954387132,-0.00013249236591585863,0.0006685844246250644,0.0001505097573047648,0.00021020738928017053,0.2720577120780945,34.09072494506836,4.124355792999268,-19.261507034301758,-0.1888938546180725,-1.783755898475647,0.13858358561992645,0
62,0.30501437187194824,-0.2720577120780945,-34.03915023803711,-4.096584796905518,19.261507034301758,0.1650901436805725,1.783755898475647,-0.13858358561992645,0.0,0.0,0.0,0.0,0.0,0.0,0.0,-0.2895091986047396,-0.0056129651461709,-0.5347303017377817,0.23349070204640718,0.11806855462479443,-0.12449799182543074,-0.1568936407084881,1.0544105566791178,0.32386317504497997,-0.39250430151358306,-2.1532967988399037,0.864753797630469,2.4658774641829035,0.5444974465718141,1.0544104758940245,0.3238615046091247,-0.39250456234122666,-2.153291787532338,0.8647539153680389,2.46587817577521,0.5445020185570556,-0.00024208667962631562,-0.0012698297556801362,-0.00012952279187557826,0.0001090885118514498,0.0002622451145529309,-0.0001922598305639327,-0.0007761484854511364,0.0,0.0,0.0,0.0,0.0,0.0,0.0,-8.078509328157679e-08,-1.670435855249952e-06,-2.608276435944745e-07,5.011307565805367e-06,1.1773756991573237e-07,7.115923064127117e-07,4.5719852415082585e-06,0.00024208667962631562,0.0012698297556801362,0.00012952279187557826,-0.0001090885118514498,-0.0002622451145529309,0.0001922598305639327,0.0007761484854511364,0.2720577120780945,34.03915023803711,4.096584796905518,-19.261507034301758,-0.1650901436805725,-1.783755898475647,0.13858358561992645,0
63,0.3100399971008301,-0.2720577120780945,-34.03915023803711,-4.096584796905518,19.261507034301758,0.1650901436805725,1.783755898475647,-0.13858358561992645,0.0,0.0,0.0,0.0,0.0,0.0,0.0,-0.2895091986047396,-0.0056129651461709,-0.5347303017377817,0.23349070204640718,0.11806855462479443,-0.12449799182543074,-0.1568936407084881,1.0544105566791178,0.32386317504497997,-0.39250430151358306,-2.1532967988399037,0.864753797630469,2.4658774641829035,0.5444974465718141,1.0544104758940245,0.3238615046091247,-0.39250456234122666,-2.153291787532338,0.8647539153680389,2.46587817577521,0.5445020185570556,-0.00024208667962631562,-0.0012698297556801362,-0.00012952279187557826,0.0001090885118514498,0.0002622451145529309,-0.0001922598305639327,-0.0007761484854511364,0.0,0.0,0.0,0.0,0.0,0.0,0.0,-8.078509328157679e-08,-1.670435855249952e-06,-2.608276435944745e-07,5.011307565805367e-06,1.1773756991573237e-07,7.115923064127117e-07,4.5719852415082585e-06,0.00024208667962631562,0.0012698297556801362,0.00012952279187557826,-0.0001090885118514498,-0.0002622451145529309,0.0001922598305639327,0.0007761484854511364,0.2720577120780945,34.03915023803711,4.096584796905518,-19.261507034301758,-0.1650901436805725,-1.783755898475647,0.13858358561992645,0
64,0.31500864028930664,-0.2720577120780945,-34.03915023803711,-4.096584796905518,19.261507034301758,0.1650901436805725,1.783755898475647,-0.13858358561992645,0.0,0.0,0.0,0.0,0.0,0.0,0.0,-0.2895091986047396,-0.0056129651461709,-0.5347303017377817,0.23349070204640718,0.11806855462479443,-0.12449799182543074,-0.1568936407084881,1.0544105566791178,0.32386317504497997,-0.39250430151358306,-2.1532967988399037,0.864753797630469,2.4658774641829035,0.5444974465718141,1.0544104758940245,0.3238615046091247,-0.39250456234122666,-2.153291787532338,0.8647539153680389,2.46587817577521,0.5445020185570556,-0.00024208667962631562,-0.0012698297556801362,-0.00012952279187557826,0.0001090885118514498,0.0002622451145529309,-0.0001922598305639327,-0.0007761484854511364,0.0,0.0,0.0,0.0,0.0,0.0,0.0,-8.078509328157679e-08,-1.670435855249952e-06,-2.608276435944745e-07,5.011307565805367e-06,1.1773756991573237e-07,7.115923064127117e-07,4.5719852415082585e-06,0.00024208667962631562,0.0012698297556801362,0.00012952279187557826,-0.0001090885118514498,-0.0002622451145529309,0.0001922598305639327,0.0007761484854511364,0.2720577120780945,34.03915023803711,4.096584796905518,-19.261507034301758,-0.1650901436805725,-1.783755898475647,0.13858358561992645,0
65,0.3199942111968994,-0.2720577120780945,-34.03915023803711,-4.096584796905518,19.261507034301758,0.1650901436805725,1.783755898475647,-0.13858358561992645,0.0,0.0,0.0,0.0,0.0,0.0,0.0,-0.2895091986047396,-0.0056129651461709,-0.5347303017377817,0.23349070204640718,0.11806855462479443,-0.12449799182543074,-0.1568936407084881,1.0544105566791178,0.32386317504497997,-0.39250430151358306,-2.1532967988399037,0.864753797630469,2.4658774641829035,0.5444974465718141,1.0544104758940245,0.3238615046091247,-0.39250456234122666,-2.153291787532338,0.8647539153680389,2.46587817577521,0.5445020185570556,-0.00024208667962631562,-0.0012698297556801362,-0.00012952279187557826,0.0001090885118514498,0.0002622451145529309,-0.0001922598305639327,-0.0007761484854511364,0.0,0.0,0.0,0.0,0.0,0.0,0.0,-8.078509328157679e-08,-1.670435855249952e-06,-2.608276435944745e-07,5.011307565805367e-06,1.1773756991573237e-07,7.115923064127117e-07,4.5719852415082585e-06,0.00024208667962631562,0.0012698297556801362,0.00012952279187557826,-0.0001090885118514498,-0.0002622451145529309,0.0001922598305639327,0.0007761484854511364,0.2720577120780945,34.03915023803711,4.096584796905518,-19.261507034301758,-0.1650901436805725,-1.783755898475647,0.13858358561992645,0
66,0.32517075538635254,-0.3236324191093445,-34.06295394897461,-4.096584796905518,19.289278030395508,0.1769919991493225,1.790164589881897,-0.12485067546367645,0.0,0.0,0.0,0.0,0.0,0.0,0.0,-0.29014881309788676,0.0073572088963954774,-0.5347521734641852,0.22391615205585297,0.11806030221656189,-0.12613821439388953,-0.15786682417133033,1.0544143346082313,0.3238648454808352,-0.3925043280164996,-2.1532987476817347,0.8647524752020835,2.465876751621567,0.5444955674821208,1.0544104758940245,0.3238615046091247,-0.39250456234122666,-2.153291787532338,0.8647539153680389,2.46587817577521,0.5445020185570556,0.0006406497492126067,-0.00021217059659117495,0.00022663118854210706,-0.0011314530742918417,-0.0002275298165605388,-0.000399679202035863,-0.0015265679582318746,0.0,0.0,0.0,0.0,0.0,0.0,0.0,-3.85871420682804e-06,-3.340871710499904e-06,-2.3432472706641505e-07,6.960149396828541e-06,1.4401659553797685e-06,1.4241536430148471e-06,6.451074934799017e-06,-0.0006406497492126067,0.00021217059659117495,-0.00022663118854210706,0.0011314530742918417,0.0002275298165605388,0.000399679202035863,0.0015265679582318746,0.3236324191093445,34.06295394897461,4.096584796905518,-19.289278030395508,-0.1769919991493225,-1.790164589881897,0.12485067546367645,0
67,0.32999658584594727,-0.3236324191093445,-34.06295394897461,-4.096584796905518,19.289278030395508,0.1769919991493225,1.790164589881897,-0.12485067546367645,0.0,0.0,0.0,0.0,0.0,0.0,0.0,-0.29014881309788676,0.0073572088963954774,-0.5347521734641852,0.22391615205585297,0.11806030221656189,-0.12613821439388953,-0.15786682417133033,1.0544143346082313,0.3238648454808352,-0.3925043280164996,-2.1532987476817347,0.8647524752020835,2.465876751621567,0.5444955674821208,1.0544104758940245,0.3238615046091247,-0.39250456234122666,-2.153291787532338,0.8647539153680389,2.46587817577521,0.5445020185570556,0.0006406497492126067,-0.00021217059659117495,0.00022663118854210706,-0.0011314530742918417,-0.0002275298165605388,-0.000399679202035863,-0.0015265679582318746,0.0,0.0,0.0,0.0,0.0,0.0,0.0,-3.85871420682804e-06,-3.340871710499904e-06,-2.3432472706641505e-07,6.960149396828541e-06,1.4401659553797685e-06,1.4241536430148471e-06,6.451074934799017e-06,-0.0006406497492126067,0.00021217059659117495,-0.00022663118854210706,0.0011314530742918417,0.0002275298165605388,0.000399679202035863,0.0015265679582318746,0.3236324191093445,34.06295394897461,4.096584796905518,-19.289278030395508,-0.1769919991493225,-1.790164589881897,0.12485067546367645,0
68,0.3350038528442383,-0.2720577120780945,-34.11452865600586,-4.148159503936768,19.261507034301758,0.1714988350868225,1.777347207069397,-0.11844198405742645,0.0,0.0,0.0,0.0,0.0,0.0,0.0,-0.2992051356967367,-0.012893577964710624,-0.5392494497721548,0.23253273469913374,0.11844475173656098,-0.12383459355870287,-0.15797127925462584,1.0544105641976524,0.32386846475852166,-0.3925007087389628,-2.1532967988399037,0.864753085553646,2.46587817577521,0.5444948549187855,1.0544104758940245,0.3238615046091247,-0.39250456234122666,-2.153291787532338,0.8647539153680389,2.46587817577521,0.5445020185570556,-0.0006767245027547893,0.0002847560533583406,0.001560656428289606,-3.8794827752200674e-05,1.885934226963676e-05,-1.2726010242331964e-05,-0.0012055649066546213,0.0,0.0,0.0,0.0,0.0,0.0,0.0,-8.830362796530267e-08,-6.960149396939563e-06,-3.8536022638480105e-06,5.011307565805367e-06,8.298143928664459e-07,0.0,7.163638270135664e-06,0.0006767245027547893,-0.0002847560533583406,-0.001560656428289606,3.8794827752200674e-05,-1.885934226963676e-05,1.2726010242331964e-05,0.0012055649066546213,0.2720577120780945,34.11452865600586,4.148159503936768,-19.261507034301758,-0.1714988350868225,-1.777347207069397,0.11844198405742645,0
69,0.3400425910949707,-0.2720577120780945,-34.11452865600586,-4.148159503936768,19.261507034301758,0.1714988350868225,1.777347207069397,-0.11844198405742645,0.0,0.0,0.0,0.0,0.0,0.0,0.0,-0.2992051356967367,-0.012893577964710624,-0.5392494497721548,0.23253273469913374,0.11844475173656098,-0.12383459355870287,-0.15797127925462584,1.0544105641976524,0.32386846475852166,-0.3925007087389628,-2.1532967988399037,0.864753085553646,2.46587817577521,0.5444948549187855,1.0544104758940245,0.3238615046091247,-0.39250456234122666,-2.153291787532338,0.8647539153680389,2.46587817577521,0.5445020185570556,-0.0006767245027547893,0.0002847560533583406,0.001560656428289606,-3.8794827752200674e-05,1.885934226963676e-05,-1.2726010242331964e-05,-0.0012055649066546213,0.0,0.0,0.0,0.0,0.0,0.0,0.0,-8.830362796530267e-08,-6.960149396939563e-06,-3.8536022638480105e-06,5.011307565805367e-06,8.298143928664459e-07,0.0,7.163638270135664e-06,0.0006767245027547893,-0.0002847560533583406,-0.001560656428289606,3.8794827752200674e-05,-1.885934226963676e-05,1.2726010242331964e-05,0.0012055649066546213,0.2720577120780945,34.11452865600586,4.148159503936768,-19.261507034301758,-0.1714988350868225,-1.777347207069397,0.11844198405742645,0
70,0.3450131416320801,-0.3236324191093445,-34.06295394897461,-4.048977375030518,19.213899612426758,0.1769919991493225,1.777347207069397,-0.17337362468242645,0.0,0.0,0.0,0.0,0.0,0.0,0.0,-0.2954571698652826,0.00026079064810683816,-0.5317925577460277,0.2231812849106192,0.11861795447943764,-0.12552574515790793,-0.15595688367445917,1.054414095171877,0.3238648454808352,-0.39250766888835975,-2.1532934579681933,0.8647524752020835,2.46587817722876,0.5445009627950603,1.0544104758940245,0.3238615046091247,-0.39250456234122666,-2.153291787532338,0.8647539153680389,2.46587817577521,0.5445020185570556,0.000610831225655162,-0.00029255600504847,-0.0012295616226595779,0.001281264511031259,-0.00021029254288340771,5.078588909988266e-05,0.0011223901153335322,0.0,0.0,0.0,0.0,0.0,0.0,0.0,-3.6192778525290237e-06,-3.340871710499904e-06,3.106547133091553e-06,1.6704358554164855e-06,1.4401659553797685e-06,-1.4535501691170793e-09,1.055761995272242e-06,-0.000610831225655162,0.00029255600504847,0.0012295616226595779,-0.001281264511031259,0.00021029254288340771,-5.078588909988266e-05,-0.0011223901153335322,0.3236324191093445,34.06295394897461,4.048977375030518,-19.213899612426758,-0.1769919991493225,-1.777347207069397,0.17337362468242645,0
71,0.35004115104675293,-0.3236324191093445,-34.06295394897461,-4.048977375030518,19.213899612426758,0.1769919991493225,1.777347207069397,-0.17337362468242645,0.0,0.0,0.0,0.0,0.0,0.0,0.0,-0.2954571698652826,0.00026079064810683816,-0.5317925577460277,0.2231812849106192,0.11861795447943764,-0.12552574515790793,-0.15595688367445917,1.054414095171877,0.3238648454808352,-0.39250766888835975,-2.1532934579681933,0.8647524752020835,2.46587817722876,0.5445009627950603,1.0544104758940245,0.3238615046091247,-0.39250456234122666,-2.153291787532338,0.8647539153680389,2.46587817577521,0.5445020185570556,0.000610831225655162,-0.00029255600504847,-0.0012295616226595779,0.001281264511031259,-0.00021029254288340771,5.078588909988266e-05,0.0011223901153335322,0.0,0.0,0.0,0.0,0.0,0.0,0.0,-3.6192778525290237e-06,-3.340871710499904e-06,3.106547133091553e-06,1.6704358554164855e-06,1.4401659553797685e-06,-1.4535501691170793e-09,1.055761995272242e-06,-0.000610831225655162,0.00029255600504847,0.0012295616226595779,-0.001281264511031259,0.00021029254288340771,-5.078588909988266e-05,-0.0011223901153335322,0.3236324191093445,34.06295394897461,4.048977375030518,-19.213899612426758,-0.1769919991493225,-1.777347207069397,0.17337362468242645,0
72,0.35503244400024414,-0.2998287081718445,-34.06295394897461,-4.124355792999268,19.289278030395508,0.1714988350868225,1.790164589881897,-0.12485067546367645,0.0,0.0,0.0,0.0,0.0,0.0,0.0,-0.29905247237315113,-0.0035192100201154293,-0.5336885708537992,0.2249004782684347,0.11942064725752292,-0.1256301814457342,-0.15470329005973987,1.0544133785313012,0.3238648454808352,-0.39250023340760615,-2.1532987476817347,0.864753085553646,2.465876751621567,0.5444955713562664,1.0544104758940245,0.3238615046091247,-0.39250456234122666,-2.153291787532338,0.8647539153680389,2.46587817577521,0.5445020185570556,-0.00013894982816279474,-0.00020711260712953492,0.0004629021247924229,-0.0008883433794160802,-0.00022025384487117468,-0.0004026231468688375,-0.001959752405211903,0.0,0.0,0.0,0.0,0.0,0.0,0.0,-2.902637276758213e-06,-3.340871710499904e-06,-4.328933620512121e-06,6.960149396828541e-06,8.298143928664459e-07,1.4241536430148471e-06,6.447200789239105e-06,0.00013894982816279474,0.00020711260712953492,-0.0004629021247924229,0.0008883433794160802,0.00022025384487117468,0.0004026231468688375,0.001959752405211903,0.2998287081718445,34.06295394897461,4.124355792999268,-19.289278030395508,-0.1714988350868225,-1.790164589881897,0.12485067546367645,0
73,0.3600015640258789,-0.2998287081718445,-34.06295394897461,-4.124355792999268,19.289278030395508,0.1714988350868225,1.790164589881897,-0.12485067546367645,0.0,0.0,0.0,0.0,0.0,0.0,0.0,-0.29905247237315113,-0.0035192100201154293,-0.5336885708537992,0.2249004782684347,0.11942064725752292,-0.1256301814457342,-0.15470329005973987,1.0544133785313012,0.3238648454808352,-0.39250023340760615,-2.1532987476817347,0.864753085553646,2.465876751621567,0.5444955713562664,1.0544104758940245,0.3238615046091247,-0.39250456234122666,-2.153291787532338,0.8647539153680389,2.46587817577521,0.5445020185570556,-0.00013894982816279474,-0.00020711260712953492,0.0004629021247924229,-0.0008883433794160802,-0.00022025384487117468,-0.0004026231468688375,-0.001959752405211903,0.0,0.0,0.0,0.0,0.0,0.0,0.0,-2.902637276758213e-06,-3.340871710499904e-06,-4.328933620512121e-06,6.960149396828541e-06,8.298143928664459e-07,1.4241536430148471e-06,6.447200789239105e-06,0.00013894982816279474,0.00020711260712953492,-0.0004629021247924229,0.0008883433794160802,0.00022025384487117468,0.0004026231468688375,0.001959752405211903,0.2998287081718445,34.06295394897461,4.124355792999268,-19.289278030395508,-0.1714988350868225,-1.790164589881897,0.12485067546367645,0
74,0.365018367767334,-0.2720577120780945,-34.06295394897461,-4.072781085968018,19.237703323364258,0.1714988350868225,1.770938515663147,-0.16604940593242645,0.0,0.0,0.0,0.0,0.0,0.0,0.0,-0.2986304784518999,-0.007180787078141304,-0.5357406827213592,0.22921371908285462,0.11951960384564127,-0.12490461268434506,-0.15623155450675527,1.0544111925723574,0.3238648454808352,-0.3925059896100738,-2.1532951284040482,0.864753085553646,2.465878887852033,0.5445004978450606,1.0544104758940245,0.3238615046091247,-0.39250456234122666,-2.153291787532338,0.8647539153680389,2.46587817577521,0.5445020185570556,-0.0010820159019839864,-0.00013176307207973212,-0.0009172698189470361,0.0006968002738858503,0.00019030886581742685,0.0004520319466372098,0.0002154378084253531,0.0,0.0,0.0,0.0,0.0,0.0,0.0,-7.166783329015658e-07,-3.340871710499904e-06,1.4272688471650419e-06,3.340871710388882e-06,8.298143928664459e-07,-7.120768228396912e-07,1.5207119949955938e-06,0.0010820159019839864,0.00013176307207973212,0.0009172698189470361,-0.0006968002738858503,-0.00019030886581742685,-0.0004520319466372098,-0.0002154378084253531,0.2720577120780945,34.06295394897461,4.072781085968018,-19.237703323364258,-0.1714988350868225,-1.770938515663147,0.16604940593242645,0
75,0.3699955940246582,-0.2720577120780945,-34.06295394897461,-4.072781085968018,19.237703323364258,0.1714988350868225,1.770938515663147,-0.16604940593242645,0.0,0.0,0.0,0.0,0.0,0.0,0.0,-0.2986304784518999,-0.007180787078141304,-0.5357406827213592,0.22921371908285462,0.11951960384564127,-0.12490461268434506,-0.15623155450675527,1.0544111925723574,0.3238648454808352,-0.3925059896100738,-2.1532951284040482,0.864753085553646,2.465878887852033,0.5445004978450606,1.0544104758940245,0.3238615046091247,-0.39250456234122666,-2.153291787532338,0.8647539153680389,2.46587817577521,0.5445020185570556,-0.0010820159019839864,-0.00013176307207973212,-0.0009172698189470361,0.0006968002738858503,0.00019030886581742685,0.0004520319466372098,0.0002154378084253531,0.0,0.0,0.0,0.0,0.0,0.0,0.0,-7.166783329015658e-07,-3.340871710499904e-06,1.4272688471650419e-06,3.340871710388882e-06,8.298143928664459e-07,-7.120768228396912e-07,1.5207119949955938e-06,0.0010820159019839864,0.00013176307207973212,0.0009172698189470361,-0.0006968002738858503,-0.00019030886581742685,-0.0004520319466372098,-0.0002154378084253531,0.2720577120780945,34.06295394897461,4.072781085968018,-19.237703323364258,-0.1714988350868225,-1.770938515663147,0.16604940593242645,0
76,0.37500667572021484,-0.2998287081718445,-34.06295394897461,-4.072781085968018,19.237703323364258,0.1714988350868225,1.777347207069397,-0.11111776530742645,0.0,0.0,0.0,0.0,0.0,0.0,0.0,-0.300221422470838,-0.008038806478305658,-0.537453064045633,0.22910540357508835,0.11996165939394221,-0.12488586321652535,-0.15692597615478515,1.054412425830064,0.3238648454808352,-0.3925038497418034,-2.1532951284040482,0.864753085553646,2.46587817577521,0.544494041118695,1.0544104758940245,0.3238615046091247,-0.39250456234122666,-2.153291787532338,0.8647539153680389,2.46587817577521,0.5445020185570556,-0.00018594264440952967,-0.00048726863997619325,-0.0009628194284044131,0.0006588798051863719,8.118416274717766e-05,-2.117138348027766e-05,-0.0019336353756732349,0.0,0.0,0.0,0.0,0.0,0.0,0.0,-1.949936039524758e-06,-3.340871710499904e-06,-7.125994232470845e-07,3.340871710388882e-06,8.298143928664459e-07,0.0,7.977438360562417e-06,0.00018594264440952967,0.00048726863997619325,0.0009628194284044131,-0.0006588798051863719,-8.118416274717766e-05,2.117138348027766e-05,0.0019336353756732349,0.2998287081718445,34.06295394897461,4.072781085968018,-19.237703323364258,-0.1714988350868225,-1.777347207069397,0.11111776530742645,0
77,0.3800313472747803,-0.2998287081718445,-34.06295394897461,-4.072781085968018,19.237703323364258,0.1714988350868225,1.777347207069397,-0.11111776530742645,0.0,0.0,0.0,0.0,0.0,0.0,0.0,-0.300221422470838,-0.008038806478305658,-0.537453064045633,0.22910540357508835,0.11996165939394221,-0.12488586321652535,-0.15692597615478515,1.054412425830064,0.3238648454808352,-0.3925038497418034,-2.1532951284040482,0.864753085553646,2.46587817577521,0.544494041118695,1.0544104758940245,0.3238615046091247,-0.39250456234122666,-2.153291787532338,0.8647539153680389,2.46587817577521,0.5445020185570556,-0.00018594264440952967,-0.00048726863997619325,-0.0009628194284044131,0.0006588798051863719,8.118416274717766e-05,-2.117138348027766e-05,-0.0019336353756732349,0.0,0.0,0.0,0.0,0.0,0.0,0.0,-1.949936039524758e-06,-3.340871710499904e-06,-7.125994232470845e-07,3.340871710388882e-06,8.298143928664459e-07,0.0,7.977438360562417e-06,0.00018594264440952967,0.00048726863997619325,0.0009628194284044131,-0.0006588798051863719,-8.118416274717766e-05,2.117138348027766e-05,0.0019336353756732349,0.2998287081718445,34.06295394897461,4.072781085968018,-19.237703323364258,-0.1714988350868225,-1.777347207069397,0.11111776530742645,0
78,0.38500452041625977,-0.2998287081718445,-34.06295394897461,-4.124355792999268,19.289278030395508,0.1769919991493225,1.790164589881897,-0.17337362468242645,0.0,0.0,0.0,0.0,0.0,0.0,0.0,-0.2909383874571752,-0.004661669047055876,-0.5311534878050378,0.22868295528898228,0.11965819774147349,-0.12565607500078116,-0.15697040900488884,1.0544149001803784,0.3238648454808352,-0.3925023791707749,-2.1532987486992194,0.8647524752020835,2.4658767516215643,0.5445009598879598,1.0544104758940245,0.3238615046091247,-0.39250456234122666,-2.153291787532338,0.8647539153680389,2.46587817577521,0.5445020185570556,0.0004734995240659331,-0.0003528279148193232,0.0009215384353543937,-0.00044944707910809584,-7.912044840061719e-06,-0.000494117975150181,0.0011618629432121087,0.0,0.0,0.0,0.0,0.0,0.0,0.0,-4.42428635394343e-06,-3.340871710499904e-06,-2.1831704517527584e-06,6.961166881591652e-06,1.4401659553797685e-06,1.4241536456793824e-06,1.0586690958325207e-06,-0.0004734995240659331,0.0003528279148193232,-0.0009215384353543937,0.00044944707910809584,7.912044840061719e-06,0.000494117975150181,-0.0011618629432121087,0.2998287081718445,34.06295394897461,4.124355792999268,-19.289278030395508,-0.1769919991493225,-1.790164589881897,0.17337362468242645,0
79,0.38998961448669434,-0.2998287081718445,-34.06295394897461,-4.124355792999268,19.289278030395508,0.1769919991493225,1.790164589881897,-0.17337362468242645,0.0,0.0,0.0,0.0,0.0,0.0,0.0,-0.2909383874571752,-0.004661669047055876,-0.5311534878050378,0.22868295528898228,0.11965819774147349,-0.12565607500078116,-0.15697040900488884,1.0544149001803784,0.3238648454808352,-0.3925023791707749,-2.1532987486992194,0.8647524752020835,2.4658767516215643,0.5445009598879598,1.0544104758940245,0.3238615046091247,-0.39250456234122666,-2.153291787532338,0.8647539153680389,2.46587817577521,0.5445020185570556,0.0004734995240659331,-0.0003528279148193232,0.0009215384353543937,-0.00044944707910809584,-7.912044840061719e-06,-0.000494117975150181,0.0011618629432121087,0.0,0.0,0.0,0.0,0.0,0.0,0.0,-4.42428635394343e-06,-3.340871710499904e-06,-2.1831704517527584e-06,6.961166881591652e-06,1.4401659553797685e-06,1.4241536456793824e-06,1.0586690958325207e-06,-0.0004734995240659331,0.0003528279148193232,-0.0009215384353543937,0.00044944707910809584,7.912044840061719e-06,0.000494117975150181,-0.0011618629432121087,0.2998287081718445,34.06295394897461,4.124355792999268,-19.289278030395508,-0.1769919991493225,-1.790164589881897,0.17337362468242645,0
80,0.3950011730194092,-0.3236324191093445,-34.09072494506836,-4.096584796905518,19.237703323364258,0.1650901436805725,1.790164589881897,-0.17337362468242645,0.0,0.0,0.0,0.0,0.0,0.0,0.0,-0.3024519663607454,-0.008087993671474643,-0.5453271370961906,0.23005399421853143,0.12052633967282135,-0.12406590191458111,-0.15601889279369013,1.0544140981654628,0.32386679432266635,-0.3925043280166492,-2.1532951284040536,0.864753797630469,2.4658767516215643,0.5445009584344177,1.0544104758940245,0.3238615046091247,-0.39250456234122666,-2.153291787532338,0.8647539153680389,2.46587817577521,0.5445020185570556,0.0006449543406314385,3.846757218240998e-05,-0.00016146564689502283,0.0008479916483842105,0.0002253604390933701,-0.00013767907844593324,0.000898703998092806,0.0,0.0,0.0,0.0,0.0,0.0,0.0,-3.6222714383526977e-06,-5.2897135416341e-06,-2.3432457746386248e-07,3.3408717157179524e-06,1.1773756991573237e-07,1.4241536456793824e-06,1.0601226378970097e-06,-0.0006449543406314385,-3.846757218240998e-05,0.00016146564689502283,-0.0008479916483842105,-0.0002253604390933701,0.00013767907844593324,-0.000898703998092806,0.3236324191093445,34.09072494506836,4.096584796905518,-19.237703323364258,-0.1650901436805725,-1.790164589881897,0.17337362468242645,0
