rezayati/contactInterpretation/dataset/franka_main/labeled_data/link2/f4_4.csv
index,time,tau_J0,tau_J1,tau_J2,tau_J3,tau_J4,tau_J5,tau_J6,tau_J_d0,tau_J_d1,tau_J_d2,tau_J_d3,tau_J_d4,tau_J_d5,tau_J_d6,tau_ext0,tau_ext1,tau_ext2,tau_ext3,tau_ext4,tau_ext5,tau_ext6,q0,q1,q2,q3,q4,q5,q6,q_d0,q_d1,q_d2,q_d3,q_d4,q_d5,q_d6,dq0,dq1,dq2,dq3,dq4,dq5,dq6,dq_d0,dq_d1,dq_d2,dq_d3,dq_d4,dq_d5,dq_d6,e0,e1,e2,e3,e4,e5,e6,de0,de1,de2,de3,de4,de5,de6,etau_J0,etau_J1,etau_J2,etau_J3,etau_J4,etau_J5,etau_J6,label
1,0.0,-0.3514034152030945,-19.717248916625977,-0.5220611095428467,20.054964065551758,0.6539817452430725,2.4758944511413574,-0.24844686686992645,0.0,0.0,0.0,0.0,0.0,0.0,0.0,-0.3710456635158453,0.03874752073423397,-0.331858271823923,0.24794803980131105,0.06965409619756108,0.10227340350752168,-0.24263386273566154,1.213499410407585,-0.22033409337620982,-0.007492732503852491,-2.603857763178864,-0.108884639163812,2.46818283785714,0.8264741956553974,1.2134413937687574,-0.2202432315892585,-0.0075118285948192216,-2.6038483821997875,-0.10888392708698907,2.4681821257803174,0.826474908251239,-0.0004052352495298065,0.00032819799387964705,-0.0001764784213242801,-0.0008580452713324103,-0.00037181007013275397,7.072753764116502e-05,0.00034686875127133747,0.0,0.0,0.0,0.0,0.0,0.0,0.0,-5.801663882754049e-05,9.086178695133507e-05,-1.9096090966730372e-05,9.38097907665636e-06,7.120768229229579e-07,-7.120768228396912e-07,7.12595841667607e-07,0.0004052352495298065,-0.00032819799387964705,0.0001764784213242801,0.0008580452713324103,0.00037181007013275397,-7.072753764116502e-05,-0.00034686875127133747,0.3514034152030945,19.717248916625977,0.5220611095428467,-20.054964065551758,-0.6539817452430725,-2.4758944511413574,0.24844686686992645,0
2,0.005000114440917969,-0.3514034152030945,-19.717248916625977,-0.5220611095428467,20.054964065551758,0.6539817452430725,2.4758944511413574,-0.24844686686992645,0.0,0.0,0.0,0.0,0.0,0.0,0.0,-0.3710456635158453,0.03874752073423397,-0.331858271823923,0.24794803980131105,0.06965409619756108,0.10227340350752168,-0.24263386273566154,1.213499410407585,-0.22033409337620982,-0.007492732503852491,-2.603857763178864,-0.108884639163812,2.46818283785714,0.8264741956553974,1.2134413937687574,-0.2202432315892585,-0.0075118285948192216,-2.6038483821997875,-0.10888392708698907,2.4681821257803174,0.826474908251239,-0.0004052352495298065,0.00032819799387964705,-0.0001764784213242801,-0.0008580452713324103,-0.00037181007013275397,7.072753764116502e-05,0.00034686875127133747,0.0,0.0,0.0,0.0,0.0,0.0,0.0,-5.801663882754049e-05,9.086178695133507e-05,-1.9096090966730372e-05,9.38097907665636e-06,7.120768229229579e-07,-7.120768228396912e-07,7.12595841667607e-07,0.0004052352495298065,-0.00032819799387964705,0.0001764784213242801,0.0008580452713324103,0.00037181007013275397,-7.072753764116502e-05,-0.00034686875127133747,0.3514034152030945,19.717248916625977,0.5220611095428467,-20.054964065551758,-0.6539817452430725,-2.4758944511413574,0.24844686686992645,0
3,0.00999903678894043,-0.3752071261405945,-19.693445205688477,-0.5220611095428467,20.054964065551758,0.6539817452430725,2.4823031425476074,-0.20724813640117645,0.0,0.0,0.0,0.0,0.0,0.0,0.0,-0.3672634603204815,0.04683582848830397,-0.3297014743767106,0.23384998407079172,0.06739654840980104,0.10079335283588331,-0.24230580594428122,1.2135010808434403,-0.2203357638120651,-0.007492653594781412,-2.6038570214363608,-0.108884639163812,2.468182125780317,0.826474211165913,1.2134413937687574,-0.2202432315892585,-0.0075118285948192216,-2.6038483821997875,-0.10888392708698907,2.4681821257803174,0.826474908251239,9.093181245706319e-05,-0.000497038475792415,1.8271404493467097e-05,-0.000797171434153057,-0.00016777488531488977,-0.0001098852200120463,-0.001345551959990703,0.0,0.0,0.0,0.0,0.0,0.0,0.0,-5.9687074682956975e-05,9.253222280661277e-05,-1.917500003780978e-05,8.639236573237952e-06,7.120768229229579e-07,4.440892098500626e-16,6.970853260179766e-07,-9.093181245706319e-05,0.000497038475792415,-1.8271404493467097e-05,0.000797171434153057,0.00016777488531488977,0.0001098852200120463,0.001345551959990703,0.3752071261405945,19.693445205688477,0.5220611095428467,-20.054964065551758,-0.6539817452430725,-2.4823031425476074,0.20724813640117645,0
4,0.015007495880126953,-0.3752071261405945,-19.693445205688477,-0.5220611095428467,20.054964065551758,0.6539817452430725,2.4823031425476074,-0.20724813640117645,0.0,0.0,0.0,0.0,0.0,0.0,0.0,-0.3672634603204815,0.04683582848830397,-0.3297014743767106,0.23384998407079172,0.06739654840980104,0.10079335283588331,-0.24230580594428122,1.2135010808434403,-0.2203357638120651,-0.007492653594781412,-2.6038570214363608,-0.108884639163812,2.468182125780317,0.826474211165913,1.2134413937687574,-0.2202432315892585,-0.0075118285948192216,-2.6038483821997875,-0.10888392708698907,2.4681821257803174,0.826474908251239,9.093181245706319e-05,-0.000497038475792415,1.8271404493467097e-05,-0.000797171434153057,-0.00016777488531488977,-0.0001098852200120463,-0.001345551959990703,0.0,0.0,0.0,0.0,0.0,0.0,0.0,-5.9687074682956975e-05,9.253222280661277e-05,-1.917500003780978e-05,8.639236573237952e-06,7.120768229229579e-07,4.440892098500626e-16,6.970853260179766e-07,-9.093181245706319e-05,0.000497038475792415,-1.8271404493467097e-05,0.000797171434153057,0.00016777488531488977,0.0001098852200120463,0.001345551959990703,0.3752071261405945,19.693445205688477,0.5220611095428467,-20.054964065551758,-0.6539817452430725,-2.4823031425476074,0.20724813640117645,0
5,0.0200347900390625,-0.3752071261405945,-19.669641494750977,-0.4982573688030243,20.031160354614258,0.6475730538368225,2.4823031425476074,-0.25485557317733765,0.0,0.0,0.0,0.0,0.0,0.0,0.0,-0.36558719191396644,0.053567665177048786,-0.3265774523922902,0.23274033093931412,0.0667944860403479,0.1006225477821187,-0.24172825819285165,1.2135010808434403,-0.22033743424792035,-0.007494324032282622,-2.6038553509963185,-0.10888392708698909,2.468182125780317,0.826474895629178,1.2134413937687574,-0.2202432315892585,-0.0075118285948192216,-2.6038483821997875,-0.10888392708698907,2.4681821257803174,0.826474908251239,0.0003824338347137151,-4.467190530434712e-05,-0.0004715645136509561,-6.496668796448159e-08,0.00010272860224317103,-0.0004367399917762428,0.0009071319790085903,0.0,0.0,0.0,0.0,0.0,0.0,0.0,-5.9687074682956975e-05,9.420265866186273e-05,-1.750456253659955e-05,6.968796530948396e-06,1.3877787807814457e-17,4.440892098500626e-16,1.2622061063005674e-08,-0.0003824338347137151,4.467190530434712e-05,0.0004715645136509561,6.496668796448159e-08,-0.00010272860224317103,0.0004367399917762428,-0.0009071319790085903,0.3752071261405945,19.669641494750977,0.4982573688030243,-20.031160354614258,-0.6475730538368225,-2.4823031425476074,0.25485557317733765,0
6,0.024996519088745117,-0.3752071261405945,-19.669641494750977,-0.4982573688030243,20.031160354614258,0.6475730538368225,2.4823031425476074,-0.25485557317733765,0.0,0.0,0.0,0.0,0.0,0.0,0.0,-0.36558719191396644,0.053567665177048786,-0.3265774523922902,0.23274033093931412,0.0667944860403479,0.1006225477821187,-0.24172825819285165,1.2135010808434403,-0.22033743424792035,-0.007494324032282622,-2.6038553509963185,-0.10888392708698909,2.468182125780317,0.826474895629178,1.2134413937687574,-0.2202432315892585,-0.0075118285948192216,-2.6038483821997875,-0.10888392708698907,2.4681821257803174,0.826474908251239,0.0003824338347137151,-4.467190530434712e-05,-0.0004715645136509561,-6.496668796448159e-08,0.00010272860224317103,-0.0004367399917762428,0.0009071319790085903,0.0,0.0,0.0,0.0,0.0,0.0,0.0,-5.9687074682956975e-05,9.420265866186273e-05,-1.750456253659955e-05,6.968796530948396e-06,1.3877787807814457e-17,4.440892098500626e-16,1.2622061063005674e-08,-0.0003824338347137151,4.467190530434712e-05,0.0004715645136509561,6.496668796448159e-08,-0.00010272860224317103,0.0004367399917762428,-0.0009071319790085903,0.3752071261405945,19.669641494750977,0.4982573688030243,-20.031160354614258,-0.6475730538368225,-2.4823031425476074,0.25485557317733765,0
7,0.029999494552612305,-0.3514034152030945,-19.645837783813477,-0.5220611095428467,20.031160354614258,0.6475730538368225,2.4758944511413574,-0.22098104655742645,0.0,0.0,0.0,0.0,0.0,0.0,0.0,-0.3673948140755253,0.04944981125685153,-0.3255690678512654,0.23821593580740946,0.06699867094937775,0.10038566751073083,-0.24105286536545062,1.213499410407585,-0.22033910468377563,-0.007492653594335966,-2.6038553509963185,-0.10888392708698909,2.46818283640359,0.8264726174029119,1.2134413937687574,-0.2202432315892585,-0.0075118285948192216,-2.6038483821997875,-0.10888392708698907,2.4681821257803174,0.826474908251239,-0.0007247192218036466,-0.0009661701426281125,0.00022672559511909663,-5.031259318218506e-07,6.76366430804374e-05,-0.00010659066362868333,-0.0010228701588905129,0.0,0.0,0.0,0.0,0.0,0.0,0.0,-5.801663882754049e-05,9.587309451714043e-05,-1.9175000483255544e-05,6.968796530948396e-06,1.3877787807814457e-17,-7.106232726705741e-07,2.290848327146655e-06,0.0007247192218036466,0.0009661701426281125,-0.00022672559511909663,5.031259318218506e-07,-6.76366430804374e-05,0.00010659066362868333,0.0010228701588905129,0.3514034152030945,19.645837783813477,0.5220611095428467,-20.031160354614258,-0.6475730538368225,-2.4758944511413574,0.22098104655742645,0
8,0.03500199317932129,-0.3514034152030945,-19.645837783813477,-0.5220611095428467,20.031160354614258,0.6475730538368225,2.4758944511413574,-0.22098104655742645,0.0,0.0,0.0,0.0,0.0,0.0,0.0,-0.3673948140755253,0.04944981125685153,-0.3255690678512654,0.23821593580740946,0.06699867094937775,0.10038566751073083,-0.24105286536545062,1.213499410407585,-0.22033910468377563,-0.007492653594335966,-2.6038553509963185,-0.10888392708698909,2.46818283640359,0.8264726174029119,1.2134413937687574,-0.2202432315892585,-0.0075118285948192216,-2.6038483821997875,-0.10888392708698907,2.4681821257803174,0.826474908251239,-0.0007247192218036466,-0.0009661701426281125,0.00022672559511909663,-5.031259318218506e-07,6.76366430804374e-05,-0.00010659066362868333,-0.0010228701588905129,0.0,0.0,0.0,0.0,0.0,0.0,0.0,-5.801663882754049e-05,9.587309451714043e-05,-1.9175000483255544e-05,6.968796530948396e-06,1.3877787807814457e-17,-7.106232726705741e-07,2.290848327146655e-06,0.0007247192218036466,0.0009661701426281125,-0.00022672559511909663,5.031259318218506e-07,-6.76366430804374e-05,0.00010659066362868333,0.0010228701588905129,0.3514034152030945,19.645837783813477,0.5220611095428467,-20.031160354614258,-0.6475730538368225,-2.4758944511413574,0.22098104655742645,0
9,0.039998769760131836,-0.3752071261405945,-19.669641494750977,-0.5220611095428467,20.031160354614258,0.6539817452430725,2.4823031425476074,-0.22830526530742645,0.0,0.0,0.0,0.0,0.0,0.0,0.0,-0.3678139623316509,0.050509643517058604,-0.3264116445013644,0.2419688671814019,0.06707920601376242,0.10047335945249342,-0.24224283062192084,1.2135010808434403,-0.22033743424792035,-0.007492653594335966,-2.6038553509963185,-0.108884639163812,2.468182125780309,0.8264730974351768,1.2134413937687574,-0.2202432315892585,-0.0075118285948192216,-2.6038483821997875,-0.10888392708698907,2.4681821257803174,0.826474908251239,0.00042218289328644384,-0.0005826166952694937,-0.0003021359796521877,0.0001395058826974278,0.00017025801143569818,-0.00015176985613204837,-0.0005146801743015363,0.0,0.0,0.0,0.0,0.0,0.0,0.0,-5.9687074682956975e-05,9.420265866186273e-05,-1.9175000483255544e-05,6.968796530948396e-06,7.120768229229579e-07,8.43769498715119e-15,1.8108160622087865e-06,-0.00042218289328644384,0.0005826166952694937,0.0003021359796521877,-0.0001395058826974278,-0.00017025801143569818,0.00015176985613204837,0.0005146801743015363,0.3752071261405945,19.669641494750977,0.5220611095428467,-20.031160354614258,-0.6539817452430725,-2.4823031425476074,0.22830526530742645,0
10,0.04499959945678711,-0.3752071261405945,-19.669641494750977,-0.5220611095428467,20.031160354614258,0.6539817452430725,2.4823031425476074,-0.22830526530742645,0.0,0.0,0.0,0.0,0.0,0.0,0.0,-0.3678139623316509,0.050509643517058604,-0.3264116445013644,0.2419688671814019,0.06707920601376242,0.10047335945249342,-0.24224283062192084,1.2135010808434403,-0.22033743424792035,-0.007492653594335966,-2.6038553509963185,-0.108884639163812,2.468182125780309,0.8264730974351768,1.2134413937687574,-0.2202432315892585,-0.0075118285948192216,-2.6038483821997875,-0.10888392708698907,2.4681821257803174,0.826474908251239,0.00042218289328644384,-0.0005826166952694937,-0.0003021359796521877,0.0001395058826974278,0.00017025801143569818,-0.00015176985613204837,-0.0005146801743015363,0.0,0.0,0.0,0.0,0.0,0.0,0.0,-5.9687074682956975e-05,9.420265866186273e-05,-1.9175000483255544e-05,6.968796530948396e-06,7.120768229229579e-07,8.43769498715119e-15,1.8108160622087865e-06,-0.00042218289328644384,0.0005826166952694937,0.0003021359796521877,-0.0001395058826974278,-0.00017025801143569818,0.00015176985613204837,0.0005146801743015363,0.3752071261405945,19.669641494750977,0.5220611095428467,-20.031160354614258,-0.6539817452430725,-2.4823031425476074,0.22830526530742645,0
11,0.04999709129333496,-0.3752071261405945,-19.717248916625977,-0.4982573688030243,20.031160354614258,0.6594749093055725,2.4823031425476074,-0.24112264811992645,0.0,0.0,0.0,0.0,0.0,0.0,0.0,-0.3629425968463475,0.05527915555068389,-0.32268117148863706,0.2411062306139195,0.06796924491282408,0.10073013371553817,-0.24234919452024734,1.2135010808434403,-0.22033409337620982,-0.007494326954855473,-2.6038553509963185,-0.1088852495153745,2.468182125780317,0.8264736914079214,1.2134413937687574,-0.2202432315892585,-0.0075118285948192216,-2.6038483821997875,-0.10888392708698907,2.4681821257803174,0.826474908251239,-3.974684710082645e-05,0.0008028368926949043,-6.72490172946172e-05,-0.00010595583474687134,1.4487909151046688e-05,-0.0003258997734886183,-7.423594425457112e-05,0.0,0.0,0.0,0.0,0.0,0.0,0.0,-5.9687074682956975e-05,9.086178695133507e-05,-1.750163996374829e-05,6.968796530948396e-06,1.3224283854224028e-06,4.440892098500626e-16,1.2168433176640292e-06,3.974684710082645e-05,-0.0008028368926949043,6.72490172946172e-05,0.00010595583474687134,-1.4487909151046688e-05,0.0003258997734886183,7.423594425457112e-05,0.3752071261405945,19.717248916625977,0.4982573688030243,-20.031160354614258,-0.6594749093055725,-2.4823031425476074,0.24112264811992645,0
12,0.05500149726867676,-0.3752071261405945,-19.717248916625977,-0.4982573688030243,20.031160354614258,0.6594749093055725,2.4823031425476074,-0.24112264811992645,0.0,0.0,0.0,0.0,0.0,0.0,0.0,-0.3629425968463475,0.05527915555068389,-0.32268117148863706,0.2411062306139195,0.06796924491282408,0.10073013371553817,-0.24234919452024734,1.2135010808434403,-0.22033409337620982,-0.007494326954855473,-2.6038553509963185,-0.1088852495153745,2.468182125780317,0.8264736914079214,1.2134413937687574,-0.2202432315892585,-0.0075118285948192216,-2.6038483821997875,-0.10888392708698907,2.4681821257803174,0.826474908251239,-3.974684710082645e-05,0.0008028368926949043,-6.72490172946172e-05,-0.00010595583474687134,1.4487909151046688e-05,-0.0003258997734886183,-7.423594425457112e-05,0.0,0.0,0.0,0.0,0.0,0.0,0.0,-5.9687074682956975e-05,9.086178695133507e-05,-1.750163996374829e-05,6.968796530948396e-06,1.3224283854224028e-06,4.440892098500626e-16,1.2168433176640292e-06,3.974684710082645e-05,-0.0008028368926949043,6.72490172946172e-05,0.00010595583474687134,-1.4487909151046688e-05,0.0003258997734886183,7.423594425457112e-05,0.3752071261405945,19.717248916625977,0.4982573688030243,-20.031160354614258,-0.6594749093055725,-2.4823031425476074,0.24112264811992645,0
13,0.06003618240356445,-0.3752071261405945,-19.693445205688477,-0.5220611095428467,20.031160354614258,0.6475730538368225,2.4694857597351074,-0.22098104655742645,0.0,0.0,0.0,0.0,0.0,0.0,0.0,-0.3644334882660019,0.049886374161840115,-0.32178862292819643,0.24486374975648909,0.06893670788557175,0.10148499301694988,-0.24085523990042773,1.2135010808434403,-0.2203357638120651,-0.007492732503819496,-2.6038553509963185,-0.10888392708698909,2.468183549933963,0.8264721869923493,1.2134413937687574,-0.2202432315892585,-0.0075118285948192216,-2.6038483821997875,-0.10888392708698907,2.4681821257803174,0.826474908251239,0.0005310055134753868,-0.00018342290403968863,-0.0001802709474883845,-6.972200290443259e-05,0.0002797734252524839,2.1150352470769208e-05,-0.0005846741654739811,0.0,0.0,0.0,0.0,0.0,0.0,0.0,-5.9687074682956975e-05,9.253222280661277e-05,-1.909609099972568e-05,6.968796530948396e-06,1.3877787807814457e-17,-1.4241536456793824e-06,2.721258889781808e-06,-0.0005310055134753868,0.00018342290403968863,0.0001802709474883845,6.972200290443259e-05,-0.0002797734252524839,-2.1150352470769208e-05,0.0005846741654739811,0.3752071261405945,19.693445205688477,0.5220611095428467,-20.031160354614258,-0.6475730538368225,-2.4694857597351074,0.22098104655742645,0
14,0.0650334358215332,-0.3752071261405945,-19.693445205688477,-0.5220611095428467,20.031160354614258,0.6475730538368225,2.4694857597351074,-0.22098104655742645,0.0,0.0,0.0,0.0,0.0,0.0,0.0,-0.3644334882660019,0.049886374161840115,-0.32178862292819643,0.24486374975648909,0.06893670788557175,0.10148499301694988,-0.24085523990042773,1.2135010808434403,-0.2203357638120651,-0.007492732503819496,-2.6038553509963185,-0.10888392708698909,2.468183549933963,0.8264721869923493,1.2134413937687574,-0.2202432315892585,-0.0075118285948192216,-2.6038483821997875,-0.10888392708698907,2.4681821257803174,0.826474908251239,0.0005310055134753868,-0.00018342290403968863,-0.0001802709474883845,-6.972200290443259e-05,0.0002797734252524839,2.1150352470769208e-05,-0.0005846741654739811,0.0,0.0,0.0,0.0,0.0,0.0,0.0,-5.9687074682956975e-05,9.253222280661277e-05,-1.909609099972568e-05,6.968796530948396e-06,1.3877787807814457e-17,-1.4241536456793824e-06,2.721258889781808e-06,-0.0005310055134753868,0.00018342290403968863,0.0001802709474883845,6.972200290443259e-05,-0.0002797734252524839,-2.1150352470769208e-05,0.0005846741654739811,0.3752071261405945,19.693445205688477,0.5220611095428467,-20.031160354614258,-0.6475730538368225,-2.4694857597351074,0.22098104655742645,0
15,0.07004642486572266,-0.3514034152030945,-19.645837783813477,-0.5458648204803467,20.054964065551758,0.6594749093055725,2.4630770683288574,-0.24112264811992645,0.0,0.0,0.0,0.0,0.0,0.0,0.0,-0.36108534320089347,0.048885315066333375,-0.32110031076564627,0.2446088682527664,0.06884661887476956,0.10101780989607607,-0.2406925688927542,1.213499410407585,-0.22033910468377563,-0.0074916933441294365,-2.603857021432174,-0.1088852495153745,2.468184262010786,0.8264738106388172,1.2134413937687574,-0.2202432315892585,-0.0075118285948192216,-2.6038483821997875,-0.10888392708698907,2.4681821257803174,0.826474908251239,-6.799072961200503e-05,-0.001195179909267888,0.0006997373576052669,-0.0006722072289934158,-0.0004179577379757913,0.00019983441102666542,-0.000676184862931258,0.0,0.0,0.0,0.0,0.0,0.0,0.0,-5.801663882754049e-05,9.587309451714043e-05,-2.013525068978502e-05,8.639232386364881e-06,1.3224283854224028e-06,-2.1362304685190736e-06,1.0976124218409211e-06,6.799072961200503e-05,0.001195179909267888,-0.0006997373576052669,0.0006722072289934158,0.0004179577379757913,-0.00019983441102666542,0.000676184862931258,0.3514034152030945,19.645837783813477,0.5458648204803467,-20.054964065551758,-0.6594749093055725,-2.4630770683288574,0.24112264811992645,0
16,0.0749964714050293,-0.3514034152030945,-19.645837783813477,-0.5458648204803467,20.054964065551758,0.6594749093055725,2.4630770683288574,-0.24112264811992645,0.0,0.0,0.0,0.0,0.0,0.0,0.0,-0.36108534320089347,0.048885315066333375,-0.32110031076564627,0.2446088682527664,0.06884661887476956,0.10101780989607607,-0.2406925688927542,1.213499410407585,-0.22033910468377563,-0.0074916933441294365,-2.603857021432174,-0.1088852495153745,2.468184262010786,0.8264738106388172,1.2134413937687574,-0.2202432315892585,-0.0075118285948192216,-2.6038483821997875,-0.10888392708698907,2.4681821257803174,0.826474908251239,-6.799072961200503e-05,-0.001195179909267888,0.0006997373576052669,-0.0006722072289934158,-0.0004179577379757913,0.00019983441102666542,-0.000676184862931258,0.0,0.0,0.0,0.0,0.0,0.0,0.0,-5.801663882754049e-05,9.587309451714043e-05,-2.013525068978502e-05,8.639232386364881e-06,1.3224283854224028e-06,-2.1362304685190736e-06,1.0976124218409211e-06,6.799072961200503e-05,0.001195179909267888,-0.0006997373576052669,0.0006722072289934158,0.0004179577379757913,-0.00019983441102666542,0.000676184862931258,0.3514034152030945,19.645837783813477,0.5458648204803467,-20.054964065551758,-0.6594749093055725,-2.4630770683288574,0.24112264811992645,0
17,0.07995820045471191,-0.3752071261405945,-19.669641494750977,-0.5220611095428467,20.031160354614258,0.6539817452430725,2.4823031425476074,-0.22830526530742645,0.0,0.0,0.0,0.0,0.0,0.0,0.0,-0.3610840214463585,0.048797884379054364,-0.3239011287168151,0.24184802524157561,0.06864314599743787,0.10006895291920072,-0.24292527696253766,1.2135010808434403,-0.22033743424792035,-0.007492653606363022,-2.6038553509963185,-0.108884639163812,2.468182125780317,0.8264750924593969,1.2134413937687574,-0.2202432315892585,-0.0075118285948192216,-2.6038483821997875,-0.10888392708698907,2.4681821257803174,0.826474908251239,0.000771279766917189,-0.0006564927371890215,-0.0003782250249435428,-0.000620803662617586,-9.053322560129658e-05,-0.0004227146363495847,-0.0009685198912651708,0.0,0.0,0.0,0.0,0.0,0.0,0.0,-5.9687074682956975e-05,9.420265866186273e-05,-1.9174988456199978e-05,6.968796530948396e-06,7.120768229229579e-07,4.440892098500626e-16,-1.8420815783848354e-07,-0.000771279766917189,0.0006564927371890215,0.0003782250249435428,0.000620803662617586,9.053322560129658e-05,0.0004227146363495847,0.0009685198912651708,0.3752071261405945,19.669641494750977,0.5220611095428467,-20.031160354614258,-0.6539817452430725,-2.4823031425476074,0.22830526530742645,0
18,0.08499360084533691,-0.3752071261405945,-19.669641494750977,-0.5220611095428467,20.031160354614258,0.6539817452430725,2.4823031425476074,-0.22830526530742645,0.0,0.0,0.0,0.0,0.0,0.0,0.0,-0.3610840214463585,0.048797884379054364,-0.3239011287168151,0.24184802524157561,0.06864314599743787,0.10006895291920072,-0.24292527696253766,1.2135010808434403,-0.22033743424792035,-0.007492653606363022,-2.6038553509963185,-0.108884639163812,2.468182125780317,0.8264750924593969,1.2134413937687574,-0.2202432315892585,-0.0075118285948192216,-2.6038483821997875,-0.10888392708698907,2.4681821257803174,0.826474908251239,0.000771279766917189,-0.0006564927371890215,-0.0003782250249435428,-0.000620803662617586,-9.053322560129658e-05,-0.0004227146363495847,-0.0009685198912651708,0.0,0.0,0.0,0.0,0.0,0.0,0.0,-5.9687074682956975e-05,9.420265866186273e-05,-1.9174988456199978e-05,6.968796530948396e-06,7.120768229229579e-07,4.440892098500626e-16,-1.8420815783848354e-07,-0.000771279766917189,0.0006564927371890215,0.0003782250249435428,0.000620803662617586,9.053322560129658e-05,0.0004227146363495847,0.0009685198912651708,0.3752071261405945,19.669641494750977,0.5220611095428467,-20.031160354614258,-0.6539817452430725,-2.4823031425476074,0.22830526530742645,0
19,0.0900270938873291,-0.3514034152030945,-19.693445205688477,-0.5220611095428467,20.007356643676758,0.6475730538368225,2.4694857597351074,-0.26217979192733765,0.0,0.0,0.0,0.0,0.0,0.0,0.0,-0.3585502418365474,0.04902539131878356,-0.3253148281178426,0.24444492541197704,0.06812842558261668,0.10066941503895702,-0.24302240296467362,1.213499410407585,-0.2203357638120651,-0.007494784149945896,-2.6038536805604635,-0.10888392751968945,2.468183549933963,0.826477091856983,1.2134413937687574,-0.2202432315892585,-0.0075118285948192216,-2.6038483821997875,-0.10888392708698907,2.4681821257803174,0.826474908251239,-0.0004313257227727517,0.00019478962217759702,-0.00020550729983486897,0.0007148330294317374,0.0007237787355461971,0.00023467472122091056,0.0009591270395252772,0.0,0.0,0.0,0.0,0.0,0.0,0.0,-5.801663882754049e-05,9.253222280661277e-05,-1.704444487332559e-05,5.298360675975999e-06,4.3270037553000407e-10,-1.4241536456793824e-06,-2.1836057439994505e-06,0.0004313257227727517,-0.00019478962217759702,0.00020550729983486897,-0.0007148330294317374,-0.0007237787355461971,-0.00023467472122091056,-0.0009591270395252772,0.3514034152030945,19.693445205688477,0.5220611095428467,-20.007356643676758,-0.6475730538368225,-2.4694857597351074,0.26217979192733765,0
20,0.09502053260803223,-0.3514034152030945,-19.693445205688477,-0.5220611095428467,20.007356643676758,0.6475730538368225,2.4694857597351074,-0.26217979192733765,0.0,0.0,0.0,0.0,0.0,0.0,0.0,-0.3585502418365474,0.04902539131878356,-0.3253148281178426,0.24444492541197704,0.06812842558261668,0.10066941503895702,-0.24302240296467362,1.213499410407585,-0.2203357638120651,-0.007494784149945896,-2.6038536805604635,-0.10888392751968945,2.468183549933963,0.826477091856983,1.2134413937687574,-0.2202432315892585,-0.0075118285948192216,-2.6038483821997875,-0.10888392708698907,2.4681821257803174,0.826474908251239,-0.0004313257227727517,0.00019478962217759702,-0.00020550729983486897,0.0007148330294317374,0.0007237787355461971,0.00023467472122091056,0.0009591270395252772,0.0,0.0,0.0,0.0,0.0,0.0,0.0,-5.801663882754049e-05,9.253222280661277e-05,-1.704444487332559e-05,5.298360675975999e-06,4.3270037553000407e-10,-1.4241536456793824e-06,-2.1836057439994505e-06,0.0004313257227727517,-0.00019478962217759702,0.00020550729983486897,-0.0007148330294317374,-0.0007237787355461971,-0.00023467472122091056,-0.0009591270395252772,0.3514034152030945,19.693445205688477,0.5220611095428467,-20.007356643676758,-0.6475730538368225,-2.4694857597351074,0.26217979192733765,0
21,0.1000370979309082,-0.3514034152030945,-19.693445205688477,-0.5458648204803467,19.955781936645508,0.6539817452430725,2.4694857597351074,-0.23471395671367645,0.0,0.0,0.0,0.0,0.0,0.0,0.0,-0.35995585100051575,0.04415246304911956,-0.3293073275102959,0.2511185887678291,0.06856104731383102,0.10162224394696362,-0.24251852901229606,1.213499410407585,-0.2203357638120651,-0.007490983162489719,-2.603850061282777,-0.1088846391638128,2.468183549933963,0.8264758443148836,1.2134413937687574,-0.2202432315892585,-0.0075118285948192216,-2.6038483821997875,-0.10888392708698907,2.4681821257803174,0.826474908251239,-0.000555405782863213,-0.00023395413825705669,0.00038519886976322597,0.0022971398434089908,6.640506553575962e-05,0.0001580904221779127,-0.0003179950518237989,0.0,0.0,0.0,0.0,0.0,0.0,0.0,-5.801663882754049e-05,9.253222280661277e-05,-2.0845432329502298e-05,1.6790829895363402e-06,7.120768237278696e-07,-1.4241536456793824e-06,-9.360636445965298e-07,0.000555405782863213,0.00023395413825705669,-0.00038519886976322597,-0.0022971398434089908,-6.640506553575962e-05,-0.0001580904221779127,0.0003179950518237989,0.3514034152030945,19.693445205688477,0.5458648204803467,-19.955781936645508,-0.6539817452430725,-2.4694857597351074,0.23471395671367645,0
22,0.10503578186035156,-0.3514034152030945,-19.693445205688477,-0.5458648204803467,19.955781936645508,0.6539817452430725,2.4694857597351074,-0.23471395671367645,0.0,0.0,0.0,0.0,0.0,0.0,0.0,-0.35995585100051575,0.04415246304911956,-0.3293073275102959,0.2511185887678291,0.06856104731383102,0.10162224394696362,-0.24251852901229606,1.213499410407585,-0.2203357638120651,-0.007490983162489719,-2.603850061282777,-0.1088846391638128,2.468183549933963,0.8264758443148836,1.2134413937687574,-0.2202432315892585,-0.0075118285948192216,-2.6038483821997875,-0.10888392708698907,2.4681821257803174,0.826474908251239,-0.000555405782863213,-0.00023395413825705669,0.00038519886976322597,0.0022971398434089908,6.640506553575962e-05,0.0001580904221779127,-0.0003179950518237989,0.0,0.0,0.0,0.0,0.0,0.0,0.0,-5.801663882754049e-05,9.253222280661277e-05,-2.0845432329502298e-05,1.6790829895363402e-06,7.120768237278696e-07,-1.4241536456793824e-06,-9.360636445965298e-07,0.000555405782863213,0.00023395413825705669,-0.00038519886976322597,-0.0022971398434089908,-6.640506553575962e-05,-0.0001580904221779127,0.0003179950518237989,0.3514034152030945,19.693445205688477,0.5458648204803467,-19.955781936645508,-0.6539817452430725,-2.4694857597351074,0.23471395671367645,0
23,0.11003756523132324,-0.4029781222343445,-19.693445205688477,-0.5220611095428467,20.007356643676758,0.6539817452430725,2.4694857597351074,-0.28964561223983765,0.0,0.0,0.0,0.0,0.0,0.0,0.0,-0.3595899041976606,0.0488042354968646,-0.3293631641119076,0.24600407931692508,0.06844243023638011,0.10134062543774165,-0.24340748700167517,1.2135030296852714,-0.2203357638120651,-0.007492653594336034,-2.6038536805604635,-0.108884639163812,2.4681846095720927,0.8264819387860609,1.2134413937687574,-0.2202432315892585,-0.0075118285948192216,-2.6038483821997875,-0.10888392708698907,2.4681821257803174,0.826474908251239,0.0008791939547289346,-0.00012188071558783854,-0.00030520595423010283,9.838467388260237e-05,7.950201562025277e-05,0.0002642668741368005,0.0018259281390118243,0.0,0.0,0.0,0.0,0.0,0.0,0.0,-6.163591651398015e-05,9.253222280661277e-05,-1.917500048318789e-05,5.298360675975999e-06,7.120768229229579e-07,-2.483791775365063e-06,-7.030534821872436e-06,-0.0008791939547289346,0.00012188071558783854,0.00030520595423010283,-9.838467388260237e-05,-7.950201562025277e-05,-0.0002642668741368005,-0.0018259281390118243,0.4029781222343445,19.693445205688477,0.5220611095428467,-20.007356643676758,-0.6539817452430725,-2.4694857597351074,0.28964561223983765,0
24,0.11501455307006836,-0.4029781222343445,-19.693445205688477,-0.5220611095428467,20.007356643676758,0.6539817452430725,2.4694857597351074,-0.28964561223983765,0.0,0.0,0.0,0.0,0.0,0.0,0.0,-0.3595899041976606,0.0488042354968646,-0.3293631641119076,0.24600407931692508,0.06844243023638011,0.10134062543774165,-0.24340748700167517,1.2135030296852714,-0.2203357638120651,-0.007492653594336034,-2.6038536805604635,-0.108884639163812,2.4681846095720927,0.8264819387860609,1.2134413937687574,-0.2202432315892585,-0.0075118285948192216,-2.6038483821997875,-0.10888392708698907,2.4681821257803174,0.826474908251239,0.0008791939547289346,-0.00012188071558783854,-0.00030520595423010283,9.838467388260237e-05,7.950201562025277e-05,0.0002642668741368005,0.0018259281390118243,0.0,0.0,0.0,0.0,0.0,0.0,0.0,-6.163591651398015e-05,9.253222280661277e-05,-1.917500048318789e-05,5.298360675975999e-06,7.120768229229579e-07,-2.483791775365063e-06,-7.030534821872436e-06,-0.0008791939547289346,0.00012188071558783854,0.00030520595423010283,-9.838467388260237e-05,-7.950201562025277e-05,-0.0002642668741368005,-0.0018259281390118243,0.4029781222343445,19.693445205688477,0.5220611095428467,-20.007356643676758,-0.6539817452430725,-2.4694857597351074,0.28964561223983765,0
25,0.12003684043884277,-0.3514034152030945,-19.768823623657227,-0.5220611095428467,20.054964065551758,0.6539817452430725,2.4758944511413574,-0.26217979192733765,0.0,0.0,0.0,0.0,0.0,0.0,0.0,-0.3645168670655198,0.04151064854438459,-0.33329264065999964,0.2493804156701051,0.06846518952490133,0.10245143274919097,-0.2452476883863567,1.213499410407585,-0.22033047409852344,-0.007492653594335966,-2.603857021432174,-0.108884639163812,2.468182837859134,0.8264758349009118,1.2134413937687574,-0.2202432315892585,-0.0075118285948192216,-2.6038483821997875,-0.10888392708698907,2.4681821257803174,0.826474908251239,-0.000603832953213082,0.001643390466580433,-0.00023514837714957537,-0.0004906621229735469,0.0028159590815269235,-3.640086237709562e-05,0.0010595234481349492,0.0,0.0,0.0,0.0,0.0,0.0,0.0,-5.801663882754049e-05,8.724250926495092e-05,-1.9175000483255544e-05,8.639232386364881e-06,7.120768229229579e-07,-7.120788168002434e-07,-9.266496727722284e-07,0.000603832953213082,-0.001643390466580433,0.00023514837714957537,0.0004906621229735469,-0.0028159590815269235,3.640086237709562e-05,-0.0010595234481349492,0.3514034152030945,19.768823623657227,0.5220611095428467,-20.054964065551758,-0.6539817452430725,-2.4758944511413574,0.26217979192733765,0
26,0.12502193450927734,-0.3514034152030945,-19.768823623657227,-0.5220611095428467,20.054964065551758,0.6539817452430725,2.4758944511413574,-0.26217979192733765,0.0,0.0,0.0,0.0,0.0,0.0,0.0,-0.3645168670655198,0.04151064854438459,-0.33329264065999964,0.2493804156701051,0.06846518952490133,0.10245143274919097,-0.2452476883863567,1.213499410407585,-0.22033047409852344,-0.007492653594335966,-2.603857021432174,-0.108884639163812,2.468182837859134,0.8264758349009118,1.2134413937687574,-0.2202432315892585,-0.0075118285948192216,-2.6038483821997875,-0.10888392708698907,2.4681821257803174,0.826474908251239,-0.000603832953213082,0.001643390466580433,-0.00023514837714957537,-0.0004906621229735469,0.0028159590815269235,-3.640086237709562e-05,0.0010595234481349492,0.0,0.0,0.0,0.0,0.0,0.0,0.0,-5.801663882754049e-05,8.724250926495092e-05,-1.9175000483255544e-05,8.639232386364881e-06,7.120768229229579e-07,-7.120788168002434e-07,-9.266496727722284e-07,0.000603832953213082,-0.001643390466580433,0.00023514837714957537,0.0004906621229735469,-0.0028159590815269235,3.640086237709562e-05,-0.0010595234481349492,0.3514034152030945,19.768823623657227,0.5220611095428467,-20.054964065551758,-0.6539817452430725,-2.4758944511413574,0.26217979192733765,0
27,0.13001322746276855,-0.3514034152030945,-19.669641494750977,-0.5458648204803467,20.054964065551758,0.6539817452430725,2.4694857597351074,-0.24844686686992645,0.0,0.0,0.0,0.0,0.0,0.0,0.0,-0.3626234925388254,0.04781365779355596,-0.330554028560896,0.24575000014957007,0.06942556562268345,0.10158263551219786,-0.24322047876570346,1.213499410407585,-0.22033743424792035,-0.007490991926199262,-2.6038592466722457,-0.10888464354490328,2.4681835499339635,0.8264742693925458,1.2134413937687574,-0.2202432315892585,-0.0075118285948192216,-2.6038483821997875,-0.10888392708698907,2.4681821257803174,0.826474908251239,-0.00011632725400832062,-0.00023903078378924026,0.0006521054805603861,-0.0007479941936689649,-0.0016137973783394812,0.0001682978064665671,0.0002888836510739977,0.0,0.0,0.0,0.0,0.0,0.0,0.0,-5.801663882754049e-05,9.420265866186273e-05,-2.0836668619959517e-05,1.0864472458127494e-05,7.164579142043825e-07,-1.4241536461234716e-06,6.388586932803975e-07,0.00011632725400832062,0.00023903078378924026,-0.0006521054805603861,0.0007479941936689649,0.0016137973783394812,-0.0001682978064665671,-0.0002888836510739977,0.3514034152030945,19.669641494750977,0.5458648204803467,-20.054964065551758,-0.6539817452430725,-2.4694857597351074,0.24844686686992645,0
28,0.13503670692443848,-0.3514034152030945,-19.669641494750977,-0.5458648204803467,20.054964065551758,0.6539817452430725,2.4694857597351074,-0.24844686686992645,0.0,0.0,0.0,0.0,0.0,0.0,0.0,-0.3626234925388254,0.04781365779355596,-0.330554028560896,0.24575000014957007,0.06942556562268345,0.10158263551219786,-0.24322047876570346,1.213499410407585,-0.22033743424792035,-0.007490991926199262,-2.6038592466722457,-0.10888464354490328,2.4681835499339635,0.8264742693925458,1.2134413937687574,-0.2202432315892585,-0.0075118285948192216,-2.6038483821997875,-0.10888392708698907,2.4681821257803174,0.826474908251239,-0.00011632725400832062,-0.00023903078378924026,0.0006521054805603861,-0.0007479941936689649,-0.0016137973783394812,0.0001682978064665671,0.0002888836510739977,0.0,0.0,0.0,0.0,0.0,0.0,0.0,-5.801663882754049e-05,9.420265866186273e-05,-2.0836668619959517e-05,1.0864472458127494e-05,7.164579142043825e-07,-1.4241536461234716e-06,6.388586932803975e-07,0.00011632725400832062,0.00023903078378924026,-0.0006521054805603861,0.0007479941936689649,0.0016137973783394812,-0.0001682978064665671,-0.0002888836510739977,0.3514034152030945,19.669641494750977,0.5458648204803467,-20.054964065551758,-0.6539817452430725,-2.4694857597351074,0.24844686686992645,0
29,0.14002776145935059,-0.3514034152030945,-19.669641494750977,-0.5458648204803467,20.054964065551758,0.6539817452430725,2.4694857597351074,-0.24844686686992645,0.0,0.0,0.0,0.0,0.0,0.0,0.0,-0.3626234925388254,0.04781365779355596,-0.330554028560896,0.24575000014957007,0.06942556562268345,0.10158263551219786,-0.24322047876570346,1.213499410407585,-0.22033743424792035,-0.007490991926199262,-2.6038592466722457,-0.10888464354490328,2.4681835499339635,0.8264742693925458,1.2134413937687574,-0.2202432315892585,-0.0075118285948192216,-2.6038483821997875,-0.10888392708698907,2.4681821257803174,0.826474908251239,-0.00011632725400832062,-0.00023903078378924026,0.0006521054805603861,-0.0007479941936689649,-0.0016137973783394812,0.0001682978064665671,0.0002888836510739977,0.0,0.0,0.0,0.0,0.0,0.0,0.0,-5.801663882754049e-05,9.420265866186273e-05,-2.0836668619959517e-05,1.0864472458127494e-05,7.164579142043825e-07,-1.4241536461234716e-06,6.388586932803975e-07,0.00011632725400832062,0.00023903078378924026,-0.0006521054805603861,0.0007479941936689649,0.0016137973783394812,-0.0001682978064665671,-0.0002888836510739977,0.3514034152030945,19.669641494750977,0.5458648204803467,-20.054964065551758,-0.6539817452430725,-2.4694857597351074,0.24844686686992645,0
30,0.14502477645874023,-0.3514034152030945,-19.669641494750977,-0.5458648204803467,20.054964065551758,0.6539817452430725,2.4694857597351074,-0.24844686686992645,0.0,0.0,0.0,0.0,0.0,0.0,0.0,-0.3626234925388254,0.04781365779355596,-0.330554028560896,0.24575000014957007,0.06942556562268345,0.10158263551219786,-0.24322047876570346,1.213499410407585,-0.22033743424792035,-0.007490991926199262,-2.6038592466722457,-0.10888464354490328,2.4681835499339635,0.8264742693925458,1.2134413937687574,-0.2202432315892585,-0.0075118285948192216,-2.6038483821997875,-0.10888392708698907,2.4681821257803174,0.826474908251239,-0.00011632725400832062,-0.00023903078378924026,0.0006521054805603861,-0.0007479941936689649,-0.0016137973783394812,0.0001682978064665671,0.0002888836510739977,0.0,0.0,0.0,0.0,0.0,0.0,0.0,-5.801663882754049e-05,9.420265866186273e-05,-2.0836668619959517e-05,1.0864472458127494e-05,7.164579142043825e-07,-1.4241536461234716e-06,6.388586932803975e-07,0.00011632725400832062,0.00023903078378924026,-0.0006521054805603861,0.0007479941936689649,0.0016137973783394812,-0.0001682978064665671,-0.0002888836510739977,0.3514034152030945,19.669641494750977,0.5458648204803467,-20.054964065551758,-0.6539817452430725,-2.4694857597351074,0.24844686686992645,0
31,0.15004229545593262,-0.3236324191093445,-19.693445205688477,-0.4982573688030243,20.031160354614258,0.6658836007118225,2.4694857597351074,-0.22830526530742645,0.0,0.0,0.0,0.0,0.0,0.0,0.0,-0.3659202437312145,0.04358460929884306,-0.33414986562883264,0.2506108828064698,0.06895098346109124,0.10229159007645733,-0.24245038886993367,1.2134974615657539,-0.2203357638120651,-0.007494324032332114,-2.6038546622440957,-0.1088863164606165,2.4681835499339635,0.8264750989121287,1.2134413937687574,-0.2202432315892585,-0.0075118285948192216,-2.6038483821997875,-0.10888392708698907,2.4681821257803174,0.826474908251239,-0.0013641239379541747,0.00011719125624256838,-0.0008963133894350685,0.00023586348974772163,-0.0003531129235009881,0.0001925797063143403,-0.00017782859797948035,0.0,0.0,0.0,0.0,0.0,0.0,0.0,-5.6067796996517316e-05,9.253222280661277e-05,-1.750456248710789e-05,6.280044308137889e-06,2.3893736274260835e-06,-1.4241536461234716e-06,-1.9066088963182182e-07,0.0013641239379541747,-0.00011719125624256838,0.0008963133894350685,-0.00023586348974772163,0.0003531129235009881,-0.0001925797063143403,0.00017782859797948035,0.3236324191093445,19.693445205688477,0.4982573688030243,-20.031160354614258,-0.6658836007118225,-2.4694857597351074,0.22830526530742645,0
32,0.1550157070159912,-0.3236324191093445,-19.693445205688477,-0.4982573688030243,20.031160354614258,0.6658836007118225,2.4694857597351074,-0.22830526530742645,0.0,0.0,0.0,0.0,0.0,0.0,0.0,-0.3659202437312145,0.04358460929884306,-0.33414986562883264,0.2506108828064698,0.06895098346109124,0.10229159007645733,-0.24245038886993367,1.2134974615657539,-0.2203357638120651,-0.007494324032332114,-2.6038546622440957,-0.1088863164606165,2.4681835499339635,0.8264750989121287,1.2134413937687574,-0.2202432315892585,-0.0075118285948192216,-2.6038483821997875,-0.10888392708698907,2.4681821257803174,0.826474908251239,-0.0013641239379541747,0.00011719125624256838,-0.0008963133894350685,0.00023586348974772163,-0.0003531129235009881,0.0001925797063143403,-0.00017782859797948035,0.0,0.0,0.0,0.0,0.0,0.0,0.0,-5.6067796996517316e-05,9.253222280661277e-05,-1.750456248710789e-05,6.280044308137889e-06,2.3893736274260835e-06,-1.4241536461234716e-06,-1.9066088963182182e-07,0.0013641239379541747,-0.00011719125624256838,0.0008963133894350685,-0.00023586348974772163,0.0003531129235009881,-0.0001925797063143403,0.00017782859797948035,0.3236324191093445,19.693445205688477,0.4982573688030243,-20.031160354614258,-0.6658836007118225,-2.4694857597351074,0.22830526530742645,0
33,0.16002368927001953,-0.3752071261405945,-19.669641494750977,-0.5458648204803467,20.007356643676758,0.6420798897743225,2.4694857597351074,-0.26858848333358765,0.0,0.0,0.0,0.0,0.0,0.0,0.0,-0.36394205522749445,0.0467899118904603,-0.3317445189891967,0.24659478590126538,0.0691645535300749,0.10107939243501955,-0.24253806009247014,1.2135010808434403,-0.22033743424792035,-0.007490983158480703,-2.603853680556575,-0.10888331673742982,2.4681835499339635,0.8264800829929576,1.2134413937687574,-0.2202432315892585,-0.0075118285948192216,-2.6038483821997875,-0.10888392708698907,2.4681821257803174,0.826474908251239,0.00034933631421928715,-0.0007680110514890811,0.00012302967551566796,0.00021033020156410785,0.00036981891613249794,1.4189028679750536e-05,0.0009680603592761071,0.0,0.0,0.0,0.0,0.0,0.0,0.0,-5.9687074682956975e-05,9.420265866186273e-05,-2.0845436338518507e-05,5.298356787530878e-06,-6.103495592546526e-07,-1.4241536461234716e-06,-5.174741718572129e-06,-0.00034933631421928715,0.0007680110514890811,-0.00012302967551566796,-0.00021033020156410785,-0.00036981891613249794,-1.4189028679750536e-05,-0.0009680603592761071,0.3752071261405945,19.669641494750977,0.5458648204803467,-20.007356643676758,-0.6420798897743225,-2.4694857597351074,0.26858848333358765,0
34,0.165024995803833,-0.3752071261405945,-19.669641494750977,-0.5458648204803467,20.007356643676758,0.6420798897743225,2.4694857597351074,-0.26858848333358765,0.0,0.0,0.0,0.0,0.0,0.0,0.0,-0.36394205522749445,0.0467899118904603,-0.3317445189891967,0.24659478590126538,0.0691645535300749,0.10107939243501955,-0.24253806009247014,1.2135010808434403,-0.22033743424792035,-0.007490983158480703,-2.603853680556575,-0.10888331673742982,2.4681835499339635,0.8264800829929576,1.2134413937687574,-0.2202432315892585,-0.0075118285948192216,-2.6038483821997875,-0.10888392708698907,2.4681821257803174,0.826474908251239,0.00034933631421928715,-0.0007680110514890811,0.00012302967551566796,0.00021033020156410785,0.00036981891613249794,1.4189028679750536e-05,0.0009680603592761071,0.0,0.0,0.0,0.0,0.0,0.0,0.0,-5.9687074682956975e-05,9.420265866186273e-05,-2.0845436338518507e-05,5.298356787530878e-06,-6.103495592546526e-07,-1.4241536461234716e-06,-5.174741718572129e-06,-0.00034933631421928715,0.0007680110514890811,-0.00012302967551566796,-0.00021033020156410785,-0.00036981891613249794,-1.4189028679750536e-05,-0.0009680603592761071,0.3752071261405945,19.669641494750977,0.5458648204803467,-20.007356643676758,-0.6420798897743225,-2.4694857597351074,0.26858848333358765,0
35,0.1700117588043213,-0.4029781222343445,-19.717248916625977,-0.5458648204803467,20.031160354614258,0.6658836007118225,2.4630770683288574,-0.19351522624492645,0.0,0.0,0.0,0.0,0.0,0.0,0.0,-0.3625456054374587,0.04982661675330251,-0.32984179701912103,0.24705840584396974,0.06906101190150106,0.10090977557827942,-0.2424743954331342,1.2135030296852714,-0.22033409337620982,-0.007490983158480703,-2.603855350996318,-0.10888596159219742,2.4681842620107863,0.8264681572294155,1.2134413937687574,-0.2202432315892585,-0.0075118285948192216,-2.6038483821997875,-0.10888392708698907,2.4681821257803174,0.826474908251239,0.0007154357555149783,0.0009274295990282102,0.000525409880048463,-0.00015964535232016272,-0.00048464377136666,0.0003262496974793926,-0.0021861155126273214,0.0,0.0,0.0,0.0,0.0,0.0,0.0,-6.163591651398015e-05,9.086178695133507e-05,-2.0845436338518507e-05,6.9687965305043065e-06,2.0345052083453607e-06,-2.136230468963163e-06,6.751021823570014e-06,-0.0007154357555149783,-0.0009274295990282102,-0.000525409880048463,0.00015964535232016272,0.00048464377136666,-0.0003262496974793926,0.0021861155126273214,0.4029781222343445,19.717248916625977,0.5458648204803467,-20.031160354614258,-0.6658836007118225,-2.4630770683288574,0.19351522624492645,0
36,0.1750173568725586,-0.4029781222343445,-19.717248916625977,-0.5458648204803467,20.031160354614258,0.6658836007118225,2.4630770683288574,-0.19351522624492645,0.0,0.0,0.0,0.0,0.0,0.0,0.0,-0.3625456054374587,0.04982661675330251,-0.32984179701912103,0.24705840584396974,0.06906101190150106,0.10090977557827942,-0.2424743954331342,1.2135030296852714,-0.22033409337620982,-0.007490983158480703,-2.603855350996318,-0.10888596159219742,2.4681842620107863,0.8264681572294155,1.2134413937687574,-0.2202432315892585,-0.0075118285948192216,-2.6038483821997875,-0.10888392708698907,2.4681821257803174,0.826474908251239,0.0007154357555149783,0.0009274295990282102,0.000525409880048463,-0.00015964535232016272,-0.00048464377136666,0.0003262496974793926,-0.0021861155126273214,0.0,0.0,0.0,0.0,0.0,0.0,0.0,-6.163591651398015e-05,9.086178695133507e-05,-2.0845436338518507e-05,6.9687965305043065e-06,2.0345052083453607e-06,-2.136230468963163e-06,6.751021823570014e-06,-0.0007154357555149783,-0.0009274295990282102,-0.000525409880048463,0.00015964535232016272,0.00048464377136666,-0.0003262496974793926,0.0021861155126273214,0.4029781222343445,19.717248916625977,0.5458648204803467,-20.031160354614258,-0.6658836007118225,-2.4630770683288574,0.19351522624492645,0
37,0.18002796173095703,-0.3752071261405945,-19.693445205688477,-0.5220611095428467,20.007356643676758,0.6539817452430725,2.4630770683288574,-0.24844686686992645,0.0,0.0,0.0,0.0,0.0,0.0,0.0,-0.36628552819379095,0.0503869515633659,-0.33037335524679806,0.24681463437971285,0.06950629192080471,0.10051701372943564,-0.24229086297468447,1.2135010808434403,-0.2203357638120651,-0.007492890322737061,-2.603853680560463,-0.108884639163812,2.4681842620107863,0.8264741384650808,1.2134413937687574,-0.2202432315892585,-0.0075118285948192216,-2.6038483821997875,-0.10888392708698907,2.4681821257803174,0.826474908251239,6.21805292318478e-05,0.00022777392976035238,-0.0004526974066760095,0.00019894950194144972,0.0001567884540815851,0.0002089530656990868,0.0004056443759415557,0.0,0.0,0.0,0.0,0.0,0.0,0.0,-5.9687074682956975e-05,9.253222280661277e-05,-1.8938272082160215e-05,5.29836067553191e-06,7.120768229229579e-07,-2.136230468963163e-06,7.697861582611765e-07,-6.21805292318478e-05,-0.00022777392976035238,0.0004526974066760095,-0.00019894950194144972,-0.0001567884540815851,-0.0002089530656990868,-0.0004056443759415557,0.3752071261405945,19.693445205688477,0.5220611095428467,-20.007356643676758,-0.6539817452430725,-2.4630770683288574,0.24844686686992645,0
38,0.18502068519592285,-0.3752071261405945,-19.693445205688477,-0.5220611095428467,20.007356643676758,0.6539817452430725,2.4630770683288574,-0.24844686686992645,0.0,0.0,0.0,0.0,0.0,0.0,0.0,-0.36628552819379095,0.0503869515633659,-0.33037335524679806,0.24681463437971285,0.06950629192080471,0.10051701372943564,-0.24229086297468447,1.2135010808434403,-0.2203357638120651,-0.007492890322737061,-2.603853680560463,-0.108884639163812,2.4681842620107863,0.8264741384650808,1.2134413937687574,-0.2202432315892585,-0.0075118285948192216,-2.6038483821997875,-0.10888392708698907,2.4681821257803174,0.826474908251239,6.21805292318478e-05,0.00022777392976035238,-0.0004526974066760095,0.00019894950194144972,0.0001567884540815851,0.0002089530656990868,0.0004056443759415557,0.0,0.0,0.0,0.0,0.0,0.0,0.0,-5.9687074682956975e-05,9.253222280661277e-05,-1.8938272082160215e-05,5.29836067553191e-06,7.120768229229579e-07,-2.136230468963163e-06,7.697861582611765e-07,-6.21805292318478e-05,-0.00022777392976035238,0.0004526974066760095,-0.00019894950194144972,-0.0001567884540815851,-0.0002089530656990868,-0.0004056443759415557,0.3752071261405945,19.693445205688477,0.5220611095428467,-20.007356643676758,-0.6539817452430725,-2.4630770683288574,0.24844686686992645,0
39,0.19003582000732422,-0.3752071261405945,-19.717248916625977,-0.4982573688030243,20.031160354614258,0.6356711983680725,2.4694857597351074,-0.24112264811992645,0.0,0.0,0.0,0.0,0.0,0.0,0.0,-0.3674675040610115,0.04361787681993514,-0.3314139979317663,0.25291839427366725,0.0700087289907369,0.10143136734348866,-0.24175807268381902,1.2135010808434403,-0.22033409337620982,-0.0074943240362916365,-2.603855350996318,-0.10888260465860367,2.4681803710195753,0.8264765078835112,1.2134413937687574,-0.2202432315892585,-0.0075118285948192216,-2.6038483821997875,-0.10888392708698907,2.4681821257803174,0.826474908251239,0.00018806844934245938,0.0005742557426235815,-0.0009400578510689936,-3.788010795358816e-05,0.0008231050985565176,-0.00904470060861741,-0.0001002244798172592,0.0,0.0,0.0,0.0,0.0,0.0,0.0,-5.9687074682956975e-05,9.086178695133507e-05,-1.7504558527585076e-05,6.9687965305043065e-06,-1.322428385408525e-06,1.7547607420453915e-06,-1.5996322721978373e-06,-0.00018806844934245938,-0.0005742557426235815,0.0009400578510689936,3.788010795358816e-05,-0.0008231050985565176,0.00904470060861741,0.0001002244798172592,0.3752071261405945,19.717248916625977,0.4982573688030243,-20.031160354614258,-0.6356711983680725,-2.4694857597351074,0.24112264811992645,0
40,0.19502043724060059,-0.3752071261405945,-19.717248916625977,-0.4982573688030243,20.031160354614258,0.6356711983680725,2.4694857597351074,-0.24112264811992645,0.0,0.0,0.0,0.0,0.0,0.0,0.0,-0.3674675040610115,0.04361787681993514,-0.3314139979317663,0.25291839427366725,0.0700087289907369,0.10143136734348866,-0.24175807268381902,1.2135010808434403,-0.22033409337620982,-0.0074943240362916365,-2.603855350996318,-0.10888260465860367,2.4681803710195753,0.8264765078835112,1.2134413937687574,-0.2202432315892585,-0.0075118285948192216,-2.6038483821997875,-0.10888392708698907,2.4681821257803174,0.826474908251239,0.00018806844934245938,0.0005742557426235815,-0.0009400578510689936,-3.788010795358816e-05,0.0008231050985565176,-0.00904470060861741,-0.0001002244798172592,0.0,0.0,0.0,0.0,0.0,0.0,0.0,-5.9687074682956975e-05,9.086178695133507e-05,-1.7504558527585076e-05,6.9687965305043065e-06,-1.322428385408525e-06,1.7547607420453915e-06,-1.5996322721978373e-06,-0.00018806844934245938,-0.0005742557426235815,0.0009400578510689936,3.788010795358816e-05,-0.0008231050985565176,0.00904470060861741,0.0001002244798172592,0.3752071261405945,19.717248916625977,0.4982573688030243,-20.031160354614258,-0.6356711983680725,-2.4694857597351074,0.24112264811992645,0
41,0.20002317428588867,-0.3752071261405945,-19.693445205688477,-0.5458648204803467,20.054964065551758,0.6539817452430725,2.4758944511413574,-0.25485557317733765,0.0,0.0,0.0,0.0,0.0,0.0,0.0,-0.36989375801775765,0.04356867172712978,-0.3329734011426791,0.2536392875849925,0.06938685078597695,0.10197952008736974,-0.24033005499375773,1.2135010808434403,-0.2203357638120651,-0.007491009461636388,-2.6038570214321735,-0.108884639163812,2.4681828378511588,0.8264784350217103,1.2134413937687574,-0.2202432315892585,-0.0075118285948192216,-2.6038483821997875,-0.10888392708698907,2.4681821257803174,0.826474908251239,-4.158745629666594e-05,9.764292069036677e-09,0.00012063663495175751,-0.0007494123785541406,-0.0001368262754121559,-0.00027175161047612054,0.00045283727108307394,0.0,0.0,0.0,0.0,0.0,0.0,0.0,-5.9687074682956975e-05,9.253222280661277e-05,-2.081913318283373e-05,8.639232385920792e-06,7.120768229229579e-07,-7.120708414021237e-07,-3.526770471218299e-06,4.158745629666594e-05,-9.764292069036677e-09,-0.00012063663495175751,0.0007494123785541406,0.0001368262754121559,0.00027175161047612054,-0.00045283727108307394,0.3752071261405945,19.693445205688477,0.5458648204803467,-20.054964065551758,-0.6539817452430725,-2.4758944511413574,0.25485557317733765,0
42,0.20503544807434082,-0.3752071261405945,-19.693445205688477,-0.5458648204803467,20.054964065551758,0.6539817452430725,2.4758944511413574,-0.25485557317733765,0.0,0.0,0.0,0.0,0.0,0.0,0.0,-0.36989375801775765,0.04356867172712978,-0.3329734011426791,0.2536392875849925,0.06938685078597695,0.10197952008736974,-0.24033005499375773,1.2135010808434403,-0.2203357638120651,-0.007491009461636388,-2.6038570214321735,-0.108884639163812,2.4681828378511588,0.8264784350217103,1.2134413937687574,-0.2202432315892585,-0.0075118285948192216,-2.6038483821997875,-0.10888392708698907,2.4681821257803174,0.826474908251239,-4.158745629666594e-05,9.764292069036677e-09,0.00012063663495175751,-0.0007494123785541406,-0.0001368262754121559,-0.00027175161047612054,0.00045283727108307394,0.0,0.0,0.0,0.0,0.0,0.0,0.0,-5.9687074682956975e-05,9.253222280661277e-05,-2.081913318283373e-05,8.639232385920792e-06,7.120768229229579e-07,-7.120708414021237e-07,-3.526770471218299e-06,4.158745629666594e-05,-9.764292069036677e-09,-0.00012063663495175751,0.0007494123785541406,0.0001368262754121559,0.00027175161047612054,-0.00045283727108307394,0.3752071261405945,19.693445205688477,0.5458648204803467,-20.054964065551758,-0.6539817452430725,-2.4758944511413574,0.25485557317733765,0
43,0.2100365161895752,-0.4029781222343445,-19.669641494750977,-0.5220611095428467,20.007356643676758,0.6475730538368225,2.4758944511413574,-0.26217979192733765,0.0,0.0,0.0,0.0,0.0,0.0,0.0,-0.36567281233740434,0.04569947312669993,-0.3274823463615415,0.2467198169859261,0.06877357992168158,0.10081120430601072,-0.2410628667170106,1.2135030296852714,-0.22033743424792035,-0.007492653594484448,-2.603853680560463,-0.10888392708698909,2.46818283785714,0.8264788960919005,1.2134413937687574,-0.2202432315892585,-0.0075118285948192216,-2.6038483821997875,-0.10888392708698907,2.4681821257803174,0.826474908251239,0.0011458687426829897,-0.0008685658048458021,-1.1797132533735459e-05,0.0002392512010897436,0.0002116330814599382,1.2593689687885895e-05,0.0006565083278121545,0.0,0.0,0.0,0.0,0.0,0.0,0.0,-6.163591651398015e-05,9.420265866186273e-05,-1.9175000334773623e-05,5.29836067553191e-06,1.3877787807814457e-17,-7.120768228396912e-07,-3.987840661467956e-06,-0.0011458687426829897,0.0008685658048458021,1.1797132533735459e-05,-0.0002392512010897436,-0.0002116330814599382,-1.2593689687885895e-05,-0.0006565083278121545,0.4029781222343445,19.669641494750977,0.5220611095428467,-20.007356643676758,-0.6475730538368225,-2.4758944511413574,0.26217979192733765,0
44,0.2150418758392334,-0.4029781222343445,-19.669641494750977,-0.5220611095428467,20.007356643676758,0.6475730538368225,2.4758944511413574,-0.26217979192733765,0.0,0.0,0.0,0.0,0.0,0.0,0.0,-0.36567281233740434,0.04569947312669993,-0.3274823463615415,0.2467198169859261,0.06877357992168158,0.10081120430601072,-0.2410628667170106,1.2135030296852714,-0.22033743424792035,-0.007492653594484448,-2.603853680560463,-0.10888392708698909,2.46818283785714,0.8264788960919005,1.2134413937687574,-0.2202432315892585,-0.0075118285948192216,-2.6038483821997875,-0.10888392708698907,2.4681821257803174,0.826474908251239,0.0011458687426829897,-0.0008685658048458021,-1.1797132533735459e-05,0.0002392512010897436,0.0002116330814599382,1.2593689687885895e-05,0.0006565083278121545,0.0,0.0,0.0,0.0,0.0,0.0,0.0,-6.163591651398015e-05,9.420265866186273e-05,-1.9175000334773623e-05,5.29836067553191e-06,1.3877787807814457e-17,-7.120768228396912e-07,-3.987840661467956e-06,-0.0011458687426829897,0.0008685658048458021,1.1797132533735459e-05,-0.0002392512010897436,-0.0002116330814599382,-1.2593689687885895e-05,-0.0006565083278121545,0.4029781222343445,19.669641494750977,0.5220611095428467,-20.007356643676758,-0.6475730538368225,-2.4758944511413574,0.26217979192733765,0
45,0.22003650665283203,-0.4029781222343445,-19.717248916625977,-0.5220611095428467,20.007356643676758,0.6539817452430725,2.4694857597351074,-0.24844686686992645,0.0,0.0,0.0,0.0,0.0,0.0,0.0,-0.36983006756657166,0.045660783348585296,-0.33150257703252983,0.24657726111978184,0.06920106862305044,0.10128080529061312,-0.2421514518402917,1.2135030296852714,-0.22033409337620982,-0.007492679897491644,-2.603853680560463,-0.108884639163812,2.468183549933963,0.8264773192812535,1.2134413937687574,-0.2202432315892585,-0.0075118285948192216,-2.6038483821997875,-0.10888392708698907,2.4681821257803174,0.826474908251239,0.0011833062541711532,0.0002628528334264288,-0.00024289022254488215,0.0004935608949322802,3.29745513220174e-05,0.0001613528191070835,0.000654830729759459,0.0,0.0,0.0,0.0,0.0,0.0,0.0,-6.163591651398015e-05,9.086178695133507e-05,-1.9148697327577707e-05,5.29836067553191e-06,7.120768229229579e-07,-1.4241536456793824e-06,-2.4110300144153385e-06,-0.0011833062541711532,-0.0002628528334264288,0.00024289022254488215,-0.0004935608949322802,-3.29745513220174e-05,-0.0001613528191070835,-0.000654830729759459,0.4029781222343445,19.717248916625977,0.5220611095428467,-20.007356643676758,-0.6539817452430725,-2.4694857597351074,0.24844686686992645,0
46,0.22502470016479492,-0.4029781222343445,-19.717248916625977,-0.5220611095428467,20.007356643676758,0.6539817452430725,2.4694857597351074,-0.24844686686992645,0.0,0.0,0.0,0.0,0.0,0.0,0.0,-0.36983006756657166,0.045660783348585296,-0.33150257703252983,0.24657726111978184,0.06920106862305044,0.10128080529061312,-0.2421514518402917,1.2135030296852714,-0.22033409337620982,-0.007492679897491644,-2.603853680560463,-0.108884639163812,2.468183549933963,0.8264773192812535,1.2134413937687574,-0.2202432315892585,-0.0075118285948192216,-2.6038483821997875,-0.10888392708698907,2.4681821257803174,0.826474908251239,0.0011833062541711532,0.0002628528334264288,-0.00024289022254488215,0.0004935608949322802,3.29745513220174e-05,0.0001613528191070835,0.000654830729759459,0.0,0.0,0.0,0.0,0.0,0.0,0.0,-6.163591651398015e-05,9.086178695133507e-05,-1.9148697327577707e-05,5.29836067553191e-06,7.120768229229579e-07,-1.4241536456793824e-06,-2.4110300144153385e-06,-0.0011833062541711532,-0.0002628528334264288,0.00024289022254488215,-0.0004935608949322802,-3.29745513220174e-05,-0.0001613528191070835,-0.000654830729759459,0.4029781222343445,19.717248916625977,0.5220611095428467,-20.007356643676758,-0.6539817452430725,-2.4694857597351074,0.24844686686992645,0
47,0.2300095558166504,-0.3514034152030945,-19.745019912719727,-0.5458648204803467,20.007356643676758,0.6539817452430725,2.4758944511413574,-0.21457235515117645,0.0,0.0,0.0,0.0,0.0,0.0,0.0,-0.3666502527900618,0.04548987918178569,-0.3292989273848649,0.2435605754936041,0.06895495553621249,0.10118431228463817,-0.24020327357231472,1.213499410407585,-0.2203321445343787,-0.007490983158629185,-2.603853680560463,-0.108884639163812,2.46818283785714,0.826475099170527,1.2134413937687574,-0.2202432315892585,-0.0075118285948192216,-2.6038483821997875,-0.10888392708698907,2.4681821257803174,0.826474908251239,-0.0005810971044847331,0.0012634495417855208,0.0006622943241699281,9.694813231935178e-06,0.0002203825452918321,-0.00018343027546941098,-0.0006395849638092086,0.0,0.0,0.0,0.0,0.0,0.0,0.0,-5.801663882754049e-05,8.891294512020087e-05,-2.0845436190036586e-05,5.29836067553191e-06,7.120768229229579e-07,-7.120768228396912e-07,-1.909192879345767e-07,0.0005810971044847331,-0.0012634495417855208,-0.0006622943241699281,-9.694813231935178e-06,-0.0002203825452918321,0.00018343027546941098,0.0006395849638092086,0.3514034152030945,19.745019912719727,0.5458648204803467,-20.007356643676758,-0.6539817452430725,-2.4758944511413574,0.21457235515117645,0
48,0.23501825332641602,-0.3514034152030945,-19.745019912719727,-0.5458648204803467,20.007356643676758,0.6539817452430725,2.4758944511413574,-0.21457235515117645,0.0,0.0,0.0,0.0,0.0,0.0,0.0,-0.3666502527900618,0.04548987918178569,-0.3292989273848649,0.2435605754936041,0.06895495553621249,0.10118431228463817,-0.24020327357231472,1.213499410407585,-0.2203321445343787,-0.007490983158629185,-2.603853680560463,-0.108884639163812,2.46818283785714,0.826475099170527,1.2134413937687574,-0.2202432315892585,-0.0075118285948192216,-2.6038483821997875,-0.10888392708698907,2.4681821257803174,0.826474908251239,-0.0005810971044847331,0.0012634495417855208,0.0006622943241699281,9.694813231935178e-06,0.0002203825452918321,-0.00018343027546941098,-0.0006395849638092086,0.0,0.0,0.0,0.0,0.0,0.0,0.0,-5.801663882754049e-05,8.891294512020087e-05,-2.0845436190036586e-05,5.29836067553191e-06,7.120768229229579e-07,-7.120768228396912e-07,-1.909192879345767e-07,0.0005810971044847331,-0.0012634495417855208,-0.0006622943241699281,-9.694813231935178e-06,-0.0002203825452918321,0.00018343027546941098,0.0006395849638092086,0.3514034152030945,19.745019912719727,0.5458648204803467,-20.007356643676758,-0.6539817452430725,-2.4758944511413574,0.21457235515117645,0
49,0.24001026153564453,-0.3236324191093445,-19.717248916625977,-0.5220611095428467,20.031160354614258,0.6539817452430725,2.4823031425476074,-0.28232139348983765,0.0,0.0,0.0,0.0,0.0,0.0,0.0,-0.3673643690485829,0.04335429140803146,-0.3304698797212031,0.24333410440534844,0.06975808244903821,0.10143112388537494,-0.23871115079185218,1.2134974615657539,-0.22033409337620982,-0.007492653594335968,-2.603855350996318,-0.108884639163812,2.4681821388622693,0.826478373761654,1.2134413937687574,-0.2202432315892585,-0.0075118285948192216,-2.6038483821997875,-0.10888392708698907,2.4681821257803174,0.826474908251239,-0.0005191184105835726,0.0004978344823415127,-0.00047638645630546604,-0.00038473171023998746,2.7821069437955992e-05,-0.0002796483636299622,0.002108625532851055,0.0,0.0,0.0,0.0,0.0,0.0,0.0,-5.6067796996517316e-05,9.086178695133507e-05,-1.917500048325381e-05,6.9687965305043065e-06,7.120768229229579e-07,-1.3081951966142924e-08,-3.4655104149683424e-06,0.0005191184105835726,-0.0004978344823415127,0.00047638645630546604,0.00038473171023998746,-2.7821069437955992e-05,0.0002796483636299622,-0.002108625532851055,0.3236324191093445,19.717248916625977,0.5220611095428467,-20.031160354614258,-0.6539817452430725,-2.4823031425476074,0.28232139348983765,0
50,0.24500703811645508,-0.3236324191093445,-19.717248916625977,-0.5220611095428467,20.031160354614258,0.6539817452430725,2.4823031425476074,-0.28232139348983765,0.0,0.0,0.0,0.0,0.0,0.0,0.0,-0.3673643690485829,0.04335429140803146,-0.3304698797212031,0.24333410440534844,0.06975808244903821,0.10143112388537494,-0.23871115079185218,1.2134974615657539,-0.22033409337620982,-0.007492653594335968,-2.603855350996318,-0.108884639163812,2.4681821388622693,0.826478373761654,1.2134413937687574,-0.2202432315892585,-0.0075118285948192216,-2.6038483821997875,-0.10888392708698907,2.4681821257803174,0.826474908251239,-0.0005191184105835726,0.0004978344823415127,-0.00047638645630546604,-0.00038473171023998746,2.7821069437955992e-05,-0.0002796483636299622,0.002108625532851055,0.0,0.0,0.0,0.0,0.0,0.0,0.0,-5.6067796996517316e-05,9.086178695133507e-05,-1.917500048325381e-05,6.9687965305043065e-06,7.120768229229579e-07,-1.3081951966142924e-08,-3.4655104149683424e-06,0.0005191184105835726,-0.0004978344823415127,0.00047638645630546604,0.00038473171023998746,-2.7821069437955992e-05,0.0002796483636299622,-0.002108625532851055,0.3236324191093445,19.717248916625977,0.5220611095428467,-20.031160354614258,-0.6539817452430725,-2.4823031425476074,0.28232139348983765,0
51,0.25001001358032227,-0.3236324191093445,-19.717248916625977,-0.5220611095428467,20.031160354614258,0.6539817452430725,2.4823031425476074,-0.28232139348983765,0.0,0.0,0.0,0.0,0.0,0.0,0.0,-0.3673643690485829,0.04335429140803146,-0.3304698797212031,0.24333410440534844,0.06975808244903821,0.10143112388537494,-0.23871115079185218,1.2134974615657539,-0.22033409337620982,-0.007492653594335968,-2.603855350996318,-0.108884639163812,2.4681821388622693,0.826478373761654,1.2134413937687574,-0.2202432315892585,-0.0075118285948192216,-2.6038483821997875,-0.10888392708698907,2.4681821257803174,0.826474908251239,-0.0005191184105835726,0.0004978344823415127,-0.00047638645630546604,-0.00038473171023998746,2.7821069437955992e-05,-0.0002796483636299622,0.002108625532851055,0.0,0.0,0.0,0.0,0.0,0.0,0.0,-5.6067796996517316e-05,9.086178695133507e-05,-1.917500048325381e-05,6.9687965305043065e-06,7.120768229229579e-07,-1.3081951966142924e-08,-3.4655104149683424e-06,0.0005191184105835726,-0.0004978344823415127,0.00047638645630546604,0.00038473171023998746,-2.7821069437955992e-05,0.0002796483636299622,-0.002108625532851055,0.3236324191093445,19.717248916625977,0.5220611095428467,-20.031160354614258,-0.6539817452430725,-2.4823031425476074,0.28232139348983765,0
52,0.2550075054168701,-0.3236324191093445,-19.717248916625977,-0.5220611095428467,20.031160354614258,0.6539817452430725,2.4823031425476074,-0.28232139348983765,0.0,0.0,0.0,0.0,0.0,0.0,0.0,-0.3673643690485829,0.04335429140803146,-0.3304698797212031,0.24333410440534844,0.06975808244903821,0.10143112388537494,-0.23871115079185218,1.2134974615657539,-0.22033409337620982,-0.007492653594335968,-2.603855350996318,-0.108884639163812,2.4681821388622693,0.826478373761654,1.2134413937687574,-0.2202432315892585,-0.0075118285948192216,-2.6038483821997875,-0.10888392708698907,2.4681821257803174,0.826474908251239,-0.0005191184105835726,0.0004978344823415127,-0.00047638645630546604,-0.00038473171023998746,2.7821069437955992e-05,-0.0002796483636299622,0.002108625532851055,0.0,0.0,0.0,0.0,0.0,0.0,0.0,-5.6067796996517316e-05,9.086178695133507e-05,-1.917500048325381e-05,6.9687965305043065e-06,7.120768229229579e-07,-1.3081951966142924e-08,-3.4655104149683424e-06,0.0005191184105835726,-0.0004978344823415127,0.00047638645630546604,0.00038473171023998746,-2.7821069437955992e-05,0.0002796483636299622,-0.002108625532851055,0.3236324191093445,19.717248916625977,0.5220611095428467,-20.031160354614258,-0.6539817452430725,-2.4823031425476074,0.28232139348983765,0
53,0.2600090503692627,-0.3752071261405945,-19.693445205688477,-0.5220611095428467,20.031160354614258,0.6539817452430725,2.4630770683288574,-0.25485557317733765,0.0,0.0,0.0,0.0,0.0,0.0,0.0,-0.3667476250144956,0.04612380108039433,-0.3339842405879644,0.24130250178166238,0.0699962216095282,0.10145051194156503,-0.2389891902144705,1.2135010808434403,-0.2203357638120651,-0.007492732503802998,-2.603855350996318,-0.108884639163812,2.4681842620110075,0.8264785575346627,1.2134413937687574,-0.2202432315892585,-0.0075118285948192216,-2.6038483821997875,-0.10888392708698907,2.4681821257803174,0.826474908251239,0.00022607909879590284,0.0001636850993685766,-0.0002775157065456253,-0.00010206226989844222,-5.9312497997742575e-06,0.0003631454142611891,0.0004361621612083204,0.0,0.0,0.0,0.0,0.0,0.0,0.0,-5.9687074682956975e-05,9.253222280661277e-05,-1.9096091016223768e-05,6.9687965305043065e-06,7.120768229229579e-07,-2.1362306901195893e-06,-3.6492834236678817e-06,-0.00022607909879590284,-0.0001636850993685766,0.0002775157065456253,0.00010206226989844222,5.9312497997742575e-06,-0.0003631454142611891,-0.0004361621612083204,0.3752071261405945,19.693445205688477,0.5220611095428467,-20.031160354614258,-0.6539817452430725,-2.4630770683288574,0.25485557317733765,0
54,0.26500725746154785,-0.3752071261405945,-19.693445205688477,-0.5220611095428467,20.031160354614258,0.6539817452430725,2.4630770683288574,-0.25485557317733765,0.0,0.0,0.0,0.0,0.0,0.0,0.0,-0.3667476250144956,0.04612380108039433,-0.3339842405879644,0.24130250178166238,0.0699962216095282,0.10145051194156503,-0.2389891902144705,1.2135010808434403,-0.2203357638120651,-0.007492732503802998,-2.603855350996318,-0.108884639163812,2.4681842620110075,0.8264785575346627,1.2134413937687574,-0.2202432315892585,-0.0075118285948192216,-2.6038483821997875,-0.10888392708698907,2.4681821257803174,0.826474908251239,0.00022607909879590284,0.0001636850993685766,-0.0002775157065456253,-0.00010206226989844222,-5.9312497997742575e-06,0.0003631454142611891,0.0004361621612083204,0.0,0.0,0.0,0.0,0.0,0.0,0.0,-5.9687074682956975e-05,9.253222280661277e-05,-1.9096091016223768e-05,6.9687965305043065e-06,7.120768229229579e-07,-2.1362306901195893e-06,-3.6492834236678817e-06,-0.00022607909879590284,-0.0001636850993685766,0.0002775157065456253,0.00010206226989844222,5.9312497997742575e-06,-0.0003631454142611891,-0.0004361621612083204,0.3752071261405945,19.693445205688477,0.5220611095428467,-20.031160354614258,-0.6539817452430725,-2.4630770683288574,0.25485557317733765,0
55,0.2700157165527344,-0.3752071261405945,-19.693445205688477,-0.5458648204803467,20.031160354614258,0.6539817452430725,2.4758944511413574,-0.26217979192733765,0.0,0.0,0.0,0.0,0.0,0.0,0.0,-0.3668537172933626,0.045028855287226534,-0.33337787343625824,0.2398189614260402,0.07004616324965297,0.10091915166422422,-0.23992597791494522,1.2135010808434403,-0.2203357638120651,-0.0074909831584972,-2.603855360153685,-0.108884639163812,2.4681828378571407,0.8264792547484258,1.2134413937687574,-0.2202432315892585,-0.0075118285948192216,-2.6038483821997875,-0.10888392708698907,2.4681821257803174,0.826474908251239,0.0001071955868497146,0.00019695431087624922,-0.00015417839914966852,-0.0006039571221447285,0.00016411605981657898,-0.000149162002491047,0.001122266345868609,0.0,0.0,0.0,0.0,0.0,0.0,0.0,-5.9687074682956975e-05,9.253222280661277e-05,-2.0845436322021287e-05,6.977953897369105e-06,7.120768229229579e-07,-7.120768232837804e-07,-4.3464971867246405e-06,-0.0001071955868497146,-0.00019695431087624922,0.00015417839914966852,0.0006039571221447285,-0.00016411605981657898,0.000149162002491047,-0.001122266345868609,0.3752071261405945,19.693445205688477,0.5458648204803467,-20.031160354614258,-0.6539817452430725,-2.4758944511413574,0.26217979192733765,0
56,0.2750086784362793,-0.3752071261405945,-19.693445205688477,-0.5458648204803467,20.031160354614258,0.6539817452430725,2.4758944511413574,-0.26217979192733765,0.0,0.0,0.0,0.0,0.0,0.0,0.0,-0.3668537172933626,0.045028855287226534,-0.33337787343625824,0.2398189614260402,0.07004616324965297,0.10091915166422422,-0.23992597791494522,1.2135010808434403,-0.2203357638120651,-0.0074909831584972,-2.603855360153685,-0.108884639163812,2.4681828378571407,0.8264792547484258,1.2134413937687574,-0.2202432315892585,-0.0075118285948192216,-2.6038483821997875,-0.10888392708698907,2.4681821257803174,0.826474908251239,0.0001071955868497146,0.00019695431087624922,-0.00015417839914966852,-0.0006039571221447285,0.00016411605981657898,-0.000149162002491047,0.001122266345868609,0.0,0.0,0.0,0.0,0.0,0.0,0.0,-5.9687074682956975e-05,9.253222280661277e-05,-2.0845436322021287e-05,6.977953897369105e-06,7.120768229229579e-07,-7.120768232837804e-07,-4.3464971867246405e-06,-0.0001071955868497146,-0.00019695431087624922,0.00015417839914966852,0.0006039571221447285,-0.00016411605981657898,0.000149162002491047,-0.001122266345868609,0.3752071261405945,19.693445205688477,0.5458648204803467,-20.031160354614258,-0.6539817452430725,-2.4758944511413574,0.26217979192733765,0
57,0.2800154685974121,-0.3752071261405945,-19.669641494750977,-0.5220611095428467,20.031160354614258,0.6539817452430725,2.4758944511413574,-0.26858848333358765,0.0,0.0,0.0,0.0,0.0,0.0,0.0,-0.3678028091102548,0.03941640970659626,-0.3338968188393162,0.24186581498716858,0.07022307406551909,0.10134386025069249,-0.23902166398918184,1.2135010808434403,-0.22033743424792035,-0.007494784149945828,-2.60385535099637,-0.108884639163812,2.4681828378571407,0.8264810995113091,1.2134413937687574,-0.2202432315892585,-0.0075118285948192216,-2.6038483821997875,-0.10888392708698907,2.4681821257803174,0.826474908251239,-2.14673292666851e-05,-0.0009611827297277392,-0.00045373656026516114,-0.0004770225872493185,-0.00010732291890624869,-0.0002512871984205469,0.0005875195650427055,0.0,0.0,0.0,0.0,0.0,0.0,0.0,-5.9687074682956975e-05,9.420265866186273e-05,-1.7044444873393245e-05,6.968796582462744e-06,7.120768229229579e-07,-7.120768232837804e-07,-6.191260070065319e-06,2.14673292666851e-05,0.0009611827297277392,0.00045373656026516114,0.0004770225872493185,0.00010732291890624869,0.0002512871984205469,-0.0005875195650427055,0.3752071261405945,19.669641494750977,0.5220611095428467,-20.031160354614258,-0.6539817452430725,-2.4758944511413574,0.26858848333358765,0
58,0.28499579429626465,-0.3752071261405945,-19.669641494750977,-0.5220611095428467,20.031160354614258,0.6539817452430725,2.4758944511413574,-0.26858848333358765,0.0,0.0,0.0,0.0,0.0,0.0,0.0,-0.3678028091102548,0.03941640970659626,-0.3338968188393162,0.24186581498716858,0.07022307406551909,0.10134386025069249,-0.23902166398918184,1.2135010808434403,-0.22033743424792035,-0.007494784149945828,-2.60385535099637,-0.108884639163812,2.4681828378571407,0.8264810995113091,1.2134413937687574,-0.2202432315892585,-0.0075118285948192216,-2.6038483821997875,-0.10888392708698907,2.4681821257803174,0.826474908251239,-2.14673292666851e-05,-0.0009611827297277392,-0.00045373656026516114,-0.0004770225872493185,-0.00010732291890624869,-0.0002512871984205469,0.0005875195650427055,0.0,0.0,0.0,0.0,0.0,0.0,0.0,-5.9687074682956975e-05,9.420265866186273e-05,-1.7044444873393245e-05,6.968796582462744e-06,7.120768229229579e-07,-7.120768232837804e-07,-6.191260070065319e-06,2.14673292666851e-05,0.0009611827297277392,0.00045373656026516114,0.0004770225872493185,0.00010732291890624869,0.0002512871984205469,-0.0005875195650427055,0.3752071261405945,19.669641494750977,0.5220611095428467,-20.031160354614258,-0.6539817452430725,-2.4758944511413574,0.26858848333358765,0
59,0.2900073528289795,-0.3752071261405945,-19.669641494750977,-0.5220611095428467,20.031160354614258,0.6539817452430725,2.4758944511413574,-0.26858848333358765,0.0,0.0,0.0,0.0,0.0,0.0,0.0,-0.3678028091102548,0.03941640970659626,-0.3338968188393162,0.24186581498716858,0.07022307406551909,0.10134386025069249,-0.23902166398918184,1.2135010808434403,-0.22033743424792035,-0.007494784149945828,-2.60385535099637,-0.108884639163812,2.4681828378571407,0.8264810995113091,1.2134413937687574,-0.2202432315892585,-0.0075118285948192216,-2.6038483821997875,-0.10888392708698907,2.4681821257803174,0.826474908251239,-2.14673292666851e-05,-0.0009611827297277392,-0.00045373656026516114,-0.0004770225872493185,-0.00010732291890624869,-0.0002512871984205469,0.0005875195650427055,0.0,0.0,0.0,0.0,0.0,0.0,0.0,-5.9687074682956975e-05,9.420265866186273e-05,-1.7044444873393245e-05,6.968796582462744e-06,7.120768229229579e-07,-7.120768232837804e-07,-6.191260070065319e-06,2.14673292666851e-05,0.0009611827297277392,0.00045373656026516114,0.0004770225872493185,0.00010732291890624869,0.0002512871984205469,-0.0005875195650427055,0.3752071261405945,19.669641494750977,0.5220611095428467,-20.031160354614258,-0.6539817452430725,-2.4758944511413574,0.26858848333358765,0
60,0.29501938819885254,-0.3752071261405945,-19.669641494750977,-0.5220611095428467,20.031160354614258,0.6539817452430725,2.4758944511413574,-0.26858848333358765,0.0,0.0,0.0,0.0,0.0,0.0,0.0,-0.3678028091102548,0.03941640970659626,-0.3338968188393162,0.24186581498716858,0.07022307406551909,0.10134386025069249,-0.23902166398918184,1.2135010808434403,-0.22033743424792035,-0.007494784149945828,-2.60385535099637,-0.108884639163812,2.4681828378571407,0.8264810995113091,1.2134413937687574,-0.2202432315892585,-0.0075118285948192216,-2.6038483821997875,-0.10888392708698907,2.4681821257803174,0.826474908251239,-2.14673292666851e-05,-0.0009611827297277392,-0.00045373656026516114,-0.0004770225872493185,-0.00010732291890624869,-0.0002512871984205469,0.0005875195650427055,0.0,0.0,0.0,0.0,0.0,0.0,0.0,-5.9687074682956975e-05,9.420265866186273e-05,-1.7044444873393245e-05,6.968796582462744e-06,7.120768229229579e-07,-7.120768232837804e-07,-6.191260070065319e-06,2.14673292666851e-05,0.0009611827297277392,0.00045373656026516114,0.0004770225872493185,0.00010732291890624869,0.0002512871984205469,-0.0005875195650427055,0.3752071261405945,19.669641494750977,0.5220611095428467,-20.031160354614258,-0.6539817452430725,-2.4758944511413574,0.26858848333358765,0
61,0.3000376224517822,-0.3752071261405945,-19.669641494750977,-0.5220611095428467,20.031160354614258,0.6539817452430725,2.4758944511413574,-0.26858848333358765,0.0,0.0,0.0,0.0,0.0,0.0,0.0,-0.3678028091102548,0.03941640970659626,-0.3338968188393162,0.24186581498716858,0.07022307406551909,0.10134386025069249,-0.23902166398918184,1.2135010808434403,-0.22033743424792035,-0.007494784149945828,-2.60385535099637,-0.108884639163812,2.4681828378571407,0.8264810995113091,1.2134413937687574,-0.2202432315892585,-0.0075118285948192216,-2.6038483821997875,-0.10888392708698907,2.4681821257803174,0.826474908251239,-2.14673292666851e-05,-0.0009611827297277392,-0.00045373656026516114,-0.0004770225872493185,-0.00010732291890624869,-0.0002512871984205469,0.0005875195650427055,0.0,0.0,0.0,0.0,0.0,0.0,0.0,-5.9687074682956975e-05,9.420265866186273e-05,-1.7044444873393245e-05,6.968796582462744e-06,7.120768229229579e-07,-7.120768232837804e-07,-6.191260070065319e-06,2.14673292666851e-05,0.0009611827297277392,0.00045373656026516114,0.0004770225872493185,0.00010732291890624869,0.0002512871984205469,-0.0005875195650427055,0.3752071261405945,19.669641494750977,0.5220611095428467,-20.031160354614258,-0.6539817452430725,-2.4758944511413574,0.26858848333358765,0
62,0.30502891540527344,-0.3752071261405945,-19.669641494750977,-0.5220611095428467,20.054964065551758,0.6594749093055725,2.4630770683288574,-0.24112264811992645,0.0,0.0,0.0,0.0,0.0,0.0,0.0,-0.3678895286500424,0.0397316225975227,-0.33250059663609155,0.24131482720196887,0.06988218518955625,0.10002918544691454,-0.23947724690566688,1.2135010808434403,-0.22033743424792035,-0.0074933637795393205,-2.603857021432174,-0.10888528894519608,2.4681842620107863,0.8264765185669124,1.2134413937687574,-0.2202432315892585,-0.0075118285948192216,-2.6038483821997875,-0.10888392708698907,2.4681821257803174,0.826474908251239,0.0002666661946870267,-0.0006710562030017167,-6.217598099996131e-05,-0.0007760509427615009,-0.00013296517167327667,0.00018524085712253582,0.00024048743077467377,0.0,0.0,0.0,0.0,0.0,0.0,0.0,-5.9687074682956975e-05,9.420265866186273e-05,-1.8464815279901035e-05,8.639232386364881e-06,1.3618582070107355e-06,-2.136230468963163e-06,-1.610315673361562e-06,-0.0002666661946870267,0.0006710562030017167,6.217598099996131e-05,0.0007760509427615009,0.00013296517167327667,-0.00018524085712253582,-0.00024048743077467377,0.3752071261405945,19.669641494750977,0.5220611095428467,-20.054964065551758,-0.6594749093055725,-2.4630770683288574,0.24112264811992645,0
63,0.31003737449645996,-0.3752071261405945,-19.669641494750977,-0.5220611095428467,20.054964065551758,0.6594749093055725,2.4630770683288574,-0.24112264811992645,0.0,0.0,0.0,0.0,0.0,0.0,0.0,-0.3678895286500424,0.0397316225975227,-0.33250059663609155,0.24131482720196887,0.06988218518955625,0.10002918544691454,-0.23947724690566688,1.2135010808434403,-0.22033743424792035,-0.0074933637795393205,-2.603857021432174,-0.10888528894519608,2.4681842620107863,0.8264765185669124,1.2134413937687574,-0.2202432315892585,-0.0075118285948192216,-2.6038483821997875,-0.10888392708698907,2.4681821257803174,0.826474908251239,0.0002666661946870267,-0.0006710562030017167,-6.217598099996131e-05,-0.0007760509427615009,-0.00013296517167327667,0.00018524085712253582,0.00024048743077467377,0.0,0.0,0.0,0.0,0.0,0.0,0.0,-5.9687074682956975e-05,9.420265866186273e-05,-1.8464815279901035e-05,8.639232386364881e-06,1.3618582070107355e-06,-2.136230468963163e-06,-1.610315673361562e-06,-0.0002666661946870267,0.0006710562030017167,6.217598099996131e-05,0.0007760509427615009,0.00013296517167327667,-0.00018524085712253582,-0.00024048743077467377,0.3752071261405945,19.669641494750977,0.5220611095428467,-20.054964065551758,-0.6594749093055725,-2.4630770683288574,0.24112264811992645,0
64,0.31504154205322266,-0.3752071261405945,-19.693445205688477,-0.5220611095428467,20.031160354614258,0.6594749093055725,2.4694857597351074,-0.22830526530742645,0.0,0.0,0.0,0.0,0.0,0.0,0.0,-0.36980424564574954,0.04638814175138944,-0.3330297833229289,0.2406446602166775,0.07051181432628696,0.09853072652288235,-0.23844092646745574,1.2135010808434403,-0.2203357638120651,-0.007492657495108786,-2.6038553509963185,-0.10888524805523331,2.4681835499339635,0.8264719547925669,1.2134413937687574,-0.2202432315892585,-0.0075118285948192216,-2.6038483821997875,-0.10888392708698907,2.4681821257803174,0.826474908251239,0.0001561451628836537,0.00045537962216409244,6.626961930201082e-05,-0.00021660360845972572,-4.01676257025909e-05,0.00011650590167594446,-0.0008180254840074177,0.0,0.0,0.0,0.0,0.0,0.0,0.0,-5.9687074682956975e-05,9.253222280661277e-05,-1.917109971043534e-05,6.968796530948396e-06,1.3209682442338888e-06,-1.4241536461234716e-06,2.953458672183551e-06,-0.0001561451628836537,-0.00045537962216409244,-6.626961930201082e-05,0.00021660360845972572,4.01676257025909e-05,-0.00011650590167594446,0.0008180254840074177,0.3752071261405945,19.693445205688477,0.5220611095428467,-20.031160354614258,-0.6594749093055725,-2.4694857597351074,0.22830526530742645,0
65,0.32002902030944824,-0.3752071261405945,-19.693445205688477,-0.5220611095428467,20.031160354614258,0.6594749093055725,2.4694857597351074,-0.22830526530742645,0.0,0.0,0.0,0.0,0.0,0.0,0.0,-0.36980424564574954,0.04638814175138944,-0.3330297833229289,0.2406446602166775,0.07051181432628696,0.09853072652288235,-0.23844092646745574,1.2135010808434403,-0.2203357638120651,-0.007492657495108786,-2.6038553509963185,-0.10888524805523331,2.4681835499339635,0.8264719547925669,1.2134413937687574,-0.2202432315892585,-0.0075118285948192216,-2.6038483821997875,-0.10888392708698907,2.4681821257803174,0.826474908251239,0.0001561451628836537,0.00045537962216409244,6.626961930201082e-05,-0.00021660360845972572,-4.01676257025909e-05,0.00011650590167594446,-0.0008180254840074177,0.0,0.0,0.0,0.0,0.0,0.0,0.0,-5.9687074682956975e-05,9.253222280661277e-05,-1.917109971043534e-05,6.968796530948396e-06,1.3209682442338888e-06,-1.4241536461234716e-06,2.953458672183551e-06,-0.0001561451628836537,-0.00045537962216409244,-6.626961930201082e-05,0.00021660360845972572,4.01676257025909e-05,-0.00011650590167594446,0.0008180254840074177,0.3752071261405945,19.693445205688477,0.5220611095428467,-20.031160354614258,-0.6594749093055725,-2.4694857597351074,0.22830526530742645,0
66,0.32503175735473633,-0.3514034152030945,-19.693445205688477,-0.4982573688030243,20.007356643676758,0.6475730538368225,2.4758944511413574,-0.25485557317733765,0.0,0.0,0.0,0.0,0.0,0.0,0.0,-0.37215645517259016,0.04594892888915698,-0.3329109685978749,0.2405322131145008,0.07099779444998598,0.09871494599135686,-0.2386446614283034,1.213499410407585,-0.2203357638120651,-0.007494324393116103,-2.6038536805604635,-0.10888392708698084,2.4681828378571407,0.8264760299646121,1.2134413937687574,-0.2202432315892585,-0.0075118285948192216,-2.6038483821997875,-0.10888392708698907,2.4681821257803174,0.826474908251239,-0.00042949798918579397,4.939545839796125e-05,-0.0008956367744657562,0.0001721614204977446,0.00018935076410004031,-1.6359827252595887e-05,0.0010503913905645446,0.0,0.0,0.0,0.0,0.0,0.0,0.0,-5.801663882754049e-05,9.253222280661277e-05,-1.75042017031184e-05,5.298360675975999e-06,-8.229528170033973e-15,-7.120768232837804e-07,-1.1217133730756501e-06,0.00042949798918579397,-4.939545839796125e-05,0.0008956367744657562,-0.0001721614204977446,-0.00018935076410004031,1.6359827252595887e-05,-0.0010503913905645446,0.3514034152030945,19.693445205688477,0.4982573688030243,-20.007356643676758,-0.6475730538368225,-2.4758944511413574,0.25485557317733765,0
67,0.3300349712371826,-0.3514034152030945,-19.693445205688477,-0.4982573688030243,20.007356643676758,0.6475730538368225,2.4758944511413574,-0.25485557317733765,0.0,0.0,0.0,0.0,0.0,0.0,0.0,-0.37215645517259016,0.04594892888915698,-0.3329109685978749,0.2405322131145008,0.07099779444998598,0.09871494599135686,-0.2386446614283034,1.213499410407585,-0.2203357638120651,-0.007494324393116103,-2.6038536805604635,-0.10888392708698084,2.4681828378571407,0.8264760299646121,1.2134413937687574,-0.2202432315892585,-0.0075118285948192216,-2.6038483821997875,-0.10888392708698907,2.4681821257803174,0.826474908251239,-0.00042949798918579397,4.939545839796125e-05,-0.0008956367744657562,0.0001721614204977446,0.00018935076410004031,-1.6359827252595887e-05,0.0010503913905645446,0.0,0.0,0.0,0.0,0.0,0.0,0.0,-5.801663882754049e-05,9.253222280661277e-05,-1.75042017031184e-05,5.298360675975999e-06,-8.229528170033973e-15,-7.120768232837804e-07,-1.1217133730756501e-06,0.00042949798918579397,-4.939545839796125e-05,0.0008956367744657562,-0.0001721614204977446,-0.00018935076410004031,1.6359827252595887e-05,-0.0010503913905645446,0.3514034152030945,19.693445205688477,0.4982573688030243,-20.007356643676758,-0.6475730538368225,-2.4758944511413574,0.25485557317733765,0
68,0.33502745628356934,-0.4029781222343445,-19.669641494750977,-0.5458648204803467,20.031160354614258,0.6658836007118225,2.4758944511413574,-0.20724813640117645,0.0,0.0,0.0,0.0,0.0,0.0,0.0,-0.36651986953331805,0.042380802802749355,-0.3277170591469564,0.24417967780312042,0.07016197608862551,0.1006336475070122,-0.23860675920358257,1.2135030296852714,-0.22033743424792035,-0.00749098315848274,-2.6038553509963185,-0.1088859615921974,2.4681828378571407,0.8264741978211199,1.2134413937687574,-0.2202432315892585,-0.0075118285948192216,-2.6038483821997875,-0.10888392708698907,2.4681821257803174,0.826474908251239,0.0010238433981543656,-0.000680825548490079,0.0008570942729584428,-1.1314887650352078e-05,-0.0003958680515479858,0.0001858825224621314,-0.0011071198306960256,0.0,0.0,0.0,0.0,0.0,0.0,0.0,-6.163591651398015e-05,9.420265866186273e-05,-2.084543633648194e-05,6.968796530948396e-06,2.034505208331483e-06,-7.120768232837804e-07,7.104301191773743e-07,-0.0010238433981543656,0.000680825548490079,-0.0008570942729584428,1.1314887650352078e-05,0.0003958680515479858,-0.0001858825224621314,0.0011071198306960256,0.4029781222343445,19.669641494750977,0.5458648204803467,-20.031160354614258,-0.6658836007118225,-2.4758944511413574,0.20724813640117645,0
69,0.34003496170043945,-0.4029781222343445,-19.669641494750977,-0.5458648204803467,20.031160354614258,0.6658836007118225,2.4758944511413574,-0.20724813640117645,0.0,0.0,0.0,0.0,0.0,0.0,0.0,-0.36651986953331805,0.042380802802749355,-0.3277170591469564,0.24417967780312042,0.07016197608862551,0.1006336475070122,-0.23860675920358257,1.2135030296852714,-0.22033743424792035,-0.00749098315848274,-2.6038553509963185,-0.1088859615921974,2.4681828378571407,0.8264741978211199,1.2134413937687574,-0.2202432315892585,-0.0075118285948192216,-2.6038483821997875,-0.10888392708698907,2.4681821257803174,0.826474908251239,0.0010238433981543656,-0.000680825548490079,0.0008570942729584428,-1.1314887650352078e-05,-0.0003958680515479858,0.0001858825224621314,-0.0011071198306960256,0.0,0.0,0.0,0.0,0.0,0.0,0.0,-6.163591651398015e-05,9.420265866186273e-05,-2.084543633648194e-05,6.968796530948396e-06,2.034505208331483e-06,-7.120768232837804e-07,7.104301191773743e-07,-0.0010238433981543656,0.000680825548490079,-0.0008570942729584428,1.1314887650352078e-05,0.0003958680515479858,-0.0001858825224621314,0.0011071198306960256,0.4029781222343445,19.669641494750977,0.5458648204803467,-20.031160354614258,-0.6658836007118225,-2.4758944511413574,0.20724813640117645,0
70,0.34502267837524414,-0.4029781222343445,-19.669641494750977,-0.5696685314178467,20.031160354614258,0.6539817452430725,2.4758944511413574,-0.26858848333358765,0.0,0.0,0.0,0.0,0.0,0.0,0.0,-0.3712346378496852,0.04668144591280669,-0.3314553267075007,0.24225676480117814,0.07037708653873917,0.10100373800744998,-0.23822220671466446,1.2135030296852714,-0.22033743424792035,-0.007489312722625439,-2.6038553509963185,-0.10888463916381198,2.4681828378571407,0.8264775930156719,1.2134413937687574,-0.2202432315892585,-0.0075118285948192216,-2.6038483821997875,-0.10888392708698907,2.4681821257803174,0.826474908251239,0.0006682902638681109,-0.00045226259137492883,0.000747761001836585,-0.00016663973548603568,0.00013091290735626424,-0.00016570943138847762,0.0006671666523869919,0.0,0.0,0.0,0.0,0.0,0.0,0.0,-6.163591651398015e-05,9.420265866186273e-05,-2.2515872193782337e-05,6.968796530948396e-06,7.120768229090801e-07,-7.120768232837804e-07,-2.684764432880904e-06,-0.0006682902638681109,0.00045226259137492883,-0.000747761001836585,0.00016663973548603568,-0.00013091290735626424,0.00016570943138847762,-0.0006671666523869919,0.4029781222343445,19.669641494750977,0.5696685314178467,-20.031160354614258,-0.6539817452430725,-2.4758944511413574,0.26858848333358765,0
71,0.3500368595123291,-0.4029781222343445,-19.669641494750977,-0.5696685314178467,20.031160354614258,0.6539817452430725,2.4758944511413574,-0.26858848333358765,0.0,0.0,0.0,0.0,0.0,0.0,0.0,-0.3712346378496852,0.04668144591280669,-0.3314553267075007,0.24225676480117814,0.07037708653873917,0.10100373800744998,-0.23822220671466446,1.2135030296852714,-0.22033743424792035,-0.007489312722625439,-2.6038553509963185,-0.10888463916381198,2.4681828378571407,0.8264775930156719,1.2134413937687574,-0.2202432315892585,-0.0075118285948192216,-2.6038483821997875,-0.10888392708698907,2.4681821257803174,0.826474908251239,0.0006682902638681109,-0.00045226259137492883,0.000747761001836585,-0.00016663973548603568,0.00013091290735626424,-0.00016570943138847762,0.0006671666523869919,0.0,0.0,0.0,0.0,0.0,0.0,0.0,-6.163591651398015e-05,9.420265866186273e-05,-2.2515872193782337e-05,6.968796530948396e-06,7.120768229090801e-07,-7.120768232837804e-07,-2.684764432880904e-06,-0.0006682902638681109,0.00045226259137492883,-0.000747761001836585,0.00016663973548603568,-0.00013091290735626424,0.00016570943138847762,-0.0006671666523869919,0.4029781222343445,19.669641494750977,0.5696685314178467,-20.031160354614258,-0.6539817452430725,-2.4758944511413574,0.26858848333358765,0
72,0.3550376892089844,-0.3752071261405945,-19.693445205688477,-0.5458648204803467,20.007356643676758,0.6594749093055725,2.4951205253601074,-0.19351522624492645,0.0,0.0,0.0,0.0,0.0,0.0,0.0,-0.36806826440374046,0.04213723690339809,-0.3305984111911803,0.2421757650812745,0.07079112389154582,0.10151771823611329,-0.24086236770689215,1.2135010808434403,-0.2203357638120651,-0.007490983158480703,-2.6038536805604635,-0.10888524951537448,2.4681807016266717,0.8264722755538879,1.2134413937687574,-0.2202432315892585,-0.0075118285948192216,-2.6038483821997875,-0.10888392708698907,2.4681821257803174,0.826474908251239,0.00037756049786772967,-0.0004985223835770147,8.536461055311794e-05,-0.0001866252619311356,-4.026800782595076e-06,-0.0007135584659510314,-0.0017750145479302384,0.0,0.0,0.0,0.0,0.0,0.0,0.0,-5.9687074682956975e-05,9.253222280661277e-05,-2.0845436338518507e-05,5.298360675975999e-06,1.322428385408525e-06,1.4241536456793824e-06,2.632697351123703e-06,-0.00037756049786772967,0.0004985223835770147,-8.536461055311794e-05,0.0001866252619311356,4.026800782595076e-06,0.0007135584659510314,0.0017750145479302384,0.3752071261405945,19.693445205688477,0.5458648204803467,-20.007356643676758,-0.6594749093055725,-2.4951205253601074,0.19351522624492645,0
73,0.36002540588378906,-0.3752071261405945,-19.693445205688477,-0.5458648204803467,20.007356643676758,0.6594749093055725,2.4951205253601074,-0.19351522624492645,0.0,0.0,0.0,0.0,0.0,0.0,0.0,-0.36806826440374046,0.04213723690339809,-0.3305984111911803,0.2421757650812745,0.07079112389154582,0.10151771823611329,-0.24086236770689215,1.2135010808434403,-0.2203357638120651,-0.007490983158480703,-2.6038536805604635,-0.10888524951537448,2.4681807016266717,0.8264722755538879,1.2134413937687574,-0.2202432315892585,-0.0075118285948192216,-2.6038483821997875,-0.10888392708698907,2.4681821257803174,0.826474908251239,0.00037756049786772967,-0.0004985223835770147,8.536461055311794e-05,-0.0001866252619311356,-4.026800782595076e-06,-0.0007135584659510314,-0.0017750145479302384,0.0,0.0,0.0,0.0,0.0,0.0,0.0,-5.9687074682956975e-05,9.253222280661277e-05,-2.0845436338518507e-05,5.298360675975999e-06,1.322428385408525e-06,1.4241536456793824e-06,2.632697351123703e-06,-0.00037756049786772967,0.0004985223835770147,-8.536461055311794e-05,0.0001866252619311356,4.026800782595076e-06,0.0007135584659510314,0.0017750145479302384,0.3752071261405945,19.693445205688477,0.5458648204803467,-20.007356643676758,-0.6594749093055725,-2.4951205253601074,0.19351522624492645,0
74,0.365032434463501,-0.3514034152030945,-19.669641494750977,-0.5220611095428467,20.007356643676758,0.6594749093055725,2.4887118339538574,-0.24844686686992645,0.0,0.0,0.0,0.0,0.0,0.0,0.0,-0.36719780367862986,0.04584072898799974,-0.33106006923452996,0.2418130130996189,0.07150899446336711,0.10208089842309191,-0.24131159549707995,1.213499410407585,-0.22033743424792035,-0.007492653594335966,-2.6038536805604635,-0.10888524951537448,2.4681814137034945,0.8264756697227601,1.2134413937687574,-0.2202432315892585,-0.0075118285948192216,-2.6038483821997875,-0.10888392708698907,2.4681821257803174,0.826474908251239,2.091560811978662e-05,-0.0006521854312608495,-0.00036129114791702305,0.0006249902020661211,5.5201275870800795e-05,-0.0005702188345798088,5.040532988083872e-06,0.0,0.0,0.0,0.0,0.0,0.0,0.0,-5.801663882754049e-05,9.420265866186273e-05,-1.9175000483255544e-05,5.298360675975999e-06,1.322428385408525e-06,7.120768228396912e-07,-7.614715210602085e-07,-2.091560811978662e-05,0.0006521854312608495,0.00036129114791702305,-0.0006249902020661211,-5.5201275870800795e-05,0.0005702188345798088,-5.040532988083872e-06,0.3514034152030945,19.669641494750977,0.5220611095428467,-20.007356643676758,-0.6594749093055725,-2.4887118339538574,0.24844686686992645,0
75,0.3700237274169922,-0.3514034152030945,-19.669641494750977,-0.5220611095428467,20.007356643676758,0.6594749093055725,2.4887118339538574,-0.24844686686992645,0.0,0.0,0.0,0.0,0.0,0.0,0.0,-0.36719780367862986,0.04584072898799974,-0.33106006923452996,0.2418130130996189,0.07150899446336711,0.10208089842309191,-0.24131159549707995,1.213499410407585,-0.22033743424792035,-0.007492653594335966,-2.6038536805604635,-0.10888524951537448,2.4681814137034945,0.8264756697227601,1.2134413937687574,-0.2202432315892585,-0.0075118285948192216,-2.6038483821997875,-0.10888392708698907,2.4681821257803174,0.826474908251239,2.091560811978662e-05,-0.0006521854312608495,-0.00036129114791702305,0.0006249902020661211,5.5201275870800795e-05,-0.0005702188345798088,5.040532988083872e-06,0.0,0.0,0.0,0.0,0.0,0.0,0.0,-5.801663882754049e-05,9.420265866186273e-05,-1.9175000483255544e-05,5.298360675975999e-06,1.322428385408525e-06,7.120768228396912e-07,-7.614715210602085e-07,-2.091560811978662e-05,0.0006521854312608495,0.00036129114791702305,-0.0006249902020661211,-5.5201275870800795e-05,0.0005702188345798088,-5.040532988083872e-06,0.3514034152030945,19.669641494750977,0.5220611095428467,-20.007356643676758,-0.6594749093055725,-2.4887118339538574,0.24844686686992645,0
76,0.37502169609069824,-0.3514034152030945,-19.669641494750977,-0.5220611095428467,20.007356643676758,0.6594749093055725,2.4887118339538574,-0.24844686686992645,0.0,0.0,0.0,0.0,0.0,0.0,0.0,-0.36719780367862986,0.04584072898799974,-0.33106006923452996,0.2418130130996189,0.07150899446336711,0.10208089842309191,-0.24131159549707995,1.213499410407585,-0.22033743424792035,-0.007492653594335966,-2.6038536805604635,-0.10888524951537448,2.4681814137034945,0.8264756697227601,1.2134413937687574,-0.2202432315892585,-0.0075118285948192216,-2.6038483821997875,-0.10888392708698907,2.4681821257803174,0.826474908251239,2.091560811978662e-05,-0.0006521854312608495,-0.00036129114791702305,0.0006249902020661211,5.5201275870800795e-05,-0.0005702188345798088,5.040532988083872e-06,0.0,0.0,0.0,0.0,0.0,0.0,0.0,-5.801663882754049e-05,9.420265866186273e-05,-1.9175000483255544e-05,5.298360675975999e-06,1.322428385408525e-06,7.120768228396912e-07,-7.614715210602085e-07,-2.091560811978662e-05,0.0006521854312608495,0.00036129114791702305,-0.0006249902020661211,-5.5201275870800795e-05,0.0005702188345798088,-5.040532988083872e-06,0.3514034152030945,19.669641494750977,0.5220611095428467,-20.007356643676758,-0.6594749093055725,-2.4887118339538574,0.24844686686992645,0
77,0.3800191879272461,-0.3514034152030945,-19.669641494750977,-0.5220611095428467,20.007356643676758,0.6594749093055725,2.4887118339538574,-0.24844686686992645,0.0,0.0,0.0,0.0,0.0,0.0,0.0,-0.36719780367862986,0.04584072898799974,-0.33106006923452996,0.2418130130996189,0.07150899446336711,0.10208089842309191,-0.24131159549707995,1.213499410407585,-0.22033743424792035,-0.007492653594335966,-2.6038536805604635,-0.10888524951537448,2.4681814137034945,0.8264756697227601,1.2134413937687574,-0.2202432315892585,-0.0075118285948192216,-2.6038483821997875,-0.10888392708698907,2.4681821257803174,0.826474908251239,2.091560811978662e-05,-0.0006521854312608495,-0.00036129114791702305,0.0006249902020661211,5.5201275870800795e-05,-0.0005702188345798088,5.040532988083872e-06,0.0,0.0,0.0,0.0,0.0,0.0,0.0,-5.801663882754049e-05,9.420265866186273e-05,-1.9175000483255544e-05,5.298360675975999e-06,1.322428385408525e-06,7.120768228396912e-07,-7.614715210602085e-07,-2.091560811978662e-05,0.0006521854312608495,0.00036129114791702305,-0.0006249902020661211,-5.5201275870800795e-05,0.0005702188345798088,-5.040532988083872e-06,0.3514034152030945,19.669641494750977,0.5220611095428467,-20.007356643676758,-0.6594749093055725,-2.4887118339538574,0.24844686686992645,0
78,0.38501834869384766,-0.4029781222343445,-19.669641494750977,-0.5458648204803467,20.007356643676758,0.6539817452430725,2.4823031425476074,-0.21457235515117645,0.0,0.0,0.0,0.0,0.0,0.0,0.0,-0.3676455324057842,0.04317220597281285,-0.3305760056527729,0.24495123193923218,0.0713559343305319,0.1026773651807052,-0.24224578801478514,1.2135030296852714,-0.22033743424792035,-0.007490983194561849,-2.6038536720571943,-0.10888463965059991,2.4681821257803174,0.8264708460193603,1.2134413937687574,-0.2202432315892585,-0.0075118285948192216,-2.6038483821997875,-0.10888392708698907,2.4681821257803174,0.826474908251239,0.0009415308275922488,-0.0005685386492596164,0.00028657728941073067,0.000490838174052112,-9.548304897989579e-05,-0.00014433920270130334,-0.0011649016699164117,0.0,0.0,0.0,0.0,0.0,0.0,0.0,-6.163591651398015e-05,9.420265866186273e-05,-2.0845400257372623e-05,5.289857406776122e-06,7.125636108384903e-07,0.0,4.06223187876531e-06,-0.0009415308275922488,0.0005685386492596164,-0.00028657728941073067,-0.000490838174052112,9.548304897989579e-05,0.00014433920270130334,0.0011649016699164117,0.4029781222343445,19.669641494750977,0.5458648204803467,-20.007356643676758,-0.6539817452430725,-2.4823031425476074,0.21457235515117645,0
79,0.39003634452819824,-0.4029781222343445,-19.669641494750977,-0.5458648204803467,20.007356643676758,0.6539817452430725,2.4823031425476074,-0.21457235515117645,0.0,0.0,0.0,0.0,0.0,0.0,0.0,-0.3676455324057842,0.04317220597281285,-0.3305760056527729,0.24495123193923218,0.0713559343305319,0.1026773651807052,-0.24224578801478514,1.2135030296852714,-0.22033743424792035,-0.007490983194561849,-2.6038536720571943,-0.10888463965059991,2.4681821257803174,0.8264708460193603,1.2134413937687574,-0.2202432315892585,-0.0075118285948192216,-2.6038483821997875,-0.10888392708698907,2.4681821257803174,0.826474908251239,0.0009415308275922488,-0.0005685386492596164,0.00028657728941073067,0.000490838174052112,-9.548304897989579e-05,-0.00014433920270130334,-0.0011649016699164117,0.0,0.0,0.0,0.0,0.0,0.0,0.0,-6.163591651398015e-05,9.420265866186273e-05,-2.0845400257372623e-05,5.289857406776122e-06,7.125636108384903e-07,0.0,4.06223187876531e-06,-0.0009415308275922488,0.0005685386492596164,-0.00028657728941073067,-0.000490838174052112,9.548304897989579e-05,0.00014433920270130334,0.0011649016699164117,0.4029781222343445,19.669641494750977,0.5458648204803467,-20.007356643676758,-0.6539817452430725,-2.4823031425476074,0.21457235515117645,0
