rezayati/contactInterpretation/dataset/franka_main/labeled_data/link2/f4_5.csv
index,time,tau_J0,tau_J1,tau_J2,tau_J3,tau_J4,tau_J5,tau_J6,tau_J_d0,tau_J_d1,tau_J_d2,tau_J_d3,tau_J_d4,tau_J_d5,tau_J_d6,tau_ext0,tau_ext1,tau_ext2,tau_ext3,tau_ext4,tau_ext5,tau_ext6,q0,q1,q2,q3,q4,q5,q6,q_d0,q_d1,q_d2,q_d3,q_d4,q_d5,q_d6,dq0,dq1,dq2,dq3,dq4,dq5,dq6,dq_d0,dq_d1,dq_d2,dq_d3,dq_d4,dq_d5,dq_d6,e0,e1,e2,e3,e4,e5,e6,de0,de1,de2,de3,de4,de5,de6,etau_J0,etau_J1,etau_J2,etau_J3,etau_J4,etau_J5,etau_J6,label
1,0.0,-0.8076412081718445,-46.40121078491211,-5.635891437530518,19.610628128051758,0.7491965889930725,2.4108920097351074,-0.16604940593242645,0.0,0.0,0.0,0.0,0.0,0.0,0.0,-0.8093566792447205,-0.07005609668001228,-0.4395624477082654,0.38419164813980716,0.1584710737681622,0.14779155229668253,-0.1477369195623078,0.8780945465062793,0.7554597494309409,-0.28255057586701987,-1.6691010289531294,0.14140731968482334,2.4034465415212845,1.027344556959139,0.878092876070424,0.7554597494309409,-0.2825552651693207,-1.6690993614607135,0.1414185955172306,2.4034451173676383,1.0273381002308042,3.1591786339093316e-05,0.0003294744626144527,0.0009201272114897265,-0.0006261009060988194,-6.370134518640945e-05,0.0001717217489651622,0.0010946420754027802,0.0,0.0,0.0,0.0,0.0,0.0,0.0,-1.6704358553054632e-06,0.0,-4.689302300853182e-06,1.6674924159243432e-06,1.1275832407259267e-05,-1.4241536461234716e-06,-6.456728334880424e-06,-3.1591786339093316e-05,-0.0003294744626144527,-0.0009201272114897265,0.0006261009060988194,6.370134518640945e-05,-0.0001717217489651622,-0.0010946420754027802,0.8076412081718445,46.40121078491211,5.635891437530518,-19.610628128051758,-0.7491965889930725,-2.4108920097351074,0.16604940593242645,0
2,0.002381563186645508,-0.8076412081718445,-46.40121078491211,-5.635891437530518,19.610628128051758,0.7491965889930725,2.4108920097351074,-0.16604940593242645,0.0,0.0,0.0,0.0,0.0,0.0,0.0,-0.8093566792447205,-0.07005609668001228,-0.4395624477082654,0.38419164813980716,0.1584710737681622,0.14779155229668253,-0.1477369195623078,0.8780945465062793,0.7554597494309409,-0.28255057586701987,-1.6691010289531294,0.14140731968482334,2.4034465415212845,1.027344556959139,0.878092876070424,0.7554597494309409,-0.2825552651693207,-1.6690993614607135,0.1414185955172306,2.4034451173676383,1.0273381002308042,3.1591786339093316e-05,0.0003294744626144527,0.0009201272114897265,-0.0006261009060988194,-6.370134518640945e-05,0.0001717217489651622,0.0010946420754027802,0.0,0.0,0.0,0.0,0.0,0.0,0.0,-1.6704358553054632e-06,0.0,-4.689302300853182e-06,1.6674924159243432e-06,1.1275832407259267e-05,-1.4241536461234716e-06,-6.456728334880424e-06,-3.1591786339093316e-05,-0.0003294744626144527,-0.0009201272114897265,0.0006261009060988194,6.370134518640945e-05,-0.0001717217489651622,-0.0010946420754027802,0.8076412081718445,46.40121078491211,5.635891437530518,-19.610628128051758,-0.7491965889930725,-2.4108920097351074,0.16604940593242645,0
3,0.0076694488525390625,-0.8354122042655945,-46.42501449584961,-5.612087726593018,19.586824417114258,0.7491965889930725,2.4108920097351074,-0.12485067546367645,0.0,0.0,0.0,0.0,0.0,0.0,0.0,-0.8138165370600012,-0.08325503038765439,-0.44498778170030906,0.39108639587823474,0.1588574384662809,0.1490931505133477,-0.14776894353643785,0.8780964953481104,0.7554614198667962,-0.2825521403269852,-1.6690993614243563,0.14140735905332327,2.4034465415212845,1.0273399793224203,0.878092876070424,0.7554597494309409,-0.2825552651693207,-1.6690993614607135,0.1414185955172306,2.4034451173676383,1.0273381002308042,0.0008600248377980765,0.0005289373573539737,-2.2856540775535438e-05,0.00024339254935928405,-0.0001879491302714818,0.00013647219770136426,-0.0009304288934598461,0.0,0.0,0.0,0.0,0.0,0.0,0.0,-3.619277686439659e-06,-1.6704358553054632e-06,-3.1248423355001442e-06,-3.6357139521214776e-11,1.1236463907327021e-05,-1.4241536461234716e-06,-1.879091616086015e-06,-0.0008600248377980765,-0.0005289373573539737,2.2856540775535438e-05,-0.00024339254935928405,0.0001879491302714818,-0.00013647219770136426,0.0009304288934598461,0.8354122042655945,46.42501449584961,5.612087726593018,-19.586824417114258,-0.7491965889930725,-2.4108920097351074,0.12485067546367645,0
4,0.012434244155883789,-0.8354122042655945,-46.42501449584961,-5.612087726593018,19.586824417114258,0.7491965889930725,2.4108920097351074,-0.12485067546367645,0.0,0.0,0.0,0.0,0.0,0.0,0.0,-0.8138165370600012,-0.08325503038765439,-0.44498778170030906,0.39108639587823474,0.1588574384662809,0.1490931505133477,-0.14776894353643785,0.8780964953481104,0.7554614198667962,-0.2825521403269852,-1.6690993614243563,0.14140735905332327,2.4034465415212845,1.0273399793224203,0.878092876070424,0.7554597494309409,-0.2825552651693207,-1.6690993614607135,0.1414185955172306,2.4034451173676383,1.0273381002308042,0.0008600248377980765,0.0005289373573539737,-2.2856540775535438e-05,0.00024339254935928405,-0.0001879491302714818,0.00013647219770136426,-0.0009304288934598461,0.0,0.0,0.0,0.0,0.0,0.0,0.0,-3.619277686439659e-06,-1.6704358553054632e-06,-3.1248423355001442e-06,-3.6357139521214776e-11,1.1236463907327021e-05,-1.4241536461234716e-06,-1.879091616086015e-06,-0.0008600248377980765,-0.0005289373573539737,2.2856540775535438e-05,-0.00024339254935928405,0.0001879491302714818,-0.00013647219770136426,0.0009304288934598461,0.8354122042655945,46.42501449584961,5.612087726593018,-19.586824417114258,-0.7491965889930725,-2.4108920097351074,0.12485067546367645,0
5,0.017444372177124023,-0.8354122042655945,-46.42501449584961,-5.635891437530518,19.559053421020508,0.7491965889930725,2.4108920097351074,-0.14590780436992645,0.0,0.0,0.0,0.0,0.0,0.0,0.0,-0.81276370068526,-0.07248834328880031,-0.4437824392003813,0.38498008131951983,0.15877028606042282,0.1480113092543141,-0.14800043794474563,0.8780964953481104,0.7554614198667962,-0.28255078047788057,-1.6690974129459293,0.14140731968504555,2.4034465415212845,1.0273423190034099,0.878092876070424,0.7554597494309409,-0.2825552651693207,-1.6690993614607135,0.1414185955172306,2.4034451173676383,1.0273381002308042,0.0008032584292430808,0.0008183246142874004,0.0002579764045494902,0.00040550432312231753,-0.00020136999344585145,0.0002490663289304851,-0.0003857149591355951,0.0,0.0,0.0,0.0,0.0,0.0,0.0,-3.619277686439659e-06,-1.6704358553054632e-06,-4.484691440154176e-06,-1.948514784189115e-06,1.1275832185048129e-05,-1.4241536461234716e-06,-4.218772605701915e-06,-0.0008032584292430808,-0.0008183246142874004,-0.0002579764045494902,-0.00040550432312231753,0.00020136999344585145,-0.0002490663289304851,0.0003857149591355951,0.8354122042655945,46.42501449584961,5.635891437530518,-19.559053421020508,-0.7491965889930725,-2.4108920097351074,0.14590780436992645,0
6,0.02245044708251953,-0.8354122042655945,-46.42501449584961,-5.635891437530518,19.559053421020508,0.7491965889930725,2.4108920097351074,-0.14590780436992645,0.0,0.0,0.0,0.0,0.0,0.0,0.0,-0.81276370068526,-0.07248834328880031,-0.4437824392003813,0.38498008131951983,0.15877028606042282,0.1480113092543141,-0.14800043794474563,0.8780964953481104,0.7554614198667962,-0.28255078047788057,-1.6690974129459293,0.14140731968504555,2.4034465415212845,1.0273423190034099,0.878092876070424,0.7554597494309409,-0.2825552651693207,-1.6690993614607135,0.1414185955172306,2.4034451173676383,1.0273381002308042,0.0008032584292430808,0.0008183246142874004,0.0002579764045494902,0.00040550432312231753,-0.00020136999344585145,0.0002490663289304851,-0.0003857149591355951,0.0,0.0,0.0,0.0,0.0,0.0,0.0,-3.619277686439659e-06,-1.6704358553054632e-06,-4.484691440154176e-06,-1.948514784189115e-06,1.1275832185048129e-05,-1.4241536461234716e-06,-4.218772605701915e-06,-0.0008032584292430808,-0.0008183246142874004,-0.0002579764045494902,-0.00040550432312231753,0.00020136999344585145,-0.0002490663289304851,0.0003857149591355951,0.8354122042655945,46.42501449584961,5.635891437530518,-19.559053421020508,-0.7491965889930725,-2.4108920097351074,0.14590780436992645,0
7,0.027434825897216797,-0.8076412081718445,-46.42501449584961,-5.588284015655518,19.586824417114258,0.7427878975868225,2.4173007011413574,-0.16604940593242645,0.0,0.0,0.0,0.0,0.0,0.0,0.0,-0.8072435455598899,-0.07091586178925247,-0.4415970495527973,0.3836892031019315,0.1584236583956094,0.14806522617966672,-0.14821811749400635,0.8780945465062793,0.7554614198667962,-0.28255698266500356,-1.6690993617514236,0.1414069655007786,2.4034458294444616,1.027344556959139,0.878092876070424,0.7554597494309409,-0.2825552651693207,-1.6690993614607135,0.1414185955172306,2.4034451173676383,1.0273381002308042,-3.0116916256573076e-05,0.0011255221376230732,-0.0006637133011696413,-2.431444520699319e-05,-0.00014216632352070845,-0.00016560201479042563,0.0005800554305969095,0.0,0.0,0.0,0.0,0.0,0.0,0.0,-1.6704358553054632e-06,-1.6704358553054632e-06,1.7174956828402976e-06,2.9071012264125784e-10,1.1630016451991132e-05,-7.120768232837804e-07,-6.456728334880424e-06,3.0116916256573076e-05,-0.0011255221376230732,0.0006637133011696413,2.431444520699319e-05,0.00014216632352070845,0.00016560201479042563,-0.0005800554305969095,0.8076412081718445,46.42501449584961,5.588284015655518,-19.586824417114258,-0.7427878975868225,-2.4173007011413574,0.16604940593242645,0
8,0.032433271408081055,-0.8076412081718445,-46.42501449584961,-5.588284015655518,19.586824417114258,0.7427878975868225,2.4173007011413574,-0.16604940593242645,0.0,0.0,0.0,0.0,0.0,0.0,0.0,-0.8072435455598899,-0.07091586178925247,-0.4415970495527973,0.3836892031019315,0.1584236583956094,0.14806522617966672,-0.14821811749400635,0.8780945465062793,0.7554614198667962,-0.28255698266500356,-1.6690993617514236,0.1414069655007786,2.4034458294444616,1.027344556959139,0.878092876070424,0.7554597494309409,-0.2825552651693207,-1.6690993614607135,0.1414185955172306,2.4034451173676383,1.0273381002308042,-3.0116916256573076e-05,0.0011255221376230732,-0.0006637133011696413,-2.431444520699319e-05,-0.00014216632352070845,-0.00016560201479042563,0.0005800554305969095,0.0,0.0,0.0,0.0,0.0,0.0,0.0,-1.6704358553054632e-06,-1.6704358553054632e-06,1.7174956828402976e-06,2.9071012264125784e-10,1.1630016451991132e-05,-7.120768232837804e-07,-6.456728334880424e-06,3.0116916256573076e-05,-0.0011255221376230732,0.0006637133011696413,2.431444520699319e-05,0.00014216632352070845,0.00016560201479042563,-0.0005800554305969095,0.8076412081718445,46.42501449584961,5.588284015655518,-19.586824417114258,-0.7427878975868225,-2.4173007011413574,0.16604940593242645,0
9,0.03742837905883789,-0.7838374972343445,-46.40121078491211,-5.612087726593018,19.586824417114258,0.7372947335243225,2.4237093925476074,-0.15231649577617645,0.0,0.0,0.0,0.0,0.0,0.0,0.0,-0.8149729909019221,-0.07853256716585244,-0.44842269083984665,0.3882467275974354,0.15795963631903312,0.1484377959522681,-0.14777114079144335,0.878092876070424,0.7554597494309409,-0.28255221850895695,-1.669099361787762,0.14140864205301804,2.4034451173676383,1.0273430310802327,0.878092876070424,0.7554597494309409,-0.2825552651693207,-1.6690993614607135,0.1414185955172306,2.4034451173676383,1.0273381002308042,-0.0006809747037967603,1.4030587084288616e-05,-0.0006507429628740502,0.0005629493067290597,0.00013050674044221515,-0.000498933675267687,9.495383137684837e-05,0.0,0.0,0.0,0.0,0.0,0.0,0.0,0.0,0.0,-3.046660363770215e-06,3.270486104156589e-10,9.953464212564267e-06,0.0,-4.930849428541606e-06,0.0006809747037967603,-1.4030587084288616e-05,0.0006507429628740502,-0.0005629493067290597,-0.00013050674044221515,0.000498933675267687,-9.495383137684837e-05,0.7838374972343445,46.40121078491211,5.612087726593018,-19.586824417114258,-0.7372947335243225,-2.4237093925476074,0.15231649577617645,0
10,0.042433977127075195,-0.7838374972343445,-46.40121078491211,-5.612087726593018,19.586824417114258,0.7372947335243225,2.4237093925476074,-0.15231649577617645,0.0,0.0,0.0,0.0,0.0,0.0,0.0,-0.8149729909019221,-0.07853256716585244,-0.44842269083984665,0.3882467275974354,0.15795963631903312,0.1484377959522681,-0.14777114079144335,0.878092876070424,0.7554597494309409,-0.28255221850895695,-1.669099361787762,0.14140864205301804,2.4034451173676383,1.0273430310802327,0.878092876070424,0.7554597494309409,-0.2825552651693207,-1.6690993614607135,0.1414185955172306,2.4034451173676383,1.0273381002308042,-0.0006809747037967603,1.4030587084288616e-05,-0.0006507429628740502,0.0005629493067290597,0.00013050674044221515,-0.000498933675267687,9.495383137684837e-05,0.0,0.0,0.0,0.0,0.0,0.0,0.0,0.0,0.0,-3.046660363770215e-06,3.270486104156589e-10,9.953464212564267e-06,0.0,-4.930849428541606e-06,0.0006809747037967603,-1.4030587084288616e-05,0.0006507429628740502,-0.0005629493067290597,-0.00013050674044221515,0.000498933675267687,-9.495383137684837e-05,0.7838374972343445,46.40121078491211,5.612087726593018,-19.586824417114258,-0.7372947335243225,-2.4237093925476074,0.15231649577617645,0
11,0.04744100570678711,-0.8592159152030945,-46.37740707397461,-5.635891437530518,19.586824417114258,0.7427878975868225,2.4173007011413574,-0.12485067546367645,0.0,0.0,0.0,0.0,0.0,0.0,0.0,-0.8133615367610297,-0.0756987504416048,-0.4501438119222486,0.3896985645638457,0.15744082507146143,0.14808506584180284,-0.147883044332663,0.8780981657839657,0.7554580789950855,-0.28255120429723485,-1.6690993614607135,0.1414080317616459,2.4034458294982968,1.0273399793224203,0.878092876070424,0.7554597494309409,-0.2825552651693207,-1.6690993614607135,0.1414185955172306,2.4034451173676383,1.0273381002308042,0.0007426243915570893,-0.0006459108987507925,0.00038470971247386913,0.00039071973616758114,-4.1814327888416644e-05,0.000178940800142794,-0.001151721335261444,0.0,0.0,0.0,0.0,0.0,0.0,0.0,-5.2897135417451224e-06,1.6704358553054632e-06,-4.060872085875911e-06,0.0,1.0563755584697132e-05,-7.121306584423337e-07,-1.879091616086015e-06,-0.0007426243915570893,0.0006459108987507925,-0.00038470971247386913,-0.00039071973616758114,4.1814327888416644e-05,-0.000178940800142794,0.001151721335261444,0.8592159152030945,46.37740707397461,5.635891437530518,-19.586824417114258,-0.7427878975868225,-2.4173007011413574,0.12485067546367645,0
12,0.05244135856628418,-0.8592159152030945,-46.37740707397461,-5.635891437530518,19.586824417114258,0.7427878975868225,2.4173007011413574,-0.12485067546367645,0.0,0.0,0.0,0.0,0.0,0.0,0.0,-0.8133615367610297,-0.0756987504416048,-0.4501438119222486,0.3896985645638457,0.15744082507146143,0.14808506584180284,-0.147883044332663,0.8780981657839657,0.7554580789950855,-0.28255120429723485,-1.6690993614607135,0.1414080317616459,2.4034458294982968,1.0273399793224203,0.878092876070424,0.7554597494309409,-0.2825552651693207,-1.6690993614607135,0.1414185955172306,2.4034451173676383,1.0273381002308042,0.0007426243915570893,-0.0006459108987507925,0.00038470971247386913,0.00039071973616758114,-4.1814327888416644e-05,0.000178940800142794,-0.001151721335261444,0.0,0.0,0.0,0.0,0.0,0.0,0.0,-5.2897135417451224e-06,1.6704358553054632e-06,-4.060872085875911e-06,0.0,1.0563755584697132e-05,-7.121306584423337e-07,-1.879091616086015e-06,-0.0007426243915570893,0.0006459108987507925,-0.00038470971247386913,-0.00039071973616758114,4.1814327888416644e-05,-0.000178940800142794,0.001151721335261444,0.8592159152030945,46.37740707397461,5.635891437530518,-19.586824417114258,-0.7427878975868225,-2.4173007011413574,0.12485067546367645,0
13,0.05743527412414551,-0.8076412081718445,-46.42501449584961,-5.635891437530518,19.586824417114258,0.7491965889930725,2.4173007011413574,-0.18710653483867645,0.0,0.0,0.0,0.0,0.0,0.0,0.0,-0.8052701977414513,-0.08203285926149519,-0.4452419384521489,0.39502497909556417,0.15734915225881047,0.1493972097762549,-0.1477799592451181,0.8780945465062793,0.7554614198667962,-0.28255261824194106,-1.6690993529574427,0.1414073196848233,2.4034468890825913,1.0273468966401285,0.878092876070424,0.7554597494309409,-0.2825552651693207,-1.6690993614607135,0.1414185955172306,2.4034451173676383,1.0273381002308042,-0.00019214837685654034,-2.4865110183080446e-05,-5.004025175582756e-06,-6.488045892472356e-05,-0.0002816932046329864,-0.00022991587125649452,0.0019596606711805684,0.0,0.0,0.0,0.0,0.0,0.0,0.0,-1.6704358553054632e-06,-1.6704358553054632e-06,-2.646927379668096e-06,-8.503270754189884e-09,1.1275832407287023e-05,-1.771714952969461e-06,-8.796409324274279e-06,0.00019214837685654034,2.4865110183080446e-05,5.004025175582756e-06,6.488045892472356e-05,0.0002816932046329864,0.00022991587125649452,-0.0019596606711805684,0.8076412081718445,46.42501449584961,5.635891437530518,-19.586824417114258,-0.7491965889930725,-2.4173007011413574,0.18710653483867645,0
14,0.062436580657958984,-0.8076412081718445,-46.42501449584961,-5.635891437530518,19.586824417114258,0.7491965889930725,2.4173007011413574,-0.18710653483867645,0.0,0.0,0.0,0.0,0.0,0.0,0.0,-0.8052701977414513,-0.08203285926149519,-0.4452419384521489,0.39502497909556417,0.15734915225881047,0.1493972097762549,-0.1477799592451181,0.8780945465062793,0.7554614198667962,-0.28255261824194106,-1.6690993529574427,0.1414073196848233,2.4034468890825913,1.0273468966401285,0.878092876070424,0.7554597494309409,-0.2825552651693207,-1.6690993614607135,0.1414185955172306,2.4034451173676383,1.0273381002308042,-0.00019214837685654034,-2.4865110183080446e-05,-5.004025175582756e-06,-6.488045892472356e-05,-0.0002816932046329864,-0.00022991587125649452,0.0019596606711805684,0.0,0.0,0.0,0.0,0.0,0.0,0.0,-1.6704358553054632e-06,-1.6704358553054632e-06,-2.646927379668096e-06,-8.503270754189884e-09,1.1275832407287023e-05,-1.771714952969461e-06,-8.796409324274279e-06,0.00019214837685654034,2.4865110183080446e-05,5.004025175582756e-06,6.488045892472356e-05,0.0002816932046329864,0.00022991587125649452,-0.0019596606711805684,0.8076412081718445,46.42501449584961,5.635891437530518,-19.586824417114258,-0.7491965889930725,-2.4173007011413574,0.18710653483867645,0
15,0.06743288040161133,-0.8354122042655945,-46.44881820678711,-5.612087726593018,19.559053421020508,0.7427878975868225,2.4173007011413574,-0.14590780436992645,0.0,0.0,0.0,0.0,0.0,0.0,0.0,-0.8137103184084334,-0.07999609768119081,-0.4507984608217551,0.39214972150955507,0.1577772668693265,0.14890088949647046,-0.14666349833611325,0.8780964953481104,0.755463099132969,-0.2825522187212115,-1.6690974100024423,0.14140803176164624,2.403445829450443,1.0273423190034099,0.878092876070424,0.7554597494309409,-0.2825552651693207,-1.6690993614607135,0.1414185955172306,2.4034451173676383,1.0273381002308042,0.00032161349992729785,0.0008103803436203759,-0.00020053240826237148,0.001058714571064069,-2.7348412666368572e-05,-0.0001938467918323128,0.0006146435513663835,0.0,0.0,0.0,0.0,0.0,0.0,0.0,-3.619277686439659e-06,-3.349702028199175e-06,-3.0464481092229434e-06,-1.9514582711988027e-06,1.0563755584364065e-05,-7.120828047213479e-07,-4.218772605701915e-06,-0.00032161349992729785,-0.0008103803436203759,0.00020053240826237148,-0.001058714571064069,2.7348412666368572e-05,0.0001938467918323128,-0.0006146435513663835,0.8354122042655945,46.44881820678711,5.612087726593018,-19.559053421020508,-0.7427878975868225,-2.4173007011413574,0.14590780436992645,0
16,0.07242965698242188,-0.8354122042655945,-46.44881820678711,-5.612087726593018,19.559053421020508,0.7427878975868225,2.4173007011413574,-0.14590780436992645,0.0,0.0,0.0,0.0,0.0,0.0,0.0,-0.8137103184084334,-0.07999609768119081,-0.4507984608217551,0.39214972150955507,0.1577772668693265,0.14890088949647046,-0.14666349833611325,0.8780964953481104,0.755463099132969,-0.2825522187212115,-1.6690974100024423,0.14140803176164624,2.403445829450443,1.0273423190034099,0.878092876070424,0.7554597494309409,-0.2825552651693207,-1.6690993614607135,0.1414185955172306,2.4034451173676383,1.0273381002308042,0.00032161349992729785,0.0008103803436203759,-0.00020053240826237148,0.001058714571064069,-2.7348412666368572e-05,-0.0001938467918323128,0.0006146435513663835,0.0,0.0,0.0,0.0,0.0,0.0,0.0,-3.619277686439659e-06,-3.349702028199175e-06,-3.0464481092229434e-06,-1.9514582711988027e-06,1.0563755584364065e-05,-7.120828047213479e-07,-4.218772605701915e-06,-0.00032161349992729785,-0.0008103803436203759,0.00020053240826237148,-0.001058714571064069,2.7348412666368572e-05,0.0001938467918323128,-0.0006146435513663835,0.8354122042655945,46.44881820678711,5.612087726593018,-19.559053421020508,-0.7427878975868225,-2.4173007011413574,0.14590780436992645,0
17,0.07743430137634277,-0.8592159152030945,-46.37740707397461,-5.588284015655518,19.586824417114258,0.7308860421180725,2.4108920097351074,-0.16604940593242645,0.0,0.0,0.0,0.0,0.0,0.0,0.0,-0.815105280103229,-0.06981996785329476,-0.44846415494865416,0.38592125085918433,0.15786533418689289,0.1472170929333186,-0.145293878583179,0.8780981657839657,0.7554580789952351,-0.28255626817207063,-1.6690993588442733,0.14140935419003167,2.4034465415212845,1.027344556959139,0.878092876070424,0.7554597494309409,-0.2825552651693207,-1.6690993614607135,0.1414185955172306,2.4034451173676383,1.0273381002308042,0.0009024557398967734,-0.0006203553831269676,-0.0007040540761342744,0.0001344058325295085,0.00035212472524870684,7.821810008967063e-05,0.0017781759586800653,0.0,0.0,0.0,0.0,0.0,0.0,0.0,-5.2897135417451224e-06,1.6704357057584218e-06,1.0030027499108307e-06,-2.616440175629009e-09,9.241327198927785e-06,-1.4241536461234716e-06,-6.456728334880424e-06,-0.0009024557398967734,0.0006203553831269676,0.0007040540761342744,-0.0001344058325295085,-0.00035212472524870684,-7.821810008967063e-05,-0.0017781759586800653,0.8592159152030945,46.37740707397461,5.588284015655518,-19.586824417114258,-0.7308860421180725,-2.4108920097351074,0.16604940593242645,0
18,0.08246660232543945,-0.8592159152030945,-46.37740707397461,-5.588284015655518,19.586824417114258,0.7308860421180725,2.4108920097351074,-0.16604940593242645,0.0,0.0,0.0,0.0,0.0,0.0,0.0,-0.815105280103229,-0.06981996785329476,-0.44846415494865416,0.38592125085918433,0.15786533418689289,0.1472170929333186,-0.145293878583179,0.8780981657839657,0.7554580789952351,-0.28255626817207063,-1.6690993588442733,0.14140935419003167,2.4034465415212845,1.027344556959139,0.878092876070424,0.7554597494309409,-0.2825552651693207,-1.6690993614607135,0.1414185955172306,2.4034451173676383,1.0273381002308042,0.0009024557398967734,-0.0006203553831269676,-0.0007040540761342744,0.0001344058325295085,0.00035212472524870684,7.821810008967063e-05,0.0017781759586800653,0.0,0.0,0.0,0.0,0.0,0.0,0.0,-5.2897135417451224e-06,1.6704357057584218e-06,1.0030027499108307e-06,-2.616440175629009e-09,9.241327198927785e-06,-1.4241536461234716e-06,-6.456728334880424e-06,-0.0009024557398967734,0.0006203553831269676,0.0007040540761342744,-0.0001344058325295085,-0.00035212472524870684,-7.821810008967063e-05,-0.0017781759586800653,0.8592159152030945,46.37740707397461,5.588284015655518,-19.586824417114258,-0.7308860421180725,-2.4108920097351074,0.16604940593242645,0
19,0.08743762969970703,-0.7838374972343445,-46.42501449584961,-5.612087726593018,19.634431838989258,0.7427878975868225,2.4173007011413574,-0.16604940593242645,0.0,0.0,0.0,0.0,0.0,0.0,0.0,-0.7994051876839802,-0.07689802112251176,-0.4346045469233811,0.39111746081423376,0.15691442336822875,0.14753468246042464,-0.14368526800166523,0.878092876070424,0.7554614198667962,-0.2825545264548303,-1.6691027026594674,0.14140803176164624,2.4034458294444616,1.027344556959139,0.878092876070424,0.7554597494309409,-0.2825552651693207,-1.6690993614607135,0.1414185955172306,2.4034451173676383,1.0273381002308042,-8.356290359466282e-05,0.000655549457531977,0.00010344217097861991,-0.0008333946387400851,9.687088862940171e-05,3.045712511713163e-05,-0.009162353425633624,0.0,0.0,0.0,0.0,0.0,0.0,0.0,0.0,-1.6704358553054632e-06,-7.387144904114074e-07,3.3411987538922716e-06,1.0563755584364065e-05,-7.120768232837804e-07,-6.456728334880424e-06,8.356290359466282e-05,-0.000655549457531977,-0.00010344217097861991,0.0008333946387400851,-9.687088862940171e-05,-3.045712511713163e-05,0.009162353425633624,0.7838374972343445,46.42501449584961,5.612087726593018,-19.634431838989258,-0.7427878975868225,-2.4173007011413574,0.16604940593242645,0
20,0.09244132041931152,-0.7838374972343445,-46.42501449584961,-5.612087726593018,19.634431838989258,0.7427878975868225,2.4173007011413574,-0.16604940593242645,0.0,0.0,0.0,0.0,0.0,0.0,0.0,-0.7994051876839802,-0.07689802112251176,-0.4346045469233811,0.39111746081423376,0.15691442336822875,0.14753468246042464,-0.14368526800166523,0.878092876070424,0.7554614198667962,-0.2825545264548303,-1.6691027026594674,0.14140803176164624,2.4034458294444616,1.027344556959139,0.878092876070424,0.7554597494309409,-0.2825552651693207,-1.6690993614607135,0.1414185955172306,2.4034451173676383,1.0273381002308042,-8.356290359466282e-05,0.000655549457531977,0.00010344217097861991,-0.0008333946387400851,9.687088862940171e-05,3.045712511713163e-05,-0.009162353425633624,0.0,0.0,0.0,0.0,0.0,0.0,0.0,0.0,-1.6704358553054632e-06,-7.387144904114074e-07,3.3411987538922716e-06,1.0563755584364065e-05,-7.120768232837804e-07,-6.456728334880424e-06,8.356290359466282e-05,-0.000655549457531977,-0.00010344217097861991,0.0008333946387400851,-9.687088862940171e-05,-3.045712511713163e-05,0.009162353425633624,0.7838374972343445,46.42501449584961,5.612087726593018,-19.634431838989258,-0.7427878975868225,-2.4173007011413574,0.16604940593242645,0
21,0.09739160537719727,-0.8076412081718445,-46.42501449584961,-5.612087726593018,19.586824417114258,0.7427878975868225,2.4173007011413574,-0.12485067546367645,0.0,0.0,0.0,0.0,0.0,0.0,0.0,-0.8256716362785829,-0.08113843043202891,-0.45266688547481576,0.39177063801135,0.15782730105890483,0.14888106796271036,-0.14460230778824057,0.8780945465062793,0.7554614198667962,-0.282552924893602,-1.6690993588079843,0.14140803176164624,2.4034458294444616,1.0273389196842908,0.878092876070424,0.7554597494309409,-0.2825552651693207,-1.6690993614607135,0.1414185955172306,2.4034451173676383,1.0273381002308042,-5.543178448724431e-05,0.0007733190182932697,-0.00023080201065146601,0.0003901732324406449,8.833385415578584e-07,-1.5919607935368822e-05,-0.000842491540314108,0.0,0.0,0.0,0.0,0.0,0.0,0.0,-1.6704358553054632e-06,-1.6704358553054632e-06,-2.3402757187152012e-06,-2.6527291474565118e-09,1.0563755584364065e-05,-7.120768232837804e-07,-8.19453486622379e-07,5.543178448724431e-05,-0.0007733190182932697,0.00023080201065146601,-0.0003901732324406449,-8.833385415578584e-07,1.5919607935368822e-05,0.000842491540314108,0.8076412081718445,46.42501449584961,5.612087726593018,-19.586824417114258,-0.7427878975868225,-2.4173007011413574,0.12485067546367645,0
22,0.10242915153503418,-0.8076412081718445,-46.42501449584961,-5.612087726593018,19.586824417114258,0.7427878975868225,2.4173007011413574,-0.12485067546367645,0.0,0.0,0.0,0.0,0.0,0.0,0.0,-0.8256716362785829,-0.08113843043202891,-0.45266688547481576,0.39177063801135,0.15782730105890483,0.14888106796271036,-0.14460230778824057,0.8780945465062793,0.7554614198667962,-0.282552924893602,-1.6690993588079843,0.14140803176164624,2.4034458294444616,1.0273389196842908,0.878092876070424,0.7554597494309409,-0.2825552651693207,-1.6690993614607135,0.1414185955172306,2.4034451173676383,1.0273381002308042,-5.543178448724431e-05,0.0007733190182932697,-0.00023080201065146601,0.0003901732324406449,8.833385415578584e-07,-1.5919607935368822e-05,-0.000842491540314108,0.0,0.0,0.0,0.0,0.0,0.0,0.0,-1.6704358553054632e-06,-1.6704358553054632e-06,-2.3402757187152012e-06,-2.6527291474565118e-09,1.0563755584364065e-05,-7.120768232837804e-07,-8.19453486622379e-07,5.543178448724431e-05,-0.0007733190182932697,0.00023080201065146601,-0.0003901732324406449,-8.833385415578584e-07,1.5919607935368822e-05,0.000842491540314108,0.8076412081718445,46.42501449584961,5.612087726593018,-19.586824417114258,-0.7427878975868225,-2.4173007011413574,0.12485067546367645,0
23,0.10744762420654297,-0.8076412081718445,-46.37740707397461,-5.635891437530518,19.586824417114258,0.7491965889930725,2.4108920097351074,-0.11844198405742645,0.0,0.0,0.0,0.0,0.0,0.0,0.0,-0.8219429147767731,-0.07741501966678964,-0.44953879437211547,0.3898182936355873,0.15771841846484522,0.14952848867989757,-0.14470675024682847,0.8780945465062793,0.7554580789950855,-0.2825507877500607,-1.6690993617877454,0.1414073196848233,2.4034465415212845,1.0273392672396156,0.878092876070424,0.7554597494309409,-0.2825552651693207,-1.6690993614607135,0.1414185955172306,2.4034451173676383,1.0273381002308042,-6.417789230070521e-05,-0.00043894645741600536,0.0004576970898292855,0.00037445519401244526,-0.00026291398574530275,0.0002343611079121461,-0.0012961739403519613,0.0,0.0,0.0,0.0,0.0,0.0,0.0,-1.6704358553054632e-06,1.6704358553054632e-06,-4.477419260018323e-06,3.2703195707028954e-10,1.1275832407287023e-05,-1.4241536461234716e-06,-1.167008811364667e-06,6.417789230070521e-05,0.00043894645741600536,-0.0004576970898292855,-0.00037445519401244526,0.00026291398574530275,-0.0002343611079121461,0.0012961739403519613,0.8076412081718445,46.37740707397461,5.635891437530518,-19.586824417114258,-0.7491965889930725,-2.4108920097351074,0.11844198405742645,0
24,0.11243414878845215,-0.8076412081718445,-46.37740707397461,-5.635891437530518,19.586824417114258,0.7491965889930725,2.4108920097351074,-0.11844198405742645,0.0,0.0,0.0,0.0,0.0,0.0,0.0,-0.8219429147767731,-0.07741501966678964,-0.44953879437211547,0.3898182936355873,0.15771841846484522,0.14952848867989757,-0.14470675024682847,0.8780945465062793,0.7554580789950855,-0.2825507877500607,-1.6690993617877454,0.1414073196848233,2.4034465415212845,1.0273392672396156,0.878092876070424,0.7554597494309409,-0.2825552651693207,-1.6690993614607135,0.1414185955172306,2.4034451173676383,1.0273381002308042,-6.417789230070521e-05,-0.00043894645741600536,0.0004576970898292855,0.00037445519401244526,-0.00026291398574530275,0.0002343611079121461,-0.0012961739403519613,0.0,0.0,0.0,0.0,0.0,0.0,0.0,-1.6704358553054632e-06,1.6704358553054632e-06,-4.477419260018323e-06,3.2703195707028954e-10,1.1275832407287023e-05,-1.4241536461234716e-06,-1.167008811364667e-06,6.417789230070521e-05,0.00043894645741600536,-0.0004576970898292855,-0.00037445519401244526,0.00026291398574530275,-0.0002343611079121461,0.0012961739403519613,0.8076412081718445,46.37740707397461,5.635891437530518,-19.586824417114258,-0.7491965889930725,-2.4108920097351074,0.11844198405742645,0
25,0.11743378639221191,-0.8076412081718445,-46.37740707397461,-5.635891437530518,19.586824417114258,0.7491965889930725,2.4108920097351074,-0.11844198405742645,0.0,0.0,0.0,0.0,0.0,0.0,0.0,-0.8219429147767731,-0.07741501966678964,-0.44953879437211547,0.3898182936355873,0.15771841846484522,0.14952848867989757,-0.14470675024682847,0.8780945465062793,0.7554580789950855,-0.2825507877500607,-1.6690993617877454,0.1414073196848233,2.4034465415212845,1.0273392672396156,0.878092876070424,0.7554597494309409,-0.2825552651693207,-1.6690993614607135,0.1414185955172306,2.4034451173676383,1.0273381002308042,-6.417789230070521e-05,-0.00043894645741600536,0.0004576970898292855,0.00037445519401244526,-0.00026291398574530275,0.0002343611079121461,-0.0012961739403519613,0.0,0.0,0.0,0.0,0.0,0.0,0.0,-1.6704358553054632e-06,1.6704358553054632e-06,-4.477419260018323e-06,3.2703195707028954e-10,1.1275832407287023e-05,-1.4241536461234716e-06,-1.167008811364667e-06,6.417789230070521e-05,0.00043894645741600536,-0.0004576970898292855,-0.00037445519401244526,0.00026291398574530275,-0.0002343611079121461,0.0012961739403519613,0.8076412081718445,46.37740707397461,5.635891437530518,-19.586824417114258,-0.7491965889930725,-2.4108920097351074,0.11844198405742645,0
26,0.12242650985717773,-0.8076412081718445,-46.37740707397461,-5.635891437530518,19.586824417114258,0.7491965889930725,2.4108920097351074,-0.11844198405742645,0.0,0.0,0.0,0.0,0.0,0.0,0.0,-0.8219429147767731,-0.07741501966678964,-0.44953879437211547,0.3898182936355873,0.15771841846484522,0.14952848867989757,-0.14470675024682847,0.8780945465062793,0.7554580789950855,-0.2825507877500607,-1.6690993617877454,0.1414073196848233,2.4034465415212845,1.0273392672396156,0.878092876070424,0.7554597494309409,-0.2825552651693207,-1.6690993614607135,0.1414185955172306,2.4034451173676383,1.0273381002308042,-6.417789230070521e-05,-0.00043894645741600536,0.0004576970898292855,0.00037445519401244526,-0.00026291398574530275,0.0002343611079121461,-0.0012961739403519613,0.0,0.0,0.0,0.0,0.0,0.0,0.0,-1.6704358553054632e-06,1.6704358553054632e-06,-4.477419260018323e-06,3.2703195707028954e-10,1.1275832407287023e-05,-1.4241536461234716e-06,-1.167008811364667e-06,6.417789230070521e-05,0.00043894645741600536,-0.0004576970898292855,-0.00037445519401244526,0.00026291398574530275,-0.0002343611079121461,0.0012961739403519613,0.8076412081718445,46.37740707397461,5.635891437530518,-19.586824417114258,-0.7491965889930725,-2.4108920097351074,0.11844198405742645,0
27,0.12744617462158203,-0.8354122042655945,-46.42501449584961,-5.612087726593018,19.610628128051758,0.7372947335243225,2.4044833183288574,-0.16604940593242645,0.0,0.0,0.0,0.0,0.0,0.0,0.0,-0.8182898967503186,-0.08616850785780024,-0.44866154952894766,0.3942659008205025,0.15797423092527538,0.15048229235123844,-0.14419877318054464,0.8780964953481104,0.7554614198667962,-0.2825528837101159,-1.6691010318965687,0.14140864211320875,2.4034472535981073,1.027344556959139,0.878092876070424,0.7554597494309409,-0.2825552651693207,-1.6690993614607135,0.1414185955172306,2.4034451173676383,1.0273381002308042,0.00039008126888844213,3.8510398375015045e-07,-3.3502173158914655e-05,-0.00038173059726098356,0.00021241722025237676,0.0003976363994135986,0.0009170546968436851,0.0,0.0,0.0,0.0,0.0,0.0,0.0,-3.619277686439659e-06,-1.6704358553054632e-06,-2.381459204836567e-06,1.670435855194441e-06,9.953404021850742e-06,-2.136230468963163e-06,-6.456728334880424e-06,-0.00039008126888844213,-3.8510398375015045e-07,3.3502173158914655e-05,0.00038173059726098356,-0.00021241722025237676,-0.0003976363994135986,-0.0009170546968436851,0.8354122042655945,46.42501449584961,5.612087726593018,-19.610628128051758,-0.7372947335243225,-2.4044833183288574,0.16604940593242645,0
28,0.13243961334228516,-0.8354122042655945,-46.42501449584961,-5.612087726593018,19.610628128051758,0.7372947335243225,2.4044833183288574,-0.16604940593242645,0.0,0.0,0.0,0.0,0.0,0.0,0.0,-0.8182898967503186,-0.08616850785780024,-0.44866154952894766,0.3942659008205025,0.15797423092527538,0.15048229235123844,-0.14419877318054464,0.8780964953481104,0.7554614198667962,-0.2825528837101159,-1.6691010318965687,0.14140864211320875,2.4034472535981073,1.027344556959139,0.878092876070424,0.7554597494309409,-0.2825552651693207,-1.6690993614607135,0.1414185955172306,2.4034451173676383,1.0273381002308042,0.00039008126888844213,3.8510398375015045e-07,-3.3502173158914655e-05,-0.00038173059726098356,0.00021241722025237676,0.0003976363994135986,0.0009170546968436851,0.0,0.0,0.0,0.0,0.0,0.0,0.0,-3.619277686439659e-06,-1.6704358553054632e-06,-2.381459204836567e-06,1.670435855194441e-06,9.953404021850742e-06,-2.136230468963163e-06,-6.456728334880424e-06,-0.00039008126888844213,-3.8510398375015045e-07,3.3502173158914655e-05,0.00038173059726098356,-0.00021241722025237676,-0.0003976363994135986,-0.0009170546968436851,0.8354122042655945,46.42501449584961,5.612087726593018,-19.610628128051758,-0.7372947335243225,-2.4044833183288574,0.16604940593242645,0
29,0.13743185997009277,-0.8076412081718445,-46.42501449584961,-5.635891437530518,19.634431838989258,0.7427878975868225,2.4108920097351074,-0.10470907390117645,0.0,0.0,0.0,0.0,0.0,0.0,0.0,-0.8132603026995738,-0.07822905004888757,-0.44306648425198375,0.3882636749367752,0.157757200882459,0.14930911310598943,-0.14409057174883377,0.8780945465062793,0.7554614198667962,-0.2825535986616327,-1.6691023847316935,0.1414080711301462,2.4034465415212845,1.027337741366691,0.878092876070424,0.7554597494309409,-0.2825552651693207,-1.6690993614607135,0.1414185955172306,2.4034451173676383,1.0273381002308042,-0.000159134141698867,0.00020413771662910216,0.00038131585934036646,-0.0011075890360572143,8.163053394946357e-05,0.0001353738234504106,-0.001975747853562624,0.0,0.0,0.0,0.0,0.0,0.0,0.0,-1.6704358553054632e-06,-1.6704358553054632e-06,-1.6665076880140184e-06,3.023270980007098e-06,1.0524387084404063e-05,-1.4241536461234716e-06,3.588641130924941e-07,0.000159134141698867,-0.00020413771662910216,-0.00038131585934036646,0.0011075890360572143,-8.163053394946357e-05,-0.0001353738234504106,0.001975747853562624,0.8076412081718445,46.42501449584961,5.635891437530518,-19.634431838989258,-0.7427878975868225,-2.4108920097351074,0.10470907390117645,0
30,0.14243388175964355,-0.8076412081718445,-46.42501449584961,-5.635891437530518,19.634431838989258,0.7427878975868225,2.4108920097351074,-0.10470907390117645,0.0,0.0,0.0,0.0,0.0,0.0,0.0,-0.8132603026995738,-0.07822905004888757,-0.44306648425198375,0.3882636749367752,0.157757200882459,0.14930911310598943,-0.14409057174883377,0.8780945465062793,0.7554614198667962,-0.2825535986616327,-1.6691023847316935,0.1414080711301462,2.4034465415212845,1.027337741366691,0.878092876070424,0.7554597494309409,-0.2825552651693207,-1.6690993614607135,0.1414185955172306,2.4034451173676383,1.0273381002308042,-0.000159134141698867,0.00020413771662910216,0.00038131585934036646,-0.0011075890360572143,8.163053394946357e-05,0.0001353738234504106,-0.001975747853562624,0.0,0.0,0.0,0.0,0.0,0.0,0.0,-1.6704358553054632e-06,-1.6704358553054632e-06,-1.6665076880140184e-06,3.023270980007098e-06,1.0524387084404063e-05,-1.4241536461234716e-06,3.588641130924941e-07,0.000159134141698867,-0.00020413771662910216,-0.00038131585934036646,0.0011075890360572143,-8.163053394946357e-05,-0.0001353738234504106,0.001975747853562624,0.8076412081718445,46.42501449584961,5.635891437530518,-19.634431838989258,-0.7427878975868225,-2.4108920097351074,0.10470907390117645,0
31,0.1474306583404541,-0.8592159152030945,-46.40121078491211,-5.635891437530518,19.559053421020508,0.7491965889930725,2.4044833183288574,-0.11111776530742645,0.0,0.0,0.0,0.0,0.0,0.0,0.0,-0.8140231534008535,-0.08442657228744078,-0.44355964188398084,0.390110527811495,0.15808185117917764,0.14959398942633623,-0.14514097622083003,0.8780981657839657,0.7554597494309409,-0.2825528795677524,-1.6690966976895958,0.1414076740013969,2.4034472535981073,1.027338453443514,0.878092876070424,0.7554597494309409,-0.2825552651693207,-1.6690993614607135,0.1414185955172306,2.4034451173676383,1.0273381002308042,0.000866806639990145,-0.00038864165761454594,0.0006196742746021654,0.0009420752390297033,-0.0002460612198296222,0.00030065666268960393,-0.0029615379912867747,0.0,0.0,0.0,0.0,0.0,0.0,0.0,-5.2897135417451224e-06,0.0,-2.385601568344331e-06,-2.6637711176835666e-06,1.0921515833706152e-05,-2.136230468963163e-06,-3.532127097471971e-07,-0.000866806639990145,0.00038864165761454594,-0.0006196742746021654,-0.0009420752390297033,0.0002460612198296222,-0.00030065666268960393,0.0029615379912867747,0.8592159152030945,46.40121078491211,5.635891437530518,-19.559053421020508,-0.7491965889930725,-2.4044833183288574,0.11111776530742645,0
32,0.15238571166992188,-0.8592159152030945,-46.40121078491211,-5.635891437530518,19.559053421020508,0.7491965889930725,2.4044833183288574,-0.11111776530742645,0.0,0.0,0.0,0.0,0.0,0.0,0.0,-0.8140231534008535,-0.08442657228744078,-0.44355964188398084,0.390110527811495,0.15808185117917764,0.14959398942633623,-0.14514097622083003,0.8780981657839657,0.7554597494309409,-0.2825528795677524,-1.6690966976895958,0.1414076740013969,2.4034472535981073,1.027338453443514,0.878092876070424,0.7554597494309409,-0.2825552651693207,-1.6690993614607135,0.1414185955172306,2.4034451173676383,1.0273381002308042,0.000866806639990145,-0.00038864165761454594,0.0006196742746021654,0.0009420752390297033,-0.0002460612198296222,0.00030065666268960393,-0.0029615379912867747,0.0,0.0,0.0,0.0,0.0,0.0,0.0,-5.2897135417451224e-06,0.0,-2.385601568344331e-06,-2.6637711176835666e-06,1.0921515833706152e-05,-2.136230468963163e-06,-3.532127097471971e-07,-0.000866806639990145,0.00038864165761454594,-0.0006196742746021654,-0.0009420752390297033,0.0002460612198296222,-0.00030065666268960393,0.0029615379912867747,0.8592159152030945,46.40121078491211,5.635891437530518,-19.559053421020508,-0.7491965889930725,-2.4044833183288574,0.11111776530742645,0
33,0.15744853019714355,-0.8076412081718445,-46.42501449584961,-5.612087726593018,19.586824417114258,0.7427878975868225,2.4173007011413574,-0.15231649577617645,0.0,0.0,0.0,0.0,0.0,0.0,0.0,-0.8070613868093592,-0.08449959263819022,-0.4377596227835532,0.3898720826247121,0.15786705392153635,0.14930517583498074,-0.14501492153990908,0.878094625979139,0.7554614198667962,-0.2825521423022825,-1.6690993617837246,0.14140803176364639,2.4034458294444616,1.0273430310802327,0.878092876070424,0.7554597494309409,-0.2825552651693207,-1.6690993614607135,0.1414185955172306,2.4034451173676383,1.0273381002308042,7.817874624205843e-05,0.00039936978402271107,-0.00032587264035969545,0.00034956070745347585,3.304196540877407e-05,-7.851381119546445e-05,0.0003707006462029354,0.0,0.0,0.0,0.0,0.0,0.0,0.0,-1.7499087150429915e-06,-1.6704358553054632e-06,-3.1228670382410506e-06,3.2301117336430707e-10,1.056375358421402e-05,-7.120768232837804e-07,-4.930849428541606e-06,-7.817874624205843e-05,-0.00039936978402271107,0.00032587264035969545,-0.00034956070745347585,-3.304196540877407e-05,7.851381119546445e-05,-0.0003707006462029354,0.8076412081718445,46.42501449584961,5.612087726593018,-19.586824417114258,-0.7427878975868225,-2.4173007011413574,0.15231649577617645,0
34,0.1624305248260498,-0.8076412081718445,-46.42501449584961,-5.612087726593018,19.586824417114258,0.7427878975868225,2.4173007011413574,-0.15231649577617645,0.0,0.0,0.0,0.0,0.0,0.0,0.0,-0.8070613868093592,-0.08449959263819022,-0.4377596227835532,0.3898720826247121,0.15786705392153635,0.14930517583498074,-0.14501492153990908,0.878094625979139,0.7554614198667962,-0.2825521423022825,-1.6690993617837246,0.14140803176364639,2.4034458294444616,1.0273430310802327,0.878092876070424,0.7554597494309409,-0.2825552651693207,-1.6690993614607135,0.1414185955172306,2.4034451173676383,1.0273381002308042,7.817874624205843e-05,0.00039936978402271107,-0.00032587264035969545,0.00034956070745347585,3.304196540877407e-05,-7.851381119546445e-05,0.0003707006462029354,0.0,0.0,0.0,0.0,0.0,0.0,0.0,-1.7499087150429915e-06,-1.6704358553054632e-06,-3.1228670382410506e-06,3.2301117336430707e-10,1.056375358421402e-05,-7.120768232837804e-07,-4.930849428541606e-06,-7.817874624205843e-05,-0.00039936978402271107,0.00032587264035969545,-0.00034956070745347585,-3.304196540877407e-05,7.851381119546445e-05,-0.0003707006462029354,0.8076412081718445,46.42501449584961,5.612087726593018,-19.586824417114258,-0.7427878975868225,-2.4173007011413574,0.15231649577617645,0
35,0.16743063926696777,-0.8076412081718445,-46.42501449584961,-5.612087726593018,19.634431838989258,0.7372947335243225,2.4237093925476074,-0.15231649577617645,0.0,0.0,0.0,0.0,0.0,0.0,0.0,-0.8240409317234528,-0.08340936292516628,-0.4509598794626915,0.388835998145836,0.1582497814520397,0.1495089157283258,-0.14270834149005232,0.8780945465067279,0.7554614198667962,-0.2825546025314986,-1.6691026997160336,0.14140864211320878,2.4034451173676383,1.0273430310802327,0.878092876070424,0.7554597494309409,-0.2825552651693207,-1.6690993614607135,0.1414185955172306,2.4034451173676383,1.0273381002308042,-0.0006584163803040433,0.0006613174547122748,-0.00021965946967042428,-0.0007331443396726726,0.00013113175055004273,-0.0003123938271217735,0.000912007950660613,0.0,0.0,0.0,0.0,0.0,0.0,0.0,-1.6704363039465875e-06,-1.6704358553054632e-06,-6.626378221130658e-07,3.338255320173289e-06,9.953404021822987e-06,0.0,-4.930849428541606e-06,0.0006584163803040433,-0.0006613174547122748,0.00021965946967042428,0.0007331443396726726,-0.00013113175055004273,0.0003123938271217735,-0.000912007950660613,0.8076412081718445,46.42501449584961,5.612087726593018,-19.634431838989258,-0.7372947335243225,-2.4237093925476074,0.15231649577617645,0
36,0.17243528366088867,-0.8076412081718445,-46.42501449584961,-5.612087726593018,19.634431838989258,0.7372947335243225,2.4237093925476074,-0.15231649577617645,0.0,0.0,0.0,0.0,0.0,0.0,0.0,-0.8240409317234528,-0.08340936292516628,-0.4509598794626915,0.388835998145836,0.1582497814520397,0.1495089157283258,-0.14270834149005232,0.8780945465067279,0.7554614198667962,-0.2825546025314986,-1.6691026997160336,0.14140864211320878,2.4034451173676383,1.0273430310802327,0.878092876070424,0.7554597494309409,-0.2825552651693207,-1.6690993614607135,0.1414185955172306,2.4034451173676383,1.0273381002308042,-0.0006584163803040433,0.0006613174547122748,-0.00021965946967042428,-0.0007331443396726726,0.00013113175055004273,-0.0003123938271217735,0.000912007950660613,0.0,0.0,0.0,0.0,0.0,0.0,0.0,-1.6704363039465875e-06,-1.6704358553054632e-06,-6.626378221130658e-07,3.338255320173289e-06,9.953404021822987e-06,0.0,-4.930849428541606e-06,0.0006584163803040433,-0.0006613174547122748,0.00021965946967042428,0.0007331443396726726,-0.00013113175055004273,0.0003123938271217735,-0.000912007950660613,0.8076412081718445,46.42501449584961,5.612087726593018,-19.634431838989258,-0.7372947335243225,-2.4237093925476074,0.15231649577617645,0
37,0.17745685577392578,-0.8076412081718445,-46.42501449584961,-5.663662433624268,19.610628128051758,0.7308860421180725,2.4173007011413574,-0.11844198405742645,0.0,0.0,0.0,0.0,0.0,0.0,0.0,-0.814265532487577,-0.07844816180459506,-0.44214899313090267,0.38791746712110176,0.15758705659739475,0.1486427491418383,-0.14150310165148958,0.8780945465062793,0.7554614198667962,-0.2825494953409909,-1.6691010322236008,0.1414093541900317,2.4034458294444616,1.0273392672455972,0.878092876070424,0.7554597494309409,-0.2825552651693207,-1.6690993614607135,0.1414185955172306,2.4034451173676383,1.0273381002308042,-0.00021666122505119124,4.3789388363756766e-05,0.0012281363484470005,-0.0009253358141468349,0.0005492051358483435,-0.00018020883006284786,-0.0012072628098059048,0.0,0.0,0.0,0.0,0.0,0.0,0.0,-1.6704358553054632e-06,-1.6704358553054632e-06,-5.769828329837967e-06,1.6707628873735558e-06,9.241327198900029e-06,-7.120768232837804e-07,-1.1670147930242791e-06,0.00021666122505119124,-4.3789388363756766e-05,-0.0012281363484470005,0.0009253358141468349,-0.0005492051358483435,0.00018020883006284786,0.0012072628098059048,0.8076412081718445,46.42501449584961,5.663662433624268,-19.610628128051758,-0.7308860421180725,-2.4173007011413574,0.11844198405742645,0
38,0.18244123458862305,-0.8076412081718445,-46.42501449584961,-5.663662433624268,19.610628128051758,0.7308860421180725,2.4173007011413574,-0.11844198405742645,0.0,0.0,0.0,0.0,0.0,0.0,0.0,-0.814265532487577,-0.07844816180459506,-0.44214899313090267,0.38791746712110176,0.15758705659739475,0.1486427491418383,-0.14150310165148958,0.8780945465062793,0.7554614198667962,-0.2825494953409909,-1.6691010322236008,0.1414093541900317,2.4034458294444616,1.0273392672455972,0.878092876070424,0.7554597494309409,-0.2825552651693207,-1.6690993614607135,0.1414185955172306,2.4034451173676383,1.0273381002308042,-0.00021666122505119124,4.3789388363756766e-05,0.0012281363484470005,-0.0009253358141468349,0.0005492051358483435,-0.00018020883006284786,-0.0012072628098059048,0.0,0.0,0.0,0.0,0.0,0.0,0.0,-1.6704358553054632e-06,-1.6704358553054632e-06,-5.769828329837967e-06,1.6707628873735558e-06,9.241327198900029e-06,-7.120768232837804e-07,-1.1670147930242791e-06,0.00021666122505119124,-4.3789388363756766e-05,-0.0012281363484470005,0.0009253358141468349,-0.0005492051358483435,0.00018020883006284786,0.0012072628098059048,0.8076412081718445,46.42501449584961,5.663662433624268,-19.610628128051758,-0.7308860421180725,-2.4173007011413574,0.11844198405742645,0
39,0.18742609024047852,-0.8354122042655945,-46.44881820678711,-5.588284015655518,19.586824417114258,0.7427878975868225,2.4173007011413574,-0.15964071452617645,0.0,0.0,0.0,0.0,0.0,0.0,0.0,-0.8158517225944593,-0.08136347414931856,-0.44545069155565903,0.3883847736618179,0.1567547877406387,0.14854055291545012,-0.14230230537821767,0.8780964953481104,0.7554630903026514,-0.2825545289305799,-1.6690993617877623,0.14140803176164626,2.4034458294444616,1.027343844882316,0.878092876070424,0.7554597494309409,-0.2825552651693207,-1.6690993614607135,0.1414185955172306,2.4034451173676383,1.0273381002308042,0.00032702404900518476,0.0009711576592589058,-0.0006743992180337284,4.7671765238509486e-05,-7.000644836698293e-05,0.0001182742950645629,0.0006197619463662658,0.0,0.0,0.0,0.0,0.0,0.0,0.0,-3.619277686439659e-06,-3.340871710499904e-06,-7.362387408060833e-07,3.2704883246026384e-10,1.056375558433631e-05,-7.120768232837804e-07,-5.744651511818688e-06,-0.00032702404900518476,-0.0009711576592589058,0.0006743992180337284,-4.7671765238509486e-05,7.000644836698293e-05,-0.0001182742950645629,-0.0006197619463662658,0.8354122042655945,46.44881820678711,5.588284015655518,-19.586824417114258,-0.7427878975868225,-2.4173007011413574,0.15964071452617645,0
40,0.19244670867919922,-0.8354122042655945,-46.44881820678711,-5.588284015655518,19.586824417114258,0.7427878975868225,2.4173007011413574,-0.15964071452617645,0.0,0.0,0.0,0.0,0.0,0.0,0.0,-0.8158517225944593,-0.08136347414931856,-0.44545069155565903,0.3883847736618179,0.1567547877406387,0.14854055291545012,-0.14230230537821767,0.8780964953481104,0.7554630903026514,-0.2825545289305799,-1.6690993617877623,0.14140803176164626,2.4034458294444616,1.027343844882316,0.878092876070424,0.7554597494309409,-0.2825552651693207,-1.6690993614607135,0.1414185955172306,2.4034451173676383,1.0273381002308042,0.00032702404900518476,0.0009711576592589058,-0.0006743992180337284,4.7671765238509486e-05,-7.000644836698293e-05,0.0001182742950645629,0.0006197619463662658,0.0,0.0,0.0,0.0,0.0,0.0,0.0,-3.619277686439659e-06,-3.340871710499904e-06,-7.362387408060833e-07,3.2704883246026384e-10,1.056375558433631e-05,-7.120768232837804e-07,-5.744651511818688e-06,-0.00032702404900518476,-0.0009711576592589058,0.0006743992180337284,-4.7671765238509486e-05,7.000644836698293e-05,-0.0001182742950645629,-0.0006197619463662658,0.8354122042655945,46.44881820678711,5.588284015655518,-19.586824417114258,-0.7427878975868225,-2.4173007011413574,0.15964071452617645,0
41,0.1974325180053711,-0.8354122042655945,-46.42501449584961,-5.612087726593018,19.586824417114258,0.7427878975868225,2.4173007011413574,-0.15964071452617645,0.0,0.0,0.0,0.0,0.0,0.0,0.0,-0.8236824235130388,-0.08355710222077782,-0.4510543740164799,0.387257039433292,0.15643517078314334,0.14916302479938057,-0.14286099186677775,0.8780964953481104,0.7554614198667962,-0.28255292819101313,-1.6690993617877623,0.14140803176164626,2.4034458294444616,1.027343844882316,0.878092876070424,0.7554597494309409,-0.2825552651693207,-1.6690993614607135,0.1414185955172306,2.4034451173676383,1.0273381002308042,0.00022398999347630647,0.0004818524388586382,0.00011657732008126715,-0.00024303110986932766,-7.562432718338903e-06,-0.00015902245905889288,-0.004628205875625168,0.0,0.0,0.0,0.0,0.0,0.0,0.0,-3.619277686439659e-06,-1.6704358553054632e-06,-2.3369783075932737e-06,3.2704883246026384e-10,1.056375558433631e-05,-7.120768232837804e-07,-5.744651511818688e-06,-0.00022398999347630647,-0.0004818524388586382,-0.00011657732008126715,0.00024303110986932766,7.562432718338903e-06,0.00015902245905889288,0.004628205875625168,0.8354122042655945,46.42501449584961,5.612087726593018,-19.586824417114258,-0.7427878975868225,-2.4173007011413574,0.15964071452617645,0
42,0.20296669006347656,-0.8354122042655945,-46.42501449584961,-5.612087726593018,19.586824417114258,0.7427878975868225,2.4173007011413574,-0.15964071452617645,0.0,0.0,0.0,0.0,0.0,0.0,0.0,-0.8236824235130388,-0.08355710222077782,-0.4510543740164799,0.387257039433292,0.15643517078314334,0.14916302479938057,-0.14286099186677775,0.8780964953481104,0.7554614198667962,-0.28255292819101313,-1.6690993617877623,0.14140803176164626,2.4034458294444616,1.027343844882316,0.878092876070424,0.7554597494309409,-0.2825552651693207,-1.6690993614607135,0.1414185955172306,2.4034451173676383,1.0273381002308042,0.00022398999347630647,0.0004818524388586382,0.00011657732008126715,-0.00024303110986932766,-7.562432718338903e-06,-0.00015902245905889288,-0.004628205875625168,0.0,0.0,0.0,0.0,0.0,0.0,0.0,-3.619277686439659e-06,-1.6704358553054632e-06,-2.3369783075932737e-06,3.2704883246026384e-10,1.056375558433631e-05,-7.120768232837804e-07,-5.744651511818688e-06,-0.00022398999347630647,-0.0004818524388586382,-0.00011657732008126715,0.00024303110986932766,7.562432718338903e-06,0.00015902245905889288,0.004628205875625168,0.8354122042655945,46.42501449584961,5.612087726593018,-19.586824417114258,-0.7427878975868225,-2.4173007011413574,0.15964071452617645,0
43,0.20743918418884277,-0.8076412081718445,-46.40121078491211,-5.663662433624268,19.559053421020508,0.7308860421180725,2.4237093925476074,-0.11111776530742645,0.0,0.0,0.0,0.0,0.0,0.0,0.0,-0.8088778671707291,-0.09186217968579681,-0.4392757530492531,0.3934972302009846,0.15658647381834695,0.1495918308174208,-0.14424651415867723,0.8780945465062793,0.7554597494309409,-0.28255066547582597,-1.6690974129459313,0.1414093541900317,2.4034451173676383,1.027338453443514,0.878092876070424,0.7554597494309409,-0.2825552651693207,-1.6690993614607135,0.1414185955172306,2.4034451173676383,1.0273381002308042,0.00025947547453623366,-0.00042410114981421385,0.0011671286734058787,0.0005689577038892512,0.0005034045742776547,-0.00022343618062909678,-0.0016393210830390082,0.0,0.0,0.0,0.0,0.0,0.0,0.0,-1.6704358553054632e-06,0.0,-4.599693494755641e-06,-1.9485147821907134e-06,9.241327198900029e-06,0.0,-3.532127097471971e-07,-0.00025947547453623366,0.00042410114981421385,-0.0011671286734058787,-0.0005689577038892512,-0.0005034045742776547,0.00022343618062909678,0.0016393210830390082,0.8076412081718445,46.40121078491211,5.663662433624268,-19.559053421020508,-0.7308860421180725,-2.4237093925476074,0.11111776530742645,0
44,0.2123887538909912,-0.8076412081718445,-46.40121078491211,-5.663662433624268,19.559053421020508,0.7308860421180725,2.4237093925476074,-0.11111776530742645,0.0,0.0,0.0,0.0,0.0,0.0,0.0,-0.8088778671707291,-0.09186217968579681,-0.4392757530492531,0.3934972302009846,0.15658647381834695,0.1495918308174208,-0.14424651415867723,0.8780945465062793,0.7554597494309409,-0.28255066547582597,-1.6690974129459313,0.1414093541900317,2.4034451173676383,1.027338453443514,0.878092876070424,0.7554597494309409,-0.2825552651693207,-1.6690993614607135,0.1414185955172306,2.4034451173676383,1.0273381002308042,0.00025947547453623366,-0.00042410114981421385,0.0011671286734058787,0.0005689577038892512,0.0005034045742776547,-0.00022343618062909678,-0.0016393210830390082,0.0,0.0,0.0,0.0,0.0,0.0,0.0,-1.6704358553054632e-06,0.0,-4.599693494755641e-06,-1.9485147821907134e-06,9.241327198900029e-06,0.0,-3.532127097471971e-07,-0.00025947547453623366,0.00042410114981421385,-0.0011671286734058787,-0.0005689577038892512,-0.0005034045742776547,0.00022343618062909678,0.0016393210830390082,0.8076412081718445,46.40121078491211,5.663662433624268,-19.559053421020508,-0.7308860421180725,-2.4237093925476074,0.11111776530742645,0
45,0.2173900604248047,-0.8076412081718445,-46.42501449584961,-5.588284015655518,19.559053421020508,0.7427878975868225,2.4108920097351074,-0.17337362468242645,0.0,0.0,0.0,0.0,0.0,0.0,0.0,-0.8140621788156862,-0.08364972162458703,-0.44179348770684507,0.3886429152224246,0.1567095493101354,0.1488516726887206,-0.14490737366502332,0.8780945465062793,0.7554614198667962,-0.2825541273212524,-1.669097386454978,0.1414080302990113,2.4034465415212845,1.0273464573869346,0.878092876070424,0.7554597494309409,-0.2825552651693207,-1.6690993614607135,0.1414185955172306,2.4034451173676383,1.0273381002308042,-0.000291747774300654,0.00037868606864034096,-8.196009996072159e-05,0.0008995837543775557,-0.0038935923672501573,2.530147065795371e-05,0.0023807900794451525,0.0,0.0,0.0,0.0,0.0,0.0,0.0,-1.6704358553054632e-06,-1.6704358553054632e-06,-1.1378480683221781e-06,-1.9750057353995487e-06,1.0565218219293904e-05,-1.4241536461234716e-06,-8.357156130456289e-06,0.000291747774300654,-0.00037868606864034096,8.196009996072159e-05,-0.0008995837543775557,0.0038935923672501573,-2.530147065795371e-05,-0.0023807900794451525,0.8076412081718445,46.42501449584961,5.588284015655518,-19.559053421020508,-0.7427878975868225,-2.4108920097351074,0.17337362468242645,0
46,0.22242975234985352,-0.8076412081718445,-46.42501449584961,-5.588284015655518,19.559053421020508,0.7427878975868225,2.4108920097351074,-0.17337362468242645,0.0,0.0,0.0,0.0,0.0,0.0,0.0,-0.8140621788156862,-0.08364972162458703,-0.44179348770684507,0.3886429152224246,0.1567095493101354,0.1488516726887206,-0.14490737366502332,0.8780945465062793,0.7554614198667962,-0.2825541273212524,-1.669097386454978,0.1414080302990113,2.4034465415212845,1.0273464573869346,0.878092876070424,0.7554597494309409,-0.2825552651693207,-1.6690993614607135,0.1414185955172306,2.4034451173676383,1.0273381002308042,-0.000291747774300654,0.00037868606864034096,-8.196009996072159e-05,0.0008995837543775557,-0.0038935923672501573,2.530147065795371e-05,0.0023807900794451525,0.0,0.0,0.0,0.0,0.0,0.0,0.0,-1.6704358553054632e-06,-1.6704358553054632e-06,-1.1378480683221781e-06,-1.9750057353995487e-06,1.0565218219293904e-05,-1.4241536461234716e-06,-8.357156130456289e-06,0.000291747774300654,-0.00037868606864034096,8.196009996072159e-05,-0.0008995837543775557,0.0038935923672501573,-2.530147065795371e-05,-0.0023807900794451525,0.8076412081718445,46.42501449584961,5.588284015655518,-19.559053421020508,-0.7427878975868225,-2.4108920097351074,0.17337362468242645,0
47,0.22745800018310547,-0.8076412081718445,-46.42501449584961,-5.588284015655518,19.559053421020508,0.7427878975868225,2.4108920097351074,-0.17337362468242645,0.0,0.0,0.0,0.0,0.0,0.0,0.0,-0.8140621788156862,-0.08364972162458703,-0.44179348770684507,0.3886429152224246,0.1567095493101354,0.1488516726887206,-0.14490737366502332,0.8780945465062793,0.7554614198667962,-0.2825541273212524,-1.669097386454978,0.1414080302990113,2.4034465415212845,1.0273464573869346,0.878092876070424,0.7554597494309409,-0.2825552651693207,-1.6690993614607135,0.1414185955172306,2.4034451173676383,1.0273381002308042,-0.000291747774300654,0.00037868606864034096,-8.196009996072159e-05,0.0008995837543775557,-0.0038935923672501573,2.530147065795371e-05,0.0023807900794451525,0.0,0.0,0.0,0.0,0.0,0.0,0.0,-1.6704358553054632e-06,-1.6704358553054632e-06,-1.1378480683221781e-06,-1.9750057353995487e-06,1.0565218219293904e-05,-1.4241536461234716e-06,-8.357156130456289e-06,0.000291747774300654,-0.00037868606864034096,8.196009996072159e-05,-0.0008995837543775557,0.0038935923672501573,-2.530147065795371e-05,-0.0023807900794451525,0.8076412081718445,46.42501449584961,5.588284015655518,-19.559053421020508,-0.7427878975868225,-2.4108920097351074,0.17337362468242645,0
48,0.2324385643005371,-0.8076412081718445,-46.42501449584961,-5.588284015655518,19.559053421020508,0.7427878975868225,2.4108920097351074,-0.17337362468242645,0.0,0.0,0.0,0.0,0.0,0.0,0.0,-0.8140621788156862,-0.08364972162458703,-0.44179348770684507,0.3886429152224246,0.1567095493101354,0.1488516726887206,-0.14490737366502332,0.8780945465062793,0.7554614198667962,-0.2825541273212524,-1.669097386454978,0.1414080302990113,2.4034465415212845,1.0273464573869346,0.878092876070424,0.7554597494309409,-0.2825552651693207,-1.6690993614607135,0.1414185955172306,2.4034451173676383,1.0273381002308042,-0.000291747774300654,0.00037868606864034096,-8.196009996072159e-05,0.0008995837543775557,-0.0038935923672501573,2.530147065795371e-05,0.0023807900794451525,0.0,0.0,0.0,0.0,0.0,0.0,0.0,-1.6704358553054632e-06,-1.6704358553054632e-06,-1.1378480683221781e-06,-1.9750057353995487e-06,1.0565218219293904e-05,-1.4241536461234716e-06,-8.357156130456289e-06,0.000291747774300654,-0.00037868606864034096,8.196009996072159e-05,-0.0008995837543775557,0.0038935923672501573,-2.530147065795371e-05,-0.0023807900794451525,0.8076412081718445,46.42501449584961,5.588284015655518,-19.559053421020508,-0.7427878975868225,-2.4108920097351074,0.17337362468242645,0
49,0.2374565601348877,-0.8076412081718445,-46.40121078491211,-5.635891437530518,19.586824417114258,0.7372947335243225,2.4108920097351074,-0.11844198405742645,0.0,0.0,0.0,0.0,0.0,0.0,0.0,-0.8149738641501355,-0.08491205091902017,-0.4403548195745321,0.38840320690569874,0.15657998916046215,0.14864385812937556,-0.14433150497786548,0.8780945465062793,0.7554597494309409,-0.2825526349190714,-1.669097216020401,0.1414086421132005,2.4034465415212845,1.0273392672517312,0.878092876070424,0.7554597494309409,-0.2825552651693207,-1.6690993614607135,0.1414185955172306,2.4034451173676383,1.0273381002308042,0.00016426758112246144,-0.00029094007263208606,0.0008897969340443182,-3.5604058758612654e-05,-0.00015213239221142724,8.050149500915429e-05,-0.0011449380127017707,0.0,0.0,0.0,0.0,0.0,0.0,0.0,-1.6704358553054632e-06,0.0,-2.630250249324728e-06,-2.1454403125176214e-06,9.953404030094148e-06,-1.4241536461234716e-06,-1.1670209270064902e-06,-0.00016426758112246144,0.00029094007263208606,-0.0008897969340443182,3.5604058758612654e-05,0.00015213239221142724,-8.050149500915429e-05,0.0011449380127017707,0.8076412081718445,46.40121078491211,5.635891437530518,-19.586824417114258,-0.7372947335243225,-2.4108920097351074,0.11844198405742645,0
50,0.24244165420532227,-0.8076412081718445,-46.40121078491211,-5.635891437530518,19.586824417114258,0.7372947335243225,2.4108920097351074,-0.11844198405742645,0.0,0.0,0.0,0.0,0.0,0.0,0.0,-0.8149738641501355,-0.08491205091902017,-0.4403548195745321,0.38840320690569874,0.15657998916046215,0.14864385812937556,-0.14433150497786548,0.8780945465062793,0.7554597494309409,-0.2825526349190714,-1.669097216020401,0.1414086421132005,2.4034465415212845,1.0273392672517312,0.878092876070424,0.7554597494309409,-0.2825552651693207,-1.6690993614607135,0.1414185955172306,2.4034451173676383,1.0273381002308042,0.00016426758112246144,-0.00029094007263208606,0.0008897969340443182,-3.5604058758612654e-05,-0.00015213239221142724,8.050149500915429e-05,-0.0011449380127017707,0.0,0.0,0.0,0.0,0.0,0.0,0.0,-1.6704358553054632e-06,0.0,-2.630250249324728e-06,-2.1454403125176214e-06,9.953404030094148e-06,-1.4241536461234716e-06,-1.1670209270064902e-06,-0.00016426758112246144,0.00029094007263208606,-0.0008897969340443182,3.5604058758612654e-05,0.00015213239221142724,-8.050149500915429e-05,0.0011449380127017707,0.8076412081718445,46.40121078491211,5.635891437530518,-19.586824417114258,-0.7372947335243225,-2.4108920097351074,0.11844198405742645,0
51,0.2474374771118164,-0.8076412081718445,-46.37740707397461,-5.612087726593018,19.559053421020508,0.7427878975868225,2.4173007011413574,-0.11844198405742645,0.0,0.0,0.0,0.0,0.0,0.0,0.0,-0.8097091746565648,-0.08240731209594822,-0.43711870981517537,0.3863005143825141,0.15593657393615126,0.14828359152732054,-0.14427296556040056,0.8780945465062793,0.7554580789950855,-0.2825524042306558,-1.669097386442865,0.14140803176164624,2.4034458294444616,1.0273392672455972,0.878092876070424,0.7554597494309409,-0.2825552651693207,-1.6690993614607135,0.1414185955172306,2.4034451173676383,1.0273381002308042,4.635522953127593e-05,-0.00112427187929691,0.0002041984738581762,0.00045298525902456995,8.25590787457207e-05,8.860021659746568e-05,-0.0016427437509616291,0.0,0.0,0.0,0.0,0.0,0.0,0.0,-1.6704358553054632e-06,1.6704358553054632e-06,-2.86093866491699e-06,-1.9750178483768366e-06,1.0563755584364065e-05,-7.120768232837804e-07,-1.1670147930242791e-06,-4.635522953127593e-05,0.00112427187929691,-0.0002041984738581762,-0.00045298525902456995,-8.25590787457207e-05,-8.860021659746568e-05,0.0016427437509616291,0.8076412081718445,46.37740707397461,5.612087726593018,-19.559053421020508,-0.7427878975868225,-2.4173007011413574,0.11844198405742645,0
52,0.2524254322052002,-0.8076412081718445,-46.37740707397461,-5.612087726593018,19.559053421020508,0.7427878975868225,2.4173007011413574,-0.11844198405742645,0.0,0.0,0.0,0.0,0.0,0.0,0.0,-0.8097091746565648,-0.08240731209594822,-0.43711870981517537,0.3863005143825141,0.15593657393615126,0.14828359152732054,-0.14427296556040056,0.8780945465062793,0.7554580789950855,-0.2825524042306558,-1.669097386442865,0.14140803176164624,2.4034458294444616,1.0273392672455972,0.878092876070424,0.7554597494309409,-0.2825552651693207,-1.6690993614607135,0.1414185955172306,2.4034451173676383,1.0273381002308042,4.635522953127593e-05,-0.00112427187929691,0.0002041984738581762,0.00045298525902456995,8.25590787457207e-05,8.860021659746568e-05,-0.0016427437509616291,0.0,0.0,0.0,0.0,0.0,0.0,0.0,-1.6704358553054632e-06,1.6704358553054632e-06,-2.86093866491699e-06,-1.9750178483768366e-06,1.0563755584364065e-05,-7.120768232837804e-07,-1.1670147930242791e-06,-4.635522953127593e-05,0.00112427187929691,-0.0002041984738581762,-0.00045298525902456995,-8.25590787457207e-05,-8.860021659746568e-05,0.0016427437509616291,0.8076412081718445,46.37740707397461,5.612087726593018,-19.559053421020508,-0.7427878975868225,-2.4173007011413574,0.11844198405742645,0
53,0.2574276924133301,-0.8592159152030945,-46.34963607788086,-5.536709308624268,19.586824417114258,0.7427878975868225,2.4173007011413574,-0.17337362468242645,0.0,0.0,0.0,0.0,0.0,0.0,0.0,-0.8226493887703696,-0.07579430604026871,-0.4439101429992365,0.379138926869939,0.1565999563300662,0.14840350452164677,-0.14453593431541462,0.8780981657839657,0.7554561301532544,-0.2825603603623756,-1.669097215984062,0.14140803176164624,2.4034458294444616,1.0273453707612223,0.878092876070424,0.7554597494309409,-0.2825552651693207,-1.6690993614607135,0.1414185955172306,2.4034451173676383,1.0273381002308042,0.0008715582577106332,-0.0012981518505469068,-0.0016790088025877867,-0.0001424943573527849,-3.059102239548132e-05,3.323010126505074e-05,0.0009449674491239496,0.0,0.0,0.0,0.0,0.0,0.0,0.0,-5.2897135417451224e-06,3.619277686439659e-06,5.095193054860392e-06,-2.145476651449485e-06,1.0563755584364065e-05,-7.120768232837804e-07,-7.270530418157506e-06,-0.0008715582577106332,0.0012981518505469068,0.0016790088025877867,0.0001424943573527849,3.059102239548132e-05,-3.323010126505074e-05,-0.0009449674491239496,0.8592159152030945,46.34963607788086,5.536709308624268,-19.586824417114258,-0.7427878975868225,-2.4173007011413574,0.17337362468242645,0
54,0.26242971420288086,-0.8592159152030945,-46.34963607788086,-5.536709308624268,19.586824417114258,0.7427878975868225,2.4173007011413574,-0.17337362468242645,0.0,0.0,0.0,0.0,0.0,0.0,0.0,-0.8226493887703696,-0.07579430604026871,-0.4439101429992365,0.379138926869939,0.1565999563300662,0.14840350452164677,-0.14453593431541462,0.8780981657839657,0.7554561301532544,-0.2825603603623756,-1.669097215984062,0.14140803176164624,2.4034458294444616,1.0273453707612223,0.878092876070424,0.7554597494309409,-0.2825552651693207,-1.6690993614607135,0.1414185955172306,2.4034451173676383,1.0273381002308042,0.0008715582577106332,-0.0012981518505469068,-0.0016790088025877867,-0.0001424943573527849,-3.059102239548132e-05,3.323010126505074e-05,0.0009449674491239496,0.0,0.0,0.0,0.0,0.0,0.0,0.0,-5.2897135417451224e-06,3.619277686439659e-06,5.095193054860392e-06,-2.145476651449485e-06,1.0563755584364065e-05,-7.120768232837804e-07,-7.270530418157506e-06,-0.0008715582577106332,0.0012981518505469068,0.0016790088025877867,0.0001424943573527849,3.059102239548132e-05,-3.323010126505074e-05,-0.0009449674491239496,0.8592159152030945,46.34963607788086,5.536709308624268,-19.586824417114258,-0.7427878975868225,-2.4173007011413574,0.17337362468242645,0
55,0.2673807144165039,-0.8354122042655945,-46.40121078491211,-5.612087726593018,19.586824417114258,0.7372947335243225,2.4108920097351074,-0.17337362468242645,0.0,0.0,0.0,0.0,0.0,0.0,0.0,-0.821846782453684,-0.08392644278807969,-0.4403404841264267,0.38433626084190137,0.15707675765362314,0.14962025673966298,-0.14476238910190256,0.8780964953481104,0.7554597494309409,-0.28255240379891083,-1.6690969772264705,0.1414075714644363,2.4034465415212845,1.0273453707612223,0.878092876070424,0.7554597494309409,-0.2825552651693207,-1.6690993614607135,0.1414185955172306,2.4034451173676383,1.0273381002308042,0.00022479730261315672,-6.476198509847901e-05,-0.00018491414777204934,0.00022061911915273412,0.0002072739597311323,0.00013033687759580312,0.0006761541945954857,0.0,0.0,0.0,0.0,0.0,0.0,0.0,-3.619277686439659e-06,0.0,-2.861370409890096e-06,-2.3842342429247765e-06,1.102405279429508e-05,-1.4241536461234716e-06,-7.270530418157506e-06,-0.00022479730261315672,6.476198509847901e-05,0.00018491414777204934,-0.00022061911915273412,-0.0002072739597311323,-0.00013033687759580312,-0.0006761541945954857,0.8354122042655945,46.40121078491211,5.612087726593018,-19.586824417114258,-0.7372947335243225,-2.4108920097351074,0.17337362468242645,0
56,0.2724287509918213,-0.8354122042655945,-46.40121078491211,-5.612087726593018,19.586824417114258,0.7372947335243225,2.4108920097351074,-0.17337362468242645,0.0,0.0,0.0,0.0,0.0,0.0,0.0,-0.821846782453684,-0.08392644278807969,-0.4403404841264267,0.38433626084190137,0.15707675765362314,0.14962025673966298,-0.14476238910190256,0.8780964953481104,0.7554597494309409,-0.28255240379891083,-1.6690969772264705,0.1414075714644363,2.4034465415212845,1.0273453707612223,0.878092876070424,0.7554597494309409,-0.2825552651693207,-1.6690993614607135,0.1414185955172306,2.4034451173676383,1.0273381002308042,0.00022479730261315672,-6.476198509847901e-05,-0.00018491414777204934,0.00022061911915273412,0.0002072739597311323,0.00013033687759580312,0.0006761541945954857,0.0,0.0,0.0,0.0,0.0,0.0,0.0,-3.619277686439659e-06,0.0,-2.861370409890096e-06,-2.3842342429247765e-06,1.102405279429508e-05,-1.4241536461234716e-06,-7.270530418157506e-06,-0.00022479730261315672,6.476198509847901e-05,0.00018491414777204934,-0.00022061911915273412,-0.0002072739597311323,-0.00013033687759580312,-0.0006761541945954857,0.8354122042655945,46.40121078491211,5.612087726593018,-19.586824417114258,-0.7372947335243225,-2.4108920097351074,0.17337362468242645,0
57,0.27744174003601074,-0.8354122042655945,-46.37740707397461,-5.564480304718018,19.586824417114258,0.7491965889930725,2.4173007011413574,-0.19351522624492645,0.0,0.0,0.0,0.0,0.0,0.0,0.0,-0.8170901172743894,-0.07912793978530305,-0.43654469467131524,0.38282949433682156,0.157286023721985,0.14907998153789925,-0.14632734593815813,0.8780964953481104,0.7554580789950855,-0.28255835853863553,-1.6690993617743013,0.14140720120534975,2.4034458294444616,1.0273476087169515,0.878092876070424,0.7554597494309409,-0.2825552651693207,-1.6690993614607135,0.1414185955172306,2.4034451173676383,1.0273381002308042,0.00045532154371715893,-0.00042869022759043,-0.0015330524124736297,-0.0002600418552017025,-0.0002252790095647403,5.711427696133939e-06,0.0018954892064588604,0.0,0.0,0.0,0.0,0.0,0.0,0.0,-3.619277686439659e-06,1.6704358553054632e-06,3.0933693148105235e-06,3.1358782237589367e-10,1.1394311880852381e-05,-7.120768232837804e-07,-9.508486147336015e-06,-0.00045532154371715893,0.00042869022759043,0.0015330524124736297,0.0002600418552017025,0.0002252790095647403,-5.711427696133939e-06,-0.0018954892064588604,0.8354122042655945,46.37740707397461,5.564480304718018,-19.586824417114258,-0.7491965889930725,-2.4173007011413574,0.19351522624492645,0
58,0.28242945671081543,-0.8354122042655945,-46.37740707397461,-5.564480304718018,19.586824417114258,0.7491965889930725,2.4173007011413574,-0.19351522624492645,0.0,0.0,0.0,0.0,0.0,0.0,0.0,-0.8170901172743894,-0.07912793978530305,-0.43654469467131524,0.38282949433682156,0.157286023721985,0.14907998153789925,-0.14632734593815813,0.8780964953481104,0.7554580789950855,-0.28255835853863553,-1.6690993617743013,0.14140720120534975,2.4034458294444616,1.0273476087169515,0.878092876070424,0.7554597494309409,-0.2825552651693207,-1.6690993614607135,0.1414185955172306,2.4034451173676383,1.0273381002308042,0.00045532154371715893,-0.00042869022759043,-0.0015330524124736297,-0.0002600418552017025,-0.0002252790095647403,5.711427696133939e-06,0.0018954892064588604,0.0,0.0,0.0,0.0,0.0,0.0,0.0,-3.619277686439659e-06,1.6704358553054632e-06,3.0933693148105235e-06,3.1358782237589367e-10,1.1394311880852381e-05,-7.120768232837804e-07,-9.508486147336015e-06,-0.00045532154371715893,0.00042869022759043,0.0015330524124736297,0.0002600418552017025,0.0002252790095647403,-5.711427696133939e-06,-0.0018954892064588604,0.8354122042655945,46.37740707397461,5.564480304718018,-19.586824417114258,-0.7491965889930725,-2.4173007011413574,0.19351522624492645,0
59,0.28743457794189453,-0.8076412081718445,-46.42501449584961,-5.635891437530518,19.610628128051758,0.7427878975868225,2.4173007011413574,-0.11111776530742645,0.0,0.0,0.0,0.0,0.0,0.0,0.0,-0.811226233864671,-0.08495768190340627,-0.43366282158341507,0.3871980864404529,0.1576441479524169,0.14980296915703023,-0.14743334120759105,0.8780945465062793,0.7554614198667962,-0.2825506990552334,-1.6691010233932995,0.14140803175963979,2.4034458294444616,1.027338453443514,0.878092876070424,0.7554597494309409,-0.2825552651693207,-1.6690993614607135,0.1414185955172306,2.4034451173676383,1.0273381002308042,-0.00012968275695321037,0.0003954009007077981,0.0006515296146613857,-0.0006804322167599247,-4.9393566405017783e-05,-9.23338303052619e-05,-0.0012523933251348536,0.0,0.0,0.0,0.0,0.0,0.0,0.0,-1.6704358553054632e-06,-1.6704358553054632e-06,-4.5661140873343165e-06,1.6619325859945633e-06,1.0563757590814626e-05,-7.120768232837804e-07,-3.532127097471971e-07,0.00012968275695321037,-0.0003954009007077981,-0.0006515296146613857,0.0006804322167599247,4.9393566405017783e-05,9.23338303052619e-05,0.0012523933251348536,0.8076412081718445,46.42501449584961,5.635891437530518,-19.610628128051758,-0.7427878975868225,-2.4173007011413574,0.11111776530742645,0
60,0.29244017601013184,-0.8076412081718445,-46.42501449584961,-5.635891437530518,19.610628128051758,0.7427878975868225,2.4173007011413574,-0.11111776530742645,0.0,0.0,0.0,0.0,0.0,0.0,0.0,-0.811226233864671,-0.08495768190340627,-0.43366282158341507,0.3871980864404529,0.1576441479524169,0.14980296915703023,-0.14743334120759105,0.8780945465062793,0.7554614198667962,-0.2825506990552334,-1.6691010233932995,0.14140803175963979,2.4034458294444616,1.027338453443514,0.878092876070424,0.7554597494309409,-0.2825552651693207,-1.6690993614607135,0.1414185955172306,2.4034451173676383,1.0273381002308042,-0.00012968275695321037,0.0003954009007077981,0.0006515296146613857,-0.0006804322167599247,-4.9393566405017783e-05,-9.23338303052619e-05,-0.0012523933251348536,0.0,0.0,0.0,0.0,0.0,0.0,0.0,-1.6704358553054632e-06,-1.6704358553054632e-06,-4.5661140873343165e-06,1.6619325859945633e-06,1.0563757590814626e-05,-7.120768232837804e-07,-3.532127097471971e-07,0.00012968275695321037,-0.0003954009007077981,-0.0006515296146613857,0.0006804322167599247,4.9393566405017783e-05,9.23338303052619e-05,0.0012523933251348536,0.8076412081718445,46.42501449584961,5.635891437530518,-19.610628128051758,-0.7427878975868225,-2.4173007011413574,0.11111776530742645,0
61,0.2973909378051758,-0.7838374972343445,-46.37740707397461,-5.564480304718018,19.610628128051758,0.7372947335243225,2.4108920097351074,-0.11844198405742645,0.0,0.0,0.0,0.0,0.0,0.0,0.0,-0.8162804858195133,-0.08991496147189132,-0.4392069444821035,0.38856722445346675,0.15773436107034822,0.15046466181384016,-0.1466535224091128,0.878092876070424,0.7554580789950855,-0.28255785815286855,-1.6691003169194119,0.14140864211320875,2.4034465415212845,1.0273392672455972,0.878092876070424,0.7554597494309409,-0.2825552651693207,-1.6690993614607135,0.1414185955172306,2.4034451173676383,1.0273381002308042,-0.000656596572496276,-0.000994557026954427,-0.0011171518966908236,-0.0006622967002401935,7.943665705522996e-05,0.00023562494983338318,-0.000944973523053198,0.0,0.0,0.0,0.0,0.0,0.0,0.0,0.0,1.6704358553054632e-06,2.592983547822225e-06,9.554586983817615e-07,9.953404021850742e-06,-1.4241536461234716e-06,-1.1670147930242791e-06,0.000656596572496276,0.000994557026954427,0.0011171518966908236,0.0006622967002401935,-7.943665705522996e-05,-0.00023562494983338318,0.000944973523053198,0.7838374972343445,46.37740707397461,5.564480304718018,-19.610628128051758,-0.7372947335243225,-2.4108920097351074,0.11844198405742645,0
62,0.3023796081542969,-0.7838374972343445,-46.37740707397461,-5.564480304718018,19.610628128051758,0.7372947335243225,2.4108920097351074,-0.11844198405742645,0.0,0.0,0.0,0.0,0.0,0.0,0.0,-0.8162804858195133,-0.08991496147189132,-0.4392069444821035,0.38856722445346675,0.15773436107034822,0.15046466181384016,-0.1466535224091128,0.878092876070424,0.7554580789950855,-0.28255785815286855,-1.6691003169194119,0.14140864211320875,2.4034465415212845,1.0273392672455972,0.878092876070424,0.7554597494309409,-0.2825552651693207,-1.6690993614607135,0.1414185955172306,2.4034451173676383,1.0273381002308042,-0.000656596572496276,-0.000994557026954427,-0.0011171518966908236,-0.0006622967002401935,7.943665705522996e-05,0.00023562494983338318,-0.000944973523053198,0.0,0.0,0.0,0.0,0.0,0.0,0.0,0.0,1.6704358553054632e-06,2.592983547822225e-06,9.554586983817615e-07,9.953404021850742e-06,-1.4241536461234716e-06,-1.1670147930242791e-06,0.000656596572496276,0.000994557026954427,0.0011171518966908236,0.0006622967002401935,-7.943665705522996e-05,-0.00023562494983338318,0.000944973523053198,0.7838374972343445,46.37740707397461,5.564480304718018,-19.610628128051758,-0.7372947335243225,-2.4108920097351074,0.11844198405742645,0
63,0.3074510097503662,-0.7560665011405945,-46.42501449584961,-5.612087726593018,19.610628128051758,0.7427878975868225,2.4108920097351074,-0.13858358561992645,0.0,0.0,0.0,0.0,0.0,0.0,0.0,-0.8118257757287782,-0.07645006484459314,-0.4354663271590525,0.3831837568569593,0.15679332826008413,0.1496162805602481,-0.14686053050730097,0.8780909272285928,0.7554614198667962,-0.2825523812657582,-1.6691010292761403,0.14140803176164624,2.4034465415212845,1.0273415052013264,0.878092876070424,0.7554597494309409,-0.2825552651693207,-1.6690993614607135,0.1414185955172306,2.4034451173676383,1.0273381002308042,-0.001049585565958136,0.0006388372190256202,6.737813354526461e-05,-0.0005954310634122096,0.0009026212043036296,0.0001611201268115747,-0.0004491117560001678,0.0,0.0,0.0,0.0,0.0,0.0,0.0,1.948841831134196e-06,-1.6704358553054632e-06,-2.8839035625116693e-06,1.6678154268756629e-06,1.0563755584364065e-05,-1.4241536461234716e-06,-3.404970522202788e-06,0.001049585565958136,-0.0006388372190256202,-6.737813354526461e-05,0.0005954310634122096,-0.0009026212043036296,-0.0001611201268115747,0.0004491117560001678,0.7560665011405945,46.42501449584961,5.612087726593018,-19.610628128051758,-0.7427878975868225,-2.4108920097351074,0.13858358561992645,0
64,0.3124690055847168,-0.7560665011405945,-46.42501449584961,-5.612087726593018,19.610628128051758,0.7427878975868225,2.4108920097351074,-0.13858358561992645,0.0,0.0,0.0,0.0,0.0,0.0,0.0,-0.8118257757287782,-0.07645006484459314,-0.4354663271590525,0.3831837568569593,0.15679332826008413,0.1496162805602481,-0.14686053050730097,0.8780909272285928,0.7554614198667962,-0.2825523812657582,-1.6691010292761403,0.14140803176164624,2.4034465415212845,1.0273415052013264,0.878092876070424,0.7554597494309409,-0.2825552651693207,-1.6690993614607135,0.1414185955172306,2.4034451173676383,1.0273381002308042,-0.001049585565958136,0.0006388372190256202,6.737813354526461e-05,-0.0005954310634122096,0.0009026212043036296,0.0001611201268115747,-0.0004491117560001678,0.0,0.0,0.0,0.0,0.0,0.0,0.0,1.948841831134196e-06,-1.6704358553054632e-06,-2.8839035625116693e-06,1.6678154268756629e-06,1.0563755584364065e-05,-1.4241536461234716e-06,-3.404970522202788e-06,0.001049585565958136,-0.0006388372190256202,-6.737813354526461e-05,0.0005954310634122096,-0.0009026212043036296,-0.0001611201268115747,0.0004491117560001678,0.7560665011405945,46.42501449584961,5.612087726593018,-19.610628128051758,-0.7427878975868225,-2.4108920097351074,0.13858358561992645,0
65,0.31743717193603516,-0.7838374972343445,-46.42501449584961,-5.612087726593018,19.586824417114258,0.7308860421180725,2.4237093925476074,-0.15964071452617645,0.0,0.0,0.0,0.0,0.0,0.0,0.0,-0.816128280981002,-0.07137195917239861,-0.4410175605498943,0.38092567324949494,0.1575705892235546,0.14850393757853406,-0.1476164405141779,0.878092876070424,0.7554614198667962,-0.2825531733659069,-1.6690993617877457,0.14140935419003167,2.4034451173676383,1.027343844882316,0.878092876070424,0.7554597494309409,-0.2825552651693207,-1.6690993614607135,0.1414185955172306,2.4034451173676383,1.0273381002308042,-0.0007501622805410878,0.00082891638699386,3.042078176677349e-06,-0.00019488290777856684,0.0001888097616303172,-0.00039605488568508957,0.0005922521334686125,0.0,0.0,0.0,0.0,0.0,0.0,0.0,0.0,-1.6704358553054632e-06,-2.091803413817317e-06,3.2703217911489446e-10,9.241327198927785e-06,0.0,-5.744651511818688e-06,0.0007501622805410878,-0.00082891638699386,-3.042078176677349e-06,0.00019488290777856684,-0.0001888097616303172,0.00039605488568508957,-0.0005922521334686125,0.7838374972343445,46.42501449584961,5.612087726593018,-19.586824417114258,-0.7308860421180725,-2.4237093925476074,0.15964071452617645,0
66,0.3224649429321289,-0.7838374972343445,-46.42501449584961,-5.612087726593018,19.586824417114258,0.7308860421180725,2.4237093925476074,-0.15964071452617645,0.0,0.0,0.0,0.0,0.0,0.0,0.0,-0.816128280981002,-0.07137195917239861,-0.4410175605498943,0.38092567324949494,0.1575705892235546,0.14850393757853406,-0.1476164405141779,0.878092876070424,0.7554614198667962,-0.2825531733659069,-1.6690993617877457,0.14140935419003167,2.4034451173676383,1.027343844882316,0.878092876070424,0.7554597494309409,-0.2825552651693207,-1.6690993614607135,0.1414185955172306,2.4034451173676383,1.0273381002308042,-0.0007501622805410878,0.00082891638699386,3.042078176677349e-06,-0.00019488290777856684,0.0001888097616303172,-0.00039605488568508957,0.0005922521334686125,0.0,0.0,0.0,0.0,0.0,0.0,0.0,0.0,-1.6704358553054632e-06,-2.091803413817317e-06,3.2703217911489446e-10,9.241327198927785e-06,0.0,-5.744651511818688e-06,0.0007501622805410878,-0.00082891638699386,-3.042078176677349e-06,0.00019488290777856684,-0.0001888097616303172,0.00039605488568508957,-0.0005922521334686125,0.7838374972343445,46.42501449584961,5.612087726593018,-19.586824417114258,-0.7308860421180725,-2.4237093925476074,0.15964071452617645,0
67,0.3274352550506592,-0.8354122042655945,-46.37740707397461,-5.635891437530518,19.559053421020508,0.7491965889930725,2.4108920097351074,-0.11111776530742645,0.0,0.0,0.0,0.0,0.0,0.0,0.0,-0.8081292335863136,-0.07761630717649425,-0.43991807272688094,0.3853056924548189,0.15670387058037025,0.14922407550474298,-0.14800629807960392,0.8780964953481104,0.7554580789950855,-0.28255340908397697,-1.669097412836915,0.1414073196848233,2.403446894733994,1.027338453443514,0.878092876070424,0.7554597494309409,-0.2825552651693207,-1.6690993614607135,0.1414185955172306,2.4034451173676383,1.0273381002308042,0.0012321620811515176,-0.0005067661648344966,0.0002986819090819789,0.0011028763069096381,-0.00044202405039132247,0.00017099743795996556,-0.001461135633289831,0.0,0.0,0.0,0.0,0.0,0.0,0.0,-3.619277686439659e-06,1.6704358553054632e-06,-1.8560853437543656e-06,-1.948623798542215e-06,1.1275832407287023e-05,-1.7773663558706687e-06,-3.532127097471971e-07,-0.0012321620811515176,0.0005067661648344966,-0.0002986819090819789,-0.0011028763069096381,0.00044202405039132247,-0.00017099743795996556,0.001461135633289831,0.8354122042655945,46.37740707397461,5.635891437530518,-19.559053421020508,-0.7491965889930725,-2.4108920097351074,0.11111776530742645,0
68,0.3324275016784668,-0.8354122042655945,-46.37740707397461,-5.635891437530518,19.559053421020508,0.7491965889930725,2.4108920097351074,-0.11111776530742645,0.0,0.0,0.0,0.0,0.0,0.0,0.0,-0.8081292335863136,-0.07761630717649425,-0.43991807272688094,0.3853056924548189,0.15670387058037025,0.14922407550474298,-0.14800629807960392,0.8780964953481104,0.7554580789950855,-0.28255340908397697,-1.669097412836915,0.1414073196848233,2.403446894733994,1.027338453443514,0.878092876070424,0.7554597494309409,-0.2825552651693207,-1.6690993614607135,0.1414185955172306,2.4034451173676383,1.0273381002308042,0.0012321620811515176,-0.0005067661648344966,0.0002986819090819789,0.0011028763069096381,-0.00044202405039132247,0.00017099743795996556,-0.001461135633289831,0.0,0.0,0.0,0.0,0.0,0.0,0.0,-3.619277686439659e-06,1.6704358553054632e-06,-1.8560853437543656e-06,-1.948623798542215e-06,1.1275832407287023e-05,-1.7773663558706687e-06,-3.532127097471971e-07,-0.0012321620811515176,0.0005067661648344966,-0.0002986819090819789,-0.0011028763069096381,0.00044202405039132247,-0.00017099743795996556,0.001461135633289831,0.8354122042655945,46.37740707397461,5.635891437530518,-19.559053421020508,-0.7491965889930725,-2.4108920097351074,0.11111776530742645,0
69,0.3374288082122803,-0.8076412081718445,-46.37740707397461,-5.612087726593018,19.610628128051758,0.7308860421180725,2.4237093925476074,-0.15964071452617645,0.0,0.0,0.0,0.0,0.0,0.0,0.0,-0.7988524620439822,-0.07004023976856688,-0.4353517785161951,0.3821833396543218,0.15599231544623182,0.14829902841420398,-0.14772211997740073,0.8780945465062793,0.7554580789950855,-0.2825531102576802,-1.6691010322236157,0.14140935419003167,2.4034451173736198,1.027343844882316,0.878092876070424,0.7554597494309409,-0.2825552651693207,-1.6690993614607135,0.1414185955172306,2.4034451173676383,1.0273381002308042,-0.0001630624157443649,-0.0005706637794040097,0.0006371553672624243,-0.0002458384340813734,0.0005380959279919836,-0.0004922529667466822,0.00011103095735464051,0.0,0.0,0.0,0.0,0.0,0.0,0.0,-1.6704358553054632e-06,1.6704358553054632e-06,-2.1549116405172875e-06,1.6707629022505444e-06,9.241327198927785e-06,-5.981437567470493e-12,-5.744651511818688e-06,0.0001630624157443649,0.0005706637794040097,-0.0006371553672624243,0.0002458384340813734,-0.0005380959279919836,0.0004922529667466822,-0.00011103095735464051,0.8076412081718445,46.37740707397461,5.612087726593018,-19.610628128051758,-0.7308860421180725,-2.4237093925476074,0.15964071452617645,0
70,0.34242892265319824,-0.8076412081718445,-46.37740707397461,-5.612087726593018,19.610628128051758,0.7308860421180725,2.4237093925476074,-0.15964071452617645,0.0,0.0,0.0,0.0,0.0,0.0,0.0,-0.7988524620439822,-0.07004023976856688,-0.4353517785161951,0.3821833396543218,0.15599231544623182,0.14829902841420398,-0.14772211997740073,0.8780945465062793,0.7554580789950855,-0.2825531102576802,-1.6691010322236157,0.14140935419003167,2.4034451173736198,1.027343844882316,0.878092876070424,0.7554597494309409,-0.2825552651693207,-1.6690993614607135,0.1414185955172306,2.4034451173676383,1.0273381002308042,-0.0001630624157443649,-0.0005706637794040097,0.0006371553672624243,-0.0002458384340813734,0.0005380959279919836,-0.0004922529667466822,0.00011103095735464051,0.0,0.0,0.0,0.0,0.0,0.0,0.0,-1.6704358553054632e-06,1.6704358553054632e-06,-2.1549116405172875e-06,1.6707629022505444e-06,9.241327198927785e-06,-5.981437567470493e-12,-5.744651511818688e-06,0.0001630624157443649,0.0005706637794040097,-0.0006371553672624243,0.0002458384340813734,-0.0005380959279919836,0.0004922529667466822,-0.00011103095735464051,0.8076412081718445,46.37740707397461,5.612087726593018,-19.610628128051758,-0.7308860421180725,-2.4237093925476074,0.15964071452617645,0
71,0.3474295139312744,-0.8076412081718445,-46.37740707397461,-5.612087726593018,19.610628128051758,0.7308860421180725,2.4237093925476074,-0.15964071452617645,0.0,0.0,0.0,0.0,0.0,0.0,0.0,-0.7988524620439822,-0.07004023976856688,-0.4353517785161951,0.3821833396543218,0.15599231544623182,0.14829902841420398,-0.14772211997740073,0.8780945465062793,0.7554580789950855,-0.2825531102576802,-1.6691010322236157,0.14140935419003167,2.4034451173736198,1.027343844882316,0.878092876070424,0.7554597494309409,-0.2825552651693207,-1.6690993614607135,0.1414185955172306,2.4034451173676383,1.0273381002308042,-0.0001630624157443649,-0.0005706637794040097,0.0006371553672624243,-0.0002458384340813734,0.0005380959279919836,-0.0004922529667466822,0.00011103095735464051,0.0,0.0,0.0,0.0,0.0,0.0,0.0,-1.6704358553054632e-06,1.6704358553054632e-06,-2.1549116405172875e-06,1.6707629022505444e-06,9.241327198927785e-06,-5.981437567470493e-12,-5.744651511818688e-06,0.0001630624157443649,0.0005706637794040097,-0.0006371553672624243,0.0002458384340813734,-0.0005380959279919836,0.0004922529667466822,-0.00011103095735464051,0.8076412081718445,46.37740707397461,5.612087726593018,-19.610628128051758,-0.7308860421180725,-2.4237093925476074,0.15964071452617645,0
72,0.35251903533935547,-0.8076412081718445,-46.37740707397461,-5.612087726593018,19.610628128051758,0.7308860421180725,2.4237093925476074,-0.15964071452617645,0.0,0.0,0.0,0.0,0.0,0.0,0.0,-0.7988524620439822,-0.07004023976856688,-0.4353517785161951,0.3821833396543218,0.15599231544623182,0.14829902841420398,-0.14772211997740073,0.8780945465062793,0.7554580789950855,-0.2825531102576802,-1.6691010322236157,0.14140935419003167,2.4034451173736198,1.027343844882316,0.878092876070424,0.7554597494309409,-0.2825552651693207,-1.6690993614607135,0.1414185955172306,2.4034451173676383,1.0273381002308042,-0.0001630624157443649,-0.0005706637794040097,0.0006371553672624243,-0.0002458384340813734,0.0005380959279919836,-0.0004922529667466822,0.00011103095735464051,0.0,0.0,0.0,0.0,0.0,0.0,0.0,-1.6704358553054632e-06,1.6704358553054632e-06,-2.1549116405172875e-06,1.6707629022505444e-06,9.241327198927785e-06,-5.981437567470493e-12,-5.744651511818688e-06,0.0001630624157443649,0.0005706637794040097,-0.0006371553672624243,0.0002458384340813734,-0.0005380959279919836,0.0004922529667466822,-0.00011103095735464051,0.8076412081718445,46.37740707397461,5.612087726593018,-19.610628128051758,-0.7308860421180725,-2.4237093925476074,0.15964071452617645,0
73,0.35748720169067383,-0.8592159152030945,-46.40121078491211,-5.612087726593018,19.610628128051758,0.7546897530555725,2.4173007011413574,-0.14590780436992645,0.0,0.0,0.0,0.0,0.0,0.0,0.0,-0.8007391217840697,-0.06920631377255168,-0.43435688308010273,0.3809447457068785,0.15554608819722482,0.14790170457728055,-0.14884533039389924,0.8780981657839657,0.7554597494309409,-0.28255296434580784,-1.6690988776260878,0.14140670933326083,2.4034458294444616,1.0273423190034099,0.878092876070424,0.7554597494309409,-0.2825552651693207,-1.6690993614607135,0.1414185955172306,2.4034451173676383,1.0273381002308042,0.001410963049117728,0.00022638003482764317,0.0002125110131075184,-0.0005374082566513249,0.0008520239529241953,-0.00015072451767776714,-0.009291983722264098,0.0,0.0,0.0,0.0,0.0,0.0,0.0,-5.2897135417451224e-06,0.0,-2.300823512879635e-06,-4.838346256974546e-07,1.188618396977259e-05,-7.120768232837804e-07,-4.218772605701915e-06,-0.001410963049117728,-0.00022638003482764317,-0.0002125110131075184,0.0005374082566513249,-0.0008520239529241953,0.00015072451767776714,0.009291983722264098,0.8592159152030945,46.40121078491211,5.612087726593018,-19.610628128051758,-0.7546897530555725,-2.4173007011413574,0.14590780436992645,0
74,0.36243152618408203,-0.8592159152030945,-46.40121078491211,-5.612087726593018,19.610628128051758,0.7546897530555725,2.4173007011413574,-0.14590780436992645,0.0,0.0,0.0,0.0,0.0,0.0,0.0,-0.8007391217840697,-0.06920631377255168,-0.43435688308010273,0.3809447457068785,0.15554608819722482,0.14790170457728055,-0.14884533039389924,0.8780981657839657,0.7554597494309409,-0.28255296434580784,-1.6690988776260878,0.14140670933326083,2.4034458294444616,1.0273423190034099,0.878092876070424,0.7554597494309409,-0.2825552651693207,-1.6690993614607135,0.1414185955172306,2.4034451173676383,1.0273381002308042,0.001410963049117728,0.00022638003482764317,0.0002125110131075184,-0.0005374082566513249,0.0008520239529241953,-0.00015072451767776714,-0.009291983722264098,0.0,0.0,0.0,0.0,0.0,0.0,0.0,-5.2897135417451224e-06,0.0,-2.300823512879635e-06,-4.838346256974546e-07,1.188618396977259e-05,-7.120768232837804e-07,-4.218772605701915e-06,-0.001410963049117728,-0.00022638003482764317,-0.0002125110131075184,0.0005374082566513249,-0.0008520239529241953,0.00015072451767776714,0.009291983722264098,0.8592159152030945,46.40121078491211,5.612087726593018,-19.610628128051758,-0.7546897530555725,-2.4173007011413574,0.14590780436992645,0
75,0.36742663383483887,-0.8076412081718445,-46.42501449584961,-5.588284015655518,19.586824417114258,0.7427878975868225,2.4173007011413574,-0.09738485515117645,0.0,0.0,0.0,0.0,0.0,0.0,0.0,-0.8114598537322186,-0.08066345138410456,-0.43986947658416803,0.38840221826272964,0.15757721267958205,0.1484592174286335,-0.14812740532136837,0.8780945465062793,0.7554614198667962,-0.2825538279914643,-1.6690993616665832,0.14140803176164624,2.4034458294444616,1.0273369275646078,0.878092876070424,0.7554597494309409,-0.2825552651693207,-1.6690993614607135,0.1414185955172306,2.4034451173676383,1.0273381002308042,-0.000199749611492442,0.00013456483501300337,-0.00025733026953691455,0.000423628601764037,8.36501939194989e-06,-8.663847715289599e-05,-0.0021321685576098154,0.0,0.0,0.0,0.0,0.0,0.0,0.0,-1.6704358553054632e-06,-1.6704358553054632e-06,-1.4371778564448157e-06,2.058697656792674e-10,1.0563755584364065e-05,-7.120768232837804e-07,1.1726661963695761e-06,0.000199749611492442,-0.00013456483501300337,0.00025733026953691455,-0.000423628601764037,-8.36501939194989e-06,8.663847715289599e-05,0.0021321685576098154,0.8076412081718445,46.42501449584961,5.588284015655518,-19.586824417114258,-0.7427878975868225,-2.4173007011413574,0.09738485515117645,0
76,0.37243080139160156,-0.8076412081718445,-46.42501449584961,-5.588284015655518,19.586824417114258,0.7427878975868225,2.4173007011413574,-0.09738485515117645,0.0,0.0,0.0,0.0,0.0,0.0,0.0,-0.8114598537322186,-0.08066345138410456,-0.43986947658416803,0.38840221826272964,0.15757721267958205,0.1484592174286335,-0.14812740532136837,0.8780945465062793,0.7554614198667962,-0.2825538279914643,-1.6690993616665832,0.14140803176164624,2.4034458294444616,1.0273369275646078,0.878092876070424,0.7554597494309409,-0.2825552651693207,-1.6690993614607135,0.1414185955172306,2.4034451173676383,1.0273381002308042,-0.000199749611492442,0.00013456483501300337,-0.00025733026953691455,0.000423628601764037,8.36501939194989e-06,-8.663847715289599e-05,-0.0021321685576098154,0.0,0.0,0.0,0.0,0.0,0.0,0.0,-1.6704358553054632e-06,-1.6704358553054632e-06,-1.4371778564448157e-06,2.058697656792674e-10,1.0563755584364065e-05,-7.120768232837804e-07,1.1726661963695761e-06,0.000199749611492442,-0.00013456483501300337,0.00025733026953691455,-0.000423628601764037,-8.36501939194989e-06,8.663847715289599e-05,0.0021321685576098154,0.8076412081718445,46.42501449584961,5.588284015655518,-19.586824417114258,-0.7427878975868225,-2.4173007011413574,0.09738485515117645,0
77,0.37743449211120605,-0.7838374972343445,-46.37740707397461,-5.612087726593018,19.586824417114258,0.7491965889930725,2.4173007011413574,-0.11111776530742645,0.0,0.0,0.0,0.0,0.0,0.0,0.0,-0.8197678786232472,-0.08143993933936555,-0.4445742118615494,0.3894688414903017,0.1576464488040643,0.14811061827186245,-0.14627407338502857,0.878092876070424,0.7554580789950855,-0.28255288403546763,-1.6690993617877616,0.1414073196848233,2.4034458294444616,1.027338453443514,0.878092876070424,0.7554597494309409,-0.2825552651693207,-1.6690993614607135,0.1414185955172306,2.4034451173676383,1.0273381002308042,-0.0007034547693970565,-0.0007624635783777327,-0.00047246830705407913,7.54125709273691e-05,-0.0003979200983992636,-0.0002980409744870596,-0.0014363246403038719,0.0,0.0,0.0,0.0,0.0,0.0,0.0,0.0,1.6704358553054632e-06,-2.381133853091022e-06,3.2704816632644906e-10,1.1275832407287023e-05,-7.120768232837804e-07,-3.532127097471971e-07,0.0007034547693970565,0.0007624635783777327,0.00047246830705407913,-7.54125709273691e-05,0.0003979200983992636,0.0002980409744870596,0.0014363246403038719,0.7838374972343445,46.37740707397461,5.612087726593018,-19.586824417114258,-0.7491965889930725,-2.4173007011413574,0.11111776530742645,0
78,0.3824295997619629,-0.7838374972343445,-46.37740707397461,-5.612087726593018,19.586824417114258,0.7491965889930725,2.4173007011413574,-0.11111776530742645,0.0,0.0,0.0,0.0,0.0,0.0,0.0,-0.8197678786232472,-0.08143993933936555,-0.4445742118615494,0.3894688414903017,0.1576464488040643,0.14811061827186245,-0.14627407338502857,0.878092876070424,0.7554580789950855,-0.28255288403546763,-1.6690993617877616,0.1414073196848233,2.4034458294444616,1.027338453443514,0.878092876070424,0.7554597494309409,-0.2825552651693207,-1.6690993614607135,0.1414185955172306,2.4034451173676383,1.0273381002308042,-0.0007034547693970565,-0.0007624635783777327,-0.00047246830705407913,7.54125709273691e-05,-0.0003979200983992636,-0.0002980409744870596,-0.0014363246403038719,0.0,0.0,0.0,0.0,0.0,0.0,0.0,0.0,1.6704358553054632e-06,-2.381133853091022e-06,3.2704816632644906e-10,1.1275832407287023e-05,-7.120768232837804e-07,-3.532127097471971e-07,0.0007034547693970565,0.0007624635783777327,0.00047246830705407913,-7.54125709273691e-05,0.0003979200983992636,0.0002980409744870596,0.0014363246403038719,0.7838374972343445,46.37740707397461,5.612087726593018,-19.586824417114258,-0.7491965889930725,-2.4173007011413574,0.11111776530742645,0
79,0.3824295997619629,-0.7838374972343445,-46.37740707397461,-5.612087726593018,19.586824417114258,0.7491965889930725,2.4173007011413574,-0.11111776530742645,0.0,0.0,0.0,0.0,0.0,0.0,0.0,-0.8197678786232472,-0.08143993933936555,-0.4445742118615494,0.3894688414903017,0.1576464488040643,0.14811061827186245,-0.14627407338502857,0.878092876070424,0.7554580789950855,-0.28255288403546763,-1.6690993617877616,0.1414073196848233,2.4034458294444616,1.027338453443514,0.878092876070424,0.7554597494309409,-0.2825552651693207,-1.6690993614607135,0.1414185955172306,2.4034451173676383,1.0273381002308042,-0.0007034547693970565,-0.0007624635783777327,-0.00047246830705407913,7.54125709273691e-05,-0.0003979200983992636,-0.0002980409744870596,-0.0014363246403038719,0.0,0.0,0.0,0.0,0.0,0.0,0.0,0.0,1.6704358553054632e-06,-2.381133853091022e-06,3.2704816632644906e-10,1.1275832407287023e-05,-7.120768232837804e-07,-3.532127097471971e-07,0.0007034547693970565,0.0007624635783777327,0.00047246830705407913,-7.54125709273691e-05,0.0003979200983992636,0.0002980409744870596,0.0014363246403038719,0.7838374972343445,46.37740707397461,5.612087726593018,-19.586824417114258,-0.7491965889930725,-2.4173007011413574,0.11111776530742645,0
80,0.39246678352355957,-0.8592159152030945,-46.37740707397461,-5.564480304718018,19.610628128051758,0.7491965889930725,2.4108920097351074,-0.11111776530742645,0.0,0.0,0.0,0.0,0.0,0.0,0.0,-0.8218248007061376,-0.07634672756555695,-0.44707800341388443,0.3875960351005786,0.1576518540206333,0.14776747960927744,-0.14517284123514873,0.8780981667651121,0.7554580789950855,-0.2825576965917269,-1.6691010321872788,0.1414073196848233,2.4034465415212845,1.027338453443514,0.878092876070424,0.7554597494309409,-0.2825552651693207,-1.6690993614607135,0.1414185955172306,2.4034451173676383,1.0273381002308042,0.0006266011445514913,-0.0007736268580711556,-0.0019253196029428825,-0.0002548682394973634,-0.00011379544086976957,0.0002161451535199246,-0.0014853879737609186,0.0,0.0,0.0,0.0,0.0,0.0,0.0,-5.290694688131481e-06,1.6704358553054632e-06,2.431422406190542e-06,1.6707265653170822e-06,1.1275832407287023e-05,-1.4241536461234716e-06,-3.532127097471971e-07,-0.0006266011445514913,0.0007736268580711556,0.0019253196029428825,0.0002548682394973634,0.00011379544086976957,-0.0002161451535199246,0.0014853879737609186,0.8592159152030945,46.37740707397461,5.564480304718018,-19.610628128051758,-0.7491965889930725,-2.4108920097351074,0.11111776530742645,0
