rezayati/contactInterpretation/dataset/franka_main/labeled_data/link2/f4_7.csv
index,time,tau_J0,tau_J1,tau_J2,tau_J3,tau_J4,tau_J5,tau_J6,tau_J_d0,tau_J_d1,tau_J_d2,tau_J_d3,tau_J_d4,tau_J_d5,tau_J_d6,tau_ext0,tau_ext1,tau_ext2,tau_ext3,tau_ext4,tau_ext5,tau_ext6,q0,q1,q2,q3,q4,q5,q6,q_d0,q_d1,q_d2,q_d3,q_d4,q_d5,q_d6,dq0,dq1,dq2,dq3,dq4,dq5,dq6,dq_d0,dq_d1,dq_d2,dq_d3,dq_d4,dq_d5,dq_d6,e0,e1,e2,e3,e4,e5,e6,de0,de1,de2,de3,de4,de5,de6,etau_J0,etau_J1,etau_J2,etau_J3,etau_J4,etau_J5,etau_J6,label
1,0.0,-0.09352988004684448,-12.024682998657227,1.2909882068634033,21.768831253051758,0.4031272530555725,2.5335726737976074,-0.20724813640117645,0.0,0.0,0.0,0.0,0.0,0.0,0.0,-0.1082276754553232,0.302470812735039,0.10660482574115858,0.4811051703103796,-0.12774398381908794,0.12566286378574376,-0.20527800828965279,0.1727807442702745,-0.48744146571243013,-0.11146722044799139,-1.9464044273397205,0.13360808887016618,2.5955496477020374,0.9452476107196676,0.1728802376190821,-0.48752024683155326,-0.11147110072896137,-1.9463801863486305,0.1336059019074957,2.595550359778934,0.9452445589611904,-0.00031927701566160995,1.1603813743177734e-05,0.0002116095723955545,0.00015632640101749645,7.997813962808237e-06,-0.000277480119297836,0.00015866179856105156,0.0,0.0,0.0,0.0,0.0,0.0,0.0,9.949334880759997e-05,-7.878111912312802e-05,-3.880280969981165e-06,2.4240991089996555e-05,-2.1869626704862366e-06,7.120768965585e-07,-3.051758477146116e-06,0.00031927701566160995,-1.1603813743177734e-05,-0.0002116095723955545,-0.00015632640101749645,-7.997813962808237e-06,0.000277480119297836,-0.00015866179856105156,0.09352988004684448,12.024682998657227,-1.2909882068634033,-21.768831253051758,-0.4031272530555725,-2.5335726737976074,0.20724813640117645,0
2,0.0050029754638671875,-0.09352988004684448,-12.024682998657227,1.2909882068634033,21.768831253051758,0.4031272530555725,2.5335726737976074,-0.20724813640117645,0.0,0.0,0.0,0.0,0.0,0.0,0.0,-0.1082276754553232,0.302470812735039,0.10660482574115858,0.4811051703103796,-0.12774398381908794,0.12566286378574376,-0.20527800828965279,0.1727807442702745,-0.48744146571243013,-0.11146722044799139,-1.9464044273397205,0.13360808887016618,2.5955496477020374,0.9452476107196676,0.1728802376190821,-0.48752024683155326,-0.11147110072896137,-1.9463801863486305,0.1336059019074957,2.595550359778934,0.9452445589611904,-0.00031927701566160995,1.1603813743177734e-05,0.0002116095723955545,0.00015632640101749645,7.997813962808237e-06,-0.000277480119297836,0.00015866179856105156,0.0,0.0,0.0,0.0,0.0,0.0,0.0,9.949334880759997e-05,-7.878111912312802e-05,-3.880280969981165e-06,2.4240991089996555e-05,-2.1869626704862366e-06,7.120768965585e-07,-3.051758477146116e-06,0.00031927701566160995,-1.1603813743177734e-05,-0.0002116095723955545,-0.00015632640101749645,-7.997813962808237e-06,0.000277480119297836,-0.00015866179856105156,0.09352988004684448,12.024682998657227,-1.2909882068634033,-21.768831253051758,-0.4031272530555725,-2.5335726737976074,0.20724813640117645,0
3,0.009998798370361328,-0.09352988004684448,-12.048486709594727,1.2671844959259033,21.792634963989258,0.4150291085243225,2.5207552909851074,-0.18710653483867645,0.0,0.0,0.0,0.0,0.0,0.0,0.0,-0.10818371199278948,0.2915775837024506,0.10826143119534379,0.4849853136847131,-0.1279005182533701,0.1262894371144534,-0.2069102533875233,0.1727807442702745,-0.4874397952765749,-0.11146552403007398,-1.9464060977634627,0.1336067532787434,2.595551071855757,0.9452453727639384,0.1728802376190821,-0.48752024683155326,-0.11147110072896137,-1.9463801863486305,0.1336059019074957,2.595550359778934,0.9452445589611904,-0.0006318557799810871,-0.0005762867763377754,0.0005310165446504153,-0.0006987833892263225,-0.000353158290430664,0.0002569185374693575,-0.00015455479418998618,0.0,0.0,0.0,0.0,0.0,0.0,0.0,9.949334880759997e-05,-8.045155497837797e-05,-5.576698887385656e-06,2.591141483221371e-05,-8.51371247723165e-07,-7.120768228396912e-07,-8.138027479676069e-07,0.0006318557799810871,0.0005762867763377754,-0.0005310165446504153,0.0006987833892263225,0.000353158290430664,-0.0002569185374693575,0.00015455479418998618,0.09352988004684448,12.048486709594727,-1.2671844959259033,-21.792634963989258,-0.4150291085243225,-2.5207552909851074,0.18710653483867645,0
4,0.014996528625488281,-0.09352988004684448,-12.048486709594727,1.2671844959259033,21.792634963989258,0.4150291085243225,2.5207552909851074,-0.18710653483867645,0.0,0.0,0.0,0.0,0.0,0.0,0.0,-0.10818371199278948,0.2915775837024506,0.10826143119534379,0.4849853136847131,-0.1279005182533701,0.1262894371144534,-0.2069102533875233,0.1727807442702745,-0.4874397952765749,-0.11146552403007398,-1.9464060977634627,0.1336067532787434,2.595551071855757,0.9452453727639384,0.1728802376190821,-0.48752024683155326,-0.11147110072896137,-1.9463801863486305,0.1336059019074957,2.595550359778934,0.9452445589611904,-0.0006318557799810871,-0.0005762867763377754,0.0005310165446504153,-0.0006987833892263225,-0.000353158290430664,0.0002569185374693575,-0.00015455479418998618,0.0,0.0,0.0,0.0,0.0,0.0,0.0,9.949334880759997e-05,-8.045155497837797e-05,-5.576698887385656e-06,2.591141483221371e-05,-8.51371247723165e-07,-7.120768228396912e-07,-8.138027479676069e-07,0.0006318557799810871,0.0005762867763377754,-0.0005310165446504153,0.0006987833892263225,0.000353158290430664,-0.0002569185374693575,0.00015455479418998618,0.09352988004684448,12.048486709594727,-1.2671844959259033,-21.792634963989258,-0.4150291085243225,-2.5207552909851074,0.18710653483867645,0
5,0.019997835159301758,-0.12130087614059448,-12.100061416625977,1.2671844959259033,21.792634963989258,0.4095359444618225,2.5271639823913574,-0.21457235515117645,0.0,0.0,0.0,0.0,0.0,0.0,0.0,-0.1053574715500125,0.2835773070302712,0.1123642894444638,0.48576284467839875,-0.12759784268194035,0.12664876472400993,-0.20710307752200532,0.17278269311210565,-0.48743617599888844,-0.11146765457120039,-1.9464082435306747,0.133607376793946,2.595550359778934,0.9452484245217508,0.1728802376190821,-0.48752024683155326,-0.11147110072896137,-1.9463801863486305,0.1336059019074957,2.595550359778934,0.9452445589611904,0.00047444225165659345,0.000625497181442388,0.0010576529738107097,-0.0007694812033637986,-4.5502376486171075e-05,4.080762473455283e-05,0.0011206968013616743,0.0,0.0,0.0,0.0,0.0,0.0,0.0,9.754450697646577e-05,-8.407083266481763e-05,-3.4461577609751215e-06,2.805718204412777e-05,-1.4748864503033587e-06,0.0,-3.865560560423198e-06,-0.00047444225165659345,-0.000625497181442388,-0.0010576529738107097,0.0007694812033637986,4.5502376486171075e-05,-4.080762473455283e-05,-0.0011206968013616743,0.12130087614059448,12.100061416625977,-1.2671844959259033,-21.792634963989258,-0.4095359444618225,-2.5271639823913574,0.21457235515117645,0
6,0.025026798248291016,-0.12130087614059448,-12.100061416625977,1.2671844959259033,21.792634963989258,0.4095359444618225,2.5271639823913574,-0.21457235515117645,0.0,0.0,0.0,0.0,0.0,0.0,0.0,-0.1053574715500125,0.2835773070302712,0.1123642894444638,0.48576284467839875,-0.12759784268194035,0.12664876472400993,-0.20710307752200532,0.17278269311210565,-0.48743617599888844,-0.11146765457120039,-1.9464082435306747,0.133607376793946,2.595550359778934,0.9452484245217508,0.1728802376190821,-0.48752024683155326,-0.11147110072896137,-1.9463801863486305,0.1336059019074957,2.595550359778934,0.9452445589611904,0.00047444225165659345,0.000625497181442388,0.0010576529738107097,-0.0007694812033637986,-4.5502376486171075e-05,4.080762473455283e-05,0.0011206968013616743,0.0,0.0,0.0,0.0,0.0,0.0,0.0,9.754450697646577e-05,-8.407083266481763e-05,-3.4461577609751215e-06,2.805718204412777e-05,-1.4748864503033587e-06,0.0,-3.865560560423198e-06,-0.00047444225165659345,-0.000625497181442388,-0.0010576529738107097,0.0007694812033637986,4.5502376486171075e-05,-4.080762473455283e-05,-0.0011206968013616743,0.12130087614059448,12.100061416625977,-1.2671844959259033,-21.792634963989258,-0.4095359444618225,-2.5271639823913574,0.21457235515117645,0
7,0.025026798248291016,-0.12130087614059448,-12.100061416625977,1.2671844959259033,21.792634963989258,0.4095359444618225,2.5271639823913574,-0.21457235515117645,0.0,0.0,0.0,0.0,0.0,0.0,0.0,-0.1053574715500125,0.2835773070302712,0.1123642894444638,0.48576284467839875,-0.12759784268194035,0.12664876472400993,-0.20710307752200532,0.17278269311210565,-0.48743617599888844,-0.11146765457120039,-1.9464082435306747,0.133607376793946,2.595550359778934,0.9452484245217508,0.1728802376190821,-0.48752024683155326,-0.11147110072896137,-1.9463801863486305,0.1336059019074957,2.595550359778934,0.9452445589611904,0.00047444225165659345,0.000625497181442388,0.0010576529738107097,-0.0007694812033637986,-4.5502376486171075e-05,4.080762473455283e-05,0.0011206968013616743,0.0,0.0,0.0,0.0,0.0,0.0,0.0,9.754450697646577e-05,-8.407083266481763e-05,-3.4461577609751215e-06,2.805718204412777e-05,-1.4748864503033587e-06,0.0,-3.865560560423198e-06,-0.00047444225165659345,-0.000625497181442388,-0.0010576529738107097,0.0007694812033637986,4.5502376486171075e-05,-4.080762473455283e-05,-0.0011206968013616743,0.12130087614059448,12.100061416625977,-1.2671844959259033,-21.792634963989258,-0.4095359444618225,-2.5271639823913574,0.21457235515117645,0
8,0.03500795364379883,-0.17287558317184448,-12.024682998657227,1.3147919178009033,21.768831253051758,0.4031272530555725,2.5271639823913574,-0.20724813640117645,0.0,0.0,0.0,0.0,0.0,0.0,0.0,-0.10516569220375281,0.28888772255043227,0.11076457327482704,0.480159995699555,-0.12791736575195325,0.12632052016371847,-0.20627832133258522,0.17278631238979206,-0.48744146571243013,-0.11146886751188587,-1.9464044273397205,0.13360804742952007,2.595550359778934,0.9452476107196676,0.1728802376190821,-0.48752024683155326,-0.11147110072896137,-1.9463801863486305,0.1336059019074957,2.595550359778934,0.9452445589611904,0.001385438665381507,-0.0008884039409597917,-0.00023963865266538316,0.0001470705772130692,-4.730654336875652e-06,-2.634360429598424e-05,0.0004999383679576778,0.0,0.0,0.0,0.0,0.0,0.0,0.0,9.392522929005387e-05,-7.878111912312802e-05,-2.2332170755007263e-06,2.4240991089996555e-05,-2.1455220243771222e-06,0.0,-3.051758477146116e-06,-0.001385438665381507,0.0008884039409597917,0.00023963865266538316,-0.0001470705772130692,4.730654336875652e-06,2.634360429598424e-05,-0.0004999383679576778,0.17287558317184448,12.024682998657227,-1.3147919178009033,-21.768831253051758,-0.4031272530555725,-2.5271639823913574,0.20724813640117645,0
9,0.03995656967163086,-0.17287558317184448,-12.024682998657227,1.3147919178009033,21.768831253051758,0.4031272530555725,2.5271639823913574,-0.20724813640117645,0.0,0.0,0.0,0.0,0.0,0.0,0.0,-0.10516569220375281,0.28888772255043227,0.11076457327482704,0.480159995699555,-0.12791736575195325,0.12632052016371847,-0.20627832133258522,0.17278631238979206,-0.48744146571243013,-0.11146886751188587,-1.9464044273397205,0.13360804742952007,2.595550359778934,0.9452476107196676,0.1728802376190821,-0.48752024683155326,-0.11147110072896137,-1.9463801863486305,0.1336059019074957,2.595550359778934,0.9452445589611904,0.001385438665381507,-0.0008884039409597917,-0.00023963865266538316,0.0001470705772130692,-4.730654336875652e-06,-2.634360429598424e-05,0.0004999383679576778,0.0,0.0,0.0,0.0,0.0,0.0,0.0,9.392522929005387e-05,-7.878111912312802e-05,-2.2332170755007263e-06,2.4240991089996555e-05,-2.1455220243771222e-06,0.0,-3.051758477146116e-06,-0.001385438665381507,0.0008884039409597917,0.00023963865266538316,-0.0001470705772130692,4.730654336875652e-06,2.634360429598424e-05,-0.0004999383679576778,0.17287558317184448,12.024682998657227,-1.3147919178009033,-21.768831253051758,-0.4031272530555725,-2.5271639823913574,0.20724813640117645,0
10,0.04500150680541992,-0.17287558317184448,-12.024682998657227,1.3147919178009033,21.768831253051758,0.4031272530555725,2.5271639823913574,-0.20724813640117645,0.0,0.0,0.0,0.0,0.0,0.0,0.0,-0.10516569220375281,0.28888772255043227,0.11076457327482704,0.480159995699555,-0.12791736575195325,0.12632052016371847,-0.20627832133258522,0.17278631238979206,-0.48744146571243013,-0.11146886751188587,-1.9464044273397205,0.13360804742952007,2.595550359778934,0.9452476107196676,0.1728802376190821,-0.48752024683155326,-0.11147110072896137,-1.9463801863486305,0.1336059019074957,2.595550359778934,0.9452445589611904,0.001385438665381507,-0.0008884039409597917,-0.00023963865266538316,0.0001470705772130692,-4.730654336875652e-06,-2.634360429598424e-05,0.0004999383679576778,0.0,0.0,0.0,0.0,0.0,0.0,0.0,9.392522929005387e-05,-7.878111912312802e-05,-2.2332170755007263e-06,2.4240991089996555e-05,-2.1455220243771222e-06,0.0,-3.051758477146116e-06,-0.001385438665381507,0.0008884039409597917,0.00023963865266538316,-0.0001470705772130692,4.730654336875652e-06,2.634360429598424e-05,-0.0004999383679576778,0.17287558317184448,12.024682998657227,-1.3147919178009033,-21.768831253051758,-0.4031272530555725,-2.5271639823913574,0.20724813640117645,0
11,0.0500030517578125,-0.17287558317184448,-12.024682998657227,1.3147919178009033,21.768831253051758,0.4031272530555725,2.5271639823913574,-0.20724813640117645,0.0,0.0,0.0,0.0,0.0,0.0,0.0,-0.10516569220375281,0.28888772255043227,0.11076457327482704,0.480159995699555,-0.12791736575195325,0.12632052016371847,-0.20627832133258522,0.17278631238979206,-0.48744146571243013,-0.11146886751188587,-1.9464044273397205,0.13360804742952007,2.595550359778934,0.9452476107196676,0.1728802376190821,-0.48752024683155326,-0.11147110072896137,-1.9463801863486305,0.1336059019074957,2.595550359778934,0.9452445589611904,0.001385438665381507,-0.0008884039409597917,-0.00023963865266538316,0.0001470705772130692,-4.730654336875652e-06,-2.634360429598424e-05,0.0004999383679576778,0.0,0.0,0.0,0.0,0.0,0.0,0.0,9.392522929005387e-05,-7.878111912312802e-05,-2.2332170755007263e-06,2.4240991089996555e-05,-2.1455220243771222e-06,0.0,-3.051758477146116e-06,-0.001385438665381507,0.0008884039409597917,0.00023963865266538316,-0.0001470705772130692,4.730654336875652e-06,2.634360429598424e-05,-0.0004999383679576778,0.17287558317184448,12.024682998657227,-1.3147919178009033,-21.768831253051758,-0.4031272530555725,-2.5271639823913574,0.20724813640117645,0
12,0.055208683013916016,-0.09352988004684448,-12.000879287719727,1.2909882068634033,21.792634963989258,0.4031272530555725,2.5335726737976074,-0.16604940593242645,0.0,0.0,0.0,0.0,0.0,0.0,0.0,-0.1070351645974783,0.30462183733334847,0.10976221694295694,0.47139259220388946,-0.12865480587202843,0.12441767654874324,-0.2062163319714688,0.17278074567436366,-0.4874431361482854,-0.11146719511535257,-1.9464060977634627,0.13360702260974164,2.595549647702111,0.9452430330829488,0.1728802376190821,-0.48752024683155326,-0.11147110072896137,-1.9463801863486305,0.1336059019074957,2.595550359778934,0.9452445589611904,-0.0001427783784988186,-0.00018917035183851986,-0.00014682737230387166,-0.0009466169753484126,7.757135217103918e-05,-0.0007203202785036006,-0.0014707745859902058,0.0,0.0,0.0,0.0,0.0,0.0,0.0,9.949194471844947e-05,-7.711068326787807e-05,-3.905613608801151e-06,2.591141483221371e-05,-1.1207022459491789e-06,7.120768228396912e-07,1.525878241648293e-06,0.0001427783784988186,0.00018917035183851986,0.00014682737230387166,0.0009466169753484126,-7.757135217103918e-05,0.0007203202785036006,0.0014707745859902058,0.09352988004684448,12.000879287719727,-1.2909882068634033,-21.792634963989258,-0.4031272530555725,-2.5335726737976074,0.16604940593242645,0
13,0.05997061729431152,-0.09352988004684448,-12.000879287719727,1.2909882068634033,21.792634963989258,0.4031272530555725,2.5335726737976074,-0.16604940593242645,0.0,0.0,0.0,0.0,0.0,0.0,0.0,-0.1070351645974783,0.30462183733334847,0.10976221694295694,0.47139259220388946,-0.12865480587202843,0.12441767654874324,-0.2062163319714688,0.17278074567436366,-0.4874431361482854,-0.11146719511535257,-1.9464060977634627,0.13360702260974164,2.595549647702111,0.9452430330829488,0.1728802376190821,-0.48752024683155326,-0.11147110072896137,-1.9463801863486305,0.1336059019074957,2.595550359778934,0.9452445589611904,-0.0001427783784988186,-0.00018917035183851986,-0.00014682737230387166,-0.0009466169753484126,7.757135217103918e-05,-0.0007203202785036006,-0.0014707745859902058,0.0,0.0,0.0,0.0,0.0,0.0,0.0,9.949194471844947e-05,-7.711068326787807e-05,-3.905613608801151e-06,2.591141483221371e-05,-1.1207022459491789e-06,7.120768228396912e-07,1.525878241648293e-06,0.0001427783784988186,0.00018917035183851986,0.00014682737230387166,0.0009466169753484126,-7.757135217103918e-05,0.0007203202785036006,0.0014707745859902058,0.09352988004684448,12.000879287719727,-1.2909882068634033,-21.792634963989258,-0.4031272530555725,-2.5335726737976074,0.16604940593242645,0
14,0.06499958038330078,-0.12130087614059448,-11.973108291625977,1.2909882068634033,21.741060256958008,0.4095359444618225,2.5207552909851074,-0.19351522624492645,0.0,0.0,0.0,0.0,0.0,0.0,0.0,-0.10830078532850251,0.2855128327141184,0.10679426183723788,0.48303376181271623,-0.12859367127194632,0.1250509695233356,-0.20694913899803535,0.17278269311212943,-0.4874450849901165,-0.1114671941410196,-1.9464031937415138,0.13360721734875516,2.595551071855757,0.9452460848407613,0.1728802376190821,-0.48752024683155326,-0.11147110072896137,-1.9463801863486305,0.1336059019074957,2.595550359778934,0.9452445589611904,-0.00012569335353955794,-0.0014551698599109437,0.00022223800702267417,0.0005229842992679551,-0.00015962116365948517,3.2127153374383654e-05,-3.228096369579186e-05,0.0,0.0,0.0,0.0,0.0,0.0,0.0,9.754450695267924e-05,-7.516184143674387e-05,-3.906587941762685e-06,2.300739288330078e-05,-1.3154412594751363e-06,-7.120768228396912e-07,-1.5258795709183204e-06,0.00012569335353955794,0.0014551698599109437,-0.00022223800702267417,-0.0005229842992679551,0.00015962116365948517,-3.2127153374383654e-05,3.228096369579186e-05,0.12130087614059448,11.973108291625977,-1.2909882068634033,-21.741060256958008,-0.4095359444618225,-2.5207552909851074,0.19351522624492645,0
15,0.06999492645263672,-0.12130087614059448,-11.973108291625977,1.2909882068634033,21.741060256958008,0.4095359444618225,2.5207552909851074,-0.19351522624492645,0.0,0.0,0.0,0.0,0.0,0.0,0.0,-0.10830078532850251,0.2855128327141184,0.10679426183723788,0.48303376181271623,-0.12859367127194632,0.1250509695233356,-0.20694913899803535,0.17278269311212943,-0.4874450849901165,-0.1114671941410196,-1.9464031937415138,0.13360721734875516,2.595551071855757,0.9452460848407613,0.1728802376190821,-0.48752024683155326,-0.11147110072896137,-1.9463801863486305,0.1336059019074957,2.595550359778934,0.9452445589611904,-0.00012569335353955794,-0.0014551698599109437,0.00022223800702267417,0.0005229842992679551,-0.00015962116365948517,3.2127153374383654e-05,-3.228096369579186e-05,0.0,0.0,0.0,0.0,0.0,0.0,0.0,9.754450695267924e-05,-7.516184143674387e-05,-3.906587941762685e-06,2.300739288330078e-05,-1.3154412594751363e-06,-7.120768228396912e-07,-1.5258795709183204e-06,0.00012569335353955794,0.0014551698599109437,-0.00022223800702267417,-0.0005229842992679551,0.00015962116365948517,-3.2127153374383654e-05,3.228096369579186e-05,0.12130087614059448,11.973108291625977,-1.2909882068634033,-21.741060256958008,-0.4095359444618225,-2.5207552909851074,0.19351522624492645,0
16,0.0749979019165039,-0.09352988004684448,-12.048486709594727,1.3147919178009033,21.768831253051758,0.3976340889930725,2.5207552909851074,-0.21457235515117645,0.0,0.0,0.0,0.0,0.0,0.0,0.0,-0.10949713260908275,0.28402855614883105,0.10539863962680146,0.4856905405536181,-0.12857633766333754,0.12477840343273591,-0.20741622568636492,0.1727807442702745,-0.4874397952765749,-0.1114688687989676,-1.9464044273289534,0.13360869467168593,2.595551071855757,0.9452484245217508,0.1728802376190821,-0.48752024683155326,-0.11147110072896137,-1.9463801863486305,0.1336059019074957,2.595550359778934,0.9452445589611904,-0.00032724911836640847,0.00014621371116758353,-0.0004685851055813808,3.1422933790332715e-05,0.00041035908972286895,0.00023017146113882004,0.0007222036195198407,0.0,0.0,0.0,0.0,0.0,0.0,0.0,9.949334880759997e-05,-8.045155497837797e-05,-2.231929993767867e-06,2.4240980322831618e-05,-2.7927641902403266e-06,-7.120768228396912e-07,-3.865560560423198e-06,0.00032724911836640847,-0.00014621371116758353,0.0004685851055813808,-3.1422933790332715e-05,-0.00041035908972286895,-0.00023017146113882004,-0.0007222036195198407,0.09352988004684448,12.048486709594727,-1.3147919178009033,-21.768831253051758,-0.3976340889930725,-2.5207552909851074,0.21457235515117645,0
17,0.0800008773803711,-0.09352988004684448,-12.048486709594727,1.3147919178009033,21.768831253051758,0.3976340889930725,2.5207552909851074,-0.21457235515117645,0.0,0.0,0.0,0.0,0.0,0.0,0.0,-0.10949713260908275,0.28402855614883105,0.10539863962680146,0.4856905405536181,-0.12857633766333754,0.12477840343273591,-0.20741622568636492,0.1727807442702745,-0.4874397952765749,-0.1114688687989676,-1.9464044273289534,0.13360869467168593,2.595551071855757,0.9452484245217508,0.1728802376190821,-0.48752024683155326,-0.11147110072896137,-1.9463801863486305,0.1336059019074957,2.595550359778934,0.9452445589611904,-0.00032724911836640847,0.00014621371116758353,-0.0004685851055813808,3.1422933790332715e-05,0.00041035908972286895,0.00023017146113882004,0.0007222036195198407,0.0,0.0,0.0,0.0,0.0,0.0,0.0,9.949334880759997e-05,-8.045155497837797e-05,-2.231929993767867e-06,2.4240980322831618e-05,-2.7927641902403266e-06,-7.120768228396912e-07,-3.865560560423198e-06,0.00032724911836640847,-0.00014621371116758353,0.0004685851055813808,-3.1422933790332715e-05,-0.00041035908972286895,-0.00023017146113882004,-0.0007222036195198407,0.09352988004684448,12.048486709594727,-1.3147919178009033,-21.768831253051758,-0.3976340889930725,-2.5207552909851074,0.21457235515117645,0
18,0.08499956130981445,-0.04592245817184448,-12.048486709594727,1.3147919178009033,21.792634963989258,0.4031272530555725,2.5399813652038574,-0.22098104655742645,0.0,0.0,0.0,0.0,0.0,0.0,0.0,-0.1046069595609785,0.29499563950636787,0.11111213117427793,0.47981371203353923,-0.1286276642867738,0.1241742355675287,-0.2068845200993146,0.17277740339856398,-0.4874397952765749,-0.11146894349784704,-1.9464068130192,0.1336076939052134,2.5955489356252883,0.9452491365985738,0.1728802376190821,-0.48752024683155326,-0.11147110072896137,-1.9463801863486305,0.1336059019074957,2.595550359778934,0.9452445589611904,-0.0015096339154992964,0.0002868244174155846,0.0005884673355245679,-0.0005760623619252878,0.00016966362163128374,-0.0005064493712977087,0.0011996978549448315,0.0,0.0,0.0,0.0,0.0,0.0,0.0,0.00010283422051812763,-8.045155497837797e-05,-2.1572311143247536e-06,2.6626670569518396e-05,-1.7919977177149882e-06,1.4241536456793824e-06,-4.5776373833739115e-06,0.0015096339154992964,-0.0002868244174155846,-0.0005884673355245679,0.0005760623619252878,-0.00016966362163128374,0.0005064493712977087,-0.0011996978549448315,0.04592245817184448,12.048486709594727,-1.3147919178009033,-21.792634963989258,-0.4031272530555725,-2.5399813652038574,0.22098104655742645,0
19,0.09000015258789062,-0.04592245817184448,-12.048486709594727,1.3147919178009033,21.792634963989258,0.4031272530555725,2.5399813652038574,-0.22098104655742645,0.0,0.0,0.0,0.0,0.0,0.0,0.0,-0.1046069595609785,0.29499563950636787,0.11111213117427793,0.47981371203353923,-0.1286276642867738,0.1241742355675287,-0.2068845200993146,0.17277740339856398,-0.4874397952765749,-0.11146894349784704,-1.9464068130192,0.1336076939052134,2.5955489356252883,0.9452491365985738,0.1728802376190821,-0.48752024683155326,-0.11147110072896137,-1.9463801863486305,0.1336059019074957,2.595550359778934,0.9452445589611904,-0.0015096339154992964,0.0002868244174155846,0.0005884673355245679,-0.0005760623619252878,0.00016966362163128374,-0.0005064493712977087,0.0011996978549448315,0.0,0.0,0.0,0.0,0.0,0.0,0.0,0.00010283422051812763,-8.045155497837797e-05,-2.1572311143247536e-06,2.6626670569518396e-05,-1.7919977177149882e-06,1.4241536456793824e-06,-4.5776373833739115e-06,0.0015096339154992964,-0.0002868244174155846,-0.0005884673355245679,0.0005760623619252878,-0.00016966362163128374,0.0005064493712977087,-0.0011996978549448315,0.04592245817184448,12.048486709594727,-1.3147919178009033,-21.792634963989258,-0.4031272530555725,-2.5399813652038574,0.22098104655742645,0
20,0.09499931335449219,-0.04592245817184448,-12.048486709594727,1.3425629138946533,21.741060256958008,0.4095359444618225,2.5271639823913574,-0.20724813640117645,0.0,0.0,0.0,0.0,0.0,0.0,0.0,-0.11049813529558457,0.29439355644942233,0.10256452653560877,0.47742614694043967,-0.12790932142174624,0.12498432235937611,-0.20557193400844184,0.17277740339856398,-0.4874397952765749,-0.11147081345522143,-1.946402560906113,0.13360737673761905,2.595550359778934,0.9452476107196676,0.1728802376190821,-0.48752024683155326,-0.11147110072896137,-1.9463801863486305,0.1336059019074957,2.595550359778934,0.9452445589611904,-0.001467362035948299,0.00011571752161540396,-0.0010680851521294118,0.0005005347876949219,-0.00024254906722967113,-5.304628479996485e-05,-1.97418219461387e-06,0.0,0.0,0.0,0.0,0.0,0.0,0.0,0.00010283422051812763,-8.045155497837797e-05,-2.8727373993509e-07,2.2374557482551793e-05,-1.474830123360249e-06,0.0,-3.051758477146116e-06,0.001467362035948299,-0.00011571752161540396,0.0010680851521294118,-0.0005005347876949219,0.00024254906722967113,5.304628479996485e-05,1.97418219461387e-06,0.04592245817184448,12.048486709594727,-1.3425629138946533,-21.741060256958008,-0.4095359444618225,-2.5271639823913574,0.20724813640117645,0
21,0.10001540184020996,-0.04592245817184448,-12.048486709594727,1.3425629138946533,21.741060256958008,0.4095359444618225,2.5271639823913574,-0.20724813640117645,0.0,0.0,0.0,0.0,0.0,0.0,0.0,-0.11049813529558457,0.29439355644942233,0.10256452653560877,0.47742614694043967,-0.12790932142174624,0.12498432235937611,-0.20557193400844184,0.17277740339856398,-0.4874397952765749,-0.11147081345522143,-1.946402560906113,0.13360737673761905,2.595550359778934,0.9452476107196676,0.1728802376190821,-0.48752024683155326,-0.11147110072896137,-1.9463801863486305,0.1336059019074957,2.595550359778934,0.9452445589611904,-0.001467362035948299,0.00011571752161540396,-0.0010680851521294118,0.0005005347876949219,-0.00024254906722967113,-5.304628479996485e-05,-1.97418219461387e-06,0.0,0.0,0.0,0.0,0.0,0.0,0.0,0.00010283422051812763,-8.045155497837797e-05,-2.8727373993509e-07,2.2374557482551793e-05,-1.474830123360249e-06,0.0,-3.051758477146116e-06,0.001467362035948299,-0.00011571752161540396,0.0010680851521294118,-0.0005005347876949219,0.00024254906722967113,5.304628479996485e-05,1.97418219461387e-06,0.04592245817184448,12.048486709594727,-1.3425629138946533,-21.741060256958008,-0.4095359444618225,-2.5271639823913574,0.20724813640117645,0
22,0.1050267219543457,-0.09352988004684448,-12.024682998657227,1.3147919178009033,21.768831253051758,0.4031272530555725,2.5143465995788574,-0.14590780436992645,0.0,0.0,0.0,0.0,0.0,0.0,0.0,-0.10865474569818966,0.29563232456075733,0.10673805677618499,0.4770048260174528,-0.1277803878595729,0.1257788481715615,-0.20539289333036975,0.17278077051594115,-0.48744146571243013,-0.11146886457685858,-1.9464044273280727,0.13360453466795075,2.5955517839325797,0.9452407951272196,0.1728802376190821,-0.48752024683155326,-0.11147110072896137,-1.9463801863486305,0.1336059019074957,2.595550359778934,0.9452445589611904,-0.0006291172523137276,0.000128110152147235,-0.00021264669006620222,0.0001325998940920812,-3.3299814105651627e-05,0.0002992559411015315,-0.0021310994697090625,0.0,0.0,0.0,0.0,0.0,0.0,0.0,9.946710314095997e-05,-7.878111912312802e-05,-2.2361521027913778e-06,2.4240979442202715e-05,1.3672395449415564e-06,-1.4241536456793824e-06,3.763833970826802e-06,0.0006291172523137276,-0.000128110152147235,0.00021264669006620222,-0.0001325998940920812,3.3299814105651627e-05,-0.0002992559411015315,0.0021310994697090625,0.09352988004684448,12.024682998657227,-1.3147919178009033,-21.768831253051758,-0.4031272530555725,-2.5143465995788574,0.14590780436992645,0
23,0.10999917984008789,-0.09352988004684448,-12.024682998657227,1.3147919178009033,21.768831253051758,0.4031272530555725,2.5143465995788574,-0.14590780436992645,0.0,0.0,0.0,0.0,0.0,0.0,0.0,-0.10865474569818966,0.29563232456075733,0.10673805677618499,0.4770048260174528,-0.1277803878595729,0.1257788481715615,-0.20539289333036975,0.17278077051594115,-0.48744146571243013,-0.11146886457685858,-1.9464044273280727,0.13360453466795075,2.5955517839325797,0.9452407951272196,0.1728802376190821,-0.48752024683155326,-0.11147110072896137,-1.9463801863486305,0.1336059019074957,2.595550359778934,0.9452445589611904,-0.0006291172523137276,0.000128110152147235,-0.00021264669006620222,0.0001325998940920812,-3.3299814105651627e-05,0.0002992559411015315,-0.0021310994697090625,0.0,0.0,0.0,0.0,0.0,0.0,0.0,9.946710314095997e-05,-7.878111912312802e-05,-2.2361521027913778e-06,2.4240979442202715e-05,1.3672395449415564e-06,-1.4241536456793824e-06,3.763833970826802e-06,0.0006291172523137276,-0.000128110152147235,0.00021264669006620222,-0.0001325998940920812,3.3299814105651627e-05,-0.0002992559411015315,0.0021310994697090625,0.09352988004684448,12.024682998657227,-1.3147919178009033,-21.768831253051758,-0.4031272530555725,-2.5143465995788574,0.14590780436992645,0
24,0.11500263214111328,-0.12130087614059448,-12.072290420532227,1.2909882068634033,21.768831253051758,0.4214377999305725,2.5271639823913574,-0.21457235515117645,0.0,0.0,0.0,0.0,0.0,0.0,0.0,-0.10561878782050906,0.2897085566404499,0.11381986437304507,0.4797397254498458,-0.1286413800109421,0.1255360550823485,-0.20461018241431148,0.1727826931122538,-0.4874381248407196,-0.11146719544011363,-1.9464044273639463,0.1336060411818569,2.595550359778934,0.9452484245217508,0.1728802376190821,-0.48752024683155326,-0.11147110072896137,-1.9463801863486305,0.1336059019074957,2.595550359778934,0.9452445589611904,0.0005544562819760731,0.0009619296019326955,0.0005117880570685404,0.00019195238661864469,-0.0005839826041573573,-0.0001999569366476541,0.0014101481514405042,0.0,0.0,0.0,0.0,0.0,0.0,0.0,9.754450682830651e-05,-8.212199083368343e-05,-3.905288847735888e-06,2.4241015315729086e-05,-1.392743612105285e-07,0.0,-3.865560560423198e-06,-0.0005544562819760731,-0.0009619296019326955,-0.0005117880570685404,-0.00019195238661864469,0.0005839826041573573,0.0001999569366476541,-0.0014101481514405042,0.12130087614059448,12.072290420532227,-1.2909882068634033,-21.768831253051758,-0.4214377999305725,-2.5271639823913574,0.21457235515117645,0
25,0.12000012397766113,-0.12130087614059448,-12.072290420532227,1.2909882068634033,21.768831253051758,0.4214377999305725,2.5271639823913574,-0.21457235515117645,0.0,0.0,0.0,0.0,0.0,0.0,0.0,-0.10561878782050906,0.2897085566404499,0.11381986437304507,0.4797397254498458,-0.1286413800109421,0.1255360550823485,-0.20461018241431148,0.1727826931122538,-0.4874381248407196,-0.11146719544011363,-1.9464044273639463,0.1336060411818569,2.595550359778934,0.9452484245217508,0.1728802376190821,-0.48752024683155326,-0.11147110072896137,-1.9463801863486305,0.1336059019074957,2.595550359778934,0.9452445589611904,0.0005544562819760731,0.0009619296019326955,0.0005117880570685404,0.00019195238661864469,-0.0005839826041573573,-0.0001999569366476541,0.0014101481514405042,0.0,0.0,0.0,0.0,0.0,0.0,0.0,9.754450682830651e-05,-8.212199083368343e-05,-3.905288847735888e-06,2.4241015315729086e-05,-1.392743612105285e-07,0.0,-3.865560560423198e-06,-0.0005544562819760731,-0.0009619296019326955,-0.0005117880570685404,-0.00019195238661864469,0.0005839826041573573,0.0001999569366476541,-0.0014101481514405042,0.12130087614059448,12.072290420532227,-1.2909882068634033,-21.768831253051758,-0.4214377999305725,-2.5271639823913574,0.21457235515117645,0
26,0.12500357627868652,-0.09352988004684448,-12.024682998657227,1.2909882068634033,21.768831253051758,0.4150291085243225,2.5271639823913574,-0.19351522624492645,0.0,0.0,0.0,0.0,0.0,0.0,0.0,-0.11101893137549883,0.2892802145440395,0.1065268306706573,0.48130358366996717,-0.1277328252433894,0.12540854869875764,-0.20455288420054607,0.1727807442702745,-0.48744146571243013,-0.11146719414101043,-1.9464044273276078,0.13360676595483842,2.5955493001408048,0.9452460848407613,0.1728802376190821,-0.48752024683155326,-0.11147110072896137,-1.9463801863486305,0.1336059019074957,2.595550359778934,0.9452445589611904,-0.0007233811133514564,-0.0005849373064307118,0.00011488593475643065,0.0001728205613485751,-0.00025179775413028974,3.319023575756634e-05,0.0003190424525295902,0.0,0.0,0.0,0.0,0.0,0.0,0.0,9.949334880759997e-05,-7.878111912312802e-05,-3.9065879509359025e-06,2.4240978977241312e-05,-8.640473427301565e-07,1.0596381292415913e-06,-1.5258795709183204e-06,0.0007233811133514564,0.0005849373064307118,-0.00011488593475643065,-0.0001728205613485751,0.00025179775413028974,-3.319023575756634e-05,-0.0003190424525295902,0.09352988004684448,12.024682998657227,-1.2909882068634033,-21.768831253051758,-0.4150291085243225,-2.5271639823913574,0.19351522624492645,0
27,0.13000178337097168,-0.09352988004684448,-12.024682998657227,1.2909882068634033,21.768831253051758,0.4150291085243225,2.5271639823913574,-0.19351522624492645,0.0,0.0,0.0,0.0,0.0,0.0,0.0,-0.11101893137549883,0.2892802145440395,0.1065268306706573,0.48130358366996717,-0.1277328252433894,0.12540854869875764,-0.20455288420054607,0.1727807442702745,-0.48744146571243013,-0.11146719414101043,-1.9464044273276078,0.13360676595483842,2.5955493001408048,0.9452460848407613,0.1728802376190821,-0.48752024683155326,-0.11147110072896137,-1.9463801863486305,0.1336059019074957,2.595550359778934,0.9452445589611904,-0.0007233811133514564,-0.0005849373064307118,0.00011488593475643065,0.0001728205613485751,-0.00025179775413028974,3.319023575756634e-05,0.0003190424525295902,0.0,0.0,0.0,0.0,0.0,0.0,0.0,9.949334880759997e-05,-7.878111912312802e-05,-3.9065879509359025e-06,2.4240978977241312e-05,-8.640473427301565e-07,1.0596381292415913e-06,-1.5258795709183204e-06,0.0007233811133514564,0.0005849373064307118,-0.00011488593475643065,-0.0001728205613485751,0.00025179775413028974,-3.319023575756634e-05,-0.0003190424525295902,0.09352988004684448,12.024682998657227,-1.2909882068634033,-21.768831253051758,-0.4150291085243225,-2.5271639823913574,0.19351522624492645,0
28,0.13499736785888672,-0.14510458707809448,-12.024682998657227,1.2671844959259033,21.768831253051758,0.4095359444618225,2.5207552909851074,-0.22098104655742645,0.0,0.0,0.0,0.0,0.0,0.0,0.0,-0.11235196277037338,0.29004778625685385,0.10870024938869884,0.4840655707693791,-0.12747208357951306,0.12609601538069887,-0.20424483788545172,0.17278436354796092,-0.48744146571243013,-0.11146552370514784,-1.9464044273276075,0.13360737679401755,2.595551071849775,0.9452491365985738,0.1728802376190821,-0.48752024683155326,-0.11147110072896137,-1.9463801863486305,0.1336059019074957,2.595550359778934,0.9452445589611904,0.0005714714414464565,-0.000497491371275382,0.0006457982631506133,0.0002382533807816822,-6.801401110048247e-05,0.0002482903323373869,0.0012546682585605248,0.0,0.0,0.0,0.0,0.0,0.0,0.0,9.587407112118806e-05,-7.878111912312802e-05,-5.577023813527204e-06,2.4240978977019267e-05,-1.4748865218572327e-06,-7.120708409580345e-07,-4.5776373833739115e-06,-0.0005714714414464565,0.000497491371275382,-0.0006457982631506133,-0.0002382533807816822,6.801401110048247e-05,-0.0002482903323373869,-0.0012546682585605248,0.14510458707809448,12.024682998657227,-1.2671844959259033,-21.768831253051758,-0.4095359444618225,-2.5207552909851074,0.22098104655742645,0
29,0.1399989128112793,-0.14510458707809448,-12.024682998657227,1.2671844959259033,21.768831253051758,0.4095359444618225,2.5207552909851074,-0.22098104655742645,0.0,0.0,0.0,0.0,0.0,0.0,0.0,-0.11235196277037338,0.29004778625685385,0.10870024938869884,0.4840655707693791,-0.12747208357951306,0.12609601538069887,-0.20424483788545172,0.17278436354796092,-0.48744146571243013,-0.11146552370514784,-1.9464044273276075,0.13360737679401755,2.595551071849775,0.9452491365985738,0.1728802376190821,-0.48752024683155326,-0.11147110072896137,-1.9463801863486305,0.1336059019074957,2.595550359778934,0.9452445589611904,0.0005714714414464565,-0.000497491371275382,0.0006457982631506133,0.0002382533807816822,-6.801401110048247e-05,0.0002482903323373869,0.0012546682585605248,0.0,0.0,0.0,0.0,0.0,0.0,0.0,9.587407112118806e-05,-7.878111912312802e-05,-5.577023813527204e-06,2.4240978977019267e-05,-1.4748865218572327e-06,-7.120708409580345e-07,-4.5776373833739115e-06,-0.0005714714414464565,0.000497491371275382,-0.0006457982631506133,-0.0002382533807816822,6.801401110048247e-05,-0.0002482903323373869,-0.0012546682585605248,0.14510458707809448,12.024682998657227,-1.2671844959259033,-21.768831253051758,-0.4095359444618225,-2.5207552909851074,0.22098104655742645,0
30,0.14499688148498535,-0.14510458707809448,-12.048486709594727,1.3147919178009033,21.768831253051758,0.4095359444618225,2.5271639823913574,-0.18710653483867645,0.0,0.0,0.0,0.0,0.0,0.0,0.0,-0.11061678522611798,0.29691260633032907,0.11283374759166051,0.4768704522751626,-0.12755522802970298,0.1250007159104768,-0.20534028986825967,0.17278436354796092,-0.4874397952765749,-0.11146886457685837,-1.9464044273276075,0.1336073636303059,2.595550359778934,0.9452421938495503,0.1728802376190821,-0.48752024683155326,-0.11147110072896137,-1.9463801863486305,0.1336059019074957,2.595550359778934,0.9452445589611904,0.0011252237008377935,-9.196688260621428e-05,-0.0006016050369713863,-0.00042667223224126464,-0.00011027532457562573,0.000149135113527724,-0.00046544885397007806,0.0,0.0,0.0,0.0,0.0,0.0,0.0,9.587407112118806e-05,-8.045155497837797e-05,-2.2361521029995446e-06,2.4240978977019267e-05,-1.461722810208732e-06,0.0,2.365111640090234e-06,-0.0011252237008377935,9.196688260621428e-05,0.0006016050369713863,0.00042667223224126464,0.00011027532457562573,-0.000149135113527724,0.00046544885397007806,0.14510458707809448,12.048486709594727,-1.3147919178009033,-21.768831253051758,-0.4095359444618225,-2.5271639823913574,0.18710653483867645,0
31,0.14999866485595703,-0.14510458707809448,-12.048486709594727,1.3147919178009033,21.768831253051758,0.4095359444618225,2.5271639823913574,-0.18710653483867645,0.0,0.0,0.0,0.0,0.0,0.0,0.0,-0.11061678522611798,0.29691260633032907,0.11283374759166051,0.4768704522751626,-0.12755522802970298,0.1250007159104768,-0.20534028986825967,0.17278436354796092,-0.4874397952765749,-0.11146886457685837,-1.9464044273276075,0.1336073636303059,2.595550359778934,0.9452421938495503,0.1728802376190821,-0.48752024683155326,-0.11147110072896137,-1.9463801863486305,0.1336059019074957,2.595550359778934,0.9452445589611904,0.0011252237008377935,-9.196688260621428e-05,-0.0006016050369713863,-0.00042667223224126464,-0.00011027532457562573,0.000149135113527724,-0.00046544885397007806,0.0,0.0,0.0,0.0,0.0,0.0,0.0,9.587407112118806e-05,-8.045155497837797e-05,-2.2361521029995446e-06,2.4240978977019267e-05,-1.461722810208732e-06,0.0,2.365111640090234e-06,-0.0011252237008377935,9.196688260621428e-05,0.0006016050369713863,0.00042667223224126464,0.00011027532457562573,-0.000149135113527724,0.00046544885397007806,0.14510458707809448,12.048486709594727,-1.3147919178009033,-21.768831253051758,-0.4095359444618225,-2.5271639823913574,0.18710653483867645,0
32,0.1549983024597168,-0.14510458707809448,-12.048486709594727,1.3147919178009033,21.768831253051758,0.4095359444618225,2.5271639823913574,-0.18710653483867645,0.0,0.0,0.0,0.0,0.0,0.0,0.0,-0.11061678522611798,0.29691260633032907,0.11283374759166051,0.4768704522751626,-0.12755522802970298,0.1250007159104768,-0.20534028986825967,0.17278436354796092,-0.4874397952765749,-0.11146886457685837,-1.9464044273276075,0.1336073636303059,2.595550359778934,0.9452421938495503,0.1728802376190821,-0.48752024683155326,-0.11147110072896137,-1.9463801863486305,0.1336059019074957,2.595550359778934,0.9452445589611904,0.0011252237008377935,-9.196688260621428e-05,-0.0006016050369713863,-0.00042667223224126464,-0.00011027532457562573,0.000149135113527724,-0.00046544885397007806,0.0,0.0,0.0,0.0,0.0,0.0,0.0,9.587407112118806e-05,-8.045155497837797e-05,-2.2361521029995446e-06,2.4240978977019267e-05,-1.461722810208732e-06,0.0,2.365111640090234e-06,-0.0011252237008377935,9.196688260621428e-05,0.0006016050369713863,0.00042667223224126464,0.00011027532457562573,-0.000149135113527724,0.00046544885397007806,0.14510458707809448,12.048486709594727,-1.3147919178009033,-21.768831253051758,-0.4095359444618225,-2.5271639823913574,0.18710653483867645,0
33,0.16000080108642578,-0.14510458707809448,-12.048486709594727,1.3147919178009033,21.768831253051758,0.4095359444618225,2.5271639823913574,-0.18710653483867645,0.0,0.0,0.0,0.0,0.0,0.0,0.0,-0.11061678522611798,0.29691260633032907,0.11283374759166051,0.4768704522751626,-0.12755522802970298,0.1250007159104768,-0.20534028986825967,0.17278436354796092,-0.4874397952765749,-0.11146886457685837,-1.9464044273276075,0.1336073636303059,2.595550359778934,0.9452421938495503,0.1728802376190821,-0.48752024683155326,-0.11147110072896137,-1.9463801863486305,0.1336059019074957,2.595550359778934,0.9452445589611904,0.0011252237008377935,-9.196688260621428e-05,-0.0006016050369713863,-0.00042667223224126464,-0.00011027532457562573,0.000149135113527724,-0.00046544885397007806,0.0,0.0,0.0,0.0,0.0,0.0,0.0,9.587407112118806e-05,-8.045155497837797e-05,-2.2361521029995446e-06,2.4240978977019267e-05,-1.461722810208732e-06,0.0,2.365111640090234e-06,-0.0011252237008377935,9.196688260621428e-05,0.0006016050369713863,0.00042667223224126464,0.00011027532457562573,-0.000149135113527724,0.00046544885397007806,0.14510458707809448,12.048486709594727,-1.3147919178009033,-21.768831253051758,-0.4095359444618225,-2.5271639823913574,0.18710653483867645,0
34,0.16499710083007812,-0.12130087614059448,-12.000879287719727,1.2909882068634033,21.768831253051758,0.3976340889930725,2.5207552909851074,-0.17978231608867645,0.0,0.0,0.0,0.0,0.0,0.0,0.0,-0.11359138125289607,0.2973886250843179,0.10587321843170178,0.4764274626773508,-0.12744453766934027,0.1261224683899872,-0.20626469529874836,0.17278269311210565,-0.4874431361482854,-0.1114671941410031,-1.9464044273276075,0.1336051450194393,2.595551071855757,0.9452445589439099,0.1728802376190821,-0.48752024683155326,-0.11147110072896137,-1.9463801863486305,0.1336059019074957,2.595550359778934,0.9452445589611904,0.0003101231535666706,-0.0005717556412017087,9.42627950497459e-05,-0.00016879981381800094,0.00029113605899372153,0.00016735968589707387,-0.00043276310814027464,0.0,0.0,0.0,0.0,0.0,0.0,0.0,9.754450697646577e-05,-7.711068326787807e-05,-3.9065879582633745e-06,2.4240978977019267e-05,7.568880563968428e-07,-7.120768228396912e-07,1.72805103559881e-11,-0.0003101231535666706,0.0005717556412017087,-9.42627950497459e-05,0.00016879981381800094,-0.00029113605899372153,-0.00016735968589707387,0.00043276310814027464,0.12130087614059448,12.000879287719727,-1.2909882068634033,-21.768831253051758,-0.3976340889930725,-2.5207552909851074,0.17978231608867645,0
35,0.17000269889831543,-0.12130087614059448,-12.000879287719727,1.2909882068634033,21.768831253051758,0.3976340889930725,2.5207552909851074,-0.17978231608867645,0.0,0.0,0.0,0.0,0.0,0.0,0.0,-0.11359138125289607,0.2973886250843179,0.10587321843170178,0.4764274626773508,-0.12744453766934027,0.1261224683899872,-0.20626469529874836,0.17278269311210565,-0.4874431361482854,-0.1114671941410031,-1.9464044273276075,0.1336051450194393,2.595551071855757,0.9452445589439099,0.1728802376190821,-0.48752024683155326,-0.11147110072896137,-1.9463801863486305,0.1336059019074957,2.595550359778934,0.9452445589611904,0.0003101231535666706,-0.0005717556412017087,9.42627950497459e-05,-0.00016879981381800094,0.00029113605899372153,0.00016735968589707387,-0.00043276310814027464,0.0,0.0,0.0,0.0,0.0,0.0,0.0,9.754450697646577e-05,-7.711068326787807e-05,-3.9065879582633745e-06,2.4240978977019267e-05,7.568880563968428e-07,-7.120768228396912e-07,1.72805103559881e-11,-0.0003101231535666706,0.0005717556412017087,-9.42627950497459e-05,0.00016879981381800094,-0.00029113605899372153,-0.00016735968589707387,0.00043276310814027464,0.12130087614059448,12.000879287719727,-1.2909882068634033,-21.768831253051758,-0.3976340889930725,-2.5207552909851074,0.17978231608867645,0
36,0.17500686645507812,-0.12130087614059448,-11.973108291625977,1.2671844959259033,21.792634963989258,0.4031272530555725,2.5207552909851074,-0.21457235515117645,0.0,0.0,0.0,0.0,0.0,0.0,0.0,-0.11301361039484678,0.29580466294300406,0.10573787425921967,0.47953450323012625,-0.1279188239803599,0.1261546029043356,-0.20650903480550994,0.17278269311210565,-0.48744508502611883,-0.11146647108150357,-1.9464060977634627,0.13360773198123121,2.5955510704022067,0.9452484245217508,0.1728802376190821,-0.48752024683155326,-0.11147110072896137,-1.9463801863486305,0.1336059019074957,2.595550359778934,0.9452445589611904,-0.0002495419807620945,-0.0008568259167108742,0.000711788834549857,-0.00015796745369538355,0.00011546528181697803,5.685815598238452e-05,0.0008264888015713267,0.0,0.0,0.0,0.0,0.0,0.0,0.0,9.754450697646577e-05,-7.516180543443163e-05,-4.6296474578017e-06,2.591141483221371e-05,-1.8300737355259056e-06,-7.106232726705741e-07,-3.865560560423198e-06,0.0002495419807620945,0.0008568259167108742,-0.000711788834549857,0.00015796745369538355,-0.00011546528181697803,-5.685815598238452e-05,-0.0008264888015713267,0.12130087614059448,11.973108291625977,-1.2671844959259033,-21.792634963989258,-0.4031272530555725,-2.5207552909851074,0.21457235515117645,0
37,0.1800065040588379,-0.12130087614059448,-11.973108291625977,1.2671844959259033,21.792634963989258,0.4031272530555725,2.5207552909851074,-0.21457235515117645,0.0,0.0,0.0,0.0,0.0,0.0,0.0,-0.11301361039484678,0.29580466294300406,0.10573787425921967,0.47953450323012625,-0.1279188239803599,0.1261546029043356,-0.20650903480550994,0.17278269311210565,-0.48744508502611883,-0.11146647108150357,-1.9464060977634627,0.13360773198123121,2.5955510704022067,0.9452484245217508,0.1728802376190821,-0.48752024683155326,-0.11147110072896137,-1.9463801863486305,0.1336059019074957,2.595550359778934,0.9452445589611904,-0.0002495419807620945,-0.0008568259167108742,0.000711788834549857,-0.00015796745369538355,0.00011546528181697803,5.685815598238452e-05,0.0008264888015713267,0.0,0.0,0.0,0.0,0.0,0.0,0.0,9.754450697646577e-05,-7.516180543443163e-05,-4.6296474578017e-06,2.591141483221371e-05,-1.8300737355259056e-06,-7.106232726705741e-07,-3.865560560423198e-06,0.0002495419807620945,0.0008568259167108742,-0.000711788834549857,0.00015796745369538355,-0.00011546528181697803,-5.685815598238452e-05,-0.0008264888015713267,0.12130087614059448,11.973108291625977,-1.2671844959259033,-21.792634963989258,-0.4031272530555725,-2.5207552909851074,0.21457235515117645,0
38,0.18500185012817383,-0.09352988004684448,-12.024682998657227,1.2909882068634033,21.792634963989258,0.4095359444618225,2.5207552909851074,-0.21457235515117645,0.0,0.0,0.0,0.0,0.0,0.0,0.0,-0.11139753832137345,0.30153131642056075,0.1092946206158065,0.4787812952287309,-0.12786245350589995,0.12486735936020654,-0.20660260412049467,0.1727807442702745,-0.48744146571243036,-0.11146790443503464,-1.946406097872479,0.13360737679200566,2.595551071855749,0.9452484245217508,0.1728802376190821,-0.48752024683155326,-0.11147110072896137,-1.9463801863486305,0.1336059019074957,2.595550359778934,0.9452445589611904,-0.00024942340210365417,0.00015106478910634522,0.00033085536805665223,-0.0005662573813480046,-0.0001046822492405982,0.0003804300359530377,0.0008166425264887193,0.0,0.0,0.0,0.0,0.0,0.0,0.0,9.949334880759997e-05,-7.878111912290597e-05,-3.196293926727156e-06,2.591152384856521e-05,-1.4748845099665786e-06,-7.120768148460854e-07,-3.865560560423198e-06,0.00024942340210365417,-0.00015106478910634522,-0.00033085536805665223,0.0005662573813480046,0.0001046822492405982,-0.0003804300359530377,-0.0008166425264887193,0.09352988004684448,12.024682998657227,-1.2909882068634033,-21.792634963989258,-0.4095359444618225,-2.5207552909851074,0.21457235515117645,0
39,0.1900029182434082,-0.09352988004684448,-12.024682998657227,1.2909882068634033,21.792634963989258,0.4095359444618225,2.5207552909851074,-0.21457235515117645,0.0,0.0,0.0,0.0,0.0,0.0,0.0,-0.11139753832137345,0.30153131642056075,0.1092946206158065,0.4787812952287309,-0.12786245350589995,0.12486735936020654,-0.20660260412049467,0.1727807442702745,-0.48744146571243036,-0.11146790443503464,-1.946406097872479,0.13360737679200566,2.595551071855749,0.9452484245217508,0.1728802376190821,-0.48752024683155326,-0.11147110072896137,-1.9463801863486305,0.1336059019074957,2.595550359778934,0.9452445589611904,-0.00024942340210365417,0.00015106478910634522,0.00033085536805665223,-0.0005662573813480046,-0.0001046822492405982,0.0003804300359530377,0.0008166425264887193,0.0,0.0,0.0,0.0,0.0,0.0,0.0,9.949334880759997e-05,-7.878111912290597e-05,-3.196293926727156e-06,2.591152384856521e-05,-1.4748845099665786e-06,-7.120768148460854e-07,-3.865560560423198e-06,0.00024942340210365417,-0.00015106478910634522,-0.00033085536805665223,0.0005662573813480046,0.0001046822492405982,-0.0003804300359530377,-0.0008166425264887193,0.09352988004684448,12.024682998657227,-1.2909882068634033,-21.792634963989258,-0.4095359444618225,-2.5207552909851074,0.21457235515117645,0
40,0.19500470161437988,-0.06972616910934448,-12.048486709594727,1.3147919178009033,21.768831253051758,0.4031272530555725,2.5271639823913574,-0.23471395671367645,0.0,0.0,0.0,0.0,0.0,0.0,0.0,-0.10926881731126695,0.29745050867268025,0.10923195675837989,0.4805409370333187,-0.1278986735034063,0.1256608813361757,-0.20694281873342155,0.17277907383441926,-0.4874397952765749,-0.111468864580868,-1.9464044273276082,0.13360807424449386,2.595550359778934,0.9452506624236449,0.1728802376190821,-0.48752024683155326,-0.11147110072896137,-1.9463801863486305,0.1336059019074957,2.595550359778934,0.9452445589611904,-0.000459810302980528,0.0002030508296852201,-0.00033855647386052255,-0.0005090200529417996,0.0001404156630108225,-1.1584146128835633e-05,0.0014407516454111556,0.0,0.0,0.0,0.0,0.0,0.0,0.0,0.00010116378466284992,-8.045155497837797e-05,-2.23614809337358e-06,2.42409789776854e-05,-2.172336998174096e-06,0.0,-6.103462454443154e-06,0.000459810302980528,-0.0002030508296852201,0.00033855647386052255,0.0005090200529417996,-0.0001404156630108225,1.1584146128835633e-05,-0.0014407516454111556,0.06972616910934448,12.048486709594727,-1.3147919178009033,-21.768831253051758,-0.4031272530555725,-2.5271639823913574,0.23471395671367645,0
41,0.20000410079956055,-0.06972616910934448,-12.048486709594727,1.3147919178009033,21.768831253051758,0.4031272530555725,2.5271639823913574,-0.23471395671367645,0.0,0.0,0.0,0.0,0.0,0.0,0.0,-0.10926881731126695,0.29745050867268025,0.10923195675837989,0.4805409370333187,-0.1278986735034063,0.1256608813361757,-0.20694281873342155,0.17277907383441926,-0.4874397952765749,-0.111468864580868,-1.9464044273276082,0.13360807424449386,2.595550359778934,0.9452506624236449,0.1728802376190821,-0.48752024683155326,-0.11147110072896137,-1.9463801863486305,0.1336059019074957,2.595550359778934,0.9452445589611904,-0.000459810302980528,0.0002030508296852201,-0.00033855647386052255,-0.0005090200529417996,0.0001404156630108225,-1.1584146128835633e-05,0.0014407516454111556,0.0,0.0,0.0,0.0,0.0,0.0,0.0,0.00010116378466284992,-8.045155497837797e-05,-2.23614809337358e-06,2.42409789776854e-05,-2.172336998174096e-06,0.0,-6.103462454443154e-06,0.000459810302980528,-0.0002030508296852201,0.00033855647386052255,0.0005090200529417996,-0.0001404156630108225,1.1584146128835633e-05,-0.0014407516454111556,0.06972616910934448,12.048486709594727,-1.3147919178009033,-21.768831253051758,-0.4031272530555725,-2.5271639823913574,0.23471395671367645,0
42,0.20499968528747559,-0.06972616910934448,-12.072290420532227,1.3147919178009033,21.768831253051758,0.4095359444618225,2.5207552909851074,-0.20083944499492645,0.0,0.0,0.0,0.0,0.0,0.0,0.0,-0.10813937334769572,0.28747130394620024,0.10697626701370559,0.48457079649558465,-0.1281468841273581,0.1274157113257144,-0.20689489126120608,0.17277907383441926,-0.4874381248407196,-0.1114688645768584,-1.9464044273276075,0.1336041648476204,2.595551071855757,0.9452468986428443,0.1728802376190821,-0.48752024683155326,-0.11147110072896137,-1.9463801863486305,0.1336059019074957,2.595550359778934,0.9452445589611904,-0.0007221255719380849,0.0005868731951161913,-0.00021130998469702704,8.226366411271546e-05,2.4373670708697666e-05,0.00021471070749139496,2.880637228059262e-05,0.0,0.0,0.0,0.0,0.0,0.0,0.0,0.00010116378466284992,-8.212199083368343e-05,-2.236152102971789e-06,2.4240978977019267e-05,1.737059875300817e-06,-7.120768228396912e-07,-2.3396816538623355e-06,0.0007221255719380849,-0.0005868731951161913,0.00021130998469702704,-8.226366411271546e-05,-2.4373670708697666e-05,-0.00021471070749139496,-2.880637228059262e-05,0.06972616910934448,12.072290420532227,-1.3147919178009033,-21.768831253051758,-0.4095359444618225,-2.5207552909851074,0.20083944499492645,0
43,0.21000099182128906,-0.06972616910934448,-12.072290420532227,1.3147919178009033,21.768831253051758,0.4095359444618225,2.5207552909851074,-0.20083944499492645,0.0,0.0,0.0,0.0,0.0,0.0,0.0,-0.10813937334769572,0.28747130394620024,0.10697626701370559,0.48457079649558465,-0.1281468841273581,0.1274157113257144,-0.20689489126120608,0.17277907383441926,-0.4874381248407196,-0.1114688645768584,-1.9464044273276075,0.1336041648476204,2.595551071855757,0.9452468986428443,0.1728802376190821,-0.48752024683155326,-0.11147110072896137,-1.9463801863486305,0.1336059019074957,2.595550359778934,0.9452445589611904,-0.0007221255719380849,0.0005868731951161913,-0.00021130998469702704,8.226366411271546e-05,2.4373670708697666e-05,0.00021471070749139496,2.880637228059262e-05,0.0,0.0,0.0,0.0,0.0,0.0,0.0,0.00010116378466284992,-8.212199083368343e-05,-2.236152102971789e-06,2.4240978977019267e-05,1.737059875300817e-06,-7.120768228396912e-07,-2.3396816538623355e-06,0.0007221255719380849,-0.0005868731951161913,0.00021130998469702704,-8.226366411271546e-05,-2.4373670708697666e-05,-0.00021471070749139496,-2.880637228059262e-05,0.06972616910934448,12.072290420532227,-1.3147919178009033,-21.768831253051758,-0.4095359444618225,-2.5207552909851074,0.20083944499492645,0
44,0.21500301361083984,-0.12130087614059448,-12.048486709594727,1.2909882068634033,21.792634963989258,0.4150291085243225,2.5271639823913574,-0.17337362468242645,0.0,0.0,0.0,0.0,0.0,0.0,0.0,-0.1059022661643559,0.29034352318895534,0.10572046748124607,0.47970348449989797,-0.1279287979198336,0.12650717088401975,-0.20632454464258607,0.17278269311210565,-0.4874397952765749,-0.11146719424926231,-1.9464068130192,0.13360664648826162,2.595550359778934,0.9452438468850322,0.1728802376190821,-0.48752024683155326,-0.11147110072896137,-1.9463801863486305,0.1336059019074957,2.595550359778934,0.9452445589611904,0.00041440826384715615,-0.00030134812409375405,0.0005607387276612358,-0.0004920786844165092,-0.00024626215842864636,-0.00014137857195674897,-0.0011427383081744876,0.0,0.0,0.0,0.0,0.0,0.0,0.0,9.754450697646577e-05,-8.045155497837797e-05,-3.90647969905622e-06,2.6626670569518396e-05,-7.445807659323123e-07,0.0,7.120761582601887e-07,-0.00041440826384715615,0.00030134812409375405,-0.0005607387276612358,0.0004920786844165092,0.00024626215842864636,0.00014137857195674897,0.0011427383081744876,0.12130087614059448,12.048486709594727,-1.2909882068634033,-21.792634963989258,-0.4150291085243225,-2.5271639823913574,0.17337362468242645,0
45,0.21999859809875488,-0.12130087614059448,-12.048486709594727,1.2909882068634033,21.792634963989258,0.4150291085243225,2.5271639823913574,-0.17337362468242645,0.0,0.0,0.0,0.0,0.0,0.0,0.0,-0.1059022661643559,0.29034352318895534,0.10572046748124607,0.47970348449989797,-0.1279287979198336,0.12650717088401975,-0.20632454464258607,0.17278269311210565,-0.4874397952765749,-0.11146719424926231,-1.9464068130192,0.13360664648826162,2.595550359778934,0.9452438468850322,0.1728802376190821,-0.48752024683155326,-0.11147110072896137,-1.9463801863486305,0.1336059019074957,2.595550359778934,0.9452445589611904,0.00041440826384715615,-0.00030134812409375405,0.0005607387276612358,-0.0004920786844165092,-0.00024626215842864636,-0.00014137857195674897,-0.0011427383081744876,0.0,0.0,0.0,0.0,0.0,0.0,0.0,9.754450697646577e-05,-8.045155497837797e-05,-3.90647969905622e-06,2.6626670569518396e-05,-7.445807659323123e-07,0.0,7.120761582601887e-07,-0.00041440826384715615,0.00030134812409375405,-0.0005607387276612358,0.0004920786844165092,0.00024626215842864636,0.00014137857195674897,0.0011427383081744876,0.12130087614059448,12.048486709594727,-1.2909882068634033,-21.792634963989258,-0.4150291085243225,-2.5271639823913574,0.17337362468242645,0
46,0.22499728202819824,-0.09352988004684448,-12.000879287719727,1.3147919178009033,21.741060256958008,0.4031272530555725,2.5207552909851074,-0.15964071452617645,0.0,0.0,0.0,0.0,0.0,0.0,0.0,-0.1077290590516181,0.2945151552524323,0.10502354554612588,0.4760145239882756,-0.12716754234901503,0.1257744170254068,-0.20649998235392553,0.1727807471864597,-0.4874431361482854,-0.11147123318013712,-1.9464024794709607,0.13360772028616247,2.595551071855757,0.9452423210061258,0.1728802376190821,-0.48752024683155326,-0.11147110072896137,-1.9463801863486305,0.1336059019074957,2.595550359778934,0.9452445589611904,-0.0006922918664049762,-0.0009314943816040488,-0.00036159460933626815,0.0008598642101014855,0.0003206367252803381,0.00013666310903983977,-0.001356215847729831,0.0,0.0,0.0,0.0,0.0,0.0,0.0,9.949043262241775e-05,-7.711068326787807e-05,1.3245117574944842e-07,2.229312233015257e-05,-1.8183786667791413e-06,-7.120768228396912e-07,2.2379550645990065e-06,0.0006922918664049762,0.0009314943816040488,0.00036159460933626815,-0.0008598642101014855,-0.0003206367252803381,-0.00013666310903983977,0.001356215847729831,0.09352988004684448,12.000879287719727,-1.3147919178009033,-21.741060256958008,-0.4031272530555725,-2.5207552909851074,0.15964071452617645,0
47,0.2299947738647461,-0.09352988004684448,-12.000879287719727,1.3147919178009033,21.741060256958008,0.4031272530555725,2.5207552909851074,-0.15964071452617645,0.0,0.0,0.0,0.0,0.0,0.0,0.0,-0.1077290590516181,0.2945151552524323,0.10502354554612588,0.4760145239882756,-0.12716754234901503,0.1257744170254068,-0.20649998235392553,0.1727807471864597,-0.4874431361482854,-0.11147123318013712,-1.9464024794709607,0.13360772028616247,2.595551071855757,0.9452423210061258,0.1728802376190821,-0.48752024683155326,-0.11147110072896137,-1.9463801863486305,0.1336059019074957,2.595550359778934,0.9452445589611904,-0.0006922918664049762,-0.0009314943816040488,-0.00036159460933626815,0.0008598642101014855,0.0003206367252803381,0.00013666310903983977,-0.001356215847729831,0.0,0.0,0.0,0.0,0.0,0.0,0.0,9.949043262241775e-05,-7.711068326787807e-05,1.3245117574944842e-07,2.229312233015257e-05,-1.8183786667791413e-06,-7.120768228396912e-07,2.2379550645990065e-06,0.0006922918664049762,0.0009314943816040488,0.00036159460933626815,-0.0008598642101014855,-0.0003206367252803381,-0.00013666310903983977,0.001356215847729831,0.09352988004684448,12.000879287719727,-1.3147919178009033,-21.741060256958008,-0.4031272530555725,-2.5207552909851074,0.15964071452617645,0
48,0.23499655723571777,-0.14510458707809448,-12.048486709594727,1.3147919178009033,21.741060256958008,0.4150291085243225,2.5207552909851074,-0.19351522624492645,0.0,0.0,0.0,0.0,0.0,0.0,0.0,-0.10976290142178279,0.2935007688134131,0.1088671596611839,0.4777390383229296,-0.12624573350490767,0.12609776512601806,-0.206197523693615,0.17278436646416256,-0.4874397952765749,-0.11146894351119405,-1.946402478485782,0.13360675278911777,2.595551071855757,0.9452460848407613,0.1728802376190821,-0.48752024683155326,-0.11147110072896137,-1.9463801863486305,0.1336059019074957,2.595550359778934,0.9452445589611904,0.0006121065113124502,0.00021709869175830877,-0.00043568161186338346,0.0007415347373027847,-0.00012255114266218424,0.00015065837512813658,0.0001262665109526234,0.0,0.0,0.0,0.0,0.0,0.0,0.0,9.587115491954679e-05,-8.045155497837797e-05,-2.157217767320696e-06,2.229213715154721e-05,-8.508816220775817e-07,-7.120768228396912e-07,-1.5258795709183204e-06,-0.0006121065113124502,-0.00021709869175830877,0.00043568161186338346,-0.0007415347373027847,0.00012255114266218424,-0.00015065837512813658,-0.0001262665109526234,0.14510458707809448,12.048486709594727,-1.3147919178009033,-21.741060256958008,-0.4150291085243225,-2.5207552909851074,0.19351522624492645,0
49,0.24001502990722656,-0.14510458707809448,-12.048486709594727,1.3147919178009033,21.741060256958008,0.4150291085243225,2.5207552909851074,-0.19351522624492645,0.0,0.0,0.0,0.0,0.0,0.0,0.0,-0.10976290142178279,0.2935007688134131,0.1088671596611839,0.4777390383229296,-0.12624573350490767,0.12609776512601806,-0.206197523693615,0.17278436646416256,-0.4874397952765749,-0.11146894351119405,-1.946402478485782,0.13360675278911777,2.595551071855757,0.9452460848407613,0.1728802376190821,-0.48752024683155326,-0.11147110072896137,-1.9463801863486305,0.1336059019074957,2.595550359778934,0.9452445589611904,0.0006121065113124502,0.00021709869175830877,-0.00043568161186338346,0.0007415347373027847,-0.00012255114266218424,0.00015065837512813658,0.0001262665109526234,0.0,0.0,0.0,0.0,0.0,0.0,0.0,9.587115491954679e-05,-8.045155497837797e-05,-2.157217767320696e-06,2.229213715154721e-05,-8.508816220775817e-07,-7.120768228396912e-07,-1.5258795709183204e-06,-0.0006121065113124502,-0.00021709869175830877,0.00043568161186338346,-0.0007415347373027847,0.00012255114266218424,-0.00015065837512813658,-0.0001262665109526234,0.14510458707809448,12.048486709594727,-1.3147919178009033,-21.741060256958008,-0.4150291085243225,-2.5207552909851074,0.19351522624492645,0
50,0.24500441551208496,-0.09352988004684448,-12.048486709594727,1.2671844959259033,21.768831253051758,0.4150291085243225,2.5335726737976074,-0.20083944499492645,0.0,0.0,0.0,0.0,0.0,0.0,0.0,-0.11265934284189413,0.2806778997565245,0.10645798925438724,0.4840511977311699,-0.12535660810076324,0.12677895673070685,-0.2058349544769066,0.17278074427029097,-0.4874397952765749,-0.11146552370559343,-1.9464051425833448,0.13360664748140602,2.595549647702111,0.9452468986428446,0.1728802376190821,-0.48752024683155326,-0.11147110072896137,-1.9463801863486305,0.1336059019074957,2.595550359778934,0.9452445589611904,-0.00017675148916569631,-0.00035262051643180395,0.0005268618680910924,0.0002776230801329759,-0.00021408736775381268,-0.00010885611019925115,0.00043195297262451135,0.0,0.0,0.0,0.0,0.0,0.0,0.0,9.949334879114091e-05,-8.045155497837797e-05,-5.577023367939193e-06,2.4956234714323955e-05,-7.455739103323644e-07,7.120768228396912e-07,-2.3396816541954024e-06,0.00017675148916569631,0.00035262051643180395,-0.0005268618680910924,-0.0002776230801329759,0.00021408736775381268,0.00010885611019925115,-0.00043195297262451135,0.09352988004684448,12.048486709594727,-1.2671844959259033,-21.768831253051758,-0.4150291085243225,-2.5335726737976074,0.20083944499492645,0
51,0.2500038146972656,-0.09352988004684448,-12.048486709594727,1.2671844959259033,21.768831253051758,0.4150291085243225,2.5335726737976074,-0.20083944499492645,0.0,0.0,0.0,0.0,0.0,0.0,0.0,-0.11265934284189413,0.2806778997565245,0.10645798925438724,0.4840511977311699,-0.12535660810076324,0.12677895673070685,-0.2058349544769066,0.17278074427029097,-0.4874397952765749,-0.11146552370559343,-1.9464051425833448,0.13360664748140602,2.595549647702111,0.9452468986428446,0.1728802376190821,-0.48752024683155326,-0.11147110072896137,-1.9463801863486305,0.1336059019074957,2.595550359778934,0.9452445589611904,-0.00017675148916569631,-0.00035262051643180395,0.0005268618680910924,0.0002776230801329759,-0.00021408736775381268,-0.00010885611019925115,0.00043195297262451135,0.0,0.0,0.0,0.0,0.0,0.0,0.0,9.949334879114091e-05,-8.045155497837797e-05,-5.577023367939193e-06,2.4956234714323955e-05,-7.455739103323644e-07,7.120768228396912e-07,-2.3396816541954024e-06,0.00017675148916569631,0.00035262051643180395,-0.0005268618680910924,-0.0002776230801329759,0.00021408736775381268,0.00010885611019925115,-0.00043195297262451135,0.09352988004684448,12.048486709594727,-1.2671844959259033,-21.768831253051758,-0.4150291085243225,-2.5335726737976074,0.20083944499492645,0
52,0.2550034523010254,-0.14510458707809448,-11.973108291625977,1.2671844959259033,21.741060256958008,0.4150291085243225,2.5271639823913574,-0.20083944499492645,0.0,0.0,0.0,0.0,0.0,0.0,0.0,-0.11084356535427427,0.29928978012818847,0.10150319519207543,0.47504412978931154,-0.1255103344178469,0.1257022688849751,-0.20471538435257008,0.17278436354796092,-0.4874450849901165,-0.11146765457119856,-1.9464024784898142,0.13360676059124654,2.595550359778934,0.9452468986428446,0.1728802376190821,-0.48752024683155326,-0.11147110072896137,-1.9463801863486305,0.1336059019074957,2.595550359778934,0.9452445589611904,0.0009116119777721031,-0.0014948162057169048,6.28764688436456e-05,0.0007858430385351636,-0.0002204217560397898,9.188698363914438e-06,0.0003126727193753494,0.0,0.0,0.0,0.0,0.0,0.0,0.0,9.587407112118806e-05,-7.516184143674387e-05,-3.4461577628069895e-06,2.229214118365519e-05,-8.586837508539613e-07,0.0,-2.3396816541954024e-06,-0.0009116119777721031,0.0014948162057169048,-6.28764688436456e-05,-0.0007858430385351636,0.0002204217560397898,-9.188698363914438e-06,-0.0003126727193753494,0.14510458707809448,11.973108291625977,-1.2671844959259033,-21.741060256958008,-0.4150291085243225,-2.5271639823913574,0.20083944499492645,0
53,0.26000118255615234,-0.14510458707809448,-11.973108291625977,1.2671844959259033,21.741060256958008,0.4150291085243225,2.5271639823913574,-0.20083944499492645,0.0,0.0,0.0,0.0,0.0,0.0,0.0,-0.11084356535427427,0.29928978012818847,0.10150319519207543,0.47504412978931154,-0.1255103344178469,0.1257022688849751,-0.20471538435257008,0.17278436354796092,-0.4874450849901165,-0.11146765457119856,-1.9464024784898142,0.13360676059124654,2.595550359778934,0.9452468986428446,0.1728802376190821,-0.48752024683155326,-0.11147110072896137,-1.9463801863486305,0.1336059019074957,2.595550359778934,0.9452445589611904,0.0009116119777721031,-0.0014948162057169048,6.28764688436456e-05,0.0007858430385351636,-0.0002204217560397898,9.188698363914438e-06,0.0003126727193753494,0.0,0.0,0.0,0.0,0.0,0.0,0.0,9.587407112118806e-05,-7.516184143674387e-05,-3.4461577628069895e-06,2.229214118365519e-05,-8.586837508539613e-07,0.0,-2.3396816541954024e-06,-0.0009116119777721031,0.0014948162057169048,-6.28764688436456e-05,-0.0007858430385351636,0.0002204217560397898,-9.188698363914438e-06,-0.0003126727193753494,0.14510458707809448,11.973108291625977,-1.2671844959259033,-21.741060256958008,-0.4150291085243225,-2.5271639823913574,0.20083944499492645,0
54,0.26499509811401367,-0.06972616910934448,-12.048486709594727,1.3425629138946533,21.768831253051758,0.4150291085243225,2.5335726737976074,-0.22098104655742645,0.0,0.0,0.0,0.0,0.0,0.0,0.0,-0.10501675533781965,0.29535065034351043,0.10577760328860242,0.4788691362415113,-0.12620130493648468,0.12579188185443313,-0.2044690679810081,0.17277907383441926,-0.4874397952765749,-0.11147081343071831,-1.9464044273276075,0.13360676644242478,2.595549647702111,0.9452491365985738,0.1728802376190821,-0.48752024683155326,-0.11147110072896137,-1.9463801863486305,0.1336059019074957,2.595550359778934,0.9452445589611904,-0.0010969004543645354,0.0006013574845700731,-0.00100856252212071,-1.9587303657321334e-05,-0.00036037920840527635,-0.00019856717030718532,0.0011331639024405433,0.0,0.0,0.0,0.0,0.0,0.0,0.0,0.00010116378466284992,-8.045155497837797e-05,-2.872982430568438e-07,2.4240978977019267e-05,-8.645349290903326e-07,7.120768228396912e-07,-4.5776373833739115e-06,0.0010969004543645354,-0.0006013574845700731,0.00100856252212071,1.9587303657321334e-05,0.00036037920840527635,0.00019856717030718532,-0.0011331639024405433,0.06972616910934448,12.048486709594727,-1.3425629138946533,-21.768831253051758,-0.4150291085243225,-2.5335726737976074,0.22098104655742645,0
55,0.26999807357788086,-0.06972616910934448,-12.048486709594727,1.3425629138946533,21.768831253051758,0.4150291085243225,2.5335726737976074,-0.22098104655742645,0.0,0.0,0.0,0.0,0.0,0.0,0.0,-0.10501675533781965,0.29535065034351043,0.10577760328860242,0.4788691362415113,-0.12620130493648468,0.12579188185443313,-0.2044690679810081,0.17277907383441926,-0.4874397952765749,-0.11147081343071831,-1.9464044273276075,0.13360676644242478,2.595549647702111,0.9452491365985738,0.1728802376190821,-0.48752024683155326,-0.11147110072896137,-1.9463801863486305,0.1336059019074957,2.595550359778934,0.9452445589611904,-0.0010969004543645354,0.0006013574845700731,-0.00100856252212071,-1.9587303657321334e-05,-0.00036037920840527635,-0.00019856717030718532,0.0011331639024405433,0.0,0.0,0.0,0.0,0.0,0.0,0.0,0.00010116378466284992,-8.045155497837797e-05,-2.872982430568438e-07,2.4240978977019267e-05,-8.645349290903326e-07,7.120768228396912e-07,-4.5776373833739115e-06,0.0010969004543645354,-0.0006013574845700731,0.00100856252212071,1.9587303657321334e-05,0.00036037920840527635,0.00019856717030718532,-0.0011331639024405433,0.06972616910934448,12.048486709594727,-1.3425629138946533,-21.768831253051758,-0.4150291085243225,-2.5335726737976074,0.22098104655742645,0
56,0.2749953269958496,-0.06972616910934448,-12.048486709594727,1.3425629138946533,21.768831253051758,0.4150291085243225,2.5335726737976074,-0.22098104655742645,0.0,0.0,0.0,0.0,0.0,0.0,0.0,-0.10501675533781965,0.29535065034351043,0.10577760328860242,0.4788691362415113,-0.12620130493648468,0.12579188185443313,-0.2044690679810081,0.17277907383441926,-0.4874397952765749,-0.11147081343071831,-1.9464044273276075,0.13360676644242478,2.595549647702111,0.9452491365985738,0.1728802376190821,-0.48752024683155326,-0.11147110072896137,-1.9463801863486305,0.1336059019074957,2.595550359778934,0.9452445589611904,-0.0010969004543645354,0.0006013574845700731,-0.00100856252212071,-1.9587303657321334e-05,-0.00036037920840527635,-0.00019856717030718532,0.0011331639024405433,0.0,0.0,0.0,0.0,0.0,0.0,0.0,0.00010116378466284992,-8.045155497837797e-05,-2.872982430568438e-07,2.4240978977019267e-05,-8.645349290903326e-07,7.120768228396912e-07,-4.5776373833739115e-06,0.0010969004543645354,-0.0006013574845700731,0.00100856252212071,1.9587303657321334e-05,0.00036037920840527635,0.00019856717030718532,-0.0011331639024405433,0.06972616910934448,12.048486709594727,-1.3425629138946533,-21.768831253051758,-0.4150291085243225,-2.5335726737976074,0.22098104655742645,0
57,0.2799978256225586,-0.06972616910934448,-12.048486709594727,1.3425629138946533,21.768831253051758,0.4150291085243225,2.5335726737976074,-0.22098104655742645,0.0,0.0,0.0,0.0,0.0,0.0,0.0,-0.10501675533781965,0.29535065034351043,0.10577760328860242,0.4788691362415113,-0.12620130493648468,0.12579188185443313,-0.2044690679810081,0.17277907383441926,-0.4874397952765749,-0.11147081343071831,-1.9464044273276075,0.13360676644242478,2.595549647702111,0.9452491365985738,0.1728802376190821,-0.48752024683155326,-0.11147110072896137,-1.9463801863486305,0.1336059019074957,2.595550359778934,0.9452445589611904,-0.0010969004543645354,0.0006013574845700731,-0.00100856252212071,-1.9587303657321334e-05,-0.00036037920840527635,-0.00019856717030718532,0.0011331639024405433,0.0,0.0,0.0,0.0,0.0,0.0,0.0,0.00010116378466284992,-8.045155497837797e-05,-2.872982430568438e-07,2.4240978977019267e-05,-8.645349290903326e-07,7.120768228396912e-07,-4.5776373833739115e-06,0.0010969004543645354,-0.0006013574845700731,0.00100856252212071,1.9587303657321334e-05,0.00036037920840527635,0.00019856717030718532,-0.0011331639024405433,0.06972616910934448,12.048486709594727,-1.3425629138946533,-21.768831253051758,-0.4150291085243225,-2.5335726737976074,0.22098104655742645,0
58,0.28499865531921387,-0.14510458707809448,-12.024682998657227,1.3147919178009033,21.768831253051758,0.4150291085243225,2.5207552909851074,-0.18710653483867645,0.0,0.0,0.0,0.0,0.0,0.0,0.0,-0.10951566548137476,0.2978554853585116,0.10000255794138467,0.47863381033311353,-0.12647203229356238,0.12596343215557712,-0.20406180478572636,0.17278436354796092,-0.48744146571243013,-0.11146886468511764,-1.9464044273276075,0.13360672483861966,2.5955510716942514,0.9452453727639384,0.1728802376190821,-0.48752024683155326,-0.11147110072896137,-1.9463801863486305,0.1336059019074957,2.595550359778934,0.9452445589611904,0.0005791335590308189,0.0003022609460373352,-0.0002825112586043153,-4.172637976879858e-05,-0.00036866937794371486,0.00021396794518084117,-0.0004842953193956956,0.0,0.0,0.0,0.0,0.0,0.0,0.0,9.587407112118806e-05,-7.878111912312802e-05,-2.2360438437230012e-06,2.4240978977019267e-05,-8.229311239671411e-07,-7.119153173640314e-07,-8.138027479676069e-07,-0.0005791335590308189,-0.0003022609460373352,0.0002825112586043153,4.172637976879858e-05,0.00036866937794371486,-0.00021396794518084117,0.0004842953193956956,0.14510458707809448,12.024682998657227,-1.3147919178009033,-21.768831253051758,-0.4150291085243225,-2.5207552909851074,0.18710653483867645,0
59,0.28999781608581543,-0.14510458707809448,-12.024682998657227,1.3147919178009033,21.768831253051758,0.4150291085243225,2.5207552909851074,-0.18710653483867645,0.0,0.0,0.0,0.0,0.0,0.0,0.0,-0.10951566548137476,0.2978554853585116,0.10000255794138467,0.47863381033311353,-0.12647203229356238,0.12596343215557712,-0.20406180478572636,0.17278436354796092,-0.48744146571243013,-0.11146886468511764,-1.9464044273276075,0.13360672483861966,2.5955510716942514,0.9452453727639384,0.1728802376190821,-0.48752024683155326,-0.11147110072896137,-1.9463801863486305,0.1336059019074957,2.595550359778934,0.9452445589611904,0.0005791335590308189,0.0003022609460373352,-0.0002825112586043153,-4.172637976879858e-05,-0.00036866937794371486,0.00021396794518084117,-0.0004842953193956956,0.0,0.0,0.0,0.0,0.0,0.0,0.0,9.587407112118806e-05,-7.878111912312802e-05,-2.2360438437230012e-06,2.4240978977019267e-05,-8.229311239671411e-07,-7.119153173640314e-07,-8.138027479676069e-07,-0.0005791335590308189,-0.0003022609460373352,0.0002825112586043153,4.172637976879858e-05,0.00036866937794371486,-0.00021396794518084117,0.0004842953193956956,0.14510458707809448,12.024682998657227,-1.3147919178009033,-21.768831253051758,-0.4150291085243225,-2.5207552909851074,0.18710653483867645,0
60,0.29746317863464355,-0.12130087614059448,-12.000879287719727,1.3425629138946533,21.768831253051758,0.4095359444618225,2.5207552909851074,-0.20083944499492645,0.0,0.0,0.0,0.0,0.0,0.0,0.0,-0.11012869519873789,0.2946818965406932,0.10256139480153241,0.4802372142515215,-0.12699243993033812,0.12660468438770772,-0.2048915089049242,0.17278269311210565,-0.4874431361482854,-0.11147294460951848,-1.9464044273276075,0.13360702137349623,2.5955500122176267,0.9452468986428446,0.1728802376190821,-0.48752024683155326,-0.11147110072896137,-1.9463801863486305,0.1336059019074957,2.595550359778934,0.9452445589611904,0.0004566582852905587,-0.000507602518663223,-0.0010336779933485766,-0.00014363248566750004,6.49868059754777e-05,8.680687844853162e-05,0.0006053555688298567,0.0,0.0,0.0,0.0,0.0,0.0,0.0,9.754450697646577e-05,-7.711068326787807e-05,1.8438805571147077e-06,2.4240978977019267e-05,-1.1194660005375834e-06,3.475613072900785e-07,-2.3396816541954024e-06,-0.0004566582852905587,0.000507602518663223,0.0010336779933485766,0.00014363248566750004,-6.49868059754777e-05,-8.680687844853162e-05,-0.0006053555688298567,0.12130087614059448,12.000879287719727,-1.3425629138946533,-21.768831253051758,-0.4095359444618225,-2.5207552909851074,0.20083944499492645,0
61,0.3000149726867676,-0.12130087614059448,-12.000879287719727,1.3425629138946533,21.768831253051758,0.4095359444618225,2.5207552909851074,-0.20083944499492645,0.0,0.0,0.0,0.0,0.0,0.0,0.0,-0.11012869519873789,0.2946818965406932,0.10256139480153241,0.4802372142515215,-0.12699243993033812,0.12660468438770772,-0.2048915089049242,0.17278269311210565,-0.4874431361482854,-0.11147294460951848,-1.9464044273276075,0.13360702137349623,2.5955500122176267,0.9452468986428446,0.1728802376190821,-0.48752024683155326,-0.11147110072896137,-1.9463801863486305,0.1336059019074957,2.595550359778934,0.9452445589611904,0.0004566582852905587,-0.000507602518663223,-0.0010336779933485766,-0.00014363248566750004,6.49868059754777e-05,8.680687844853162e-05,0.0006053555688298567,0.0,0.0,0.0,0.0,0.0,0.0,0.0,9.754450697646577e-05,-7.711068326787807e-05,1.8438805571147077e-06,2.4240978977019267e-05,-1.1194660005375834e-06,3.475613072900785e-07,-2.3396816541954024e-06,-0.0004566582852905587,0.000507602518663223,0.0010336779933485766,0.00014363248566750004,-6.49868059754777e-05,-8.680687844853162e-05,-0.0006053555688298567,0.12130087614059448,12.000879287719727,-1.3425629138946533,-21.768831253051758,-0.4095359444618225,-2.5207552909851074,0.20083944499492645,0
62,0.3054227828979492,-0.12130087614059448,-12.024682998657227,1.3147919178009033,21.816438674926758,0.4150291085243225,2.5335726737976074,-0.22830526530742645,0.0,0.0,0.0,0.0,0.0,0.0,0.0,-0.10919341952189267,0.2945567830813083,0.10580619738179958,0.479499877952621,-0.12696637562754332,0.1260873618089562,-0.20566119185151704,0.17278269311210565,-0.48744146571243013,-0.11147099545493973,-1.9464077681993182,0.13360676644045147,2.59554858660445,0.9452499504006571,0.1728802376190821,-0.48752024683155326,-0.11147110072896137,-1.9463801863486305,0.1336059019074957,2.595550359778934,0.9452445589611904,0.00025919501462004925,-0.00024601353612654534,-0.00018648707902135195,-0.0014480429735980252,-0.00030946975833898854,-0.0002571934612459915,0.0016916358428694048,0.0,0.0,0.0,0.0,0.0,0.0,0.0,9.754450697646577e-05,-7.878111912312802e-05,-1.0527402163895694e-07,2.7581850687630194e-05,-8.645329557799286e-07,1.7731744841320563e-06,-5.3914394666509935e-06,-0.00025919501462004925,0.00024601353612654534,0.00018648707902135195,0.0014480429735980252,0.00030946975833898854,0.0002571934612459915,-0.0016916358428694048,0.12130087614059448,12.024682998657227,-1.3147919178009033,-21.816438674926758,-0.4150291085243225,-2.5335726737976074,0.22830526530742645,0
63,0.31000399589538574,-0.12130087614059448,-12.024682998657227,1.3147919178009033,21.816438674926758,0.4150291085243225,2.5335726737976074,-0.22830526530742645,0.0,0.0,0.0,0.0,0.0,0.0,0.0,-0.10919341952189267,0.2945567830813083,0.10580619738179958,0.479499877952621,-0.12696637562754332,0.1260873618089562,-0.20566119185151704,0.17278269311210565,-0.48744146571243013,-0.11147099545493973,-1.9464077681993182,0.13360676644045147,2.59554858660445,0.9452499504006571,0.1728802376190821,-0.48752024683155326,-0.11147110072896137,-1.9463801863486305,0.1336059019074957,2.595550359778934,0.9452445589611904,0.00025919501462004925,-0.00024601353612654534,-0.00018648707902135195,-0.0014480429735980252,-0.00030946975833898854,-0.0002571934612459915,0.0016916358428694048,0.0,0.0,0.0,0.0,0.0,0.0,0.0,9.754450697646577e-05,-7.878111912312802e-05,-1.0527402163895694e-07,2.7581850687630194e-05,-8.645329557799286e-07,1.7731744841320563e-06,-5.3914394666509935e-06,-0.00025919501462004925,0.00024601353612654534,0.00018648707902135195,0.0014480429735980252,0.00030946975833898854,0.0002571934612459915,-0.0016916358428694048,0.12130087614059448,12.024682998657227,-1.3147919178009033,-21.816438674926758,-0.4150291085243225,-2.5335726737976074,0.22830526530742645,0
64,0.3150150775909424,-0.06972616910934448,-12.024682998657227,1.3147919178009033,21.792634963989258,0.4095359444618225,2.5207552909851074,-0.22830526530742645,0.0,0.0,0.0,0.0,0.0,0.0,0.0,-0.1142189018463162,0.2905543674727982,0.10152342660060183,0.4802778885179428,-0.12662320547169992,0.1264681298193113,-0.20533229254616714,0.17277907383441926,-0.48744146571243013,-0.11146886491366487,-1.9464060977634627,0.13360698188258782,2.595551071849767,0.9452499504006571,0.1728802376190821,-0.48752024683155326,-0.11147110072896137,-1.9463801863486305,0.1336059019074957,2.595550359778934,0.9452445589611904,-0.0013727388693895403,-0.0006387426716654161,-0.0007074567775243097,-0.0004992093715641146,-0.00023295131676026316,0.00022802234583197786,0.0014789163145312032,0.0,0.0,0.0,0.0,0.0,0.0,0.0,0.00010116378466284992,-7.878111912312802e-05,-2.2358152965001876e-06,2.591141483221371e-05,-1.0799750921330897e-06,-7.120708329644287e-07,-5.3914394666509935e-06,0.0013727388693895403,0.0006387426716654161,0.0007074567775243097,0.0004992093715641146,0.00023295131676026316,-0.00022802234583197786,-0.0014789163145312032,0.06972616910934448,12.024682998657227,-1.3147919178009033,-21.792634963989258,-0.4095359444618225,-2.5207552909851074,0.22830526530742645,0
65,0.31999659538269043,-0.06972616910934448,-12.024682998657227,1.3147919178009033,21.792634963989258,0.4095359444618225,2.5207552909851074,-0.22830526530742645,0.0,0.0,0.0,0.0,0.0,0.0,0.0,-0.1142189018463162,0.2905543674727982,0.10152342660060183,0.4802778885179428,-0.12662320547169992,0.1264681298193113,-0.20533229254616714,0.17277907383441926,-0.48744146571243013,-0.11146886491366487,-1.9464060977634627,0.13360698188258782,2.595551071849767,0.9452499504006571,0.1728802376190821,-0.48752024683155326,-0.11147110072896137,-1.9463801863486305,0.1336059019074957,2.595550359778934,0.9452445589611904,-0.0013727388693895403,-0.0006387426716654161,-0.0007074567775243097,-0.0004992093715641146,-0.00023295131676026316,0.00022802234583197786,0.0014789163145312032,0.0,0.0,0.0,0.0,0.0,0.0,0.0,0.00010116378466284992,-7.878111912312802e-05,-2.2358152965001876e-06,2.591141483221371e-05,-1.0799750921330897e-06,-7.120708329644287e-07,-5.3914394666509935e-06,0.0013727388693895403,0.0006387426716654161,0.0007074567775243097,0.0004992093715641146,0.00023295131676026316,-0.00022802234583197786,-0.0014789163145312032,0.06972616910934448,12.024682998657227,-1.3147919178009033,-21.792634963989258,-0.4095359444618225,-2.5207552909851074,0.22830526530742645,0
66,0.3249983787536621,-0.09352988004684448,-12.024682998657227,1.2909882068634033,21.768831253051758,0.4095359444618225,2.5207552909851074,-0.20083944499492645,0.0,0.0,0.0,0.0,0.0,0.0,0.0,-0.10888675807724528,0.298084024513267,0.10981180687461448,0.4754646486464388,-0.12735439613768687,0.12572131416385135,-0.20600995667698213,0.1727807442702745,-0.48744146571243013,-0.11146719706400371,-1.9464044273276075,0.13360737662927602,2.595551071855757,0.9452468841073421,0.1728802376190821,-0.48752024683155326,-0.11147110072896137,-1.9463801863486305,0.1336059019074957,2.595550359778934,0.9452445589611904,-0.0004950336837303454,-0.00034209970312786453,0.00032174599752509266,-0.00031297552486722385,1.1325242654781897e-05,0.00019625279622963401,-0.00012064796189056318,0.0,0.0,0.0,0.0,0.0,0.0,0.0,9.949334880759997e-05,-7.878111912312802e-05,-3.903664957657926e-06,2.4240978977019267e-05,-1.4747217803312562e-06,-7.120768228396912e-07,-2.3251461517270755e-06,0.0004950336837303454,0.00034209970312786453,-0.00032174599752509266,0.00031297552486722385,-1.1325242654781897e-05,-0.00019625279622963401,0.00012064796189056318,0.09352988004684448,12.024682998657227,-1.2909882068634033,-21.768831253051758,-0.4095359444618225,-2.5207552909851074,0.20083944499492645,0
67,0.3304290771484375,-0.09352988004684448,-12.024682998657227,1.2909882068634033,21.768831253051758,0.4095359444618225,2.5207552909851074,-0.20083944499492645,0.0,0.0,0.0,0.0,0.0,0.0,0.0,-0.10888675807724528,0.298084024513267,0.10981180687461448,0.4754646486464388,-0.12735439613768687,0.12572131416385135,-0.20600995667698213,0.1727807442702745,-0.48744146571243013,-0.11146719706400371,-1.9464044273276075,0.13360737662927602,2.595551071855757,0.9452468841073421,0.1728802376190821,-0.48752024683155326,-0.11147110072896137,-1.9463801863486305,0.1336059019074957,2.595550359778934,0.9452445589611904,-0.0004950336837303454,-0.00034209970312786453,0.00032174599752509266,-0.00031297552486722385,1.1325242654781897e-05,0.00019625279622963401,-0.00012064796189056318,0.0,0.0,0.0,0.0,0.0,0.0,0.0,9.949334880759997e-05,-7.878111912312802e-05,-3.903664957657926e-06,2.4240978977019267e-05,-1.4747217803312562e-06,-7.120768228396912e-07,-2.3251461517270755e-06,0.0004950336837303454,0.00034209970312786453,-0.00032174599752509266,0.00031297552486722385,-1.1325242654781897e-05,-0.00019625279622963401,0.00012064796189056318,0.09352988004684448,12.024682998657227,-1.2909882068634033,-21.768831253051758,-0.4095359444618225,-2.5207552909851074,0.20083944499492645,0
68,0.33501553535461426,-0.09352988004684448,-12.024682998657227,1.3425629138946533,21.816438674926758,0.4095359444618225,2.5271639823913574,-0.15964071452617645,0.0,0.0,0.0,0.0,0.0,0.0,0.0,-0.10980830092870857,0.28955369405012243,0.10561432239755063,0.48212125839670805,-0.12718766974517232,0.1267413607292019,-0.20536312373199703,0.1727807442702745,-0.48744146571243013,-0.11147081341870602,-1.9464077681993182,0.13360733730287613,2.595550320533077,0.9452423210060438,0.1728802376190821,-0.48752024683155326,-0.11147110072896137,-1.9463801863486305,0.1336059019074957,2.595550359778934,0.9452445589611904,-0.00042598886461286836,-0.00020531596609197635,-0.001455807668730646,-0.0009664383935065252,-0.00015433214675653843,9.398625206843964e-05,-0.0013833669336495832,0.0,0.0,0.0,0.0,0.0,0.0,0.0,9.949334880759997e-05,-7.878111912312802e-05,-2.8731025535078114e-07,2.7581850687630194e-05,-1.4353953804446817e-06,3.924585678660719e-08,2.237955146644488e-06,0.00042598886461286836,0.00020531596609197635,0.001455807668730646,0.0009664383935065252,0.00015433214675653843,-9.398625206843964e-05,0.0013833669336495832,0.09352988004684448,12.024682998657227,-1.3425629138946533,-21.816438674926758,-0.4095359444618225,-2.5271639823913574,0.15964071452617645,0
69,0.3399972915649414,-0.09352988004684448,-12.024682998657227,1.3425629138946533,21.816438674926758,0.4095359444618225,2.5271639823913574,-0.15964071452617645,0.0,0.0,0.0,0.0,0.0,0.0,0.0,-0.10980830092870857,0.28955369405012243,0.10561432239755063,0.48212125839670805,-0.12718766974517232,0.1267413607292019,-0.20536312373199703,0.1727807442702745,-0.48744146571243013,-0.11147081341870602,-1.9464077681993182,0.13360733730287613,2.595550320533077,0.9452423210060438,0.1728802376190821,-0.48752024683155326,-0.11147110072896137,-1.9463801863486305,0.1336059019074957,2.595550359778934,0.9452445589611904,-0.00042598886461286836,-0.00020531596609197635,-0.001455807668730646,-0.0009664383935065252,-0.00015433214675653843,9.398625206843964e-05,-0.0013833669336495832,0.0,0.0,0.0,0.0,0.0,0.0,0.0,9.949334880759997e-05,-7.878111912312802e-05,-2.8731025535078114e-07,2.7581850687630194e-05,-1.4353953804446817e-06,3.924585678660719e-08,2.237955146644488e-06,0.00042598886461286836,0.00020531596609197635,0.001455807668730646,0.0009664383935065252,0.00015433214675653843,-9.398625206843964e-05,0.0013833669336495832,0.09352988004684448,12.024682998657227,-1.3425629138946533,-21.816438674926758,-0.4095359444618225,-2.5271639823913574,0.15964071452617645,0
70,0.345001220703125,-0.12130087614059448,-12.000879287719727,1.2909882068634033,21.792634963989258,0.3976340889930725,2.5271639823913574,-0.18710653483867645,0.0,0.0,0.0,0.0,0.0,0.0,0.0,-0.10878355012020745,0.2976973108317534,0.10444310001170327,0.4810001761138551,-0.12723868661319349,0.12625673597697906,-0.20480984058564927,0.17278269311210565,-0.4874431361482854,-0.11146719717226101,-1.9464060977634627,0.1336083436393786,2.5955503597787124,0.9452453727639384,0.1728802376190821,-0.48752024683155326,-0.11147110072896137,-1.9463801863486305,0.1336059019074957,2.595550359778934,0.9452445589611904,0.00046910882186703367,-0.00023617734938711184,-0.00024108992208380918,0.0001642092196996738,0.00039406207050238706,2.2467332019903887e-05,-7.019009951192709e-05,0.0,0.0,0.0,0.0,0.0,0.0,0.0,9.754450697646577e-05,-7.711068326787807e-05,-3.903556700352029e-06,2.591141483221371e-05,-2.4417318829073054e-06,2.2160051571518125e-13,-8.138027479676069e-07,-0.00046910882186703367,0.00023617734938711184,0.00024108992208380918,-0.0001642092196996738,-0.00039406207050238706,-2.2467332019903887e-05,7.019009951192709e-05,0.12130087614059448,12.000879287719727,-1.2909882068634033,-21.792634963989258,-0.3976340889930725,-2.5271639823913574,0.18710653483867645,0
71,0.3500182628631592,-0.12130087614059448,-12.000879287719727,1.2909882068634033,21.792634963989258,0.3976340889930725,2.5271639823913574,-0.18710653483867645,0.0,0.0,0.0,0.0,0.0,0.0,0.0,-0.10878355012020745,0.2976973108317534,0.10444310001170327,0.4810001761138551,-0.12723868661319349,0.12625673597697906,-0.20480984058564927,0.17278269311210565,-0.4874431361482854,-0.11146719717226101,-1.9464060977634627,0.1336083436393786,2.5955503597787124,0.9452453727639384,0.1728802376190821,-0.48752024683155326,-0.11147110072896137,-1.9463801863486305,0.1336059019074957,2.595550359778934,0.9452445589611904,0.00046910882186703367,-0.00023617734938711184,-0.00024108992208380918,0.0001642092196996738,0.00039406207050238706,2.2467332019903887e-05,-7.019009951192709e-05,0.0,0.0,0.0,0.0,0.0,0.0,0.0,9.754450697646577e-05,-7.711068326787807e-05,-3.903556700352029e-06,2.591141483221371e-05,-2.4417318829073054e-06,2.2160051571518125e-13,-8.138027479676069e-07,-0.00046910882186703367,0.00023617734938711184,0.00024108992208380918,-0.0001642092196996738,-0.00039406207050238706,-2.2467332019903887e-05,7.019009951192709e-05,0.12130087614059448,12.000879287719727,-1.2909882068634033,-21.792634963989258,-0.3976340889930725,-2.5271639823913574,0.18710653483867645,0
72,0.3550264835357666,-0.14510458707809448,-12.024682998657227,1.2909882068634033,21.768831253051758,0.4031272530555725,2.5399813652038574,-0.20083944499492645,0.0,0.0,0.0,0.0,0.0,0.0,0.0,-0.11033110238046516,0.2968764368202767,0.10283805928656892,0.4822467925593161,-0.1273610268555665,0.12601774150931236,-0.20305073080453484,0.17278436354796092,-0.48744146571243013,-0.1114672205562677,-1.9464044273276075,0.13360808448093114,2.5955489356252883,0.9452468986428446,0.1728802376190821,-0.48752024683155326,-0.11147110072896137,-1.9463801863486305,0.1336059019074957,2.595550359778934,0.9452445589611904,0.00046345021741763074,-0.0003516749932855649,-0.00011257676857782854,-0.0002509720324404,3.1707073128022036e-05,-0.0007360437764396842,0.0005720794117603223,0.0,0.0,0.0,0.0,0.0,0.0,0.0,9.587407112118806e-05,-7.878111912312802e-05,-3.880172693662698e-06,2.4240978977019267e-05,-2.1825734354552484e-06,1.4241536456793824e-06,-2.3396816541954024e-06,-0.00046345021741763074,0.0003516749932855649,0.00011257676857782854,0.0002509720324404,-3.1707073128022036e-05,0.0007360437764396842,-0.0005720794117603223,0.14510458707809448,12.024682998657227,-1.2909882068634033,-21.768831253051758,-0.4031272530555725,-2.5399813652038574,0.20083944499492645,0
73,0.36000990867614746,-0.14510458707809448,-12.024682998657227,1.2909882068634033,21.768831253051758,0.4031272530555725,2.5399813652038574,-0.20083944499492645,0.0,0.0,0.0,0.0,0.0,0.0,0.0,-0.11033110238046516,0.2968764368202767,0.10283805928656892,0.4822467925593161,-0.1273610268555665,0.12601774150931236,-0.20305073080453484,0.17278436354796092,-0.48744146571243013,-0.1114672205562677,-1.9464044273276075,0.13360808448093114,2.5955489356252883,0.9452468986428446,0.1728802376190821,-0.48752024683155326,-0.11147110072896137,-1.9463801863486305,0.1336059019074957,2.595550359778934,0.9452445589611904,0.00046345021741763074,-0.0003516749932855649,-0.00011257676857782854,-0.0002509720324404,3.1707073128022036e-05,-0.0007360437764396842,0.0005720794117603223,0.0,0.0,0.0,0.0,0.0,0.0,0.0,9.587407112118806e-05,-7.878111912312802e-05,-3.880172693662698e-06,2.4240978977019267e-05,-2.1825734354552484e-06,1.4241536456793824e-06,-2.3396816541954024e-06,-0.00046345021741763074,0.0003516749932855649,0.00011257676857782854,0.0002509720324404,-3.1707073128022036e-05,0.0007360437764396842,-0.0005720794117603223,0.14510458707809448,12.024682998657227,-1.2909882068634033,-21.768831253051758,-0.4031272530555725,-2.5399813652038574,0.20083944499492645,0
74,0.365001916885376,-0.12130087614059448,-12.024682998657227,1.3147919178009033,21.768831253051758,0.4150291085243225,2.5335726737976074,-0.19351522624492645,0.0,0.0,0.0,0.0,0.0,0.0,0.0,-0.1125360698222375,0.29291590835596626,0.10261631430145678,0.485262359358119,-0.12760317965689857,0.1266978057105696,-0.20282571810851688,0.17278269311210565,-0.48744146571243013,-0.11146886457700748,-1.9464044273276075,0.13360676205452823,2.595549647702111,0.9452460848407613,0.1728802376190821,-0.48752024683155326,-0.11147110072896137,-1.9463801863486305,0.1336059019074957,2.595550359778934,0.9452445589611904,-7.598228387852291e-05,-0.0006519776118217097,-0.00040269380950868055,0.00020660667756043795,-0.00025487140179462805,-0.00030392480552275875,-6.239629381557799e-05,0.0,0.0,0.0,0.0,0.0,0.0,0.0,9.754450697646577e-05,-7.878111912312802e-05,-2.2361519538827146e-06,2.4240978977019267e-05,-8.601470325442229e-07,7.120768228396912e-07,-1.5258795709183204e-06,7.598228387852291e-05,0.0006519776118217097,0.00040269380950868055,-0.00020660667756043795,0.00025487140179462805,0.00030392480552275875,6.239629381557799e-05,0.12130087614059448,12.024682998657227,-1.3147919178009033,-21.768831253051758,-0.4150291085243225,-2.5335726737976074,0.19351522624492645,0
75,0.3699982166290283,-0.12130087614059448,-12.024682998657227,1.3147919178009033,21.768831253051758,0.4150291085243225,2.5335726737976074,-0.19351522624492645,0.0,0.0,0.0,0.0,0.0,0.0,0.0,-0.1125360698222375,0.29291590835596626,0.10261631430145678,0.485262359358119,-0.12760317965689857,0.1266978057105696,-0.20282571810851688,0.17278269311210565,-0.48744146571243013,-0.11146886457700748,-1.9464044273276075,0.13360676205452823,2.595549647702111,0.9452460848407613,0.1728802376190821,-0.48752024683155326,-0.11147110072896137,-1.9463801863486305,0.1336059019074957,2.595550359778934,0.9452445589611904,-7.598228387852291e-05,-0.0006519776118217097,-0.00040269380950868055,0.00020660667756043795,-0.00025487140179462805,-0.00030392480552275875,-6.239629381557799e-05,0.0,0.0,0.0,0.0,0.0,0.0,0.0,9.754450697646577e-05,-7.878111912312802e-05,-2.2361519538827146e-06,2.4240978977019267e-05,-8.601470325442229e-07,7.120768228396912e-07,-1.5258795709183204e-06,7.598228387852291e-05,0.0006519776118217097,0.00040269380950868055,-0.00020660667756043795,0.00025487140179462805,0.00030392480552275875,6.239629381557799e-05,0.12130087614059448,12.024682998657227,-1.3147919178009033,-21.768831253051758,-0.4150291085243225,-2.5335726737976074,0.19351522624492645,0
76,0.3750028610229492,-0.09352988004684448,-12.048486709594727,1.3425629138946533,21.768831253051758,0.3976340889930725,2.5207552909851074,-0.22830526530742645,0.0,0.0,0.0,0.0,0.0,0.0,0.0,-0.11194935145907185,0.2987395476359702,0.10563891004848013,0.47965537037266515,-0.12766341107411774,0.12608221718109916,-0.20412271570410162,0.1727807442702745,-0.4874397952765749,-0.11147105018158404,-1.9464044273276075,0.13360869922238097,2.595551071855757,0.9452499504006571,0.1728802376190821,-0.48752024683155326,-0.11147110072896137,-1.9463801863486305,0.1336059019074957,2.595550359778934,0.9452445589611904,-4.0813736400894514e-06,0.00027641780419949876,-0.0010094627580087793,6.354935411201228e-05,0.00042788026425798925,0.00017764993101955235,0.001235025754018056,0.0,0.0,0.0,0.0,0.0,0.0,0.0,9.949334880759997e-05,-8.045155497837797e-05,-5.054737732546055e-08,2.4240978977019267e-05,-2.797314885283342e-06,-7.120768228396912e-07,-5.3914394666509935e-06,4.0813736400894514e-06,-0.00027641780419949876,0.0010094627580087793,-6.354935411201228e-05,-0.00042788026425798925,-0.00017764993101955235,-0.001235025754018056,0.09352988004684448,12.048486709594727,-1.3425629138946533,-21.768831253051758,-0.3976340889930725,-2.5207552909851074,0.22830526530742645,0
77,0.38001155853271484,-0.09352988004684448,-12.048486709594727,1.3425629138946533,21.768831253051758,0.3976340889930725,2.5207552909851074,-0.22830526530742645,0.0,0.0,0.0,0.0,0.0,0.0,0.0,-0.11194935145907185,0.2987395476359702,0.10563891004848013,0.47965537037266515,-0.12766341107411774,0.12608221718109916,-0.20412271570410162,0.1727807442702745,-0.4874397952765749,-0.11147105018158404,-1.9464044273276075,0.13360869922238097,2.595551071855757,0.9452499504006571,0.1728802376190821,-0.48752024683155326,-0.11147110072896137,-1.9463801863486305,0.1336059019074957,2.595550359778934,0.9452445589611904,-4.0813736400894514e-06,0.00027641780419949876,-0.0010094627580087793,6.354935411201228e-05,0.00042788026425798925,0.00017764993101955235,0.001235025754018056,0.0,0.0,0.0,0.0,0.0,0.0,0.0,9.949334880759997e-05,-8.045155497837797e-05,-5.054737732546055e-08,2.4240978977019267e-05,-2.797314885283342e-06,-7.120768228396912e-07,-5.3914394666509935e-06,4.0813736400894514e-06,-0.00027641780419949876,0.0010094627580087793,-6.354935411201228e-05,-0.00042788026425798925,-0.00017764993101955235,-0.001235025754018056,0.09352988004684448,12.048486709594727,-1.3425629138946533,-21.768831253051758,-0.3976340889930725,-2.5207552909851074,0.22830526530742645,0
78,0.3850123882293701,-0.09352988004684448,-12.024682998657227,1.2909882068634033,21.741060256958008,0.4095359444618225,2.5143465995788574,-0.17978231608867645,0.0,0.0,0.0,0.0,0.0,0.0,0.0,-0.10939646727236568,0.29657432233061015,0.11074640304478561,0.47808138189462934,-0.1276823925497677,0.12603693675704858,-0.20527379120408928,0.1727807442702745,-0.48744146571243013,-0.11146719706533834,-1.9464024784857765,0.1336073724061155,2.5955517839325797,0.945244558961855,0.1728802376190821,-0.48752024683155326,-0.11147110072896137,-1.9463801863486305,0.1336059019074957,2.595550359778934,0.9452445589611904,-7.008440765130715e-05,-0.00020503949448071794,0.000901310765545862,0.0006060009513958765,-0.0002464524273760967,0.00023541717902733395,-0.0005820446712954742,0.0,0.0,0.0,0.0,0.0,0.0,0.0,9.949334880759997e-05,-7.878111912312802e-05,-3.903663623031073e-06,2.2292137145996094e-05,-1.470498619815519e-06,-1.4241536456793824e-06,-6.645795025406187e-13,7.008440765130715e-05,0.00020503949448071794,-0.000901310765545862,-0.0006060009513958765,0.0002464524273760967,-0.00023541717902733395,0.0005820446712954742,0.09352988004684448,12.024682998657227,-1.2909882068634033,-21.741060256958008,-0.4095359444618225,-2.5143465995788574,0.17978231608867645,0
79,0.3900110721588135,-0.09352988004684448,-12.024682998657227,1.2909882068634033,21.741060256958008,0.4095359444618225,2.5143465995788574,-0.17978231608867645,0.0,0.0,0.0,0.0,0.0,0.0,0.0,-0.10939646727236568,0.29657432233061015,0.11074640304478561,0.47808138189462934,-0.1276823925497677,0.12603693675704858,-0.20527379120408928,0.1727807442702745,-0.48744146571243013,-0.11146719706533834,-1.9464024784857765,0.1336073724061155,2.5955517839325797,0.945244558961855,0.1728802376190821,-0.48752024683155326,-0.11147110072896137,-1.9463801863486305,0.1336059019074957,2.595550359778934,0.9452445589611904,-7.008440765130715e-05,-0.00020503949448071794,0.000901310765545862,0.0006060009513958765,-0.0002464524273760967,0.00023541717902733395,-0.0005820446712954742,0.0,0.0,0.0,0.0,0.0,0.0,0.0,9.949334880759997e-05,-7.878111912312802e-05,-3.903663623031073e-06,2.2292137145996094e-05,-1.470498619815519e-06,-1.4241536456793824e-06,-6.645795025406187e-13,7.008440765130715e-05,0.00020503949448071794,-0.000901310765545862,-0.0006060009513958765,0.0002464524273760967,-0.00023541717902733395,0.0005820446712954742,0.09352988004684448,12.024682998657227,-1.2909882068634033,-21.741060256958008,-0.4095359444618225,-2.5143465995788574,0.17978231608867645,0
