rezayati/contactInterpretation/dataset/franka_main/labeled_data/link2/f4_8.csv
index,time,tau_J0,tau_J1,tau_J2,tau_J3,tau_J4,tau_J5,tau_J6,tau_J_d0,tau_J_d1,tau_J_d2,tau_J_d3,tau_J_d4,tau_J_d5,tau_J_d6,tau_ext0,tau_ext1,tau_ext2,tau_ext3,tau_ext4,tau_ext5,tau_ext6,q0,q1,q2,q3,q4,q5,q6,q_d0,q_d1,q_d2,q_d3,q_d4,q_d5,q_d6,dq0,dq1,dq2,dq3,dq4,dq5,dq6,dq_d0,dq_d1,dq_d2,dq_d3,dq_d4,dq_d5,dq_d6,e0,e1,e2,e3,e4,e5,e6,de0,de1,de2,de3,de4,de5,de6,etau_J0,etau_J1,etau_J2,etau_J3,etau_J4,etau_J5,etau_J6,label
1,0.0,-0.4029781222343445,-22.621301651000977,-0.07375786453485489,14.155611038208008,0.10558086633682251,2.1453890800476074,-0.26217979192733765,0.0,0.0,0.0,0.0,0.0,0.0,0.0,-0.34812679444992306,0.15208337042276576,-0.23300179145466124,0.3009129512215059,-0.1241315268458075,-0.0367130909826748,-0.2447973403805397,1.6755253342201835,0.05231109442522651,0.029972131994977568,-2.752405529457226,0.03425344295920422,2.7663679499464813,0.7691623412702565,1.6754973547542302,0.052104326824870026,0.029969505109285054,-2.752394845125968,0.0342448039870148,2.7663679543071322,0.7691630533470046,0.0013491251013629283,-0.0005703422341389056,-0.00175981331193551,0.00012850714296963397,0.00016944290811553214,0.00012617272316435094,0.0010616464749958123,0.0,0.0,0.0,0.0,0.0,0.0,0.0,-2.7979465953231752e-05,-0.00020676760035648334,-2.6268856925144857e-06,1.0684331257948543e-05,-8.63897218941756e-06,4.360650951440448e-09,7.120767481216816e-07,-0.0013491251013629283,0.0005703422341389056,0.00175981331193551,-0.00012850714296963397,-0.00016944290811553214,-0.00012617272316435094,-0.0010616464749958123,0.4029781222343445,22.621301651000977,0.07375786453485489,-14.155611038208008,-0.10558086633682251,-2.1453890800476074,0.26217979192733765,0
2,0.0050029754638671875,-0.3236324191093445,-22.672876358032227,-0.1491362750530243,14.155611038208008,0.11198955774307251,2.1517977714538574,-0.24844686686992645,0.0,0.0,0.0,0.0,0.0,0.0,0.0,-0.3427132064722619,0.14971847071263625,-0.22770947120286625,0.3010748284544791,-0.12443958348280353,-0.03667166859978524,-0.24255236524392174,1.675519766100666,0.05231471402769055,0.029977421708012878,-2.752405529457226,0.034252497856525115,2.7663672422303014,0.7691608153896198,1.6754973547542302,0.052104326824870026,0.029969505109285054,-2.752394845125968,0.0342448039870148,2.7663679543071322,0.7691630533470046,-0.0002491165264156535,0.0005306000858079069,0.000714567517637165,0.0005539839127047731,-0.00017327339692767407,-7.783767360107954e-05,0.00025689050900465636,0.0,0.0,0.0,0.0,0.0,0.0,0.0,-2.241134643576892e-05,-0.00021038720282052364,-7.916598727824437e-06,1.0684331257948543e-05,-7.693869510314033e-06,7.12076830833297e-07,2.2379573848541057e-06,0.0002491165264156535,-0.0005306000858079069,-0.000714567517637165,-0.0005539839127047731,0.00017327339692767407,7.783767360107954e-05,-0.00025689050900465636,0.3236324191093445,22.672876358032227,0.1491362750530243,-14.155611038208008,-0.11198955774307251,-2.1517977714538574,0.24844686686992645,0
3,0.010821104049682617,-0.3236324191093445,-22.672876358032227,-0.1491362750530243,14.155611038208008,0.11198955774307251,2.1517977714538574,-0.24844686686992645,0.0,0.0,0.0,0.0,0.0,0.0,0.0,-0.3427132064722619,0.14971847071263625,-0.22770947120286625,0.3010748284544791,-0.12443958348280353,-0.03667166859978524,-0.24255236524392174,1.675519766100666,0.05231471402769055,0.029977421708012878,-2.752405529457226,0.034252497856525115,2.7663672422303014,0.7691608153896198,1.6754973547542302,0.052104326824870026,0.029969505109285054,-2.752394845125968,0.0342448039870148,2.7663679543071322,0.7691630533470046,-0.0002491165264156535,0.0005306000858079069,0.000714567517637165,0.0005539839127047731,-0.00017327339692767407,-7.783767360107954e-05,0.00025689050900465636,0.0,0.0,0.0,0.0,0.0,0.0,0.0,-2.241134643576892e-05,-0.00021038720282052364,-7.916598727824437e-06,1.0684331257948543e-05,-7.693869510314033e-06,7.12076830833297e-07,2.2379573848541057e-06,0.0002491165264156535,-0.0005306000858079069,-0.000714567517637165,-0.0005539839127047731,0.00017327339692767407,7.783767360107954e-05,-0.00025689050900465636,0.3236324191093445,22.672876358032227,0.1491362750530243,-14.155611038208008,-0.11198955774307251,-2.1517977714538574,0.24844686686992645,0
4,0.015019655227661133,-0.3752071261405945,-22.672876358032227,-0.1729399859905243,14.179414749145508,0.11748272180557251,2.1517977714538574,-0.27591270208358765,0.0,0.0,0.0,0.0,0.0,0.0,0.0,-0.3516815936283938,0.14820745442353828,-0.23665325258841782,0.29864030680527104,-0.12368333352079472,-0.03698611718355369,-0.2411306174717783,1.6755233882127754,0.052314713702914746,0.029979092143868142,-2.752407202945537,0.034252231442693105,2.7663672416919574,0.769163867149088,1.6754973547542302,0.052104326824870026,0.029969505109285054,-2.752394845125968,0.0342448039870148,2.7663679543071322,0.7691630533470046,9.613766791459857e-05,0.00016172365655402966,0.0005570264333778329,-0.0004890956879500854,-0.000254370548976636,-0.0002529869845445191,0.0011743380979871005,0.0,0.0,0.0,0.0,0.0,0.0,0.0,-2.6033458545127175e-05,-0.00021038687804472017,-9.587034583088266e-06,1.2357819568986628e-05,-7.4274556783049395e-06,7.126151748693133e-07,-8.138020833881043e-07,-9.613766791459857e-05,-0.00016172365655402966,-0.0005570264333778329,0.0004890956879500854,0.000254370548976636,0.0002529869845445191,-0.0011743380979871005,0.3752071261405945,22.672876358032227,0.1729399859905243,-14.179414749145508,-0.11748272180557251,-2.1517977714538574,0.27591270208358765,0
5,0.020003557205200195,-0.3752071261405945,-22.672876358032227,-0.1729399859905243,14.179414749145508,0.11748272180557251,2.1517977714538574,-0.27591270208358765,0.0,0.0,0.0,0.0,0.0,0.0,0.0,-0.3516815936283938,0.14820745442353828,-0.23665325258841782,0.29864030680527104,-0.12368333352079472,-0.03698611718355369,-0.2411306174717783,1.6755233882127754,0.052314713702914746,0.029979092143868142,-2.752407202945537,0.034252231442693105,2.7663672416919574,0.769163867149088,1.6754973547542302,0.052104326824870026,0.029969505109285054,-2.752394845125968,0.0342448039870148,2.7663679543071322,0.7691630533470046,9.613766791459857e-05,0.00016172365655402966,0.0005570264333778329,-0.0004890956879500854,-0.000254370548976636,-0.0002529869845445191,0.0011743380979871005,0.0,0.0,0.0,0.0,0.0,0.0,0.0,-2.6033458545127175e-05,-0.00021038687804472017,-9.587034583088266e-06,1.2357819568986628e-05,-7.4274556783049395e-06,7.126151748693133e-07,-8.138020833881043e-07,-9.613766791459857e-05,-0.00016172365655402966,-0.0005570264333778329,0.0004890956879500854,0.000254370548976636,0.0002529869845445191,-0.0011743380979871005,0.3752071261405945,22.672876358032227,0.1729399859905243,-14.179414749145508,-0.11748272180557251,-2.1517977714538574,0.27591270208358765,0
6,0.025005578994750977,-0.3752071261405945,-22.696680068969727,-0.1491362750530243,14.179414749145508,0.10008770227432251,2.1453890800476074,-0.27591270208358765,0.0,0.0,0.0,0.0,0.0,0.0,0.0,-0.356751421694732,0.15391952407895157,-0.2372014926625546,0.2952008044706056,-0.12316111754000447,-0.038030574049757064,-0.24069217398218073,1.6755233853783684,0.05231638413876818,0.02997734272484315,-2.752407199893099,0.034250503331102335,2.7663679494081266,0.769163867149088,1.6754973547542302,0.052104326824870026,0.029969505109285054,-2.752394845125968,0.0342448039870148,2.7663679543071322,0.7691630533470046,-0.0003698843510059834,0.00166724024703028,-0.00044409989778579714,-0.0005293871519477769,0.0003816136284255803,7.499699045364815e-05,0.00037828575057898656,0.0,0.0,0.0,0.0,0.0,0.0,0.0,-2.603062413819579e-05,-0.00021205731389815213,-7.837615558097671e-06,1.2354767130684507e-05,-5.699344087534142e-06,4.899005645597754e-09,-8.138020833881043e-07,0.0003698843510059834,-0.00166724024703028,0.00044409989778579714,0.0005293871519477769,-0.0003816136284255803,-7.499699045364815e-05,-0.00037828575057898656,0.3752071261405945,22.696680068969727,0.1491362750530243,-14.179414749145508,-0.10008770227432251,-2.1453890800476074,0.27591270208358765,0
7,0.030003070831298828,-0.3752071261405945,-22.696680068969727,-0.1491362750530243,14.179414749145508,0.10008770227432251,2.1453890800476074,-0.27591270208358765,0.0,0.0,0.0,0.0,0.0,0.0,0.0,-0.356751421694732,0.15391952407895157,-0.2372014926625546,0.2952008044706056,-0.12316111754000447,-0.038030574049757064,-0.24069217398218073,1.6755233853783684,0.05231638413876818,0.02997734272484315,-2.752407199893099,0.034250503331102335,2.7663679494081266,0.769163867149088,1.6754973547542302,0.052104326824870026,0.029969505109285054,-2.752394845125968,0.0342448039870148,2.7663679543071322,0.7691630533470046,-0.0003698843510059834,0.00166724024703028,-0.00044409989778579714,-0.0005293871519477769,0.0003816136284255803,7.499699045364815e-05,0.00037828575057898656,0.0,0.0,0.0,0.0,0.0,0.0,0.0,-2.603062413819579e-05,-0.00021205731389815213,-7.837615558097671e-06,1.2354767130684507e-05,-5.699344087534142e-06,4.899005645597754e-09,-8.138020833881043e-07,0.0003698843510059834,-0.00166724024703028,0.00044409989778579714,0.0005293871519477769,-0.0003816136284255803,-7.499699045364815e-05,-0.00037828575057898656,0.3752071261405945,22.696680068969727,0.1491362750530243,-14.179414749145508,-0.10008770227432251,-2.1453890800476074,0.27591270208358765,0
8,0.03516054153442383,-0.2998287081718445,-22.649072647094727,-0.1491362750530243,14.155611038208008,0.10008770227432251,2.1517977714538574,-0.25485557317733765,0.0,0.0,0.0,0.0,0.0,0.0,0.0,-0.3523338350439225,0.14967452351437188,-0.2313441812056072,0.29837980228652217,-0.12440046015618753,-0.03764997085981218,-0.24169384896534105,1.6755180956648108,0.05231304326705765,0.029977421707567016,-2.752405529457226,0.034249858789223625,2.7663671853803167,0.7691615274680984,1.6754973547542302,0.052104326824870026,0.029969505109285054,-2.752394845125968,0.0342448039870148,2.7663679543071322,0.7691630533470046,-0.0014097716732191996,5.715393913817411e-05,-0.00033651606105145965,0.00023728753997933268,0.00035232271905433156,-0.0001379450687244615,0.003480923910967353,0.0,0.0,0.0,0.0,0.0,0.0,0.0,-2.074091058057448e-05,-0.00020871644218762447,-7.91659828196234e-06,1.0684331257948543e-05,-5.054802208824538e-06,7.689268155530726e-07,1.5258789062277955e-06,0.0014097716732191996,-5.715393913817411e-05,0.00033651606105145965,-0.00023728753997933268,-0.00035232271905433156,0.0001379450687244615,-0.003480923910967353,0.2998287081718445,22.649072647094727,0.1491362750530243,-14.155611038208008,-0.10008770227432251,-2.1517977714538574,0.25485557317733765,0
9,0.04000139236450195,-0.2998287081718445,-22.649072647094727,-0.1491362750530243,14.155611038208008,0.10008770227432251,2.1517977714538574,-0.25485557317733765,0.0,0.0,0.0,0.0,0.0,0.0,0.0,-0.3523338350439225,0.14967452351437188,-0.2313441812056072,0.29837980228652217,-0.12440046015618753,-0.03764997085981218,-0.24169384896534105,1.6755180956648108,0.05231304326705765,0.029977421707567016,-2.752405529457226,0.034249858789223625,2.7663671853803167,0.7691615274680984,1.6754973547542302,0.052104326824870026,0.029969505109285054,-2.752394845125968,0.0342448039870148,2.7663679543071322,0.7691630533470046,-0.0014097716732191996,5.715393913817411e-05,-0.00033651606105145965,0.00023728753997933268,0.00035232271905433156,-0.0001379450687244615,0.003480923910967353,0.0,0.0,0.0,0.0,0.0,0.0,0.0,-2.074091058057448e-05,-0.00020871644218762447,-7.91659828196234e-06,1.0684331257948543e-05,-5.054802208824538e-06,7.689268155530726e-07,1.5258789062277955e-06,0.0014097716732191996,-5.715393913817411e-05,0.00033651606105145965,-0.00023728753997933268,-0.00035232271905433156,0.0001379450687244615,-0.003480923910967353,0.2998287081718445,22.649072647094727,0.1491362750530243,-14.155611038208008,-0.10008770227432251,-2.1517977714538574,0.25485557317733765,0
10,0.0458531379699707,-0.2998287081718445,-22.649072647094727,-0.1491362750530243,14.131807327270508,0.10558086633682251,2.1582064628601074,-0.19351522624492645,0.0,0.0,0.0,0.0,0.0,0.0,0.0,-0.35424615711539226,0.14444266572115236,-0.23612189601433006,0.3032012289217301,-0.12460997285040527,-0.036856800699478075,-0.2429585636900297,1.6755180956648108,0.05231304326705765,0.02997742170801287,-2.752403859021371,0.03425344824722605,2.7663664080543033,0.7691547516104247,1.6754973547542302,0.052104326824870026,0.029969505109285054,-2.752394845125968,0.0342448039870148,2.7663679543071322,0.7691630533470046,-0.0010958690609762936,-0.0005257779204927733,0.00011558055102265365,0.0011012180693958343,0.00013038900702857606,-0.0003619940491752417,-0.0019920638421708553,0.0,0.0,0.0,0.0,0.0,0.0,0.0,-2.074091058057448e-05,-0.00020871644218762447,-7.916598727817498e-06,9.013895402976146e-06,-8.644260211250476e-06,1.546252828887873e-06,8.301736579952035e-06,0.0010958690609762936,0.0005257779204927733,-0.00011558055102265365,-0.0011012180693958343,-0.00013038900702857606,0.0003619940491752417,0.0019920638421708553,0.2998287081718445,22.649072647094727,0.1491362750530243,-14.131807327270508,-0.10558086633682251,-2.1582064628601074,0.19351522624492645,0
11,0.04999947547912598,-0.2998287081718445,-22.649072647094727,-0.1491362750530243,14.131807327270508,0.10558086633682251,2.1582064628601074,-0.19351522624492645,0.0,0.0,0.0,0.0,0.0,0.0,0.0,-0.35424615711539226,0.14444266572115236,-0.23612189601433006,0.3032012289217301,-0.12460997285040527,-0.036856800699478075,-0.2429585636900297,1.6755180956648108,0.05231304326705765,0.02997742170801287,-2.752403859021371,0.03425344824722605,2.7663664080543033,0.7691547516104247,1.6754973547542302,0.052104326824870026,0.029969505109285054,-2.752394845125968,0.0342448039870148,2.7663679543071322,0.7691630533470046,-0.0010958690609762936,-0.0005257779204927733,0.00011558055102265365,0.0011012180693958343,0.00013038900702857606,-0.0003619940491752417,-0.0019920638421708553,0.0,0.0,0.0,0.0,0.0,0.0,0.0,-2.074091058057448e-05,-0.00020871644218762447,-7.916598727817498e-06,9.013895402976146e-06,-8.644260211250476e-06,1.546252828887873e-06,8.301736579952035e-06,0.0010958690609762936,0.0005257779204927733,-0.00011558055102265365,-0.0011012180693958343,-0.00013038900702857606,0.0003619940491752417,0.0019920638421708553,0.2998287081718445,22.649072647094727,0.1491362750530243,-14.131807327270508,-0.10558086633682251,-2.1582064628601074,0.19351522624492645,0
12,0.05500030517578125,-0.2998287081718445,-22.649072647094727,-0.1491362750530243,14.131807327270508,0.10558086633682251,2.1582064628601074,-0.19351522624492645,0.0,0.0,0.0,0.0,0.0,0.0,0.0,-0.35424615711539226,0.14444266572115236,-0.23612189601433006,0.3032012289217301,-0.12460997285040527,-0.036856800699478075,-0.2429585636900297,1.6755180956648108,0.05231304326705765,0.02997742170801287,-2.752403859021371,0.03425344824722605,2.7663664080543033,0.7691547516104247,1.6754973547542302,0.052104326824870026,0.029969505109285054,-2.752394845125968,0.0342448039870148,2.7663679543071322,0.7691630533470046,-0.0010958690609762936,-0.0005257779204927733,0.00011558055102265365,0.0011012180693958343,0.00013038900702857606,-0.0003619940491752417,-0.0019920638421708553,0.0,0.0,0.0,0.0,0.0,0.0,0.0,-2.074091058057448e-05,-0.00020871644218762447,-7.916598727817498e-06,9.013895402976146e-06,-8.644260211250476e-06,1.546252828887873e-06,8.301736579952035e-06,0.0010958690609762936,0.0005257779204927733,-0.00011558055102265365,-0.0011012180693958343,-0.00013038900702857606,0.0003619940491752417,0.0019920638421708553,0.2998287081718445,22.649072647094727,0.1491362750530243,-14.131807327270508,-0.10558086633682251,-2.1582064628601074,0.19351522624492645,0
13,0.06084918975830078,-0.2998287081718445,-22.649072647094727,-0.1491362750530243,14.131807327270508,0.10558086633682251,2.1582064628601074,-0.19351522624492645,0.0,0.0,0.0,0.0,0.0,0.0,0.0,-0.35424615711539226,0.14444266572115236,-0.23612189601433006,0.3032012289217301,-0.12460997285040527,-0.036856800699478075,-0.2429585636900297,1.6755180956648108,0.05231304326705765,0.02997742170801287,-2.752403859021371,0.03425344824722605,2.7663664080543033,0.7691547516104247,1.6754973547542302,0.052104326824870026,0.029969505109285054,-2.752394845125968,0.0342448039870148,2.7663679543071322,0.7691630533470046,-0.0010958690609762936,-0.0005257779204927733,0.00011558055102265365,0.0011012180693958343,0.00013038900702857606,-0.0003619940491752417,-0.0019920638421708553,0.0,0.0,0.0,0.0,0.0,0.0,0.0,-2.074091058057448e-05,-0.00020871644218762447,-7.916598727817498e-06,9.013895402976146e-06,-8.644260211250476e-06,1.546252828887873e-06,8.301736579952035e-06,0.0010958690609762936,0.0005257779204927733,-0.00011558055102265365,-0.0011012180693958343,-0.00013038900702857606,0.0003619940491752417,0.0019920638421708553,0.2998287081718445,22.649072647094727,0.1491362750530243,-14.131807327270508,-0.10558086633682251,-2.1582064628601074,0.19351522624492645,0
14,0.0650014877319336,-0.3514034152030945,-22.696680068969727,-0.1253325641155243,14.207185745239258,0.12389141321182251,2.1389803886413574,-0.21457235515117645,0.0,0.0,0.0,0.0,0.0,0.0,0.0,-0.3541246931655024,0.14921405552807823,-0.24068172402602608,0.2988137420335739,-0.12425432255927481,-0.03721011013181587,-0.24474016466071913,1.675521714942497,0.05231638413876818,0.029975751272157614,-2.7524091487349125,0.034251396709977,2.766368534056818,0.7691570510705424,1.6754973547542302,0.052104326824870026,0.029969505109285054,-2.752394845125968,0.0342448039870148,2.7663679543071322,0.7691630533470046,-6.856660716312305e-05,0.0010176700913292023,-0.0007190196627830066,-0.0007241436231680603,-0.0003295741487793183,0.00042807146994091515,-0.0009437108066053059,0.0,0.0,0.0,0.0,0.0,0.0,0.0,-2.4360188266792093e-05,-0.00021205731389815213,-6.246162872560607e-06,1.4303608944388202e-05,-6.592722962196762e-06,-5.797496855919348e-07,6.002276462191425e-06,6.856660716312305e-05,-0.0010176700913292023,0.0007190196627830066,0.0007241436231680603,0.0003295741487793183,-0.00042807146994091515,0.0009437108066053059,0.3514034152030945,22.696680068969727,0.1253325641155243,-14.207185745239258,-0.12389141321182251,-2.1389803886413574,0.21457235515117645,0
15,0.07000231742858887,-0.3514034152030945,-22.696680068969727,-0.1253325641155243,14.207185745239258,0.12389141321182251,2.1389803886413574,-0.21457235515117645,0.0,0.0,0.0,0.0,0.0,0.0,0.0,-0.3541246931655024,0.14921405552807823,-0.24068172402602608,0.2988137420335739,-0.12425432255927481,-0.03721011013181587,-0.24474016466071913,1.675521714942497,0.05231638413876818,0.029975751272157614,-2.7524091487349125,0.034251396709977,2.766368534056818,0.7691570510705424,1.6754973547542302,0.052104326824870026,0.029969505109285054,-2.752394845125968,0.0342448039870148,2.7663679543071322,0.7691630533470046,-6.856660716312305e-05,0.0010176700913292023,-0.0007190196627830066,-0.0007241436231680603,-0.0003295741487793183,0.00042807146994091515,-0.0009437108066053059,0.0,0.0,0.0,0.0,0.0,0.0,0.0,-2.4360188266792093e-05,-0.00021205731389815213,-6.246162872560607e-06,1.4303608944388202e-05,-6.592722962196762e-06,-5.797496855919348e-07,6.002276462191425e-06,6.856660716312305e-05,-0.0010176700913292023,0.0007190196627830066,0.0007241436231680603,0.0003295741487793183,-0.00042807146994091515,0.0009437108066053059,0.3514034152030945,22.696680068969727,0.1253325641155243,-14.207185745239258,-0.12389141321182251,-2.1389803886413574,0.21457235515117645,0
16,0.07499957084655762,-0.3514034152030945,-22.649072647094727,-0.1253325641155243,14.131807327270508,0.10558086633682251,2.1517977714538574,-0.22830526530742645,0.0,0.0,0.0,0.0,0.0,0.0,0.0,-0.3494373846161329,0.14945508722340736,-0.23695813215417513,0.29838271148009543,-0.12343035711937576,-0.03673995551324197,-0.24479618905449083,1.675521714942497,0.05231304326705765,0.029975751272157614,-2.752403859021371,0.034248937140741766,2.7663672422300603,0.7691585774338897,1.6754973547542302,0.052104326824870026,0.029969505109285054,-2.752394845125968,0.0342448039870148,2.7663679543071322,0.7691630533470046,0.00016404318612033418,8.439351031095333e-05,-0.00024141313692566,0.0009034609804748738,0.00022901512555483175,0.00010236543199388721,-0.00013545478151191328,0.0,0.0,0.0,0.0,0.0,0.0,0.0,-2.4360188266792093e-05,-0.00020871644218762447,-6.246162872560607e-06,9.013895402976146e-06,-4.1331537269651e-06,7.120770719737379e-07,4.475913114920793e-06,-0.00016404318612033418,-8.439351031095333e-05,0.00024141313692566,-0.0009034609804748738,-0.00022901512555483175,-0.00010236543199388721,0.00013545478151191328,0.3514034152030945,22.649072647094727,0.1253325641155243,-14.131807327270508,-0.10558086633682251,-2.1517977714538574,0.22830526530742645,0
17,0.08001470565795898,-0.3514034152030945,-22.649072647094727,-0.1253325641155243,14.131807327270508,0.10558086633682251,2.1517977714538574,-0.22830526530742645,0.0,0.0,0.0,0.0,0.0,0.0,0.0,-0.3494373846161329,0.14945508722340736,-0.23695813215417513,0.29838271148009543,-0.12343035711937576,-0.03673995551324197,-0.24479618905449083,1.675521714942497,0.05231304326705765,0.029975751272157614,-2.752403859021371,0.034248937140741766,2.7663672422300603,0.7691585774338897,1.6754973547542302,0.052104326824870026,0.029969505109285054,-2.752394845125968,0.0342448039870148,2.7663679543071322,0.7691630533470046,0.00016404318612033418,8.439351031095333e-05,-0.00024141313692566,0.0009034609804748738,0.00022901512555483175,0.00010236543199388721,-0.00013545478151191328,0.0,0.0,0.0,0.0,0.0,0.0,0.0,-2.4360188266792093e-05,-0.00020871644218762447,-6.246162872560607e-06,9.013895402976146e-06,-4.1331537269651e-06,7.120770719737379e-07,4.475913114920793e-06,-0.00016404318612033418,-8.439351031095333e-05,0.00024141313692566,-0.0009034609804748738,-0.00022901512555483175,-0.00010236543199388721,0.00013545478151191328,0.3514034152030945,22.649072647094727,0.1253325641155243,-14.131807327270508,-0.10558086633682251,-2.1517977714538574,0.22830526530742645,0
18,0.08501005172729492,-0.3752071261405945,-22.649072647094727,-0.1491362750530243,14.131807327270508,0.09367901086807251,2.1453890800476074,-0.20724813640117645,0.0,0.0,0.0,0.0,0.0,0.0,0.0,-0.35214758426863446,0.14836650188868203,-0.23784098993433808,0.2975180923686948,-0.12301260697715577,-0.035731433446561045,-0.24334579695138903,1.6755233853783524,0.05231304326705765,0.029977421708012878,-2.752403859021371,0.0342506276967366,2.7663679499464813,0.7691562377529011,1.6754973547542302,0.052104326824870026,0.029969505109285054,-2.752394845125968,0.0342448039870148,2.7663679543071322,0.7691630533470046,0.000400070156748716,0.0003904441781183051,-0.00015700363021331116,0.0007757560788563759,0.00037589867889439307,0.0002987011377720231,-0.0011891028679524187,0.0,0.0,0.0,0.0,0.0,0.0,0.0,-2.603062412220858e-05,-0.00020871644218762447,-7.916598727824437e-06,9.013895402976146e-06,-5.823709721797243e-06,4.360650951440448e-09,6.815594103537492e-06,-0.000400070156748716,-0.0003904441781183051,0.00015700363021331116,-0.0007757560788563759,-0.00037589867889439307,-0.0002987011377720231,0.0011891028679524187,0.3752071261405945,22.649072647094727,0.1491362750530243,-14.131807327270508,-0.09367901086807251,-2.1453890800476074,0.20724813640117645,0
19,0.09000849723815918,-0.3752071261405945,-22.649072647094727,-0.1491362750530243,14.131807327270508,0.09367901086807251,2.1453890800476074,-0.20724813640117645,0.0,0.0,0.0,0.0,0.0,0.0,0.0,-0.35214758426863446,0.14836650188868203,-0.23784098993433808,0.2975180923686948,-0.12301260697715577,-0.035731433446561045,-0.24334579695138903,1.6755233853783524,0.05231304326705765,0.029977421708012878,-2.752403859021371,0.0342506276967366,2.7663679499464813,0.7691562377529011,1.6754973547542302,0.052104326824870026,0.029969505109285054,-2.752394845125968,0.0342448039870148,2.7663679543071322,0.7691630533470046,0.000400070156748716,0.0003904441781183051,-0.00015700363021331116,0.0007757560788563759,0.00037589867889439307,0.0002987011377720231,-0.0011891028679524187,0.0,0.0,0.0,0.0,0.0,0.0,0.0,-2.603062412220858e-05,-0.00020871644218762447,-7.916598727824437e-06,9.013895402976146e-06,-5.823709721797243e-06,4.360650951440448e-09,6.815594103537492e-06,-0.000400070156748716,-0.0003904441781183051,0.00015700363021331116,-0.0007757560788563759,-0.00037589867889439307,-0.0002987011377720231,0.0011891028679524187,0.3752071261405945,22.649072647094727,0.1491362750530243,-14.131807327270508,-0.09367901086807251,-2.1453890800476074,0.20724813640117645,0
20,0.09000849723815918,-0.3752071261405945,-22.649072647094727,-0.1491362750530243,14.131807327270508,0.09367901086807251,2.1453890800476074,-0.20724813640117645,0.0,0.0,0.0,0.0,0.0,0.0,0.0,-0.35214758426863446,0.14836650188868203,-0.23784098993433808,0.2975180923686948,-0.12301260697715577,-0.035731433446561045,-0.24334579695138903,1.6755233853783524,0.05231304326705765,0.029977421708012878,-2.752403859021371,0.0342506276967366,2.7663679499464813,0.7691562377529011,1.6754973547542302,0.052104326824870026,0.029969505109285054,-2.752394845125968,0.0342448039870148,2.7663679543071322,0.7691630533470046,0.000400070156748716,0.0003904441781183051,-0.00015700363021331116,0.0007757560788563759,0.00037589867889439307,0.0002987011377720231,-0.0011891028679524187,0.0,0.0,0.0,0.0,0.0,0.0,0.0,-2.603062412220858e-05,-0.00020871644218762447,-7.916598727824437e-06,9.013895402976146e-06,-5.823709721797243e-06,4.360650951440448e-09,6.815594103537492e-06,-0.000400070156748716,-0.0003904441781183051,0.00015700363021331116,-0.0007757560788563759,-0.00037589867889439307,-0.0002987011377720231,0.0011891028679524187,0.3752071261405945,22.649072647094727,0.1491362750530243,-14.131807327270508,-0.09367901086807251,-2.1453890800476074,0.20724813640117645,0
21,0.10054802894592285,-0.3514034152030945,-22.649072647094727,-0.1729399859905243,14.179414749145508,0.11748272180557251,2.1517977714538574,-0.21457235515117645,0.0,0.0,0.0,0.0,0.0,0.0,0.0,-0.3521152160496878,0.1415084861462242,-0.23530187496890143,0.30118671756113025,-0.12372752516003012,-0.03439895384899308,-0.2402269452329615,1.675521714942497,0.05231304326705765,0.029979092143868142,-2.7524071998930815,0.034252205221922086,2.7663671114107626,0.7691570559701433,1.6754973547542302,0.052104326824870026,0.029969505109285054,-2.752394845125968,0.0342448039870148,2.7663679543071322,0.7691630533470046,-2.5615698300324402e-05,-0.0006059622098762641,0.00038725262044223745,-0.00017481552817479883,-0.0003657670254106248,-5.28528681235263e-05,-0.0009736159642217065,0.0,0.0,0.0,0.0,0.0,0.0,0.0,-2.4360188266792093e-05,-0.00020871644218762447,-9.587034583088266e-06,1.2354767113365028e-05,-7.401234907285226e-06,8.428963695905622e-07,5.997376861355264e-06,2.5615698300324402e-05,0.0006059622098762641,-0.00038725262044223745,0.00017481552817479883,0.0003657670254106248,5.28528681235263e-05,0.0009736159642217065,0.3514034152030945,22.649072647094727,0.1729399859905243,-14.179414749145508,-0.11748272180557251,-2.1517977714538574,0.21457235515117645,0
22,0.10500240325927734,-0.3514034152030945,-22.649072647094727,-0.1729399859905243,14.179414749145508,0.11748272180557251,2.1517977714538574,-0.21457235515117645,0.0,0.0,0.0,0.0,0.0,0.0,0.0,-0.3521152160496878,0.1415084861462242,-0.23530187496890143,0.30118671756113025,-0.12372752516003012,-0.03439895384899308,-0.2402269452329615,1.675521714942497,0.05231304326705765,0.029979092143868142,-2.7524071998930815,0.034252205221922086,2.7663671114107626,0.7691570559701433,1.6754973547542302,0.052104326824870026,0.029969505109285054,-2.752394845125968,0.0342448039870148,2.7663679543071322,0.7691630533470046,-2.5615698300324402e-05,-0.0006059622098762641,0.00038725262044223745,-0.00017481552817479883,-0.0003657670254106248,-5.28528681235263e-05,-0.0009736159642217065,0.0,0.0,0.0,0.0,0.0,0.0,0.0,-2.4360188266792093e-05,-0.00020871644218762447,-9.587034583088266e-06,1.2354767113365028e-05,-7.401234907285226e-06,8.428963695905622e-07,5.997376861355264e-06,2.5615698300324402e-05,0.0006059622098762641,-0.00038725262044223745,0.00017481552817479883,0.0003657670254106248,5.28528681235263e-05,0.0009736159642217065,0.3514034152030945,22.649072647094727,0.1729399859905243,-14.179414749145508,-0.11748272180557251,-2.1517977714538574,0.21457235515117645,0
23,0.1100008487701416,-0.3514034152030945,-22.649072647094727,-0.1729399859905243,14.155611038208008,0.11198955774307251,2.1453890800476074,-0.22098104655742645,0.0,0.0,0.0,0.0,0.0,0.0,0.0,-0.34843671206001386,0.15126109826664302,-0.23366325338536206,0.2966998106866471,-0.12374698695986643,-0.03590120648395968,-0.23930468490358245,1.6755217152574329,0.05231304326705765,0.029979092143868142,-2.752405529457226,0.03425281565144966,2.7663679150067018,0.7691577636318322,1.6754973547542302,0.052104326824870026,0.029969505109285054,-2.752394845125968,0.0342448039870148,2.7663679543071322,0.7691630533470046,0.00036051562486377287,7.397637283822699e-05,0.0006782544694516532,0.00038946383273414173,-0.00012569404577642045,0.00026984205278984233,-0.0011682409549227345,0.0,0.0,0.0,0.0,0.0,0.0,0.0,-2.4360503202647266e-05,-0.00020871644218762447,-9.587034583088266e-06,1.0684331257948543e-05,-8.011664434856569e-06,3.9300430465516456e-08,5.289715172440701e-06,-0.00036051562486377287,-7.397637283822699e-05,-0.0006782544694516532,-0.00038946383273414173,0.00012569404577642045,-0.00026984205278984233,0.0011682409549227345,0.3514034152030945,22.649072647094727,0.1729399859905243,-14.155611038208008,-0.11198955774307251,-2.1453890800476074,0.22098104655742645,0
24,0.11581206321716309,-0.3514034152030945,-22.649072647094727,-0.1491362750530243,14.155611038208008,0.11198955774307251,2.1582064628601074,-0.24844686686992645,0.0,0.0,0.0,0.0,0.0,0.0,0.0,-0.3522326377256456,0.14673057780843976,-0.239656098029538,0.2977141960060663,-0.12325419759660343,-0.03569895627613277,-0.2402437609035182,1.6755217149424988,0.05231304326705765,0.029977421708012878,-2.752405529457226,0.03425249948042428,2.7663665300994293,0.7691608153896198,1.6754973547542302,0.052104326824870026,0.029969505109285054,-2.752394845125968,0.0342448039870148,2.7663679543071322,0.7691630533470046,-2.6591450009852156e-06,-0.000251856483584414,-0.00026776877184776034,-7.327323073363367e-05,-4.578751057719778e-05,-0.0002803170497574693,-0.00041217115961744607,0.0,0.0,0.0,0.0,0.0,0.0,0.0,-2.436018826856845e-05,-0.00020871644218762447,-7.916598727824437e-06,1.0684331257948543e-05,-7.695493409481946e-06,1.4242077028825406e-06,2.2379573848541057e-06,2.6591450009852156e-06,0.000251856483584414,0.00026776877184776034,7.327323073363367e-05,4.578751057719778e-05,0.0002803170497574693,0.00041217115961744607,0.3514034152030945,22.649072647094727,0.1491362750530243,-14.155611038208008,-0.11198955774307251,-2.1582064628601074,0.24844686686992645,0
25,0.12000370025634766,-0.3514034152030945,-22.649072647094727,-0.1491362750530243,14.155611038208008,0.11198955774307251,2.1582064628601074,-0.24844686686992645,0.0,0.0,0.0,0.0,0.0,0.0,0.0,-0.3522326377256456,0.14673057780843976,-0.239656098029538,0.2977141960060663,-0.12325419759660343,-0.03569895627613277,-0.2402437609035182,1.6755217149424988,0.05231304326705765,0.029977421708012878,-2.752405529457226,0.03425249948042428,2.7663665300994293,0.7691608153896198,1.6754973547542302,0.052104326824870026,0.029969505109285054,-2.752394845125968,0.0342448039870148,2.7663679543071322,0.7691630533470046,-2.6591450009852156e-06,-0.000251856483584414,-0.00026776877184776034,-7.327323073363367e-05,-4.578751057719778e-05,-0.0002803170497574693,-0.00041217115961744607,0.0,0.0,0.0,0.0,0.0,0.0,0.0,-2.436018826856845e-05,-0.00020871644218762447,-7.916598727824437e-06,1.0684331257948543e-05,-7.695493409481946e-06,1.4242077028825406e-06,2.2379573848541057e-06,2.6591450009852156e-06,0.000251856483584414,0.00026776877184776034,7.327323073363367e-05,4.578751057719778e-05,0.0002803170497574693,0.00041217115961744607,0.3514034152030945,22.649072647094727,0.1491362750530243,-14.155611038208008,-0.11198955774307251,-2.1582064628601074,0.24844686686992645,0
26,0.12500309944152832,-0.3514034152030945,-22.649072647094727,-0.1491362750530243,14.155611038208008,0.11198955774307251,2.1582064628601074,-0.24844686686992645,0.0,0.0,0.0,0.0,0.0,0.0,0.0,-0.3522326377256456,0.14673057780843976,-0.239656098029538,0.2977141960060663,-0.12325419759660343,-0.03569895627613277,-0.2402437609035182,1.6755217149424988,0.05231304326705765,0.029977421708012878,-2.752405529457226,0.03425249948042428,2.7663665300994293,0.7691608153896198,1.6754973547542302,0.052104326824870026,0.029969505109285054,-2.752394845125968,0.0342448039870148,2.7663679543071322,0.7691630533470046,-2.6591450009852156e-06,-0.000251856483584414,-0.00026776877184776034,-7.327323073363367e-05,-4.578751057719778e-05,-0.0002803170497574693,-0.00041217115961744607,0.0,0.0,0.0,0.0,0.0,0.0,0.0,-2.436018826856845e-05,-0.00020871644218762447,-7.916598727824437e-06,1.0684331257948543e-05,-7.695493409481946e-06,1.4242077028825406e-06,2.2379573848541057e-06,2.6591450009852156e-06,0.000251856483584414,0.00026776877184776034,7.327323073363367e-05,4.578751057719778e-05,0.0002803170497574693,0.00041217115961744607,0.3514034152030945,22.649072647094727,0.1491362750530243,-14.155611038208008,-0.11198955774307251,-2.1582064628601074,0.24844686686992645,0
27,0.12999725341796875,-0.3752071261405945,-22.672876358032227,-0.09756157547235489,14.179414749145508,0.10558086633682251,2.1517977714538574,-0.25485557317733765,0.0,0.0,0.0,0.0,0.0,0.0,0.0,-0.3519072312934069,0.144437138435377,-0.23816414719951529,0.3003127380131483,-0.12354150276163893,-0.03527985165321144,-0.24317835684622194,1.6755233853783524,0.052314713702912914,0.029973802430849322,-2.7524071998930815,0.034252093508460486,2.7663672420688035,0.7691615274680984,1.6754973547542302,0.052104326824870026,0.029969505109285054,-2.752394845125968,0.0342448039870148,2.7663679543071322,0.7691630533470046,0.0003571553220350959,0.00040851689012265363,-0.0015435105038928872,-0.0003021907353959549,0.00012461522453635718,-2.610477336140774e-05,0.000249579525818097,0.0,0.0,0.0,0.0,0.0,0.0,0.0,-2.603062412220858e-05,-0.0002103868780428883,-4.297321564268597e-06,1.2354767113365028e-05,-7.289521445685843e-06,7.122383287594403e-07,1.5258789062277955e-06,-0.0003571553220350959,-0.00040851689012265363,0.0015435105038928872,0.0003021907353959549,-0.00012461522453635718,2.610477336140774e-05,-0.000249579525818097,0.3752071261405945,22.672876358032227,0.09756157547235489,-14.179414749145508,-0.10558086633682251,-2.1517977714538574,0.25485557317733765,0
28,0.13500595092773438,-0.3752071261405945,-22.672876358032227,-0.09756157547235489,14.179414749145508,0.10558086633682251,2.1517977714538574,-0.25485557317733765,0.0,0.0,0.0,0.0,0.0,0.0,0.0,-0.3519072312934069,0.144437138435377,-0.23816414719951529,0.3003127380131483,-0.12354150276163893,-0.03527985165321144,-0.24317835684622194,1.6755233853783524,0.052314713702912914,0.029973802430849322,-2.7524071998930815,0.034252093508460486,2.7663672420688035,0.7691615274680984,1.6754973547542302,0.052104326824870026,0.029969505109285054,-2.752394845125968,0.0342448039870148,2.7663679543071322,0.7691630533470046,0.0003571553220350959,0.00040851689012265363,-0.0015435105038928872,-0.0003021907353959549,0.00012461522453635718,-2.610477336140774e-05,0.000249579525818097,0.0,0.0,0.0,0.0,0.0,0.0,0.0,-2.603062412220858e-05,-0.0002103868780428883,-4.297321564268597e-06,1.2354767113365028e-05,-7.289521445685843e-06,7.122383287594403e-07,1.5258789062277955e-06,-0.0003571553220350959,-0.00040851689012265363,0.0015435105038928872,0.0003021907353959549,-0.00012461522453635718,2.610477336140774e-05,-0.000249579525818097,0.3752071261405945,22.672876358032227,0.09756157547235489,-14.179414749145508,-0.10558086633682251,-2.1517977714538574,0.25485557317733765,0
29,0.1400001049041748,-0.3514034152030945,-22.649072647094727,-0.1491362750530243,14.179414749145508,0.11198955774307251,2.1389803886413574,-0.26217979192733765,0.0,0.0,0.0,0.0,0.0,0.0,0.0,-0.3517058072618531,0.14797002992400077,-0.23584540725712963,0.29589603936193454,-0.12383667578098954,-0.035966611736287527,-0.24433429649005772,1.675521714942497,0.05231304326705765,0.029977421708012878,-2.7524071998930815,0.03425178804692278,2.766368666383954,0.7691623412701818,1.6754973547542302,0.052104326824870026,0.029969505109285054,-2.752394845125968,0.0342448039870148,2.7663679543071322,0.7691630533470046,-0.0002288117937816498,1.8131847432671202e-05,9.273391259999074e-05,-0.00045248686048562025,-0.0001683070002602215,0.000356598838124726,0.0028754824317443715,0.0,0.0,0.0,0.0,0.0,0.0,0.0,-2.4360188266792093e-05,-0.00020871644218762447,-7.916598727824437e-06,1.2354767113365028e-05,-6.984059907982898e-06,-7.120768219515128e-07,7.120768228396912e-07,0.0002288117937816498,-1.8131847432671202e-05,-9.273391259999074e-05,0.00045248686048562025,0.0001683070002602215,-0.000356598838124726,-0.0028754824317443715,0.3514034152030945,22.649072647094727,0.1491362750530243,-14.179414749145508,-0.11198955774307251,-2.1389803886413574,0.26217979192733765,0
30,0.14499831199645996,-0.3514034152030945,-22.649072647094727,-0.1491362750530243,14.179414749145508,0.11198955774307251,2.1389803886413574,-0.26217979192733765,0.0,0.0,0.0,0.0,0.0,0.0,0.0,-0.3517058072618531,0.14797002992400077,-0.23584540725712963,0.29589603936193454,-0.12383667578098954,-0.035966611736287527,-0.24433429649005772,1.675521714942497,0.05231304326705765,0.029977421708012878,-2.7524071998930815,0.03425178804692278,2.766368666383954,0.7691623412701818,1.6754973547542302,0.052104326824870026,0.029969505109285054,-2.752394845125968,0.0342448039870148,2.7663679543071322,0.7691630533470046,-0.0002288117937816498,1.8131847432671202e-05,9.273391259999074e-05,-0.00045248686048562025,-0.0001683070002602215,0.000356598838124726,0.0028754824317443715,0.0,0.0,0.0,0.0,0.0,0.0,0.0,-2.4360188266792093e-05,-0.00020871644218762447,-7.916598727824437e-06,1.2354767113365028e-05,-6.984059907982898e-06,-7.120768219515128e-07,7.120768228396912e-07,0.0002288117937816498,-1.8131847432671202e-05,-9.273391259999074e-05,0.00045248686048562025,0.0001683070002602215,-0.000356598838124726,-0.0028754824317443715,0.3514034152030945,22.649072647094727,0.1491362750530243,-14.179414749145508,-0.11198955774307251,-2.1389803886413574,0.26217979192733765,0
31,0.1500074863433838,-0.3236324191093445,-22.621301651000977,-0.1491362750530243,14.179414749145508,0.11198955774307251,2.1453890800476074,-0.26217979192733765,0.0,0.0,0.0,0.0,0.0,0.0,0.0,-0.3539865801754253,0.1473956432408158,-0.2359559581495964,0.2966481067215907,-0.12346087601892454,-0.03601347034004719,-0.24581852280083857,1.675519766100666,0.05231109442522651,0.029977421708012878,-2.7524071998930815,0.03425127517120588,2.766367948492931,0.7691623412701818,1.6754973547542302,0.052104326824870026,0.029969505109285054,-2.752394845125968,0.0342448039870148,2.7663679543071322,0.7691630533470046,-0.0007363592294637321,-0.00016423420580869046,-0.0002525197403027961,-0.00021483367644421878,-0.00018140391338903106,0.00019641966333874703,0.00080843094212371,0.0,0.0,0.0,0.0,0.0,0.0,0.0,-2.241134643576892e-05,-0.00020676760035648334,-7.916598727824437e-06,1.2354767113365028e-05,-6.471184191080004e-06,5.814201120557527e-09,7.120768228396912e-07,0.0007363592294637321,0.00016423420580869046,0.0002525197403027961,0.00021483367644421878,0.00018140391338903106,-0.00019641966333874703,-0.00080843094212371,0.3236324191093445,22.621301651000977,0.1491362750530243,-14.179414749145508,-0.11198955774307251,-2.1453890800476074,0.26217979192733765,0
32,0.15500855445861816,-0.3236324191093445,-22.621301651000977,-0.1491362750530243,14.179414749145508,0.11198955774307251,2.1453890800476074,-0.26217979192733765,0.0,0.0,0.0,0.0,0.0,0.0,0.0,-0.3539865801754253,0.1473956432408158,-0.2359559581495964,0.2966481067215907,-0.12346087601892454,-0.03601347034004719,-0.24581852280083857,1.675519766100666,0.05231109442522651,0.029977421708012878,-2.7524071998930815,0.03425127517120588,2.766367948492931,0.7691623412701818,1.6754973547542302,0.052104326824870026,0.029969505109285054,-2.752394845125968,0.0342448039870148,2.7663679543071322,0.7691630533470046,-0.0007363592294637321,-0.00016423420580869046,-0.0002525197403027961,-0.00021483367644421878,-0.00018140391338903106,0.00019641966333874703,0.00080843094212371,0.0,0.0,0.0,0.0,0.0,0.0,0.0,-2.241134643576892e-05,-0.00020676760035648334,-7.916598727824437e-06,1.2354767113365028e-05,-6.471184191080004e-06,5.814201120557527e-09,7.120768228396912e-07,0.0007363592294637321,0.00016423420580869046,0.0002525197403027961,0.00021483367644421878,0.00018140391338903106,-0.00019641966333874703,-0.00080843094212371,0.3236324191093445,22.621301651000977,0.1491362750530243,-14.179414749145508,-0.11198955774307251,-2.1453890800476074,0.26217979192733765,0
33,0.16000676155090332,-0.3236324191093445,-22.672876358032227,-0.1491362750530243,14.179414749145508,0.10558086633682251,2.1453890800476074,-0.20724813640117645,0.0,0.0,0.0,0.0,0.0,0.0,0.0,-0.3481577793103832,0.17127214384139022,-0.23007363109933274,0.250534309757142,-0.12507135827247678,-0.042903803051672226,-0.2466667375280002,1.675519766100666,0.052314713702912914,0.029977421708012878,-2.7524071998930815,0.03425201014195673,2.766367588012437,0.7691562377529011,1.6754973547542302,0.052104326824870026,0.029969505109285054,-2.752394845125968,0.0342448039870148,2.7663679543071322,0.7691630533470046,-0.00034995002556740737,0.00028776784575737085,0.00012404154190385442,0.0015476667349654026,-4.51217273003724e-05,2.9154528511261382e-05,-0.0017267346574283487,0.0,0.0,0.0,0.0,0.0,0.0,0.0,-2.241134643576892e-05,-0.0002103868780428883,-7.916598727824437e-06,1.2354767113365028e-05,-7.206154941929999e-06,3.6629469502003076e-07,6.815594103537492e-06,0.00034995002556740737,-0.00028776784575737085,-0.00012404154190385442,-0.0015476667349654026,4.51217273003724e-05,-2.9154528511261382e-05,0.0017267346574283487,0.3236324191093445,22.672876358032227,0.1491362750530243,-14.179414749145508,-0.10558086633682251,-2.1453890800476074,0.20724813640117645,0
34,0.1651146411895752,-0.3236324191093445,-22.672876358032227,-0.1491362750530243,14.179414749145508,0.10558086633682251,2.1453890800476074,-0.20724813640117645,0.0,0.0,0.0,0.0,0.0,0.0,0.0,-0.3481577793103832,0.17127214384139022,-0.23007363109933274,0.250534309757142,-0.12507135827247678,-0.042903803051672226,-0.2466667375280002,1.675519766100666,0.052314713702912914,0.029977421708012878,-2.7524071998930815,0.03425201014195673,2.766367588012437,0.7691562377529011,1.6754973547542302,0.052104326824870026,0.029969505109285054,-2.752394845125968,0.0342448039870148,2.7663679543071322,0.7691630533470046,-0.00034995002556740737,0.00028776784575737085,0.00012404154190385442,0.0015476667349654026,-4.51217273003724e-05,2.9154528511261382e-05,-0.0017267346574283487,0.0,0.0,0.0,0.0,0.0,0.0,0.0,-2.241134643576892e-05,-0.0002103868780428883,-7.916598727824437e-06,1.2354767113365028e-05,-7.206154941929999e-06,3.6629469502003076e-07,6.815594103537492e-06,0.00034995002556740737,-0.00028776784575737085,-0.00012404154190385442,-0.0015476667349654026,4.51217273003724e-05,-2.9154528511261382e-05,0.0017267346574283487,0.3236324191093445,22.672876358032227,0.1491362750530243,-14.179414749145508,-0.10558086633682251,-2.1453890800476074,0.20724813640117645,0
35,0.1700124740600586,-0.3514034152030945,-22.672876358032227,-0.1253325641155243,14.155611038208008,0.11198955774307251,2.1453890800476074,-0.23471395671367645,0.0,0.0,0.0,0.0,0.0,0.0,0.0,-0.3470062039912904,0.15028557428863742,-0.23143326746975554,0.290805187264182,-0.12445077349978481,-0.03732353259764738,-0.24684873834321697,1.675521714942497,0.052314713702912914,0.029975751272157614,-2.752405529457226,0.03424858698397081,2.7663679528515144,0.7691592895107136,1.6754973547542302,0.052104326824870026,0.029969505109285054,-2.752394845125968,0.0342448039870148,2.7663679543071322,0.7691630533470046,0.000653881980767582,0.00034957769270419896,-0.000653568949527892,0.00031056192312992975,-1.9142600874089926e-05,8.266039959877613e-05,-0.0005832470639008817,0.0,0.0,0.0,0.0,0.0,0.0,0.0,-2.4360188266792093e-05,-0.0002103868780428883,-6.246162872560607e-06,1.0684331257948543e-05,-3.782996956011586e-06,1.4556178484781412e-09,3.763836291081901e-06,-0.000653881980767582,-0.00034957769270419896,0.000653568949527892,-0.00031056192312992975,1.9142600874089926e-05,-8.266039959877613e-05,0.0005832470639008817,0.3514034152030945,22.672876358032227,0.1253325641155243,-14.155611038208008,-0.11198955774307251,-2.1453890800476074,0.23471395671367645,0
36,0.17502665519714355,-0.3514034152030945,-22.672876358032227,-0.1253325641155243,14.155611038208008,0.11198955774307251,2.1453890800476074,-0.23471395671367645,0.0,0.0,0.0,0.0,0.0,0.0,0.0,-0.3470062039912904,0.15028557428863742,-0.23143326746975554,0.290805187264182,-0.12445077349978481,-0.03732353259764738,-0.24684873834321697,1.675521714942497,0.052314713702912914,0.029975751272157614,-2.752405529457226,0.03424858698397081,2.7663679528515144,0.7691592895107136,1.6754973547542302,0.052104326824870026,0.029969505109285054,-2.752394845125968,0.0342448039870148,2.7663679543071322,0.7691630533470046,0.000653881980767582,0.00034957769270419896,-0.000653568949527892,0.00031056192312992975,-1.9142600874089926e-05,8.266039959877613e-05,-0.0005832470639008817,0.0,0.0,0.0,0.0,0.0,0.0,0.0,-2.4360188266792093e-05,-0.0002103868780428883,-6.246162872560607e-06,1.0684331257948543e-05,-3.782996956011586e-06,1.4556178484781412e-09,3.763836291081901e-06,-0.000653881980767582,-0.00034957769270419896,0.000653568949527892,-0.00031056192312992975,1.9142600874089926e-05,-8.266039959877613e-05,0.0005832470639008817,0.3514034152030945,22.672876358032227,0.1253325641155243,-14.155611038208008,-0.11198955774307251,-2.1453890800476074,0.23471395671367645,0
37,0.17999792098999023,-0.3514034152030945,-22.672876358032227,-0.1253325641155243,14.155611038208008,0.11198955774307251,2.1453890800476074,-0.23471395671367645,0.0,0.0,0.0,0.0,0.0,0.0,0.0,-0.3470062039912904,0.15028557428863742,-0.23143326746975554,0.290805187264182,-0.12445077349978481,-0.03732353259764738,-0.24684873834321697,1.675521714942497,0.052314713702912914,0.029975751272157614,-2.752405529457226,0.03424858698397081,2.7663679528515144,0.7691592895107136,1.6754973547542302,0.052104326824870026,0.029969505109285054,-2.752394845125968,0.0342448039870148,2.7663679543071322,0.7691630533470046,0.000653881980767582,0.00034957769270419896,-0.000653568949527892,0.00031056192312992975,-1.9142600874089926e-05,8.266039959877613e-05,-0.0005832470639008817,0.0,0.0,0.0,0.0,0.0,0.0,0.0,-2.4360188266792093e-05,-0.0002103868780428883,-6.246162872560607e-06,1.0684331257948543e-05,-3.782996956011586e-06,1.4556178484781412e-09,3.763836291081901e-06,-0.000653881980767582,-0.00034957769270419896,0.000653568949527892,-0.00031056192312992975,1.9142600874089926e-05,-8.266039959877613e-05,0.0005832470639008817,0.3514034152030945,22.672876358032227,0.1253325641155243,-14.155611038208008,-0.11198955774307251,-2.1453890800476074,0.23471395671367645,0
38,0.1849958896636963,-0.3514034152030945,-22.672876358032227,-0.1253325641155243,14.155611038208008,0.11198955774307251,2.1453890800476074,-0.23471395671367645,0.0,0.0,0.0,0.0,0.0,0.0,0.0,-0.3470062039912904,0.15028557428863742,-0.23143326746975554,0.290805187264182,-0.12445077349978481,-0.03732353259764738,-0.24684873834321697,1.675521714942497,0.052314713702912914,0.029975751272157614,-2.752405529457226,0.03424858698397081,2.7663679528515144,0.7691592895107136,1.6754973547542302,0.052104326824870026,0.029969505109285054,-2.752394845125968,0.0342448039870148,2.7663679543071322,0.7691630533470046,0.000653881980767582,0.00034957769270419896,-0.000653568949527892,0.00031056192312992975,-1.9142600874089926e-05,8.266039959877613e-05,-0.0005832470639008817,0.0,0.0,0.0,0.0,0.0,0.0,0.0,-2.4360188266792093e-05,-0.0002103868780428883,-6.246162872560607e-06,1.0684331257948543e-05,-3.782996956011586e-06,1.4556178484781412e-09,3.763836291081901e-06,-0.000653881980767582,-0.00034957769270419896,0.000653568949527892,-0.00031056192312992975,1.9142600874089926e-05,-8.266039959877613e-05,0.0005832470639008817,0.3514034152030945,22.672876358032227,0.1253325641155243,-14.155611038208008,-0.11198955774307251,-2.1453890800476074,0.23471395671367645,0
39,0.1900017261505127,-0.3752071261405945,-22.649072647094727,-0.1253325641155243,14.131807327270508,0.10558086633682251,2.1517977714538574,-0.24844686686992645,0.0,0.0,0.0,0.0,0.0,0.0,0.0,-0.35068354108667316,0.1397048870420442,-0.23760475190724067,0.30700855496469426,-0.1235140073263632,-0.035718714467648786,-0.2462181114775891,1.6755233853783524,0.05231304326705765,0.029975751272157614,-2.75240394143767,0.03425244890136414,2.766364063315913,0.7691608153896198,1.6754973547542302,0.052104326824870026,0.029969505109285054,-2.752394845125968,0.0342448039870148,2.7663679543071322,0.7691630533470046,9.338830153046491e-05,-0.0003592738683284278,-0.0007787040312068446,0.0005529149092981996,0.00016282152092743756,-0.00025885731596267766,0.00020817405068999332,0.0,0.0,0.0,0.0,0.0,0.0,0.0,-2.603062412220858e-05,-0.00020871644218762447,-6.246162872560607e-06,9.096311702094795e-06,-7.644914349340393e-06,3.890991219446249e-06,2.2379573848541057e-06,-9.338830153046491e-05,0.0003592738683284278,0.0007787040312068446,-0.0005529149092981996,-0.00016282152092743756,0.00025885731596267766,-0.00020817405068999332,0.3752071261405945,22.649072647094727,0.1253325641155243,-14.131807327270508,-0.10558086633682251,-2.1517977714538574,0.24844686686992645,0
40,0.19499993324279785,-0.3752071261405945,-22.649072647094727,-0.1253325641155243,14.131807327270508,0.10558086633682251,2.1517977714538574,-0.24844686686992645,0.0,0.0,0.0,0.0,0.0,0.0,0.0,-0.35068354108667316,0.1397048870420442,-0.23760475190724067,0.30700855496469426,-0.1235140073263632,-0.035718714467648786,-0.2462181114775891,1.6755233853783524,0.05231304326705765,0.029975751272157614,-2.75240394143767,0.03425244890136414,2.766364063315913,0.7691608153896198,1.6754973547542302,0.052104326824870026,0.029969505109285054,-2.752394845125968,0.0342448039870148,2.7663679543071322,0.7691630533470046,9.338830153046491e-05,-0.0003592738683284278,-0.0007787040312068446,0.0005529149092981996,0.00016282152092743756,-0.00025885731596267766,0.00020817405068999332,0.0,0.0,0.0,0.0,0.0,0.0,0.0,-2.603062412220858e-05,-0.00020871644218762447,-6.246162872560607e-06,9.096311702094795e-06,-7.644914349340393e-06,3.890991219446249e-06,2.2379573848541057e-06,-9.338830153046491e-05,0.0003592738683284278,0.0007787040312068446,-0.0005529149092981996,-0.00016282152092743756,0.00025885731596267766,-0.00020817405068999332,0.3752071261405945,22.649072647094727,0.1253325641155243,-14.131807327270508,-0.10558086633682251,-2.1517977714538574,0.24844686686992645,0
41,0.20000219345092773,-0.3752071261405945,-22.649072647094727,-0.1729399859905243,14.155611038208008,0.10558086633682251,2.1582064628601074,-0.26217979192733765,0.0,0.0,0.0,0.0,0.0,0.0,0.0,-0.35275979183416706,0.13643882402541568,-0.23629111981330705,0.3094775590986426,-0.12385874493762056,-0.035974667067071156,-0.24512310779477026,1.6755233853783524,0.05231304326705765,0.029979092143868142,-2.7524055294576915,0.03424930496339754,2.7663633119214617,0.7691623412701818,1.6754973547542302,0.052104326824870026,0.029969505109285054,-2.752394845125968,0.0342448039870148,2.7663679543071322,0.7691630533470046,-0.00031249894103379844,-0.00023161581388899899,0.00021190599827313028,0.0003466052864555035,-5.6035672581334195e-05,-0.000290030999982641,0.001158782126505262,0.0,0.0,0.0,0.0,0.0,0.0,0.0,-2.603062412220858e-05,-0.00020871644218762447,-9.587034583088266e-06,1.0684331723354035e-05,-4.5009763827361104e-06,4.6423856705501976e-06,7.120768228396912e-07,0.00031249894103379844,0.00023161581388899899,-0.00021190599827313028,-0.0003466052864555035,5.6035672581334195e-05,0.000290030999982641,-0.001158782126505262,0.3752071261405945,22.649072647094727,0.1729399859905243,-14.155611038208008,-0.10558086633682251,-2.1582064628601074,0.26217979192733765,0
42,0.20500493049621582,-0.3752071261405945,-22.649072647094727,-0.1729399859905243,14.155611038208008,0.10558086633682251,2.1582064628601074,-0.26217979192733765,0.0,0.0,0.0,0.0,0.0,0.0,0.0,-0.35275979183416706,0.13643882402541568,-0.23629111981330705,0.3094775590986426,-0.12385874493762056,-0.035974667067071156,-0.24512310779477026,1.6755233853783524,0.05231304326705765,0.029979092143868142,-2.7524055294576915,0.03424930496339754,2.7663633119214617,0.7691623412701818,1.6754973547542302,0.052104326824870026,0.029969505109285054,-2.752394845125968,0.0342448039870148,2.7663679543071322,0.7691630533470046,-0.00031249894103379844,-0.00023161581388899899,0.00021190599827313028,0.0003466052864555035,-5.6035672581334195e-05,-0.000290030999982641,0.001158782126505262,0.0,0.0,0.0,0.0,0.0,0.0,0.0,-2.603062412220858e-05,-0.00020871644218762447,-9.587034583088266e-06,1.0684331723354035e-05,-4.5009763827361104e-06,4.6423856705501976e-06,7.120768228396912e-07,0.00031249894103379844,0.00023161581388899899,-0.00021190599827313028,-0.0003466052864555035,5.6035672581334195e-05,0.000290030999982641,-0.001158782126505262,0.3752071261405945,22.649072647094727,0.1729399859905243,-14.155611038208008,-0.10558086633682251,-2.1582064628601074,0.26217979192733765,0
43,0.21001911163330078,-0.4267818331718445,-22.672876358032227,-0.1491362750530243,14.207185745239258,0.11748272180557251,2.1389803886413574,-0.22830526530742645,0.0,0.0,0.0,0.0,0.0,0.0,0.0,-0.35270089625518636,0.13988077083854392,-0.2329837837243461,0.3034970060208015,-0.1248514153998025,-0.03656053703697931,-0.2440066847391783,1.6755270046560389,0.052314713702912914,0.029977421708012878,-2.7524091487349125,0.03425082269766589,2.7663654874514,0.7691585774338906,1.6754973547542302,0.052104326824870026,0.029969505109285054,-2.752394845125968,0.0342448039870148,2.7663679543071322,0.7691630533470046,0.0016333933349601268,0.00034281871511283803,-2.8734033818760028e-05,-0.0012202466714842134,-0.00019413295343549843,0.00046957606371347035,-0.0003759533063212592,0.0,0.0,0.0,0.0,0.0,0.0,0.0,-2.9649901808648238e-05,-0.0002103868780428883,-7.916598727824437e-06,1.4303608944388202e-05,-6.0187106510900534e-06,2.4668557321305684e-06,4.475913114032615e-06,-0.0016333933349601268,-0.00034281871511283803,2.8734033818760028e-05,0.0012202466714842134,0.00019413295343549843,-0.00046957606371347035,0.0003759533063212592,0.4267818331718445,22.672876358032227,0.1491362750530243,-14.207185745239258,-0.11748272180557251,-2.1389803886413574,0.22830526530742645,0
44,0.21500730514526367,-0.4267818331718445,-22.672876358032227,-0.1491362750530243,14.207185745239258,0.11748272180557251,2.1389803886413574,-0.22830526530742645,0.0,0.0,0.0,0.0,0.0,0.0,0.0,-0.35270089625518636,0.13988077083854392,-0.2329837837243461,0.3034970060208015,-0.1248514153998025,-0.03656053703697931,-0.2440066847391783,1.6755270046560389,0.052314713702912914,0.029977421708012878,-2.7524091487349125,0.03425082269766589,2.7663654874514,0.7691585774338906,1.6754973547542302,0.052104326824870026,0.029969505109285054,-2.752394845125968,0.0342448039870148,2.7663679543071322,0.7691630533470046,0.0016333933349601268,0.00034281871511283803,-2.8734033818760028e-05,-0.0012202466714842134,-0.00019413295343549843,0.00046957606371347035,-0.0003759533063212592,0.0,0.0,0.0,0.0,0.0,0.0,0.0,-2.9649901808648238e-05,-0.0002103868780428883,-7.916598727824437e-06,1.4303608944388202e-05,-6.0187106510900534e-06,2.4668557321305684e-06,4.475913114032615e-06,-0.0016333933349601268,-0.00034281871511283803,2.8734033818760028e-05,0.0012202466714842134,0.00019413295343549843,-0.00046957606371347035,0.0003759533063212592,0.4267818331718445,22.672876358032227,0.1491362750530243,-14.207185745239258,-0.11748272180557251,-2.1389803886413574,0.22830526530742645,0
45,0.22000837326049805,-0.3514034152030945,-22.649072647094727,-0.1491362750530243,14.155611038208008,0.10558086633682251,2.1582064628601074,-0.20724813640117645,0.0,0.0,0.0,0.0,0.0,0.0,0.0,-0.35021680740224764,0.1431222111238532,-0.22983202717689621,0.30415233768016725,-0.12456165367632163,-0.03604483755281658,-0.24288915341297737,1.675521714942497,0.05231304326705765,0.029977421708012878,-2.752405529457226,0.0342524973634272,2.7663665301355413,0.7691562377529011,1.6754973547542302,0.052104326824870026,0.029969505109285054,-2.752394845125968,0.0342448039870148,2.7663679543071322,0.7691630533470046,0.0003258929686626381,0.00019130551845086848,0.00030863056626736184,0.00035434422000438156,-5.238374726445685e-05,-0.00020260649130238718,-0.002934643383628098,0.0,0.0,0.0,0.0,0.0,0.0,0.0,-2.4360188266792093e-05,-0.00020871644218762447,-7.916598727824437e-06,1.0684331257948543e-05,-7.693376412397368e-06,1.4241715908802632e-06,6.815594103537492e-06,-0.0003258929686626381,-0.00019130551845086848,-0.00030863056626736184,-0.00035434422000438156,5.238374726445685e-05,0.00020260649130238718,0.002934643383628098,0.3514034152030945,22.649072647094727,0.1491362750530243,-14.155611038208008,-0.10558086633682251,-2.1582064628601074,0.20724813640117645,0
46,0.2250051498413086,-0.3514034152030945,-22.649072647094727,-0.1491362750530243,14.155611038208008,0.10558086633682251,2.1582064628601074,-0.20724813640117645,0.0,0.0,0.0,0.0,0.0,0.0,0.0,-0.35021680740224764,0.1431222111238532,-0.22983202717689621,0.30415233768016725,-0.12456165367632163,-0.03604483755281658,-0.24288915341297737,1.675521714942497,0.05231304326705765,0.029977421708012878,-2.752405529457226,0.0342524973634272,2.7663665301355413,0.7691562377529011,1.6754973547542302,0.052104326824870026,0.029969505109285054,-2.752394845125968,0.0342448039870148,2.7663679543071322,0.7691630533470046,0.0003258929686626381,0.00019130551845086848,0.00030863056626736184,0.00035434422000438156,-5.238374726445685e-05,-0.00020260649130238718,-0.002934643383628098,0.0,0.0,0.0,0.0,0.0,0.0,0.0,-2.4360188266792093e-05,-0.00020871644218762447,-7.916598727824437e-06,1.0684331257948543e-05,-7.693376412397368e-06,1.4241715908802632e-06,6.815594103537492e-06,-0.0003258929686626381,-0.00019130551845086848,-0.00030863056626736184,-0.00035434422000438156,5.238374726445685e-05,0.00020260649130238718,0.002934643383628098,0.3514034152030945,22.649072647094727,0.1491362750530243,-14.155611038208008,-0.10558086633682251,-2.1582064628601074,0.20724813640117645,0
47,0.23000288009643555,-0.4029781222343445,-22.649072647094727,-0.1491362750530243,14.155611038208008,0.10008770227432251,2.1582064628601074,-0.20724813640117645,0.0,0.0,0.0,0.0,0.0,0.0,0.0,-0.35452049262050145,0.14505002562367109,-0.23308125178986477,0.3029000206077518,-0.12467379453563816,-0.03583195854644654,-0.24205875115828518,1.6755253342201835,0.05231304326705765,0.029977421708012878,-2.752405529457226,0.034250848184855055,2.7663665301534865,0.7691562377529011,1.6754973547542302,0.052104326824870026,0.029969505109285054,-2.752394845125968,0.0342448039870148,2.7663679543071322,0.7691630533470046,0.0014625265185025788,-8.115278769972084e-05,-0.0001878697171816817,0.00019170280192313136,0.00018095250651458896,-0.00026674578330525994,-0.0011104571868199935,0.0,0.0,0.0,0.0,0.0,0.0,0.0,-2.7979465953231752e-05,-0.00020871644218762447,-7.916598727824437e-06,1.0684331257948543e-05,-6.0441978402547836e-06,1.4241536456793824e-06,6.815594103537492e-06,-0.0014625265185025788,8.115278769972084e-05,0.0001878697171816817,-0.00019170280192313136,-0.00018095250651458896,0.00026674578330525994,0.0011104571868199935,0.4029781222343445,22.649072647094727,0.1491362750530243,-14.155611038208008,-0.10008770227432251,-2.1582064628601074,0.20724813640117645,0
48,0.2349987030029297,-0.4029781222343445,-22.649072647094727,-0.1491362750530243,14.155611038208008,0.10008770227432251,2.1582064628601074,-0.20724813640117645,0.0,0.0,0.0,0.0,0.0,0.0,0.0,-0.35452049262050145,0.14505002562367109,-0.23308125178986477,0.3029000206077518,-0.12467379453563816,-0.03583195854644654,-0.24205875115828518,1.6755253342201835,0.05231304326705765,0.029977421708012878,-2.752405529457226,0.034250848184855055,2.7663665301534865,0.7691562377529011,1.6754973547542302,0.052104326824870026,0.029969505109285054,-2.752394845125968,0.0342448039870148,2.7663679543071322,0.7691630533470046,0.0014625265185025788,-8.115278769972084e-05,-0.0001878697171816817,0.00019170280192313136,0.00018095250651458896,-0.00026674578330525994,-0.0011104571868199935,0.0,0.0,0.0,0.0,0.0,0.0,0.0,-2.7979465953231752e-05,-0.00020871644218762447,-7.916598727824437e-06,1.0684331257948543e-05,-6.0441978402547836e-06,1.4241536456793824e-06,6.815594103537492e-06,-0.0014625265185025788,8.115278769972084e-05,0.0001878697171816817,-0.00019170280192313136,-0.00018095250651458896,0.00026674578330525994,0.0011104571868199935,0.4029781222343445,22.649072647094727,0.1491362750530243,-14.155611038208008,-0.10008770227432251,-2.1582064628601074,0.20724813640117645,0
49,0.23999929428100586,-0.3514034152030945,-22.649072647094727,-0.1491362750530243,14.179414749145508,0.11198955774307251,2.1517977714538574,-0.28232139348983765,0.0,0.0,0.0,0.0,0.0,0.0,0.0,-0.35292198224288057,0.17335897302020156,-0.23500708305355378,0.2605178643791154,-0.1260073078913451,-0.042391394630722494,-0.23957530839332594,1.675521714942497,0.05231304326705765,0.029977421708012878,-2.7524071998930815,0.034249534404451415,2.7663672416919574,0.769164579225911,1.6754973547542302,0.052104326824870026,0.029969505109285054,-2.752394845125968,0.0342448039870148,2.7663679543071322,0.7691630533470046,-0.00015997010760092627,-3.881715038810223e-05,-0.00017490450325609186,0.002005397988775397,-5.325230692642618e-05,-0.00010343954639450101,0.0015704835751949749,0.0,0.0,0.0,0.0,0.0,0.0,0.0,-2.4360188266792093e-05,-0.00020871644218762447,-7.916598727824437e-06,1.2354767113365028e-05,-4.7304174366144536e-06,7.126151748693133e-07,-1.5258789063388178e-06,0.00015997010760092627,3.881715038810223e-05,0.00017490450325609186,-0.002005397988775397,5.325230692642618e-05,0.00010343954639450101,-0.0015704835751949749,0.3514034152030945,22.649072647094727,0.1491362750530243,-14.179414749145508,-0.11198955774307251,-2.1517977714538574,0.28232139348983765,0
50,0.2450098991394043,-0.3514034152030945,-22.649072647094727,-0.1491362750530243,14.179414749145508,0.11198955774307251,2.1517977714538574,-0.28232139348983765,0.0,0.0,0.0,0.0,0.0,0.0,0.0,-0.35292198224288057,0.17335897302020156,-0.23500708305355378,0.2605178643791154,-0.1260073078913451,-0.042391394630722494,-0.23957530839332594,1.675521714942497,0.05231304326705765,0.029977421708012878,-2.7524071998930815,0.034249534404451415,2.7663672416919574,0.769164579225911,1.6754973547542302,0.052104326824870026,0.029969505109285054,-2.752394845125968,0.0342448039870148,2.7663679543071322,0.7691630533470046,-0.00015997010760092627,-3.881715038810223e-05,-0.00017490450325609186,0.002005397988775397,-5.325230692642618e-05,-0.00010343954639450101,0.0015704835751949749,0.0,0.0,0.0,0.0,0.0,0.0,0.0,-2.4360188266792093e-05,-0.00020871644218762447,-7.916598727824437e-06,1.2354767113365028e-05,-4.7304174366144536e-06,7.126151748693133e-07,-1.5258789063388178e-06,0.00015997010760092627,3.881715038810223e-05,0.00017490450325609186,-0.002005397988775397,5.325230692642618e-05,0.00010343954639450101,-0.0015704835751949749,0.3514034152030945,22.649072647094727,0.1491362750530243,-14.179414749145508,-0.11198955774307251,-2.1517977714538574,0.28232139348983765,0
51,0.2500040531158447,-0.3514034152030945,-22.621301651000977,-0.1729399859905243,14.155611038208008,0.10558086633682251,2.1453890800476074,-0.26217979192733765,0.0,0.0,0.0,0.0,0.0,0.0,0.0,-0.35421683690220634,0.15486490393641522,-0.23815683275086094,0.2918868701448549,-0.12487616169705444,-0.037646259273093896,-0.2386884008017991,1.675521714942497,0.05231109442522651,0.029979092143868142,-2.752405529457226,0.03425305412983162,2.7663679538226122,0.7691623412701818,1.6754973547542302,0.052104326824870026,0.029969505109285054,-2.752394845125968,0.0342448039870148,2.7663679543071322,0.7691630533470046,-0.00017085720116201956,-0.000821324181692554,-4.2778635047671055e-05,0.00047802559952406714,0.00032466147401533107,0.00023112582285342293,-0.005782237058214726,0.0,0.0,0.0,0.0,0.0,0.0,0.0,-2.4360188266792093e-05,-0.00020676760035648334,-9.587034583088266e-06,1.0684331257948543e-05,-8.250142816822181e-06,4.84519979693232e-10,7.120768228396912e-07,0.00017085720116201956,0.000821324181692554,4.2778635047671055e-05,-0.00047802559952406714,-0.00032466147401533107,-0.00023112582285342293,0.005782237058214726,0.3514034152030945,22.621301651000977,0.1729399859905243,-14.155611038208008,-0.10558086633682251,-2.1453890800476074,0.26217979192733765,0
52,0.25556182861328125,-0.3514034152030945,-22.621301651000977,-0.1729399859905243,14.155611038208008,0.10558086633682251,2.1453890800476074,-0.26217979192733765,0.0,0.0,0.0,0.0,0.0,0.0,0.0,-0.35421683690220634,0.15486490393641522,-0.23815683275086094,0.2918868701448549,-0.12487616169705444,-0.037646259273093896,-0.2386884008017991,1.675521714942497,0.05231109442522651,0.029979092143868142,-2.752405529457226,0.03425305412983162,2.7663679538226122,0.7691623412701818,1.6754973547542302,0.052104326824870026,0.029969505109285054,-2.752394845125968,0.0342448039870148,2.7663679543071322,0.7691630533470046,-0.00017085720116201956,-0.000821324181692554,-4.2778635047671055e-05,0.00047802559952406714,0.00032466147401533107,0.00023112582285342293,-0.005782237058214726,0.0,0.0,0.0,0.0,0.0,0.0,0.0,-2.4360188266792093e-05,-0.00020676760035648334,-9.587034583088266e-06,1.0684331257948543e-05,-8.250142816822181e-06,4.84519979693232e-10,7.120768228396912e-07,0.00017085720116201956,0.000821324181692554,4.2778635047671055e-05,-0.00047802559952406714,-0.00032466147401533107,-0.00023112582285342293,0.005782237058214726,0.3514034152030945,22.621301651000977,0.1729399859905243,-14.155611038208008,-0.10558086633682251,-2.1453890800476074,0.26217979192733765,0
53,0.2600255012512207,-0.3752071261405945,-22.649072647094727,-0.1491362750530243,14.155611038208008,0.11748272180557251,2.1582064628601074,-0.22098104655742645,0.0,0.0,0.0,0.0,0.0,0.0,0.0,-0.34818598644052523,0.12950382747498207,-0.23315321480368265,0.3367584482237168,-0.12448127125798335,-0.03086211087568841,-0.23828900687359095,1.6755233853783524,0.05231304326705765,0.029977421708012878,-2.752405529457226,0.03424761034326113,2.7663665170715315,0.7691577636318073,1.6754973547542302,0.052104326824870026,0.029969505109285054,-2.752394845125968,0.0342448039870148,2.7663679543071322,0.7691630533470046,0.000843703279500133,-7.019720535141464e-05,0.0006562041368060017,-0.003407611137329346,-0.00040749750758972973,-0.000355868621041684,-0.0009354683076170421,0.0,0.0,0.0,0.0,0.0,0.0,0.0,-2.603062412220858e-05,-0.00020871644218762447,-7.916598727824437e-06,1.0684331257948543e-05,-2.8063562463320757e-06,1.4372356007541498e-06,5.289715197309697e-06,-0.000843703279500133,7.019720535141464e-05,-0.0006562041368060017,0.003407611137329346,0.00040749750758972973,0.000355868621041684,0.0009354683076170421,0.3752071261405945,22.649072647094727,0.1491362750530243,-14.155611038208008,-0.11748272180557251,-2.1582064628601074,0.22098104655742645,0
54,0.26500749588012695,-0.3752071261405945,-22.649072647094727,-0.1491362750530243,14.155611038208008,0.11748272180557251,2.1582064628601074,-0.22098104655742645,0.0,0.0,0.0,0.0,0.0,0.0,0.0,-0.34818598644052523,0.12950382747498207,-0.23315321480368265,0.3367584482237168,-0.12448127125798335,-0.03086211087568841,-0.23828900687359095,1.6755233853783524,0.05231304326705765,0.029977421708012878,-2.752405529457226,0.03424761034326113,2.7663665170715315,0.7691577636318073,1.6754973547542302,0.052104326824870026,0.029969505109285054,-2.752394845125968,0.0342448039870148,2.7663679543071322,0.7691630533470046,0.000843703279500133,-7.019720535141464e-05,0.0006562041368060017,-0.003407611137329346,-0.00040749750758972973,-0.000355868621041684,-0.0009354683076170421,0.0,0.0,0.0,0.0,0.0,0.0,0.0,-2.603062412220858e-05,-0.00020871644218762447,-7.916598727824437e-06,1.0684331257948543e-05,-2.8063562463320757e-06,1.4372356007541498e-06,5.289715197309697e-06,-0.000843703279500133,7.019720535141464e-05,-0.0006562041368060017,0.003407611137329346,0.00040749750758972973,0.000355868621041684,0.0009354683076170421,0.3752071261405945,22.649072647094727,0.1491362750530243,-14.155611038208008,-0.11748272180557251,-2.1582064628601074,0.22098104655742645,0
55,0.2700505256652832,-0.3752071261405945,-22.649072647094727,-0.1491362750530243,14.155611038208008,0.10558086633682251,2.1453890800476074,-0.21457235515117645,0.0,0.0,0.0,0.0,0.0,0.0,0.0,-0.3491149772419875,0.1372407486026452,-0.23306488386265345,0.33209152322202307,-0.12386551692720918,-0.03167245716380279,-0.23854803334995262,1.6755233853783524,0.05231304326705765,0.029977421708012878,-2.752405529457226,0.03425356667565032,2.7663636765086843,0.7691570515549844,1.6754973547542302,0.052104326824870026,0.029969505109285054,-2.752394845125968,0.0342448039870148,2.7663679543071322,0.7691630533470046,0.0009412519627019151,0.0007660602057649536,0.0003472709944480648,0.00044522273386907716,0.00012745474586741513,7.603046486488133e-05,-0.0009644593377839537,0.0,0.0,0.0,0.0,0.0,0.0,0.0,-2.603062412220858e-05,-0.00020871644218762447,-7.916598727824437e-06,1.0684331257948543e-05,-8.7626886355191e-06,4.27779844791587e-06,6.00179202026041e-06,-0.0009412519627019151,-0.0007660602057649536,-0.0003472709944480648,-0.00044522273386907716,-0.00012745474586741513,-7.603046486488133e-05,0.0009644593377839537,0.3752071261405945,22.649072647094727,0.1491362750530243,-14.155611038208008,-0.10558086633682251,-2.1453890800476074,0.21457235515117645,0
56,0.275493860244751,-0.3752071261405945,-22.649072647094727,-0.1491362750530243,14.155611038208008,0.10558086633682251,2.1453890800476074,-0.21457235515117645,0.0,0.0,0.0,0.0,0.0,0.0,0.0,-0.3491149772419875,0.1372407486026452,-0.23306488386265345,0.33209152322202307,-0.12386551692720918,-0.03167245716380279,-0.23854803334995262,1.6755233853783524,0.05231304326705765,0.029977421708012878,-2.752405529457226,0.03425356667565032,2.7663636765086843,0.7691570515549844,1.6754973547542302,0.052104326824870026,0.029969505109285054,-2.752394845125968,0.0342448039870148,2.7663679543071322,0.7691630533470046,0.0009412519627019151,0.0007660602057649536,0.0003472709944480648,0.00044522273386907716,0.00012745474586741513,7.603046486488133e-05,-0.0009644593377839537,0.0,0.0,0.0,0.0,0.0,0.0,0.0,-2.603062412220858e-05,-0.00020871644218762447,-7.916598727824437e-06,1.0684331257948543e-05,-8.7626886355191e-06,4.27779844791587e-06,6.00179202026041e-06,-0.0009412519627019151,-0.0007660602057649536,-0.0003472709944480648,-0.00044522273386907716,-0.00012745474586741513,-7.603046486488133e-05,0.0009644593377839537,0.3752071261405945,22.649072647094727,0.1491362750530243,-14.155611038208008,-0.10558086633682251,-2.1453890800476074,0.21457235515117645,0
57,0.28001999855041504,-0.3514034152030945,-22.672876358032227,-0.1491362750530243,14.179414749145508,0.11198955774307251,2.1453890800476074,-0.21457235515117645,0.0,0.0,0.0,0.0,0.0,0.0,0.0,-0.3517026377775893,0.1467168602962232,-0.23450224692313434,0.30473987951861736,-0.1242222297118761,-0.0356594866532015,-0.23884464967999758,1.675521714942497,0.052314713702912914,0.029977421708012878,-2.7524071998930815,0.034252327294369,2.7663679527755987,0.7691570501014341,1.6754973547542302,0.052104326824870026,0.029969505109285054,-2.752394845125968,0.0342448039870148,2.7663679543071322,0.7691630533470046,7.773340229019794e-05,0.0003836759646635951,-0.00047562009835562134,-0.00011169639913879238,-0.0002519676575956632,0.00014254106355327746,-0.0014146811761806912,0.0,0.0,0.0,0.0,0.0,0.0,0.0,-2.4360188266792093e-05,-0.0002103868780428883,-7.916598727824437e-06,1.2354767113365028e-05,-7.523307354199982e-06,1.5315335666343799e-09,6.00324557054055e-06,-7.773340229019794e-05,-0.0003836759646635951,0.00047562009835562134,0.00011169639913879238,0.0002519676575956632,-0.00014254106355327746,0.0014146811761806912,0.3514034152030945,22.672876358032227,0.1491362750530243,-14.179414749145508,-0.11198955774307251,-2.1453890800476074,0.21457235515117645,0
58,0.2862405776977539,-0.3514034152030945,-22.672876358032227,-0.1491362750530243,14.179414749145508,0.11198955774307251,2.1453890800476074,-0.21457235515117645,0.0,0.0,0.0,0.0,0.0,0.0,0.0,-0.3517026377775893,0.1467168602962232,-0.23450224692313434,0.30473987951861736,-0.1242222297118761,-0.0356594866532015,-0.23884464967999758,1.675521714942497,0.052314713702912914,0.029977421708012878,-2.7524071998930815,0.034252327294369,2.7663679527755987,0.7691570501014341,1.6754973547542302,0.052104326824870026,0.029969505109285054,-2.752394845125968,0.0342448039870148,2.7663679543071322,0.7691630533470046,7.773340229019794e-05,0.0003836759646635951,-0.00047562009835562134,-0.00011169639913879238,-0.0002519676575956632,0.00014254106355327746,-0.0014146811761806912,0.0,0.0,0.0,0.0,0.0,0.0,0.0,-2.4360188266792093e-05,-0.0002103868780428883,-7.916598727824437e-06,1.2354767113365028e-05,-7.523307354199982e-06,1.5315335666343799e-09,6.00324557054055e-06,-7.773340229019794e-05,-0.0003836759646635951,0.00047562009835562134,0.00011169639913879238,0.0002519676575956632,-0.00014254106355327746,0.0014146811761806912,0.3514034152030945,22.672876358032227,0.1491362750530243,-14.179414749145508,-0.11198955774307251,-2.1453890800476074,0.21457235515117645,0
59,0.290041446685791,-0.3752071261405945,-22.672876358032227,-0.1729399859905243,14.207185745239258,0.10558086633682251,2.1453890800476074,-0.28232139348983765,0.0,0.0,0.0,0.0,0.0,0.0,0.0,-0.350378672972682,0.14714284604836025,-0.2349493227362125,0.3040969717433311,-0.1250170055458607,-0.035952671888491286,-0.24014545332246753,1.6755233853783524,0.052314713702912914,0.029979092143868142,-2.7524091487349125,0.03425319450366467,2.7663676010944136,0.7691645792259028,1.6754973547542302,0.052104326824870026,0.029969505109285054,-2.752394845125968,0.0342448039870148,2.7663679543071322,0.7691630533470046,0.0002809029805420048,8.515356905103483e-05,0.0003073680123306858,-0.00029711309292891554,-8.962125909346993e-05,0.00012173629348954557,0.0017924026505729824,0.0,0.0,0.0,0.0,0.0,0.0,0.0,-2.603062412220858e-05,-0.0002103868780428883,-9.587034583088266e-06,1.4303608944388202e-05,-8.39051664987267e-06,3.532127186289813e-07,-1.5258788981231675e-06,-0.0002809029805420048,-8.515356905103483e-05,-0.0003073680123306858,0.00029711309292891554,8.962125909346993e-05,-0.00012173629348954557,-0.0017924026505729824,0.3752071261405945,22.672876358032227,0.1729399859905243,-14.207185745239258,-0.10558086633682251,-2.1453890800476074,0.28232139348983765,0
60,0.2950139045715332,-0.3752071261405945,-22.672876358032227,-0.1729399859905243,14.207185745239258,0.10558086633682251,2.1453890800476074,-0.28232139348983765,0.0,0.0,0.0,0.0,0.0,0.0,0.0,-0.350378672972682,0.14714284604836025,-0.2349493227362125,0.3040969717433311,-0.1250170055458607,-0.035952671888491286,-0.24014545332246753,1.6755233853783524,0.052314713702912914,0.029979092143868142,-2.7524091487349125,0.03425319450366467,2.7663676010944136,0.7691645792259028,1.6754973547542302,0.052104326824870026,0.029969505109285054,-2.752394845125968,0.0342448039870148,2.7663679543071322,0.7691630533470046,0.0002809029805420048,8.515356905103483e-05,0.0003073680123306858,-0.00029711309292891554,-8.962125909346993e-05,0.00012173629348954557,0.0017924026505729824,0.0,0.0,0.0,0.0,0.0,0.0,0.0,-2.603062412220858e-05,-0.0002103868780428883,-9.587034583088266e-06,1.4303608944388202e-05,-8.39051664987267e-06,3.532127186289813e-07,-1.5258788981231675e-06,-0.0002809029805420048,-8.515356905103483e-05,-0.0003073680123306858,0.00029711309292891554,8.962125909346993e-05,-0.00012173629348954557,-0.0017924026505729824,0.3752071261405945,22.672876358032227,0.1729399859905243,-14.207185745239258,-0.10558086633682251,-2.1453890800476074,0.28232139348983765,0
61,0.3000009059906006,-0.3752071261405945,-22.672876358032227,-0.1729399859905243,14.207185745239258,0.10558086633682251,2.1453890800476074,-0.28232139348983765,0.0,0.0,0.0,0.0,0.0,0.0,0.0,-0.350378672972682,0.14714284604836025,-0.2349493227362125,0.3040969717433311,-0.1250170055458607,-0.035952671888491286,-0.24014545332246753,1.6755233853783524,0.052314713702912914,0.029979092143868142,-2.7524091487349125,0.03425319450366467,2.7663676010944136,0.7691645792259028,1.6754973547542302,0.052104326824870026,0.029969505109285054,-2.752394845125968,0.0342448039870148,2.7663679543071322,0.7691630533470046,0.0002809029805420048,8.515356905103483e-05,0.0003073680123306858,-0.00029711309292891554,-8.962125909346993e-05,0.00012173629348954557,0.0017924026505729824,0.0,0.0,0.0,0.0,0.0,0.0,0.0,-2.603062412220858e-05,-0.0002103868780428883,-9.587034583088266e-06,1.4303608944388202e-05,-8.39051664987267e-06,3.532127186289813e-07,-1.5258788981231675e-06,-0.0002809029805420048,-8.515356905103483e-05,-0.0003073680123306858,0.00029711309292891554,8.962125909346993e-05,-0.00012173629348954557,-0.0017924026505729824,0.3752071261405945,22.672876358032227,0.1729399859905243,-14.207185745239258,-0.10558086633682251,-2.1453890800476074,0.28232139348983765,0
62,0.30533623695373535,-0.3752071261405945,-22.672876358032227,-0.1729399859905243,14.207185745239258,0.10558086633682251,2.1453890800476074,-0.28232139348983765,0.0,0.0,0.0,0.0,0.0,0.0,0.0,-0.350378672972682,0.14714284604836025,-0.2349493227362125,0.3040969717433311,-0.1250170055458607,-0.035952671888491286,-0.24014545332246753,1.6755233853783524,0.052314713702912914,0.029979092143868142,-2.7524091487349125,0.03425319450366467,2.7663676010944136,0.7691645792259028,1.6754973547542302,0.052104326824870026,0.029969505109285054,-2.752394845125968,0.0342448039870148,2.7663679543071322,0.7691630533470046,0.0002809029805420048,8.515356905103483e-05,0.0003073680123306858,-0.00029711309292891554,-8.962125909346993e-05,0.00012173629348954557,0.0017924026505729824,0.0,0.0,0.0,0.0,0.0,0.0,0.0,-2.603062412220858e-05,-0.0002103868780428883,-9.587034583088266e-06,1.4303608944388202e-05,-8.39051664987267e-06,3.532127186289813e-07,-1.5258788981231675e-06,-0.0002809029805420048,-8.515356905103483e-05,-0.0003073680123306858,0.00029711309292891554,8.962125909346993e-05,-0.00012173629348954557,-0.0017924026505729824,0.3752071261405945,22.672876358032227,0.1729399859905243,-14.207185745239258,-0.10558086633682251,-2.1453890800476074,0.28232139348983765,0
63,0.3099989891052246,-0.4267818331718445,-22.649072647094727,-0.1491362750530243,14.155611038208008,0.10558086633682251,2.1517977714538574,-0.24112264811992645,0.0,0.0,0.0,0.0,0.0,0.0,0.0,-0.35387918239241617,0.15147321188154514,-0.23870579729500194,0.3025612894873665,-0.12552347688341992,-0.03650696630108125,-0.23991803764010416,1.6755270046560389,0.05231304326705765,0.029977421708012878,-2.752405529457226,0.03425303936909099,2.7663672422283154,0.7691600015875365,1.6754973547542302,0.052104326824870026,0.029969505109285054,-2.752394845125968,0.0342448039870148,2.7663679543071322,0.7691630533470046,0.001409486329295112,-0.00015543158306794357,-0.0003707945566610716,0.0006234560063135027,-4.2277030326382026e-05,-7.727410457249765e-05,0.0006691335277162387,0.0,0.0,0.0,0.0,0.0,0.0,0.0,-2.9649901808648238e-05,-0.00020871644218762447,-7.916598727824437e-06,1.0684331257948543e-05,-8.235382076192399e-06,7.120788168002434e-07,3.0517594681311877e-06,-0.001409486329295112,0.00015543158306794357,0.0003707945566610716,-0.0006234560063135027,4.2277030326382026e-05,7.727410457249765e-05,-0.0006691335277162387,0.4267818331718445,22.649072647094727,0.1491362750530243,-14.155611038208008,-0.10558086633682251,-2.1517977714538574,0.24112264811992645,0
64,0.3150017261505127,-0.4267818331718445,-22.649072647094727,-0.1491362750530243,14.155611038208008,0.10558086633682251,2.1517977714538574,-0.24112264811992645,0.0,0.0,0.0,0.0,0.0,0.0,0.0,-0.35387918239241617,0.15147321188154514,-0.23870579729500194,0.3025612894873665,-0.12552347688341992,-0.03650696630108125,-0.23991803764010416,1.6755270046560389,0.05231304326705765,0.029977421708012878,-2.752405529457226,0.03425303936909099,2.7663672422283154,0.7691600015875365,1.6754973547542302,0.052104326824870026,0.029969505109285054,-2.752394845125968,0.0342448039870148,2.7663679543071322,0.7691630533470046,0.001409486329295112,-0.00015543158306794357,-0.0003707945566610716,0.0006234560063135027,-4.2277030326382026e-05,-7.727410457249765e-05,0.0006691335277162387,0.0,0.0,0.0,0.0,0.0,0.0,0.0,-2.9649901808648238e-05,-0.00020871644218762447,-7.916598727824437e-06,1.0684331257948543e-05,-8.235382076192399e-06,7.120788168002434e-07,3.0517594681311877e-06,-0.001409486329295112,0.00015543158306794357,0.0003707945566610716,-0.0006234560063135027,4.2277030326382026e-05,7.727410457249765e-05,-0.0006691335277162387,0.4267818331718445,22.649072647094727,0.1491362750530243,-14.155611038208008,-0.10558086633682251,-2.1517977714538574,0.24112264811992645,0
65,0.3200249671936035,-0.2998287081718445,-22.696680068969727,-0.1253325641155243,14.155611038208008,0.11748272180557251,2.1517977714538574,-0.22830526530742645,0.0,0.0,0.0,0.0,0.0,0.0,0.0,-0.3532481535434193,0.14847233724720288,-0.23432669795471267,0.3019439561123574,-0.12613860414274014,-0.03605072339865195,-0.2396466585941383,1.6755180956648108,0.05231638413876818,0.029975751272157614,-2.752405529457226,0.03424869326006574,2.7663672420149688,0.7691585774338906,1.6754973547542302,0.052104326824870026,0.029969505109285054,-2.752394845125968,0.0342448039870148,2.7663679543071322,0.7691630533470046,-0.001529524664886517,0.0007577086739044092,-0.0002901091919975821,6.061701733497369e-05,-0.0004319524376664349,0.00014576518664132112,-0.00030737053454797577,0.0,0.0,0.0,0.0,0.0,0.0,0.0,-2.074091058057448e-05,-0.00021205731389815213,-6.246162872560607e-06,1.0684331257948543e-05,-3.889273050942943e-06,7.122921634739043e-07,4.475913114032615e-06,0.001529524664886517,-0.0007577086739044092,0.0002901091919975821,-6.061701733497369e-05,0.0004319524376664349,-0.00014576518664132112,0.00030737053454797577,0.2998287081718445,22.696680068969727,0.1253325641155243,-14.155611038208008,-0.11748272180557251,-2.1517977714538574,0.22830526530742645,0
66,0.32500648498535156,-0.2998287081718445,-22.696680068969727,-0.1253325641155243,14.155611038208008,0.11748272180557251,2.1517977714538574,-0.22830526530742645,0.0,0.0,0.0,0.0,0.0,0.0,0.0,-0.3532481535434193,0.14847233724720288,-0.23432669795471267,0.3019439561123574,-0.12613860414274014,-0.03605072339865195,-0.2396466585941383,1.6755180956648108,0.05231638413876818,0.029975751272157614,-2.752405529457226,0.03424869326006574,2.7663672420149688,0.7691585774338906,1.6754973547542302,0.052104326824870026,0.029969505109285054,-2.752394845125968,0.0342448039870148,2.7663679543071322,0.7691630533470046,-0.001529524664886517,0.0007577086739044092,-0.0002901091919975821,6.061701733497369e-05,-0.0004319524376664349,0.00014576518664132112,-0.00030737053454797577,0.0,0.0,0.0,0.0,0.0,0.0,0.0,-2.074091058057448e-05,-0.00021205731389815213,-6.246162872560607e-06,1.0684331257948543e-05,-3.889273050942943e-06,7.122921634739043e-07,4.475913114032615e-06,0.001529524664886517,-0.0007577086739044092,0.0002901091919975821,-6.061701733497369e-05,0.0004319524376664349,-0.00014576518664132112,0.00030737053454797577,0.2998287081718445,22.696680068969727,0.1253325641155243,-14.155611038208008,-0.11748272180557251,-2.1517977714538574,0.22830526530742645,0
67,0.33001255989074707,-0.2998287081718445,-22.672876358032227,-0.1491362750530243,14.131807327270508,0.10558086633682251,2.1325716972351074,-0.22098104655742645,0.0,0.0,0.0,0.0,0.0,0.0,0.0,-0.3603456028794393,0.1458887585764782,-0.23847616409379135,0.3049256169145124,-0.1253918356542014,-0.03520676580451432,-0.24003701067295144,1.6755181041680796,0.052314713702912914,0.029977421708012878,-2.752403859021371,0.034249299590831034,2.766369378460777,0.7691578033682371,1.6754973547542302,0.052104326824870026,0.029969505109285054,-2.752394845125968,0.0342448039870148,2.7663679543071322,0.7691630533470046,-0.0013794781136194664,0.00015480016182361833,-0.00018353588797766522,0.001196673897470099,0.00020232078499249432,0.0006618999186110368,0.0004668423157183901,0.0,0.0,0.0,0.0,0.0,0.0,0.0,-2.0749413849330267e-05,-0.0002103868780428883,-7.916598727824437e-06,9.013895402976146e-06,-4.495603816233318e-06,-1.424153644791204e-06,5.249978767496444e-06,0.0013794781136194664,-0.00015480016182361833,0.00018353588797766522,-0.001196673897470099,-0.00020232078499249432,-0.0006618999186110368,-0.0004668423157183901,0.2998287081718445,22.672876358032227,0.1491362750530243,-14.131807327270508,-0.10558086633682251,-2.1325716972351074,0.22098104655742645,0
68,0.33502745628356934,-0.2998287081718445,-22.672876358032227,-0.1491362750530243,14.131807327270508,0.10558086633682251,2.1325716972351074,-0.22098104655742645,0.0,0.0,0.0,0.0,0.0,0.0,0.0,-0.3603456028794393,0.1458887585764782,-0.23847616409379135,0.3049256169145124,-0.1253918356542014,-0.03520676580451432,-0.24003701067295144,1.6755181041680796,0.052314713702912914,0.029977421708012878,-2.752403859021371,0.034249299590831034,2.766369378460777,0.7691578033682371,1.6754973547542302,0.052104326824870026,0.029969505109285054,-2.752394845125968,0.0342448039870148,2.7663679543071322,0.7691630533470046,-0.0013794781136194664,0.00015480016182361833,-0.00018353588797766522,0.001196673897470099,0.00020232078499249432,0.0006618999186110368,0.0004668423157183901,0.0,0.0,0.0,0.0,0.0,0.0,0.0,-2.0749413849330267e-05,-0.0002103868780428883,-7.916598727824437e-06,9.013895402976146e-06,-4.495603816233318e-06,-1.424153644791204e-06,5.249978767496444e-06,0.0013794781136194664,-0.00015480016182361833,0.00018353588797766522,-0.001196673897470099,-0.00020232078499249432,-0.0006618999186110368,-0.0004668423157183901,0.2998287081718445,22.672876358032227,0.1491362750530243,-14.131807327270508,-0.10558086633682251,-2.1325716972351074,0.22098104655742645,0
69,0.3400259017944336,-0.3236324191093445,-22.672876358032227,-0.1729399859905243,14.155611038208008,0.11198955774307251,2.1582064628601074,-0.24844686686992645,0.0,0.0,0.0,0.0,0.0,0.0,0.0,-0.3520571559590899,0.14404679669727435,-0.23460512100790856,0.30271644288271343,-0.12495680887272892,-0.03565493874452306,-0.2409381449677609,1.675519766100682,0.052314713702912914,0.029979092143868142,-2.752405529457226,0.03425283749396004,2.7663654705153573,0.7691608153896945,1.6754973547542302,0.052104326824870026,0.029969505109285054,-2.752394845125968,0.0342448039870148,2.7663679543071322,0.7691630533470046,-0.00044177342669926486,0.0002835579596769628,0.0008052707582918926,0.00042083095150684735,-7.502099212591708e-05,-0.00045579534022294346,0.0003389235995489787,0.0,0.0,0.0,0.0,0.0,0.0,0.0,-2.241134645175613e-05,-0.0002103868780428883,-9.587034583088266e-06,1.0684331257948543e-05,-8.033506945240299e-06,2.4837917749209737e-06,2.237957310136096e-06,0.00044177342669926486,-0.0002835579596769628,-0.0008052707582918926,-0.00042083095150684735,7.502099212591708e-05,0.00045579534022294346,-0.0003389235995489787,0.3236324191093445,22.672876358032227,0.1729399859905243,-14.155611038208008,-0.11198955774307251,-2.1582064628601074,0.24844686686992645,0
70,0.345020055770874,-0.3236324191093445,-22.672876358032227,-0.1729399859905243,14.155611038208008,0.11198955774307251,2.1582064628601074,-0.24844686686992645,0.0,0.0,0.0,0.0,0.0,0.0,0.0,-0.3520571559590899,0.14404679669727435,-0.23460512100790856,0.30271644288271343,-0.12495680887272892,-0.03565493874452306,-0.2409381449677609,1.675519766100682,0.052314713702912914,0.029979092143868142,-2.752405529457226,0.03425283749396004,2.7663654705153573,0.7691608153896945,1.6754973547542302,0.052104326824870026,0.029969505109285054,-2.752394845125968,0.0342448039870148,2.7663679543071322,0.7691630533470046,-0.00044177342669926486,0.0002835579596769628,0.0008052707582918926,0.00042083095150684735,-7.502099212591708e-05,-0.00045579534022294346,0.0003389235995489787,0.0,0.0,0.0,0.0,0.0,0.0,0.0,-2.241134645175613e-05,-0.0002103868780428883,-9.587034583088266e-06,1.0684331257948543e-05,-8.033506945240299e-06,2.4837917749209737e-06,2.237957310136096e-06,0.00044177342669926486,-0.0002835579596769628,-0.0008052707582918926,-0.00042083095150684735,7.502099212591708e-05,0.00045579534022294346,-0.0003389235995489787,0.3236324191093445,22.672876358032227,0.1729399859905243,-14.155611038208008,-0.11198955774307251,-2.1582064628601074,0.24844686686992645,0
71,0.3500204086303711,-0.3752071261405945,-22.696680068969727,-0.1491362750530243,14.179414749145508,0.10558086633682251,2.1453890800476074,-0.23471395671367645,0.0,0.0,0.0,0.0,0.0,0.0,0.0,-0.3515831223506765,0.14774543329628267,-0.236664095436581,0.2993036713331019,-0.12389139653831799,-0.03629456572796998,-0.2418085264119298,1.6755233853783524,0.05231638413876818,0.02997739541635501,-2.7524071998930815,0.03425246159168609,2.766367954247315,0.7691592895107136,1.6754973547542302,0.052104326824870026,0.029969505109285054,-2.752394845125968,0.0342448039870148,2.7663679543071322,0.7691630533470046,0.0006181145475577952,0.0013968545627375405,0.0004549365515656477,-0.00047198320592345606,3.266382391108018e-05,-1.1644694507513098e-05,-0.0006934739592813993,0.0,0.0,0.0,0.0,0.0,0.0,0.0,-2.603062412220858e-05,-0.00021205731389815213,-7.890307069956248e-06,1.2354767113365028e-05,-7.657604671286455e-06,5.981704020996403e-11,3.763836291081901e-06,-0.0006181145475577952,-0.0013968545627375405,-0.0004549365515656477,0.00047198320592345606,-3.266382391108018e-05,1.1644694507513098e-05,0.0006934739592813993,0.3752071261405945,22.696680068969727,0.1491362750530243,-14.179414749145508,-0.10558086633682251,-2.1453890800476074,0.23471395671367645,0
72,0.35504913330078125,-0.3752071261405945,-22.696680068969727,-0.1491362750530243,14.179414749145508,0.10558086633682251,2.1453890800476074,-0.23471395671367645,0.0,0.0,0.0,0.0,0.0,0.0,0.0,-0.3515831223506765,0.14774543329628267,-0.236664095436581,0.2993036713331019,-0.12389139653831799,-0.03629456572796998,-0.2418085264119298,1.6755233853783524,0.05231638413876818,0.02997739541635501,-2.7524071998930815,0.03425246159168609,2.766367954247315,0.7691592895107136,1.6754973547542302,0.052104326824870026,0.029969505109285054,-2.752394845125968,0.0342448039870148,2.7663679543071322,0.7691630533470046,0.0006181145475577952,0.0013968545627375405,0.0004549365515656477,-0.00047198320592345606,3.266382391108018e-05,-1.1644694507513098e-05,-0.0006934739592813993,0.0,0.0,0.0,0.0,0.0,0.0,0.0,-2.603062412220858e-05,-0.00021205731389815213,-7.890307069956248e-06,1.2354767113365028e-05,-7.657604671286455e-06,5.981704020996403e-11,3.763836291081901e-06,-0.0006181145475577952,-0.0013968545627375405,-0.0004549365515656477,0.00047198320592345606,-3.266382391108018e-05,1.1644694507513098e-05,0.0006934739592813993,0.3752071261405945,22.696680068969727,0.1491362750530243,-14.179414749145508,-0.10558086633682251,-2.1453890800476074,0.23471395671367645,0
73,0.36001038551330566,-0.3514034152030945,-22.621301651000977,-0.1253325641155243,14.155611038208008,0.11198955774307251,2.1517977714538574,-0.21457235515117645,0.0,0.0,0.0,0.0,0.0,0.0,0.0,-0.35034967155085356,0.144179042552617,-0.23353486921107966,0.3017506492441372,-0.12433176565724155,-0.03612706207747403,-0.24360103129517352,1.67552171777692,0.05231109442522651,0.0299757512720092,-2.752405529457226,0.03425232750464919,2.7663671985699665,0.7691570515549844,1.6754973547542302,0.052104326824870026,0.029969505109285054,-2.752394845125968,0.0342448039870148,2.7663679543071322,0.7691630533470046,3.531242692831032e-05,-0.0007834153223758507,-0.0006301203424606705,0.0003439594179460717,-0.00022865365531718774,6.922520418113599e-05,-0.001483504345914555,0.0,0.0,0.0,0.0,0.0,0.0,0.0,-2.436302268971069e-05,-0.00020676760035648334,-6.246162724144605e-06,1.0684331257948543e-05,-7.523517634389076e-06,7.557371657362921e-07,6.00179202026041e-06,-3.531242692831032e-05,0.0007834153223758507,0.0006301203424606705,-0.0003439594179460717,0.00022865365531718774,-6.922520418113599e-05,0.001483504345914555,0.3514034152030945,22.621301651000977,0.1253325641155243,-14.155611038208008,-0.11198955774307251,-2.1517977714538574,0.21457235515117645,0
74,0.36499929428100586,-0.3514034152030945,-22.621301651000977,-0.1253325641155243,14.155611038208008,0.11198955774307251,2.1517977714538574,-0.21457235515117645,0.0,0.0,0.0,0.0,0.0,0.0,0.0,-0.35034967155085356,0.144179042552617,-0.23353486921107966,0.3017506492441372,-0.12433176565724155,-0.03612706207747403,-0.24360103129517352,1.67552171777692,0.05231109442522651,0.0299757512720092,-2.752405529457226,0.03425232750464919,2.7663671985699665,0.7691570515549844,1.6754973547542302,0.052104326824870026,0.029969505109285054,-2.752394845125968,0.0342448039870148,2.7663679543071322,0.7691630533470046,3.531242692831032e-05,-0.0007834153223758507,-0.0006301203424606705,0.0003439594179460717,-0.00022865365531718774,6.922520418113599e-05,-0.001483504345914555,0.0,0.0,0.0,0.0,0.0,0.0,0.0,-2.436302268971069e-05,-0.00020676760035648334,-6.246162724144605e-06,1.0684331257948543e-05,-7.523517634389076e-06,7.557371657362921e-07,6.00179202026041e-06,-3.531242692831032e-05,0.0007834153223758507,0.0006301203424606705,-0.0003439594179460717,0.00022865365531718774,-6.922520418113599e-05,0.001483504345914555,0.3514034152030945,22.621301651000977,0.1253325641155243,-14.155611038208008,-0.11198955774307251,-2.1517977714538574,0.21457235515117645,0
75,0.37000060081481934,-0.3236324191093445,-22.649072647094727,-0.1491362750530243,14.179414749145508,0.11198955774307251,2.1582064628601074,-0.23471395671367645,0.0,0.0,0.0,0.0,0.0,0.0,0.0,-0.35157442193369937,0.14597422183208608,-0.2311959930154823,0.302152283801686,-0.12471770626518797,-0.03624333978213323,-0.2457555968622079,1.6755218323950343,0.05231304326705765,0.029977421708012878,-2.7524071998930815,0.034249658810100836,2.76636653015324,0.7691592895107136,1.6754973547542302,0.052104326824870026,0.029969505109285054,-2.752394845125968,0.0342448039870148,2.7663679543071322,0.7691630533470046,-0.0005722643910178418,0.00018854771681551052,4.541753195767549e-05,-0.00021634746775433145,-0.0003994596718588354,-0.00032361717064907934,-0.000852172768754384,0.0,0.0,0.0,0.0,0.0,0.0,0.0,-2.4477640804043688e-05,-0.00020871644218762447,-7.916598727824437e-06,1.2354767113365028e-05,-4.854823086035409e-06,1.4241538921488939e-06,3.763836291081901e-06,0.0005722643910178418,-0.00018854771681551052,-4.541753195767549e-05,0.00021634746775433145,0.0003994596718588354,0.00032361717064907934,0.000852172768754384,0.3236324191093445,22.649072647094727,0.1491362750530243,-14.179414749145508,-0.11198955774307251,-2.1582064628601074,0.23471395671367645,0
76,0.37500500679016113,-0.3236324191093445,-22.649072647094727,-0.1491362750530243,14.179414749145508,0.11198955774307251,2.1582064628601074,-0.23471395671367645,0.0,0.0,0.0,0.0,0.0,0.0,0.0,-0.35157442193369937,0.14597422183208608,-0.2311959930154823,0.302152283801686,-0.12471770626518797,-0.03624333978213323,-0.2457555968622079,1.6755218323950343,0.05231304326705765,0.029977421708012878,-2.7524071998930815,0.034249658810100836,2.76636653015324,0.7691592895107136,1.6754973547542302,0.052104326824870026,0.029969505109285054,-2.752394845125968,0.0342448039870148,2.7663679543071322,0.7691630533470046,-0.0005722643910178418,0.00018854771681551052,4.541753195767549e-05,-0.00021634746775433145,-0.0003994596718588354,-0.00032361717064907934,-0.000852172768754384,0.0,0.0,0.0,0.0,0.0,0.0,0.0,-2.4477640804043688e-05,-0.00020871644218762447,-7.916598727824437e-06,1.2354767113365028e-05,-4.854823086035409e-06,1.4241538921488939e-06,3.763836291081901e-06,0.0005722643910178418,-0.00018854771681551052,-4.541753195767549e-05,0.00021634746775433145,0.0003994596718588354,0.00032361717064907934,0.000852172768754384,0.3236324191093445,22.649072647094727,0.1491362750530243,-14.179414749145508,-0.11198955774307251,-2.1582064628601074,0.23471395671367645,0
77,0.38002610206604004,-0.3236324191093445,-22.672876358032227,-0.1253325641155243,14.179414749145508,0.10008770227432251,2.1453890800476074,-0.26858848333358765,0.0,0.0,0.0,0.0,0.0,0.0,0.0,-0.34997894788192635,0.1477906616297261,-0.22955893414987757,0.30296925853404705,-0.12514637498492442,-0.035899663364850405,-0.2463136521138864,1.6755197661356587,0.052314713702912914,0.029975751272157614,-2.7524071998930815,0.03425271728617265,2.7663679136077253,0.7691630533470046,1.6754973547542302,0.052104326824870026,0.029969505109285054,-2.752394845125968,0.0342448039870148,2.7663679543071322,0.7691630533470046,-0.0005947749837268822,0.0008493223120341067,-0.000652800935617459,0.00030000110397987445,0.0004399376026103302,2.0206480975459787e-05,0.001635909617695093,0.0,0.0,0.0,0.0,0.0,0.0,0.0,-2.2411381428444344e-05,-0.0002103868780428883,-6.246162872560607e-06,1.2354767113365028e-05,-7.913299157849552e-06,4.069940695572427e-08,0.0,0.0005947749837268822,-0.0008493223120341067,0.000652800935617459,-0.00030000110397987445,-0.0004399376026103302,-2.0206480975459787e-05,-0.001635909617695093,0.3236324191093445,22.672876358032227,0.1253325641155243,-14.179414749145508,-0.10008770227432251,-2.1453890800476074,0.26858848333358765,0
78,0.38503122329711914,-0.3236324191093445,-22.672876358032227,-0.1253325641155243,14.179414749145508,0.10008770227432251,2.1453890800476074,-0.26858848333358765,0.0,0.0,0.0,0.0,0.0,0.0,0.0,-0.34997894788192635,0.1477906616297261,-0.22955893414987757,0.30296925853404705,-0.12514637498492442,-0.035899663364850405,-0.2463136521138864,1.6755197661356587,0.052314713702912914,0.029975751272157614,-2.7524071998930815,0.03425271728617265,2.7663679136077253,0.7691630533470046,1.6754973547542302,0.052104326824870026,0.029969505109285054,-2.752394845125968,0.0342448039870148,2.7663679543071322,0.7691630533470046,-0.0005947749837268822,0.0008493223120341067,-0.000652800935617459,0.00030000110397987445,0.0004399376026103302,2.0206480975459787e-05,0.001635909617695093,0.0,0.0,0.0,0.0,0.0,0.0,0.0,-2.2411381428444344e-05,-0.0002103868780428883,-6.246162872560607e-06,1.2354767113365028e-05,-7.913299157849552e-06,4.069940695572427e-08,0.0,0.0005947749837268822,-0.0008493223120341067,0.000652800935617459,-0.00030000110397987445,-0.0004399376026103302,-2.0206480975459787e-05,-0.001635909617695093,0.3236324191093445,22.672876358032227,0.1253325641155243,-14.179414749145508,-0.10008770227432251,-2.1453890800476074,0.26858848333358765,0
79,0.39006829261779785,-0.3752071261405945,-22.649072647094727,-0.2007109820842743,14.131807327270508,0.11198955774307251,2.1655306816101074,-0.20724813640117645,0.0,0.0,0.0,0.0,0.0,0.0,0.0,-0.35113638200930924,0.1465350158073436,-0.23184693053557673,0.30206029360507636,-0.1243862183820328,-0.0361797752267727,-0.24262062565136439,1.6755233853783524,0.05231304326705765,0.029981040985699283,-2.752403859021371,0.03424965437170382,2.7663657163513267,0.7691562377529011,1.6754973547542302,0.052104326824870026,0.029969505109285054,-2.752394845125968,0.0342448039870148,2.7663679543071322,0.7691630533470046,0.0005346006383448803,-0.00040916050859406264,0.0010814209513377348,0.0009562794112502983,-8.767982999096593e-05,-0.0005709634143399298,-0.0015640857928634327,0.0,0.0,0.0,0.0,0.0,0.0,0.0,-2.603062412220858e-05,-0.00020871644218762447,-1.1535876414229401e-05,9.013895402976146e-06,-4.85038468901744e-06,2.237955805561853e-06,6.815594103537492e-06,-0.0005346006383448803,0.00040916050859406264,-0.0010814209513377348,-0.0009562794112502983,8.767982999096593e-05,0.0005709634143399298,0.0015640857928634327,0.3752071261405945,22.649072647094727,0.2007109820842743,-14.131807327270508,-0.11198955774307251,-2.1655306816101074,0.20724813640117645,0
