rezayati/contactInterpretation/dataset/franka_main/labeled_data/link2/f5_2.csv
index,time,tau_J0,tau_J1,tau_J2,tau_J3,tau_J4,tau_J5,tau_J6,tau_J_d0,tau_J_d1,tau_J_d2,tau_J_d3,tau_J_d4,tau_J_d5,tau_J_d6,tau_ext0,tau_ext1,tau_ext2,tau_ext3,tau_ext4,tau_ext5,tau_ext6,q0,q1,q2,q3,q4,q5,q6,q_d0,q_d1,q_d2,q_d3,q_d4,q_d5,q_d6,dq0,dq1,dq2,dq3,dq4,dq5,dq6,dq_d0,dq_d1,dq_d2,dq_d3,dq_d4,dq_d5,dq_d6,e0,e1,e2,e3,e4,e5,e6,de0,de1,de2,de3,de4,de5,de6,etau_J0,etau_J1,etau_J2,etau_J3,etau_J4,etau_J5,etau_J6,label
1,0.0,-0.19667929410934448,-13.464807510375977,0.3983490765094757,18.297456741333008,0.5578513741493225,2.3074374198913574,-0.22830526530742645,0.0,0.0,0.0,0.0,0.0,0.0,0.0,-0.24540211869699582,0.43361858295229255,-0.025757753548262957,0.5666463066460014,0.1260380728127625,0.08584551456935764,-0.21484438951108806,0.07179771721781346,-0.33446003372627386,-0.12026673689265202,-2.8748842765741176,-0.06460476463370853,2.5181998386912876,0.7687500604181562,0.07165585495296277,-0.33419673383382315,-0.1203439052763738,-2.874768336042937,-0.06453255302590709,2.518161157661014,0.7687020283728597,-0.0008533590633475365,0.00014051684674419487,0.0001068049217269145,0.0003094828097593094,-0.00015336695483593056,-0.000321938593675835,0.0010423196372927723,0.0,0.0,0.0,0.0,0.0,0.0,0.0,-0.00014186226485068953,0.00026329989245071905,-7.716838372177903e-05,0.00011594053118058056,7.221160780143676e-05,-3.868103027349079e-05,-4.803204529646443e-05,0.0008533590633475365,-0.00014051684674419487,-0.0001068049217269145,-0.0003094828097593094,0.00015336695483593056,0.000321938593675835,-0.0010423196372927723,0.19667929410934448,13.464807510375977,-0.3983490765094757,-18.297456741333008,-0.5578513741493225,-2.3074374198913574,0.22830526530742645,0
2,0.004996061325073242,-0.19667929410934448,-13.464807510375977,0.3983490765094757,18.297456741333008,0.5578513741493225,2.3074374198913574,-0.22830526530742645,0.0,0.0,0.0,0.0,0.0,0.0,0.0,-0.24540211869699582,0.43361858295229255,-0.025757753548262957,0.5666463066460014,0.1260380728127625,0.08584551456935764,-0.21484438951108806,0.07179771721781346,-0.33446003372627386,-0.12026673689265202,-2.8748842765741176,-0.06460476463370853,2.5181998386912876,0.7687500604181562,0.07165585495296277,-0.33419673383382315,-0.1203439052763738,-2.874768336042937,-0.06453255302590709,2.518161157661014,0.7687020283728597,-0.0008533590633475365,0.00014051684674419487,0.0001068049217269145,0.0003094828097593094,-0.00015336695483593056,-0.000321938593675835,0.0010423196372927723,0.0,0.0,0.0,0.0,0.0,0.0,0.0,-0.00014186226485068953,0.00026329989245071905,-7.716838372177903e-05,0.00011594053118058056,7.221160780143676e-05,-3.868103027349079e-05,-4.803204529646443e-05,0.0008533590633475365,-0.00014051684674419487,-0.0001068049217269145,-0.0003094828097593094,0.00015336695483593056,0.000321938593675835,-0.0010423196372927723,0.19667929410934448,13.464807510375977,-0.3983490765094757,-18.297456741333008,-0.5578513741493225,-2.3074374198913574,0.22830526530742645,0
3,0.009951114654541016,-0.24825400114059448,-13.488611221313477,0.3983490765094757,18.297456741333008,0.5523582100868225,2.3010287284851074,-0.20724813640117645,0.0,0.0,0.0,0.0,0.0,0.0,0.0,-0.24437648831646785,0.43331204362203657,-0.026131960267903983,0.5697980256938046,0.12609394835349816,0.08671263796668188,-0.2140136176989823,0.07180133649549986,-0.3344583632904186,-0.12026865545968488,-2.8748842765741176,-0.06460829438937461,2.5182005507681104,0.7687487803952348,0.07165585495296277,-0.33419673383382315,-0.1203439052763738,-2.874768336042937,-0.06453255302590709,2.518161157661014,0.7687020283728597,0.000108171630693699,0.0005574652149145863,-0.00020892875772370354,0.000647884554075747,7.511908356793238e-05,4.93179305245309e-05,-0.00036763289230792894,0.0,0.0,0.0,0.0,0.0,0.0,0.0,-0.00014548154253708756,0.0002616294565954691,-7.524981668892428e-05,0.00011594053118058056,7.574136346752414e-05,-3.939310709633048e-05,-4.675202237502951e-05,-0.000108171630693699,-0.0005574652149145863,0.00020892875772370354,-0.000647884554075747,-7.511908356793238e-05,-4.93179305245309e-05,0.00036763289230792894,0.24825400114059448,13.488611221313477,-0.3983490765094757,-18.297456741333008,-0.5523582100868225,-2.3010287284851074,0.20724813640117645,0
4,0.014993667602539062,-0.24825400114059448,-13.488611221313477,0.3983490765094757,18.297456741333008,0.5523582100868225,2.3010287284851074,-0.20724813640117645,0.0,0.0,0.0,0.0,0.0,0.0,0.0,-0.24437648831646785,0.43331204362203657,-0.026131960267903983,0.5697980256938046,0.12609394835349816,0.08671263796668188,-0.2140136176989823,0.07180133649549986,-0.3344583632904186,-0.12026865545968488,-2.8748842765741176,-0.06460829438937461,2.5182005507681104,0.7687487803952348,0.07165585495296277,-0.33419673383382315,-0.1203439052763738,-2.874768336042937,-0.06453255302590709,2.518161157661014,0.7687020283728597,0.000108171630693699,0.0005574652149145863,-0.00020892875772370354,0.000647884554075747,7.511908356793238e-05,4.93179305245309e-05,-0.00036763289230792894,0.0,0.0,0.0,0.0,0.0,0.0,0.0,-0.00014548154253708756,0.0002616294565954691,-7.524981668892428e-05,0.00011594053118058056,7.574136346752414e-05,-3.939310709633048e-05,-4.675202237502951e-05,-0.000108171630693699,-0.0005574652149145863,0.00020892875772370354,-0.000647884554075747,-7.511908356793238e-05,-4.93179305245309e-05,0.00036763289230792894,0.24825400114059448,13.488611221313477,-0.3983490765094757,-18.297456741333008,-0.5523582100868225,-2.3010287284851074,0.20724813640117645,0
5,0.019997596740722656,-0.24825400114059448,-13.464807510375977,0.3705780804157257,18.297456741333008,0.5523582100868225,2.2882113456726074,-0.18710653483867645,0.0,0.0,0.0,0.0,0.0,0.0,0.0,-0.24101837354033284,0.43247056992011246,-0.022367812163590954,0.5681888343910426,0.12539283014963437,0.08608112297808698,-0.21430461193828876,0.07180133649549986,-0.33446003372627386,-0.12026527099516313,-2.8748842765741176,-0.06460841270265567,2.518201974921756,0.7687465424454875,0.07165585495296277,-0.33419673383382315,-0.1203439052763738,-2.874768336042937,-0.06453255302590709,2.518161157661014,0.7687020283728597,5.9405521098761267e-05,-0.0007379401945007943,0.000903537994612219,-0.0001267985907030784,2.7011905654650286e-05,0.0004080320692690763,-0.0008011268649088449,0.0,0.0,0.0,0.0,0.0,0.0,0.0,-0.00014548154253708756,0.00026329989245071905,-7.863428121067384e-05,0.00011594053118058056,7.585967674858529e-05,-4.0817260742009864e-05,-4.451407262773266e-05,-5.9405521098761267e-05,0.0007379401945007943,-0.000903537994612219,0.0001267985907030784,-2.7011905654650286e-05,-0.0004080320692690763,0.0008011268649088449,0.24825400114059448,13.464807510375977,-0.3705780804157257,-18.297456741333008,-0.5523582100868225,-2.2882113456726074,0.18710653483867645,0
6,0.0249941349029541,-0.24825400114059448,-13.464807510375977,0.3705780804157257,18.297456741333008,0.5523582100868225,2.2882113456726074,-0.18710653483867645,0.0,0.0,0.0,0.0,0.0,0.0,0.0,-0.24101837354033284,0.43247056992011246,-0.022367812163590954,0.5681888343910426,0.12539283014963437,0.08608112297808698,-0.21430461193828876,0.07180133649549986,-0.33446003372627386,-0.12026527099516313,-2.8748842765741176,-0.06460841270265567,2.518201974921756,0.7687465424454875,0.07165585495296277,-0.33419673383382315,-0.1203439052763738,-2.874768336042937,-0.06453255302590709,2.518161157661014,0.7687020283728597,5.9405521098761267e-05,-0.0007379401945007943,0.000903537994612219,-0.0001267985907030784,2.7011905654650286e-05,0.0004080320692690763,-0.0008011268649088449,0.0,0.0,0.0,0.0,0.0,0.0,0.0,-0.00014548154253708756,0.00026329989245071905,-7.863428121067384e-05,0.00011594053118058056,7.585967674858529e-05,-4.0817260742009864e-05,-4.451407262773266e-05,-5.9405521098761267e-05,0.0007379401945007943,-0.000903537994612219,0.0001267985907030784,-2.7011905654650286e-05,-0.0004080320692690763,0.0008011268649088449,0.24825400114059448,13.464807510375977,-0.3705780804157257,-18.297456741333008,-0.5523582100868225,-2.2882113456726074,0.18710653483867645,0
7,0.029993057250976562,-0.2998287081718445,-13.437036514282227,0.3983490765094757,18.321260452270508,0.5578513741493225,2.3010287284851074,-0.19351522624492645,0.0,0.0,0.0,0.0,0.0,0.0,0.0,-0.24569894971728964,0.4361081403389715,-0.02527379008658699,0.5703189772636479,0.12592106960061292,0.0859791924406148,-0.21340441616816577,0.07180495566492706,-0.334461982568105,-0.12026756085352838,-2.874885947009973,-0.0646090230544408,2.5182005507681104,0.7687472545223104,0.07165585495296277,-0.33419673383382315,-0.1203439052763738,-2.874768336042937,-0.06453255302590709,2.518161157661014,0.7687020283728597,0.001585586204205664,-0.0006481309868473906,-0.0009870628297750901,-0.0004431558772782708,-0.0001303530529643137,-0.00012394913459938013,-0.0007311168605899455,0.0,0.0,0.0,0.0,0.0,0.0,0.0,-0.0001491007119642923,0.00026524873428185325,-7.634442284541743e-05,0.00011761096703599705,7.647002853371221e-05,-3.939310709633048e-05,-4.522614945068337e-05,-0.001585586204205664,0.0006481309868473906,0.0009870628297750901,0.0004431558772782708,0.0001303530529643137,0.00012394913459938013,0.0007311168605899455,0.2998287081718445,13.437036514282227,-0.3983490765094757,-18.321260452270508,-0.5578513741493225,-2.3010287284851074,0.19351522624492645,0
8,0.03498053550720215,-0.2998287081718445,-13.437036514282227,0.3983490765094757,18.321260452270508,0.5578513741493225,2.3010287284851074,-0.19351522624492645,0.0,0.0,0.0,0.0,0.0,0.0,0.0,-0.24569894971728964,0.4361081403389715,-0.02527379008658699,0.5703189772636479,0.12592106960061292,0.0859791924406148,-0.21340441616816577,0.07180495566492706,-0.334461982568105,-0.12026756085352838,-2.874885947009973,-0.0646090230544408,2.5182005507681104,0.7687472545223104,0.07165585495296277,-0.33419673383382315,-0.1203439052763738,-2.874768336042937,-0.06453255302590709,2.518161157661014,0.7687020283728597,0.001585586204205664,-0.0006481309868473906,-0.0009870628297750901,-0.0004431558772782708,-0.0001303530529643137,-0.00012394913459938013,-0.0007311168605899455,0.0,0.0,0.0,0.0,0.0,0.0,0.0,-0.0001491007119642923,0.00026524873428185325,-7.634442284541743e-05,0.00011761096703599705,7.647002853371221e-05,-3.939310709633048e-05,-4.522614945068337e-05,-0.001585586204205664,0.0006481309868473906,0.0009870628297750901,0.0004431558772782708,0.0001303530529643137,0.00012394913459938013,0.0007311168605899455,0.2998287081718445,13.437036514282227,-0.3983490765094757,-18.321260452270508,-0.5578513741493225,-2.3010287284851074,0.19351522624492645,0
9,0.04050111770629883,-0.2720577120780945,-13.488611221313477,0.3983490765094757,18.345064163208008,0.5578513741493225,2.2882113456726074,-0.20724813640117645,0.0,0.0,0.0,0.0,0.0,0.0,0.0,-0.24258707184881032,0.43382702219406005,-0.026030866552733102,0.5706203501028503,0.12571841365855355,0.08649996346760705,-0.21276906999998837,0.07180300693135329,-0.3344583632904186,-0.12026673463316719,-2.874887617445828,-0.06460902159407704,2.518201974921756,0.7687477207630873,0.07165585495296277,-0.33419673383382315,-0.1203439052763738,-2.874768336042937,-0.06453255302590709,2.518161157661014,0.7687020283728597,0.0005726062351627317,0.0002703300436731229,-0.0005058422764008177,-0.0011947800948147588,8.145363644519033e-05,0.0004293365998907939,-0.000542980328261704,0.0,0.0,0.0,0.0,0.0,0.0,0.0,-0.00014715197839051952,0.0002616294565954691,-7.717064320661438e-05,0.00011928140289096945,7.646856816995173e-05,-4.0817260742009864e-05,-4.5692390227558555e-05,-0.0005726062351627317,-0.0002703300436731229,0.0005058422764008177,0.0011947800948147588,-8.145363644519033e-05,-0.0004293365998907939,0.000542980328261704,0.2720577120780945,13.488611221313477,-0.3983490765094757,-18.345064163208008,-0.5578513741493225,-2.2882113456726074,0.20724813640117645,0
10,0.04500126838684082,-0.2720577120780945,-13.488611221313477,0.3983490765094757,18.345064163208008,0.5578513741493225,2.2882113456726074,-0.20724813640117645,0.0,0.0,0.0,0.0,0.0,0.0,0.0,-0.24258707184881032,0.43382702219406005,-0.026030866552733102,0.5706203501028503,0.12571841365855355,0.08649996346760705,-0.21276906999998837,0.07180300693135329,-0.3344583632904186,-0.12026673463316719,-2.874887617445828,-0.06460902159407704,2.518201974921756,0.7687477207630873,0.07165585495296277,-0.33419673383382315,-0.1203439052763738,-2.874768336042937,-0.06453255302590709,2.518161157661014,0.7687020283728597,0.0005726062351627317,0.0002703300436731229,-0.0005058422764008177,-0.0011947800948147588,8.145363644519033e-05,0.0004293365998907939,-0.000542980328261704,0.0,0.0,0.0,0.0,0.0,0.0,0.0,-0.00014715197839051952,0.0002616294565954691,-7.717064320661438e-05,0.00011928140289096945,7.646856816995173e-05,-4.0817260742009864e-05,-4.5692390227558555e-05,-0.0005726062351627317,-0.0002703300436731229,0.0005058422764008177,0.0011947800948147588,-8.145363644519033e-05,-0.0004293365998907939,0.000542980328261704,0.2720577120780945,13.488611221313477,-0.3983490765094757,-18.345064163208008,-0.5578513741493225,-2.2882113456726074,0.20724813640117645,0
11,0.05028820037841797,-0.24825400114059448,-13.512414932250977,0.3705780804157257,18.297456741333008,0.5404563546180725,2.3010287284851074,-0.17978231608867645,0.0,0.0,0.0,0.0,0.0,0.0,0.0,-0.24564906029059966,0.4373360918104372,-0.03158580503581059,0.5683076734335633,0.1263744587932207,0.08668102286795276,-0.21315896788115796,0.07180133649549986,-0.33445669285456336,-0.12026478512420964,-2.8748842765741176,-0.06460709025646096,2.5182005507681104,0.7687453754287004,0.07165585495296277,-0.33419673383382315,-0.1203439052763738,-2.874768336042937,-0.06453255302590709,2.518161157661014,0.7687020283728597,-0.0001973877206319774,0.00129155957545611,1.725831047592975e-05,8.457671153914988e-05,0.0005646163888750397,-7.115361760080552e-06,-0.0012533323780078353,0.0,0.0,0.0,0.0,0.0,0.0,0.0,-0.00014548154253708756,0.00025995902074021915,-7.912015216415824e-05,0.00011594053118058056,7.453723055386718e-05,-3.939310709633048e-05,-4.3347055840636806e-05,0.0001973877206319774,-0.00129155957545611,-1.725831047592975e-05,-8.457671153914988e-05,-0.0005646163888750397,7.115361760080552e-06,0.0012533323780078353,0.24825400114059448,13.512414932250977,-0.3705780804157257,-18.297456741333008,-0.5404563546180725,-2.3010287284851074,0.17978231608867645,0
12,0.05499744415283203,-0.24825400114059448,-13.512414932250977,0.3705780804157257,18.297456741333008,0.5404563546180725,2.3010287284851074,-0.17978231608867645,0.0,0.0,0.0,0.0,0.0,0.0,0.0,-0.24564906029059966,0.4373360918104372,-0.03158580503581059,0.5683076734335633,0.1263744587932207,0.08668102286795276,-0.21315896788115796,0.07180133649549986,-0.33445669285456336,-0.12026478512420964,-2.8748842765741176,-0.06460709025646096,2.5182005507681104,0.7687453754287004,0.07165585495296277,-0.33419673383382315,-0.1203439052763738,-2.874768336042937,-0.06453255302590709,2.518161157661014,0.7687020283728597,-0.0001973877206319774,0.00129155957545611,1.725831047592975e-05,8.457671153914988e-05,0.0005646163888750397,-7.115361760080552e-06,-0.0012533323780078353,0.0,0.0,0.0,0.0,0.0,0.0,0.0,-0.00014548154253708756,0.00025995902074021915,-7.912015216415824e-05,0.00011594053118058056,7.453723055386718e-05,-3.939310709633048e-05,-4.3347055840636806e-05,0.0001973877206319774,-0.00129155957545611,-1.725831047592975e-05,-8.457671153914988e-05,-0.0005646163888750397,7.115361760080552e-06,0.0012533323780078353,0.24825400114059448,13.512414932250977,-0.3705780804157257,-18.297456741333008,-0.5404563546180725,-2.3010287284851074,0.17978231608867645,0
13,0.0599520206451416,-0.24825400114059448,-13.512414932250977,0.3705780804157257,18.297456741333008,0.5404563546180725,2.3010287284851074,-0.17978231608867645,0.0,0.0,0.0,0.0,0.0,0.0,0.0,-0.24564906029059966,0.4373360918104372,-0.03158580503581059,0.5683076734335633,0.1263744587932207,0.08668102286795276,-0.21315896788115796,0.07180133649549986,-0.33445669285456336,-0.12026478512420964,-2.8748842765741176,-0.06460709025646096,2.5182005507681104,0.7687453754287004,0.07165585495296277,-0.33419673383382315,-0.1203439052763738,-2.874768336042937,-0.06453255302590709,2.518161157661014,0.7687020283728597,-0.0001973877206319774,0.00129155957545611,1.725831047592975e-05,8.457671153914988e-05,0.0005646163888750397,-7.115361760080552e-06,-0.0012533323780078353,0.0,0.0,0.0,0.0,0.0,0.0,0.0,-0.00014548154253708756,0.00025995902074021915,-7.912015216415824e-05,0.00011594053118058056,7.453723055386718e-05,-3.939310709633048e-05,-4.3347055840636806e-05,0.0001973877206319774,-0.00129155957545611,-1.725831047592975e-05,-8.457671153914988e-05,-0.0005646163888750397,7.115361760080552e-06,0.0012533323780078353,0.24825400114059448,13.512414932250977,-0.3705780804157257,-18.297456741333008,-0.5404563546180725,-2.3010287284851074,0.17978231608867645,0
14,0.06502056121826172,-0.24825400114059448,-13.512414932250977,0.3705780804157257,18.297456741333008,0.5404563546180725,2.3010287284851074,-0.17978231608867645,0.0,0.0,0.0,0.0,0.0,0.0,0.0,-0.24564906029059966,0.4373360918104372,-0.03158580503581059,0.5683076734335633,0.1263744587932207,0.08668102286795276,-0.21315896788115796,0.07180133649549986,-0.33445669285456336,-0.12026478512420964,-2.8748842765741176,-0.06460709025646096,2.5182005507681104,0.7687453754287004,0.07165585495296277,-0.33419673383382315,-0.1203439052763738,-2.874768336042937,-0.06453255302590709,2.518161157661014,0.7687020283728597,-0.0001973877206319774,0.00129155957545611,1.725831047592975e-05,8.457671153914988e-05,0.0005646163888750397,-7.115361760080552e-06,-0.0012533323780078353,0.0,0.0,0.0,0.0,0.0,0.0,0.0,-0.00014548154253708756,0.00025995902074021915,-7.912015216415824e-05,0.00011594053118058056,7.453723055386718e-05,-3.939310709633048e-05,-4.3347055840636806e-05,0.0001973877206319774,-0.00129155957545611,-1.725831047592975e-05,-8.457671153914988e-05,-0.0005646163888750397,7.115361760080552e-06,0.0012533323780078353,0.24825400114059448,13.512414932250977,-0.3705780804157257,-18.297456741333008,-0.5404563546180725,-2.3010287284851074,0.17978231608867645,0
15,0.06999421119689941,-0.24825400114059448,-13.437036514282227,0.3705780804157257,18.269685745239258,0.5523582100868225,2.3074374198913574,-0.17978231608867645,0.0,0.0,0.0,0.0,0.0,0.0,0.0,-0.2448463334515775,0.43652428238369884,-0.030856144077625536,0.5645340583741211,0.12606401236214193,0.08642093130676841,-0.21306974900613496,0.07180133649549986,-0.334461982568105,-0.12026455096042718,-2.8748815859855963,-0.06460734663733138,2.5181998386912876,0.7687457281568935,0.07165585495296277,-0.33419673383382315,-0.1203439052763738,-2.874768336042937,-0.06453255302590709,2.518161157661014,0.7687020283728597,-5.471090905924145e-05,-0.0012883650394024456,0.000368177833199075,0.00018262132006280872,0.00020064318303524898,-0.00034735572842398816,-0.0015681430731889431,0.0,0.0,0.0,0.0,0.0,0.0,0.0,-0.00014548154253708756,0.00026524873428185325,-7.935431594661979e-05,0.00011324994265926591,7.479361142428975e-05,-3.868103027349079e-05,-4.369978403373498e-05,5.471090905924145e-05,0.0012883650394024456,-0.000368177833199075,-0.00018262132006280872,-0.00020064318303524898,0.00034735572842398816,0.0015681430731889431,0.24825400114059448,13.437036514282227,-0.3705780804157257,-18.269685745239258,-0.5523582100868225,-2.3074374198913574,0.17978231608867645,0
16,0.07499313354492188,-0.24825400114059448,-13.437036514282227,0.3705780804157257,18.269685745239258,0.5523582100868225,2.3074374198913574,-0.17978231608867645,0.0,0.0,0.0,0.0,0.0,0.0,0.0,-0.2448463334515775,0.43652428238369884,-0.030856144077625536,0.5645340583741211,0.12606401236214193,0.08642093130676841,-0.21306974900613496,0.07180133649549986,-0.334461982568105,-0.12026455096042718,-2.8748815859855963,-0.06460734663733138,2.5181998386912876,0.7687457281568935,0.07165585495296277,-0.33419673383382315,-0.1203439052763738,-2.874768336042937,-0.06453255302590709,2.518161157661014,0.7687020283728597,-5.471090905924145e-05,-0.0012883650394024456,0.000368177833199075,0.00018262132006280872,0.00020064318303524898,-0.00034735572842398816,-0.0015681430731889431,0.0,0.0,0.0,0.0,0.0,0.0,0.0,-0.00014548154253708756,0.00026524873428185325,-7.935431594661979e-05,0.00011324994265926591,7.479361142428975e-05,-3.868103027349079e-05,-4.369978403373498e-05,5.471090905924145e-05,0.0012883650394024456,-0.000368177833199075,-0.00018262132006280872,-0.00020064318303524898,0.00034735572842398816,0.0015681430731889431,0.24825400114059448,13.437036514282227,-0.3705780804157257,-18.269685745239258,-0.5523582100868225,-2.3074374198913574,0.17978231608867645,0
17,0.07999491691589355,-0.19667929410934448,-13.437036514282227,0.3983490765094757,18.297456741333008,0.5523582100868225,2.2946200370788574,-0.19351522624492645,0.0,0.0,0.0,0.0,0.0,0.0,0.0,-0.24592245085734168,0.43631055107167843,-0.030435173163601677,0.5633420130146464,0.12602662613767332,0.08605044943701382,-0.21411961646038083,0.07179771721781346,-0.334461982568105,-0.1202672451656044,-2.8748842765699307,-0.06460841269686034,2.5182012628449333,0.7687472545223076,0.07165585495296277,-0.33419673383382315,-0.1203439052763738,-2.874768336042937,-0.06453255302590709,2.518161157661014,0.7687020283728597,-0.0010447362542616815,-0.0012200791375761033,-0.00019557368530312888,-0.0003329260776642407,0.0002777307317469269,0.0001612660122546539,-0.0014177979532103333,0.0,0.0,0.0,0.0,0.0,0.0,0.0,-0.00014186226485068953,0.00026524873428185325,-7.666011076939983e-05,0.0001159405269937075,7.585967095324886e-05,-4.010518391917017e-05,-4.5226149447907815e-05,0.0010447362542616815,0.0012200791375761033,0.00019557368530312888,0.0003329260776642407,-0.0002777307317469269,-0.0001612660122546539,0.0014177979532103333,0.19667929410934448,13.437036514282227,-0.3983490765094757,-18.297456741333008,-0.5523582100868225,-2.2946200370788574,0.19351522624492645,0
18,0.0850515365600586,-0.19667929410934448,-13.437036514282227,0.3983490765094757,18.297456741333008,0.5523582100868225,2.2946200370788574,-0.19351522624492645,0.0,0.0,0.0,0.0,0.0,0.0,0.0,-0.24592245085734168,0.43631055107167843,-0.030435173163601677,0.5633420130146464,0.12602662613767332,0.08605044943701382,-0.21411961646038083,0.07179771721781346,-0.334461982568105,-0.1202672451656044,-2.8748842765699307,-0.06460841269686034,2.5182012628449333,0.7687472545223076,0.07165585495296277,-0.33419673383382315,-0.1203439052763738,-2.874768336042937,-0.06453255302590709,2.518161157661014,0.7687020283728597,-0.0010447362542616815,-0.0012200791375761033,-0.00019557368530312888,-0.0003329260776642407,0.0002777307317469269,0.0001612660122546539,-0.0014177979532103333,0.0,0.0,0.0,0.0,0.0,0.0,0.0,-0.00014186226485068953,0.00026524873428185325,-7.666011076939983e-05,0.0001159405269937075,7.585967095324886e-05,-4.010518391917017e-05,-4.5226149447907815e-05,0.0010447362542616815,0.0012200791375761033,0.00019557368530312888,0.0003329260776642407,-0.0002777307317469269,-0.0001612660122546539,0.0014177979532103333,0.19667929410934448,13.437036514282227,-0.3983490765094757,-18.297456741333008,-0.5523582100868225,-2.2946200370788574,0.19351522624492645,0
19,0.09002852439880371,-0.24825400114059448,-13.488611221313477,0.4459564983844757,18.297456741333008,0.5578513741493225,2.3010287284851074,-0.19351522624492645,0.0,0.0,0.0,0.0,0.0,0.0,0.0,-0.2449614129637374,0.43750173412137894,-0.03025885894246156,0.5639655298368516,0.12662548796621956,0.0858258166293645,-0.21488160034878062,0.07180133649549986,-0.3344583632904186,-0.12027010378282378,-2.8748842765741176,-0.064608904764976,2.5182005507681104,0.7687472545223104,0.07165585495296277,-0.33419673383382315,-0.1203439052763738,-2.874768336042937,-0.06453255302590709,2.518161157661014,0.7687020283728597,0.00034964980035264673,0.0006601718583588291,-0.0011350648617926042,-0.000318710003738256,-0.000139186253156671,-0.00013585837363135308,-0.0009917150171768793,0.0,0.0,0.0,0.0,0.0,0.0,0.0,-0.00014548154253708756,0.0002616294565954691,-7.380149355001864e-05,0.00011594053118058056,7.635173906890558e-05,-3.939310709633048e-05,-4.522614945068337e-05,-0.00034964980035264673,-0.0006601718583588291,0.0011350648617926042,0.000318710003738256,0.000139186253156671,0.00013585837363135308,0.0009917150171768793,0.24825400114059448,13.488611221313477,-0.4459564983844757,-18.297456741333008,-0.5578513741493225,-2.3010287284851074,0.19351522624492645,0
20,0.09499216079711914,-0.24825400114059448,-13.488611221313477,0.4459564983844757,18.297456741333008,0.5578513741493225,2.3010287284851074,-0.19351522624492645,0.0,0.0,0.0,0.0,0.0,0.0,0.0,-0.2449614129637374,0.43750173412137894,-0.03025885894246156,0.5639655298368516,0.12662548796621956,0.0858258166293645,-0.21488160034878062,0.07180133649549986,-0.3344583632904186,-0.12027010378282378,-2.8748842765741176,-0.064608904764976,2.5182005507681104,0.7687472545223104,0.07165585495296277,-0.33419673383382315,-0.1203439052763738,-2.874768336042937,-0.06453255302590709,2.518161157661014,0.7687020283728597,0.00034964980035264673,0.0006601718583588291,-0.0011350648617926042,-0.000318710003738256,-0.000139186253156671,-0.00013585837363135308,-0.0009917150171768793,0.0,0.0,0.0,0.0,0.0,0.0,0.0,-0.00014548154253708756,0.0002616294565954691,-7.380149355001864e-05,0.00011594053118058056,7.635173906890558e-05,-3.939310709633048e-05,-4.522614945068337e-05,-0.00034964980035264673,-0.0006601718583588291,0.0011350648617926042,0.000318710003738256,0.000139186253156671,0.00013585837363135308,0.0009917150171768793,0.24825400114059448,13.488611221313477,-0.4459564983844757,-18.297456741333008,-0.5578513741493225,-2.3010287284851074,0.19351522624492645,0
21,0.09999465942382812,-0.22445029020309448,-13.488611221313477,0.4221527874469757,18.321260452270508,0.5642600655555725,2.3010287284851074,-0.20724813640117645,0.0,0.0,0.0,0.0,0.0,0.0,0.0,-0.24250163744755193,0.43448307407727743,-0.028411745959664402,0.5683130588623235,0.12709828390306313,0.086124490655423,-0.2153518538371824,0.07179966605964459,-0.3344583632904186,-0.12026914363292975,-2.874885947009973,-0.06460973513059598,2.5182005507681104,0.7687487804012166,0.07165585495296277,-0.33419673383382315,-0.1203439052763738,-2.874768336042937,-0.06453255302590709,2.518161157661014,0.7687020283728597,-0.00024601025366951997,0.000360593837119873,-0.0008397154401005296,-4.4282439197477744e-05,-0.0001979120648056197,-0.00026301159213363483,-0.0006804176288485053,0.0,0.0,0.0,0.0,0.0,0.0,0.0,-0.00014381110668182373,0.0002616294565954691,-7.476164344405456e-05,0.00011761096703599705,7.718210468889153e-05,-3.939310709633048e-05,-4.675202835691117e-05,0.00024601025366951997,-0.000360593837119873,0.0008397154401005296,4.4282439197477744e-05,0.0001979120648056197,0.00026301159213363483,0.0006804176288485053,0.22445029020309448,13.488611221313477,-0.4221527874469757,-18.321260452270508,-0.5642600655555725,-2.3010287284851074,0.20724813640117645,0
22,0.10499453544616699,-0.22445029020309448,-13.488611221313477,0.4221527874469757,18.321260452270508,0.5642600655555725,2.3010287284851074,-0.20724813640117645,0.0,0.0,0.0,0.0,0.0,0.0,0.0,-0.24250163744755193,0.43448307407727743,-0.028411745959664402,0.5683130588623235,0.12709828390306313,0.086124490655423,-0.2153518538371824,0.07179966605964459,-0.3344583632904186,-0.12026914363292975,-2.874885947009973,-0.06460973513059598,2.5182005507681104,0.7687487804012166,0.07165585495296277,-0.33419673383382315,-0.1203439052763738,-2.874768336042937,-0.06453255302590709,2.518161157661014,0.7687020283728597,-0.00024601025366951997,0.000360593837119873,-0.0008397154401005296,-4.4282439197477744e-05,-0.0001979120648056197,-0.00026301159213363483,-0.0006804176288485053,0.0,0.0,0.0,0.0,0.0,0.0,0.0,-0.00014381110668182373,0.0002616294565954691,-7.476164344405456e-05,0.00011761096703599705,7.718210468889153e-05,-3.939310709633048e-05,-4.675202835691117e-05,0.00024601025366951997,-0.000360593837119873,0.0008397154401005296,4.4282439197477744e-05,0.0001979120648056197,0.00026301159213363483,0.0006804176288485053,0.22445029020309448,13.488611221313477,-0.4221527874469757,-18.321260452270508,-0.5642600655555725,-2.3010287284851074,0.20724813640117645,0
23,0.11003351211547852,-0.22445029020309448,-13.488611221313477,0.3705780804157257,18.321260452270508,0.5523582100868225,2.2946200370788574,-0.18710653483867645,0.0,0.0,0.0,0.0,0.0,0.0,0.0,-0.24300730443673138,0.43986152359194824,-0.029210666012005986,0.5631906542036544,0.12751859751826267,0.08454239178246543,-0.21423509428380935,0.07179966605964459,-0.3344583632904186,-0.12026455208327867,-2.874885947009973,-0.0646084127028783,2.5182012628449333,0.7687465424454875,0.07165585495296277,-0.33419673383382315,-0.1203439052763738,-2.874768336042937,-0.06453255302590709,2.518161157661014,0.7687020283728597,-0.0006366021010567312,0.0003542732228749683,-0.000212373347754088,-0.0006960609075255103,0.0002762715958613995,0.00012074581009573443,-0.0009598867492344897,0.0,0.0,0.0,0.0,0.0,0.0,0.0,-0.00014381110668182373,0.0002616294565954691,-7.935319309512745e-05,0.00011761096703599705,7.585967697121276e-05,-4.010518391917017e-05,-4.451407262773266e-05,0.0006366021010567312,-0.0003542732228749683,0.000212373347754088,0.0006960609075255103,-0.0002762715958613995,-0.00012074581009573443,0.0009598867492344897,0.22445029020309448,13.488611221313477,-0.3705780804157257,-18.321260452270508,-0.5523582100868225,-2.2946200370788574,0.18710653483867645,0
24,0.11500239372253418,-0.22445029020309448,-13.488611221313477,0.3705780804157257,18.321260452270508,0.5523582100868225,2.2946200370788574,-0.18710653483867645,0.0,0.0,0.0,0.0,0.0,0.0,0.0,-0.24300730443673138,0.43986152359194824,-0.029210666012005986,0.5631906542036544,0.12751859751826267,0.08454239178246543,-0.21423509428380935,0.07179966605964459,-0.3344583632904186,-0.12026455208327867,-2.874885947009973,-0.0646084127028783,2.5182012628449333,0.7687465424454875,0.07165585495296277,-0.33419673383382315,-0.1203439052763738,-2.874768336042937,-0.06453255302590709,2.518161157661014,0.7687020283728597,-0.0006366021010567312,0.0003542732228749683,-0.000212373347754088,-0.0006960609075255103,0.0002762715958613995,0.00012074581009573443,-0.0009598867492344897,0.0,0.0,0.0,0.0,0.0,0.0,0.0,-0.00014381110668182373,0.0002616294565954691,-7.935319309512745e-05,0.00011761096703599705,7.585967697121276e-05,-4.010518391917017e-05,-4.451407262773266e-05,0.0006366021010567312,-0.0003542732228749683,0.000212373347754088,0.0006960609075255103,-0.0002762715958613995,-0.00012074581009573443,0.0009598867492344897,0.22445029020309448,13.488611221313477,-0.3705780804157257,-18.321260452270508,-0.5523582100868225,-2.2946200370788574,0.18710653483867645,0
25,0.11995887756347656,-0.24825400114059448,-13.437036514282227,0.3983490765094757,18.297456741333008,0.5642600655555725,2.2946200370788574,-0.18710653483867645,0.0,0.0,0.0,0.0,0.0,0.0,0.0,-0.24153399507758033,0.43703499140414453,-0.026685636683129815,0.5662776035779669,0.1270575580318587,0.08559508555586645,-0.21375951707879978,0.07180133649549986,-0.334461982568105,-0.12026658002101816,-2.8748842765741176,-0.06460973513126372,2.5182012628449333,0.7687465424454875,0.07165585495296277,-0.33419673383382315,-0.1203439052763738,-2.874768336042937,-0.06453255302590709,2.518161157661014,0.7687020283728597,-5.1867761462549675e-05,-0.0009005904678680815,-2.2169526876570734e-05,5.09699202782328e-05,-0.00017976069135207872,2.0726655605131945e-05,-0.0009866789721868364,0.0,0.0,0.0,0.0,0.0,0.0,0.0,-0.00014548154253708756,0.00026524873428185325,-7.73252553556425e-05,0.00011594053118058056,7.718210535663517e-05,-4.010518391917017e-05,-4.451407262773266e-05,5.1867761462549675e-05,0.0009005904678680815,2.2169526876570734e-05,-5.09699202782328e-05,0.00017976069135207872,-2.0726655605131945e-05,0.0009866789721868364,0.24825400114059448,13.437036514282227,-0.3983490765094757,-18.297456741333008,-0.5642600655555725,-2.2946200370788574,0.18710653483867645,0
26,0.12497258186340332,-0.24825400114059448,-13.437036514282227,0.3983490765094757,18.297456741333008,0.5642600655555725,2.2946200370788574,-0.18710653483867645,0.0,0.0,0.0,0.0,0.0,0.0,0.0,-0.24153399507758033,0.43703499140414453,-0.026685636683129815,0.5662776035779669,0.1270575580318587,0.08559508555586645,-0.21375951707879978,0.07180133649549986,-0.334461982568105,-0.12026658002101816,-2.8748842765741176,-0.06460973513126372,2.5182012628449333,0.7687465424454875,0.07165585495296277,-0.33419673383382315,-0.1203439052763738,-2.874768336042937,-0.06453255302590709,2.518161157661014,0.7687020283728597,-5.1867761462549675e-05,-0.0009005904678680815,-2.2169526876570734e-05,5.09699202782328e-05,-0.00017976069135207872,2.0726655605131945e-05,-0.0009866789721868364,0.0,0.0,0.0,0.0,0.0,0.0,0.0,-0.00014548154253708756,0.00026524873428185325,-7.73252553556425e-05,0.00011594053118058056,7.718210535663517e-05,-4.010518391917017e-05,-4.451407262773266e-05,5.1867761462549675e-05,0.0009005904678680815,2.2169526876570734e-05,-5.09699202782328e-05,0.00017976069135207872,-2.0726655605131945e-05,0.0009866789721868364,0.24825400114059448,13.437036514282227,-0.3983490765094757,-18.297456741333008,-0.5642600655555725,-2.2946200370788574,0.18710653483867645,0
27,0.1300218105316162,-0.24825400114059448,-13.488611221313477,0.3983490765094757,18.269685745239258,0.5642600655555725,2.2882113456726074,-0.18710653483867645,0.0,0.0,0.0,0.0,0.0,0.0,0.0,-0.24696048335140774,0.4390528379636095,-0.028458230889090195,0.5655820693433358,0.1275223258937872,0.0854005931769272,-0.21383313818428337,0.07180133649549986,-0.3344583632904186,-0.1202667600565326,-2.8748823277322866,-0.06460973513126372,2.518201974921756,0.7687465424454875,0.07165585495296277,-0.33419673383382315,-0.1203439052763738,-2.874768336042937,-0.06453255302590709,2.518161157661014,0.7687020283728597,-7.724391498052035e-05,0.0005147228385999179,-0.0005168743313486438,0.000798456311426012,-0.000313598224604798,0.00012498682062397415,-0.0018040210628637381,0.0,0.0,0.0,0.0,0.0,0.0,0.0,-0.00014548154253708756,0.0002616294565954691,-7.714521984120148e-05,0.00011399168934955739,7.718210535663517e-05,-4.0817260742009864e-05,-4.451407262773266e-05,7.724391498052035e-05,-0.0005147228385999179,0.0005168743313486438,-0.000798456311426012,0.000313598224604798,-0.00012498682062397415,0.0018040210628637381,0.24825400114059448,13.488611221313477,-0.3983490765094757,-18.269685745239258,-0.5642600655555725,-2.2882113456726074,0.18710653483867645,0
28,0.1349964141845703,-0.24825400114059448,-13.488611221313477,0.3983490765094757,18.269685745239258,0.5642600655555725,2.2882113456726074,-0.18710653483867645,0.0,0.0,0.0,0.0,0.0,0.0,0.0,-0.24696048335140774,0.4390528379636095,-0.028458230889090195,0.5655820693433358,0.1275223258937872,0.0854005931769272,-0.21383313818428337,0.07180133649549986,-0.3344583632904186,-0.1202667600565326,-2.8748823277322866,-0.06460973513126372,2.518201974921756,0.7687465424454875,0.07165585495296277,-0.33419673383382315,-0.1203439052763738,-2.874768336042937,-0.06453255302590709,2.518161157661014,0.7687020283728597,-7.724391498052035e-05,0.0005147228385999179,-0.0005168743313486438,0.000798456311426012,-0.000313598224604798,0.00012498682062397415,-0.0018040210628637381,0.0,0.0,0.0,0.0,0.0,0.0,0.0,-0.00014548154253708756,0.0002616294565954691,-7.714521984120148e-05,0.00011399168934955739,7.718210535663517e-05,-4.0817260742009864e-05,-4.451407262773266e-05,7.724391498052035e-05,-0.0005147228385999179,0.0005168743313486438,-0.000798456311426012,0.000313598224604798,-0.00012498682062397415,0.0018040210628637381,0.24825400114059448,13.488611221313477,-0.3983490765094757,-18.269685745239258,-0.5642600655555725,-2.2882113456726074,0.18710653483867645,0
29,0.13999152183532715,-0.24825400114059448,-13.512414932250977,0.3705780804157257,18.222078323364258,0.5523582100868225,2.3010287284851074,-0.20724813640117645,0.0,0.0,0.0,0.0,0.0,0.0,0.0,-0.24880750739563975,0.4379697922523807,-0.028358620634921887,0.5632093042521904,0.12838909366746087,0.08518469987338975,-0.21480669945198838,0.07180133649549986,-0.33445669285456336,-0.12026455788916396,-2.874878986860576,-0.0646084127028783,2.5182005507681104,0.7687487789476664,0.07165585495296277,-0.33419673383382315,-0.1203439052763738,-2.874768336042937,-0.06453255302590709,2.518161157661014,0.7687020283728597,-0.000291996030560546,0.001064645287503809,0.00038296956251834596,0.001548281810026394,0.0003450404892815536,0.00017030430199620222,-0.00024143763382703315,0.0,0.0,0.0,0.0,0.0,0.0,0.0,-0.00014548154253708756,0.00025995902074021915,-7.934738720984102e-05,0.00011065081763916851,7.585967697121276e-05,-3.939310709633048e-05,-4.675057480663103e-05,0.000291996030560546,-0.001064645287503809,-0.00038296956251834596,-0.001548281810026394,-0.0003450404892815536,-0.00017030430199620222,0.00024143763382703315,0.24825400114059448,13.512414932250977,-0.3705780804157257,-18.222078323364258,-0.5523582100868225,-2.3010287284851074,0.20724813640117645,0
30,0.14583063125610352,-0.24825400114059448,-13.512414932250977,0.3705780804157257,18.222078323364258,0.5523582100868225,2.3010287284851074,-0.20724813640117645,0.0,0.0,0.0,0.0,0.0,0.0,0.0,-0.24880750739563975,0.4379697922523807,-0.028358620634921887,0.5632093042521904,0.12838909366746087,0.08518469987338975,-0.21480669945198838,0.07180133649549986,-0.33445669285456336,-0.12026455788916396,-2.874878986860576,-0.0646084127028783,2.5182005507681104,0.7687487789476664,0.07165585495296277,-0.33419673383382315,-0.1203439052763738,-2.874768336042937,-0.06453255302590709,2.518161157661014,0.7687020283728597,-0.000291996030560546,0.001064645287503809,0.00038296956251834596,0.001548281810026394,0.0003450404892815536,0.00017030430199620222,-0.00024143763382703315,0.0,0.0,0.0,0.0,0.0,0.0,0.0,-0.00014548154253708756,0.00025995902074021915,-7.934738720984102e-05,0.00011065081763916851,7.585967697121276e-05,-3.939310709633048e-05,-4.675057480663103e-05,0.000291996030560546,-0.001064645287503809,-0.00038296956251834596,-0.001548281810026394,-0.0003450404892815536,-0.00017030430199620222,0.00024143763382703315,0.24825400114059448,13.512414932250977,-0.3705780804157257,-18.222078323364258,-0.5523582100868225,-2.3010287284851074,0.20724813640117645,0
31,0.14999008178710938,-0.17287558317184448,-13.464807510375977,0.4221527874469757,18.297456741333008,0.5578513741493225,2.3010287284851074,-0.26217979192733765,0.0,0.0,0.0,0.0,0.0,0.0,0.0,-0.24534047288047375,0.4351880114522772,-0.023486156400069885,0.5623387719832417,0.12866789968116876,0.0863284642271367,-0.21570233415907689,0.0717960467819582,-0.33446003372627386,-0.12026912649044186,-2.8748842765741176,-0.0646090230544408,2.5182005507681104,0.7687548839184891,0.07165585495296277,-0.33419673383382315,-0.1203439052763738,-2.874768336042937,-0.06453255302590709,2.518161157661014,0.7687020283728597,-0.001310892329880706,-0.0006031277581940279,-0.000587085579212547,2.6776169501535213e-05,-4.0936234321715205e-05,-1.253416635108193e-05,0.0021827039755664907,0.0,0.0,0.0,0.0,0.0,0.0,0.0,-0.0001401918289954257,0.00026329989245071905,-7.47787859319421e-05,0.00011594053118058056,7.647002853371221e-05,-3.939310709633048e-05,-5.285554562939332e-05,0.001310892329880706,0.0006031277581940279,0.000587085579212547,-2.6776169501535213e-05,4.0936234321715205e-05,1.253416635108193e-05,-0.0021827039755664907,0.17287558317184448,13.464807510375977,-0.4221527874469757,-18.297456741333008,-0.5578513741493225,-2.3010287284851074,0.26217979192733765,0
32,0.15781164169311523,-0.17287558317184448,-13.464807510375977,0.4221527874469757,18.297456741333008,0.5578513741493225,2.3010287284851074,-0.26217979192733765,0.0,0.0,0.0,0.0,0.0,0.0,0.0,-0.24534047288047375,0.4351880114522772,-0.023486156400069885,0.5623387719832417,0.12866789968116876,0.0863284642271367,-0.21570233415907689,0.0717960467819582,-0.33446003372627386,-0.12026912649044186,-2.8748842765741176,-0.0646090230544408,2.5182005507681104,0.7687548839184891,0.07165585495296277,-0.33419673383382315,-0.1203439052763738,-2.874768336042937,-0.06453255302590709,2.518161157661014,0.7687020283728597,-0.001310892329880706,-0.0006031277581940279,-0.000587085579212547,2.6776169501535213e-05,-4.0936234321715205e-05,-1.253416635108193e-05,0.0021827039755664907,0.0,0.0,0.0,0.0,0.0,0.0,0.0,-0.0001401918289954257,0.00026329989245071905,-7.47787859319421e-05,0.00011594053118058056,7.647002853371221e-05,-3.939310709633048e-05,-5.285554562939332e-05,0.001310892329880706,0.0006031277581940279,0.000587085579212547,-2.6776169501535213e-05,4.0936234321715205e-05,1.253416635108193e-05,-0.0021827039755664907,0.17287558317184448,13.464807510375977,-0.4221527874469757,-18.297456741333008,-0.5578513741493225,-2.3010287284851074,0.26217979192733765,0
33,0.15999507904052734,-0.2720577120780945,-13.488611221313477,0.4221527874469757,18.269685745239258,0.5523582100868225,2.3010287284851074,-0.17978231608867645,0.0,0.0,0.0,0.0,0.0,0.0,0.0,-0.2502965801170244,0.4357081248715326,-0.029413009220578327,0.5593954564940384,0.12898151071361852,0.08607110700181286,-0.21584452018334593,0.07180300693135512,-0.3344583632904186,-0.12027031086239866,-2.8748823277322866,-0.06460829441341352,2.5182005507681104,0.7687456109058342,0.07165585495296277,-0.33419673383382315,-0.1203439052763738,-2.874768336042937,-0.06453255302590709,2.518161157661014,0.7687020283728597,-5.2497598122077754e-05,0.00038057938327341613,-0.0009187852132357747,0.0005627596383793033,0.00012362269963667852,-0.00012276176837580104,-0.0013142010552812137,0.0,0.0,0.0,0.0,0.0,0.0,0.0,-0.0001471519783923514,0.0002616294565954691,-7.35944139751421e-05,0.00011399168934955739,7.574138750643389e-05,-3.939310709633048e-05,-4.358253297442882e-05,5.2497598122077754e-05,-0.00038057938327341613,0.0009187852132357747,-0.0005627596383793033,-0.00012362269963667852,0.00012276176837580104,0.0013142010552812137,0.2720577120780945,13.488611221313477,-0.4221527874469757,-18.269685745239258,-0.5523582100868225,-2.3010287284851074,0.17978231608867645,0
34,0.16499924659729004,-0.2720577120780945,-13.488611221313477,0.4221527874469757,18.269685745239258,0.5523582100868225,2.3010287284851074,-0.17978231608867645,0.0,0.0,0.0,0.0,0.0,0.0,0.0,-0.2502965801170244,0.4357081248715326,-0.029413009220578327,0.5593954564940384,0.12898151071361852,0.08607110700181286,-0.21584452018334593,0.07180300693135512,-0.3344583632904186,-0.12027031086239866,-2.8748823277322866,-0.06460829441341352,2.5182005507681104,0.7687456109058342,0.07165585495296277,-0.33419673383382315,-0.1203439052763738,-2.874768336042937,-0.06453255302590709,2.518161157661014,0.7687020283728597,-5.2497598122077754e-05,0.00038057938327341613,-0.0009187852132357747,0.0005627596383793033,0.00012362269963667852,-0.00012276176837580104,-0.0013142010552812137,0.0,0.0,0.0,0.0,0.0,0.0,0.0,-0.0001471519783923514,0.0002616294565954691,-7.35944139751421e-05,0.00011399168934955739,7.574138750643389e-05,-3.939310709633048e-05,-4.358253297442882e-05,5.2497598122077754e-05,-0.00038057938327341613,0.0009187852132357747,-0.0005627596383793033,-0.00012362269963667852,0.00012276176837580104,0.0013142010552812137,0.2720577120780945,13.488611221313477,-0.4221527874469757,-18.269685745239258,-0.5523582100868225,-2.3010287284851074,0.17978231608867645,0
35,0.17000436782836914,-0.24825400114059448,-13.464807510375977,0.3705780804157257,18.297456741333008,0.5523582100868225,2.2882113456726074,-0.17978231608867645,0.0,0.0,0.0,0.0,0.0,0.0,0.0,-0.24871802478708652,0.4328423132825992,-0.024635037964193675,0.5614461117961265,0.12822135548164465,0.08630267927500962,-0.21516208675575904,0.07180133649549986,-0.33446003372627386,-0.12026456075456647,-2.8748842765741176,-0.06460841108002932,2.518201974921756,0.7687457286431826,0.07165585495296277,-0.33419673383382315,-0.1203439052763738,-2.874768336042937,-0.06453255302590709,2.518161157661014,0.7687020283728597,-0.0002521372301352289,-0.0003848300491129807,0.0002436815335354738,0.0002100202553804785,2.2291638411341682e-05,0.00048807780719487486,-0.0005653211690577964,0.0,0.0,0.0,0.0,0.0,0.0,0.0,-0.00014548154253708756,0.00026329989245071905,-7.934452180732854e-05,0.00011594053118058056,7.585805412223257e-05,-4.0817260742009864e-05,-4.370027032285506e-05,0.0002521372301352289,0.0003848300491129807,-0.0002436815335354738,-0.0002100202553804785,-2.2291638411341682e-05,-0.00048807780719487486,0.0005653211690577964,0.24825400114059448,13.464807510375977,-0.3705780804157257,-18.297456741333008,-0.5523582100868225,-2.2882113456726074,0.17978231608867645,0
36,0.1750013828277588,-0.24825400114059448,-13.464807510375977,0.3705780804157257,18.297456741333008,0.5523582100868225,2.2882113456726074,-0.17978231608867645,0.0,0.0,0.0,0.0,0.0,0.0,0.0,-0.24871802478708652,0.4328423132825992,-0.024635037964193675,0.5614461117961265,0.12822135548164465,0.08630267927500962,-0.21516208675575904,0.07180133649549986,-0.33446003372627386,-0.12026456075456647,-2.8748842765741176,-0.06460841108002932,2.518201974921756,0.7687457286431826,0.07165585495296277,-0.33419673383382315,-0.1203439052763738,-2.874768336042937,-0.06453255302590709,2.518161157661014,0.7687020283728597,-0.0002521372301352289,-0.0003848300491129807,0.0002436815335354738,0.0002100202553804785,2.2291638411341682e-05,0.00048807780719487486,-0.0005653211690577964,0.0,0.0,0.0,0.0,0.0,0.0,0.0,-0.00014548154253708756,0.00026329989245071905,-7.934452180732854e-05,0.00011594053118058056,7.585805412223257e-05,-4.0817260742009864e-05,-4.370027032285506e-05,0.0002521372301352289,0.0003848300491129807,-0.0002436815335354738,-0.0002100202553804785,-2.2291638411341682e-05,-0.00048807780719487486,0.0005653211690577964,0.24825400114059448,13.464807510375977,-0.3705780804157257,-18.297456741333008,-0.5523582100868225,-2.2882113456726074,0.17978231608867645,0
37,0.1799943447113037,-0.22445029020309448,-13.464807510375977,0.3983490765094757,18.321260452270508,0.5697532296180725,2.3074374198913574,-0.17978231608867645,0.0,0.0,0.0,0.0,0.0,0.0,0.0,-0.2490524120577918,0.4285047506983969,-0.0247750886548323,0.5670193030545809,0.12745709408838515,0.08682330093017533,-0.21351365614483037,0.07179966508531169,-0.33446003372627386,-0.1202686281772242,-2.874885947009973,-0.06461034548279875,2.5181998386912876,0.7687457286434041,0.07165585495296277,-0.33419673383382315,-0.1203439052763738,-2.874768336042937,-0.06453255302590709,2.518161157661014,0.7687020283728597,-0.0007883166005302562,-0.0006098794172986503,-2.4383775699545663e-05,-3.1323104127007274e-05,-0.000418334095130494,-0.0004733928434950061,-0.0018671798779856268,0.0,0.0,0.0,0.0,0.0,0.0,0.0,-0.0001438101323489177,0.00026329989245071905,-7.527709914960379e-05,0.00011761096703599705,7.779245689165659e-05,-3.868103027349079e-05,-4.3700270544344555e-05,0.0007883166005302562,0.0006098794172986503,2.4383775699545663e-05,3.1323104127007274e-05,0.000418334095130494,0.0004733928434950061,0.0018671798779856268,0.22445029020309448,13.464807510375977,-0.3983490765094757,-18.321260452270508,-0.5697532296180725,-2.3074374198913574,0.17978231608867645,0
38,0.1849982738494873,-0.22445029020309448,-13.464807510375977,0.3983490765094757,18.321260452270508,0.5697532296180725,2.3074374198913574,-0.17978231608867645,0.0,0.0,0.0,0.0,0.0,0.0,0.0,-0.2490524120577918,0.4285047506983969,-0.0247750886548323,0.5670193030545809,0.12745709408838515,0.08682330093017533,-0.21351365614483037,0.07179966508531169,-0.33446003372627386,-0.1202686281772242,-2.874885947009973,-0.06461034548279875,2.5181998386912876,0.7687457286434041,0.07165585495296277,-0.33419673383382315,-0.1203439052763738,-2.874768336042937,-0.06453255302590709,2.518161157661014,0.7687020283728597,-0.0007883166005302562,-0.0006098794172986503,-2.4383775699545663e-05,-3.1323104127007274e-05,-0.000418334095130494,-0.0004733928434950061,-0.0018671798779856268,0.0,0.0,0.0,0.0,0.0,0.0,0.0,-0.0001438101323489177,0.00026329989245071905,-7.527709914960379e-05,0.00011761096703599705,7.779245689165659e-05,-3.868103027349079e-05,-4.3700270544344555e-05,0.0007883166005302562,0.0006098794172986503,2.4383775699545663e-05,3.1323104127007274e-05,0.000418334095130494,0.0004733928434950061,0.0018671798779856268,0.22445029020309448,13.464807510375977,-0.3983490765094757,-18.321260452270508,-0.5697532296180725,-2.3074374198913574,0.17978231608867645,0
39,0.18999242782592773,-0.22445029020309448,-13.464807510375977,0.3983490765094757,18.321260452270508,0.5697532296180725,2.3074374198913574,-0.17978231608867645,0.0,0.0,0.0,0.0,0.0,0.0,0.0,-0.2490524120577918,0.4285047506983969,-0.0247750886548323,0.5670193030545809,0.12745709408838515,0.08682330093017533,-0.21351365614483037,0.07179966508531169,-0.33446003372627386,-0.1202686281772242,-2.874885947009973,-0.06461034548279875,2.5181998386912876,0.7687457286434041,0.07165585495296277,-0.33419673383382315,-0.1203439052763738,-2.874768336042937,-0.06453255302590709,2.518161157661014,0.7687020283728597,-0.0007883166005302562,-0.0006098794172986503,-2.4383775699545663e-05,-3.1323104127007274e-05,-0.000418334095130494,-0.0004733928434950061,-0.0018671798779856268,0.0,0.0,0.0,0.0,0.0,0.0,0.0,-0.0001438101323489177,0.00026329989245071905,-7.527709914960379e-05,0.00011761096703599705,7.779245689165659e-05,-3.868103027349079e-05,-4.3700270544344555e-05,0.0007883166005302562,0.0006098794172986503,2.4383775699545663e-05,3.1323104127007274e-05,0.000418334095130494,0.0004733928434950061,0.0018671798779856268,0.22445029020309448,13.464807510375977,-0.3983490765094757,-18.321260452270508,-0.5697532296180725,-2.3074374198913574,0.17978231608867645,0
40,0.194990873336792,-0.22445029020309448,-13.464807510375977,0.3983490765094757,18.321260452270508,0.5697532296180725,2.3074374198913574,-0.17978231608867645,0.0,0.0,0.0,0.0,0.0,0.0,0.0,-0.2490524120577918,0.4285047506983969,-0.0247750886548323,0.5670193030545809,0.12745709408838515,0.08682330093017533,-0.21351365614483037,0.07179966508531169,-0.33446003372627386,-0.1202686281772242,-2.874885947009973,-0.06461034548279875,2.5181998386912876,0.7687457286434041,0.07165585495296277,-0.33419673383382315,-0.1203439052763738,-2.874768336042937,-0.06453255302590709,2.518161157661014,0.7687020283728597,-0.0007883166005302562,-0.0006098794172986503,-2.4383775699545663e-05,-3.1323104127007274e-05,-0.000418334095130494,-0.0004733928434950061,-0.0018671798779856268,0.0,0.0,0.0,0.0,0.0,0.0,0.0,-0.0001438101323489177,0.00026329989245071905,-7.527709914960379e-05,0.00011761096703599705,7.779245689165659e-05,-3.868103027349079e-05,-4.3700270544344555e-05,0.0007883166005302562,0.0006098794172986503,2.4383775699545663e-05,3.1323104127007274e-05,0.000418334095130494,0.0004733928434950061,0.0018671798779856268,0.22445029020309448,13.464807510375977,-0.3983490765094757,-18.321260452270508,-0.5697532296180725,-2.3074374198913574,0.17978231608867645,0
41,0.19999480247497559,-0.24825400114059448,-13.464807510375977,0.3467743694782257,18.297456741333008,0.5578513741493225,2.3074374198913574,-0.22830526530742645,0.0,0.0,0.0,0.0,0.0,0.0,0.0,-0.25222386855635265,0.4326430189219188,-0.02666582121400061,0.5656204593650395,0.1276494266351009,0.08543245744086031,-0.214045014031388,0.07180133649549802,-0.33446003372627386,-0.12026287771250448,-2.8748842765741176,-0.06460901867334952,2.5181998386912876,0.7687511200822061,0.07165585495296277,-0.33419673383382315,-0.1203439052763738,-2.874768336042937,-0.06453255302590709,2.518161157661014,0.7687020283728597,-0.0005271320846086931,-0.0003090836676982562,0.0009627400602220798,0.00035482611632069763,0.00015455488878937892,-0.00024504197709619013,-0.00014284780567229788,0.0,0.0,0.0,0.0,0.0,0.0,0.0,-0.0001454815425352557,0.00026329989245071905,-8.102756386932364e-05,0.00011594053118058056,7.646564744243078e-05,-3.868103027349079e-05,-4.9091709346416046e-05,0.0005271320846086931,0.0003090836676982562,-0.0009627400602220798,-0.00035482611632069763,-0.00015455488878937892,0.00024504197709619013,0.00014284780567229788,0.24825400114059448,13.464807510375977,-0.3467743694782257,-18.297456741333008,-0.5578513741493225,-2.3074374198913574,0.22830526530742645,0
42,0.20499372482299805,-0.24825400114059448,-13.464807510375977,0.3467743694782257,18.297456741333008,0.5578513741493225,2.3074374198913574,-0.22830526530742645,0.0,0.0,0.0,0.0,0.0,0.0,0.0,-0.25222386855635265,0.4326430189219188,-0.02666582121400061,0.5656204593650395,0.1276494266351009,0.08543245744086031,-0.214045014031388,0.07180133649549802,-0.33446003372627386,-0.12026287771250448,-2.8748842765741176,-0.06460901867334952,2.5181998386912876,0.7687511200822061,0.07165585495296277,-0.33419673383382315,-0.1203439052763738,-2.874768336042937,-0.06453255302590709,2.518161157661014,0.7687020283728597,-0.0005271320846086931,-0.0003090836676982562,0.0009627400602220798,0.00035482611632069763,0.00015455488878937892,-0.00024504197709619013,-0.00014284780567229788,0.0,0.0,0.0,0.0,0.0,0.0,0.0,-0.0001454815425352557,0.00026329989245071905,-8.102756386932364e-05,0.00011594053118058056,7.646564744243078e-05,-3.868103027349079e-05,-4.9091709346416046e-05,0.0005271320846086931,0.0003090836676982562,-0.0009627400602220798,-0.00035482611632069763,-0.00015455488878937892,0.00024504197709619013,0.00014284780567229788,0.24825400114059448,13.464807510375977,-0.3467743694782257,-18.297456741333008,-0.5578513741493225,-2.3074374198913574,0.22830526530742645,0
43,0.2099933624267578,-0.22445029020309448,-13.464807510375977,0.3983490765094757,18.269685745239258,0.5578513741493225,2.3010287284851074,-0.18710653483867645,0.0,0.0,0.0,0.0,0.0,0.0,0.0,-0.24791961999019724,0.4384041235273237,-0.021263539227252555,0.5652967080722547,0.12757214851363627,0.08573490951564096,-0.21624145434203054,0.07179966605964459,-0.33446003372627386,-0.1202694471940273,-2.8748823277322866,-0.06460900991114221,2.5182005507681104,0.7687465424454875,0.07165585495296277,-0.33419673383382315,-0.1203439052763738,-2.874768336042937,-0.06453255302590709,2.518161157661014,0.7687020283728597,-0.0003765477796358223,0.0005808628162146782,0.0002844395020648511,0.0008790346611728833,6.55531832173646e-06,-9.487590001658981e-05,-0.0014100279001620173,0.0,0.0,0.0,0.0,0.0,0.0,0.0,-0.00014381110668182373,0.00026329989245071905,-7.445808234650408e-05,0.00011399168934955739,7.645688523512384e-05,-3.939310709633048e-05,-4.451407262773266e-05,0.0003765477796358223,-0.0005808628162146782,-0.0002844395020648511,-0.0008790346611728833,-6.55531832173646e-06,9.487590001658981e-05,0.0014100279001620173,0.22445029020309448,13.464807510375977,-0.3983490765094757,-18.269685745239258,-0.5578513741493225,-2.3010287284851074,0.18710653483867645,0
44,0.21573686599731445,-0.22445029020309448,-13.464807510375977,0.3983490765094757,18.269685745239258,0.5578513741493225,2.3010287284851074,-0.18710653483867645,0.0,0.0,0.0,0.0,0.0,0.0,0.0,-0.24791961999019724,0.4384041235273237,-0.021263539227252555,0.5652967080722547,0.12757214851363627,0.08573490951564096,-0.21624145434203054,0.07179966605964459,-0.33446003372627386,-0.1202694471940273,-2.8748823277322866,-0.06460900991114221,2.5182005507681104,0.7687465424454875,0.07165585495296277,-0.33419673383382315,-0.1203439052763738,-2.874768336042937,-0.06453255302590709,2.518161157661014,0.7687020283728597,-0.0003765477796358223,0.0005808628162146782,0.0002844395020648511,0.0008790346611728833,6.55531832173646e-06,-9.487590001658981e-05,-0.0014100279001620173,0.0,0.0,0.0,0.0,0.0,0.0,0.0,-0.00014381110668182373,0.00026329989245071905,-7.445808234650408e-05,0.00011399168934955739,7.645688523512384e-05,-3.939310709633048e-05,-4.451407262773266e-05,0.0003765477796358223,-0.0005808628162146782,-0.0002844395020648511,-0.0008790346611728833,-6.55531832173646e-06,9.487590001658981e-05,0.0014100279001620173,0.22445029020309448,13.464807510375977,-0.3983490765094757,-18.269685745239258,-0.5578513741493225,-2.3010287284851074,0.18710653483867645,0
45,0.21999239921569824,-0.2720577120780945,-13.488611221313477,0.3705780804157257,18.297456741333008,0.5578513741493225,2.2946200370788574,-0.18710653483867645,0.0,0.0,0.0,0.0,0.0,0.0,0.0,-0.25159825955680964,0.434603039774813,-0.024189007363401356,0.5683330887493502,0.1282340571518504,0.08662072703847326,-0.21754372657152804,0.07180300693135512,-0.3344583632904186,-0.12026558679987458,-2.8748842765741176,-0.06460902305436661,2.5182012628449333,0.7687465424454875,0.07165585495296277,-0.33419673383382315,-0.1203439052763738,-2.874768336042937,-0.06453255302590709,2.518161157661014,0.7687020283728597,0.00031861255448903457,0.0004020286868188652,0.0004249230532863323,6.220797012216523e-05,6.155758789984447e-05,6.516780178353158e-05,-0.0007597932566153613,0.0,0.0,0.0,0.0,0.0,0.0,0.0,-0.0001471519783923514,0.0002616294565954691,-7.831847649922286e-05,0.00011594053118058056,7.647002845952156e-05,-4.010518391917017e-05,-4.451407262773266e-05,-0.00031861255448903457,-0.0004020286868188652,-0.0004249230532863323,-6.220797012216523e-05,-6.155758789984447e-05,-6.516780178353158e-05,0.0007597932566153613,0.2720577120780945,13.488611221313477,-0.3705780804157257,-18.297456741333008,-0.5578513741493225,-2.2946200370788574,0.18710653483867645,0
46,0.22499632835388184,-0.2720577120780945,-13.488611221313477,0.3705780804157257,18.297456741333008,0.5578513741493225,2.2946200370788574,-0.18710653483867645,0.0,0.0,0.0,0.0,0.0,0.0,0.0,-0.25159825955680964,0.434603039774813,-0.024189007363401356,0.5683330887493502,0.1282340571518504,0.08662072703847326,-0.21754372657152804,0.07180300693135512,-0.3344583632904186,-0.12026558679987458,-2.8748842765741176,-0.06460902305436661,2.5182012628449333,0.7687465424454875,0.07165585495296277,-0.33419673383382315,-0.1203439052763738,-2.874768336042937,-0.06453255302590709,2.518161157661014,0.7687020283728597,0.00031861255448903457,0.0004020286868188652,0.0004249230532863323,6.220797012216523e-05,6.155758789984447e-05,6.516780178353158e-05,-0.0007597932566153613,0.0,0.0,0.0,0.0,0.0,0.0,0.0,-0.0001471519783923514,0.0002616294565954691,-7.831847649922286e-05,0.00011594053118058056,7.647002845952156e-05,-4.010518391917017e-05,-4.451407262773266e-05,-0.00031861255448903457,-0.0004020286868188652,-0.0004249230532863323,-6.220797012216523e-05,-6.155758789984447e-05,-6.516780178353158e-05,0.0007597932566153613,0.2720577120780945,13.488611221313477,-0.3705780804157257,-18.297456741333008,-0.5578513741493225,-2.2946200370788574,0.18710653483867645,0
47,0.2299976348876953,-0.2998287081718445,-13.464807510375977,0.3983490765094757,18.297456741333008,0.5578513741493225,2.2946200370788574,-0.17978231608867645,0.0,0.0,0.0,0.0,0.0,0.0,0.0,-0.25309364722571975,0.43274496178255584,-0.024491506431661942,0.5684481057220763,0.12809734895227343,0.08763583440128213,-0.2176203691447812,0.07180495577318627,-0.33446003372627386,-0.12026862872416871,-2.8748842765741176,-0.0646090230544408,2.5182012628449333,0.7687456893975474,0.07165585495296277,-0.33419673383382315,-0.1203439052763738,-2.874768336042937,-0.06453255302590709,2.518161157661014,0.7687020283728597,0.0009772628045748512,-0.0005669403662044884,-0.000579108689758594,-0.00016426527467485063,2.147273682650837e-06,-0.006816466581452169,-0.0012913996040483625,0.0,0.0,0.0,0.0,0.0,0.0,0.0,-0.00014910082022349946,0.00026329989245071905,-7.527655220508633e-05,0.00011594053118058056,7.647002853371221e-05,-4.010518391917017e-05,-4.366102468766897e-05,-0.0009772628045748512,0.0005669403662044884,0.000579108689758594,0.00016426527467485063,-2.147273682650837e-06,0.006816466581452169,0.0012913996040483625,0.2998287081718445,13.464807510375977,-0.3983490765094757,-18.297456741333008,-0.5578513741493225,-2.2946200370788574,0.17978231608867645,0
48,0.2349991798400879,-0.2998287081718445,-13.464807510375977,0.3983490765094757,18.297456741333008,0.5578513741493225,2.2946200370788574,-0.17978231608867645,0.0,0.0,0.0,0.0,0.0,0.0,0.0,-0.25309364722571975,0.43274496178255584,-0.024491506431661942,0.5684481057220763,0.12809734895227343,0.08763583440128213,-0.2176203691447812,0.07180495577318627,-0.33446003372627386,-0.12026862872416871,-2.8748842765741176,-0.0646090230544408,2.5182012628449333,0.7687456893975474,0.07165585495296277,-0.33419673383382315,-0.1203439052763738,-2.874768336042937,-0.06453255302590709,2.518161157661014,0.7687020283728597,0.0009772628045748512,-0.0005669403662044884,-0.000579108689758594,-0.00016426527467485063,2.147273682650837e-06,-0.006816466581452169,-0.0012913996040483625,0.0,0.0,0.0,0.0,0.0,0.0,0.0,-0.00014910082022349946,0.00026329989245071905,-7.527655220508633e-05,0.00011594053118058056,7.647002853371221e-05,-4.010518391917017e-05,-4.366102468766897e-05,-0.0009772628045748512,0.0005669403662044884,0.000579108689758594,0.00016426527467485063,-2.147273682650837e-06,0.006816466581452169,0.0012913996040483625,0.2998287081718445,13.464807510375977,-0.3983490765094757,-18.297456741333008,-0.5578513741493225,-2.2946200370788574,0.17978231608867645,0
49,0.23999881744384766,-0.2720577120780945,-13.464807510375977,0.3705780804157257,18.321260452270508,0.5578513741493225,2.2882113456726074,-0.18710653483867645,0.0,0.0,0.0,0.0,0.0,0.0,0.0,-0.25171152610635106,0.4282781516592541,-0.02567034911646502,0.5736083699253692,0.12764304758113998,0.08914383141549569,-0.2183962797787501,0.07180300693135512,-0.33446003372627386,-0.1202670306483518,-2.874885947009973,-0.06460890460271339,2.518201974921756,0.768746542445266,0.07165585495296277,-0.33419673383382315,-0.1203439052763738,-2.874768336042937,-0.06453255302590709,2.518161157661014,0.7687020283728597,0.0006057753089754629,-0.000642386905533406,0.00041033316685218157,-0.0001608831298428476,-0.00030143675885121784,0.0001771332911634188,-0.0012996168193503757,0.0,0.0,0.0,0.0,0.0,0.0,0.0,-0.0001471519783923514,0.00026329989245071905,-7.687462802200007e-05,0.00011761096703599705,7.635157680629945e-05,-4.0817260742009864e-05,-4.4514072406243166e-05,-0.0006057753089754629,0.000642386905533406,-0.00041033316685218157,0.0001608831298428476,0.00030143675885121784,-0.0001771332911634188,0.0012996168193503757,0.2720577120780945,13.464807510375977,-0.3705780804157257,-18.321260452270508,-0.5578513741493225,-2.2882113456726074,0.18710653483867645,0
50,0.2452392578125,-0.2720577120780945,-13.464807510375977,0.3705780804157257,18.321260452270508,0.5578513741493225,2.2882113456726074,-0.18710653483867645,0.0,0.0,0.0,0.0,0.0,0.0,0.0,-0.25171152610635106,0.4282781516592541,-0.02567034911646502,0.5736083699253692,0.12764304758113998,0.08914383141549569,-0.2183962797787501,0.07180300693135512,-0.33446003372627386,-0.1202670306483518,-2.874885947009973,-0.06460890460271339,2.518201974921756,0.768746542445266,0.07165585495296277,-0.33419673383382315,-0.1203439052763738,-2.874768336042937,-0.06453255302590709,2.518161157661014,0.7687020283728597,0.0006057753089754629,-0.000642386905533406,0.00041033316685218157,-0.0001608831298428476,-0.00030143675885121784,0.0001771332911634188,-0.0012996168193503757,0.0,0.0,0.0,0.0,0.0,0.0,0.0,-0.0001471519783923514,0.00026329989245071905,-7.687462802200007e-05,0.00011761096703599705,7.635157680629945e-05,-4.0817260742009864e-05,-4.4514072406243166e-05,-0.0006057753089754629,0.000642386905533406,-0.00041033316685218157,0.0001608831298428476,0.00030143675885121784,-0.0001771332911634188,0.0012996168193503757,0.2720577120780945,13.464807510375977,-0.3705780804157257,-18.321260452270508,-0.5578513741493225,-2.2882113456726074,0.18710653483867645,0
51,0.2500021457672119,-0.24825400114059448,-13.464807510375977,0.4221527874469757,18.297456741333008,0.5523582100868225,2.2946200370788574,-0.24112264811992645,0.0,0.0,0.0,0.0,0.0,0.0,0.0,-0.24782197413658516,0.43610004671778435,-0.025865250042697883,0.5630852852015289,0.12709481998323358,0.08638382002451112,-0.21813514019982502,0.07180133649549986,-0.33446003372627386,-0.12026849473167392,-2.8748842765741176,-0.06460805783247796,2.5182012628449333,0.7687521910231423,0.07165585495296277,-0.33419673383382315,-0.1203439052763738,-2.874768336042937,-0.06453255302590709,2.518161157661014,0.7687020283728597,0.0001098842499607164,-0.00022540069025774132,-0.0005429350811509121,0.00017299774898213666,0.0003208020075413869,0.0001528890826366147,0.000668177673867886,0.0,0.0,0.0,0.0,0.0,0.0,0.0,-0.00014548154253708756,0.00026329989245071905,-7.54105446998804e-05,0.00011594053118058056,7.550480657086966e-05,-4.010518391917017e-05,-5.0162650282570276e-05,-0.0001098842499607164,0.00022540069025774132,0.0005429350811509121,-0.00017299774898213666,-0.0003208020075413869,-0.0001528890826366147,-0.000668177673867886,0.24825400114059448,13.464807510375977,-0.4221527874469757,-18.297456741333008,-0.5523582100868225,-2.2946200370788574,0.24112264811992645,0
52,0.2549920082092285,-0.24825400114059448,-13.464807510375977,0.4221527874469757,18.297456741333008,0.5523582100868225,2.2946200370788574,-0.24112264811992645,0.0,0.0,0.0,0.0,0.0,0.0,0.0,-0.24782197413658516,0.43610004671778435,-0.025865250042697883,0.5630852852015289,0.12709481998323358,0.08638382002451112,-0.21813514019982502,0.07180133649549986,-0.33446003372627386,-0.12026849473167392,-2.8748842765741176,-0.06460805783247796,2.5182012628449333,0.7687521910231423,0.07165585495296277,-0.33419673383382315,-0.1203439052763738,-2.874768336042937,-0.06453255302590709,2.518161157661014,0.7687020283728597,0.0001098842499607164,-0.00022540069025774132,-0.0005429350811509121,0.00017299774898213666,0.0003208020075413869,0.0001528890826366147,0.000668177673867886,0.0,0.0,0.0,0.0,0.0,0.0,0.0,-0.00014548154253708756,0.00026329989245071905,-7.54105446998804e-05,0.00011594053118058056,7.550480657086966e-05,-4.010518391917017e-05,-5.0162650282570276e-05,-0.0001098842499607164,0.00022540069025774132,0.0005429350811509121,-0.00017299774898213666,-0.0003208020075413869,-0.0001528890826366147,-0.000668177673867886,0.24825400114059448,13.464807510375977,-0.4221527874469757,-18.297456741333008,-0.5523582100868225,-2.2946200370788574,0.24112264811992645,0
53,0.25994133949279785,-0.24825400114059448,-13.437036514282227,0.3705780804157257,18.345064163208008,0.5578513741493225,2.2946200370788574,-0.22098104655742645,0.0,0.0,0.0,0.0,0.0,0.0,0.0,-0.24702317880785407,0.43100670895226023,-0.0253617200566549,0.5660512745038667,0.12745816643241886,0.08688760908094587,-0.21715474318049083,0.07180133649549986,-0.334461982568105,-0.12026534735054764,-2.874887617445828,-0.06460902305377306,2.5182012628449333,0.7687492466413289,0.07165585495296277,-0.33419673383382315,-0.1203439052763738,-2.874768336042937,-0.06453255302590709,2.518161157661014,0.7687020283728597,0.0005539577264843497,-0.0012659418024429153,0.0007035632044040969,-0.0009294023078503306,6.5106025252841395e-06,0.0001046465739307817,-0.0001261027194280183,0.0,0.0,0.0,0.0,0.0,0.0,0.0,-0.00014548154253708756,0.00026524873428185325,-7.855792582615873e-05,0.00011928140289096945,7.647002786596857e-05,-4.010518391917017e-05,-4.721826846920685e-05,-0.0005539577264843497,0.0012659418024429153,-0.0007035632044040969,0.0009294023078503306,-6.5106025252841395e-06,-0.0001046465739307817,0.0001261027194280183,0.24825400114059448,13.437036514282227,-0.3705780804157257,-18.345064163208008,-0.5578513741493225,-2.2946200370788574,0.22098104655742645,0
54,0.26499414443969727,-0.24825400114059448,-13.437036514282227,0.3705780804157257,18.345064163208008,0.5578513741493225,2.2946200370788574,-0.22098104655742645,0.0,0.0,0.0,0.0,0.0,0.0,0.0,-0.24702317880785407,0.43100670895226023,-0.0253617200566549,0.5660512745038667,0.12745816643241886,0.08688760908094587,-0.21715474318049083,0.07180133649549986,-0.334461982568105,-0.12026534735054764,-2.874887617445828,-0.06460902305377306,2.5182012628449333,0.7687492466413289,0.07165585495296277,-0.33419673383382315,-0.1203439052763738,-2.874768336042937,-0.06453255302590709,2.518161157661014,0.7687020283728597,0.0005539577264843497,-0.0012659418024429153,0.0007035632044040969,-0.0009294023078503306,6.5106025252841395e-06,0.0001046465739307817,-0.0001261027194280183,0.0,0.0,0.0,0.0,0.0,0.0,0.0,-0.00014548154253708756,0.00026524873428185325,-7.855792582615873e-05,0.00011928140289096945,7.647002786596857e-05,-4.010518391917017e-05,-4.721826846920685e-05,-0.0005539577264843497,0.0012659418024429153,-0.0007035632044040969,0.0009294023078503306,-6.5106025252841395e-06,-0.0001046465739307817,0.0001261027194280183,0.24825400114059448,13.437036514282227,-0.3705780804157257,-18.345064163208008,-0.5578513741493225,-2.2946200370788574,0.22098104655742645,0
55,0.2701749801635742,-0.24825400114059448,-13.437036514282227,0.3705780804157257,18.345064163208008,0.5578513741493225,2.2946200370788574,-0.22098104655742645,0.0,0.0,0.0,0.0,0.0,0.0,0.0,-0.24702317880785407,0.43100670895226023,-0.0253617200566549,0.5660512745038667,0.12745816643241886,0.08688760908094587,-0.21715474318049083,0.07180133649549986,-0.334461982568105,-0.12026534735054764,-2.874887617445828,-0.06460902305377306,2.5182012628449333,0.7687492466413289,0.07165585495296277,-0.33419673383382315,-0.1203439052763738,-2.874768336042937,-0.06453255302590709,2.518161157661014,0.7687020283728597,0.0005539577264843497,-0.0012659418024429153,0.0007035632044040969,-0.0009294023078503306,6.5106025252841395e-06,0.0001046465739307817,-0.0001261027194280183,0.0,0.0,0.0,0.0,0.0,0.0,0.0,-0.00014548154253708756,0.00026524873428185325,-7.855792582615873e-05,0.00011928140289096945,7.647002786596857e-05,-4.010518391917017e-05,-4.721826846920685e-05,-0.0005539577264843497,0.0012659418024429153,-0.0007035632044040969,0.0009294023078503306,-6.5106025252841395e-06,-0.0001046465739307817,0.0001261027194280183,0.24825400114059448,13.437036514282227,-0.3705780804157257,-18.345064163208008,-0.5578513741493225,-2.2946200370788574,0.22098104655742645,0
56,0.2749922275543213,-0.24825400114059448,-13.437036514282227,0.3705780804157257,18.345064163208008,0.5578513741493225,2.2946200370788574,-0.22098104655742645,0.0,0.0,0.0,0.0,0.0,0.0,0.0,-0.24702317880785407,0.43100670895226023,-0.0253617200566549,0.5660512745038667,0.12745816643241886,0.08688760908094587,-0.21715474318049083,0.07180133649549986,-0.334461982568105,-0.12026534735054764,-2.874887617445828,-0.06460902305377306,2.5182012628449333,0.7687492466413289,0.07165585495296277,-0.33419673383382315,-0.1203439052763738,-2.874768336042937,-0.06453255302590709,2.518161157661014,0.7687020283728597,0.0005539577264843497,-0.0012659418024429153,0.0007035632044040969,-0.0009294023078503306,6.5106025252841395e-06,0.0001046465739307817,-0.0001261027194280183,0.0,0.0,0.0,0.0,0.0,0.0,0.0,-0.00014548154253708756,0.00026524873428185325,-7.855792582615873e-05,0.00011928140289096945,7.647002786596857e-05,-4.010518391917017e-05,-4.721826846920685e-05,-0.0005539577264843497,0.0012659418024429153,-0.0007035632044040969,0.0009294023078503306,-6.5106025252841395e-06,-0.0001046465739307817,0.0001261027194280183,0.24825400114059448,13.437036514282227,-0.3705780804157257,-18.345064163208008,-0.5578513741493225,-2.2946200370788574,0.22098104655742645,0
57,0.2800014019012451,-0.24825400114059448,-13.437036514282227,0.3705780804157257,18.345064163208008,0.5578513741493225,2.2946200370788574,-0.22098104655742645,0.0,0.0,0.0,0.0,0.0,0.0,0.0,-0.24702317880785407,0.43100670895226023,-0.0253617200566549,0.5660512745038667,0.12745816643241886,0.08688760908094587,-0.21715474318049083,0.07180133649549986,-0.334461982568105,-0.12026534735054764,-2.874887617445828,-0.06460902305377306,2.5182012628449333,0.7687492466413289,0.07165585495296277,-0.33419673383382315,-0.1203439052763738,-2.874768336042937,-0.06453255302590709,2.518161157661014,0.7687020283728597,0.0005539577264843497,-0.0012659418024429153,0.0007035632044040969,-0.0009294023078503306,6.5106025252841395e-06,0.0001046465739307817,-0.0001261027194280183,0.0,0.0,0.0,0.0,0.0,0.0,0.0,-0.00014548154253708756,0.00026524873428185325,-7.855792582615873e-05,0.00011928140289096945,7.647002786596857e-05,-4.010518391917017e-05,-4.721826846920685e-05,-0.0005539577264843497,0.0012659418024429153,-0.0007035632044040969,0.0009294023078503306,-6.5106025252841395e-06,-0.0001046465739307817,0.0001261027194280183,0.24825400114059448,13.437036514282227,-0.3705780804157257,-18.345064163208008,-0.5578513741493225,-2.2946200370788574,0.22098104655742645,0
58,0.28508782386779785,-0.24825400114059448,-13.512414932250977,0.3705780804157257,18.297456741333008,0.5578513741493225,2.2946200370788574,-0.24844686686992645,0.0,0.0,0.0,0.0,0.0,0.0,0.0,-0.24448360681160763,0.4354610790378621,-0.02308424394216894,0.5613734832968887,0.1275790522315924,0.08550434413127089,-0.21722329185765182,0.07180133649549986,-0.33445669285456336,-0.12026678456897807,-2.8748842765741176,-0.0646090230544408,2.518201262850915,0.7687533580379353,0.07165585495296277,-0.33419673383382315,-0.1203439052763738,-2.874768336042937,-0.06453255302590709,2.518161157661014,0.7687020283728597,0.00031198559472968366,0.0009462688109493663,0.00018771751459284482,0.00010030818768165348,2.131371773477491e-05,0.0004039833647274075,0.0009248528645087501,0.0,0.0,0.0,0.0,0.0,0.0,0.0,-0.00014548154253708756,0.00025995902074021915,-7.71207073957253e-05,0.00011594053118058056,7.647002853371221e-05,-4.010518990105183e-05,-5.1329665075594555e-05,-0.00031198559472968366,-0.0009462688109493663,-0.00018771751459284482,-0.00010030818768165348,-2.131371773477491e-05,-0.0004039833647274075,-0.0009248528645087501,0.24825400114059448,13.512414932250977,-0.3705780804157257,-18.297456741333008,-0.5578513741493225,-2.2946200370788574,0.24844686686992645,0
59,0.28999805450439453,-0.24825400114059448,-13.512414932250977,0.3705780804157257,18.297456741333008,0.5578513741493225,2.2946200370788574,-0.24844686686992645,0.0,0.0,0.0,0.0,0.0,0.0,0.0,-0.24448360681160763,0.4354610790378621,-0.02308424394216894,0.5613734832968887,0.1275790522315924,0.08550434413127089,-0.21722329185765182,0.07180133649549986,-0.33445669285456336,-0.12026678456897807,-2.8748842765741176,-0.0646090230544408,2.518201262850915,0.7687533580379353,0.07165585495296277,-0.33419673383382315,-0.1203439052763738,-2.874768336042937,-0.06453255302590709,2.518161157661014,0.7687020283728597,0.00031198559472968366,0.0009462688109493663,0.00018771751459284482,0.00010030818768165348,2.131371773477491e-05,0.0004039833647274075,0.0009248528645087501,0.0,0.0,0.0,0.0,0.0,0.0,0.0,-0.00014548154253708756,0.00025995902074021915,-7.71207073957253e-05,0.00011594053118058056,7.647002853371221e-05,-4.010518990105183e-05,-5.1329665075594555e-05,-0.00031198559472968366,-0.0009462688109493663,-0.00018771751459284482,-0.00010030818768165348,-2.131371773477491e-05,-0.0004039833647274075,-0.0009248528645087501,0.24825400114059448,13.512414932250977,-0.3705780804157257,-18.297456741333008,-0.5578513741493225,-2.2946200370788574,0.24844686686992645,0
60,0.29499197006225586,-0.22445029020309448,-13.464807510375977,0.4221527874469757,18.321260452270508,0.5459495186805725,2.2946200370788574,-0.20083944499492645,0.0,0.0,0.0,0.0,0.0,0.0,0.0,-0.2472407925119482,0.4352971549946171,-0.02765487166789842,0.5655499974459623,0.12715359234556545,0.08701572238793051,-0.2172817250841402,0.07179966605964459,-0.33446003372627386,-0.12027062268500632,-2.874885947009973,-0.06460758233659061,2.5182012628449333,0.7687480681628881,0.07165585495296277,-0.33419673383382315,-0.1203439052763738,-2.874768336042937,-0.06453255302590709,2.518161157661014,0.7687020283728597,-0.0010091039702633607,-0.00012441711609274315,-0.0013053420986188545,-0.000701861188611399,0.00026657297114625214,0.00010418393214229812,-0.00030768148747842993,0.0,0.0,0.0,0.0,0.0,0.0,0.0,-0.00014381110668182373,0.00026329989245071905,-7.328259136747672e-05,0.00011761096703599705,7.502931068352481e-05,-4.010518391917017e-05,-4.603979002837377e-05,0.0010091039702633607,0.00012441711609274315,0.0013053420986188545,0.000701861188611399,-0.00026657297114625214,-0.00010418393214229812,0.00030768148747842993,0.22445029020309448,13.464807510375977,-0.4221527874469757,-18.321260452270508,-0.5459495186805725,-2.2946200370788574,0.20083944499492645,0
61,0.29999685287475586,-0.22445029020309448,-13.464807510375977,0.4221527874469757,18.321260452270508,0.5459495186805725,2.2946200370788574,-0.20083944499492645,0.0,0.0,0.0,0.0,0.0,0.0,0.0,-0.2472407925119482,0.4352971549946171,-0.02765487166789842,0.5655499974459623,0.12715359234556545,0.08701572238793051,-0.2172817250841402,0.07179966605964459,-0.33446003372627386,-0.12027062268500632,-2.874885947009973,-0.06460758233659061,2.5182012628449333,0.7687480681628881,0.07165585495296277,-0.33419673383382315,-0.1203439052763738,-2.874768336042937,-0.06453255302590709,2.518161157661014,0.7687020283728597,-0.0010091039702633607,-0.00012441711609274315,-0.0013053420986188545,-0.000701861188611399,0.00026657297114625214,0.00010418393214229812,-0.00030768148747842993,0.0,0.0,0.0,0.0,0.0,0.0,0.0,-0.00014381110668182373,0.00026329989245071905,-7.328259136747672e-05,0.00011761096703599705,7.502931068352481e-05,-4.010518391917017e-05,-4.603979002837377e-05,0.0010091039702633607,0.00012441711609274315,0.0013053420986188545,0.000701861188611399,-0.00026657297114625214,-0.00010418393214229812,0.00030768148747842993,0.22445029020309448,13.464807510375977,-0.4221527874469757,-18.321260452270508,-0.5459495186805725,-2.2946200370788574,0.20083944499492645,0
62,0.30495715141296387,-0.22445029020309448,-13.464807510375977,0.4221527874469757,18.321260452270508,0.5459495186805725,2.2946200370788574,-0.20083944499492645,0.0,0.0,0.0,0.0,0.0,0.0,0.0,-0.2472407925119482,0.4352971549946171,-0.02765487166789842,0.5655499974459623,0.12715359234556545,0.08701572238793051,-0.2172817250841402,0.07179966605964459,-0.33446003372627386,-0.12027062268500632,-2.874885947009973,-0.06460758233659061,2.5182012628449333,0.7687480681628881,0.07165585495296277,-0.33419673383382315,-0.1203439052763738,-2.874768336042937,-0.06453255302590709,2.518161157661014,0.7687020283728597,-0.0010091039702633607,-0.00012441711609274315,-0.0013053420986188545,-0.000701861188611399,0.00026657297114625214,0.00010418393214229812,-0.00030768148747842993,0.0,0.0,0.0,0.0,0.0,0.0,0.0,-0.00014381110668182373,0.00026329989245071905,-7.328259136747672e-05,0.00011761096703599705,7.502931068352481e-05,-4.010518391917017e-05,-4.603979002837377e-05,0.0010091039702633607,0.00012441711609274315,0.0013053420986188545,0.000701861188611399,-0.00026657297114625214,-0.00010418393214229812,0.00030768148747842993,0.22445029020309448,13.464807510375977,-0.4221527874469757,-18.321260452270508,-0.5459495186805725,-2.2946200370788574,0.20083944499492645,0
63,0.309948205947876,-0.22445029020309448,-13.464807510375977,0.4221527874469757,18.321260452270508,0.5459495186805725,2.2946200370788574,-0.20083944499492645,0.0,0.0,0.0,0.0,0.0,0.0,0.0,-0.2472407925119482,0.4352971549946171,-0.02765487166789842,0.5655499974459623,0.12715359234556545,0.08701572238793051,-0.2172817250841402,0.07179966605964459,-0.33446003372627386,-0.12027062268500632,-2.874885947009973,-0.06460758233659061,2.5182012628449333,0.7687480681628881,0.07165585495296277,-0.33419673383382315,-0.1203439052763738,-2.874768336042937,-0.06453255302590709,2.518161157661014,0.7687020283728597,-0.0010091039702633607,-0.00012441711609274315,-0.0013053420986188545,-0.000701861188611399,0.00026657297114625214,0.00010418393214229812,-0.00030768148747842993,0.0,0.0,0.0,0.0,0.0,0.0,0.0,-0.00014381110668182373,0.00026329989245071905,-7.328259136747672e-05,0.00011761096703599705,7.502931068352481e-05,-4.010518391917017e-05,-4.603979002837377e-05,0.0010091039702633607,0.00012441711609274315,0.0013053420986188545,0.000701861188611399,-0.00026657297114625214,-0.00010418393214229812,0.00030768148747842993,0.22445029020309448,13.464807510375977,-0.4221527874469757,-18.321260452270508,-0.5459495186805725,-2.2946200370788574,0.20083944499492645,0
64,0.315014123916626,-0.2720577120780945,-13.488611221313477,0.3467743694782257,18.321260452270508,0.5642600655555725,2.3074374198913574,-0.24844686686992645,0.0,0.0,0.0,0.0,0.0,0.0,0.0,-0.24665843763518647,0.42986245632554543,-0.02577081058067223,0.5708001557284277,0.12631313490576024,0.08770623543380458,-0.21539620942797666,0.07180300693135512,-0.3344583632904186,-0.12026358920188959,-2.874885947009973,-0.06460973464380806,2.5181998386912876,0.7687530047713894,0.07165585495296277,-0.33419673383382315,-0.1203439052763738,-2.874768336042937,-0.06453255302590709,2.518161157661014,0.7687020283728597,0.0006767082871229341,-3.342379309167293e-05,0.0007145476612910517,-0.0003197739005830117,-0.000245642484635164,-0.0002737840276655541,0.0011488835610608608,0.0,0.0,0.0,0.0,0.0,0.0,0.0,-0.0001471519783923514,0.0002616294565954691,-8.031607448420741e-05,0.00011761096703599705,7.7181617900976e-05,-3.868103027349079e-05,-5.0976398529689604e-05,-0.0006767082871229341,3.342379309167293e-05,-0.0007145476612910517,0.0003197739005830117,0.000245642484635164,0.0002737840276655541,-0.0011488835610608608,0.2720577120780945,13.488611221313477,-0.3467743694782257,-18.321260452270508,-0.5642600655555725,-2.3074374198913574,0.24844686686992645,0
65,0.32000231742858887,-0.2720577120780945,-13.488611221313477,0.3467743694782257,18.321260452270508,0.5642600655555725,2.3074374198913574,-0.24844686686992645,0.0,0.0,0.0,0.0,0.0,0.0,0.0,-0.24665843763518647,0.42986245632554543,-0.02577081058067223,0.5708001557284277,0.12631313490576024,0.08770623543380458,-0.21539620942797666,0.07180300693135512,-0.3344583632904186,-0.12026358920188959,-2.874885947009973,-0.06460973464380806,2.5181998386912876,0.7687530047713894,0.07165585495296277,-0.33419673383382315,-0.1203439052763738,-2.874768336042937,-0.06453255302590709,2.518161157661014,0.7687020283728597,0.0006767082871229341,-3.342379309167293e-05,0.0007145476612910517,-0.0003197739005830117,-0.000245642484635164,-0.0002737840276655541,0.0011488835610608608,0.0,0.0,0.0,0.0,0.0,0.0,0.0,-0.0001471519783923514,0.0002616294565954691,-8.031607448420741e-05,0.00011761096703599705,7.7181617900976e-05,-3.868103027349079e-05,-5.0976398529689604e-05,-0.0006767082871229341,3.342379309167293e-05,-0.0007145476612910517,0.0003197739005830117,0.000245642484635164,0.0002737840276655541,-0.0011488835610608608,0.2720577120780945,13.488611221313477,-0.3467743694782257,-18.321260452270508,-0.5642600655555725,-2.3074374198913574,0.24844686686992645,0
66,0.3250696659088135,-0.24825400114059448,-13.464807510375977,0.3705780804157257,18.297456741333008,0.5578513741493225,2.3010287284851074,-0.22098104655742645,0.0,0.0,0.0,0.0,0.0,0.0,0.0,-0.24586227631869878,0.43073259144836906,-0.026717343378365087,0.5684982519885371,0.12611178035892703,0.08720851830901252,-0.21567140970647747,0.07180133649549986,-0.33446003372627386,-0.12026742460363744,-2.8748842765741176,-0.06460890476496776,2.5182005507681104,0.7687503062741403,0.07165585495296277,-0.33419673383382315,-0.1203439052763738,-2.874768336042937,-0.06453255302590709,2.518161157661014,0.7687020283728597,0.00031888273441605487,-0.0009708066943061931,0.0005155815438137048,0.00014353754480244947,-0.0001094494793359426,3.1903127802325386e-05,-0.0002622178103519735,0.0,0.0,0.0,0.0,0.0,0.0,0.0,-0.00014548154253708756,0.00026329989245071905,-7.64806727363565e-05,0.00011594053118058056,7.635173906067605e-05,-3.939310709633048e-05,-4.827790128059117e-05,-0.00031888273441605487,0.0009708066943061931,-0.0005155815438137048,-0.00014353754480244947,0.0001094494793359426,-3.1903127802325386e-05,0.0002622178103519735,0.24825400114059448,13.464807510375977,-0.3705780804157257,-18.297456741333008,-0.5578513741493225,-2.3010287284851074,0.22098104655742645,0
67,0.3299996852874756,-0.24825400114059448,-13.464807510375977,0.3705780804157257,18.297456741333008,0.5578513741493225,2.3010287284851074,-0.22098104655742645,0.0,0.0,0.0,0.0,0.0,0.0,0.0,-0.24586227631869878,0.43073259144836906,-0.026717343378365087,0.5684982519885371,0.12611178035892703,0.08720851830901252,-0.21567140970647747,0.07180133649549986,-0.33446003372627386,-0.12026742460363744,-2.8748842765741176,-0.06460890476496776,2.5182005507681104,0.7687503062741403,0.07165585495296277,-0.33419673383382315,-0.1203439052763738,-2.874768336042937,-0.06453255302590709,2.518161157661014,0.7687020283728597,0.00031888273441605487,-0.0009708066943061931,0.0005155815438137048,0.00014353754480244947,-0.0001094494793359426,3.1903127802325386e-05,-0.0002622178103519735,0.0,0.0,0.0,0.0,0.0,0.0,0.0,-0.00014548154253708756,0.00026329989245071905,-7.64806727363565e-05,0.00011594053118058056,7.635173906067605e-05,-3.939310709633048e-05,-4.827790128059117e-05,-0.00031888273441605487,0.0009708066943061931,-0.0005155815438137048,-0.00014353754480244947,0.0001094494793359426,-3.1903127802325386e-05,0.0002622178103519735,0.24825400114059448,13.464807510375977,-0.3705780804157257,-18.297456741333008,-0.5578513741493225,-2.3010287284851074,0.22098104655742645,0
68,0.3349888324737549,-0.22445029020309448,-13.464807510375977,0.3705780804157257,18.321260452270508,0.5523582100868225,2.2946200370788574,-0.24112264811992645,0.0,0.0,0.0,0.0,0.0,0.0,0.0,-0.24846164586937616,0.4347210457334352,-0.0280869735073319,0.5642683500900477,0.12588055001542542,0.08695130766313276,-0.21659984580152572,0.07179966605964459,-0.33446003372627386,-0.120265375574912,-2.8748852052632827,-0.0646084125223639,2.5182012628449333,0.768749365321464,0.07165585495296277,-0.33419673383382315,-0.1203439052763738,-2.874768336042937,-0.06453255302590709,2.518161157661014,0.7687020283728597,-0.0005006900209340764,-1.4978922843139291e-05,0.0003186498782921711,-0.0007406893800267337,9.621827547028266e-05,0.00010431631492073083,0.0007850627446274343,0.0,0.0,0.0,0.0,0.0,0.0,0.0,-0.00014381110668182373,0.00026329989245071905,-7.852970146179916e-05,0.00011686922034570557,7.585949645681767e-05,-4.010518391917017e-05,-4.733694860425963e-05,0.0005006900209340764,1.4978922843139291e-05,-0.0003186498782921711,0.0007406893800267337,-9.621827547028266e-05,-0.00010431631492073083,-0.0007850627446274343,0.22445029020309448,13.464807510375977,-0.3705780804157257,-18.321260452270508,-0.5523582100868225,-2.2946200370788574,0.24112264811992645,0
69,0.3399465084075928,-0.22445029020309448,-13.464807510375977,0.3705780804157257,18.321260452270508,0.5523582100868225,2.2946200370788574,-0.24112264811992645,0.0,0.0,0.0,0.0,0.0,0.0,0.0,-0.24846164586937616,0.4347210457334352,-0.0280869735073319,0.5642683500900477,0.12588055001542542,0.08695130766313276,-0.21659984580152572,0.07179966605964459,-0.33446003372627386,-0.120265375574912,-2.8748852052632827,-0.0646084125223639,2.5182012628449333,0.768749365321464,0.07165585495296277,-0.33419673383382315,-0.1203439052763738,-2.874768336042937,-0.06453255302590709,2.518161157661014,0.7687020283728597,-0.0005006900209340764,-1.4978922843139291e-05,0.0003186498782921711,-0.0007406893800267337,9.621827547028266e-05,0.00010431631492073083,0.0007850627446274343,0.0,0.0,0.0,0.0,0.0,0.0,0.0,-0.00014381110668182373,0.00026329989245071905,-7.852970146179916e-05,0.00011686922034570557,7.585949645681767e-05,-4.010518391917017e-05,-4.733694860425963e-05,0.0005006900209340764,1.4978922843139291e-05,-0.0003186498782921711,0.0007406893800267337,-9.621827547028266e-05,-0.00010431631492073083,-0.0007850627446274343,0.22445029020309448,13.464807510375977,-0.3705780804157257,-18.321260452270508,-0.5523582100868225,-2.2946200370788574,0.24112264811992645,0
70,0.3450019359588623,-0.3236324191093445,-13.563989639282227,0.3705780804157257,18.321260452270508,0.5578513741493225,2.2946200370788574,-0.22098104655742645,0.0,0.0,0.0,0.0,0.0,0.0,0.0,-0.24773157651470568,0.43322400688104706,-0.02764707351812237,0.5607788862018879,0.12566938146723555,0.08747643830435127,-0.2162179606726063,0.07180662620904153,-0.3344530735768769,-0.12026526226286316,-2.874885947005786,-0.06460902305443979,2.5182012628449333,0.7687503062621778,0.07165585495296277,-0.33419673383382315,-0.1203439052763738,-2.874768336042937,-0.06453255302590709,2.518161157661014,0.7687020283728597,0.0020213572346144838,0.0023503108527278944,0.00020370585057937458,-0.0011113004865465506,5.19696526335129e-06,0.00019249926662799518,-0.0003332268861223473,0.0,0.0,0.0,0.0,0.0,0.0,0.0,-0.0001507712560787633,0.0002563397430537795,-7.864301351064029e-05,0.00011761096284912398,7.647002853269913e-05,-4.010518391917017e-05,-4.8277889318049105e-05,-0.0020213572346144838,-0.0023503108527278944,-0.00020370585057937458,0.0011113004865465506,-5.19696526335129e-06,-0.00019249926662799518,0.0003332268861223473,0.3236324191093445,13.563989639282227,-0.3705780804157257,-18.321260452270508,-0.5578513741493225,-2.2946200370788574,0.22098104655742645,0
71,0.3499929904937744,-0.3236324191093445,-13.563989639282227,0.3705780804157257,18.321260452270508,0.5578513741493225,2.2946200370788574,-0.22098104655742645,0.0,0.0,0.0,0.0,0.0,0.0,0.0,-0.24773157651470568,0.43322400688104706,-0.02764707351812237,0.5607788862018879,0.12566938146723555,0.08747643830435127,-0.2162179606726063,0.07180662620904153,-0.3344530735768769,-0.12026526226286316,-2.874885947005786,-0.06460902305443979,2.5182012628449333,0.7687503062621778,0.07165585495296277,-0.33419673383382315,-0.1203439052763738,-2.874768336042937,-0.06453255302590709,2.518161157661014,0.7687020283728597,0.0020213572346144838,0.0023503108527278944,0.00020370585057937458,-0.0011113004865465506,5.19696526335129e-06,0.00019249926662799518,-0.0003332268861223473,0.0,0.0,0.0,0.0,0.0,0.0,0.0,-0.0001507712560787633,0.0002563397430537795,-7.864301351064029e-05,0.00011761096284912398,7.647002853269913e-05,-4.010518391917017e-05,-4.8277889318049105e-05,-0.0020213572346144838,-0.0023503108527278944,-0.00020370585057937458,0.0011113004865465506,-5.19696526335129e-06,-0.00019249926662799518,0.0003332268861223473,0.3236324191093445,13.563989639282227,-0.3705780804157257,-18.321260452270508,-0.5578513741493225,-2.2946200370788574,0.22098104655742645,0
72,0.35499143600463867,-0.22445029020309448,-13.488611221313477,0.3467743694782257,18.297456741333008,0.5578513741493225,2.2946200370788574,-0.24844686686992645,0.0,0.0,0.0,0.0,0.0,0.0,0.0,-0.24685678178862308,0.42993663587241837,-0.027987783892198387,0.5620298054917761,0.12626941825203156,0.08861844597293819,-0.21583468987955232,0.07179966605964459,-0.3344583632904186,-0.12026322836411042,-2.8748842765741176,-0.0646090230544408,2.5182012628449333,0.7687533580379352,0.07165585495296277,-0.33419673383382315,-0.1203439052763738,-2.874768336042937,-0.06453255302590709,2.518161157661014,0.7687020283728597,-0.0003602484481663552,0.00020368892621952127,0.0004780813588715183,5.931741550171107e-05,-0.00010330234234629898,0.0004115027441404338,0.0009511527111087861,0.0,0.0,0.0,0.0,0.0,0.0,0.0,-0.00014381110668182373,0.0002616294565954691,-8.06769122633777e-05,0.00011594053118058056,7.647002853371221e-05,-4.010518391917017e-05,-5.132966507548353e-05,0.0003602484481663552,-0.00020368892621952127,-0.0004780813588715183,-5.931741550171107e-05,0.00010330234234629898,-0.0004115027441404338,-0.0009511527111087861,0.22445029020309448,13.488611221313477,-0.3467743694782257,-18.297456741333008,-0.5578513741493225,-2.2946200370788574,0.24844686686992645,0
73,0.3600044250488281,-0.22445029020309448,-13.488611221313477,0.3467743694782257,18.297456741333008,0.5578513741493225,2.2946200370788574,-0.24844686686992645,0.0,0.0,0.0,0.0,0.0,0.0,0.0,-0.24685678178862308,0.42993663587241837,-0.027987783892198387,0.5620298054917761,0.12626941825203156,0.08861844597293819,-0.21583468987955232,0.07179966605964459,-0.3344583632904186,-0.12026322836411042,-2.8748842765741176,-0.0646090230544408,2.5182012628449333,0.7687533580379352,0.07165585495296277,-0.33419673383382315,-0.1203439052763738,-2.874768336042937,-0.06453255302590709,2.518161157661014,0.7687020283728597,-0.0003602484481663552,0.00020368892621952127,0.0004780813588715183,5.931741550171107e-05,-0.00010330234234629898,0.0004115027441404338,0.0009511527111087861,0.0,0.0,0.0,0.0,0.0,0.0,0.0,-0.00014381110668182373,0.0002616294565954691,-8.06769122633777e-05,0.00011594053118058056,7.647002853371221e-05,-4.010518391917017e-05,-5.132966507548353e-05,0.0003602484481663552,-0.00020368892621952127,-0.0004780813588715183,-5.931741550171107e-05,0.00010330234234629898,-0.0004115027441404338,-0.0009511527111087861,0.22445029020309448,13.488611221313477,-0.3467743694782257,-18.297456741333008,-0.5578513741493225,-2.2946200370788574,0.24844686686992645,0
74,0.36501193046569824,-0.22445029020309448,-13.464807510375977,0.3983490765094757,18.297456741333008,0.5642600655555725,2.3010287284851074,-0.20083944499492645,0.0,0.0,0.0,0.0,0.0,0.0,0.0,-0.24379442528582482,0.43401248394288516,-0.02828030302594633,0.5588613841214625,0.1264813741207906,0.08854249649951336,-0.2151628469377919,0.07179966605964459,-0.33446003372627386,-0.12026863211108683,-2.8748842765741176,-0.06460654131571451,2.5182005522216606,0.7687480683243937,0.07165585495296277,-0.33419673383382315,-0.1203439052763738,-2.874768336042937,-0.06453255302590709,2.518161157661014,0.7687020283728597,-0.0005429671652984252,0.0002642472053308075,0.0001366335051605043,-3.746890980505885e-05,-0.00042734147568480174,0.0001293873220568013,-0.0012645602814627295,0.0,0.0,0.0,0.0,0.0,0.0,0.0,-0.00014381110668182373,0.00026329989245071905,-7.527316528696537e-05,0.00011594053118058056,7.398828980742511e-05,-3.93945606464996e-05,-4.6039951533960455e-05,0.0005429671652984252,-0.0002642472053308075,-0.0001366335051605043,3.746890980505885e-05,0.00042734147568480174,-0.0001293873220568013,0.0012645602814627295,0.22445029020309448,13.464807510375977,-0.3983490765094757,-18.297456741333008,-0.5642600655555725,-2.3010287284851074,0.20083944499492645,0
75,0.36998987197875977,-0.22445029020309448,-13.464807510375977,0.3983490765094757,18.297456741333008,0.5642600655555725,2.3010287284851074,-0.20083944499492645,0.0,0.0,0.0,0.0,0.0,0.0,0.0,-0.24379442528582482,0.43401248394288516,-0.02828030302594633,0.5588613841214625,0.1264813741207906,0.08854249649951336,-0.2151628469377919,0.07179966605964459,-0.33446003372627386,-0.12026863211108683,-2.8748842765741176,-0.06460654131571451,2.5182005522216606,0.7687480683243937,0.07165585495296277,-0.33419673383382315,-0.1203439052763738,-2.874768336042937,-0.06453255302590709,2.518161157661014,0.7687020283728597,-0.0005429671652984252,0.0002642472053308075,0.0001366335051605043,-3.746890980505885e-05,-0.00042734147568480174,0.0001293873220568013,-0.0012645602814627295,0.0,0.0,0.0,0.0,0.0,0.0,0.0,-0.00014381110668182373,0.00026329989245071905,-7.527316528696537e-05,0.00011594053118058056,7.398828980742511e-05,-3.93945606464996e-05,-4.6039951533960455e-05,0.0005429671652984252,-0.0002642472053308075,-0.0001366335051605043,3.746890980505885e-05,0.00042734147568480174,-0.0001293873220568013,0.0012645602814627295,0.22445029020309448,13.464807510375977,-0.3983490765094757,-18.297456741333008,-0.5642600655555725,-2.3010287284851074,0.20083944499492645,0
76,0.3749988079071045,-0.22445029020309448,-13.488611221313477,0.3705780804157257,18.345064163208008,0.5523582100868225,2.3074374198913574,-0.17978231608867645,0.0,0.0,0.0,0.0,0.0,0.0,0.0,-0.24916700123456928,0.4327079124557064,-0.030661336053199432,0.5638626896968681,0.12703546112882314,0.08940837914636501,-0.21614857867968426,0.07179966605964459,-0.3344583632904186,-0.12026749540516388,-2.8748876164283432,-0.06460829439538435,2.5181998386912956,0.7687457286434041,0.07165585495296277,-0.33419673383382315,-0.1203439052763738,-2.874768336042937,-0.06453255302590709,2.518161157661014,0.7687020283728597,-0.0010097957409689088,0.0003738606029172517,0.00019919699253907036,-0.0009324984222420494,0.00021796533892629675,1.750227294079972e-05,-0.0016140686844863673,0.0,0.0,0.0,0.0,0.0,0.0,0.0,-0.00014381110668182373,0.0002616294565954691,-7.640987120992315e-05,0.00011928038540620634,7.574136947725851e-05,-3.8681030281484396e-05,-4.3700270544344555e-05,0.0010097957409689088,-0.0003738606029172517,-0.00019919699253907036,0.0009324984222420494,-0.00021796533892629675,-1.750227294079972e-05,0.0016140686844863673,0.22445029020309448,13.488611221313477,-0.3705780804157257,-18.345064163208008,-0.5523582100868225,-2.3074374198913574,0.17978231608867645,0
77,0.3799929618835449,-0.22445029020309448,-13.488611221313477,0.3705780804157257,18.345064163208008,0.5523582100868225,2.3074374198913574,-0.17978231608867645,0.0,0.0,0.0,0.0,0.0,0.0,0.0,-0.24916700123456928,0.4327079124557064,-0.030661336053199432,0.5638626896968681,0.12703546112882314,0.08940837914636501,-0.21614857867968426,0.07179966605964459,-0.3344583632904186,-0.12026749540516388,-2.8748876164283432,-0.06460829439538435,2.5181998386912956,0.7687457286434041,0.07165585495296277,-0.33419673383382315,-0.1203439052763738,-2.874768336042937,-0.06453255302590709,2.518161157661014,0.7687020283728597,-0.0010097957409689088,0.0003738606029172517,0.00019919699253907036,-0.0009324984222420494,0.00021796533892629675,1.750227294079972e-05,-0.0016140686844863673,0.0,0.0,0.0,0.0,0.0,0.0,0.0,-0.00014381110668182373,0.0002616294565954691,-7.640987120992315e-05,0.00011928038540620634,7.574136947725851e-05,-3.8681030281484396e-05,-4.3700270544344555e-05,0.0010097957409689088,-0.0003738606029172517,-0.00019919699253907036,0.0009324984222420494,-0.00021796533892629675,-1.750227294079972e-05,0.0016140686844863673,0.22445029020309448,13.488611221313477,-0.3705780804157257,-18.345064163208008,-0.5523582100868225,-2.3074374198913574,0.17978231608867645,0
78,0.38500475883483887,-0.2720577120780945,-13.512414932250977,0.3705780804157257,18.297456741333008,0.5642600655555725,2.3010287284851074,-0.20724813640117645,0.0,0.0,0.0,0.0,0.0,0.0,0.0,-0.24716496070276406,0.43621209661260585,-0.026766101238804723,0.5634882755191919,0.1270455035083921,0.08959883588475843,-0.21728929887294735,0.07180300693135512,-0.33445669285456336,-0.12026526822908627,-2.8748842765741123,-0.06460973513059588,2.5182005507681104,0.7687487804012166,0.07165585495296277,-0.33419673383382315,-0.1203439052763738,-2.874768336042937,-0.06453255302590709,2.518161157661014,0.7687020283728597,0.0006626123785601691,0.0008389885024493384,0.00040061958710514543,0.0003342788897519746,-0.00031133038036673986,-7.586233503847171e-05,-0.00045277236394419883,0.0,0.0,0.0,0.0,0.0,0.0,0.0,-0.0001471519783923514,0.00025995902074021915,-7.863704728752752e-05,0.0001159405311752515,7.718210468879438e-05,-3.939310709633048e-05,-4.675202835691117e-05,-0.0006626123785601691,-0.0008389885024493384,-0.00040061958710514543,-0.0003342788897519746,0.00031133038036673986,7.586233503847171e-05,0.00045277236394419883,0.2720577120780945,13.512414932250977,-0.3705780804157257,-18.297456741333008,-0.5642600655555725,-2.3010287284851074,0.20724813640117645,0
79,0.38999414443969727,-0.2720577120780945,-13.512414932250977,0.3705780804157257,18.297456741333008,0.5642600655555725,2.3010287284851074,-0.20724813640117645,0.0,0.0,0.0,0.0,0.0,0.0,0.0,-0.24716496070276406,0.43621209661260585,-0.026766101238804723,0.5634882755191919,0.1270455035083921,0.08959883588475843,-0.21728929887294735,0.07180300693135512,-0.33445669285456336,-0.12026526822908627,-2.8748842765741123,-0.06460973513059588,2.5182005507681104,0.7687487804012166,0.07165585495296277,-0.33419673383382315,-0.1203439052763738,-2.874768336042937,-0.06453255302590709,2.518161157661014,0.7687020283728597,0.0006626123785601691,0.0008389885024493384,0.00040061958710514543,0.0003342788897519746,-0.00031133038036673986,-7.586233503847171e-05,-0.00045277236394419883,0.0,0.0,0.0,0.0,0.0,0.0,0.0,-0.0001471519783923514,0.00025995902074021915,-7.863704728752752e-05,0.0001159405311752515,7.718210468879438e-05,-3.939310709633048e-05,-4.675202835691117e-05,-0.0006626123785601691,-0.0008389885024493384,-0.00040061958710514543,-0.0003342788897519746,0.00031133038036673986,7.586233503847171e-05,0.00045277236394419883,0.2720577120780945,13.512414932250977,-0.3705780804157257,-18.297456741333008,-0.5642600655555725,-2.3010287284851074,0.20724813640117645,0
