rezayati/contactInterpretation/dataset/franka_main/labeled_data/link2/f5_3.csv
index,time,tau_J0,tau_J1,tau_J2,tau_J3,tau_J4,tau_J5,tau_J6,tau_J_d0,tau_J_d1,tau_J_d2,tau_J_d3,tau_J_d4,tau_J_d5,tau_J_d6,tau_ext0,tau_ext1,tau_ext2,tau_ext3,tau_ext4,tau_ext5,tau_ext6,q0,q1,q2,q3,q4,q5,q6,q_d0,q_d1,q_d2,q_d3,q_d4,q_d5,q_d6,dq0,dq1,dq2,dq3,dq4,dq5,dq6,dq_d0,dq_d1,dq_d2,dq_d3,dq_d4,dq_d5,dq_d6,e0,e1,e2,e3,e4,e5,e6,de0,de1,de2,de3,de4,de5,de6,etau_J0,etau_J1,etau_J2,etau_J3,etau_J4,etau_J5,etau_J6,label
1,0.0,-0.2998287081718445,-34.03915023803711,-4.124355792999268,19.237703323364258,0.1769919991493225,1.777347207069397,-0.15964071452617645,0.0,0.0,0.0,0.0,0.0,0.0,0.0,-0.32182744068312397,0.007713480597253538,-0.5455685329685194,0.20709535329045073,0.11921375788419443,-0.12859034560855567,-0.15569376713482294,1.05440528876062,0.3238440207769757,-0.3924959716755047,-2.1532951284040482,0.8647524751836898,2.46587817577521,0.5444994325555033,1.0544104758940245,0.3238615046091247,-0.39250456234122666,-2.153291787532338,0.8647539153680389,2.46587817577521,0.5445020185570556,-0.00064499816285437,-0.0005776456123598428,-1.3086844995752787e-05,-0.00013565424759995784,-0.00023983504239840356,-0.0001864492272169236,0.000356418238864879,0.0,0.0,0.0,0.0,0.0,0.0,0.0,5.187133404582767e-06,1.7483832149001177e-05,-8.59066572195255e-06,3.340871710388882e-06,1.4401843491107513e-06,0.0,2.5860015523404556e-06,0.00064499816285437,0.0005776456123598428,1.3086844995752787e-05,0.00013565424759995784,0.00023983504239840356,0.0001864492272169236,-0.000356418238864879,0.2998287081718445,34.03915023803711,4.124355792999268,-19.237703323364258,-0.1769919991493225,-1.777347207069397,0.15964071452617645,0
2,0.004601478576660156,-0.2998287081718445,-34.03915023803711,-4.124355792999268,19.237703323364258,0.1769919991493225,1.777347207069397,-0.15964071452617645,0.0,0.0,0.0,0.0,0.0,0.0,0.0,-0.32182744068312397,0.007713480597253538,-0.5455685329685194,0.20709535329045073,0.11921375788419443,-0.12859034560855567,-0.15569376713482294,1.05440528876062,0.3238440207769757,-0.3924959716755047,-2.1532951284040482,0.8647524751836898,2.46587817577521,0.5444994325555033,1.0544104758940245,0.3238615046091247,-0.39250456234122666,-2.153291787532338,0.8647539153680389,2.46587817577521,0.5445020185570556,-0.00064499816285437,-0.0005776456123598428,-1.3086844995752787e-05,-0.00013565424759995784,-0.00023983504239840356,-0.0001864492272169236,0.000356418238864879,0.0,0.0,0.0,0.0,0.0,0.0,0.0,5.187133404582767e-06,1.7483832149001177e-05,-8.59066572195255e-06,3.340871710388882e-06,1.4401843491107513e-06,0.0,2.5860015523404556e-06,0.00064499816285437,0.0005776456123598428,1.3086844995752787e-05,0.00013565424759995784,0.00023983504239840356,0.0001864492272169236,-0.000356418238864879,0.2998287081718445,34.03915023803711,4.124355792999268,-19.237703323364258,-0.1769919991493225,-1.777347207069397,0.15964071452617645,0
3,0.009602785110473633,-0.2998287081718445,-34.03915023803711,-4.124355792999268,19.261507034301758,0.1714988350868225,1.777347207069397,-0.13858358561992645,0.0,0.0,0.0,0.0,0.0,0.0,0.0,-0.30516282013660795,0.005371975401517777,-0.5319639204661275,0.20783498293233482,0.11852518228501259,-0.13036812494728928,-0.15641722038320735,1.0544036120788403,0.32384398627416483,-0.3924959716755047,-2.1532967989529572,0.8647530855536459,2.46587817577521,0.5444970928745138,1.0544104758940245,0.3238615046091247,-0.39250456234122666,-2.153291787532338,0.8647539153680389,2.46587817577521,0.5445020185570556,-0.0004938103741211177,-0.0005309672292883568,0.0009631528357894359,-0.0008287663038625249,0.00015984228086549912,0.00020548349927575075,-0.0012431383912747522,0.0,0.0,0.0,0.0,0.0,0.0,0.0,6.863815184221522e-06,1.7518334959887305e-05,-8.59066572195255e-06,5.011420619371876e-06,8.298143929774682e-07,0.0,4.925682541845333e-06,0.0004938103741211177,0.0005309672292883568,-0.0009631528357894359,0.0008287663038625249,-0.00015984228086549912,-0.00020548349927575075,0.0012431383912747522,0.2998287081718445,34.03915023803711,4.124355792999268,-19.261507034301758,-0.1714988350868225,-1.777347207069397,0.13858358561992645,0
4,0.01460123062133789,-0.2998287081718445,-34.03915023803711,-4.124355792999268,19.261507034301758,0.1714988350868225,1.777347207069397,-0.13858358561992645,0.0,0.0,0.0,0.0,0.0,0.0,0.0,-0.30516282013660795,0.005371975401517777,-0.5319639204661275,0.20783498293233482,0.11852518228501259,-0.13036812494728928,-0.15641722038320735,1.0544036120788403,0.32384398627416483,-0.3924959716755047,-2.1532967989529572,0.8647530855536459,2.46587817577521,0.5444970928745138,1.0544104758940245,0.3238615046091247,-0.39250456234122666,-2.153291787532338,0.8647539153680389,2.46587817577521,0.5445020185570556,-0.0004938103741211177,-0.0005309672292883568,0.0009631528357894359,-0.0008287663038625249,0.00015984228086549912,0.00020548349927575075,-0.0012431383912747522,0.0,0.0,0.0,0.0,0.0,0.0,0.0,6.863815184221522e-06,1.7518334959887305e-05,-8.59066572195255e-06,5.011420619371876e-06,8.298143929774682e-07,0.0,4.925682541845333e-06,0.0004938103741211177,0.0005309672292883568,-0.0009631528357894359,0.0008287663038625249,-0.00015984228086549912,-0.00020548349927575075,0.0012431383912747522,0.2998287081718445,34.03915023803711,4.124355792999268,-19.261507034301758,-0.1714988350868225,-1.777347207069397,0.13858358561992645,0
5,0.0196073055267334,-0.2720577120780945,-34.03915023803711,-4.124355792999268,19.313081741333008,0.1769919991493225,1.770938515663147,-0.17978231608867645,0.0,0.0,0.0,0.0,0.0,0.0,0.0,-0.3166486467227225,0.0004146800407314232,-0.5412293622310885,0.2098237157794089,0.11930256031304211,-0.12861391598831115,-0.15717401630390515,1.0544039238373384,0.3238442571793972,-0.3924959716755047,-2.1533004181175905,0.8647524752020834,2.465878887852033,0.5445020238854478,1.0544104758940245,0.3238615046091247,-0.39250456234122666,-2.153291787532338,0.8647539153680389,2.46587817577521,0.5445020185570556,-0.0012656513067746615,-0.0010102322186864117,0.0003691178998175507,-0.0021129093231503013,-9.592710940299558e-05,0.00022826577713357452,0.0008815783352798837,0.0,0.0,0.0,0.0,0.0,0.0,0.0,6.552056686093266e-06,1.724742972752935e-05,-8.59066572195255e-06,8.630585252689116e-06,1.4401659554907909e-06,-7.120768228396912e-07,-5.3283921719327054e-09,0.0012656513067746615,0.0010102322186864117,-0.0003691178998175507,0.0021129093231503013,9.592710940299558e-05,-0.00022826577713357452,-0.0008815783352798837,0.2720577120780945,34.03915023803711,4.124355792999268,-19.313081741333008,-0.1769919991493225,-1.770938515663147,0.17978231608867645,0
6,0.024616003036499023,-0.2720577120780945,-34.03915023803711,-4.124355792999268,19.313081741333008,0.1769919991493225,1.770938515663147,-0.17978231608867645,0.0,0.0,0.0,0.0,0.0,0.0,0.0,-0.3166486467227225,0.0004146800407314232,-0.5412293622310885,0.2098237157794089,0.11930256031304211,-0.12861391598831115,-0.15717401630390515,1.0544039238373384,0.3238442571793972,-0.3924959716755047,-2.1533004181175905,0.8647524752020834,2.465878887852033,0.5445020238854478,1.0544104758940245,0.3238615046091247,-0.39250456234122666,-2.153291787532338,0.8647539153680389,2.46587817577521,0.5445020185570556,-0.0012656513067746615,-0.0010102322186864117,0.0003691178998175507,-0.0021129093231503013,-9.592710940299558e-05,0.00022826577713357452,0.0008815783352798837,0.0,0.0,0.0,0.0,0.0,0.0,0.0,6.552056686093266e-06,1.724742972752935e-05,-8.59066572195255e-06,8.630585252689116e-06,1.4401659554907909e-06,-7.120768228396912e-07,-5.3283921719327054e-09,0.0012656513067746615,0.0010102322186864117,-0.0003691178998175507,0.0021129093231503013,9.592710940299558e-05,-0.00022826577713357452,-0.0008815783352798837,0.2720577120780945,34.03915023803711,4.124355792999268,-19.313081741333008,-0.1769919991493225,-1.770938515663147,0.17978231608867645,0
7,0.02960968017578125,-0.2998287081718445,-34.06295394897461,-4.096584796905518,19.289278030395508,0.1714988350868225,1.770938515663147,-0.12485067546367645,0.0,0.0,0.0,0.0,0.0,0.0,0.0,-0.312361241148139,0.004642526748265831,-0.5373962090541349,0.20811538396621684,0.11947540350903296,-0.1289848234794558,-0.15706189583188224,1.0544052944700748,0.32384573258564314,-0.39249792051733584,-2.1532987476817347,0.8647530855536459,2.465879947490162,0.5444955669962724,1.0544104758940245,0.3238615046091247,-0.39250456234122666,-2.153291787532338,0.8647539153680389,2.46587817577521,0.5445020185570556,0.00012556446465056528,-4.572696793184826e-05,-0.0006074641086879879,-0.001331374022782015,0.00018899195999599032,0.0002532501704303205,-0.0011544531937290074,0.0,0.0,0.0,0.0,0.0,0.0,0.0,5.181423949673913e-06,1.5772023481575026e-05,-6.641823890818355e-06,6.960149396828541e-06,8.298143929774682e-07,-1.7717149520812825e-06,6.451560783160559e-06,-0.00012556446465056528,4.572696793184826e-05,0.0006074641086879879,0.001331374022782015,-0.00018899195999599032,-0.0002532501704303205,0.0011544531937290074,0.2998287081718445,34.06295394897461,4.096584796905518,-19.289278030395508,-0.1714988350868225,-1.770938515663147,0.12485067546367645,0
8,0.03460431098937988,-0.2998287081718445,-34.06295394897461,-4.096584796905518,19.289278030395508,0.1714988350868225,1.770938515663147,-0.12485067546367645,0.0,0.0,0.0,0.0,0.0,0.0,0.0,-0.312361241148139,0.004642526748265831,-0.5373962090541349,0.20811538396621684,0.11947540350903296,-0.1289848234794558,-0.15706189583188224,1.0544052944700748,0.32384573258564314,-0.39249792051733584,-2.1532987476817347,0.8647530855536459,2.465879947490162,0.5444955669962724,1.0544104758940245,0.3238615046091247,-0.39250456234122666,-2.153291787532338,0.8647539153680389,2.46587817577521,0.5445020185570556,0.00012556446465056528,-4.572696793184826e-05,-0.0006074641086879879,-0.001331374022782015,0.00018899195999599032,0.0002532501704303205,-0.0011544531937290074,0.0,0.0,0.0,0.0,0.0,0.0,0.0,5.181423949673913e-06,1.5772023481575026e-05,-6.641823890818355e-06,6.960149396828541e-06,8.298143929774682e-07,-1.7717149520812825e-06,6.451560783160559e-06,-0.00012556446465056528,4.572696793184826e-05,0.0006074641086879879,0.001331374022782015,-0.00018899195999599032,-0.0002532501704303205,0.0011544531937290074,0.2998287081718445,34.06295394897461,4.096584796905518,-19.289278030395508,-0.1714988350868225,-1.770938515663147,0.12485067546367645,0
9,0.039600372314453125,-0.2998287081718445,-34.06295394897461,-4.096584796905518,19.289278030395508,0.1714988350868225,1.770938515663147,-0.12485067546367645,0.0,0.0,0.0,0.0,0.0,0.0,0.0,-0.312361241148139,0.004642526748265831,-0.5373962090541349,0.20811538396621684,0.11947540350903296,-0.1289848234794558,-0.15706189583188224,1.0544052944700748,0.32384573258564314,-0.39249792051733584,-2.1532987476817347,0.8647530855536459,2.465879947490162,0.5444955669962724,1.0544104758940245,0.3238615046091247,-0.39250456234122666,-2.153291787532338,0.8647539153680389,2.46587817577521,0.5445020185570556,0.00012556446465056528,-4.572696793184826e-05,-0.0006074641086879879,-0.001331374022782015,0.00018899195999599032,0.0002532501704303205,-0.0011544531937290074,0.0,0.0,0.0,0.0,0.0,0.0,0.0,5.181423949673913e-06,1.5772023481575026e-05,-6.641823890818355e-06,6.960149396828541e-06,8.298143929774682e-07,-1.7717149520812825e-06,6.451560783160559e-06,-0.00012556446465056528,4.572696793184826e-05,0.0006074641086879879,0.001331374022782015,-0.00018899195999599032,-0.0002532501704303205,0.0011544531937290074,0.2998287081718445,34.06295394897461,4.096584796905518,-19.289278030395508,-0.1714988350868225,-1.770938515663147,0.12485067546367645,0
10,0.04459834098815918,-0.2998287081718445,-34.06295394897461,-4.096584796905518,19.289278030395508,0.1714988350868225,1.770938515663147,-0.12485067546367645,0.0,0.0,0.0,0.0,0.0,0.0,0.0,-0.312361241148139,0.004642526748265831,-0.5373962090541349,0.20811538396621684,0.11947540350903296,-0.1289848234794558,-0.15706189583188224,1.0544052944700748,0.32384573258564314,-0.39249792051733584,-2.1532987476817347,0.8647530855536459,2.465879947490162,0.5444955669962724,1.0544104758940245,0.3238615046091247,-0.39250456234122666,-2.153291787532338,0.8647539153680389,2.46587817577521,0.5445020185570556,0.00012556446465056528,-4.572696793184826e-05,-0.0006074641086879879,-0.001331374022782015,0.00018899195999599032,0.0002532501704303205,-0.0011544531937290074,0.0,0.0,0.0,0.0,0.0,0.0,0.0,5.181423949673913e-06,1.5772023481575026e-05,-6.641823890818355e-06,6.960149396828541e-06,8.298143929774682e-07,-1.7717149520812825e-06,6.451560783160559e-06,-0.00012556446465056528,4.572696793184826e-05,0.0006074641086879879,0.001331374022782015,-0.00018899195999599032,-0.0002532501704303205,0.0011544531937290074,0.2998287081718445,34.06295394897461,4.096584796905518,-19.289278030395508,-0.1714988350868225,-1.770938515663147,0.12485067546367645,0
11,0.04959869384765625,-0.3236324191093445,-34.03915023803711,-4.124355792999268,19.213899612426758,0.1714988350868225,1.777347207069397,-0.11111776530742645,0.0,0.0,0.0,0.0,0.0,0.0,0.0,-0.315129983800244,0.010708844843196388,-0.5400860633804355,0.20560231541906454,0.11902935799407525,-0.1294372804932675,-0.15683909175878874,1.0544069591983953,0.323844257107148,-0.3924959716755047,-2.1532934579681933,0.8647530855536459,2.4658781757811914,0.5444972200310892,1.0544104758940245,0.3238615046091247,-0.39250456234122666,-2.153291787532338,0.8647539153680389,2.46587817577521,0.5445020185570556,0.00023252545432227492,-0.0002714239026363664,0.0007632403865069908,0.0005619451351912975,4.756039990333428e-05,-2.4534722603969414e-05,-0.0016745336479474366,0.0,0.0,0.0,0.0,0.0,0.0,0.0,3.5166956291465823e-06,1.7247501976735968e-05,-8.59066572195255e-06,1.6704358554164855e-06,8.298143929774682e-07,-5.981437567470493e-12,4.798525966354106e-06,-0.00023252545432227492,0.0002714239026363664,-0.0007632403865069908,-0.0005619451351912975,-4.756039990333428e-05,2.4534722603969414e-05,0.0016745336479474366,0.3236324191093445,34.03915023803711,4.124355792999268,-19.213899612426758,-0.1714988350868225,-1.777347207069397,0.11111776530742645,0
12,0.054599761962890625,-0.3236324191093445,-34.03915023803711,-4.124355792999268,19.213899612426758,0.1714988350868225,1.777347207069397,-0.11111776530742645,0.0,0.0,0.0,0.0,0.0,0.0,0.0,-0.315129983800244,0.010708844843196388,-0.5400860633804355,0.20560231541906454,0.11902935799407525,-0.1294372804932675,-0.15683909175878874,1.0544069591983953,0.323844257107148,-0.3924959716755047,-2.1532934579681933,0.8647530855536459,2.4658781757811914,0.5444972200310892,1.0544104758940245,0.3238615046091247,-0.39250456234122666,-2.153291787532338,0.8647539153680389,2.46587817577521,0.5445020185570556,0.00023252545432227492,-0.0002714239026363664,0.0007632403865069908,0.0005619451351912975,4.756039990333428e-05,-2.4534722603969414e-05,-0.0016745336479474366,0.0,0.0,0.0,0.0,0.0,0.0,0.0,3.5166956291465823e-06,1.7247501976735968e-05,-8.59066572195255e-06,1.6704358554164855e-06,8.298143929774682e-07,-5.981437567470493e-12,4.798525966354106e-06,-0.00023252545432227492,0.0002714239026363664,-0.0007632403865069908,-0.0005619451351912975,-4.756039990333428e-05,2.4534722603969414e-05,0.0016745336479474366,0.3236324191093445,34.03915023803711,4.124355792999268,-19.213899612426758,-0.1714988350868225,-1.777347207069397,0.11111776530742645,0
13,0.05960988998413086,-0.2998287081718445,-34.09072494506836,-4.096584796905518,19.213899612426758,0.1650901436805725,1.770938515663147,-0.11844198405742645,0.0,0.0,0.0,0.0,0.0,0.0,0.0,-0.31725414751171754,-0.00026861466933634755,-0.5392592389502339,0.21206311276023043,0.11868674658823819,-0.12869711440868994,-0.15626199862757026,1.0544052107983795,0.32384787932937414,-0.39249792051733584,-2.1532934579681933,0.8647537976304689,2.465878887852033,0.5444948941825862,1.0544104758940245,0.3238615046091247,-0.39250456234122666,-2.153291787532338,0.8647539153680389,2.46587817577521,0.5445020185570556,-0.0002842563009546076,0.0005449562945838435,0.00011469376546347138,0.0009804625934244733,0.0002657072721915624,0.0001561622895717304,-0.0016090813082867295,0.0,0.0,0.0,0.0,0.0,0.0,0.0,5.265095645023976e-06,1.362527975057315e-05,-6.641823890818355e-06,1.6704358554164855e-06,1.1773757002675467e-07,-7.120768228396912e-07,7.124374469369421e-06,0.0002842563009546076,-0.0005449562945838435,-0.00011469376546347138,-0.0009804625934244733,-0.0002657072721915624,-0.0001561622895717304,0.0016090813082867295,0.2998287081718445,34.09072494506836,4.096584796905518,-19.213899612426758,-0.1650901436805725,-1.770938515663147,0.11844198405742645,0
14,0.06456756591796875,-0.2998287081718445,-34.09072494506836,-4.096584796905518,19.213899612426758,0.1650901436805725,1.770938515663147,-0.11844198405742645,0.0,0.0,0.0,0.0,0.0,0.0,0.0,-0.31725414751171754,-0.00026861466933634755,-0.5392592389502339,0.21206311276023043,0.11868674658823819,-0.12869711440868994,-0.15626199862757026,1.0544052107983795,0.32384787932937414,-0.39249792051733584,-2.1532934579681933,0.8647537976304689,2.465878887852033,0.5444948941825862,1.0544104758940245,0.3238615046091247,-0.39250456234122666,-2.153291787532338,0.8647539153680389,2.46587817577521,0.5445020185570556,-0.0002842563009546076,0.0005449562945838435,0.00011469376546347138,0.0009804625934244733,0.0002657072721915624,0.0001561622895717304,-0.0016090813082867295,0.0,0.0,0.0,0.0,0.0,0.0,0.0,5.265095645023976e-06,1.362527975057315e-05,-6.641823890818355e-06,1.6704358554164855e-06,1.1773757002675467e-07,-7.120768228396912e-07,7.124374469369421e-06,0.0002842563009546076,-0.0005449562945838435,-0.00011469376546347138,-0.0009804625934244733,-0.0002657072721915624,-0.0001561622895717304,0.0016090813082867295,0.2998287081718445,34.09072494506836,4.096584796905518,-19.213899612426758,-0.1650901436805725,-1.770938515663147,0.11844198405742645,0
15,0.06955075263977051,-0.2998287081718445,-34.03915023803711,-4.072781085968018,19.213899612426758,0.1650901436805725,1.777347207069397,-0.13217489421367645,0.0,0.0,0.0,0.0,0.0,0.0,0.0,-0.3124485334406929,0.006070347666212332,-0.5361606346295931,0.20698620682137886,0.11873529265649778,-0.12963755018259418,-0.1560416846437585,1.0544056687147185,0.32384695064588725,-0.39249961719885773,-2.1532934579681933,0.8647537976304689,2.46587817577521,0.5444963938798646,1.0544104758940245,0.3238615046091247,-0.39250456234122666,-2.153291787532338,0.8647539153680389,2.46587817577521,0.5445020185570556,0.00027078203983663856,-0.0007180908913384685,-0.0009475507774329834,0.0007070176917996244,0.00021402598906769747,2.036030519075252e-05,-0.0002773853853093897,0.0,0.0,0.0,0.0,0.0,0.0,0.0,4.807179305954534e-06,1.4553963237462497e-05,-4.945142368928401e-06,1.6704358554164855e-06,1.1773757002675467e-07,0.0,5.6246771910073434e-06,-0.00027078203983663856,0.0007180908913384685,0.0009475507774329834,-0.0007070176917996244,-0.00021402598906769747,-2.036030519075252e-05,0.0002773853853093897,0.2998287081718445,34.03915023803711,4.072781085968018,-19.213899612426758,-0.1650901436805725,-1.777347207069397,0.13217489421367645,0
16,0.07460212707519531,-0.2998287081718445,-34.03915023803711,-4.072781085968018,19.213899612426758,0.1650901436805725,1.777347207069397,-0.13217489421367645,0.0,0.0,0.0,0.0,0.0,0.0,0.0,-0.3124485334406929,0.006070347666212332,-0.5361606346295931,0.20698620682137886,0.11873529265649778,-0.12963755018259418,-0.1560416846437585,1.0544056687147185,0.32384695064588725,-0.39249961719885773,-2.1532934579681933,0.8647537976304689,2.46587817577521,0.5444963938798646,1.0544104758940245,0.3238615046091247,-0.39250456234122666,-2.153291787532338,0.8647539153680389,2.46587817577521,0.5445020185570556,0.00027078203983663856,-0.0007180908913384685,-0.0009475507774329834,0.0007070176917996244,0.00021402598906769747,2.036030519075252e-05,-0.0002773853853093897,0.0,0.0,0.0,0.0,0.0,0.0,0.0,4.807179305954534e-06,1.4553963237462497e-05,-4.945142368928401e-06,1.6704358554164855e-06,1.1773757002675467e-07,0.0,5.6246771910073434e-06,-0.00027078203983663856,0.0007180908913384685,0.0009475507774329834,-0.0007070176917996244,-0.00021402598906769747,-2.036030519075252e-05,0.0002773853853093897,0.2998287081718445,34.03915023803711,4.072781085968018,-19.213899612426758,-0.1650901436805725,-1.777347207069397,0.13217489421367645,0
17,0.0796046257019043,-0.3236324191093445,-34.11452865600586,-4.072781085968018,19.213899612426758,0.1650901436805725,1.783755898475647,-0.17978231608867645,0.0,0.0,0.0,0.0,0.0,0.0,0.0,-0.3174456479346607,0.0006077653017022856,-0.5424535227129622,0.20843651223703394,0.1181870112127759,-0.12841954874529388,-0.15351741418868206,1.054405247523964,0.3238514983008781,-0.39249959095333925,-2.1532934579681933,0.8647537976304689,2.465877463698387,0.5445016706728119,1.0544104758940245,0.3238615046091247,-0.39250456234122666,-2.153291787532338,0.8647539153680389,2.46587817577521,0.5445020185570556,-0.00047552684733837903,0.0008020170491448783,-0.00026251910412760743,0.00046561604773141335,0.00019015446952446404,-0.0003843666876130804,0.000776971629290698,0.0,0.0,0.0,0.0,0.0,0.0,0.0,5.228370060450516e-06,1.0006308246601758e-05,-4.97138788740914e-06,1.6704358554164855e-06,1.1773757002675467e-07,7.120768228396912e-07,3.4788424374543325e-07,0.00047552684733837903,-0.0008020170491448783,0.00026251910412760743,-0.00046561604773141335,-0.00019015446952446404,0.0003843666876130804,-0.000776971629290698,0.3236324191093445,34.11452865600586,4.072781085968018,-19.213899612426758,-0.1650901436805725,-1.783755898475647,0.17978231608867645,0
18,0.08456301689147949,-0.3236324191093445,-34.11452865600586,-4.072781085968018,19.213899612426758,0.1650901436805725,1.783755898475647,-0.17978231608867645,0.0,0.0,0.0,0.0,0.0,0.0,0.0,-0.3174456479346607,0.0006077653017022856,-0.5424535227129622,0.20843651223703394,0.1181870112127759,-0.12841954874529388,-0.15351741418868206,1.054405247523964,0.3238514983008781,-0.39249959095333925,-2.1532934579681933,0.8647537976304689,2.465877463698387,0.5445016706728119,1.0544104758940245,0.3238615046091247,-0.39250456234122666,-2.153291787532338,0.8647539153680389,2.46587817577521,0.5445020185570556,-0.00047552684733837903,0.0008020170491448783,-0.00026251910412760743,0.00046561604773141335,0.00019015446952446404,-0.0003843666876130804,0.000776971629290698,0.0,0.0,0.0,0.0,0.0,0.0,0.0,5.228370060450516e-06,1.0006308246601758e-05,-4.97138788740914e-06,1.6704358554164855e-06,1.1773757002675467e-07,7.120768228396912e-07,3.4788424374543325e-07,0.00047552684733837903,-0.0008020170491448783,0.00026251910412760743,-0.00046561604773141335,-0.00019015446952446404,0.0003843666876130804,-0.000776971629290698,0.3236324191093445,34.11452865600586,4.072781085968018,-19.213899612426758,-0.1650901436805725,-1.783755898475647,0.17978231608867645,0
19,0.08960461616516113,-0.2998287081718445,-34.03915023803711,-4.096584796905518,19.261507034301758,0.1769919991493225,1.783755898475647,-0.18710653483867645,0.0,0.0,0.0,0.0,0.0,0.0,0.0,-0.31726819363335457,0.00805402324983262,-0.535888439752321,0.20409720371047896,0.11758157159424747,-0.12858159381426126,-0.15377496225404685,1.0544050308553472,0.3238464551779467,-0.39249792051733584,-2.1532967988399037,0.8647492168148357,2.465877463698387,0.5445024844748223,1.0544104758940245,0.3238615046091247,-0.39250456234122666,-2.153291787532338,0.8647539153680389,2.46587817577521,0.5445020185570556,-0.00042203391543683196,-0.00035707641497868136,-0.0001592231503435264,-0.0007372781104001866,7.413196131010228e-05,-6.724335823163063e-05,0.0012378008984705962,0.0,0.0,0.0,0.0,0.0,0.0,0.0,5.445038677276415e-06,1.5049431178026929e-05,-6.641823890818355e-06,5.011307565805367e-06,4.698553203175138e-06,7.120768228396912e-07,-4.6591776670101837e-07,0.00042203391543683196,0.00035707641497868136,0.0001592231503435264,0.0007372781104001866,-7.413196131010228e-05,6.724335823163063e-05,-0.0012378008984705962,0.2998287081718445,34.03915023803711,4.096584796905518,-19.261507034301758,-0.1769919991493225,-1.783755898475647,0.18710653483867645,0
20,0.0946040153503418,-0.2998287081718445,-34.03915023803711,-4.096584796905518,19.261507034301758,0.1769919991493225,1.783755898475647,-0.18710653483867645,0.0,0.0,0.0,0.0,0.0,0.0,0.0,-0.31726819363335457,0.00805402324983262,-0.535888439752321,0.20409720371047896,0.11758157159424747,-0.12858159381426126,-0.15377496225404685,1.0544050308553472,0.3238464551779467,-0.39249792051733584,-2.1532967988399037,0.8647492168148357,2.465877463698387,0.5445024844748223,1.0544104758940245,0.3238615046091247,-0.39250456234122666,-2.153291787532338,0.8647539153680389,2.46587817577521,0.5445020185570556,-0.00042203391543683196,-0.00035707641497868136,-0.0001592231503435264,-0.0007372781104001866,7.413196131010228e-05,-6.724335823163063e-05,0.0012378008984705962,0.0,0.0,0.0,0.0,0.0,0.0,0.0,5.445038677276415e-06,1.5049431178026929e-05,-6.641823890818355e-06,5.011307565805367e-06,4.698553203175138e-06,7.120768228396912e-07,-4.6591776670101837e-07,0.00042203391543683196,0.00035707641497868136,0.0001592231503435264,0.0007372781104001866,-7.413196131010228e-05,6.724335823163063e-05,-0.0012378008984705962,0.2998287081718445,34.03915023803711,4.096584796905518,-19.261507034301758,-0.1769919991493225,-1.783755898475647,0.18710653483867645,0
21,0.09981131553649902,-0.2998287081718445,-34.06295394897461,-4.096584796905518,19.237703323364258,0.1714988350868225,1.763614296913147,-0.15231649577617645,0.0,0.0,0.0,0.0,0.0,0.0,0.0,-0.3053999857412125,-0.004463979186892761,-0.5277624335984542,0.21308642551149407,0.11800492957519343,-0.1278175431060618,-0.1543497448509623,1.0544057285165285,0.3238478073967064,-0.39249792051733584,-2.1532951284040482,0.8647530855352523,2.4658797016541163,0.5444986187534209,1.0544104758940245,0.3238615046091247,-0.39250456234122666,-2.153291787532338,0.8647539153680389,2.46587817577521,0.5445020185570556,0.00021101290706269577,-0.000389898672563712,-0.00033631865528610224,8.949471736484635e-06,-0.0001856711401157269,0.0005183604014147851,0.00010414065100074064,0.0,0.0,0.0,0.0,0.0,0.0,0.0,4.747377496006067e-06,1.3697212418339877e-05,-6.641823890818355e-06,3.340871710388882e-06,8.298327865974287e-07,-1.5258789063388178e-06,3.399803634729359e-06,-0.00021101290706269577,0.000389898672563712,0.00033631865528610224,-8.949471736484635e-06,0.0001856711401157269,-0.0005183604014147851,-0.00010414065100074064,0.2998287081718445,34.06295394897461,4.096584796905518,-19.237703323364258,-0.1714988350868225,-1.763614296913147,0.15231649577617645,0
22,0.10460305213928223,-0.2998287081718445,-34.06295394897461,-4.096584796905518,19.237703323364258,0.1714988350868225,1.763614296913147,-0.15231649577617645,0.0,0.0,0.0,0.0,0.0,0.0,0.0,-0.3053999857412125,-0.004463979186892761,-0.5277624335984542,0.21308642551149407,0.11800492957519343,-0.1278175431060618,-0.1543497448509623,1.0544057285165285,0.3238478073967064,-0.39249792051733584,-2.1532951284040482,0.8647530855352523,2.4658797016541163,0.5444986187534209,1.0544104758940245,0.3238615046091247,-0.39250456234122666,-2.153291787532338,0.8647539153680389,2.46587817577521,0.5445020185570556,0.00021101290706269577,-0.000389898672563712,-0.00033631865528610224,8.949471736484635e-06,-0.0001856711401157269,0.0005183604014147851,0.00010414065100074064,0.0,0.0,0.0,0.0,0.0,0.0,0.0,4.747377496006067e-06,1.3697212418339877e-05,-6.641823890818355e-06,3.340871710388882e-06,8.298327865974287e-07,-1.5258789063388178e-06,3.399803634729359e-06,-0.00021101290706269577,0.000389898672563712,0.00033631865528610224,-8.949471736484635e-06,0.0001856711401157269,-0.0005183604014147851,-0.00010414065100074064,0.2998287081718445,34.06295394897461,4.096584796905518,-19.237703323364258,-0.1714988350868225,-1.763614296913147,0.15231649577617645,0
23,0.10961461067199707,-0.3236324191093445,-34.06295394897461,-4.072781085968018,19.213899612426758,0.1769919991493225,1.777347207069397,-0.12485067546367645,0.0,0.0,0.0,0.0,0.0,0.0,0.0,-0.3146928296585483,-0.0023163457679371527,-0.5404657804602203,0.21095290529114097,0.11827692388724813,-0.12713626921376928,-0.1558551792519978,1.0544066535030783,0.3238463695066679,-0.39249959095319115,-2.1532941997148836,0.8647524752020834,2.4658781759367154,0.5444956847331774,1.0544104758940245,0.3238615046091247,-0.39250456234122666,-2.153291787532338,0.8647539153680389,2.46587817577521,0.5445020185570556,-7.854238960487955e-05,-0.00027309261205028026,-0.0005588833574113368,0.0007623028258962182,-0.0001321388741892252,4.493844653771294e-05,-0.0011689325444368501,0.0,0.0,0.0,0.0,0.0,0.0,0.0,3.822390946206511e-06,1.513510245682026e-05,-4.9713880355128914e-06,2.4121825457079638e-06,1.4401659554907909e-06,-1.6150547565985107e-10,6.333823878157396e-06,7.854238960487955e-05,0.00027309261205028026,0.0005588833574113368,-0.0007623028258962182,0.0001321388741892252,-4.493844653771294e-05,0.0011689325444368501,0.3236324191093445,34.06295394897461,4.072781085968018,-19.213899612426758,-0.1769919991493225,-1.777347207069397,0.12485067546367645,0
24,0.11460041999816895,-0.3236324191093445,-34.06295394897461,-4.072781085968018,19.213899612426758,0.1769919991493225,1.777347207069397,-0.12485067546367645,0.0,0.0,0.0,0.0,0.0,0.0,0.0,-0.3146928296585483,-0.0023163457679371527,-0.5404657804602203,0.21095290529114097,0.11827692388724813,-0.12713626921376928,-0.1558551792519978,1.0544066535030783,0.3238463695066679,-0.39249959095319115,-2.1532941997148836,0.8647524752020834,2.4658781759367154,0.5444956847331774,1.0544104758940245,0.3238615046091247,-0.39250456234122666,-2.153291787532338,0.8647539153680389,2.46587817577521,0.5445020185570556,-7.854238960487955e-05,-0.00027309261205028026,-0.0005588833574113368,0.0007623028258962182,-0.0001321388741892252,4.493844653771294e-05,-0.0011689325444368501,0.0,0.0,0.0,0.0,0.0,0.0,0.0,3.822390946206511e-06,1.513510245682026e-05,-4.9713880355128914e-06,2.4121825457079638e-06,1.4401659554907909e-06,-1.6150547565985107e-10,6.333823878157396e-06,7.854238960487955e-05,0.00027309261205028026,0.0005588833574113368,-0.0007623028258962182,0.0001321388741892252,-4.493844653771294e-05,0.0011689325444368501,0.3236324191093445,34.06295394897461,4.072781085968018,-19.213899612426758,-0.1769919991493225,-1.777347207069397,0.12485067546367645,0
25,0.11960077285766602,-0.2998287081718445,-34.03915023803711,-4.124355792999268,19.237703323364258,0.1714988350868225,1.777347207069397,-0.16604940593242645,0.0,0.0,0.0,0.0,0.0,0.0,0.0,-0.31044802330559895,0.010769995044023373,-0.5316054492164113,0.20584953618074794,0.11810567816791158,-0.12804765713122818,-0.15572536457262465,1.05440358537755,0.32384401309599586,-0.3924980975745017,-2.153295128408235,0.8647530855536459,2.465878175829046,0.5445033235473788,1.0544104758940245,0.3238615046091247,-0.39250456234122666,-2.153291787532338,0.8647539153680389,2.46587817577521,0.5445020185570556,-0.0004421626504374714,0.0001102532832154709,0.0007693592420863478,0.00019497333199004622,1.1422647059092921e-05,0.00017739011230032394,0.00016040377282757867,0.0,0.0,0.0,0.0,0.0,0.0,0.0,6.890516474511443e-06,1.749151312885333e-05,-6.464766724945115e-06,3.3408758972619523e-06,8.298143929774682e-07,-5.383604673170339e-11,-1.3049903232476012e-06,0.0004421626504374714,-0.0001102532832154709,-0.0007693592420863478,-0.00019497333199004622,-1.1422647059092921e-05,-0.00017739011230032394,-0.00016040377282757867,0.2998287081718445,34.03915023803711,4.124355792999268,-19.237703323364258,-0.1714988350868225,-1.777347207069397,0.16604940593242645,0
26,0.1246023178100586,-0.2998287081718445,-34.03915023803711,-4.124355792999268,19.237703323364258,0.1714988350868225,1.777347207069397,-0.16604940593242645,0.0,0.0,0.0,0.0,0.0,0.0,0.0,-0.31044802330559895,0.010769995044023373,-0.5316054492164113,0.20584953618074794,0.11810567816791158,-0.12804765713122818,-0.15572536457262465,1.05440358537755,0.32384401309599586,-0.3924980975745017,-2.153295128408235,0.8647530855536459,2.465878175829046,0.5445033235473788,1.0544104758940245,0.3238615046091247,-0.39250456234122666,-2.153291787532338,0.8647539153680389,2.46587817577521,0.5445020185570556,-0.0004421626504374714,0.0001102532832154709,0.0007693592420863478,0.00019497333199004622,1.1422647059092921e-05,0.00017739011230032394,0.00016040377282757867,0.0,0.0,0.0,0.0,0.0,0.0,0.0,6.890516474511443e-06,1.749151312885333e-05,-6.464766724945115e-06,3.3408758972619523e-06,8.298143929774682e-07,-5.383604673170339e-11,-1.3049903232476012e-06,0.0004421626504374714,-0.0001102532832154709,-0.0007693592420863478,-0.00019497333199004622,-1.1422647059092921e-05,-0.00017739011230032394,-0.00016040377282757867,0.2998287081718445,34.03915023803711,4.124355792999268,-19.237703323364258,-0.1714988350868225,-1.777347207069397,0.16604940593242645,0
27,0.12959694862365723,-0.3236324191093445,-34.06295394897461,-4.096584796905518,19.213899612426758,0.1769919991493225,1.770938515663147,-0.14590780436992645,0.0,0.0,0.0,0.0,0.0,0.0,0.0,-0.3135744422494865,-0.0018777159338061412,-0.5341303236117159,0.21422593156393346,0.11845513042051671,-0.12675508017459403,-0.15605804605057955,1.0544045872316208,0.32384806480666933,-0.3924979205293366,-2.1532934579681933,0.8647524752020834,2.465878887852033,0.544497908632609,1.0544104758940245,0.3238615046091247,-0.39250456234122666,-2.153291787532338,0.8647539153680389,2.46587817577521,0.5445020185570556,-9.444779666544508e-06,-0.0005382103123923231,5.658350782011769e-05,0.0008233322440972742,0.009419000944917502,0.00030240468119339345,-0.0007561709453728704,0.0,0.0,0.0,0.0,0.0,0.0,0.0,5.888662403696898e-06,1.3439802455383898e-05,-6.641811890084615e-06,1.6704358554164855e-06,1.4401659554907909e-06,-7.120768228396912e-07,4.109924446549229e-06,9.444779666544508e-06,0.0005382103123923231,-5.658350782011769e-05,-0.0008233322440972742,-0.009419000944917502,-0.00030240468119339345,0.0007561709453728704,0.3236324191093445,34.06295394897461,4.096584796905518,-19.213899612426758,-0.1769919991493225,-1.770938515663147,0.14590780436992645,0
28,0.13459992408752441,-0.3236324191093445,-34.06295394897461,-4.096584796905518,19.213899612426758,0.1769919991493225,1.770938515663147,-0.14590780436992645,0.0,0.0,0.0,0.0,0.0,0.0,0.0,-0.3135744422494865,-0.0018777159338061412,-0.5341303236117159,0.21422593156393346,0.11845513042051671,-0.12675508017459403,-0.15605804605057955,1.0544045872316208,0.32384806480666933,-0.3924979205293366,-2.1532934579681933,0.8647524752020834,2.465878887852033,0.544497908632609,1.0544104758940245,0.3238615046091247,-0.39250456234122666,-2.153291787532338,0.8647539153680389,2.46587817577521,0.5445020185570556,-9.444779666544508e-06,-0.0005382103123923231,5.658350782011769e-05,0.0008233322440972742,0.009419000944917502,0.00030240468119339345,-0.0007561709453728704,0.0,0.0,0.0,0.0,0.0,0.0,0.0,5.888662403696898e-06,1.3439802455383898e-05,-6.641811890084615e-06,1.6704358554164855e-06,1.4401659554907909e-06,-7.120768228396912e-07,4.109924446549229e-06,9.444779666544508e-06,0.0005382103123923231,-5.658350782011769e-05,-0.0008233322440972742,-0.009419000944917502,-0.00030240468119339345,0.0007561709453728704,0.3236324191093445,34.06295394897461,4.096584796905518,-19.213899612426758,-0.1769919991493225,-1.770938515663147,0.14590780436992645,0
29,0.13959980010986328,-0.3236324191093445,-34.06295394897461,-4.096584796905518,19.261507034301758,0.1714988350868225,1.783755898475647,-0.20083944499492645,0.0,0.0,0.0,0.0,0.0,0.0,0.0,-0.31113348192090967,0.011862138050339845,-0.5304389965084011,0.20828825961380798,0.11809683680614998,-0.127492085843097,-0.15673787608917436,1.0544066502678613,0.3238459033545571,-0.39249792926589144,-2.1532967988399037,0.8647530855536459,2.4658775029442435,0.5445040494380897,1.0544104758940245,0.3238615046091247,-0.39250456234122666,-2.153291787532338,0.8647539153680389,2.46587817577521,0.5445020185570556,0.0006018912594233831,0.00011157304376685968,-0.00013146950815991315,-0.0005613341539512938,0.0005365634848013478,-3.7171142781779246e-05,0.0015690614897909724,0.0,0.0,0.0,0.0,0.0,0.0,0.0,3.82562616318971e-06,1.560125456762096e-05,-6.6330753352161764e-06,5.011307565805367e-06,8.298143929774682e-07,6.728309664971732e-07,-2.030881034120746e-06,-0.0006018912594233831,-0.00011157304376685968,0.00013146950815991315,0.0005613341539512938,-0.0005365634848013478,3.7171142781779246e-05,-0.0015690614897909724,0.3236324191093445,34.06295394897461,4.096584796905518,-19.261507034301758,-0.1714988350868225,-1.783755898475647,0.20083944499492645,0
30,0.14461517333984375,-0.3236324191093445,-34.06295394897461,-4.096584796905518,19.261507034301758,0.1714988350868225,1.783755898475647,-0.20083944499492645,0.0,0.0,0.0,0.0,0.0,0.0,0.0,-0.31113348192090967,0.011862138050339845,-0.5304389965084011,0.20828825961380798,0.11809683680614998,-0.127492085843097,-0.15673787608917436,1.0544066502678613,0.3238459033545571,-0.39249792926589144,-2.1532967988399037,0.8647530855536459,2.4658775029442435,0.5445040494380897,1.0544104758940245,0.3238615046091247,-0.39250456234122666,-2.153291787532338,0.8647539153680389,2.46587817577521,0.5445020185570556,0.0006018912594233831,0.00011157304376685968,-0.00013146950815991315,-0.0005613341539512938,0.0005365634848013478,-3.7171142781779246e-05,0.0015690614897909724,0.0,0.0,0.0,0.0,0.0,0.0,0.0,3.82562616318971e-06,1.560125456762096e-05,-6.6330753352161764e-06,5.011307565805367e-06,8.298143929774682e-07,6.728309664971732e-07,-2.030881034120746e-06,-0.0006018912594233831,-0.00011157304376685968,0.00013146950815991315,0.0005613341539512938,-0.0005365634848013478,3.7171142781779246e-05,-0.0015690614897909724,0.3236324191093445,34.06295394897461,4.096584796905518,-19.261507034301758,-0.1714988350868225,-1.783755898475647,0.20083944499492645,0
31,0.14961528778076172,-0.3236324191093445,-34.06295394897461,-4.096584796905518,19.261507034301758,0.1769919991493225,1.770938515663147,-0.18710653483867645,0.0,0.0,0.0,0.0,0.0,0.0,0.0,-0.3230130827842996,0.003178733590518337,-0.5425719388460065,0.21071745601036668,0.11928715828191869,-0.12592889638268903,-0.15667532505227177,1.0544046614243903,0.3238478338751149,-0.3924979205173852,-2.1532967988399037,0.8647524752020834,2.4658788893058046,0.544502523559394,1.0544104758940245,0.3238615046091247,-0.39250456234122666,-2.153291787532338,0.8647539153680389,2.46587817577521,0.5445020185570556,-3.716132738065771e-05,-0.0005427495800541117,-0.0002645791269792196,-0.0005874037562633242,-6.266362615141177e-05,0.00021059618593067953,0.0013621161961217135,0.0,0.0,0.0,0.0,0.0,0.0,0.0,5.814469634213282e-06,1.3670734009818553e-05,-6.641823841468941e-06,5.011307565805367e-06,1.4401659554907909e-06,-7.13530594609324e-07,-5.050023383912361e-07,3.716132738065771e-05,0.0005427495800541117,0.0002645791269792196,0.0005874037562633242,6.266362615141177e-05,-0.00021059618593067953,-0.0013621161961217135,0.3236324191093445,34.06295394897461,4.096584796905518,-19.261507034301758,-0.1769919991493225,-1.770938515663147,0.18710653483867645,0
32,0.15459871292114258,-0.3236324191093445,-34.06295394897461,-4.096584796905518,19.261507034301758,0.1769919991493225,1.770938515663147,-0.18710653483867645,0.0,0.0,0.0,0.0,0.0,0.0,0.0,-0.3230130827842996,0.003178733590518337,-0.5425719388460065,0.21071745601036668,0.11928715828191869,-0.12592889638268903,-0.15667532505227177,1.0544046614243903,0.3238478338751149,-0.3924979205173852,-2.1532967988399037,0.8647524752020834,2.4658788893058046,0.544502523559394,1.0544104758940245,0.3238615046091247,-0.39250456234122666,-2.153291787532338,0.8647539153680389,2.46587817577521,0.5445020185570556,-3.716132738065771e-05,-0.0005427495800541117,-0.0002645791269792196,-0.0005874037562633242,-6.266362615141177e-05,0.00021059618593067953,0.0013621161961217135,0.0,0.0,0.0,0.0,0.0,0.0,0.0,5.814469634213282e-06,1.3670734009818553e-05,-6.641823841468941e-06,5.011307565805367e-06,1.4401659554907909e-06,-7.13530594609324e-07,-5.050023383912361e-07,3.716132738065771e-05,0.0005427495800541117,0.0002645791269792196,0.0005874037562633242,6.266362615141177e-05,-0.00021059618593067953,-0.0013621161961217135,0.3236324191093445,34.06295394897461,4.096584796905518,-19.261507034301758,-0.1769919991493225,-1.770938515663147,0.18710653483867645,0
33,0.15963292121887207,-0.3236324191093445,-34.06295394897461,-4.096584796905518,19.261507034301758,0.1769919991493225,1.770938515663147,-0.18710653483867645,0.0,0.0,0.0,0.0,0.0,0.0,0.0,-0.3230130827842996,0.003178733590518337,-0.5425719388460065,0.21071745601036668,0.11928715828191869,-0.12592889638268903,-0.15667532505227177,1.0544046614243903,0.3238478338751149,-0.3924979205173852,-2.1532967988399037,0.8647524752020834,2.4658788893058046,0.544502523559394,1.0544104758940245,0.3238615046091247,-0.39250456234122666,-2.153291787532338,0.8647539153680389,2.46587817577521,0.5445020185570556,-3.716132738065771e-05,-0.0005427495800541117,-0.0002645791269792196,-0.0005874037562633242,-6.266362615141177e-05,0.00021059618593067953,0.0013621161961217135,0.0,0.0,0.0,0.0,0.0,0.0,0.0,5.814469634213282e-06,1.3670734009818553e-05,-6.641823841468941e-06,5.011307565805367e-06,1.4401659554907909e-06,-7.13530594609324e-07,-5.050023383912361e-07,3.716132738065771e-05,0.0005427495800541117,0.0002645791269792196,0.0005874037562633242,6.266362615141177e-05,-0.00021059618593067953,-0.0013621161961217135,0.3236324191093445,34.06295394897461,4.096584796905518,-19.261507034301758,-0.1769919991493225,-1.770938515663147,0.18710653483867645,0
34,0.16465067863464355,-0.3236324191093445,-34.06295394897461,-4.096584796905518,19.261507034301758,0.1769919991493225,1.770938515663147,-0.18710653483867645,0.0,0.0,0.0,0.0,0.0,0.0,0.0,-0.3230130827842996,0.003178733590518337,-0.5425719388460065,0.21071745601036668,0.11928715828191869,-0.12592889638268903,-0.15667532505227177,1.0544046614243903,0.3238478338751149,-0.3924979205173852,-2.1532967988399037,0.8647524752020834,2.4658788893058046,0.544502523559394,1.0544104758940245,0.3238615046091247,-0.39250456234122666,-2.153291787532338,0.8647539153680389,2.46587817577521,0.5445020185570556,-3.716132738065771e-05,-0.0005427495800541117,-0.0002645791269792196,-0.0005874037562633242,-6.266362615141177e-05,0.00021059618593067953,0.0013621161961217135,0.0,0.0,0.0,0.0,0.0,0.0,0.0,5.814469634213282e-06,1.3670734009818553e-05,-6.641823841468941e-06,5.011307565805367e-06,1.4401659554907909e-06,-7.13530594609324e-07,-5.050023383912361e-07,3.716132738065771e-05,0.0005427495800541117,0.0002645791269792196,0.0005874037562633242,6.266362615141177e-05,-0.00021059618593067953,-0.0013621161961217135,0.3236324191093445,34.06295394897461,4.096584796905518,-19.261507034301758,-0.1769919991493225,-1.770938515663147,0.18710653483867645,0
35,0.16966867446899414,-0.2998287081718445,-34.03915023803711,-4.072781085968018,19.289278030395508,0.1769919991493225,1.783755898475647,-0.11111776530742645,0.0,0.0,0.0,0.0,0.0,0.0,0.0,-0.306869004347805,0.013346303476260497,-0.529187598305334,0.20671460029673255,0.11904875081616122,-0.1282317534683608,-0.15662725356980542,1.0544049547075398,0.3238449667785787,-0.39249959095319115,-2.1532987476817347,0.8647524752020834,2.465877463698395,0.5444940411169227,1.0544104758940245,0.3238615046091247,-0.39250456234122666,-2.153291787532338,0.8647539153680389,2.46587817577521,0.5445020185570556,-5.8874651162010284e-05,-0.00033691631226550933,-0.000625289017682353,-0.001057259746916802,-9.220531406537709e-05,-0.0006526807480717251,-0.0009485824280139931,0.0,0.0,0.0,0.0,0.0,0.0,0.0,5.5211864846693715e-06,1.6537830546003995e-05,-4.9713880355128914e-06,6.960149396828541e-06,1.4401659554907909e-06,7.120768148460854e-07,7.977440132922453e-06,5.8874651162010284e-05,0.00033691631226550933,0.000625289017682353,0.001057259746916802,9.220531406537709e-05,0.0006526807480717251,0.0009485824280139931,0.2998287081718445,34.03915023803711,4.072781085968018,-19.289278030395508,-0.1769919991493225,-1.783755898475647,0.11111776530742645,0
36,0.17463254928588867,-0.2998287081718445,-34.03915023803711,-4.072781085968018,19.289278030395508,0.1769919991493225,1.783755898475647,-0.11111776530742645,0.0,0.0,0.0,0.0,0.0,0.0,0.0,-0.306869004347805,0.013346303476260497,-0.529187598305334,0.20671460029673255,0.11904875081616122,-0.1282317534683608,-0.15662725356980542,1.0544049547075398,0.3238449667785787,-0.39249959095319115,-2.1532987476817347,0.8647524752020834,2.465877463698395,0.5444940411169227,1.0544104758940245,0.3238615046091247,-0.39250456234122666,-2.153291787532338,0.8647539153680389,2.46587817577521,0.5445020185570556,-5.8874651162010284e-05,-0.00033691631226550933,-0.000625289017682353,-0.001057259746916802,-9.220531406537709e-05,-0.0006526807480717251,-0.0009485824280139931,0.0,0.0,0.0,0.0,0.0,0.0,0.0,5.5211864846693715e-06,1.6537830546003995e-05,-4.9713880355128914e-06,6.960149396828541e-06,1.4401659554907909e-06,7.120768148460854e-07,7.977440132922453e-06,5.8874651162010284e-05,0.00033691631226550933,0.000625289017682353,0.001057259746916802,9.220531406537709e-05,0.0006526807480717251,0.0009485824280139931,0.2998287081718445,34.03915023803711,4.072781085968018,-19.289278030395508,-0.1769919991493225,-1.783755898475647,0.11111776530742645,0
37,0.17961549758911133,-0.3752071261405945,-34.06295394897461,-4.096584796905518,19.213899612426758,0.1650901436805725,1.770938515663147,-0.13217489421367645,0.0,0.0,0.0,0.0,0.0,0.0,0.0,-0.32114869164593285,0.003122316192287115,-0.5450557889050127,0.20974697746546317,0.11984443669834093,-0.12701647358545703,-0.15505430597703818,1.0544110134006233,0.3238480409374901,-0.39249792051733584,-2.1532934579681933,0.8647537976304689,2.465878887852033,0.5444963807976908,1.0544104758940245,0.3238615046091247,-0.39250456234122666,-2.153291787532338,0.8647539153680389,2.46587817577521,0.5445020185570556,0.0012325631954886584,-0.0002364996452734047,-0.0002150916734898524,0.0006666998953945297,0.0002611566114491612,0.00035316163148332283,-0.0011899027824676784,0.0,0.0,0.0,0.0,0.0,0.0,0.0,-5.375065987855976e-07,1.3463671634628138e-05,-6.641823890818355e-06,1.6704358554164855e-06,1.1773757002675467e-07,-7.120768228396912e-07,5.637759364796047e-06,-0.0012325631954886584,0.0002364996452734047,0.0002150916734898524,-0.0006666998953945297,-0.0002611566114491612,-0.00035316163148332283,0.0011899027824676784,0.3752071261405945,34.06295394897461,4.096584796905518,-19.213899612426758,-0.1650901436805725,-1.770938515663147,0.13217489421367645,0
38,0.18461894989013672,-0.3752071261405945,-34.06295394897461,-4.096584796905518,19.213899612426758,0.1650901436805725,1.770938515663147,-0.13217489421367645,0.0,0.0,0.0,0.0,0.0,0.0,0.0,-0.32114869164593285,0.003122316192287115,-0.5450557889050127,0.20974697746546317,0.11984443669834093,-0.12701647358545703,-0.15505430597703818,1.0544110134006233,0.3238480409374901,-0.39249792051733584,-2.1532934579681933,0.8647537976304689,2.465878887852033,0.5444963807976908,1.0544104758940245,0.3238615046091247,-0.39250456234122666,-2.153291787532338,0.8647539153680389,2.46587817577521,0.5445020185570556,0.0012325631954886584,-0.0002364996452734047,-0.0002150916734898524,0.0006666998953945297,0.0002611566114491612,0.00035316163148332283,-0.0011899027824676784,0.0,0.0,0.0,0.0,0.0,0.0,0.0,-5.375065987855976e-07,1.3463671634628138e-05,-6.641823890818355e-06,1.6704358554164855e-06,1.1773757002675467e-07,-7.120768228396912e-07,5.637759364796047e-06,-0.0012325631954886584,0.0002364996452734047,0.0002150916734898524,-0.0006666998953945297,-0.0002611566114491612,-0.00035316163148332283,0.0011899027824676784,0.3752071261405945,34.06295394897461,4.096584796905518,-19.213899612426758,-0.1650901436805725,-1.770938515663147,0.13217489421367645,0
39,0.18961691856384277,-0.3236324191093445,-34.06295394897461,-4.124355792999268,19.162324905395508,0.1769919991493225,1.783755898475647,-0.16604940593242645,0.0,0.0,0.0,0.0,0.0,0.0,0.0,-0.3089649472935609,0.007572215861448393,-0.5338011238546719,0.20782694260128393,0.11871509326996693,-0.12828887913800774,-0.15566651793361655,1.0544045616289062,0.3238478103396676,-0.3924959716755047,-2.153289838690507,0.8647524752020834,2.465877463698387,0.5445001446323262,1.0544104758940245,0.3238615046091247,-0.39250456234122666,-2.153291787532338,0.8647539153680389,2.46587817577521,0.5445020185570556,0.0004676119905256913,-0.00010536973211037096,0.0007149045123845121,0.001450280583998397,-0.00023978431486438743,-0.00028281130196498335,0.00026012998940437386,0.0,0.0,0.0,0.0,0.0,0.0,0.0,5.9142651183119455e-06,1.3694269457131814e-05,-8.59066572195255e-06,-1.9488418310231737e-06,1.4401659554907909e-06,7.120768228396912e-07,1.873924729389742e-06,-0.0004676119905256913,0.00010536973211037096,-0.0007149045123845121,-0.001450280583998397,0.00023978431486438743,0.00028281130196498335,-0.00026012998940437386,0.3236324191093445,34.06295394897461,4.124355792999268,-19.162324905395508,-0.1769919991493225,-1.783755898475647,0.16604940593242645,0
40,0.19461393356323242,-0.3236324191093445,-34.06295394897461,-4.124355792999268,19.162324905395508,0.1769919991493225,1.783755898475647,-0.16604940593242645,0.0,0.0,0.0,0.0,0.0,0.0,0.0,-0.3089649472935609,0.007572215861448393,-0.5338011238546719,0.20782694260128393,0.11871509326996693,-0.12828887913800774,-0.15566651793361655,1.0544045616289062,0.3238478103396676,-0.3924959716755047,-2.153289838690507,0.8647524752020834,2.465877463698387,0.5445001446323262,1.0544104758940245,0.3238615046091247,-0.39250456234122666,-2.153291787532338,0.8647539153680389,2.46587817577521,0.5445020185570556,0.0004676119905256913,-0.00010536973211037096,0.0007149045123845121,0.001450280583998397,-0.00023978431486438743,-0.00028281130196498335,0.00026012998940437386,0.0,0.0,0.0,0.0,0.0,0.0,0.0,5.9142651183119455e-06,1.3694269457131814e-05,-8.59066572195255e-06,-1.9488418310231737e-06,1.4401659554907909e-06,7.120768228396912e-07,1.873924729389742e-06,-0.0004676119905256913,0.00010536973211037096,-0.0007149045123845121,-0.001450280583998397,0.00023978431486438743,0.00028281130196498335,-0.00026012998940437386,0.3236324191093445,34.06295394897461,4.124355792999268,-19.162324905395508,-0.1769919991493225,-1.783755898475647,0.16604940593242645,0
41,0.19961071014404297,-0.2998287081718445,-34.06295394897461,-4.096584796905518,19.261507034301758,0.1769919991493225,1.777347207069397,-0.18710653483867645,0.0,0.0,0.0,0.0,0.0,0.0,0.0,-0.31219297263320406,0.007906473677474374,-0.5352490724591841,0.20769311014498257,0.11845343391525841,-0.12799132281002062,-0.1553031939119815,1.0544029174217187,0.3238480489023,-0.39249792051733584,-2.1532967988399037,0.864752475363589,2.46587817577521,0.5445028418866763,1.0544104758940245,0.3238615046091247,-0.39250456234122666,-2.153291787532338,0.8647539153680389,2.46587817577521,0.5445020185570556,-0.0006356834601616289,0.0002806814830718559,0.00027680286274985006,-0.000537354632879494,-0.0002465137537071719,6.531444058425985e-05,0.0019331992068914291,0.0,0.0,0.0,0.0,0.0,0.0,0.0,7.558472305824182e-06,1.3455706824705427e-05,-6.641823890818355e-06,5.011307565805367e-06,1.4400044499041087e-06,0.0,-8.233296207027507e-07,0.0006356834601616289,-0.0002806814830718559,-0.00027680286274985006,0.000537354632879494,0.0002465137537071719,-6.531444058425985e-05,-0.0019331992068914291,0.2998287081718445,34.06295394897461,4.096584796905518,-19.261507034301758,-0.1769919991493225,-1.777347207069397,0.18710653483867645,0
42,0.20465087890625,-0.2998287081718445,-34.06295394897461,-4.096584796905518,19.261507034301758,0.1769919991493225,1.777347207069397,-0.18710653483867645,0.0,0.0,0.0,0.0,0.0,0.0,0.0,-0.31219297263320406,0.007906473677474374,-0.5352490724591841,0.20769311014498257,0.11845343391525841,-0.12799132281002062,-0.1553031939119815,1.0544029174217187,0.3238480489023,-0.39249792051733584,-2.1532967988399037,0.864752475363589,2.46587817577521,0.5445028418866763,1.0544104758940245,0.3238615046091247,-0.39250456234122666,-2.153291787532338,0.8647539153680389,2.46587817577521,0.5445020185570556,-0.0006356834601616289,0.0002806814830718559,0.00027680286274985006,-0.000537354632879494,-0.0002465137537071719,6.531444058425985e-05,0.0019331992068914291,0.0,0.0,0.0,0.0,0.0,0.0,0.0,7.558472305824182e-06,1.3455706824705427e-05,-6.641823890818355e-06,5.011307565805367e-06,1.4400044499041087e-06,0.0,-8.233296207027507e-07,0.0006356834601616289,-0.0002806814830718559,-0.00027680286274985006,0.000537354632879494,0.0002465137537071719,-6.531444058425985e-05,-0.0019331992068914291,0.2998287081718445,34.06295394897461,4.096584796905518,-19.261507034301758,-0.1769919991493225,-1.777347207069397,0.18710653483867645,0
43,0.20961713790893555,-0.2998287081718445,-34.09072494506836,-4.096584796905518,19.289278030395508,0.1714988350868225,1.783755898475647,-0.11111776530742645,0.0,0.0,0.0,0.0,0.0,0.0,0.0,-0.31808798863305987,0.005787235696396807,-0.5368524150095592,0.20959755204196281,0.11856391939001208,-0.12728138529933272,-0.15447060902739626,1.0544029684064875,0.3238479463500156,-0.39249792051733584,-2.1532987476817347,0.8647530855536469,2.465877463698387,0.5444943957849797,1.0544104758940245,0.3238615046091247,-0.39250456234122666,-2.153291787532338,0.8647539153680389,2.46587817577521,0.5445020185570556,-0.00020742766009802422,0.0007071988912387314,-0.0002349364924379418,-0.0009840067438108883,9.278043801478903e-06,-0.00023291777955864395,-0.0011686328977094523,0.0,0.0,0.0,0.0,0.0,0.0,0.0,7.5074875369729455e-06,1.3558259109092141e-05,-6.641823890818355e-06,6.960149396828541e-06,8.298143919782675e-07,7.120768228396912e-07,7.622772075888129e-06,0.00020742766009802422,-0.0007071988912387314,0.0002349364924379418,0.0009840067438108883,-9.278043801478903e-06,0.00023291777955864395,0.0011686328977094523,0.2998287081718445,34.09072494506836,4.096584796905518,-19.289278030395508,-0.1714988350868225,-1.783755898475647,0.11111776530742645,0
44,0.21466660499572754,-0.2998287081718445,-34.09072494506836,-4.096584796905518,19.289278030395508,0.1714988350868225,1.783755898475647,-0.11111776530742645,0.0,0.0,0.0,0.0,0.0,0.0,0.0,-0.31808798863305987,0.005787235696396807,-0.5368524150095592,0.20959755204196281,0.11856391939001208,-0.12728138529933272,-0.15447060902739626,1.0544029684064875,0.3238479463500156,-0.39249792051733584,-2.1532987476817347,0.8647530855536469,2.465877463698387,0.5444943957849797,1.0544104758940245,0.3238615046091247,-0.39250456234122666,-2.153291787532338,0.8647539153680389,2.46587817577521,0.5445020185570556,-0.00020742766009802422,0.0007071988912387314,-0.0002349364924379418,-0.0009840067438108883,9.278043801478903e-06,-0.00023291777955864395,-0.0011686328977094523,0.0,0.0,0.0,0.0,0.0,0.0,0.0,7.5074875369729455e-06,1.3558259109092141e-05,-6.641823890818355e-06,6.960149396828541e-06,8.298143919782675e-07,7.120768228396912e-07,7.622772075888129e-06,0.00020742766009802422,-0.0007071988912387314,0.0002349364924379418,0.0009840067438108883,-9.278043801478903e-06,0.00023291777955864395,0.0011686328977094523,0.2998287081718445,34.09072494506836,4.096584796905518,-19.289278030395508,-0.1714988350868225,-1.783755898475647,0.11111776530742645,0
45,0.21962237358093262,-0.3514034152030945,-34.09072494506836,-4.096584796905518,19.261507034301758,0.1714988350868225,1.790164589881897,-0.10470907390117645,0.0,0.0,0.0,0.0,0.0,0.0,0.0,-0.31592918848181256,0.00710631938348768,-0.5343959405138199,0.21115494686746106,0.11810717611296388,-0.12735329382920946,-0.15278365811571368,1.054408815470938,0.3238507285426226,-0.39249792051733584,-2.153296826312003,0.8647530899142968,2.4658767516215643,0.5444936823084254,1.0544104758940245,0.3238615046091247,-0.39250456234122666,-2.153291787532338,0.8647539153680389,2.46587817577521,0.5445020185570556,0.0008173080627747727,0.0006100930958716014,0.0001824918327530852,-0.00037116791523899494,9.396138804820744e-05,-0.00042259809473520264,-0.0020530415631893327,0.0,0.0,0.0,0.0,0.0,0.0,0.0,1.6604230865802094e-06,1.0776066502127257e-05,-6.641823890818355e-06,5.038779665067494e-06,8.2545374213705e-07,1.4241536456793824e-06,8.336248630169685e-06,-0.0008173080627747727,-0.0006100930958716014,-0.0001824918327530852,0.00037116791523899494,-9.396138804820744e-05,0.00042259809473520264,0.0020530415631893327,0.3514034152030945,34.09072494506836,4.096584796905518,-19.261507034301758,-0.1714988350868225,-1.790164589881897,0.10470907390117645,0
46,0.22460079193115234,-0.3514034152030945,-34.09072494506836,-4.096584796905518,19.261507034301758,0.1714988350868225,1.790164589881897,-0.10470907390117645,0.0,0.0,0.0,0.0,0.0,0.0,0.0,-0.31592918848181256,0.00710631938348768,-0.5343959405138199,0.21115494686746106,0.11810717611296388,-0.12735329382920946,-0.15278365811571368,1.054408815470938,0.3238507285426226,-0.39249792051733584,-2.153296826312003,0.8647530899142968,2.4658767516215643,0.5444936823084254,1.0544104758940245,0.3238615046091247,-0.39250456234122666,-2.153291787532338,0.8647539153680389,2.46587817577521,0.5445020185570556,0.0008173080627747727,0.0006100930958716014,0.0001824918327530852,-0.00037116791523899494,9.396138804820744e-05,-0.00042259809473520264,-0.0020530415631893327,0.0,0.0,0.0,0.0,0.0,0.0,0.0,1.6604230865802094e-06,1.0776066502127257e-05,-6.641823890818355e-06,5.038779665067494e-06,8.2545374213705e-07,1.4241536456793824e-06,8.336248630169685e-06,-0.0008173080627747727,-0.0006100930958716014,-0.0001824918327530852,0.00037116791523899494,-9.396138804820744e-05,0.00042259809473520264,0.0020530415631893327,0.3514034152030945,34.09072494506836,4.096584796905518,-19.261507034301758,-0.1714988350868225,-1.790164589881897,0.10470907390117645,0
47,0.22961139678955078,-0.2998287081718445,-34.03915023803711,-4.124355792999268,19.237703323364258,0.1769919991493225,1.777347207069397,-0.14590780436992645,0.0,0.0,0.0,0.0,0.0,0.0,0.0,-0.3136285438896736,0.008540978403285604,-0.5328473727133652,0.21148746231488674,0.11811312991887164,-0.1272922582412301,-0.1523617740632058,1.0544032200881175,0.32384615596971295,-0.3924959716755047,-2.1532951284042032,0.8647524752021081,2.4658782150210663,0.5444979066785912,1.0544104758940245,0.3238615046091247,-0.39250456234122666,-2.153291787532338,0.8647539153680389,2.46587817577521,0.5445020185570556,-0.00016607162009717316,-0.00039069601708501103,0.0006579095919295134,0.00011484323587181985,0.00013044063297692847,-0.00018999546828132725,-4.7744315508772844e-05,0.0,0.0,0.0,0.0,0.0,0.0,0.0,7.255805906991597e-06,1.534863941177189e-05,-8.59066572195255e-06,3.340871865376016e-06,1.4401659308438397e-06,-3.924585634251798e-08,4.111878464385654e-06,0.00016607162009717316,0.00039069601708501103,-0.0006579095919295134,-0.00011484323587181985,-0.00013044063297692847,0.00018999546828132725,4.7744315508772844e-05,0.2998287081718445,34.03915023803711,4.124355792999268,-19.237703323364258,-0.1769919991493225,-1.777347207069397,0.14590780436992645,0
48,0.23461413383483887,-0.2998287081718445,-34.03915023803711,-4.124355792999268,19.237703323364258,0.1769919991493225,1.777347207069397,-0.14590780436992645,0.0,0.0,0.0,0.0,0.0,0.0,0.0,-0.3136285438896736,0.008540978403285604,-0.5328473727133652,0.21148746231488674,0.11811312991887164,-0.1272922582412301,-0.1523617740632058,1.0544032200881175,0.32384615596971295,-0.3924959716755047,-2.1532951284042032,0.8647524752021081,2.4658782150210663,0.5444979066785912,1.0544104758940245,0.3238615046091247,-0.39250456234122666,-2.153291787532338,0.8647539153680389,2.46587817577521,0.5445020185570556,-0.00016607162009717316,-0.00039069601708501103,0.0006579095919295134,0.00011484323587181985,0.00013044063297692847,-0.00018999546828132725,-4.7744315508772844e-05,0.0,0.0,0.0,0.0,0.0,0.0,0.0,7.255805906991597e-06,1.534863941177189e-05,-8.59066572195255e-06,3.340871865376016e-06,1.4401659308438397e-06,-3.924585634251798e-08,4.111878464385654e-06,0.00016607162009717316,0.00039069601708501103,-0.0006579095919295134,-0.00011484323587181985,-0.00013044063297692847,0.00018999546828132725,4.7744315508772844e-05,0.2998287081718445,34.03915023803711,4.124355792999268,-19.237703323364258,-0.1769919991493225,-1.777347207069397,0.14590780436992645,0
49,0.23960375785827637,-0.3236324191093445,-34.01534652709961,-4.096584796905518,19.213899612426758,0.1650901436805725,1.777347207069397,-0.17337362468242645,0.0,0.0,0.0,0.0,0.0,0.0,0.0,-0.31936524084740586,0.0037869233331433287,-0.5405848657904203,0.21206349333959304,0.11932984088105268,-0.1268887501393442,-0.152355681502119,1.0544047908531058,0.3238423207924337,-0.3924979467630024,-2.1532934854402925,0.864753797630469,2.465878175775431,0.5445009627950603,1.0544104758940245,0.3238615046091247,-0.39250456234122666,-2.153291787532338,0.8647539153680389,2.46587817577521,0.5445020185570556,0.00046395236019417376,-0.0013124608802814507,-0.00044040800849640203,0.0008382854047119784,0.00030967331223888487,-2.526729090269752e-05,0.0010163170374784345,0.0,0.0,0.0,0.0,0.0,0.0,0.0,5.685040918690376e-06,1.9183816691026312e-05,-6.6155782242338645e-06,1.6979079546786124e-06,1.1773756991573237e-07,-2.2115642650533118e-13,1.055761995272242e-06,-0.00046395236019417376,0.0013124608802814507,0.00044040800849640203,-0.0008382854047119784,-0.00030967331223888487,2.526729090269752e-05,-0.0010163170374784345,0.3236324191093445,34.01534652709961,4.096584796905518,-19.213899612426758,-0.1650901436805725,-1.777347207069397,0.17337362468242645,0
50,0.24460792541503906,-0.3236324191093445,-34.01534652709961,-4.096584796905518,19.213899612426758,0.1650901436805725,1.777347207069397,-0.17337362468242645,0.0,0.0,0.0,0.0,0.0,0.0,0.0,-0.31936524084740586,0.0037869233331433287,-0.5405848657904203,0.21206349333959304,0.11932984088105268,-0.1268887501393442,-0.152355681502119,1.0544047908531058,0.3238423207924337,-0.3924979467630024,-2.1532934854402925,0.864753797630469,2.465878175775431,0.5445009627950603,1.0544104758940245,0.3238615046091247,-0.39250456234122666,-2.153291787532338,0.8647539153680389,2.46587817577521,0.5445020185570556,0.00046395236019417376,-0.0013124608802814507,-0.00044040800849640203,0.0008382854047119784,0.00030967331223888487,-2.526729090269752e-05,0.0010163170374784345,0.0,0.0,0.0,0.0,0.0,0.0,0.0,5.685040918690376e-06,1.9183816691026312e-05,-6.6155782242338645e-06,1.6979079546786124e-06,1.1773756991573237e-07,-2.2115642650533118e-13,1.055761995272242e-06,-0.00046395236019417376,0.0013124608802814507,0.00044040800849640203,-0.0008382854047119784,-0.00030967331223888487,2.526729090269752e-05,-0.0010163170374784345,0.3236324191093445,34.01534652709961,4.096584796905518,-19.213899612426758,-0.1650901436805725,-1.777347207069397,0.17337362468242645,0
51,0.2496051788330078,-0.3236324191093445,-34.09072494506836,-4.072781085968018,19.261507034301758,0.1650901436805725,1.790164589881897,-0.15231649577617645,0.0,0.0,0.0,0.0,0.0,0.0,0.0,-0.3108481282833668,0.004581142105061503,-0.5349391807935148,0.2123909247346697,0.11915905401326117,-0.1278415877801983,-0.15227407016570768,1.054404867836871,0.3238485641317329,-0.39249959095333925,-2.1532968812563573,0.864753797630469,2.465876869359134,0.5444996798451242,1.0544104758940245,0.3238615046091247,-0.39250456234122666,-2.153291787532338,0.8647539153680389,2.46587817577521,0.5445020185570556,0.00010426202918298171,0.0006934702244923004,-0.0005150569701428049,-0.00022848290020935558,0.0003067759339229186,-0.0004429328354288034,7.195549738850122e-05,0.0,0.0,0.0,0.0,0.0,0.0,0.0,5.60805715354995e-06,1.294047739180959e-05,-4.97138788740914e-06,5.093724019467061e-06,1.1773756991573237e-07,1.30641607576365e-06,2.338711931448856e-06,-0.00010426202918298171,-0.0006934702244923004,0.0005150569701428049,0.00022848290020935558,-0.0003067759339229186,0.0004429328354288034,-7.195549738850122e-05,0.3236324191093445,34.09072494506836,4.072781085968018,-19.261507034301758,-0.1650901436805725,-1.790164589881897,0.15231649577617645,0
52,0.2546677589416504,-0.3236324191093445,-34.09072494506836,-4.072781085968018,19.261507034301758,0.1650901436805725,1.790164589881897,-0.15231649577617645,0.0,0.0,0.0,0.0,0.0,0.0,0.0,-0.3108481282833668,0.004581142105061503,-0.5349391807935148,0.2123909247346697,0.11915905401326117,-0.1278415877801983,-0.15227407016570768,1.054404867836871,0.3238485641317329,-0.39249959095333925,-2.1532968812563573,0.864753797630469,2.465876869359134,0.5444996798451242,1.0544104758940245,0.3238615046091247,-0.39250456234122666,-2.153291787532338,0.8647539153680389,2.46587817577521,0.5445020185570556,0.00010426202918298171,0.0006934702244923004,-0.0005150569701428049,-0.00022848290020935558,0.0003067759339229186,-0.0004429328354288034,7.195549738850122e-05,0.0,0.0,0.0,0.0,0.0,0.0,0.0,5.60805715354995e-06,1.294047739180959e-05,-4.97138788740914e-06,5.093724019467061e-06,1.1773756991573237e-07,1.30641607576365e-06,2.338711931448856e-06,-0.00010426202918298171,-0.0006934702244923004,0.0005150569701428049,0.00022848290020935558,-0.0003067759339229186,0.0004429328354288034,-7.195549738850122e-05,0.3236324191093445,34.09072494506836,4.072781085968018,-19.261507034301758,-0.1650901436805725,-1.790164589881897,0.15231649577617645,0
53,0.25961756706237793,-0.2720577120780945,-34.11452865600586,-4.096584796905518,19.261507034301758,0.1650901436805725,1.777347207069397,-0.17337362468242645,0.0,0.0,0.0,0.0,0.0,0.0,0.0,-0.3087185534875186,0.0004286479373864818,-0.5334323243037509,0.21544270550568853,0.1183284043862402,-0.1274866507787883,-0.15272900384461685,1.0544037229758876,0.32385165952461636,-0.39249792051733584,-2.1532967988403686,0.864753797630469,2.4658781757758743,0.5445009584403995,1.0544104758940245,0.3238615046091247,-0.39250456234122666,-2.153291787532338,0.8647539153680389,2.46587817577521,0.5445020185570556,-0.0005327868008599107,0.000978968809850131,8.563948191620795e-06,-0.00011949383335901712,0.00015364605529422134,1.925869184367445e-05,0.0005322561655439267,0.0,0.0,0.0,0.0,0.0,0.0,0.0,6.7529181368986e-06,9.845084508353086e-06,-6.641823890818355e-06,5.01130803076677e-06,1.1773756991573237e-07,-6.643574579356937e-13,1.0601166561263753e-06,0.0005327868008599107,-0.000978968809850131,-8.563948191620795e-06,0.00011949383335901712,-0.00015364605529422134,-1.925869184367445e-05,-0.0005322561655439267,0.2720577120780945,34.11452865600586,4.096584796905518,-19.261507034301758,-0.1650901436805725,-1.777347207069397,0.17337362468242645,0
54,0.2646019458770752,-0.2720577120780945,-34.11452865600586,-4.096584796905518,19.261507034301758,0.1650901436805725,1.777347207069397,-0.17337362468242645,0.0,0.0,0.0,0.0,0.0,0.0,0.0,-0.3087185534875186,0.0004286479373864818,-0.5334323243037509,0.21544270550568853,0.1183284043862402,-0.1274866507787883,-0.15272900384461685,1.0544037229758876,0.32385165952461636,-0.39249792051733584,-2.1532967988403686,0.864753797630469,2.4658781757758743,0.5445009584403995,1.0544104758940245,0.3238615046091247,-0.39250456234122666,-2.153291787532338,0.8647539153680389,2.46587817577521,0.5445020185570556,-0.0005327868008599107,0.000978968809850131,8.563948191620795e-06,-0.00011949383335901712,0.00015364605529422134,1.925869184367445e-05,0.0005322561655439267,0.0,0.0,0.0,0.0,0.0,0.0,0.0,6.7529181368986e-06,9.845084508353086e-06,-6.641823890818355e-06,5.01130803076677e-06,1.1773756991573237e-07,-6.643574579356937e-13,1.0601166561263753e-06,0.0005327868008599107,-0.000978968809850131,-8.563948191620795e-06,0.00011949383335901712,-0.00015364605529422134,-1.925869184367445e-05,-0.0005322561655439267,0.2720577120780945,34.11452865600586,4.096584796905518,-19.261507034301758,-0.1650901436805725,-1.777347207069397,0.17337362468242645,0
55,0.26961708068847656,-0.3236324191093445,-34.06295394897461,-4.096584796905518,19.213899612426758,0.1650901436805725,1.770938515663147,-0.12485067546367645,0.0,0.0,0.0,0.0,0.0,0.0,0.0,-0.31769921497133535,0.007217372459581646,-0.5407278255671095,0.2105895546648206,0.11810505519853857,-0.12745764893412387,-0.15377857419621002,1.0544067300671716,0.3238463769937661,-0.39249792051733584,-2.1532934579681933,0.864753797630469,2.465878887852033,0.5444955669956075,1.0544104758940245,0.3238615046091247,-0.39250456234122666,-2.153291787532338,0.8647539153680389,2.46587817577521,0.5445020185570556,0.00016462728711416768,4.218429602985734e-05,-9.424944810772467e-05,0.0006935749898463998,0.0004214197783649365,0.00010680083029183868,-0.0014057654200915965,0.0,0.0,0.0,0.0,0.0,0.0,0.0,3.74582685291891e-06,1.5127615358601076e-05,-6.641823890818355e-06,1.6704358554164855e-06,1.1773756991573237e-07,-7.120768228396912e-07,6.451561448073129e-06,-0.00016462728711416768,-4.218429602985734e-05,9.424944810772467e-05,-0.0006935749898463998,-0.0004214197783649365,-0.00010680083029183868,0.0014057654200915965,0.3236324191093445,34.06295394897461,4.096584796905518,-19.213899612426758,-0.1650901436805725,-1.770938515663147,0.12485067546367645,0
56,0.2746453285217285,-0.3236324191093445,-34.06295394897461,-4.096584796905518,19.213899612426758,0.1650901436805725,1.770938515663147,-0.12485067546367645,0.0,0.0,0.0,0.0,0.0,0.0,0.0,-0.31769921497133535,0.007217372459581646,-0.5407278255671095,0.2105895546648206,0.11810505519853857,-0.12745764893412387,-0.15377857419621002,1.0544067300671716,0.3238463769937661,-0.39249792051733584,-2.1532934579681933,0.864753797630469,2.465878887852033,0.5444955669956075,1.0544104758940245,0.3238615046091247,-0.39250456234122666,-2.153291787532338,0.8647539153680389,2.46587817577521,0.5445020185570556,0.00016462728711416768,4.218429602985734e-05,-9.424944810772467e-05,0.0006935749898463998,0.0004214197783649365,0.00010680083029183868,-0.0014057654200915965,0.0,0.0,0.0,0.0,0.0,0.0,0.0,3.74582685291891e-06,1.5127615358601076e-05,-6.641823890818355e-06,1.6704358554164855e-06,1.1773756991573237e-07,-7.120768228396912e-07,6.451561448073129e-06,-0.00016462728711416768,-4.218429602985734e-05,9.424944810772467e-05,-0.0006935749898463998,-0.0004214197783649365,-0.00010680083029183868,0.0014057654200915965,0.3236324191093445,34.06295394897461,4.096584796905518,-19.213899612426758,-0.1650901436805725,-1.770938515663147,0.12485067546367645,0
57,0.2796010971069336,-0.3236324191093445,-34.06295394897461,-4.096584796905518,19.213899612426758,0.1650901436805725,1.770938515663147,-0.12485067546367645,0.0,0.0,0.0,0.0,0.0,0.0,0.0,-0.31769921497133535,0.007217372459581646,-0.5407278255671095,0.2105895546648206,0.11810505519853857,-0.12745764893412387,-0.15377857419621002,1.0544067300671716,0.3238463769937661,-0.39249792051733584,-2.1532934579681933,0.864753797630469,2.465878887852033,0.5444955669956075,1.0544104758940245,0.3238615046091247,-0.39250456234122666,-2.153291787532338,0.8647539153680389,2.46587817577521,0.5445020185570556,0.00016462728711416768,4.218429602985734e-05,-9.424944810772467e-05,0.0006935749898463998,0.0004214197783649365,0.00010680083029183868,-0.0014057654200915965,0.0,0.0,0.0,0.0,0.0,0.0,0.0,3.74582685291891e-06,1.5127615358601076e-05,-6.641823890818355e-06,1.6704358554164855e-06,1.1773756991573237e-07,-7.120768228396912e-07,6.451561448073129e-06,-0.00016462728711416768,-4.218429602985734e-05,9.424944810772467e-05,-0.0006935749898463998,-0.0004214197783649365,-0.00010680083029183868,0.0014057654200915965,0.3236324191093445,34.06295394897461,4.096584796905518,-19.213899612426758,-0.1650901436805725,-1.770938515663147,0.12485067546367645,0
58,0.2846095561981201,-0.3236324191093445,-34.06295394897461,-4.096584796905518,19.213899612426758,0.1650901436805725,1.770938515663147,-0.12485067546367645,0.0,0.0,0.0,0.0,0.0,0.0,0.0,-0.31769921497133535,0.007217372459581646,-0.5407278255671095,0.2105895546648206,0.11810505519853857,-0.12745764893412387,-0.15377857419621002,1.0544067300671716,0.3238463769937661,-0.39249792051733584,-2.1532934579681933,0.864753797630469,2.465878887852033,0.5444955669956075,1.0544104758940245,0.3238615046091247,-0.39250456234122666,-2.153291787532338,0.8647539153680389,2.46587817577521,0.5445020185570556,0.00016462728711416768,4.218429602985734e-05,-9.424944810772467e-05,0.0006935749898463998,0.0004214197783649365,0.00010680083029183868,-0.0014057654200915965,0.0,0.0,0.0,0.0,0.0,0.0,0.0,3.74582685291891e-06,1.5127615358601076e-05,-6.641823890818355e-06,1.6704358554164855e-06,1.1773756991573237e-07,-7.120768228396912e-07,6.451561448073129e-06,-0.00016462728711416768,-4.218429602985734e-05,9.424944810772467e-05,-0.0006935749898463998,-0.0004214197783649365,-0.00010680083029183868,0.0014057654200915965,0.3236324191093445,34.06295394897461,4.096584796905518,-19.213899612426758,-0.1650901436805725,-1.770938515663147,0.12485067546367645,0
59,0.2896149158477783,-0.3236324191093445,-34.06295394897461,-4.072781085968018,19.213899612426758,0.1769919991493225,1.770938515663147,-0.13858358561992645,0.0,0.0,0.0,0.0,0.0,0.0,0.0,-0.31104117119578445,0.0025400658145314685,-0.5337025082881504,0.21459077752783426,0.11797996798871715,-0.1279925089122374,-0.15385975438527552,1.054407418513564,0.32384779866553387,-0.3924995912772117,-2.1532934579681933,0.8647524752020835,2.465878887852033,0.5444971060103011,1.0544104758940245,0.3238615046091247,-0.39250456234122666,-2.153291787532338,0.8647539153680389,2.46587817577521,0.5445020185570556,-7.279378676160083e-05,-5.829208773230005e-05,-0.0004165132600232746,0.0007681998480758926,-2.2642192199206157e-05,0.00015148516479792783,-0.0005073582585095505,0.0,0.0,0.0,0.0,0.0,0.0,0.0,3.057380460580461e-06,1.3705943590847092e-05,-4.971064014980264e-06,1.6704358554164855e-06,1.4401659553797685e-06,-7.120768228396912e-07,4.912546754498592e-06,7.279378676160083e-05,5.829208773230005e-05,0.0004165132600232746,-0.0007681998480758926,2.2642192199206157e-05,-0.00015148516479792783,0.0005073582585095505,0.3236324191093445,34.06295394897461,4.072781085968018,-19.213899612426758,-0.1769919991493225,-1.770938515663147,0.13858358561992645,0
60,0.29461169242858887,-0.3236324191093445,-34.06295394897461,-4.072781085968018,19.213899612426758,0.1769919991493225,1.770938515663147,-0.13858358561992645,0.0,0.0,0.0,0.0,0.0,0.0,0.0,-0.31104117119578445,0.0025400658145314685,-0.5337025082881504,0.21459077752783426,0.11797996798871715,-0.1279925089122374,-0.15385975438527552,1.054407418513564,0.32384779866553387,-0.3924995912772117,-2.1532934579681933,0.8647524752020835,2.465878887852033,0.5444971060103011,1.0544104758940245,0.3238615046091247,-0.39250456234122666,-2.153291787532338,0.8647539153680389,2.46587817577521,0.5445020185570556,-7.279378676160083e-05,-5.829208773230005e-05,-0.0004165132600232746,0.0007681998480758926,-2.2642192199206157e-05,0.00015148516479792783,-0.0005073582585095505,0.0,0.0,0.0,0.0,0.0,0.0,0.0,3.057380460580461e-06,1.3705943590847092e-05,-4.971064014980264e-06,1.6704358554164855e-06,1.4401659553797685e-06,-7.120768228396912e-07,4.912546754498592e-06,7.279378676160083e-05,5.829208773230005e-05,0.0004165132600232746,-0.0007681998480758926,2.2642192199206157e-05,-0.00015148516479792783,0.0005073582585095505,0.3236324191093445,34.06295394897461,4.072781085968018,-19.213899612426758,-0.1769919991493225,-1.770938515663147,0.13858358561992645,0
61,0.29961109161376953,-0.2998287081718445,-34.03915023803711,-4.096584796905518,19.237703323364258,0.1714988350868225,1.770938515663147,-0.18710653483867645,0.0,0.0,0.0,0.0,0.0,0.0,0.0,-0.31542521341145424,0.0029357242035537284,-0.5324777251343867,0.21212842248205419,0.11862260965434916,-0.12802913768183688,-0.1535231004887503,1.0544050308676025,0.3238440709917021,-0.3924986291503366,-2.1532951284040482,0.8647530856074812,2.465878887852033,0.5445029552636697,1.0544104758940245,0.3238615046091247,-0.39250456234122666,-2.153291787532338,0.8647539153680389,2.46587817577521,0.5445020185570556,-0.0002487284539870596,-0.0006409666414884514,-0.0004125585008836404,-0.00023997696470948182,0.00012010511398055585,0.00021762097714666297,0.0012351260927180743,0.0,0.0,0.0,0.0,0.0,0.0,0.0,5.445026421968535e-06,1.743361742262417e-05,-5.933190890039519e-06,3.340871710388882e-06,8.297605577078926e-07,-7.120768228396912e-07,-9.367066140519853e-07,0.0002487284539870596,0.0006409666414884514,0.0004125585008836404,0.00023997696470948182,-0.00012010511398055585,-0.00021762097714666297,-0.0012351260927180743,0.2998287081718445,34.03915023803711,4.096584796905518,-19.237703323364258,-0.1714988350868225,-1.770938515663147,0.18710653483867645,0
62,0.30464959144592285,-0.2998287081718445,-34.03915023803711,-4.096584796905518,19.237703323364258,0.1714988350868225,1.770938515663147,-0.18710653483867645,0.0,0.0,0.0,0.0,0.0,0.0,0.0,-0.31542521341145424,0.0029357242035537284,-0.5324777251343867,0.21212842248205419,0.11862260965434916,-0.12802913768183688,-0.1535231004887503,1.0544050308676025,0.3238440709917021,-0.3924986291503366,-2.1532951284040482,0.8647530856074812,2.465878887852033,0.5445029552636697,1.0544104758940245,0.3238615046091247,-0.39250456234122666,-2.153291787532338,0.8647539153680389,2.46587817577521,0.5445020185570556,-0.0002487284539870596,-0.0006409666414884514,-0.0004125585008836404,-0.00023997696470948182,0.00012010511398055585,0.00021762097714666297,0.0012351260927180743,0.0,0.0,0.0,0.0,0.0,0.0,0.0,5.445026421968535e-06,1.743361742262417e-05,-5.933190890039519e-06,3.340871710388882e-06,8.297605577078926e-07,-7.120768228396912e-07,-9.367066140519853e-07,0.0002487284539870596,0.0006409666414884514,0.0004125585008836404,0.00023997696470948182,-0.00012010511398055585,-0.00021762097714666297,-0.0012351260927180743,0.2998287081718445,34.03915023803711,4.096584796905518,-19.237703323364258,-0.1714988350868225,-1.770938515663147,0.18710653483867645,0
63,0.3096482753753662,-0.3514034152030945,-34.03915023803711,-4.124355792999268,19.261507034301758,0.1650901436805725,1.777347207069397,-0.17978231608867645,0.0,0.0,0.0,0.0,0.0,0.0,0.0,-0.3146367403573121,0.0024400162331130204,-0.5314159258502738,0.21253193569753628,0.11902658034824008,-0.12821002355000302,-0.15369022355104406,1.0544066135558396,0.3238449389676183,-0.39249597167950495,-2.1532967988399037,0.8647537976843045,2.46587817577521,0.5445016748745416,1.0544104758940245,0.3238615046091247,-0.39250456234122666,-2.153291787532338,0.8647539153680389,2.46587817577521,0.5445020185570556,0.0008254021437727544,-0.0008623927216410732,0.0008693991099057953,-0.0003576878950482918,0.00040140039714100964,-5.818146660595607e-05,0.0012722587922852158,0.0,0.0,0.0,0.0,0.0,0.0,0.0,3.862338184834613e-06,1.6565641506427475e-05,-8.59066172170797e-06,5.011307565805367e-06,1.1768373442411217e-07,0.0,3.4368251400351824e-07,-0.0008254021437727544,0.0008623927216410732,-0.0008693991099057953,0.0003576878950482918,-0.00040140039714100964,5.818146660595607e-05,-0.0012722587922852158,0.3514034152030945,34.03915023803711,4.124355792999268,-19.261507034301758,-0.1650901436805725,-1.777347207069397,0.17978231608867645,0
64,0.31462812423706055,-0.3514034152030945,-34.03915023803711,-4.124355792999268,19.261507034301758,0.1650901436805725,1.777347207069397,-0.17978231608867645,0.0,0.0,0.0,0.0,0.0,0.0,0.0,-0.3146367403573121,0.0024400162331130204,-0.5314159258502738,0.21253193569753628,0.11902658034824008,-0.12821002355000302,-0.15369022355104406,1.0544066135558396,0.3238449389676183,-0.39249597167950495,-2.1532967988399037,0.8647537976843045,2.46587817577521,0.5445016748745416,1.0544104758940245,0.3238615046091247,-0.39250456234122666,-2.153291787532338,0.8647539153680389,2.46587817577521,0.5445020185570556,0.0008254021437727544,-0.0008623927216410732,0.0008693991099057953,-0.0003576878950482918,0.00040140039714100964,-5.818146660595607e-05,0.0012722587922852158,0.0,0.0,0.0,0.0,0.0,0.0,0.0,3.862338184834613e-06,1.6565641506427475e-05,-8.59066172170797e-06,5.011307565805367e-06,1.1768373442411217e-07,0.0,3.4368251400351824e-07,-0.0008254021437727544,0.0008623927216410732,-0.0008693991099057953,0.0003576878950482918,-0.00040140039714100964,5.818146660595607e-05,-0.0012722587922852158,0.3514034152030945,34.03915023803711,4.124355792999268,-19.261507034301758,-0.1650901436805725,-1.777347207069397,0.17978231608867645,0
65,0.31966662406921387,-0.3236324191093445,-34.09072494506836,-4.124355792999268,19.237703323364258,0.1650901436805725,1.777347207069397,-0.13858358561992645,0.0,0.0,0.0,0.0,0.0,0.0,0.0,-0.3177869272291478,0.004441908087630648,-0.5322388738575949,0.21129310184441633,0.1195018677556689,-0.12833557798976067,-0.1540587458018251,1.054406729702128,0.3238486440823465,-0.3924959716755047,-2.1532951284040482,0.8647537976304692,2.46587817577521,0.5444970973966946,1.0544104758940245,0.3238615046091247,-0.39250456234122666,-2.153291787532338,0.8647539153680389,2.46587817577521,0.5445020185570556,-0.00015714716833486388,0.0005340473362455872,0.0006156411481302066,0.00012708790187123236,0.00024183587997839246,-4.78736127288509e-05,-3.092894976017203e-06,0.0,0.0,0.0,0.0,0.0,0.0,0.0,3.7461918964698526e-06,1.286052677823557e-05,-8.59066572195255e-06,3.340871710388882e-06,1.1773756969368776e-07,0.0,4.921160360993326e-06,0.00015714716833486388,-0.0005340473362455872,-0.0006156411481302066,-0.00012708790187123236,-0.00024183587997839246,4.78736127288509e-05,3.092894976017203e-06,0.3236324191093445,34.09072494506836,4.124355792999268,-19.237703323364258,-0.1650901436805725,-1.777347207069397,0.13858358561992645,0
66,0.32465052604675293,-0.3236324191093445,-34.09072494506836,-4.124355792999268,19.237703323364258,0.1650901436805725,1.777347207069397,-0.13858358561992645,0.0,0.0,0.0,0.0,0.0,0.0,0.0,-0.3177869272291478,0.004441908087630648,-0.5322388738575949,0.21129310184441633,0.1195018677556689,-0.12833557798976067,-0.1540587458018251,1.054406729702128,0.3238486440823465,-0.3924959716755047,-2.1532951284040482,0.8647537976304692,2.46587817577521,0.5444970973966946,1.0544104758940245,0.3238615046091247,-0.39250456234122666,-2.153291787532338,0.8647539153680389,2.46587817577521,0.5445020185570556,-0.00015714716833486388,0.0005340473362455872,0.0006156411481302066,0.00012708790187123236,0.00024183587997839246,-4.78736127288509e-05,-3.092894976017203e-06,0.0,0.0,0.0,0.0,0.0,0.0,0.0,3.7461918964698526e-06,1.286052677823557e-05,-8.59066572195255e-06,3.340871710388882e-06,1.1773756969368776e-07,0.0,4.921160360993326e-06,0.00015714716833486388,-0.0005340473362455872,-0.0006156411481302066,-0.00012708790187123236,-0.00024183587997839246,4.78736127288509e-05,3.092894976017203e-06,0.3236324191093445,34.09072494506836,4.124355792999268,-19.237703323364258,-0.1650901436805725,-1.777347207069397,0.13858358561992645,0
67,0.32964563369750977,-0.2998287081718445,-34.03915023803711,-4.072781085968018,19.261507034301758,0.1714988350868225,1.763614296913147,-0.11844198405742645,0.0,0.0,0.0,0.0,0.0,0.0,0.0,-0.32160200853781445,-0.0013677164296551595,-0.5381851298267971,0.21497515165845632,0.11904983950655193,-0.12799005076323228,-0.15329265171073947,1.0544058754867691,0.32384480797178666,-0.39249959095319115,-2.1532967988399037,0.864753085553646,2.4658797016541163,0.54449485491881,1.0544104758940245,0.3238615046091247,-0.39250456234122666,-2.153291787532338,0.8647539153680389,2.46587817577521,0.5445020185570556,-0.000543772305081186,-0.0011920636760740493,-0.0013303147124717955,-0.00020306004435652661,3.986204672712916e-05,0.00042086900740443236,-0.0015083985573331193,0.0,0.0,0.0,0.0,0.0,0.0,0.0,4.600407255361816e-06,1.6696637338053932e-05,-4.9713880355128914e-06,5.011307565805367e-06,8.298143928664459e-07,-1.5258789063388178e-06,7.163638245599735e-06,0.000543772305081186,0.0011920636760740493,0.0013303147124717955,0.00020306004435652661,-3.986204672712916e-05,-0.00042086900740443236,0.0015083985573331193,0.2998287081718445,34.03915023803711,4.072781085968018,-19.261507034301758,-0.1714988350868225,-1.763614296913147,0.11844198405742645,0
68,0.3346695899963379,-0.2998287081718445,-34.03915023803711,-4.072781085968018,19.261507034301758,0.1714988350868225,1.763614296913147,-0.11844198405742645,0.0,0.0,0.0,0.0,0.0,0.0,0.0,-0.32160200853781445,-0.0013677164296551595,-0.5381851298267971,0.21497515165845632,0.11904983950655193,-0.12799005076323228,-0.15329265171073947,1.0544058754867691,0.32384480797178666,-0.39249959095319115,-2.1532967988399037,0.864753085553646,2.4658797016541163,0.54449485491881,1.0544104758940245,0.3238615046091247,-0.39250456234122666,-2.153291787532338,0.8647539153680389,2.46587817577521,0.5445020185570556,-0.000543772305081186,-0.0011920636760740493,-0.0013303147124717955,-0.00020306004435652661,3.986204672712916e-05,0.00042086900740443236,-0.0015083985573331193,0.0,0.0,0.0,0.0,0.0,0.0,0.0,4.600407255361816e-06,1.6696637338053932e-05,-4.9713880355128914e-06,5.011307565805367e-06,8.298143928664459e-07,-1.5258789063388178e-06,7.163638245599735e-06,0.000543772305081186,0.0011920636760740493,0.0013303147124717955,0.00020306004435652661,-3.986204672712916e-05,-0.00042086900740443236,0.0015083985573331193,0.2998287081718445,34.03915023803711,4.072781085968018,-19.261507034301758,-0.1714988350868225,-1.763614296913147,0.11844198405742645,0
69,0.3396022319793701,-0.3236324191093445,-34.09072494506836,-4.096584796905518,19.261507034301758,0.1714988350868225,1.790164589881897,-0.11111776530742645,0.0,0.0,0.0,0.0,0.0,0.0,0.0,-0.3128840835949893,0.010868358702644196,-0.5307536792974874,0.20784182798382456,0.11881453777454315,-0.12997945083483897,-0.15369831249665183,1.0544073177036928,0.32384863514227297,-0.39249792051733584,-2.1532967988399037,0.864753085553646,2.4658767516215643,0.5444941590157767,1.0544104758940245,0.3238615046091247,-0.39250456234122666,-2.153291787532338,0.8647539153680389,2.46587817577521,0.5445020185570556,0.00031898953494271067,0.0005889717799097734,0.0004345941170110721,-0.0006998091878125506,0.00011520130290703292,-0.0004519737542709486,-0.0022402320672891105,0.0,0.0,0.0,0.0,0.0,0.0,0.0,3.158190331697952e-06,1.2869466851750389e-05,-6.641823890818355e-06,5.011307565805367e-06,8.298143928664459e-07,1.4241536456793824e-06,7.859541278909532e-06,-0.00031898953494271067,-0.0005889717799097734,-0.0004345941170110721,0.0006998091878125506,-0.00011520130290703292,0.0004519737542709486,0.0022402320672891105,0.3236324191093445,34.09072494506836,4.096584796905518,-19.261507034301758,-0.1714988350868225,-1.790164589881897,0.11111776530742645,0
70,0.34461283683776855,-0.3236324191093445,-34.09072494506836,-4.096584796905518,19.261507034301758,0.1714988350868225,1.790164589881897,-0.11111776530742645,0.0,0.0,0.0,0.0,0.0,0.0,0.0,-0.3128840835949893,0.010868358702644196,-0.5307536792974874,0.20784182798382456,0.11881453777454315,-0.12997945083483897,-0.15369831249665183,1.0544073177036928,0.32384863514227297,-0.39249792051733584,-2.1532967988399037,0.864753085553646,2.4658767516215643,0.5444941590157767,1.0544104758940245,0.3238615046091247,-0.39250456234122666,-2.153291787532338,0.8647539153680389,2.46587817577521,0.5445020185570556,0.00031898953494271067,0.0005889717799097734,0.0004345941170110721,-0.0006998091878125506,0.00011520130290703292,-0.0004519737542709486,-0.0022402320672891105,0.0,0.0,0.0,0.0,0.0,0.0,0.0,3.158190331697952e-06,1.2869466851750389e-05,-6.641823890818355e-06,5.011307565805367e-06,8.298143928664459e-07,1.4241536456793824e-06,7.859541278909532e-06,-0.00031898953494271067,-0.0005889717799097734,-0.0004345941170110721,0.0006998091878125506,-0.00011520130290703292,0.0004519737542709486,0.0022402320672891105,0.3236324191093445,34.09072494506836,4.096584796905518,-19.261507034301758,-0.1714988350868225,-1.790164589881897,0.11111776530742645,0
71,0.3496088981628418,-0.3236324191093445,-34.06295394897461,-4.096584796905518,19.261507034301758,0.1714988350868225,1.770938515663147,-0.15231649577617645,0.0,0.0,0.0,0.0,0.0,0.0,0.0,-0.31982026299235183,0.0057091451851053856,-0.5393312151439521,0.20925820189910516,0.1194259220007735,-0.12861585168068437,-0.1546229661272425,1.0544046727970022,0.3238480752532214,-0.39249792051733584,-2.1532967988399037,0.864753085553646,2.465878887852033,0.5444987364929865,1.0544104758940245,0.3238615046091247,-0.39250456234122666,-2.153291787532338,0.8647539153680389,2.46587817577521,0.5445020185570556,0.0003107132600105045,-4.95420792162431e-05,-0.00015718076169666335,-0.0008426435747791808,6.410893788615051e-05,0.0003050815192167643,-0.00010929132644653682,0.0,0.0,0.0,0.0,0.0,0.0,0.0,5.8030970222500144e-06,1.3429355903316065e-05,-6.641823890818355e-06,5.011307565805367e-06,8.298143928664459e-07,-7.120768228396912e-07,3.2820640690767178e-06,-0.0003107132600105045,4.95420792162431e-05,0.00015718076169666335,0.0008426435747791808,-6.410893788615051e-05,-0.0003050815192167643,0.00010929132644653682,0.3236324191093445,34.06295394897461,4.096584796905518,-19.261507034301758,-0.1714988350868225,-1.770938515663147,0.15231649577617645,0
72,0.3546009063720703,-0.3236324191093445,-34.06295394897461,-4.096584796905518,19.261507034301758,0.1714988350868225,1.770938515663147,-0.15231649577617645,0.0,0.0,0.0,0.0,0.0,0.0,0.0,-0.31982026299235183,0.0057091451851053856,-0.5393312151439521,0.20925820189910516,0.1194259220007735,-0.12861585168068437,-0.1546229661272425,1.0544046727970022,0.3238480752532214,-0.39249792051733584,-2.1532967988399037,0.864753085553646,2.465878887852033,0.5444987364929865,1.0544104758940245,0.3238615046091247,-0.39250456234122666,-2.153291787532338,0.8647539153680389,2.46587817577521,0.5445020185570556,0.0003107132600105045,-4.95420792162431e-05,-0.00015718076169666335,-0.0008426435747791808,6.410893788615051e-05,0.0003050815192167643,-0.00010929132644653682,0.0,0.0,0.0,0.0,0.0,0.0,0.0,5.8030970222500144e-06,1.3429355903316065e-05,-6.641823890818355e-06,5.011307565805367e-06,8.298143928664459e-07,-7.120768228396912e-07,3.2820640690767178e-06,-0.0003107132600105045,4.95420792162431e-05,0.00015718076169666335,0.0008426435747791808,-6.410893788615051e-05,-0.0003050815192167643,0.00010929132644653682,0.3236324191093445,34.06295394897461,4.096584796905518,-19.261507034301758,-0.1714988350868225,-1.770938515663147,0.15231649577617645,0
73,0.35962867736816406,-0.2998287081718445,-34.06295394897461,-4.096584796905518,19.261507034301758,0.1714988350868225,1.770938515663147,-0.19351522624492645,0.0,0.0,0.0,0.0,0.0,0.0,0.0,-0.3226157981228897,0.00198972486775153,-0.5410291841467819,0.21229953518736908,0.11934292560902031,-0.12791267250047128,-0.15610046166821984,1.0544029649422417,0.32384573651427,-0.39249792051733584,-2.1532967988399037,0.864753085553646,2.4658788884980547,0.5445031964083054,1.0544104758940245,0.3238615046091247,-0.39250456234122666,-2.153291787532338,0.8647539153680389,2.46587817577521,0.5445020185570556,-0.00028917238610703917,-0.00021419307606871792,-0.0006143011766551157,-0.0002747348254021611,0.00011319313622841093,0.00033030407924633883,0.0015504228450684868,0.0,0.0,0.0,0.0,0.0,0.0,0.0,7.510951782752073e-06,1.576809485470676e-05,-6.641823890818355e-06,5.011307565805367e-06,8.298143928664459e-07,-7.127228447423306e-07,-1.1778512497562232e-06,0.00028917238610703917,0.00021419307606871792,0.0006143011766551157,0.0002747348254021611,-0.00011319313622841093,-0.00033030407924633883,-0.0015504228450684868,0.2998287081718445,34.06295394897461,4.096584796905518,-19.261507034301758,-0.1714988350868225,-1.770938515663147,0.19351522624492645,0
74,0.36463165283203125,-0.2998287081718445,-34.06295394897461,-4.096584796905518,19.261507034301758,0.1714988350868225,1.770938515663147,-0.19351522624492645,0.0,0.0,0.0,0.0,0.0,0.0,0.0,-0.3226157981228897,0.00198972486775153,-0.5410291841467819,0.21229953518736908,0.11934292560902031,-0.12791267250047128,-0.15610046166821984,1.0544029649422417,0.32384573651427,-0.39249792051733584,-2.1532967988399037,0.864753085553646,2.4658788884980547,0.5445031964083054,1.0544104758940245,0.3238615046091247,-0.39250456234122666,-2.153291787532338,0.8647539153680389,2.46587817577521,0.5445020185570556,-0.00028917238610703917,-0.00021419307606871792,-0.0006143011766551157,-0.0002747348254021611,0.00011319313622841093,0.00033030407924633883,0.0015504228450684868,0.0,0.0,0.0,0.0,0.0,0.0,0.0,7.510951782752073e-06,1.576809485470676e-05,-6.641823890818355e-06,5.011307565805367e-06,8.298143928664459e-07,-7.127228447423306e-07,-1.1778512497562232e-06,0.00028917238610703917,0.00021419307606871792,0.0006143011766551157,0.0002747348254021611,-0.00011319313622841093,-0.00033030407924633883,-0.0015504228450684868,0.2998287081718445,34.06295394897461,4.096584796905518,-19.261507034301758,-0.1714988350868225,-1.770938515663147,0.19351522624492645,0
75,0.3696107864379883,-0.24825400114059448,-34.09072494506836,-4.096584796905518,19.261507034301758,0.1714988350868225,1.777347207069397,-0.12485067546367645,0.0,0.0,0.0,0.0,0.0,0.0,0.0,-0.3169147733101926,0.003947907329152686,-0.5377447380002064,0.20953045300238055,0.11928017621977208,-0.12863986660518828,-0.15680971706624872,1.0543995250732512,0.3238478500029196,-0.39249792051733584,-2.1532967988399037,0.864753085553646,2.4658781888571655,0.5444955669956075,1.0544104758940245,0.3238615046091247,-0.39250456234122666,-2.153291787532338,0.8647539153680389,2.46587817577521,0.5445020185570556,-0.0014546195564641294,0.0005128027269620083,-0.0005874644740003705,-0.0009836627587079178,6.142028825445789e-05,-1.0784898097962427e-05,-0.0007102483587754669,0.0,0.0,0.0,0.0,0.0,0.0,0.0,1.0950820773292236e-05,1.3654606205115716e-05,-6.641823890818355e-06,5.011307565805367e-06,8.298143928664459e-07,-1.3081955518856603e-08,6.451561448073129e-06,0.0014546195564641294,-0.0005128027269620083,0.0005874644740003705,0.0009836627587079178,-6.142028825445789e-05,1.0784898097962427e-05,0.0007102483587754669,0.24825400114059448,34.09072494506836,4.096584796905518,-19.261507034301758,-0.1714988350868225,-1.777347207069397,0.12485067546367645,0
76,0.3746480941772461,-0.24825400114059448,-34.09072494506836,-4.096584796905518,19.261507034301758,0.1714988350868225,1.777347207069397,-0.12485067546367645,0.0,0.0,0.0,0.0,0.0,0.0,0.0,-0.3169147733101926,0.003947907329152686,-0.5377447380002064,0.20953045300238055,0.11928017621977208,-0.12863986660518828,-0.15680971706624872,1.0543995250732512,0.3238478500029196,-0.39249792051733584,-2.1532967988399037,0.864753085553646,2.4658781888571655,0.5444955669956075,1.0544104758940245,0.3238615046091247,-0.39250456234122666,-2.153291787532338,0.8647539153680389,2.46587817577521,0.5445020185570556,-0.0014546195564641294,0.0005128027269620083,-0.0005874644740003705,-0.0009836627587079178,6.142028825445789e-05,-1.0784898097962427e-05,-0.0007102483587754669,0.0,0.0,0.0,0.0,0.0,0.0,0.0,1.0950820773292236e-05,1.3654606205115716e-05,-6.641823890818355e-06,5.011307565805367e-06,8.298143928664459e-07,-1.3081955518856603e-08,6.451561448073129e-06,0.0014546195564641294,-0.0005128027269620083,0.0005874644740003705,0.0009836627587079178,-6.142028825445789e-05,1.0784898097962427e-05,0.0007102483587754669,0.24825400114059448,34.09072494506836,4.096584796905518,-19.261507034301758,-0.1714988350868225,-1.777347207069397,0.12485067546367645,0
77,0.37960052490234375,-0.3514034152030945,-34.09072494506836,-4.096584796905518,19.261507034301758,0.1714988350868225,1.770938515663147,-0.13217489421367645,0.0,0.0,0.0,0.0,0.0,0.0,0.0,-0.3152217929034942,0.0019576175286120288,-0.5400474084879765,0.20945152118192975,0.11959173195361374,-0.12884373271804578,-0.15617079894230584,1.054407205939593,0.32385078086988756,-0.39249792051733584,-2.1532967988399037,0.864753085553646,2.4658788878521065,0.5444965028959114,1.0544104758940245,0.3238615046091247,-0.39250456234122666,-2.153291787532338,0.8647539153680389,2.46587817577521,0.5445020185570556,0.0010443042464569,0.0005534758340500056,-0.00031675244760076174,-0.0008129749086236168,0.00014912639026681303,0.0003444400833067991,-0.00050193419301673,0.0,0.0,0.0,0.0,0.0,0.0,0.0,3.269954431450728e-06,1.0723739237161745e-05,-6.641823890818355e-06,5.011307565805367e-06,8.298143928664459e-07,-7.120768965585e-07,5.5156611441509185e-06,-0.0010443042464569,-0.0005534758340500056,0.00031675244760076174,0.0008129749086236168,-0.00014912639026681303,-0.0003444400833067991,0.00050193419301673,0.3514034152030945,34.09072494506836,4.096584796905518,-19.261507034301758,-0.1714988350868225,-1.770938515663147,0.13217489421367645,0
78,0.3846116065979004,-0.3514034152030945,-34.09072494506836,-4.096584796905518,19.261507034301758,0.1714988350868225,1.770938515663147,-0.13217489421367645,0.0,0.0,0.0,0.0,0.0,0.0,0.0,-0.3152217929034942,0.0019576175286120288,-0.5400474084879765,0.20945152118192975,0.11959173195361374,-0.12884373271804578,-0.15617079894230584,1.054407205939593,0.32385078086988756,-0.39249792051733584,-2.1532967988399037,0.864753085553646,2.4658788878521065,0.5444965028959114,1.0544104758940245,0.3238615046091247,-0.39250456234122666,-2.153291787532338,0.8647539153680389,2.46587817577521,0.5445020185570556,0.0010443042464569,0.0005534758340500056,-0.00031675244760076174,-0.0008129749086236168,0.00014912639026681303,0.0003444400833067991,-0.00050193419301673,0.0,0.0,0.0,0.0,0.0,0.0,0.0,3.269954431450728e-06,1.0723739237161745e-05,-6.641823890818355e-06,5.011307565805367e-06,8.298143928664459e-07,-7.120768965585e-07,5.5156611441509185e-06,-0.0010443042464569,-0.0005534758340500056,0.00031675244760076174,0.0008129749086236168,-0.00014912639026681303,-0.0003444400833067991,0.00050193419301673,0.3514034152030945,34.09072494506836,4.096584796905518,-19.261507034301758,-0.1714988350868225,-1.770938515663147,0.13217489421367645,0
79,0.38961148262023926,-0.3514034152030945,-34.09072494506836,-4.096584796905518,19.190095901489258,0.1714988350868225,1.777347207069397,-0.13858358561992645,0.0,0.0,0.0,0.0,0.0,0.0,0.0,-0.31108374914056197,-0.0006225131368976305,-0.5342606539691775,0.21181828093309088,0.11923148961463782,-0.12883424201767257,-0.15546377574772605,1.0544073103608327,0.32384835531079814,-0.3924981567283355,-2.153291787532338,0.864753203291216,2.46587829351278,0.5444972106127729,1.0544104758940245,0.3238615046091247,-0.39250456234122666,-2.153291787532338,0.8647539153680389,2.46587817577521,0.5445020185570556,0.0008743008372951303,0.00045606462155252473,0.0004361467578488068,0.0011604918613939976,-8.840151738018798e-05,-8.656555980292362e-05,-0.0009498717686953158,0.0,0.0,0.0,0.0,0.0,0.0,0.0,3.1655331917956886e-06,1.3149298326575742e-05,-6.4056128911693655e-06,0.0,7.120768229507135e-07,-1.1773756991573237e-07,4.807944282703147e-06,-0.0008743008372951303,-0.00045606462155252473,-0.0004361467578488068,-0.0011604918613939976,8.840151738018798e-05,8.656555980292362e-05,0.0009498717686953158,0.3514034152030945,34.09072494506836,4.096584796905518,-19.190095901489258,-0.1714988350868225,-1.777347207069397,0.13858358561992645,0
80,0.39460062980651855,-0.3514034152030945,-34.09072494506836,-4.096584796905518,19.190095901489258,0.1714988350868225,1.777347207069397,-0.13858358561992645,0.0,0.0,0.0,0.0,0.0,0.0,0.0,-0.31108374914056197,-0.0006225131368976305,-0.5342606539691775,0.21181828093309088,0.11923148961463782,-0.12883424201767257,-0.15546377574772605,1.0544073103608327,0.32384835531079814,-0.3924981567283355,-2.153291787532338,0.864753203291216,2.46587829351278,0.5444972106127729,1.0544104758940245,0.3238615046091247,-0.39250456234122666,-2.153291787532338,0.8647539153680389,2.46587817577521,0.5445020185570556,0.0008743008372951303,0.00045606462155252473,0.0004361467578488068,0.0011604918613939976,-8.840151738018798e-05,-8.656555980292362e-05,-0.0009498717686953158,0.0,0.0,0.0,0.0,0.0,0.0,0.0,3.1655331917956886e-06,1.3149298326575742e-05,-6.4056128911693655e-06,0.0,7.120768229507135e-07,-1.1773756991573237e-07,4.807944282703147e-06,-0.0008743008372951303,-0.00045606462155252473,-0.0004361467578488068,-0.0011604918613939976,8.840151738018798e-05,8.656555980292362e-05,0.0009498717686953158,0.3514034152030945,34.09072494506836,4.096584796905518,-19.190095901489258,-0.1714988350868225,-1.777347207069397,0.13858358561992645,0
