rezayati/contactInterpretation/dataset/franka_main/labeled_data/link2/f5_4.csv
index,time,tau_J0,tau_J1,tau_J2,tau_J3,tau_J4,tau_J5,tau_J6,tau_J_d0,tau_J_d1,tau_J_d2,tau_J_d3,tau_J_d4,tau_J_d5,tau_J_d6,tau_ext0,tau_ext1,tau_ext2,tau_ext3,tau_ext4,tau_ext5,tau_ext6,q0,q1,q2,q3,q4,q5,q6,q_d0,q_d1,q_d2,q_d3,q_d4,q_d5,q_d6,dq0,dq1,dq2,dq3,dq4,dq5,dq6,dq_d0,dq_d1,dq_d2,dq_d3,dq_d4,dq_d5,dq_d6,e0,e1,e2,e3,e4,e5,e6,de0,de1,de2,de3,de4,de5,de6,etau_J0,etau_J1,etau_J2,etau_J3,etau_J4,etau_J5,etau_J6,label
1,0.0,-0.3514034152030945,-19.693445205688477,-0.5458648204803467,19.983552932739258,0.6539817452430725,2.4630770683288574,-0.21457235515117645,0.0,0.0,0.0,0.0,0.0,0.0,0.0,-0.33874181332273096,0.04711304492407305,-0.3189858523787764,0.21963752419725538,0.07271919679446641,0.09577717015701956,-0.24199197549591345,1.2135920360255656,-0.22036133420467377,-0.007487787325065909,-2.6038617841553298,-0.10888570376899506,2.468184262010786,0.8264739639547494,1.2134413937687574,-0.2202432315892585,-0.0075118285948192216,-2.6038483821997875,-0.10888392708698907,2.4681821257803174,0.826474908251239,0.0003740700382397259,0.00010994220203346556,0.0008604105391209169,0.00028426458571484127,0.00020163264740700868,0.00011309424541869638,-0.0006237088878553208,0.0,0.0,0.0,0.0,0.0,0.0,0.0,-0.00015064225680827548,0.00011810261541528311,-2.404126975331239e-05,1.3401955542224897e-05,1.7766820059883504e-06,-2.1362304685190736e-06,9.442964896688721e-07,-0.0003740700382397259,-0.00010994220203346556,-0.0008604105391209169,-0.00028426458571484127,-0.00020163264740700868,-0.00011309424541869638,0.0006237088878553208,0.3514034152030945,19.693445205688477,0.5458648204803467,-19.983552932739258,-0.6539817452430725,-2.4630770683288574,0.21457235515117645,0
2,0.0050029754638671875,-0.3514034152030945,-19.717248916625977,-0.4982573688030243,19.983552932739258,0.6475730538368225,2.4758944511413574,-0.22098104655742645,0.0,0.0,0.0,0.0,0.0,0.0,0.0,-0.3416296745280208,0.044657902752123134,-0.31757354773161356,0.22114334334852684,0.07291616962005473,0.09595055495701103,-0.2411074649882313,1.2135920360255656,-0.22035966387733005,-0.007491128198867826,-2.603861538037448,-0.10888392709299881,2.46818283785714,0.8264715635989909,1.2134413937687574,-0.2202432315892585,-0.0075118285948192216,-2.6038483821997875,-0.10888392708698907,2.4681821257803174,0.826474908251239,-0.0001236547047893366,0.0011050409535351034,-0.0003259472385802125,0.00039010044251550405,0.0002739619354010133,-0.00025090020765603107,-0.0006641663730570114,0.0,0.0,0.0,0.0,0.0,0.0,0.0,-0.00015064225680827548,0.00011643228807156625,-2.0700395951395167e-05,1.3155837660594472e-05,6.009734376810627e-12,-7.120768228396912e-07,3.3446522481606067e-06,0.0001236547047893366,-0.0011050409535351034,0.0003259472385802125,-0.00039010044251550405,-0.0002739619354010133,0.00025090020765603107,0.0006641663730570114,0.3514034152030945,19.717248916625977,0.4982573688030243,-19.983552932739258,-0.6475730538368225,-2.4758944511413574,0.22098104655742645,0
3,0.009998321533203125,-0.3514034152030945,-19.717248916625977,-0.4982573688030243,19.983552932739258,0.6475730538368225,2.4758944511413574,-0.22098104655742645,0.0,0.0,0.0,0.0,0.0,0.0,0.0,-0.3416296745280208,0.044657902752123134,-0.31757354773161356,0.22114334334852684,0.07291616962005473,0.09595055495701103,-0.2411074649882313,1.2135920360255656,-0.22035966387733005,-0.007491128198867826,-2.603861538037448,-0.10888392709299881,2.46818283785714,0.8264715635989909,1.2134413937687574,-0.2202432315892585,-0.0075118285948192216,-2.6038483821997875,-0.10888392708698907,2.4681821257803174,0.826474908251239,-0.0001236547047893366,0.0011050409535351034,-0.0003259472385802125,0.00039010044251550405,0.0002739619354010133,-0.00025090020765603107,-0.0006641663730570114,0.0,0.0,0.0,0.0,0.0,0.0,0.0,-0.00015064225680827548,0.00011643228807156625,-2.0700395951395167e-05,1.3155837660594472e-05,6.009734376810627e-12,-7.120768228396912e-07,3.3446522481606067e-06,0.0001236547047893366,-0.0011050409535351034,0.0003259472385802125,-0.00039010044251550405,-0.0002739619354010133,0.00025090020765603107,0.0006641663730570114,0.3514034152030945,19.717248916625977,0.4982573688030243,-19.983552932739258,-0.6475730538368225,-2.4758944511413574,0.22098104655742645,0
4,0.015001058578491211,-0.3514034152030945,-19.717248916625977,-0.4982573688030243,19.983552932739258,0.6475730538368225,2.4758944511413574,-0.22098104655742645,0.0,0.0,0.0,0.0,0.0,0.0,0.0,-0.3416296745280208,0.044657902752123134,-0.31757354773161356,0.22114334334852684,0.07291616962005473,0.09595055495701103,-0.2411074649882313,1.2135920360255656,-0.22035966387733005,-0.007491128198867826,-2.603861538037448,-0.10888392709299881,2.46818283785714,0.8264715635989909,1.2134413937687574,-0.2202432315892585,-0.0075118285948192216,-2.6038483821997875,-0.10888392708698907,2.4681821257803174,0.826474908251239,-0.0001236547047893366,0.0011050409535351034,-0.0003259472385802125,0.00039010044251550405,0.0002739619354010133,-0.00025090020765603107,-0.0006641663730570114,0.0,0.0,0.0,0.0,0.0,0.0,0.0,-0.00015064225680827548,0.00011643228807156625,-2.0700395951395167e-05,1.3155837660594472e-05,6.009734376810627e-12,-7.120768228396912e-07,3.3446522481606067e-06,0.0001236547047893366,-0.0011050409535351034,0.0003259472385802125,-0.00039010044251550405,-0.0002739619354010133,0.00025090020765603107,0.0006641663730570114,0.3514034152030945,19.717248916625977,0.4982573688030243,-19.983552932739258,-0.6475730538368225,-2.4758944511413574,0.22098104655742645,0
5,0.01999950408935547,-0.3514034152030945,-19.717248916625977,-0.4982573688030243,19.983552932739258,0.6475730538368225,2.4758944511413574,-0.22098104655742645,0.0,0.0,0.0,0.0,0.0,0.0,0.0,-0.3416296745280208,0.044657902752123134,-0.31757354773161356,0.22114334334852684,0.07291616962005473,0.09595055495701103,-0.2411074649882313,1.2135920360255656,-0.22035966387733005,-0.007491128198867826,-2.603861538037448,-0.10888392709299881,2.46818283785714,0.8264715635989909,1.2134413937687574,-0.2202432315892585,-0.0075118285948192216,-2.6038483821997875,-0.10888392708698907,2.4681821257803174,0.826474908251239,-0.0001236547047893366,0.0011050409535351034,-0.0003259472385802125,0.00039010044251550405,0.0002739619354010133,-0.00025090020765603107,-0.0006641663730570114,0.0,0.0,0.0,0.0,0.0,0.0,0.0,-0.00015064225680827548,0.00011643228807156625,-2.0700395951395167e-05,1.3155837660594472e-05,6.009734376810627e-12,-7.120768228396912e-07,3.3446522481606067e-06,0.0001236547047893366,-0.0011050409535351034,0.0003259472385802125,-0.00039010044251550405,-0.0002739619354010133,0.00025090020765603107,0.0006641663730570114,0.3514034152030945,19.717248916625977,0.4982573688030243,-19.983552932739258,-0.6475730538368225,-2.4758944511413574,0.22098104655742645,0
6,0.024999380111694336,-0.3514034152030945,-19.717248916625977,-0.4982573688030243,19.983552932739258,0.6475730538368225,2.4758944511413574,-0.22098104655742645,0.0,0.0,0.0,0.0,0.0,0.0,0.0,-0.3416296745280208,0.044657902752123134,-0.31757354773161356,0.22114334334852684,0.07291616962005473,0.09595055495701103,-0.2411074649882313,1.2135920360255656,-0.22035966387733005,-0.007491128198867826,-2.603861538037448,-0.10888392709299881,2.46818283785714,0.8264715635989909,1.2134413937687574,-0.2202432315892585,-0.0075118285948192216,-2.6038483821997875,-0.10888392708698907,2.4681821257803174,0.826474908251239,-0.0001236547047893366,0.0011050409535351034,-0.0003259472385802125,0.00039010044251550405,0.0002739619354010133,-0.00025090020765603107,-0.0006641663730570114,0.0,0.0,0.0,0.0,0.0,0.0,0.0,-0.00015064225680827548,0.00011643228807156625,-2.0700395951395167e-05,1.3155837660594472e-05,6.009734376810627e-12,-7.120768228396912e-07,3.3446522481606067e-06,0.0001236547047893366,-0.0011050409535351034,0.0003259472385802125,-0.00039010044251550405,-0.0002739619354010133,0.00025090020765603107,0.0006641663730570114,0.3514034152030945,19.717248916625977,0.4982573688030243,-19.983552932739258,-0.6475730538368225,-2.4758944511413574,0.22098104655742645,0
7,0.030011653900146484,-0.3514034152030945,-19.717248916625977,-0.5220611095428467,19.983552932739258,0.6539817452430725,2.4758944511413574,-0.22830526530742645,0.0,0.0,0.0,0.0,0.0,0.0,0.0,-0.34975082502645793,0.04135705509756722,-0.31404796614373154,0.22196215762187652,0.07280099341311068,0.09778186892557326,-0.24087653220675873,1.2135920360255656,-0.22035966376926502,-0.007489457760921172,-2.603861011997618,-0.108884639163812,2.46818283785714,0.826475551791753,1.2134413937687574,-0.2202432315892585,-0.0075118285948192216,-2.6038483821997875,-0.10888392708698907,2.4681821257803174,0.826474908251239,-6.968244426127478e-05,0.00042046700022179204,-2.1331487557715287e-05,0.0007141637440731335,0.0006311241094187585,-0.0002483898503626037,-0.000303159108114219,0.0,0.0,0.0,0.0,0.0,0.0,0.0,-0.00015064225680827548,0.0001164321800065371,-2.2370833898049426e-05,1.2629797830676637e-05,7.120768229229579e-07,-7.120768228396912e-07,-6.435405139892936e-07,6.968244426127478e-05,-0.00042046700022179204,2.1331487557715287e-05,-0.0007141637440731335,-0.0006311241094187585,0.0002483898503626037,0.000303159108114219,0.3514034152030945,19.717248916625977,0.5220611095428467,-19.983552932739258,-0.6539817452430725,-2.4758944511413574,0.22830526530742645,0
8,0.03502798080444336,-0.3514034152030945,-19.717248916625977,-0.5220611095428467,19.983552932739258,0.6539817452430725,2.4758944511413574,-0.22830526530742645,0.0,0.0,0.0,0.0,0.0,0.0,0.0,-0.34975082502645793,0.04135705509756722,-0.31404796614373154,0.22196215762187652,0.07280099341311068,0.09778186892557326,-0.24087653220675873,1.2135920360255656,-0.22035966376926502,-0.007489457760921172,-2.603861011997618,-0.108884639163812,2.46818283785714,0.826475551791753,1.2134413937687574,-0.2202432315892585,-0.0075118285948192216,-2.6038483821997875,-0.10888392708698907,2.4681821257803174,0.826474908251239,-6.968244426127478e-05,0.00042046700022179204,-2.1331487557715287e-05,0.0007141637440731335,0.0006311241094187585,-0.0002483898503626037,-0.000303159108114219,0.0,0.0,0.0,0.0,0.0,0.0,0.0,-0.00015064225680827548,0.0001164321800065371,-2.2370833898049426e-05,1.2629797830676637e-05,7.120768229229579e-07,-7.120768228396912e-07,-6.435405139892936e-07,6.968244426127478e-05,-0.00042046700022179204,2.1331487557715287e-05,-0.0007141637440731335,-0.0006311241094187585,0.0002483898503626037,0.000303159108114219,0.3514034152030945,19.717248916625977,0.5220611095428467,-19.983552932739258,-0.6539817452430725,-2.4758944511413574,0.22830526530742645,0
9,0.04003715515136719,-0.4029781222343445,-19.669641494750977,-0.4982573688030243,19.983552932739258,0.6539817452430725,2.4694857597351074,-0.20724813640117645,0.0,0.0,0.0,0.0,0.0,0.0,0.0,-0.35290494582134724,0.04568845675516412,-0.3195970997247213,0.22014830132001237,0.07323206891760116,0.09716268147387734,-0.24090328795313928,1.213595655303252,-0.22036300464052902,-0.007491128198867826,-2.603861785281986,-0.10888783297936121,2.468183549933963,0.8264699576136654,1.2134413937687574,-0.2202432315892585,-0.0075118285948192216,-2.6038483821997875,-0.10888392708698907,2.4681821257803174,0.826474908251239,0.0011534491336764063,-0.0006431168704503276,-0.0004893919292114976,0.0007021379405657518,0.00010499354432398563,9.057017850699262e-05,-0.0016341499511724322,0.0,0.0,0.0,0.0,0.0,0.0,0.0,-0.00015426153449471514,0.00011977305127053306,-2.0700395951395167e-05,1.3403082198326643e-05,3.905892372133013e-06,-1.4241536456793824e-06,4.950637573664096e-06,-0.0011534491336764063,0.0006431168704503276,0.0004893919292114976,-0.0007021379405657518,-0.00010499354432398563,-9.057017850699262e-05,0.0016341499511724322,0.4029781222343445,19.669641494750977,0.4982573688030243,-19.983552932739258,-0.6539817452430725,-2.4694857597351074,0.20724813640117645,0
10,0.044999122619628906,-0.4029781222343445,-19.669641494750977,-0.4982573688030243,19.983552932739258,0.6539817452430725,2.4694857597351074,-0.20724813640117645,0.0,0.0,0.0,0.0,0.0,0.0,0.0,-0.35290494582134724,0.04568845675516412,-0.3195970997247213,0.22014830132001237,0.07323206891760116,0.09716268147387734,-0.24090328795313928,1.213595655303252,-0.22036300464052902,-0.007491128198867826,-2.603861785281986,-0.10888783297936121,2.468183549933963,0.8264699576136654,1.2134413937687574,-0.2202432315892585,-0.0075118285948192216,-2.6038483821997875,-0.10888392708698907,2.4681821257803174,0.826474908251239,0.0011534491336764063,-0.0006431168704503276,-0.0004893919292114976,0.0007021379405657518,0.00010499354432398563,9.057017850699262e-05,-0.0016341499511724322,0.0,0.0,0.0,0.0,0.0,0.0,0.0,-0.00015426153449471514,0.00011977305127053306,-2.0700395951395167e-05,1.3403082198326643e-05,3.905892372133013e-06,-1.4241536456793824e-06,4.950637573664096e-06,-0.0011534491336764063,0.0006431168704503276,0.0004893919292114976,-0.0007021379405657518,-0.00010499354432398563,-9.057017850699262e-05,0.0016341499511724322,0.4029781222343445,19.669641494750977,0.4982573688030243,-19.983552932739258,-0.6539817452430725,-2.4694857597351074,0.20724813640117645,0
11,0.04999828338623047,-0.4029781222343445,-19.669641494750977,-0.4982573688030243,19.983552932739258,0.6539817452430725,2.4694857597351074,-0.20724813640117645,0.0,0.0,0.0,0.0,0.0,0.0,0.0,-0.35290494582134724,0.04568845675516412,-0.3195970997247213,0.22014830132001237,0.07323206891760116,0.09716268147387734,-0.24090328795313928,1.213595655303252,-0.22036300464052902,-0.007491128198867826,-2.603861785281986,-0.10888783297936121,2.468183549933963,0.8264699576136654,1.2134413937687574,-0.2202432315892585,-0.0075118285948192216,-2.6038483821997875,-0.10888392708698907,2.4681821257803174,0.826474908251239,0.0011534491336764063,-0.0006431168704503276,-0.0004893919292114976,0.0007021379405657518,0.00010499354432398563,9.057017850699262e-05,-0.0016341499511724322,0.0,0.0,0.0,0.0,0.0,0.0,0.0,-0.00015426153449471514,0.00011977305127053306,-2.0700395951395167e-05,1.3403082198326643e-05,3.905892372133013e-06,-1.4241536456793824e-06,4.950637573664096e-06,-0.0011534491336764063,0.0006431168704503276,0.0004893919292114976,-0.0007021379405657518,-0.00010499354432398563,-9.057017850699262e-05,0.0016341499511724322,0.4029781222343445,19.669641494750977,0.4982573688030243,-19.983552932739258,-0.6539817452430725,-2.4694857597351074,0.20724813640117645,0
12,0.054998159408569336,-0.4029781222343445,-19.669641494750977,-0.4982573688030243,19.983552932739258,0.6539817452430725,2.4694857597351074,-0.20724813640117645,0.0,0.0,0.0,0.0,0.0,0.0,0.0,-0.35290494582134724,0.04568845675516412,-0.3195970997247213,0.22014830132001237,0.07323206891760116,0.09716268147387734,-0.24090328795313928,1.213595655303252,-0.22036300464052902,-0.007491128198867826,-2.603861785281986,-0.10888783297936121,2.468183549933963,0.8264699576136654,1.2134413937687574,-0.2202432315892585,-0.0075118285948192216,-2.6038483821997875,-0.10888392708698907,2.4681821257803174,0.826474908251239,0.0011534491336764063,-0.0006431168704503276,-0.0004893919292114976,0.0007021379405657518,0.00010499354432398563,9.057017850699262e-05,-0.0016341499511724322,0.0,0.0,0.0,0.0,0.0,0.0,0.0,-0.00015426153449471514,0.00011977305127053306,-2.0700395951395167e-05,1.3403082198326643e-05,3.905892372133013e-06,-1.4241536456793824e-06,4.950637573664096e-06,-0.0011534491336764063,0.0006431168704503276,0.0004893919292114976,-0.0007021379405657518,-0.00010499354432398563,-9.057017850699262e-05,0.0016341499511724322,0.4029781222343445,19.669641494750977,0.4982573688030243,-19.983552932739258,-0.6539817452430725,-2.4694857597351074,0.20724813640117645,0
13,0.059998512268066406,-0.3236324191093445,-19.693445205688477,-0.4982573688030243,20.007356643676758,0.6594749093055725,2.4630770683288574,-0.25485557317733765,0.0,0.0,0.0,0.0,0.0,0.0,0.0,-0.32184934387079883,0.04310941796387173,-0.2876205877763771,0.22254636369834677,0.07126090155490619,0.09816311241122792,-0.24126846880383399,1.2135900871837346,-0.22036133420467377,-0.007491128198867826,-2.6038633733059076,-0.10888524956946204,2.468184262010786,0.8264785153804409,1.2134413937687574,-0.2202432315892585,-0.0075118285948192216,-2.6038483821997875,-0.10888392708698907,2.4681821257803174,0.826474908251239,-0.0007602970192351254,0.0001508583459118862,-0.0013386243383149278,-6.734417073964688e-05,-2.798508993850604e-05,0.0002162705484936154,0.0001668775193416975,0.0,0.0,0.0,0.0,0.0,0.0,0.0,-0.0001486934149772523,0.00011810261541528311,-2.0700395951395167e-05,1.4991106120021414e-05,1.3224824729624052e-06,-2.1362304685190736e-06,-3.607129201887993e-06,0.0007602970192351254,-0.0001508583459118862,0.0013386243383149278,6.734417073964688e-05,2.798508993850604e-05,-0.0002162705484936154,-0.0001668775193416975,0.3236324191093445,19.693445205688477,0.4982573688030243,-20.007356643676758,-0.6594749093055725,-2.4630770683288574,0.25485557317733765,0
14,0.06499767303466797,-0.3236324191093445,-19.693445205688477,-0.4982573688030243,20.007356643676758,0.6594749093055725,2.4630770683288574,-0.25485557317733765,0.0,0.0,0.0,0.0,0.0,0.0,0.0,-0.32184934387079883,0.04310941796387173,-0.2876205877763771,0.22254636369834677,0.07126090155490619,0.09816311241122792,-0.24126846880383399,1.2135900871837346,-0.22036133420467377,-0.007491128198867826,-2.6038633733059076,-0.10888524956946204,2.468184262010786,0.8264785153804409,1.2134413937687574,-0.2202432315892585,-0.0075118285948192216,-2.6038483821997875,-0.10888392708698907,2.4681821257803174,0.826474908251239,-0.0007602970192351254,0.0001508583459118862,-0.0013386243383149278,-6.734417073964688e-05,-2.798508993850604e-05,0.0002162705484936154,0.0001668775193416975,0.0,0.0,0.0,0.0,0.0,0.0,0.0,-0.0001486934149772523,0.00011810261541528311,-2.0700395951395167e-05,1.4991106120021414e-05,1.3224824729624052e-06,-2.1362304685190736e-06,-3.607129201887993e-06,0.0007602970192351254,-0.0001508583459118862,0.0013386243383149278,6.734417073964688e-05,2.798508993850604e-05,-0.0002162705484936154,-0.0001668775193416975,0.3236324191093445,19.693445205688477,0.4982573688030243,-20.007356643676758,-0.6594749093055725,-2.4630770683288574,0.25485557317733765,0
15,0.07001161575317383,-0.3514034152030945,-19.693445205688477,-0.5220611095428467,19.983552932739258,0.6594749093055725,2.4758944511413574,-0.25485557317733765,0.0,0.0,0.0,0.0,0.0,0.0,0.0,-0.35296651888905006,0.03520367660716553,-0.32373621135528036,0.23398695460069646,0.07276639091201459,0.10003536100592991,-0.2415572601339856,1.2135920360255656,-0.22036133420467377,-0.00749016794612446,-2.603861043526944,-0.10888631412055766,2.4681827201195703,0.8264785025140051,1.2134413937687574,-0.2202432315892585,-0.0075118285948192216,-2.6038483821997875,-0.10888392708698907,2.4681821257803174,0.826474908251239,-6.12266410933591e-05,-0.00026545461258377086,0.0003173229095600419,0.0005927731154825037,-4.1903190228533983e-05,-0.0048408915600811325,0.0005783684086055249,0.0,0.0,0.0,0.0,0.0,0.0,0.0,-0.00015064225680827548,0.00011810261541528311,-2.1660648694761704e-05,1.2661327156493485e-05,2.3870335685849398e-06,-5.943392529239588e-07,-3.5942627660823234e-06,6.12266410933591e-05,0.00026545461258377086,-0.0003173229095600419,-0.0005927731154825037,4.1903190228533983e-05,0.0048408915600811325,-0.0005783684086055249,0.3514034152030945,19.693445205688477,0.5220611095428467,-19.983552932739258,-0.6594749093055725,-2.4758944511413574,0.25485557317733765,0
16,0.07508730888366699,-0.3514034152030945,-19.693445205688477,-0.5220611095428467,19.983552932739258,0.6594749093055725,2.4758944511413574,-0.25485557317733765,0.0,0.0,0.0,0.0,0.0,0.0,0.0,-0.35296651888905006,0.03520367660716553,-0.32373621135528036,0.23398695460069646,0.07276639091201459,0.10003536100592991,-0.2415572601339856,1.2135920360255656,-0.22036133420467377,-0.00749016794612446,-2.603861043526944,-0.10888631412055766,2.4681827201195703,0.8264785025140051,1.2134413937687574,-0.2202432315892585,-0.0075118285948192216,-2.6038483821997875,-0.10888392708698907,2.4681821257803174,0.826474908251239,-6.12266410933591e-05,-0.00026545461258377086,0.0003173229095600419,0.0005927731154825037,-4.1903190228533983e-05,-0.0048408915600811325,0.0005783684086055249,0.0,0.0,0.0,0.0,0.0,0.0,0.0,-0.00015064225680827548,0.00011810261541528311,-2.1660648694761704e-05,1.2661327156493485e-05,2.3870335685849398e-06,-5.943392529239588e-07,-3.5942627660823234e-06,6.12266410933591e-05,0.00026545461258377086,-0.0003173229095600419,-0.0005927731154825037,4.1903190228533983e-05,0.0048408915600811325,-0.0005783684086055249,0.3514034152030945,19.693445205688477,0.5220611095428467,-19.983552932739258,-0.6594749093055725,-2.4758944511413574,0.25485557317733765,0
17,0.08001208305358887,-0.3514034152030945,-19.669641494750977,-0.5220611095428467,20.007356643676758,0.6539817452430725,2.4823031425476074,-0.25485557317733765,0.0,0.0,0.0,0.0,0.0,0.0,0.0,-0.35610456611773444,0.04695614638261201,-0.3284764022184336,0.21905754959284604,0.07348985965715628,0.09606051733324475,-0.24125328288922787,1.2135920360255656,-0.22036300464052902,-0.007489457764930188,-2.603863205416667,-0.10888463916982172,2.4681821257796526,0.8264759639291378,1.2134413937687574,-0.2202432315892585,-0.0075118285948192216,-2.6038483821997875,-0.10888392708698907,2.4681821257803174,0.826474908251239,0.00047730516143072374,-0.0006961866029446432,1.201708919530297e-05,-0.0007248460660726075,0.00036486163968048026,0.004817912973264117,0.0003551283232480124,0.0,0.0,0.0,0.0,0.0,0.0,0.0,-0.00015064225680827548,0.00011977305127053306,-2.2370829889033217e-05,1.4823216879289447e-05,7.12082832643457e-07,6.648015471455437e-13,-1.0556778987647064e-06,-0.00047730516143072374,0.0006961866029446432,-1.201708919530297e-05,0.0007248460660726075,-0.00036486163968048026,-0.004817912973264117,-0.0003551283232480124,0.3514034152030945,19.669641494750977,0.5220611095428467,-20.007356643676758,-0.6539817452430725,-2.4823031425476074,0.25485557317733765,0
18,0.08501577377319336,-0.3514034152030945,-19.669641494750977,-0.5220611095428467,20.007356643676758,0.6539817452430725,2.4823031425476074,-0.25485557317733765,0.0,0.0,0.0,0.0,0.0,0.0,0.0,-0.35610456611773444,0.04695614638261201,-0.3284764022184336,0.21905754959284604,0.07348985965715628,0.09606051733324475,-0.24125328288922787,1.2135920360255656,-0.22036300464052902,-0.007489457764930188,-2.603863205416667,-0.10888463916982172,2.4681821257796526,0.8264759639291378,1.2134413937687574,-0.2202432315892585,-0.0075118285948192216,-2.6038483821997875,-0.10888392708698907,2.4681821257803174,0.826474908251239,0.00047730516143072374,-0.0006961866029446432,1.201708919530297e-05,-0.0007248460660726075,0.00036486163968048026,0.004817912973264117,0.0003551283232480124,0.0,0.0,0.0,0.0,0.0,0.0,0.0,-0.00015064225680827548,0.00011977305127053306,-2.2370829889033217e-05,1.4823216879289447e-05,7.12082832643457e-07,6.648015471455437e-13,-1.0556778987647064e-06,-0.00047730516143072374,0.0006961866029446432,-1.201708919530297e-05,0.0007248460660726075,-0.00036486163968048026,-0.004817912973264117,-0.0003551283232480124,0.3514034152030945,19.669641494750977,0.5220611095428467,-20.007356643676758,-0.6539817452430725,-2.4823031425476074,0.25485557317733765,0
19,0.09003758430480957,-0.3236324191093445,-19.717248916625977,-0.5220611095428467,19.983552932739258,0.6594749093055725,2.4630770683288574,-0.25485557317733765,0.0,0.0,0.0,0.0,0.0,0.0,0.0,-0.3564679856667679,0.04889921283980963,-0.3309618485393378,0.21464857406863755,0.07398007368972473,0.09462148935231883,-0.24117884470443557,1.2135900871837346,-0.2203596637688185,-0.007489457760921376,-2.603861043187782,-0.1088852495153748,2.468184262010786,0.8264763070029486,1.2134413937687574,-0.2202432315892585,-0.0075118285948192216,-2.6038483821997875,-0.10888392708698907,2.4681821257803174,0.826474908251239,-0.0005003077771132366,0.00036871407242705965,1.2163100372327061e-05,0.0003323244618833395,-0.0002954780832677677,-0.00983517049970345,0.0007391761524947526,0.0,0.0,0.0,0.0,0.0,0.0,0.0,-0.0001486934149772523,0.0001164321795600054,-2.2370833897845596e-05,1.2660987994461692e-05,1.3224283857277142e-06,-2.1362304685190736e-06,-1.398751709569268e-06,0.0005003077771132366,-0.00036871407242705965,-1.2163100372327061e-05,-0.0003323244618833395,0.0002954780832677677,0.00983517049970345,-0.0007391761524947526,0.3236324191093445,19.717248916625977,0.5220611095428467,-19.983552932739258,-0.6594749093055725,-2.4630770683288574,0.25485557317733765,0
20,0.09495997428894043,-0.3236324191093445,-19.717248916625977,-0.5220611095428467,19.983552932739258,0.6594749093055725,2.4630770683288574,-0.25485557317733765,0.0,0.0,0.0,0.0,0.0,0.0,0.0,-0.3564679856667679,0.04889921283980963,-0.3309618485393378,0.21464857406863755,0.07398007368972473,0.09462148935231883,-0.24117884470443557,1.2135900871837346,-0.2203596637688185,-0.007489457760921376,-2.603861043187782,-0.1088852495153748,2.468184262010786,0.8264763070029486,1.2134413937687574,-0.2202432315892585,-0.0075118285948192216,-2.6038483821997875,-0.10888392708698907,2.4681821257803174,0.826474908251239,-0.0005003077771132366,0.00036871407242705965,1.2163100372327061e-05,0.0003323244618833395,-0.0002954780832677677,-0.00983517049970345,0.0007391761524947526,0.0,0.0,0.0,0.0,0.0,0.0,0.0,-0.0001486934149772523,0.0001164321795600054,-2.2370833897845596e-05,1.2660987994461692e-05,1.3224283857277142e-06,-2.1362304685190736e-06,-1.398751709569268e-06,0.0005003077771132366,-0.00036871407242705965,-1.2163100372327061e-05,-0.0003323244618833395,0.0002954780832677677,0.00983517049970345,-0.0007391761524947526,0.3236324191093445,19.717248916625977,0.5220611095428467,-19.983552932739258,-0.6594749093055725,-2.4630770683288574,0.25485557317733765,0
21,0.09999465942382812,-0.3514034152030945,-19.745019912719727,-0.4704863727092743,19.983552932739258,0.6539817452430725,2.4758944511413574,-0.26217979192733765,0.0,0.0,0.0,0.0,0.0,0.0,0.0,-0.35046274392024906,0.037322955834122686,-0.32790878238122345,0.2279685112437145,0.07369391919451453,0.09801741001497438,-0.24056702882223438,1.2135920360255656,-0.22035771492698736,-0.007493077040698967,-2.60386178523595,-0.108884639163812,2.4681829555947106,0.8264771969853848,1.2134413937687574,-0.2202432315892585,-0.0075118285948192216,-2.6038483821997875,-0.10888392708698907,2.4681821257803174,0.826474908251239,0.00025834235194453087,0.0011738860370249808,-0.0013106587284909418,0.0009425763487756761,0.00021477010836246544,-0.00036249764837006796,0.0010837474469532866,0.0,0.0,0.0,0.0,0.0,0.0,0.0,-0.00015064225680827548,0.0001144833377288712,-1.87515541202549e-05,1.3403036162262794e-05,7.120768229229579e-07,-8.298143931995128e-07,-2.28873414576114e-06,-0.00025834235194453087,-0.0011738860370249808,0.0013106587284909418,-0.0009425763487756761,-0.00021477010836246544,0.00036249764837006796,-0.0010837474469532866,0.3514034152030945,19.745019912719727,0.4704863727092743,-19.983552932739258,-0.6539817452430725,-2.4758944511413574,0.26217979192733765,0
22,0.1049952507019043,-0.3514034152030945,-19.745019912719727,-0.4704863727092743,19.983552932739258,0.6539817452430725,2.4758944511413574,-0.26217979192733765,0.0,0.0,0.0,0.0,0.0,0.0,0.0,-0.35046274392024906,0.037322955834122686,-0.32790878238122345,0.2279685112437145,0.07369391919451453,0.09801741001497438,-0.24056702882223438,1.2135920360255656,-0.22035771492698736,-0.007493077040698967,-2.60386178523595,-0.108884639163812,2.4681829555947106,0.8264771969853848,1.2134413937687574,-0.2202432315892585,-0.0075118285948192216,-2.6038483821997875,-0.10888392708698907,2.4681821257803174,0.826474908251239,0.00025834235194453087,0.0011738860370249808,-0.0013106587284909418,0.0009425763487756761,0.00021477010836246544,-0.00036249764837006796,0.0010837474469532866,0.0,0.0,0.0,0.0,0.0,0.0,0.0,-0.00015064225680827548,0.0001144833377288712,-1.87515541202549e-05,1.3403036162262794e-05,7.120768229229579e-07,-8.298143931995128e-07,-2.28873414576114e-06,-0.00025834235194453087,-0.0011738860370249808,0.0013106587284909418,-0.0009425763487756761,-0.00021477010836246544,0.00036249764837006796,-0.0010837474469532866,0.3514034152030945,19.745019912719727,0.4704863727092743,-19.983552932739258,-0.6539817452430725,-2.4758944511413574,0.26217979192733765,0
23,0.11002349853515625,-0.3236324191093445,-19.645837783813477,-0.5220611095428467,19.983552932739258,0.6713767647743225,2.4630770683288574,-0.20083944499492645,0.0,0.0,0.0,0.0,0.0,0.0,0.0,-0.34711521804682754,0.0484677127851223,-0.32698291951254754,0.21661239116823605,0.07372110782249522,0.0957575469086096,-0.24015777994990908,1.2135900871837346,-0.2203646750763843,-0.007489457760921172,-2.6038615379997694,-0.10888657194375992,2.4681842620114507,0.8264690231316949,1.2134413937687574,-0.2202432315892585,-0.0075118285948192216,-2.6038483821997875,-0.10888392708698907,2.4681821257803174,0.826474908251239,-0.000635544249738004,-0.0007342258080247212,0.00024268942766876345,0.0004623232234319844,-0.0004959654740154579,7.89327657857064e-05,-0.0015989993134463934,0.0,0.0,0.0,0.0,0.0,0.0,0.0,-0.0001486934149772523,0.00012144348712581077,-2.2370833898049426e-05,1.3155799981845462e-05,2.6448567708448056e-06,-2.1362311333206208e-06,5.88511954413562e-06,0.000635544249738004,0.0007342258080247212,-0.00024268942766876345,-0.0004623232234319844,0.0004959654740154579,-7.89327657857064e-05,0.0015989993134463934,0.3236324191093445,19.645837783813477,0.5220611095428467,-19.983552932739258,-0.6713767647743225,-2.4630770683288574,0.20083944499492645,0
24,0.11501193046569824,-0.3236324191093445,-19.645837783813477,-0.5220611095428467,19.983552932739258,0.6713767647743225,2.4630770683288574,-0.20083944499492645,0.0,0.0,0.0,0.0,0.0,0.0,0.0,-0.34711521804682754,0.0484677127851223,-0.32698291951254754,0.21661239116823605,0.07372110782249522,0.0957575469086096,-0.24015777994990908,1.2135900871837346,-0.2203646750763843,-0.007489457760921172,-2.6038615379997694,-0.10888657194375992,2.4681842620114507,0.8264690231316949,1.2134413937687574,-0.2202432315892585,-0.0075118285948192216,-2.6038483821997875,-0.10888392708698907,2.4681821257803174,0.826474908251239,-0.000635544249738004,-0.0007342258080247212,0.00024268942766876345,0.0004623232234319844,-0.0004959654740154579,7.89327657857064e-05,-0.0015989993134463934,0.0,0.0,0.0,0.0,0.0,0.0,0.0,-0.0001486934149772523,0.00012144348712581077,-2.2370833898049426e-05,1.3155799981845462e-05,2.6448567708448056e-06,-2.1362311333206208e-06,5.88511954413562e-06,0.000635544249738004,0.0007342258080247212,-0.00024268942766876345,-0.0004623232234319844,0.0004959654740154579,-7.89327657857064e-05,0.0015989993134463934,0.3236324191093445,19.645837783813477,0.5220611095428467,-19.983552932739258,-0.6713767647743225,-2.4630770683288574,0.20083944499492645,0
25,0.12002444267272949,-0.3752071261405945,-19.693445205688477,-0.5220611095428467,19.983552932739258,0.6658836007118225,2.4694857597351074,-0.25485557317733765,0.0,0.0,0.0,0.0,0.0,0.0,0.0,-0.3467369318673395,0.04917481188948854,-0.3277683880936157,0.21715219502252592,0.07372374450791264,0.09555383046773296,-0.24014830031460094,1.213593706461421,-0.22036133420467377,-0.007489457760921172,-2.603861015953111,-0.10888596305256118,2.4681835499339635,0.8264760337337537,1.2134413937687574,-0.2202432315892585,-0.0075118285948192216,-2.6038483821997875,-0.10888392708698907,2.4681821257803174,0.826474908251239,0.000283406574978525,0.00028121902333325073,0.00015873477486422023,0.0005776215210060261,-0.00036311973721511487,-0.00034327730994039227,0.0005130420054650898,0.0,0.0,0.0,0.0,0.0,0.0,0.0,-0.00015231269266369196,0.00011810261541528311,-2.2370833898049426e-05,1.2633753323498809e-05,2.0359655721058356e-06,-1.4241536461234716e-06,-1.1254825146300718e-06,-0.000283406574978525,-0.00028121902333325073,-0.00015873477486422023,-0.0005776215210060261,0.00036311973721511487,0.00034327730994039227,-0.0005130420054650898,0.3752071261405945,19.693445205688477,0.5220611095428467,-19.983552932739258,-0.6658836007118225,-2.4694857597351074,0.25485557317733765,0
26,0.1250157356262207,-0.3752071261405945,-19.693445205688477,-0.5220611095428467,19.983552932739258,0.6658836007118225,2.4694857597351074,-0.25485557317733765,0.0,0.0,0.0,0.0,0.0,0.0,0.0,-0.3467369318673395,0.04917481188948854,-0.3277683880936157,0.21715219502252592,0.07372374450791264,0.09555383046773296,-0.24014830031460094,1.213593706461421,-0.22036133420467377,-0.007489457760921172,-2.603861015953111,-0.10888596305256118,2.4681835499339635,0.8264760337337537,1.2134413937687574,-0.2202432315892585,-0.0075118285948192216,-2.6038483821997875,-0.10888392708698907,2.4681821257803174,0.826474908251239,0.000283406574978525,0.00028121902333325073,0.00015873477486422023,0.0005776215210060261,-0.00036311973721511487,-0.00034327730994039227,0.0005130420054650898,0.0,0.0,0.0,0.0,0.0,0.0,0.0,-0.00015231269266369196,0.00011810261541528311,-2.2370833898049426e-05,1.2633753323498809e-05,2.0359655721058356e-06,-1.4241536461234716e-06,-1.1254825146300718e-06,-0.000283406574978525,-0.00028121902333325073,-0.00015873477486422023,-0.0005776215210060261,0.00036311973721511487,0.00034327730994039227,-0.0005130420054650898,0.3752071261405945,19.693445205688477,0.5220611095428467,-19.983552932739258,-0.6658836007118225,-2.4694857597351074,0.25485557317733765,0
27,0.13002800941467285,-0.3752071261405945,-19.717248916625977,-0.4982573688030243,20.031160354614258,0.6539817452430725,2.4566683769226074,-0.23471395671367645,0.0,0.0,0.0,0.0,0.0,0.0,0.0,-0.34662401493075984,0.04227824168336977,-0.3228818710144068,0.22161343395969924,0.07368576306736993,0.09581870096063289,-0.24123305913819976,1.213593706461421,-0.2203596637688185,-0.007491128198867826,-2.603864347777562,-0.10888357455863716,2.468184974087609,0.826473790075533,1.2134413937687574,-0.2202432315892585,-0.0075118285948192216,-2.6038483821997875,-0.10888392708698907,2.4681821257803174,0.826474908251239,0.0005617857594931756,-3.7668827776524496e-05,-0.0007424484666381312,-0.0008870982179337791,0.00022150379237668777,0.0003097791331876813,-0.0003313224343129104,0.0,0.0,0.0,0.0,0.0,0.0,0.0,-0.00015231269266369196,0.0001164321795600054,-2.0700395951395167e-05,1.5965577774501583e-05,-3.525283519129063e-07,-2.848307291802854e-06,1.1181757060274577e-06,-0.0005617857594931756,3.7668827776524496e-05,0.0007424484666381312,0.0008870982179337791,-0.00022150379237668777,-0.0003097791331876813,0.0003313224343129104,0.3752071261405945,19.717248916625977,0.4982573688030243,-20.031160354614258,-0.6539817452430725,-2.4566683769226074,0.23471395671367645,0
28,0.13502287864685059,-0.3752071261405945,-19.717248916625977,-0.4982573688030243,20.031160354614258,0.6539817452430725,2.4566683769226074,-0.23471395671367645,0.0,0.0,0.0,0.0,0.0,0.0,0.0,-0.34662401493075984,0.04227824168336977,-0.3228818710144068,0.22161343395969924,0.07368576306736993,0.09581870096063289,-0.24123305913819976,1.213593706461421,-0.2203596637688185,-0.007491128198867826,-2.603864347777562,-0.10888357455863716,2.468184974087609,0.826473790075533,1.2134413937687574,-0.2202432315892585,-0.0075118285948192216,-2.6038483821997875,-0.10888392708698907,2.4681821257803174,0.826474908251239,0.0005617857594931756,-3.7668827776524496e-05,-0.0007424484666381312,-0.0008870982179337791,0.00022150379237668777,0.0003097791331876813,-0.0003313224343129104,0.0,0.0,0.0,0.0,0.0,0.0,0.0,-0.00015231269266369196,0.0001164321795600054,-2.0700395951395167e-05,1.5965577774501583e-05,-3.525283519129063e-07,-2.848307291802854e-06,1.1181757060274577e-06,-0.0005617857594931756,3.7668827776524496e-05,0.0007424484666381312,0.0008870982179337791,-0.00022150379237668777,-0.0003097791331876813,0.0003313224343129104,0.3752071261405945,19.717248916625977,0.4982573688030243,-20.031160354614258,-0.6539817452430725,-2.4566683769226074,0.23471395671367645,0
29,0.14003658294677734,-0.3514034152030945,-19.717248916625977,-0.5220611095428467,20.031160354614258,0.6594749093055725,2.4758944511413574,-0.24844686686992645,0.0,0.0,0.0,0.0,0.0,0.0,0.0,-0.3483794550415823,0.043598159134928365,-0.3224683941084934,0.22001522366577178,0.07387181865199018,0.09523892486188097,-0.24188207032316064,1.2135920360255656,-0.2203596637688185,-0.007489457760921172,-2.603862900913596,-0.10888524950936476,2.4681828378571407,0.8264755906754035,1.2134413937687574,-0.2202432315892585,-0.0075118285948192216,-2.6038483821997875,-0.10888392708698907,2.4681821257803174,0.826474908251239,-0.00020381487490328475,0.00022046370859291108,0.00010644924258439034,-0.000584569159597007,-0.00014377789150972993,-0.00012518995144282649,6.498433097375112e-05,0.0,0.0,0.0,0.0,0.0,0.0,0.0,-0.00015064225680827548,0.0001164321795600054,-2.2370833898049426e-05,1.4518713808531203e-05,1.322422375688026e-06,-7.120768232837804e-07,-6.824241645109197e-07,0.00020381487490328475,-0.00022046370859291108,-0.00010644924258439034,0.000584569159597007,0.00014377789150972993,0.00012518995144282649,-6.498433097375112e-05,0.3514034152030945,19.717248916625977,0.5220611095428467,-20.031160354614258,-0.6594749093055725,-2.4758944511413574,0.24844686686992645,0
30,0.14502501487731934,-0.3514034152030945,-19.717248916625977,-0.5220611095428467,20.031160354614258,0.6594749093055725,2.4758944511413574,-0.24844686686992645,0.0,0.0,0.0,0.0,0.0,0.0,0.0,-0.3483794550415823,0.043598159134928365,-0.3224683941084934,0.22001522366577178,0.07387181865199018,0.09523892486188097,-0.24188207032316064,1.2135920360255656,-0.2203596637688185,-0.007489457760921172,-2.603862900913596,-0.10888524950936476,2.4681828378571407,0.8264755906754035,1.2134413937687574,-0.2202432315892585,-0.0075118285948192216,-2.6038483821997875,-0.10888392708698907,2.4681821257803174,0.826474908251239,-0.00020381487490328475,0.00022046370859291108,0.00010644924258439034,-0.000584569159597007,-0.00014377789150972993,-0.00012518995144282649,6.498433097375112e-05,0.0,0.0,0.0,0.0,0.0,0.0,0.0,-0.00015064225680827548,0.0001164321795600054,-2.2370833898049426e-05,1.4518713808531203e-05,1.322422375688026e-06,-7.120768232837804e-07,-6.824241645109197e-07,0.00020381487490328475,-0.00022046370859291108,-0.00010644924258439034,0.000584569159597007,0.00014377789150972993,0.00012518995144282649,-6.498433097375112e-05,0.3514034152030945,19.717248916625977,0.5220611095428467,-20.031160354614258,-0.6594749093055725,-2.4758944511413574,0.24844686686992645,0
31,0.15003585815429688,-0.3236324191093445,-19.745019912719727,-0.4704863727092743,20.007356643676758,0.6539817452430725,2.4694857597351074,-0.25485557317733765,0.0,0.0,0.0,0.0,0.0,0.0,0.0,-0.3463799529376127,0.042350174060609765,-0.3181687510771132,0.21857336148551526,0.07378098175078136,0.09569035535051341,-0.24193727505027837,1.2135900871837346,-0.22035771492698736,-0.007493077040698967,-2.6038612273040638,-0.10888463916381196,2.4681835499339635,0.8264794555597517,1.2134413937687574,-0.2202432315892585,-0.0075118285948192216,-2.6038483821997875,-0.10888392708698907,2.4681821257803174,0.826474908251239,-0.00033885369980224167,0.000983932718487087,-0.0007732228171478922,6.301183341652662e-05,0.0002277026980097543,-8.146337931208916e-05,0.00032750458903275367,0.0,0.0,0.0,0.0,0.0,0.0,0.0,-0.0001486934149772523,0.0001144833377288712,-1.87515541202549e-05,1.2845104276237862e-05,7.120768228813246e-07,-1.4241536461234716e-06,-4.547308512625747e-06,0.00033885369980224167,-0.000983932718487087,0.0007732228171478922,-6.301183341652662e-05,-0.0002277026980097543,8.146337931208916e-05,-0.00032750458903275367,0.3236324191093445,19.745019912719727,0.4704863727092743,-20.007356643676758,-0.6539817452430725,-2.4694857597351074,0.25485557317733765,0
32,0.15501189231872559,-0.3236324191093445,-19.745019912719727,-0.4704863727092743,20.007356643676758,0.6539817452430725,2.4694857597351074,-0.25485557317733765,0.0,0.0,0.0,0.0,0.0,0.0,0.0,-0.3463799529376127,0.042350174060609765,-0.3181687510771132,0.21857336148551526,0.07378098175078136,0.09569035535051341,-0.24193727505027837,1.2135900871837346,-0.22035771492698736,-0.007493077040698967,-2.6038612273040638,-0.10888463916381196,2.4681835499339635,0.8264794555597517,1.2134413937687574,-0.2202432315892585,-0.0075118285948192216,-2.6038483821997875,-0.10888392708698907,2.4681821257803174,0.826474908251239,-0.00033885369980224167,0.000983932718487087,-0.0007732228171478922,6.301183341652662e-05,0.0002277026980097543,-8.146337931208916e-05,0.00032750458903275367,0.0,0.0,0.0,0.0,0.0,0.0,0.0,-0.0001486934149772523,0.0001144833377288712,-1.87515541202549e-05,1.2845104276237862e-05,7.120768228813246e-07,-1.4241536461234716e-06,-4.547308512625747e-06,0.00033885369980224167,-0.000983932718487087,0.0007732228171478922,-6.301183341652662e-05,-0.0002277026980097543,8.146337931208916e-05,-0.00032750458903275367,0.3236324191093445,19.745019912719727,0.4704863727092743,-20.007356643676758,-0.6539817452430725,-2.4694857597351074,0.25485557317733765,0
33,0.1600360870361328,-0.3236324191093445,-19.745019912719727,-0.4704863727092743,20.007356643676758,0.6539817452430725,2.4694857597351074,-0.25485557317733765,0.0,0.0,0.0,0.0,0.0,0.0,0.0,-0.3463799529376127,0.042350174060609765,-0.3181687510771132,0.21857336148551526,0.07378098175078136,0.09569035535051341,-0.24193727505027837,1.2135900871837346,-0.22035771492698736,-0.007493077040698967,-2.6038612273040638,-0.10888463916381196,2.4681835499339635,0.8264794555597517,1.2134413937687574,-0.2202432315892585,-0.0075118285948192216,-2.6038483821997875,-0.10888392708698907,2.4681821257803174,0.826474908251239,-0.00033885369980224167,0.000983932718487087,-0.0007732228171478922,6.301183341652662e-05,0.0002277026980097543,-8.146337931208916e-05,0.00032750458903275367,0.0,0.0,0.0,0.0,0.0,0.0,0.0,-0.0001486934149772523,0.0001144833377288712,-1.87515541202549e-05,1.2845104276237862e-05,7.120768228813246e-07,-1.4241536461234716e-06,-4.547308512625747e-06,0.00033885369980224167,-0.000983932718487087,0.0007732228171478922,-6.301183341652662e-05,-0.0002277026980097543,8.146337931208916e-05,-0.00032750458903275367,0.3236324191093445,19.745019912719727,0.4704863727092743,-20.007356643676758,-0.6539817452430725,-2.4694857597351074,0.25485557317733765,0
34,0.16502022743225098,-0.3236324191093445,-19.745019912719727,-0.4704863727092743,20.007356643676758,0.6539817452430725,2.4694857597351074,-0.25485557317733765,0.0,0.0,0.0,0.0,0.0,0.0,0.0,-0.3463799529376127,0.042350174060609765,-0.3181687510771132,0.21857336148551526,0.07378098175078136,0.09569035535051341,-0.24193727505027837,1.2135900871837346,-0.22035771492698736,-0.007493077040698967,-2.6038612273040638,-0.10888463916381196,2.4681835499339635,0.8264794555597517,1.2134413937687574,-0.2202432315892585,-0.0075118285948192216,-2.6038483821997875,-0.10888392708698907,2.4681821257803174,0.826474908251239,-0.00033885369980224167,0.000983932718487087,-0.0007732228171478922,6.301183341652662e-05,0.0002277026980097543,-8.146337931208916e-05,0.00032750458903275367,0.0,0.0,0.0,0.0,0.0,0.0,0.0,-0.0001486934149772523,0.0001144833377288712,-1.87515541202549e-05,1.2845104276237862e-05,7.120768228813246e-07,-1.4241536461234716e-06,-4.547308512625747e-06,0.00033885369980224167,-0.000983932718487087,0.0007732228171478922,-6.301183341652662e-05,-0.0002277026980097543,8.146337931208916e-05,-0.00032750458903275367,0.3236324191093445,19.745019912719727,0.4704863727092743,-20.007356643676758,-0.6539817452430725,-2.4694857597351074,0.25485557317733765,0
35,0.17003607749938965,-0.3236324191093445,-19.693445205688477,-0.4982573688030243,20.007356643676758,0.6594749093055725,2.4694857597351074,-0.21457235515117645,0.0,0.0,0.0,0.0,0.0,0.0,0.0,-0.349190658587972,0.04073287957714018,-0.3194354742884443,0.21986760091847937,0.07431770522620908,0.09656098999384266,-0.24322432174359324,1.2135900871837346,-0.22036133420467377,-0.007491128198867826,-2.6038634557096274,-0.10888524951537448,2.4681835499339635,0.8264747875804621,1.2134413937687574,-0.2202432315892585,-0.0075118285948192216,-2.6038483821997875,-0.10888392708698907,2.4681821257803174,0.826474908251239,-0.00014787381641006685,-3.3459620949623784e-05,-0.0001937547611775487,-0.0002989366616966182,4.470624307031602e-06,-0.00013052067261071966,-0.0012350769648133398,0.0,0.0,0.0,0.0,0.0,0.0,0.0,-0.0001486934149772523,0.00011810261541528311,-2.0700395951395167e-05,1.5073509839869104e-05,1.322428385408525e-06,-1.4241536461234716e-06,1.2067077692634598e-07,0.00014787381641006685,3.3459620949623784e-05,0.0001937547611775487,0.0002989366616966182,-4.470624307031602e-06,0.00013052067261071966,0.0012350769648133398,0.3236324191093445,19.693445205688477,0.4982573688030243,-20.007356643676758,-0.6594749093055725,-2.4694857597351074,0.21457235515117645,0
36,0.17502331733703613,-0.3236324191093445,-19.693445205688477,-0.4982573688030243,20.007356643676758,0.6594749093055725,2.4694857597351074,-0.21457235515117645,0.0,0.0,0.0,0.0,0.0,0.0,0.0,-0.349190658587972,0.04073287957714018,-0.3194354742884443,0.21986760091847937,0.07431770522620908,0.09656098999384266,-0.24322432174359324,1.2135900871837346,-0.22036133420467377,-0.007491128198867826,-2.6038634557096274,-0.10888524951537448,2.4681835499339635,0.8264747875804621,1.2134413937687574,-0.2202432315892585,-0.0075118285948192216,-2.6038483821997875,-0.10888392708698907,2.4681821257803174,0.826474908251239,-0.00014787381641006685,-3.3459620949623784e-05,-0.0001937547611775487,-0.0002989366616966182,4.470624307031602e-06,-0.00013052067261071966,-0.0012350769648133398,0.0,0.0,0.0,0.0,0.0,0.0,0.0,-0.0001486934149772523,0.00011810261541528311,-2.0700395951395167e-05,1.5073509839869104e-05,1.322428385408525e-06,-1.4241536461234716e-06,1.2067077692634598e-07,0.00014787381641006685,3.3459620949623784e-05,0.0001937547611775487,0.0002989366616966182,-4.470624307031602e-06,0.00013052067261071966,0.0012350769648133398,0.3236324191093445,19.693445205688477,0.4982573688030243,-20.007356643676758,-0.6594749093055725,-2.4694857597351074,0.21457235515117645,0
37,0.18003559112548828,-0.3514034152030945,-19.693445205688477,-0.5220611095428467,20.007356643676758,0.6539817452430725,2.4566683769226074,-0.25485557317733765,0.0,0.0,0.0,0.0,0.0,0.0,0.0,-0.34474511386080525,0.04323845513472302,-0.31812585985055153,0.22249107571268392,0.07412193585459192,0.0965908020688023,-0.2438156657159675,1.2135920360255656,-0.22036133420467377,-0.007489457760921172,-2.6038634435123846,-0.10888463916381198,2.4681849697269582,0.8264749731505178,1.2134413937687574,-0.2202432315892585,-0.0075118285948192216,-2.6038483821997875,-0.10888392708698907,2.4681821257803174,0.826474908251239,0.0008026702263740351,0.0002786273615566549,-0.00011949772136416881,3.8788860937098965e-05,0.00031506308444450784,0.0001337457286583817,0.0008754120436119653,0.0,0.0,0.0,0.0,0.0,0.0,0.0,-0.00015064225680827548,0.00011810261541528311,-2.2370833898049426e-05,1.5061312597097753e-05,7.120768229090801e-07,-2.8439466408514136e-06,-6.489927872888046e-08,-0.0008026702263740351,-0.0002786273615566549,0.00011949772136416881,-3.8788860937098965e-05,-0.00031506308444450784,-0.0001337457286583817,-0.0008754120436119653,0.3514034152030945,19.693445205688477,0.5220611095428467,-20.007356643676758,-0.6539817452430725,-2.4566683769226074,0.25485557317733765,0
38,0.18503594398498535,-0.3514034152030945,-19.693445205688477,-0.5220611095428467,20.007356643676758,0.6539817452430725,2.4566683769226074,-0.25485557317733765,0.0,0.0,0.0,0.0,0.0,0.0,0.0,-0.34474511386080525,0.04323845513472302,-0.31812585985055153,0.22249107571268392,0.07412193585459192,0.0965908020688023,-0.2438156657159675,1.2135920360255656,-0.22036133420467377,-0.007489457760921172,-2.6038634435123846,-0.10888463916381198,2.4681849697269582,0.8264749731505178,1.2134413937687574,-0.2202432315892585,-0.0075118285948192216,-2.6038483821997875,-0.10888392708698907,2.4681821257803174,0.826474908251239,0.0008026702263740351,0.0002786273615566549,-0.00011949772136416881,3.8788860937098965e-05,0.00031506308444450784,0.0001337457286583817,0.0008754120436119653,0.0,0.0,0.0,0.0,0.0,0.0,0.0,-0.00015064225680827548,0.00011810261541528311,-2.2370833898049426e-05,1.5061312597097753e-05,7.120768229090801e-07,-2.8439466408514136e-06,-6.489927872888046e-08,-0.0008026702263740351,-0.0002786273615566549,0.00011949772136416881,-3.8788860937098965e-05,-0.00031506308444450784,-0.0001337457286583817,-0.0008754120436119653,0.3514034152030945,19.693445205688477,0.5220611095428467,-20.007356643676758,-0.6539817452430725,-2.4566683769226074,0.25485557317733765,0
39,0.19002223014831543,-0.3514034152030945,-19.693445205688477,-0.5458648204803467,20.031160354614258,0.6539817452430725,2.4630770683288574,-0.26217979192733765,0.0,0.0,0.0,0.0,0.0,0.0,0.0,-0.3423770139068177,0.040509208049097044,-0.31989526191960965,0.2252062316285861,0.07455500169486541,0.0959730341285374,-0.2428291024267545,1.2135920360255656,-0.22036157444927534,-0.007487787325065909,-2.6038650985727014,-0.10888463916381198,2.468184262010712,0.8264756780211688,1.2134413937687574,-0.2202432315892585,-0.0075118285948192216,-2.6038483821997875,-0.10888392708698907,2.4681821257803174,0.826474908251239,0.000229613556474061,-5.293426811992335e-05,0.0004992368734105883,-0.000686155435931762,0.0003297927272403415,0.0002060971943676813,0.0005876053490454954,0.0,0.0,0.0,0.0,0.0,0.0,0.0,-0.00015064225680827548,0.00011834286001685679,-2.404126975331239e-05,1.6716372913894162e-05,7.120768229090801e-07,-2.1362303948002648e-06,-7.697699297981586e-07,-0.000229613556474061,5.293426811992335e-05,-0.0004992368734105883,0.000686155435931762,-0.0003297927272403415,-0.0002060971943676813,-0.0005876053490454954,0.3514034152030945,19.693445205688477,0.5458648204803467,-20.031160354614258,-0.6539817452430725,-2.4630770683288574,0.26217979192733765,0
40,0.19500732421875,-0.3514034152030945,-19.693445205688477,-0.5458648204803467,20.031160354614258,0.6539817452430725,2.4630770683288574,-0.26217979192733765,0.0,0.0,0.0,0.0,0.0,0.0,0.0,-0.3423770139068177,0.040509208049097044,-0.31989526191960965,0.2252062316285861,0.07455500169486541,0.0959730341285374,-0.2428291024267545,1.2135920360255656,-0.22036157444927534,-0.007487787325065909,-2.6038650985727014,-0.10888463916381198,2.468184262010712,0.8264756780211688,1.2134413937687574,-0.2202432315892585,-0.0075118285948192216,-2.6038483821997875,-0.10888392708698907,2.4681821257803174,0.826474908251239,0.000229613556474061,-5.293426811992335e-05,0.0004992368734105883,-0.000686155435931762,0.0003297927272403415,0.0002060971943676813,0.0005876053490454954,0.0,0.0,0.0,0.0,0.0,0.0,0.0,-0.00015064225680827548,0.00011834286001685679,-2.404126975331239e-05,1.6716372913894162e-05,7.120768229090801e-07,-2.1362303948002648e-06,-7.697699297981586e-07,-0.000229613556474061,5.293426811992335e-05,-0.0004992368734105883,0.000686155435931762,-0.0003297927272403415,-0.0002060971943676813,-0.0005876053490454954,0.3514034152030945,19.693445205688477,0.5458648204803467,-20.031160354614258,-0.6539817452430725,-2.4630770683288574,0.26217979192733765,0
41,0.20002222061157227,-0.4029781222343445,-19.693445205688477,-0.5458648204803467,20.007356643676758,0.6594749093055725,2.4694857597351074,-0.24844686686992645,0.0,0.0,0.0,0.0,0.0,0.0,0.0,-0.3416016729755757,0.04116793352071664,-0.324140482049477,0.22442642882404185,0.07509692581535951,0.09473537409830342,-0.24257179971504159,1.213595655303252,-0.22036133420482445,-0.007487787325065909,-2.603863455718002,-0.10888524951537448,2.4681835499279816,0.8264773755447233,1.2134413937687574,-0.2202432315892585,-0.0075118285948192216,-2.6038483821997875,-0.10888392708698907,2.4681821257803174,0.826474908251239,0.0011432971728177466,-0.0004676960088323194,0.00015203582159043698,-0.0005891624738024435,-0.00019325393287886357,-4.486201504262902e-05,-5.279061767213978e-06,0.0,0.0,0.0,0.0,0.0,0.0,0.0,-0.00015426153449471514,0.00011810261556596813,-2.404126975331239e-05,1.5073518214503423e-05,1.322428385408525e-06,-1.424147664241815e-06,-2.4672934842984162e-06,-0.0011432971728177466,0.0004676960088323194,-0.00015203582159043698,0.0005891624738024435,0.00019325393287886357,4.486201504262902e-05,5.279061767213978e-06,0.4029781222343445,19.693445205688477,0.5458648204803467,-20.007356643676758,-0.6594749093055725,-2.4694857597351074,0.24844686686992645,0
42,0.20503497123718262,-0.4029781222343445,-19.693445205688477,-0.5458648204803467,20.007356643676758,0.6594749093055725,2.4694857597351074,-0.24844686686992645,0.0,0.0,0.0,0.0,0.0,0.0,0.0,-0.3416016729755757,0.04116793352071664,-0.324140482049477,0.22442642882404185,0.07509692581535951,0.09473537409830342,-0.24257179971504159,1.213595655303252,-0.22036133420482445,-0.007487787325065909,-2.603863455718002,-0.10888524951537448,2.4681835499279816,0.8264773755447233,1.2134413937687574,-0.2202432315892585,-0.0075118285948192216,-2.6038483821997875,-0.10888392708698907,2.4681821257803174,0.826474908251239,0.0011432971728177466,-0.0004676960088323194,0.00015203582159043698,-0.0005891624738024435,-0.00019325393287886357,-4.486201504262902e-05,-5.279061767213978e-06,0.0,0.0,0.0,0.0,0.0,0.0,0.0,-0.00015426153449471514,0.00011810261556596813,-2.404126975331239e-05,1.5073518214503423e-05,1.322428385408525e-06,-1.424147664241815e-06,-2.4672934842984162e-06,-0.0011432971728177466,0.0004676960088323194,-0.00015203582159043698,0.0005891624738024435,0.00019325393287886357,4.486201504262902e-05,5.279061767213978e-06,0.4029781222343445,19.693445205688477,0.5458648204803467,-20.007356643676758,-0.6594749093055725,-2.4694857597351074,0.24844686686992645,0
43,0.2100217342376709,-0.3514034152030945,-19.693445205688477,-0.5458648204803467,20.031160354614258,0.6658836007118225,2.4566683769226074,-0.22098104655742645,0.0,0.0,0.0,0.0,0.0,0.0,0.0,-0.34293757613168085,0.039202225950387845,-0.3254007753999848,0.22824776541263503,0.07477178780323596,0.09539624525229135,-0.24283730664653985,1.2135920360255656,-0.2203613429941104,-0.007487787325065909,-2.603864796153704,-0.1088859615921974,2.4681849740876087,0.8264754837143454,1.2134413937687574,-0.2202432315892585,-0.0075118285948192216,-2.6038483821997875,-0.10888392708698907,2.4681821257803174,0.826474908251239,-2.4772844275932622e-05,-2.1726697473471793e-06,0.00046565946065650106,-0.0003692968520975148,-7.541562229129428e-05,0.0001422815709696884,-0.001054281360782424,0.0,0.0,0.0,0.0,0.0,0.0,0.0,-0.00015064225680827548,0.00011811140485190608,-2.404126975331239e-05,1.641395391649425e-05,2.034505208331483e-06,-2.848307291358765e-06,-5.75463106389229e-07,2.4772844275932622e-05,2.1726697473471793e-06,-0.00046565946065650106,0.0003692968520975148,7.541562229129428e-05,-0.0001422815709696884,0.001054281360782424,0.3514034152030945,19.693445205688477,0.5458648204803467,-20.031160354614258,-0.6658836007118225,-2.4566683769226074,0.22098104655742645,0
44,0.21503567695617676,-0.3514034152030945,-19.693445205688477,-0.5458648204803467,20.031160354614258,0.6658836007118225,2.4566683769226074,-0.22098104655742645,0.0,0.0,0.0,0.0,0.0,0.0,0.0,-0.34293757613168085,0.039202225950387845,-0.3254007753999848,0.22824776541263503,0.07477178780323596,0.09539624525229135,-0.24283730664653985,1.2135920360255656,-0.2203613429941104,-0.007487787325065909,-2.603864796153704,-0.1088859615921974,2.4681849740876087,0.8264754837143454,1.2134413937687574,-0.2202432315892585,-0.0075118285948192216,-2.6038483821997875,-0.10888392708698907,2.4681821257803174,0.826474908251239,-2.4772844275932622e-05,-2.1726697473471793e-06,0.00046565946065650106,-0.0003692968520975148,-7.541562229129428e-05,0.0001422815709696884,-0.001054281360782424,0.0,0.0,0.0,0.0,0.0,0.0,0.0,-0.00015064225680827548,0.00011811140485190608,-2.404126975331239e-05,1.641395391649425e-05,2.034505208331483e-06,-2.848307291358765e-06,-5.75463106389229e-07,2.4772844275932622e-05,2.1726697473471793e-06,-0.00046565946065650106,0.0003692968520975148,7.541562229129428e-05,-0.0001422815709696884,0.001054281360782424,0.3514034152030945,19.693445205688477,0.5458648204803467,-20.031160354614258,-0.6658836007118225,-2.4566683769226074,0.22098104655742645,0
45,0.22002315521240234,-0.3514034152030945,-19.717248916625977,-0.4982573688030243,20.031160354614258,0.6539817452430725,2.4630770683288574,-0.25485557317733765,0.0,0.0,0.0,0.0,0.0,0.0,0.0,-0.34134331012045777,0.04036362425131576,-0.3223739535682834,0.22367173404075666,0.0747243256906845,0.0939650979131413,-0.24212580430927008,1.2135920360255656,-0.2203596637688681,-0.007491128198867826,-2.6038628734440272,-0.10888463916381198,2.468184262010786,0.8264780440175807,1.2134413937687574,-0.2202432315892585,-0.0075118285948192216,-2.6038483821997875,-0.10888392708698907,2.4681821257803174,0.826474908251239,0.00021816108789846398,0.0005031603610612095,-0.0004323982509867049,-0.0008646692810531777,0.0003406534229256842,0.0003188792106099976,0.0004915283320904035,0.0,0.0,0.0,0.0,0.0,0.0,0.0,-0.00015064225680827548,0.00011643217960960461,-2.0700395951395167e-05,1.4491244239689394e-05,7.120768229090801e-07,-2.1362304685190736e-06,-3.135766341699764e-06,-0.00021816108789846398,-0.0005031603610612095,0.0004323982509867049,0.0008646692810531777,-0.0003406534229256842,-0.0003188792106099976,-0.0004915283320904035,0.3514034152030945,19.717248916625977,0.4982573688030243,-20.031160354614258,-0.6539817452430725,-2.4630770683288574,0.25485557317733765,0
46,0.2250351905822754,-0.3514034152030945,-19.717248916625977,-0.4982573688030243,20.031160354614258,0.6539817452430725,2.4630770683288574,-0.25485557317733765,0.0,0.0,0.0,0.0,0.0,0.0,0.0,-0.34134331012045777,0.04036362425131576,-0.3223739535682834,0.22367173404075666,0.0747243256906845,0.0939650979131413,-0.24212580430927008,1.2135920360255656,-0.2203596637688681,-0.007491128198867826,-2.6038628734440272,-0.10888463916381198,2.468184262010786,0.8264780440175807,1.2134413937687574,-0.2202432315892585,-0.0075118285948192216,-2.6038483821997875,-0.10888392708698907,2.4681821257803174,0.826474908251239,0.00021816108789846398,0.0005031603610612095,-0.0004323982509867049,-0.0008646692810531777,0.0003406534229256842,0.0003188792106099976,0.0004915283320904035,0.0,0.0,0.0,0.0,0.0,0.0,0.0,-0.00015064225680827548,0.00011643217960960461,-2.0700395951395167e-05,1.4491244239689394e-05,7.120768229090801e-07,-2.1362304685190736e-06,-3.135766341699764e-06,-0.00021816108789846398,-0.0005031603610612095,0.0004323982509867049,0.0008646692810531777,-0.0003406534229256842,-0.0003188792106099976,-0.0004915283320904035,0.3514034152030945,19.717248916625977,0.4982573688030243,-20.031160354614258,-0.6539817452430725,-2.4630770683288574,0.25485557317733765,0
47,0.23002314567565918,-0.3514034152030945,-19.669641494750977,-0.5220611095428467,19.983552932739258,0.6594749093055725,2.4694857597351074,-0.25485557317733765,0.0,0.0,0.0,0.0,0.0,0.0,0.0,-0.349244981905763,0.04315359778490206,-0.3297011114889708,0.22607804939642617,0.07532475691433155,0.09443831636558293,-0.2413892333699494,1.2135920360255656,-0.22036300464052902,-0.007489457760921172,-2.603861776116268,-0.10888524951537448,2.468183549933963,0.8264784233335657,1.2134413937687574,-0.2202432315892585,-0.0075118285948192216,-2.6038483821997875,-0.10888392708698907,2.4681821257803174,0.826474908251239,2.1752383211961676e-05,-0.00023468641336874728,-0.00020070206622558473,0.0007285061682616574,4.597626617562986e-05,8.71474859723734e-05,0.0007440237309279642,0.0,0.0,0.0,0.0,0.0,0.0,0.0,-0.00015064225680827548,0.00011977305127053306,-2.2370833898049426e-05,1.3393916480364254e-05,1.322428385408525e-06,-1.4241536456793824e-06,-3.5150823266549835e-06,-2.1752383211961676e-05,0.00023468641336874728,0.00020070206622558473,-0.0007285061682616574,-4.597626617562986e-05,-8.71474859723734e-05,-0.0007440237309279642,0.3514034152030945,19.669641494750977,0.5220611095428467,-19.983552932739258,-0.6594749093055725,-2.4694857597351074,0.25485557317733765,0
48,0.23501229286193848,-0.3514034152030945,-19.669641494750977,-0.5220611095428467,19.983552932739258,0.6594749093055725,2.4694857597351074,-0.25485557317733765,0.0,0.0,0.0,0.0,0.0,0.0,0.0,-0.349244981905763,0.04315359778490206,-0.3297011114889708,0.22607804939642617,0.07532475691433155,0.09443831636558293,-0.2413892333699494,1.2135920360255656,-0.22036300464052902,-0.007489457760921172,-2.603861776116268,-0.10888524951537448,2.468183549933963,0.8264784233335657,1.2134413937687574,-0.2202432315892585,-0.0075118285948192216,-2.6038483821997875,-0.10888392708698907,2.4681821257803174,0.826474908251239,2.1752383211961676e-05,-0.00023468641336874728,-0.00020070206622558473,0.0007285061682616574,4.597626617562986e-05,8.71474859723734e-05,0.0007440237309279642,0.0,0.0,0.0,0.0,0.0,0.0,0.0,-0.00015064225680827548,0.00011977305127053306,-2.2370833898049426e-05,1.3393916480364254e-05,1.322428385408525e-06,-1.4241536456793824e-06,-3.5150823266549835e-06,-2.1752383211961676e-05,0.00023468641336874728,0.00020070206622558473,-0.0007285061682616574,-4.597626617562986e-05,-8.71474859723734e-05,-0.0007440237309279642,0.3514034152030945,19.669641494750977,0.5220611095428467,-19.983552932739258,-0.6594749093055725,-2.4694857597351074,0.25485557317733765,0
49,0.2400214672088623,-0.3752071261405945,-19.669641494750977,-0.5458648204803467,20.007356643676758,0.6594749093055725,2.4566683769226074,-0.24844686686992645,0.0,0.0,0.0,0.0,0.0,0.0,0.0,-0.3446574511550453,0.042363581446370965,-0.32610720504598656,0.22503355949407486,0.07477539499946759,0.09529283319171661,-0.24160847115855946,1.213593706461421,-0.22036300757034122,-0.007487787325065909,-2.6038624667265675,-0.10888844333092369,2.4681849740876087,0.8264746095963442,1.2134413937687574,-0.2202432315892585,-0.0075118285948192216,-2.6038483821997875,-0.10888392708698907,2.4681821257803174,0.826474908251239,0.001096626964783114,-0.0003047923498446739,0.00033476176220078636,-1.882944102418133e-05,-3.1524956924883346e-05,0.00047460390100024374,0.0005777706448312955,0.0,0.0,0.0,0.0,0.0,0.0,0.0,-0.00015231269266369196,0.00011977598108273146,-2.404126975331239e-05,1.408452677997829e-05,4.51624393461858e-06,-2.848307291358765e-06,2.986548948147316e-07,-0.001096626964783114,0.0003047923498446739,-0.00033476176220078636,1.882944102418133e-05,3.1524956924883346e-05,-0.00047460390100024374,-0.0005777706448312955,0.3752071261405945,19.669641494750977,0.5458648204803467,-20.007356643676758,-0.6594749093055725,-2.4566683769226074,0.24844686686992645,0
50,0.24503445625305176,-0.3752071261405945,-19.669641494750977,-0.5458648204803467,20.007356643676758,0.6594749093055725,2.4566683769226074,-0.24844686686992645,0.0,0.0,0.0,0.0,0.0,0.0,0.0,-0.3446574511550453,0.042363581446370965,-0.32610720504598656,0.22503355949407486,0.07477539499946759,0.09529283319171661,-0.24160847115855946,1.213593706461421,-0.22036300757034122,-0.007487787325065909,-2.6038624667265675,-0.10888844333092369,2.4681849740876087,0.8264746095963442,1.2134413937687574,-0.2202432315892585,-0.0075118285948192216,-2.6038483821997875,-0.10888392708698907,2.4681821257803174,0.826474908251239,0.001096626964783114,-0.0003047923498446739,0.00033476176220078636,-1.882944102418133e-05,-3.1524956924883346e-05,0.00047460390100024374,0.0005777706448312955,0.0,0.0,0.0,0.0,0.0,0.0,0.0,-0.00015231269266369196,0.00011977598108273146,-2.404126975331239e-05,1.408452677997829e-05,4.51624393461858e-06,-2.848307291358765e-06,2.986548948147316e-07,-0.001096626964783114,0.0003047923498446739,-0.00033476176220078636,1.882944102418133e-05,3.1524956924883346e-05,-0.00047460390100024374,-0.0005777706448312955,0.3752071261405945,19.669641494750977,0.5458648204803467,-20.007356643676758,-0.6594749093055725,-2.4566683769226074,0.24844686686992645,0
51,0.25002241134643555,-0.3514034152030945,-19.717248916625977,-0.4704863727092743,20.007356643676758,0.6594749093055725,2.4758944511413574,-0.22098104655742645,0.0,0.0,0.0,0.0,0.0,0.0,0.0,-0.338716051414831,0.042781364118912805,-0.32022421117305205,0.2259021427904934,0.07428308563213439,0.0957214323134031,-0.24200505461811397,1.2135920360255656,-0.220359663768835,-0.007493077040698967,-2.6038631165548995,-0.10888524953340367,2.46818283785714,0.826472303761475,1.2134413937687574,-0.2202432315892585,-0.0075118285948192216,-2.6038483821997875,-0.10888392708698907,2.4681821257803174,0.826474908251239,0.00017953909066881828,0.0007808070608067975,-0.0007569102806531696,-0.00027364951814190085,-0.00029161946558426105,-0.00024210617802335676,-0.0006105745103120913,0.0,0.0,0.0,0.0,0.0,0.0,0.0,-0.00015064225680827548,0.00011643217957651997,-1.87515541202549e-05,1.4734355112011599e-05,1.3224464145977777e-06,-7.120768228396912e-07,2.604489764079787e-06,-0.00017953909066881828,-0.0007808070608067975,0.0007569102806531696,0.00027364951814190085,0.00029161946558426105,0.00024210617802335676,0.0006105745103120913,0.3514034152030945,19.717248916625977,0.4704863727092743,-20.007356643676758,-0.6594749093055725,-2.4758944511413574,0.22098104655742645,0
52,0.2550332546234131,-0.3514034152030945,-19.717248916625977,-0.4704863727092743,20.007356643676758,0.6594749093055725,2.4758944511413574,-0.22098104655742645,0.0,0.0,0.0,0.0,0.0,0.0,0.0,-0.338716051414831,0.042781364118912805,-0.32022421117305205,0.2259021427904934,0.07428308563213439,0.0957214323134031,-0.24200505461811397,1.2135920360255656,-0.220359663768835,-0.007493077040698967,-2.6038631165548995,-0.10888524953340367,2.46818283785714,0.826472303761475,1.2134413937687574,-0.2202432315892585,-0.0075118285948192216,-2.6038483821997875,-0.10888392708698907,2.4681821257803174,0.826474908251239,0.00017953909066881828,0.0007808070608067975,-0.0007569102806531696,-0.00027364951814190085,-0.00029161946558426105,-0.00024210617802335676,-0.0006105745103120913,0.0,0.0,0.0,0.0,0.0,0.0,0.0,-0.00015064225680827548,0.00011643217957651997,-1.87515541202549e-05,1.4734355112011599e-05,1.3224464145977777e-06,-7.120768228396912e-07,2.604489764079787e-06,-0.00017953909066881828,-0.0007808070608067975,0.0007569102806531696,0.00027364951814190085,0.00029161946558426105,0.00024210617802335676,0.0006105745103120913,0.3514034152030945,19.717248916625977,0.4704863727092743,-20.007356643676758,-0.6594749093055725,-2.4758944511413574,0.22098104655742645,0
53,0.2600102424621582,-0.2998287081718445,-19.745019912719727,-0.5220611095428467,20.031160354614258,0.6475730538368225,2.4630770683288574,-0.26217979192733765,0.0,0.0,0.0,0.0,0.0,0.0,0.0,-0.3409100977135809,0.03981623795042974,-0.3195503959526151,0.23004257286982666,0.07378716733539982,0.09698479908670035,-0.24124625107739225,1.2135884167478794,-0.22035771492698736,-0.007489457760921172,-2.603865042722363,-0.10888392708698919,2.468184262010786,0.8264761890834615,1.2134413937687574,-0.2202432315892585,-0.0075118285948192216,-2.6038483821997875,-0.10888392708698907,2.4681821257803174,0.826474908251239,-0.0006700798892519963,0.0011554896180085163,0.00039484546243142194,-0.0003766536129227012,0.0002847183641672717,0.00018551967362829224,0.0010625138337037852,0.0,0.0,0.0,0.0,0.0,0.0,0.0,-0.00014702297912205786,0.0001144833377288712,-2.2370833898049426e-05,1.6660522575318026e-05,1.1102230246251565e-16,-2.1362304685190736e-06,-1.2808322225055235e-06,0.0006700798892519963,-0.0011554896180085163,-0.00039484546243142194,0.0003766536129227012,-0.0002847183641672717,-0.00018551967362829224,-0.0010625138337037852,0.2998287081718445,19.745019912719727,0.5220611095428467,-20.031160354614258,-0.6475730538368225,-2.4630770683288574,0.26217979192733765,0
54,0.26503419876098633,-0.2998287081718445,-19.745019912719727,-0.5220611095428467,20.031160354614258,0.6475730538368225,2.4630770683288574,-0.26217979192733765,0.0,0.0,0.0,0.0,0.0,0.0,0.0,-0.3409100977135809,0.03981623795042974,-0.3195503959526151,0.23004257286982666,0.07378716733539982,0.09698479908670035,-0.24124625107739225,1.2135884167478794,-0.22035771492698736,-0.007489457760921172,-2.603865042722363,-0.10888392708698919,2.468184262010786,0.8264761890834615,1.2134413937687574,-0.2202432315892585,-0.0075118285948192216,-2.6038483821997875,-0.10888392708698907,2.4681821257803174,0.826474908251239,-0.0006700798892519963,0.0011554896180085163,0.00039484546243142194,-0.0003766536129227012,0.0002847183641672717,0.00018551967362829224,0.0010625138337037852,0.0,0.0,0.0,0.0,0.0,0.0,0.0,-0.00014702297912205786,0.0001144833377288712,-2.2370833898049426e-05,1.6660522575318026e-05,1.1102230246251565e-16,-2.1362304685190736e-06,-1.2808322225055235e-06,0.0006700798892519963,-0.0011554896180085163,-0.00039484546243142194,0.0003766536129227012,-0.0002847183641672717,-0.00018551967362829224,-0.0010625138337037852,0.2998287081718445,19.745019912719727,0.5220611095428467,-20.031160354614258,-0.6475730538368225,-2.4630770683288574,0.26217979192733765,0
55,0.27001214027404785,-0.2998287081718445,-19.745019912719727,-0.5220611095428467,20.031160354614258,0.6475730538368225,2.4630770683288574,-0.26217979192733765,0.0,0.0,0.0,0.0,0.0,0.0,0.0,-0.3409100977135809,0.03981623795042974,-0.3195503959526151,0.23004257286982666,0.07378716733539982,0.09698479908670035,-0.24124625107739225,1.2135884167478794,-0.22035771492698736,-0.007489457760921172,-2.603865042722363,-0.10888392708698919,2.468184262010786,0.8264761890834615,1.2134413937687574,-0.2202432315892585,-0.0075118285948192216,-2.6038483821997875,-0.10888392708698907,2.4681821257803174,0.826474908251239,-0.0006700798892519963,0.0011554896180085163,0.00039484546243142194,-0.0003766536129227012,0.0002847183641672717,0.00018551967362829224,0.0010625138337037852,0.0,0.0,0.0,0.0,0.0,0.0,0.0,-0.00014702297912205786,0.0001144833377288712,-2.2370833898049426e-05,1.6660522575318026e-05,1.1102230246251565e-16,-2.1362304685190736e-06,-1.2808322225055235e-06,0.0006700798892519963,-0.0011554896180085163,-0.00039484546243142194,0.0003766536129227012,-0.0002847183641672717,-0.00018551967362829224,-0.0010625138337037852,0.2998287081718445,19.745019912719727,0.5220611095428467,-20.031160354614258,-0.6475730538368225,-2.4630770683288574,0.26217979192733765,0
56,0.2749977111816406,-0.2998287081718445,-19.745019912719727,-0.5220611095428467,20.031160354614258,0.6475730538368225,2.4630770683288574,-0.26217979192733765,0.0,0.0,0.0,0.0,0.0,0.0,0.0,-0.3409100977135809,0.03981623795042974,-0.3195503959526151,0.23004257286982666,0.07378716733539982,0.09698479908670035,-0.24124625107739225,1.2135884167478794,-0.22035771492698736,-0.007489457760921172,-2.603865042722363,-0.10888392708698919,2.468184262010786,0.8264761890834615,1.2134413937687574,-0.2202432315892585,-0.0075118285948192216,-2.6038483821997875,-0.10888392708698907,2.4681821257803174,0.826474908251239,-0.0006700798892519963,0.0011554896180085163,0.00039484546243142194,-0.0003766536129227012,0.0002847183641672717,0.00018551967362829224,0.0010625138337037852,0.0,0.0,0.0,0.0,0.0,0.0,0.0,-0.00014702297912205786,0.0001144833377288712,-2.2370833898049426e-05,1.6660522575318026e-05,1.1102230246251565e-16,-2.1362304685190736e-06,-1.2808322225055235e-06,0.0006700798892519963,-0.0011554896180085163,-0.00039484546243142194,0.0003766536129227012,-0.0002847183641672717,-0.00018551967362829224,-0.0010625138337037852,0.2998287081718445,19.745019912719727,0.5220611095428467,-20.031160354614258,-0.6475730538368225,-2.4630770683288574,0.26217979192733765,0
57,0.2800118923187256,-0.3514034152030945,-19.717248916625977,-0.4982573688030243,19.955781936645508,0.6658836007118225,2.4694857597351074,-0.20083944499492645,0.0,0.0,0.0,0.0,0.0,0.0,0.0,-0.3396813136587836,0.046323475358581875,-0.31812978804642605,0.2250850829680504,0.07304396964704504,0.09613887984430904,-0.2410431207355716,1.2135920360255656,-0.22035966474542254,-0.007491128198867826,-2.6038595891951526,-0.10888596159219742,2.468183549933963,0.8264732069819651,1.2134413937687574,-0.2202432315892585,-0.0075118285948192216,-2.6038483821997875,-0.10888392708698907,2.4681821257803174,0.826474908251239,0.00016502969709251064,0.00046434466721676903,-0.00011557876753342139,0.001112942255873527,-0.0003106643078519535,7.395663902294135e-05,-0.002027731545925368,0.0,0.0,0.0,0.0,0.0,0.0,0.0,-0.00015064225680827548,0.00011643315616405303,-2.0700395951395167e-05,1.1206995365053984e-05,2.0345052083453607e-06,-1.4241536456793824e-06,1.7012692739015733e-06,-0.00016502969709251064,-0.00046434466721676903,0.00011557876753342139,-0.001112942255873527,0.0003106643078519535,-7.395663902294135e-05,0.002027731545925368,0.3514034152030945,19.717248916625977,0.4982573688030243,-19.955781936645508,-0.6658836007118225,-2.4694857597351074,0.20083944499492645,0
58,0.2850184440612793,-0.3514034152030945,-19.717248916625977,-0.4982573688030243,19.955781936645508,0.6658836007118225,2.4694857597351074,-0.20083944499492645,0.0,0.0,0.0,0.0,0.0,0.0,0.0,-0.3396813136587836,0.046323475358581875,-0.31812978804642605,0.2250850829680504,0.07304396964704504,0.09613887984430904,-0.2410431207355716,1.2135920360255656,-0.22035966474542254,-0.007491128198867826,-2.6038595891951526,-0.10888596159219742,2.468183549933963,0.8264732069819651,1.2134413937687574,-0.2202432315892585,-0.0075118285948192216,-2.6038483821997875,-0.10888392708698907,2.4681821257803174,0.826474908251239,0.00016502969709251064,0.00046434466721676903,-0.00011557876753342139,0.001112942255873527,-0.0003106643078519535,7.395663902294135e-05,-0.002027731545925368,0.0,0.0,0.0,0.0,0.0,0.0,0.0,-0.00015064225680827548,0.00011643315616405303,-2.0700395951395167e-05,1.1206995365053984e-05,2.0345052083453607e-06,-1.4241536456793824e-06,1.7012692739015733e-06,-0.00016502969709251064,-0.00046434466721676903,0.00011557876753342139,-0.001112942255873527,0.0003106643078519535,-7.395663902294135e-05,0.002027731545925368,0.3514034152030945,19.717248916625977,0.4982573688030243,-19.955781936645508,-0.6658836007118225,-2.4694857597351074,0.20083944499492645,0
59,0.29001450538635254,-0.3514034152030945,-19.717248916625977,-0.4982573688030243,20.007356643676758,0.6539817452430725,2.4694857597351074,-0.24844686686992645,0.0,0.0,0.0,0.0,0.0,0.0,0.0,-0.3407342588611882,0.04261071719173542,-0.3188875522100236,0.2267986828284081,0.07321395550090791,0.0973393624123349,-0.24216764611580377,1.2135920360255656,-0.2203596639135061,-0.007491128198867826,-2.603863199276863,-0.10888463965059991,2.468183549933963,0.8264777928219815,1.2134413937687574,-0.2202432315892585,-0.0075118285948192216,-2.6038483821997875,-0.10888392708698907,2.4681821257803174,0.826474908251239,0.00017331397185792383,0.000545178574002691,-0.00027672024678816916,-3.629635273169385e-05,0.00013233609623774343,1.796283400256463e-05,0.00038985520831785097,0.0,0.0,0.0,0.0,0.0,0.0,0.0,-0.00015064225680827548,0.00011643232424760064,-2.0700395951395167e-05,1.4817077075512941e-05,7.125636108384903e-07,-1.4241536456793824e-06,-2.8845707424896005e-06,-0.00017331397185792383,-0.000545178574002691,0.00027672024678816916,3.629635273169385e-05,-0.00013233609623774343,-1.796283400256463e-05,-0.00038985520831785097,0.3514034152030945,19.717248916625977,0.4982573688030243,-20.007356643676758,-0.6539817452430725,-2.4694857597351074,0.24844686686992645,0
60,0.29503393173217773,-0.3514034152030945,-19.717248916625977,-0.4982573688030243,20.007356643676758,0.6539817452430725,2.4694857597351074,-0.24844686686992645,0.0,0.0,0.0,0.0,0.0,0.0,0.0,-0.3407342588611882,0.04261071719173542,-0.3188875522100236,0.2267986828284081,0.07321395550090791,0.0973393624123349,-0.24216764611580377,1.2135920360255656,-0.2203596639135061,-0.007491128198867826,-2.603863199276863,-0.10888463965059991,2.468183549933963,0.8264777928219815,1.2134413937687574,-0.2202432315892585,-0.0075118285948192216,-2.6038483821997875,-0.10888392708698907,2.4681821257803174,0.826474908251239,0.00017331397185792383,0.000545178574002691,-0.00027672024678816916,-3.629635273169385e-05,0.00013233609623774343,1.796283400256463e-05,0.00038985520831785097,0.0,0.0,0.0,0.0,0.0,0.0,0.0,-0.00015064225680827548,0.00011643232424760064,-2.0700395951395167e-05,1.4817077075512941e-05,7.125636108384903e-07,-1.4241536456793824e-06,-2.8845707424896005e-06,-0.00017331397185792383,-0.000545178574002691,0.00027672024678816916,3.629635273169385e-05,-0.00013233609623774343,-1.796283400256463e-05,-0.00038985520831785097,0.3514034152030945,19.717248916625977,0.4982573688030243,-20.007356643676758,-0.6539817452430725,-2.4694857597351074,0.24844686686992645,0
61,0.3000209331512451,-0.3752071261405945,-19.717248916625977,-0.5220611095428467,19.983552932739258,0.6475730538368225,2.4694857597351074,-0.25485557317733765,0.0,0.0,0.0,0.0,0.0,0.0,0.0,-0.3429353922610992,0.03829373870058425,-0.32063227111277964,0.22615784336166658,0.07306445794035306,0.09733574625655773,-0.24258545083740413,1.2135936809516144,-0.22035966376882093,-0.007489457760921172,-2.6038607861115692,-0.10888392708699733,2.468183549933963,0.8264748679935243,1.2134413937687574,-0.2202432315892585,-0.0075118285948192216,-2.6038483821997875,-0.10888392708698907,2.4681821257803174,0.826474908251239,0.0008211746330526798,0.00016515676484186323,-0.0004954709894557793,0.0004357280496238201,0.00023501454964036845,0.00015402864068379444,0.0004690684051943886,0.0,0.0,0.0,0.0,0.0,0.0,0.0,-0.0001522871828569805,0.00011643217956244789,-2.2370833898049426e-05,1.2403911781699861e-05,8.257283745649602e-15,-1.4241536456793824e-06,4.0257714717384374e-08,-0.0008211746330526798,-0.00016515676484186323,0.0004954709894557793,-0.0004357280496238201,-0.00023501454964036845,-0.00015402864068379444,-0.0004690684051943886,0.3752071261405945,19.717248916625977,0.5220611095428467,-19.983552932739258,-0.6475730538368225,-2.4694857597351074,0.25485557317733765,0
62,0.305034875869751,-0.3752071261405945,-19.717248916625977,-0.5220611095428467,19.983552932739258,0.6475730538368225,2.4694857597351074,-0.25485557317733765,0.0,0.0,0.0,0.0,0.0,0.0,0.0,-0.3429353922610992,0.03829373870058425,-0.32063227111277964,0.22615784336166658,0.07306445794035306,0.09733574625655773,-0.24258545083740413,1.2135936809516144,-0.22035966376882093,-0.007489457760921172,-2.6038607861115692,-0.10888392708699733,2.468183549933963,0.8264748679935243,1.2134413937687574,-0.2202432315892585,-0.0075118285948192216,-2.6038483821997875,-0.10888392708698907,2.4681821257803174,0.826474908251239,0.0008211746330526798,0.00016515676484186323,-0.0004954709894557793,0.0004357280496238201,0.00023501454964036845,0.00015402864068379444,0.0004690684051943886,0.0,0.0,0.0,0.0,0.0,0.0,0.0,-0.0001522871828569805,0.00011643217956244789,-2.2370833898049426e-05,1.2403911781699861e-05,8.257283745649602e-15,-1.4241536456793824e-06,4.0257714717384374e-08,-0.0008211746330526798,-0.00016515676484186323,0.0004954709894557793,-0.0004357280496238201,-0.00023501454964036845,-0.00015402864068379444,-0.0004690684051943886,0.3752071261405945,19.717248916625977,0.5220611095428467,-19.983552932739258,-0.6475730538368225,-2.4694857597351074,0.25485557317733765,0
63,0.3099977970123291,-0.3514034152030945,-19.669641494750977,-0.5220611095428467,20.007356643676758,0.6594749093055725,2.4694857597351074,-0.26858848333358765,0.0,0.0,0.0,0.0,0.0,0.0,0.0,-0.3425235956713833,0.04370776198512659,-0.32060836808516896,0.22297789620216815,0.07175200025903827,0.09705318030295439,-0.24244785095043567,1.2135920360255177,-0.22036514047363348,-0.007489457760921172,-2.603863126055131,-0.10888524956946204,2.468183549933963,0.8264778023187092,1.2134413937687574,-0.2202432315892585,-0.0075118285948192216,-2.6038483821997875,-0.10888392708698907,2.4681821257803174,0.826474908251239,-0.00018786951695614685,-0.0005466374329444004,0.00015715103229207034,-0.00018588238207197885,-0.00016817235425119732,0.0001794954408837466,0.0007893499714155964,0.0,0.0,0.0,0.0,0.0,0.0,0.0,-0.00015064225676031384,0.00012190888437499381,-2.2370833898049426e-05,1.4743855343279932e-05,1.3224824729624052e-06,-1.4241536456793824e-06,-2.894067470116113e-06,0.00018786951695614685,0.0005466374329444004,-0.00015715103229207034,0.00018588238207197885,0.00016817235425119732,-0.0001794954408837466,-0.0007893499714155964,0.3514034152030945,19.669641494750977,0.5220611095428467,-20.007356643676758,-0.6594749093055725,-2.4694857597351074,0.26858848333358765,0
64,0.31502389907836914,-0.3514034152030945,-19.669641494750977,-0.5220611095428467,20.007356643676758,0.6594749093055725,2.4694857597351074,-0.26858848333358765,0.0,0.0,0.0,0.0,0.0,0.0,0.0,-0.3425235956713833,0.04370776198512659,-0.32060836808516896,0.22297789620216815,0.07175200025903827,0.09705318030295439,-0.24244785095043567,1.2135920360255177,-0.22036514047363348,-0.007489457760921172,-2.603863126055131,-0.10888524956946204,2.468183549933963,0.8264778023187092,1.2134413937687574,-0.2202432315892585,-0.0075118285948192216,-2.6038483821997875,-0.10888392708698907,2.4681821257803174,0.826474908251239,-0.00018786951695614685,-0.0005466374329444004,0.00015715103229207034,-0.00018588238207197885,-0.00016817235425119732,0.0001794954408837466,0.0007893499714155964,0.0,0.0,0.0,0.0,0.0,0.0,0.0,-0.00015064225676031384,0.00012190888437499381,-2.2370833898049426e-05,1.4743855343279932e-05,1.3224824729624052e-06,-1.4241536456793824e-06,-2.894067470116113e-06,0.00018786951695614685,0.0005466374329444004,-0.00015715103229207034,0.00018588238207197885,0.00016817235425119732,-0.0001794954408837466,-0.0007893499714155964,0.3514034152030945,19.669641494750977,0.5220611095428467,-20.007356643676758,-0.6594749093055725,-2.4694857597351074,0.26858848333358765,0
65,0.32001161575317383,-0.3752071261405945,-19.618066787719727,-0.4704863727092743,20.007356643676758,0.6539817452430725,2.4758944511413574,-0.28232139348983765,0.0,0.0,0.0,0.0,0.0,0.0,0.0,-0.3404373108441991,0.04408538514165083,-0.31438104712124243,0.2226240084717512,0.07081484635004473,0.09720674643738084,-0.2427265093923949,1.213593706461421,-0.22036662393027226,-0.007493077040698967,-2.603863373190993,-0.1088846391638123,2.46818283785714,0.8264826312998682,1.2134413937687574,-0.2202432315892585,-0.0075118285948192216,-2.6038483821997875,-0.10888392708698907,2.4681821257803174,0.826474908251239,0.0012248765971152496,-0.0019694898847045796,-0.0009334691277907252,-0.0003080754264581733,0.00012029007209439647,-0.0002908560671662476,0.0016239429768026793,0.0,0.0,0.0,0.0,0.0,0.0,0.0,-0.00015231269266369196,0.00012339234101377272,-1.87515541202549e-05,1.4990991205277027e-05,7.120768232282693e-07,-7.120768228396912e-07,-7.72304862917128e-06,-0.0012248765971152496,0.0019694898847045796,0.0009334691277907252,0.0003080754264581733,-0.00012029007209439647,0.0002908560671662476,-0.0016239429768026793,0.3752071261405945,19.618066787719727,0.4704863727092743,-20.007356643676758,-0.6539817452430725,-2.4758944511413574,0.28232139348983765,0
66,0.32503581047058105,-0.3752071261405945,-19.618066787719727,-0.4704863727092743,20.007356643676758,0.6539817452430725,2.4758944511413574,-0.28232139348983765,0.0,0.0,0.0,0.0,0.0,0.0,0.0,-0.3404373108441991,0.04408538514165083,-0.31438104712124243,0.2226240084717512,0.07081484635004473,0.09720674643738084,-0.2427265093923949,1.213593706461421,-0.22036662393027226,-0.007493077040698967,-2.603863373190993,-0.1088846391638123,2.46818283785714,0.8264826312998682,1.2134413937687574,-0.2202432315892585,-0.0075118285948192216,-2.6038483821997875,-0.10888392708698907,2.4681821257803174,0.826474908251239,0.0012248765971152496,-0.0019694898847045796,-0.0009334691277907252,-0.0003080754264581733,0.00012029007209439647,-0.0002908560671662476,0.0016239429768026793,0.0,0.0,0.0,0.0,0.0,0.0,0.0,-0.00015231269266369196,0.00012339234101377272,-1.87515541202549e-05,1.4990991205277027e-05,7.120768232282693e-07,-7.120768228396912e-07,-7.72304862917128e-06,-0.0012248765971152496,0.0019694898847045796,0.0009334691277907252,0.0003080754264581733,-0.00012029007209439647,0.0002908560671662476,-0.0016239429768026793,0.3752071261405945,19.618066787719727,0.4704863727092743,-20.007356643676758,-0.6539817452430725,-2.4758944511413574,0.28232139348983765,0
67,0.3300206661224365,-0.3236324191093445,-19.669641494750977,-0.5458648204803467,19.983552932739258,0.6539817452430725,2.4694857597351074,-0.26217979192733765,0.0,0.0,0.0,0.0,0.0,0.0,0.0,-0.34165364255478065,0.05169424627071111,-0.31443913658725975,0.21451686964119618,0.07125402042918455,0.09455686954162457,-0.2433402202766027,1.2135900871837346,-0.22036300464052908,-0.007487787325065909,-2.6038617842307157,-0.108884639163812,2.468183549933963,0.826480039504053,1.2134413937687574,-0.2202432315892585,-0.0075118285948192216,-2.6038483821997875,-0.10888392708698907,2.4681821257803174,0.826474908251239,-8.364360344740485e-05,-0.0003974128188760295,0.0010399334830234056,0.00040339414007691785,0.00031282282455239244,0.0012449266221594842,0.0008798977374079511,0.0,0.0,0.0,0.0,0.0,0.0,0.0,-0.0001486934149772523,0.00011977305127058857,-2.404126975331239e-05,1.3402030928144626e-05,7.120768229229579e-07,-1.4241536456793824e-06,-5.131252813983522e-06,8.364360344740485e-05,0.0003974128188760295,-0.0010399334830234056,-0.00040339414007691785,-0.00031282282455239244,-0.0012449266221594842,-0.0008798977374079511,0.3236324191093445,19.669641494750977,0.5458648204803467,-19.983552932739258,-0.6539817452430725,-2.4694857597351074,0.26217979192733765,0
68,0.3350353240966797,-0.3236324191093445,-19.669641494750977,-0.5458648204803467,19.983552932739258,0.6539817452430725,2.4694857597351074,-0.26217979192733765,0.0,0.0,0.0,0.0,0.0,0.0,0.0,-0.34165364255478065,0.05169424627071111,-0.31443913658725975,0.21451686964119618,0.07125402042918455,0.09455686954162457,-0.2433402202766027,1.2135900871837346,-0.22036300464052908,-0.007487787325065909,-2.6038617842307157,-0.108884639163812,2.468183549933963,0.826480039504053,1.2134413937687574,-0.2202432315892585,-0.0075118285948192216,-2.6038483821997875,-0.10888392708698907,2.4681821257803174,0.826474908251239,-8.364360344740485e-05,-0.0003974128188760295,0.0010399334830234056,0.00040339414007691785,0.00031282282455239244,0.0012449266221594842,0.0008798977374079511,0.0,0.0,0.0,0.0,0.0,0.0,0.0,-0.0001486934149772523,0.00011977305127058857,-2.404126975331239e-05,1.3402030928144626e-05,7.120768229229579e-07,-1.4241536456793824e-06,-5.131252813983522e-06,8.364360344740485e-05,0.0003974128188760295,-0.0010399334830234056,-0.00040339414007691785,-0.00031282282455239244,-0.0012449266221594842,-0.0008798977374079511,0.3236324191093445,19.669641494750977,0.5458648204803467,-19.983552932739258,-0.6539817452430725,-2.4694857597351074,0.26217979192733765,0
69,0.34002017974853516,-0.3514034152030945,-19.693445205688477,-0.4982573688030243,20.007356643676758,0.6475730538368225,2.4694857597351074,-0.25485557317733765,0.0,0.0,0.0,0.0,0.0,0.0,0.0,-0.3379304683075381,0.04641792389977496,-0.3115466180035885,0.22507446059386327,0.071008838634235,0.09751789505305787,-0.24315139434212746,1.2135920360255656,-0.22036157151946315,-0.007491128198867826,-2.603861230482129,-0.10888392708698909,2.468183549933963,0.8264764382751172,1.2134413937687574,-0.2202432315892585,-0.0075118285948192216,-2.6038483821997875,-0.10888392708698907,2.4681821257803174,0.826474908251239,0.0009228095675399244,2.5014632663653384e-05,-0.0004227038144791361,-0.00010868085703616561,0.0013010207421372821,0.00014403608229754758,0.001035544681329806,0.0,0.0,0.0,0.0,0.0,0.0,0.0,-0.00015064225680827548,0.00011833993020465838,-2.0700395951395167e-05,1.2848282341604289e-05,1.3877787807814457e-17,-1.4241536456793824e-06,-1.530023878149045e-06,-0.0009228095675399244,-2.5014632663653384e-05,0.0004227038144791361,0.00010868085703616561,-0.0013010207421372821,-0.00014403608229754758,-0.001035544681329806,0.3514034152030945,19.693445205688477,0.4982573688030243,-20.007356643676758,-0.6475730538368225,-2.4694857597351074,0.25485557317733765,0
70,0.3450348377227783,-0.3514034152030945,-19.693445205688477,-0.4982573688030243,20.007356643676758,0.6475730538368225,2.4694857597351074,-0.25485557317733765,0.0,0.0,0.0,0.0,0.0,0.0,0.0,-0.3379304683075381,0.04641792389977496,-0.3115466180035885,0.22507446059386327,0.071008838634235,0.09751789505305787,-0.24315139434212746,1.2135920360255656,-0.22036157151946315,-0.007491128198867826,-2.603861230482129,-0.10888392708698909,2.468183549933963,0.8264764382751172,1.2134413937687574,-0.2202432315892585,-0.0075118285948192216,-2.6038483821997875,-0.10888392708698907,2.4681821257803174,0.826474908251239,0.0009228095675399244,2.5014632663653384e-05,-0.0004227038144791361,-0.00010868085703616561,0.0013010207421372821,0.00014403608229754758,0.001035544681329806,0.0,0.0,0.0,0.0,0.0,0.0,0.0,-0.00015064225680827548,0.00011833993020465838,-2.0700395951395167e-05,1.2848282341604289e-05,1.3877787807814457e-17,-1.4241536456793824e-06,-1.530023878149045e-06,-0.0009228095675399244,-2.5014632663653384e-05,0.0004227038144791361,0.00010868085703616561,-0.0013010207421372821,-0.00014403608229754758,-0.001035544681329806,0.3514034152030945,19.693445205688477,0.4982573688030243,-20.007356643676758,-0.6475730538368225,-2.4694857597351074,0.25485557317733765,0
71,0.3500235080718994,-0.3752071261405945,-19.745019912719727,-0.4982573688030243,19.983552932739258,0.6539817452430725,2.4694857597351074,-0.23471395671367645,0.0,0.0,0.0,0.0,0.0,0.0,0.0,-0.3404006911278097,0.0426720429396903,-0.3167110813355356,0.23151834292970555,0.07205057048254133,0.09828335584048754,-0.24126653277198082,1.213593706461421,-0.22035771492832698,-0.007491128198867826,-2.603861538024893,-0.108884639163812,2.468183549933963,0.8264759504303285,1.2134413937687574,-0.2202432315892585,-0.0075118285948192216,-2.6038483821997875,-0.10888392708698907,2.4681821257803174,0.826474908251239,0.0007467698269788713,0.0011407829123391078,-0.00023512805329913472,0.0006754441784847608,-8.110184486549412e-06,2.2032936399926324e-05,7.535207241352679e-05,0.0,0.0,0.0,0.0,0.0,0.0,0.0,-0.00015231269266369196,0.00011448333906849406,-2.0700395951395167e-05,1.315582510530433e-05,7.120768229229579e-07,-1.4241536456793824e-06,-1.0421790894721283e-06,-0.0007467698269788713,-0.0011407829123391078,0.00023512805329913472,-0.0006754441784847608,8.110184486549412e-06,-2.2032936399926324e-05,-7.535207241352679e-05,0.3752071261405945,19.745019912719727,0.4982573688030243,-19.983552932739258,-0.6539817452430725,-2.4694857597351074,0.23471395671367645,0
72,0.35503602027893066,-0.3752071261405945,-19.745019912719727,-0.4982573688030243,19.983552932739258,0.6539817452430725,2.4694857597351074,-0.23471395671367645,0.0,0.0,0.0,0.0,0.0,0.0,0.0,-0.3404006911278097,0.0426720429396903,-0.3167110813355356,0.23151834292970555,0.07205057048254133,0.09828335584048754,-0.24126653277198082,1.213593706461421,-0.22035771492832698,-0.007491128198867826,-2.603861538024893,-0.108884639163812,2.468183549933963,0.8264759504303285,1.2134413937687574,-0.2202432315892585,-0.0075118285948192216,-2.6038483821997875,-0.10888392708698907,2.4681821257803174,0.826474908251239,0.0007467698269788713,0.0011407829123391078,-0.00023512805329913472,0.0006754441784847608,-8.110184486549412e-06,2.2032936399926324e-05,7.535207241352679e-05,0.0,0.0,0.0,0.0,0.0,0.0,0.0,-0.00015231269266369196,0.00011448333906849406,-2.0700395951395167e-05,1.315582510530433e-05,7.120768229229579e-07,-1.4241536456793824e-06,-1.0421790894721283e-06,-0.0007467698269788713,-0.0011407829123391078,0.00023512805329913472,-0.0006754441784847608,8.110184486549412e-06,-2.2032936399926324e-05,-7.535207241352679e-05,0.3752071261405945,19.745019912719727,0.4982573688030243,-19.983552932739258,-0.6539817452430725,-2.4694857597351074,0.23471395671367645,0
73,0.36002159118652344,-0.3514034152030945,-19.717248916625977,-0.5220611095428467,20.054964065551758,0.6475730538368225,2.4758944511413574,-0.21457235515117645,0.0,0.0,0.0,0.0,0.0,0.0,0.0,-0.3422988354255078,0.04675271625630974,-0.3165873055877576,0.22729697519418196,0.07231302637289175,0.09668222225927589,-0.2405629578388221,1.2135920360255656,-0.2203596637688185,-0.007489457760921172,-2.603866787435155,-0.10888392708698909,2.46818283785714,0.826473597277163,1.2134413937687574,-0.2202432315892585,-0.0075118285948192216,-2.6038483821997875,-0.10888392708698907,2.4681821257803174,0.826474908251239,9.020783182079542e-05,0.000854920864596255,0.0006198707186123285,-0.0011769524296174189,-0.001234063361737552,-0.00039252925026773863,-0.0009442660662636008,0.0,0.0,0.0,0.0,0.0,0.0,0.0,-0.00015064225680827548,0.0001164321795600054,-2.2370833898049426e-05,1.8405235367335848e-05,1.3877787807814457e-17,-7.120768228396912e-07,1.3109740760741673e-06,-9.020783182079542e-05,-0.000854920864596255,-0.0006198707186123285,0.0011769524296174189,0.001234063361737552,0.00039252925026773863,0.0009442660662636008,0.3514034152030945,19.717248916625977,0.5220611095428467,-20.054964065551758,-0.6475730538368225,-2.4758944511413574,0.21457235515117645,0
74,0.3650352954864502,-0.3514034152030945,-19.717248916625977,-0.5220611095428467,20.054964065551758,0.6475730538368225,2.4758944511413574,-0.21457235515117645,0.0,0.0,0.0,0.0,0.0,0.0,0.0,-0.3422988354255078,0.04675271625630974,-0.3165873055877576,0.22729697519418196,0.07231302637289175,0.09668222225927589,-0.2405629578388221,1.2135920360255656,-0.2203596637688185,-0.007489457760921172,-2.603866787435155,-0.10888392708698909,2.46818283785714,0.826473597277163,1.2134413937687574,-0.2202432315892585,-0.0075118285948192216,-2.6038483821997875,-0.10888392708698907,2.4681821257803174,0.826474908251239,9.020783182079542e-05,0.000854920864596255,0.0006198707186123285,-0.0011769524296174189,-0.001234063361737552,-0.00039252925026773863,-0.0009442660662636008,0.0,0.0,0.0,0.0,0.0,0.0,0.0,-0.00015064225680827548,0.0001164321795600054,-2.2370833898049426e-05,1.8405235367335848e-05,1.3877787807814457e-17,-7.120768228396912e-07,1.3109740760741673e-06,-9.020783182079542e-05,-0.000854920864596255,-0.0006198707186123285,0.0011769524296174189,0.001234063361737552,0.00039252925026773863,0.0009442660662636008,0.3514034152030945,19.717248916625977,0.5220611095428467,-20.054964065551758,-0.6475730538368225,-2.4758944511413574,0.21457235515117645,0
75,0.3700079917907715,-0.3236324191093445,-19.717248916625977,-0.4982573688030243,20.007356643676758,0.6594749093055725,2.4694857597351074,-0.21457235515117645,0.0,0.0,0.0,0.0,0.0,0.0,0.0,-0.34292174426496697,0.04055428074850502,-0.3123462015910845,0.2278535780677642,0.07131808670929911,0.09688048345901991,-0.24059120251705354,1.2135900871837346,-0.2203596637688185,-0.007491128198867826,-2.603863452632015,-0.1088852495153745,2.468183549933963,0.8264737111379487,1.2134413937687574,-0.2202432315892585,-0.0075118285948192216,-2.6038483821997875,-0.10888392708698907,2.4681821257803174,0.826474908251239,-0.0008451668726078759,0.00042360691554704517,-0.00023274330248289598,3.0473743476022942e-05,-0.0002398199802373287,-6.45409621214434e-05,-0.0010378644366069057,0.0,0.0,0.0,0.0,0.0,0.0,0.0,-0.0001486934149772523,0.0001164321795600054,-2.0700395951395167e-05,1.5070432227481945e-05,1.3224283854224028e-06,-1.4241536456793824e-06,1.1971132903854098e-06,0.0008451668726078759,-0.00042360691554704517,0.00023274330248289598,-3.0473743476022942e-05,0.0002398199802373287,6.45409621214434e-05,0.0010378644366069057,0.3236324191093445,19.717248916625977,0.4982573688030243,-20.007356643676758,-0.6594749093055725,-2.4694857597351074,0.21457235515117645,0
76,0.37503552436828613,-0.3236324191093445,-19.717248916625977,-0.4982573688030243,20.007356643676758,0.6594749093055725,2.4694857597351074,-0.21457235515117645,0.0,0.0,0.0,0.0,0.0,0.0,0.0,-0.34292174426496697,0.04055428074850502,-0.3123462015910845,0.2278535780677642,0.07131808670929911,0.09688048345901991,-0.24059120251705354,1.2135900871837346,-0.2203596637688185,-0.007491128198867826,-2.603863452632015,-0.1088852495153745,2.468183549933963,0.8264737111379487,1.2134413937687574,-0.2202432315892585,-0.0075118285948192216,-2.6038483821997875,-0.10888392708698907,2.4681821257803174,0.826474908251239,-0.0008451668726078759,0.00042360691554704517,-0.00023274330248289598,3.0473743476022942e-05,-0.0002398199802373287,-6.45409621214434e-05,-0.0010378644366069057,0.0,0.0,0.0,0.0,0.0,0.0,0.0,-0.0001486934149772523,0.0001164321795600054,-2.0700395951395167e-05,1.5070432227481945e-05,1.3224283854224028e-06,-1.4241536456793824e-06,1.1971132903854098e-06,0.0008451668726078759,-0.00042360691554704517,0.00023274330248289598,-3.0473743476022942e-05,0.0002398199802373287,6.45409621214434e-05,0.0010378644366069057,0.3236324191093445,19.717248916625977,0.4982573688030243,-20.007356643676758,-0.6594749093055725,-2.4694857597351074,0.21457235515117645,0
77,0.3800191879272461,-0.4029781222343445,-19.717248916625977,-0.4982573688030243,20.007356643676758,0.6658836007118225,2.4694857597351074,-0.21457235515117645,0.0,0.0,0.0,0.0,0.0,0.0,0.0,-0.3478911517794066,0.04258484463126938,-0.3151808777211634,0.22194964712053927,0.07135680738718542,0.09600606298821897,-0.24097016003578028,1.213595655303252,-0.2203596637688185,-0.007491128198867826,-2.6038611449756783,-0.10888596159219742,2.468183549933963,0.8264750075977404,1.2134413937687574,-0.2202432315892585,-0.0075118285948192216,-2.6038483821997875,-0.10888392708698907,2.4681821257803174,0.826474908251239,0.0012148604332780188,0.0003472316790716976,-0.000965865104047324,-0.0007650484226497992,-0.00033947442946378787,-0.00013011989715923445,-0.001387858959707012,0.0,0.0,0.0,0.0,0.0,0.0,0.0,-0.00015426153449471514,0.0001164321795600054,-2.0700395951395167e-05,1.2762775890795552e-05,2.0345052083453607e-06,-1.4241536456793824e-06,-9.934650135878798e-08,-0.0012148604332780188,-0.0003472316790716976,0.000965865104047324,0.0007650484226497992,0.00033947442946378787,0.00013011989715923445,0.001387858959707012,0.4029781222343445,19.717248916625977,0.4982573688030243,-20.007356643676758,-0.6658836007118225,-2.4694857597351074,0.21457235515117645,0
78,0.3850395679473877,-0.4029781222343445,-19.717248916625977,-0.4982573688030243,20.007356643676758,0.6658836007118225,2.4694857597351074,-0.21457235515117645,0.0,0.0,0.0,0.0,0.0,0.0,0.0,-0.3478911517794066,0.04258484463126938,-0.3151808777211634,0.22194964712053927,0.07135680738718542,0.09600606298821897,-0.24097016003578028,1.213595655303252,-0.2203596637688185,-0.007491128198867826,-2.6038611449756783,-0.10888596159219742,2.468183549933963,0.8264750075977404,1.2134413937687574,-0.2202432315892585,-0.0075118285948192216,-2.6038483821997875,-0.10888392708698907,2.4681821257803174,0.826474908251239,0.0012148604332780188,0.0003472316790716976,-0.000965865104047324,-0.0007650484226497992,-0.00033947442946378787,-0.00013011989715923445,-0.001387858959707012,0.0,0.0,0.0,0.0,0.0,0.0,0.0,-0.00015426153449471514,0.0001164321795600054,-2.0700395951395167e-05,1.2762775890795552e-05,2.0345052083453607e-06,-1.4241536456793824e-06,-9.934650135878798e-08,-0.0012148604332780188,-0.0003472316790716976,0.000965865104047324,0.0007650484226497992,0.00033947442946378787,0.00013011989715923445,0.001387858959707012,0.4029781222343445,19.717248916625977,0.4982573688030243,-20.007356643676758,-0.6658836007118225,-2.4694857597351074,0.21457235515117645,0
79,0.39002132415771484,-0.4029781222343445,-19.717248916625977,-0.4982573688030243,20.007356643676758,0.6658836007118225,2.4694857597351074,-0.21457235515117645,0.0,0.0,0.0,0.0,0.0,0.0,0.0,-0.3478911517794066,0.04258484463126938,-0.3151808777211634,0.22194964712053927,0.07135680738718542,0.09600606298821897,-0.24097016003578028,1.213595655303252,-0.2203596637688185,-0.007491128198867826,-2.6038611449756783,-0.10888596159219742,2.468183549933963,0.8264750075977404,1.2134413937687574,-0.2202432315892585,-0.0075118285948192216,-2.6038483821997875,-0.10888392708698907,2.4681821257803174,0.826474908251239,0.0012148604332780188,0.0003472316790716976,-0.000965865104047324,-0.0007650484226497992,-0.00033947442946378787,-0.00013011989715923445,-0.001387858959707012,0.0,0.0,0.0,0.0,0.0,0.0,0.0,-0.00015426153449471514,0.0001164321795600054,-2.0700395951395167e-05,1.2762775890795552e-05,2.0345052083453607e-06,-1.4241536456793824e-06,-9.934650135878798e-08,-0.0012148604332780188,-0.0003472316790716976,0.000965865104047324,0.0007650484226497992,0.00033947442946378787,0.00013011989715923445,0.001387858959707012,0.4029781222343445,19.717248916625977,0.4982573688030243,-20.007356643676758,-0.6658836007118225,-2.4694857597351074,0.21457235515117645,0
