rezayati/contactInterpretation/dataset/franka_main/labeled_data/link2/f5_6.csv
index,time,tau_J0,tau_J1,tau_J2,tau_J3,tau_J4,tau_J5,tau_J6,tau_J_d0,tau_J_d1,tau_J_d2,tau_J_d3,tau_J_d4,tau_J_d5,tau_J_d6,tau_ext0,tau_ext1,tau_ext2,tau_ext3,tau_ext4,tau_ext5,tau_ext6,q0,q1,q2,q3,q4,q5,q6,q_d0,q_d1,q_d2,q_d3,q_d4,q_d5,q_d6,dq0,dq1,dq2,dq3,dq4,dq5,dq6,dq_d0,dq_d1,dq_d2,dq_d3,dq_d4,dq_d5,dq_d6,e0,e1,e2,e3,e4,e5,e6,de0,de1,de2,de3,de4,de5,de6,etau_J0,etau_J1,etau_J2,etau_J3,etau_J4,etau_J5,etau_J6,label
1,0.0,0.13260537385940552,-18.154138565063477,1.1441986560821533,17.999910354614258,0.4928489327430725,2.2360262870788574,-0.20083944499492645,0.0,0.0,0.0,0.0,0.0,0.0,0.0,0.11746942173920899,0.5365962120301047,0.32620816933654107,0.3748472520099224,0.07011719051276182,0.056806076673599215,-0.1812103592592302,-0.6089645697317625,-0.05769800408785803,-0.6665844422322976,-2.5945537190019037,-0.05562319962906852,2.5079735380061177,0.8763184780991738,-0.6090851748156966,-0.05753196718556838,-0.666603097082616,-2.5945565370258534,-0.05562143941554,2.507976027223799,0.8763108487046415,-0.000268990633019703,8.056370929445643e-05,0.0001382400713246395,0.0003429638087319472,0.0002556725320279181,0.0003972754766340214,6.134101427358396e-05,0.0,0.0,0.0,0.0,0.0,0.0,0.0,-0.00012060508393407776,0.00016603690228964713,-1.8654850318378102e-05,-2.8180239497466175e-06,1.76021352851774e-06,2.4892176813118283e-06,-7.629394532360223e-06,0.000268990633019703,-8.056370929445643e-05,-0.0001382400713246395,-0.0003429638087319472,-0.0002556725320279181,-0.0003972754766340214,-6.134101427358396e-05,-0.13260537385940552,18.154138565063477,-1.1441986560821533,-17.999910354614258,-0.4928489327430725,-2.2360262870788574,0.20083944499492645,0
2,0.0050048828125,0.13260537385940552,-18.154138565063477,1.1441986560821533,17.999910354614258,0.4928489327430725,2.2360262870788574,-0.20083944499492645,0.0,0.0,0.0,0.0,0.0,0.0,0.0,0.11746942173920899,0.5365962120301047,0.32620816933654107,0.3748472520099224,0.07011719051276182,0.056806076673599215,-0.1812103592592302,-0.6089645697317625,-0.05769800408785803,-0.6665844422322976,-2.5945537190019037,-0.05562319962906852,2.5079735380061177,0.8763184780991738,-0.6090851748156966,-0.05753196718556838,-0.666603097082616,-2.5945565370258534,-0.05562143941554,2.507976027223799,0.8763108487046415,-0.000268990633019703,8.056370929445643e-05,0.0001382400713246395,0.0003429638087319472,0.0002556725320279181,0.0003972754766340214,6.134101427358396e-05,0.0,0.0,0.0,0.0,0.0,0.0,0.0,-0.00012060508393407776,0.00016603690228964713,-1.8654850318378102e-05,-2.8180239497466175e-06,1.76021352851774e-06,2.4892176813118283e-06,-7.629394532360223e-06,0.000268990633019703,-8.056370929445643e-05,-0.0001382400713246395,-0.0003429638087319472,-0.0002556725320279181,-0.0003972754766340214,-6.134101427358396e-05,-0.13260537385940552,18.154138565063477,-1.1441986560821533,-17.999910354614258,-0.4928489327430725,-2.2360262870788574,0.20083944499492645,0
3,0.010005712509155273,0.10880166292190552,-18.154138565063477,1.1164276599884033,18.023714065551758,0.5047507882118225,2.2424349784851074,-0.18710653483867645,0.0,0.0,0.0,0.0,0.0,0.0,0.0,0.11150185694327752,0.5282849393844966,0.3204418241531829,0.37487133794066585,0.07110484316734267,0.05751083650510799,-0.1814109336166675,-0.6089628992959073,-0.05769800408785803,-0.6665805053140033,-2.594555389437759,-0.05562450058668186,2.5079756476941664,0.8763169522202676,-0.6090851748156966,-0.05753196718556838,-0.666603097082616,-2.5945565370258534,-0.05562143941554,2.507976027223799,0.8763108487046415,-0.00018064671646367964,-0.0004667136948039241,0.00041249560003367235,-0.000622169080633769,-0.00034860434941408444,3.2421254783871904e-05,0.0002543547593217838,0.0,0.0,0.0,0.0,0.0,0.0,0.0,-0.0001222755197892722,0.00016603690228964713,-2.2591768612745255e-05,-1.147588094330132e-06,3.061171141863217e-06,3.7952963261034256e-07,-6.1035156261324275e-06,0.00018064671646367964,0.0004667136948039241,-0.00041249560003367235,0.000622169080633769,0.00034860434941408444,-3.2421254783871904e-05,-0.0002543547593217838,-0.10880166292190552,18.154138565063477,-1.1164276599884033,-18.023714065551758,-0.5047507882118225,-2.2424349784851074,0.18710653483867645,0
4,0.014995336532592773,0.10880166292190552,-18.154138565063477,1.1164276599884033,18.023714065551758,0.5047507882118225,2.2424349784851074,-0.18710653483867645,0.0,0.0,0.0,0.0,0.0,0.0,0.0,0.11150185694327752,0.5282849393844966,0.3204418241531829,0.37487133794066585,0.07110484316734267,0.05751083650510799,-0.1814109336166675,-0.6089628992959073,-0.05769800408785803,-0.6665805053140033,-2.594555389437759,-0.05562450058668186,2.5079756476941664,0.8763169522202676,-0.6090851748156966,-0.05753196718556838,-0.666603097082616,-2.5945565370258534,-0.05562143941554,2.507976027223799,0.8763108487046415,-0.00018064671646367964,-0.0004667136948039241,0.00041249560003367235,-0.000622169080633769,-0.00034860434941408444,3.2421254783871904e-05,0.0002543547593217838,0.0,0.0,0.0,0.0,0.0,0.0,0.0,-0.0001222755197892722,0.00016603690228964713,-2.2591768612745255e-05,-1.147588094330132e-06,3.061171141863217e-06,3.7952963261034256e-07,-6.1035156261324275e-06,0.00018064671646367964,0.0004667136948039241,-0.00041249560003367235,0.000622169080633769,0.00034860434941408444,-3.2421254783871904e-05,-0.0002543547593217838,-0.10880166292190552,18.154138565063477,-1.1164276599884033,-18.023714065551758,-0.5047507882118225,-2.2424349784851074,0.18710653483867645,0
5,0.01999831199645996,0.08103066682815552,-18.106531143188477,1.1164276599884033,18.023714065551758,0.4864402413368225,2.2424349784851074,-0.22830526530742645,0.0,0.0,0.0,0.0,0.0,0.0,0.0,0.11449037291225123,0.5293942412330319,0.3233123512626841,0.3727222065397777,0.07099023972899199,0.05732775825344569,-0.18074309112972797,-0.6089609504540762,-0.05770134495956856,-0.6665833826773413,-2.594555389437759,-0.05562095318070104,2.507972623829096,0.8763214906111297,-0.6090851748156966,-0.05753196718556838,-0.666603097082616,-2.5945565370258534,-0.05562143941554,2.507976027223799,0.8763108487046415,0.0009128021605919768,-0.0006733826807794052,2.1447639848124913e-05,-0.00029556196037046605,0.00027651006391879955,-0.0002594277429271489,0.002308982520491093,0.0,0.0,0.0,0.0,0.0,0.0,0.0,-0.0001242243616204064,0.00016937777400017479,-1.9714405274706692e-05,-1.147588094330132e-06,-4.862348389617077e-07,3.4033947029499245e-06,-1.0641906488251252e-05,-0.0009128021605919768,0.0006733826807794052,-2.1447639848124913e-05,0.00029556196037046605,-0.00027651006391879955,0.0002594277429271489,-0.002308982520491093,-0.08103066682815552,18.106531143188477,-1.1164276599884033,-18.023714065551758,-0.4864402413368225,-2.2424349784851074,0.22830526530742645,0
6,0.02499866485595703,0.08103066682815552,-18.106531143188477,1.1164276599884033,18.023714065551758,0.4864402413368225,2.2424349784851074,-0.22830526530742645,0.0,0.0,0.0,0.0,0.0,0.0,0.0,0.11449037291225123,0.5293942412330319,0.3233123512626841,0.3727222065397777,0.07099023972899199,0.05732775825344569,-0.18074309112972797,-0.6089609504540762,-0.05770134495956856,-0.6665833826773413,-2.594555389437759,-0.05562095318070104,2.507972623829096,0.8763214906111297,-0.6090851748156966,-0.05753196718556838,-0.666603097082616,-2.5945565370258534,-0.05562143941554,2.507976027223799,0.8763108487046415,0.0009128021605919768,-0.0006733826807794052,2.1447639848124913e-05,-0.00029556196037046605,0.00027651006391879955,-0.0002594277429271489,0.002308982520491093,0.0,0.0,0.0,0.0,0.0,0.0,0.0,-0.0001242243616204064,0.00016937777400017479,-1.9714405274706692e-05,-1.147588094330132e-06,-4.862348389617077e-07,3.4033947029499245e-06,-1.0641906488251252e-05,-0.0009128021605919768,0.0006733826807794052,-2.1447639848124913e-05,0.00029556196037046605,-0.00027651006391879955,0.0002594277429271489,-0.002308982520491093,-0.08103066682815552,18.106531143188477,-1.1164276599884033,-18.023714065551758,-0.4864402413368225,-2.2424349784851074,0.22830526530742645,0
7,0.03000473976135254,0.10880166292190552,-18.106531143188477,1.1680023670196533,17.972139358520508,0.4983420968055725,2.2552523612976074,-0.18710653483867645,0.0,0.0,0.0,0.0,0.0,0.0,0.0,0.11673017966054042,0.5287797831929961,0.32422984430456425,0.37465905876869754,0.07043155862563456,0.05729078598245529,-0.18107136273670799,-0.6089628992959073,-0.05770134495956856,-0.6665839262144743,-2.5945517701600727,-0.05562342006267095,2.50797104710082,0.8763169522201938,-0.6090851748156966,-0.05753196718556838,-0.666603097082616,-2.5945565370258534,-0.05562143941554,2.507976027223799,0.8763108487046415,0.00014748586690603843,-0.00030773118257955613,-0.0006251436924839812,0.0006461315681944012,-0.000207563095978495,-0.0007626811285429389,-0.00017957508277950448,0.0,0.0,0.0,0.0,0.0,0.0,0.0,-0.0001222755197892722,0.00016937777400017479,-1.9170868141737962e-05,-4.766865780769791e-06,1.9806471309516405e-06,4.980122978892609e-06,-6.103515552302596e-06,-0.00014748586690603843,0.00030773118257955613,0.0006251436924839812,-0.0006461315681944012,0.000207563095978495,0.0007626811285429389,0.00017957508277950448,-0.10880166292190552,18.106531143188477,-1.1680023670196533,-17.972139358520508,-0.4983420968055725,-2.2552523612976074,0.18710653483867645,0
8,0.03500771522521973,0.10880166292190552,-18.106531143188477,1.1680023670196533,17.972139358520508,0.4983420968055725,2.2552523612976074,-0.18710653483867645,0.0,0.0,0.0,0.0,0.0,0.0,0.0,0.11673017966054042,0.5287797831929961,0.32422984430456425,0.37465905876869754,0.07043155862563456,0.05729078598245529,-0.18107136273670799,-0.6089628992959073,-0.05770134495956856,-0.6665839262144743,-2.5945517701600727,-0.05562342006267095,2.50797104710082,0.8763169522201938,-0.6090851748156966,-0.05753196718556838,-0.666603097082616,-2.5945565370258534,-0.05562143941554,2.507976027223799,0.8763108487046415,0.00014748586690603843,-0.00030773118257955613,-0.0006251436924839812,0.0006461315681944012,-0.000207563095978495,-0.0007626811285429389,-0.00017957508277950448,0.0,0.0,0.0,0.0,0.0,0.0,0.0,-0.0001222755197892722,0.00016937777400017479,-1.9170868141737962e-05,-4.766865780769791e-06,1.9806471309516405e-06,4.980122978892609e-06,-6.103515552302596e-06,-0.00014748586690603843,0.00030773118257955613,0.0006251436924839812,-0.0006461315681944012,0.000207563095978495,0.0007626811285429389,0.00017957508277950448,-0.10880166292190552,18.106531143188477,-1.1680023670196533,-17.972139358520508,-0.4983420968055725,-2.2552523612976074,0.18710653483867645,0
9,0.04088592529296875,0.13260537385940552,-18.078760147094727,1.1164276599884033,17.999910354614258,0.4928489327430725,2.2424349784851074,-0.20724813640117645,0.0,0.0,0.0,0.0,0.0,0.0,0.0,0.10911001219159878,0.5357011071436367,0.31773332769982604,0.37443794148105086,0.0702704559114396,0.056753295459001485,-0.18286390156287963,-0.6089645697317625,-0.0577032938013997,-0.6665809643207155,-2.5945537190019037,-0.05561984858080374,2.5079724668935444,0.876318836963287,-0.6090851748156966,-0.05753196718556838,-0.666603097082616,-2.5945565370258534,-0.05562143941554,2.507976027223799,0.8763108487046415,-0.0006285764834985501,-0.0004910097791436997,0.00012928587892788214,0.0004264705643131245,-0.0001298589857457801,-0.00014019304732590084,0.0001624425599307994,0.0,0.0,0.0,0.0,0.0,0.0,0.0,-0.00012060508393407776,0.00017132661583131592,-2.213276190055069e-05,-2.8180239497466175e-06,-1.5908347362619812e-06,3.560330254614996e-06,-7.98825864556374e-06,0.0006285764834985501,0.0004910097791436997,-0.00012928587892788214,-0.0004264705643131245,0.0001298589857457801,0.00014019304732590084,-0.0001624425599307994,-0.13260537385940552,18.078760147094727,-1.1164276599884033,-17.999910354614258,-0.4928489327430725,-2.2424349784851074,0.20724813640117645,0
10,0.044952392578125,0.13260537385940552,-18.078760147094727,1.1164276599884033,17.999910354614258,0.4928489327430725,2.2424349784851074,-0.20724813640117645,0.0,0.0,0.0,0.0,0.0,0.0,0.0,0.10911001219159878,0.5357011071436367,0.31773332769982604,0.37443794148105086,0.0702704559114396,0.056753295459001485,-0.18286390156287963,-0.6089645697317625,-0.0577032938013997,-0.6665809643207155,-2.5945537190019037,-0.05561984858080374,2.5079724668935444,0.876318836963287,-0.6090851748156966,-0.05753196718556838,-0.666603097082616,-2.5945565370258534,-0.05562143941554,2.507976027223799,0.8763108487046415,-0.0006285764834985501,-0.0004910097791436997,0.00012928587892788214,0.0004264705643131245,-0.0001298589857457801,-0.00014019304732590084,0.0001624425599307994,0.0,0.0,0.0,0.0,0.0,0.0,0.0,-0.00012060508393407776,0.00017132661583131592,-2.213276190055069e-05,-2.8180239497466175e-06,-1.5908347362619812e-06,3.560330254614996e-06,-7.98825864556374e-06,0.0006285764834985501,0.0004910097791436997,-0.00012928587892788214,-0.0004264705643131245,0.0001298589857457801,0.00014019304732590084,-0.0001624425599307994,-0.13260537385940552,18.078760147094727,-1.1164276599884033,-17.999910354614258,-0.4928489327430725,-2.2424349784851074,0.20724813640117645,0
11,0.05220937728881836,0.10880166292190552,-18.154138565063477,1.1441986560821533,17.999910354614258,0.4928489327430725,2.2424349784851074,-0.17978231608867645,0.0,0.0,0.0,0.0,0.0,0.0,0.0,0.10921517387337645,0.5330966593243303,0.3174244106459916,0.37799256762534256,0.0700909898406832,0.05698234155040452,-0.18347109953588972,-0.6089628992959073,-0.05769800408785803,-0.6665821747829208,-2.5945537190019037,-0.05561997053150604,2.507972588937905,0.8763129464198501,-0.6090851748156966,-0.05753196718556838,-0.666603097082616,-2.5945565370258534,-0.05562143941554,2.507976027223799,0.8763108487046415,-0.00018012678464191664,0.00044140871912001913,0.0003145342194853264,0.0003182591537784862,9.616349239793867e-05,-2.8801948875713074e-05,0.0005379123036366499,0.0,0.0,0.0,0.0,0.0,0.0,0.0,-0.0001222755197892722,0.00016603690228964713,-2.092229969519188e-05,-2.8180239497466175e-06,-1.468884033961615e-06,3.4382858937753724e-06,-2.097715208648765e-06,0.00018012678464191664,-0.00044140871912001913,-0.0003145342194853264,-0.0003182591537784862,-9.616349239793867e-05,2.8801948875713074e-05,-0.0005379123036366499,-0.10880166292190552,18.154138565063477,-1.1441986560821533,-17.999910354614258,-0.4928489327430725,-2.2424349784851074,0.17978231608867645,0
12,0.05499672889709473,0.10880166292190552,-18.154138565063477,1.1441986560821533,17.999910354614258,0.4928489327430725,2.2424349784851074,-0.17978231608867645,0.0,0.0,0.0,0.0,0.0,0.0,0.0,0.10921517387337645,0.5330966593243303,0.3174244106459916,0.37799256762534256,0.0700909898406832,0.05698234155040452,-0.18347109953588972,-0.6089628992959073,-0.05769800408785803,-0.6665821747829208,-2.5945537190019037,-0.05561997053150604,2.507972588937905,0.8763129464198501,-0.6090851748156966,-0.05753196718556838,-0.666603097082616,-2.5945565370258534,-0.05562143941554,2.507976027223799,0.8763108487046415,-0.00018012678464191664,0.00044140871912001913,0.0003145342194853264,0.0003182591537784862,9.616349239793867e-05,-2.8801948875713074e-05,0.0005379123036366499,0.0,0.0,0.0,0.0,0.0,0.0,0.0,-0.0001222755197892722,0.00016603690228964713,-2.092229969519188e-05,-2.8180239497466175e-06,-1.468884033961615e-06,3.4382858937753724e-06,-2.097715208648765e-06,0.00018012678464191664,-0.00044140871912001913,-0.0003145342194853264,-0.0003182591537784862,-9.616349239793867e-05,2.8801948875713074e-05,-0.0005379123036366499,-0.10880166292190552,18.154138565063477,-1.1441986560821533,-17.999910354614258,-0.4928489327430725,-2.2424349784851074,0.17978231608867645,0
13,0.05999445915222168,0.16037636995315552,-18.154138565063477,1.1441986560821533,17.972139358520508,0.4928489327430725,2.2424349784851074,-0.16604940593242645,0.0,0.0,0.0,0.0,0.0,0.0,0.0,0.11258436487388956,0.5380368467066087,0.3230529292121482,0.3733259422930916,0.06996860388826462,0.056425252212734776,-0.1823422748771677,-0.6089665185735936,-0.05769800408785803,-0.6665824261745279,-2.5945517701600727,-0.0556199048821327,2.5079724718465872,0.8763146125332717,-0.6090851748156966,-0.05753196718556838,-0.666603097082616,-2.5945565370258534,-0.05562143941554,2.507976027223799,0.8763108487046415,-0.0005907435771603301,0.00032047124060306104,0.0003896594696755936,0.0006472577510887262,-6.402396112151231e-05,-2.3293693178352837e-05,-0.0008450115255006203,0.0,0.0,0.0,0.0,0.0,0.0,0.0,-0.00011865624210294357,0.00016603690228964713,-2.0670908088105122e-05,-4.766865780769791e-06,-1.534533407301919e-06,3.5553772117502547e-06,-3.7638286302099644e-06,0.0005907435771603301,-0.00032047124060306104,-0.0003896594696755936,-0.0006472577510887262,6.402396112151231e-05,2.3293693178352837e-05,0.0008450115255006203,-0.16037636995315552,18.154138565063477,-1.1441986560821533,-17.972139358520508,-0.4928489327430725,-2.2424349784851074,0.16604940593242645,0
14,0.06499457359313965,0.16037636995315552,-18.154138565063477,1.1441986560821533,17.972139358520508,0.4928489327430725,2.2424349784851074,-0.16604940593242645,0.0,0.0,0.0,0.0,0.0,0.0,0.0,0.11258436487388956,0.5380368467066087,0.3230529292121482,0.3733259422930916,0.06996860388826462,0.056425252212734776,-0.1823422748771677,-0.6089665185735936,-0.05769800408785803,-0.6665824261745279,-2.5945517701600727,-0.0556199048821327,2.5079724718465872,0.8763146125332717,-0.6090851748156966,-0.05753196718556838,-0.666603097082616,-2.5945565370258534,-0.05562143941554,2.507976027223799,0.8763108487046415,-0.0005907435771603301,0.00032047124060306104,0.0003896594696755936,0.0006472577510887262,-6.402396112151231e-05,-2.3293693178352837e-05,-0.0008450115255006203,0.0,0.0,0.0,0.0,0.0,0.0,0.0,-0.00011865624210294357,0.00016603690228964713,-2.0670908088105122e-05,-4.766865780769791e-06,-1.534533407301919e-06,3.5553772117502547e-06,-3.7638286302099644e-06,0.0005907435771603301,-0.00032047124060306104,-0.0003896594696755936,-0.0006472577510887262,6.402396112151231e-05,2.3293693178352837e-05,0.0008450115255006203,-0.16037636995315552,18.154138565063477,-1.1441986560821533,-17.972139358520508,-0.4928489327430725,-2.2424349784851074,0.16604940593242645,0
15,0.06999659538269043,0.16037636995315552,-18.154138565063477,1.1441986560821533,17.972139358520508,0.4928489327430725,2.2424349784851074,-0.16604940593242645,0.0,0.0,0.0,0.0,0.0,0.0,0.0,0.11258436487388956,0.5380368467066087,0.3230529292121482,0.3733259422930916,0.06996860388826462,0.056425252212734776,-0.1823422748771677,-0.6089665185735936,-0.05769800408785803,-0.6665824261745279,-2.5945517701600727,-0.0556199048821327,2.5079724718465872,0.8763146125332717,-0.6090851748156966,-0.05753196718556838,-0.666603097082616,-2.5945565370258534,-0.05562143941554,2.507976027223799,0.8763108487046415,-0.0005907435771603301,0.00032047124060306104,0.0003896594696755936,0.0006472577510887262,-6.402396112151231e-05,-2.3293693178352837e-05,-0.0008450115255006203,0.0,0.0,0.0,0.0,0.0,0.0,0.0,-0.00011865624210294357,0.00016603690228964713,-2.0670908088105122e-05,-4.766865780769791e-06,-1.534533407301919e-06,3.5553772117502547e-06,-3.7638286302099644e-06,0.0005907435771603301,-0.00032047124060306104,-0.0003896594696755936,-0.0006472577510887262,6.402396112151231e-05,2.3293693178352837e-05,0.0008450115255006203,-0.16037636995315552,18.154138565063477,-1.1441986560821533,-17.972139358520508,-0.4928489327430725,-2.2424349784851074,0.16604940593242645,0
16,0.0749964714050293,0.16037636995315552,-18.154138565063477,1.1441986560821533,17.972139358520508,0.4928489327430725,2.2424349784851074,-0.16604940593242645,0.0,0.0,0.0,0.0,0.0,0.0,0.0,0.11258436487388956,0.5380368467066087,0.3230529292121482,0.3733259422930916,0.06996860388826462,0.056425252212734776,-0.1823422748771677,-0.6089665185735936,-0.05769800408785803,-0.6665824261745279,-2.5945517701600727,-0.0556199048821327,2.5079724718465872,0.8763146125332717,-0.6090851748156966,-0.05753196718556838,-0.666603097082616,-2.5945565370258534,-0.05562143941554,2.507976027223799,0.8763108487046415,-0.0005907435771603301,0.00032047124060306104,0.0003896594696755936,0.0006472577510887262,-6.402396112151231e-05,-2.3293693178352837e-05,-0.0008450115255006203,0.0,0.0,0.0,0.0,0.0,0.0,0.0,-0.00011865624210294357,0.00016603690228964713,-2.0670908088105122e-05,-4.766865780769791e-06,-1.534533407301919e-06,3.5553772117502547e-06,-3.7638286302099644e-06,0.0005907435771603301,-0.00032047124060306104,-0.0003896594696755936,-0.0006472577510887262,6.402396112151231e-05,2.3293693178352837e-05,0.0008450115255006203,-0.16037636995315552,18.154138565063477,-1.1441986560821533,-17.972139358520508,-0.4928489327430725,-2.2424349784851074,0.16604940593242645,0
17,0.07999396324157715,0.16037636995315552,-18.154138565063477,1.1441986560821533,17.972139358520508,0.4928489327430725,2.2424349784851074,-0.16604940593242645,0.0,0.0,0.0,0.0,0.0,0.0,0.0,0.11258436487388956,0.5380368467066087,0.3230529292121482,0.3733259422930916,0.06996860388826462,0.056425252212734776,-0.1823422748771677,-0.6089665185735936,-0.05769800408785803,-0.6665824261745279,-2.5945517701600727,-0.0556199048821327,2.5079724718465872,0.8763146125332717,-0.6090851748156966,-0.05753196718556838,-0.666603097082616,-2.5945565370258534,-0.05562143941554,2.507976027223799,0.8763108487046415,-0.0005907435771603301,0.00032047124060306104,0.0003896594696755936,0.0006472577510887262,-6.402396112151231e-05,-2.3293693178352837e-05,-0.0008450115255006203,0.0,0.0,0.0,0.0,0.0,0.0,0.0,-0.00011865624210294357,0.00016603690228964713,-2.0670908088105122e-05,-4.766865780769791e-06,-1.534533407301919e-06,3.5553772117502547e-06,-3.7638286302099644e-06,0.0005907435771603301,-0.00032047124060306104,-0.0003896594696755936,-0.0006472577510887262,6.402396112151231e-05,2.3293693178352837e-05,0.0008450115255006203,-0.16037636995315552,18.154138565063477,-1.1441986560821533,-17.972139358520508,-0.4928489327430725,-2.2424349784851074,0.16604940593242645,0
18,0.08500337600708008,0.13260537385940552,-18.130334854125977,1.1918060779571533,18.023714065551758,0.4864402413368225,2.2424349784851074,-0.23471395671367645,0.0,0.0,0.0,0.0,0.0,0.0,0.0,0.1136986187108055,0.5366989101528647,0.3243820482526835,0.3730744990942368,0.06967396631878334,0.05652314326495677,-0.18287003185863296,-0.6089645697317625,-0.057699674523713294,-0.6665880607981748,-2.594555389437759,-0.05562234782749735,2.5079725995973017,0.8763222419338093,-0.6090851748156966,-0.05753196718556838,-0.666603097082616,-2.5945565370258534,-0.05562143941554,2.507976027223799,0.8763108487046415,-0.00032776176596839026,1.1778257127952772e-06,-0.000857799763058359,-0.000588939847466868,0.00034262729071623323,-0.00024135047693755102,0.0019204794937619707,0.0,0.0,0.0,0.0,0.0,0.0,0.0,-0.00012060508393407776,0.00016770733814491096,-1.503628444121663e-05,-1.147588094330132e-06,9.084119573510296e-07,3.4276264972987747e-06,-1.1393229167766528e-05,0.00032776176596839026,-1.1778257127952772e-06,0.000857799763058359,0.000588939847466868,-0.00034262729071623323,0.00024135047693755102,-0.0019204794937619707,-0.13260537385940552,18.130334854125977,-1.1918060779571533,-18.023714065551758,-0.4864402413368225,-2.2424349784851074,0.23471395671367645,0
19,0.08999943733215332,0.13260537385940552,-18.130334854125977,1.1918060779571533,18.023714065551758,0.4864402413368225,2.2424349784851074,-0.23471395671367645,0.0,0.0,0.0,0.0,0.0,0.0,0.0,0.1136986187108055,0.5366989101528647,0.3243820482526835,0.3730744990942368,0.06967396631878334,0.05652314326495677,-0.18287003185863296,-0.6089645697317625,-0.057699674523713294,-0.6665880607981748,-2.594555389437759,-0.05562234782749735,2.5079725995973017,0.8763222419338093,-0.6090851748156966,-0.05753196718556838,-0.666603097082616,-2.5945565370258534,-0.05562143941554,2.507976027223799,0.8763108487046415,-0.00032776176596839026,1.1778257127952772e-06,-0.000857799763058359,-0.000588939847466868,0.00034262729071623323,-0.00024135047693755102,0.0019204794937619707,0.0,0.0,0.0,0.0,0.0,0.0,0.0,-0.00012060508393407776,0.00016770733814491096,-1.503628444121663e-05,-1.147588094330132e-06,9.084119573510296e-07,3.4276264972987747e-06,-1.1393229167766528e-05,0.00032776176596839026,-1.1778257127952772e-06,0.000857799763058359,0.000588939847466868,-0.00034262729071623323,0.00024135047693755102,-0.0019204794937619707,-0.13260537385940552,18.130334854125977,-1.1918060779571533,-18.023714065551758,-0.4864402413368225,-2.2424349784851074,0.23471395671367645,0
20,0.09499979019165039,0.16037636995315552,-18.106531143188477,1.1680023670196533,17.948335647583008,0.4928489327430725,2.2296175956726074,-0.17978231608867645,0.0,0.0,0.0,0.0,0.0,0.0,0.0,0.11490468755148758,0.5349850816573515,0.32801692695179385,0.373496180665429,0.06971750971437535,0.05673006327040047,-0.1819482966463098,-0.6089665185735936,-0.05770134495956856,-0.6665846037466746,-2.5945500997242177,-0.05561998288159472,2.5079754362794966,0.8763150787800549,-0.6090851748156966,-0.05753196718556838,-0.666603097082616,-2.5945565370258534,-0.05562143941554,2.507976027223799,0.8763108487046415,-0.0012807364344341447,-0.0004041604398676222,-0.00011006002188938143,0.0013328393766757918,0.0002486657665048976,0.0003710694693799066,-0.00015862670114223914,0.0,0.0,0.0,0.0,0.0,0.0,0.0,-0.00011865624210294357,0.00016937777400017479,-1.849333594139413e-05,-6.4373016357421875e-06,-1.4565339452807247e-06,5.909443023810468e-07,-4.2300754133917096e-06,0.0012807364344341447,0.0004041604398676222,0.00011006002188938143,-0.0013328393766757918,-0.0002486657665048976,-0.0003710694693799066,0.00015862670114223914,-0.16037636995315552,18.106531143188477,-1.1680023670196533,-17.948335647583008,-0.4928489327430725,-2.2296175956726074,0.17978231608867645,0
21,0.10015106201171875,0.16037636995315552,-18.106531143188477,1.1680023670196533,17.948335647583008,0.4928489327430725,2.2296175956726074,-0.17978231608867645,0.0,0.0,0.0,0.0,0.0,0.0,0.0,0.11490468755148758,0.5349850816573515,0.32801692695179385,0.373496180665429,0.06971750971437535,0.05673006327040047,-0.1819482966463098,-0.6089665185735936,-0.05770134495956856,-0.6665846037466746,-2.5945500997242177,-0.05561998288159472,2.5079754362794966,0.8763150787800549,-0.6090851748156966,-0.05753196718556838,-0.666603097082616,-2.5945565370258534,-0.05562143941554,2.507976027223799,0.8763108487046415,-0.0012807364344341447,-0.0004041604398676222,-0.00011006002188938143,0.0013328393766757918,0.0002486657665048976,0.0003710694693799066,-0.00015862670114223914,0.0,0.0,0.0,0.0,0.0,0.0,0.0,-0.00011865624210294357,0.00016937777400017479,-1.849333594139413e-05,-6.4373016357421875e-06,-1.4565339452807247e-06,5.909443023810468e-07,-4.2300754133917096e-06,0.0012807364344341447,0.0004041604398676222,0.00011006002188938143,-0.0013328393766757918,-0.0002486657665048976,-0.0003710694693799066,0.00015862670114223914,-0.16037636995315552,18.106531143188477,-1.1680023670196533,-17.948335647583008,-0.4928489327430725,-2.2296175956726074,0.17978231608867645,0
22,0.1049959659576416,0.08103066682815552,-18.106531143188477,1.1164276599884033,17.999910354614258,0.4928489327430725,2.2232089042663574,-0.17337362468242645,0.0,0.0,0.0,0.0,0.0,0.0,0.0,0.11378545302050867,0.5351306476536246,0.32847164038771076,0.37381865661718633,0.07057569259832597,0.056657112718058227,-0.18187725614341113,-0.6089609504540762,-0.05770134495956856,-0.666583410686616,-2.5945537190019037,-0.05562001796704269,2.507974607439527,0.87631507312267,-0.6090851748156966,-0.05753196718556838,-0.666603097082616,-2.5945565370258534,-0.05562143941554,2.507976027223799,0.8763108487046415,0.0007362798879335935,-0.00021721702743190944,0.000774095473973404,-3.705449848600562e-05,-5.463739248806878e-06,0.0005662914700159475,-0.0008649490077645717,0.0,0.0,0.0,0.0,0.0,0.0,0.0,-0.0001242243616204064,0.00016937777400017479,-1.9686396000029305e-05,-2.8180239497466175e-06,-1.4214484973101849e-06,1.419784271927682e-06,-4.224418028497823e-06,-0.0007362798879335935,0.00021721702743190944,-0.000774095473973404,3.705449848600562e-05,5.463739248806878e-06,-0.0005662914700159475,0.0008649490077645717,-0.08103066682815552,18.106531143188477,-1.1164276599884033,-17.999910354614258,-0.4928489327430725,-2.2232089042663574,0.17337362468242645,0
23,0.11000394821166992,0.08103066682815552,-18.106531143188477,1.1164276599884033,17.999910354614258,0.4928489327430725,2.2232089042663574,-0.17337362468242645,0.0,0.0,0.0,0.0,0.0,0.0,0.0,0.11378545302050867,0.5351306476536246,0.32847164038771076,0.37381865661718633,0.07057569259832597,0.056657112718058227,-0.18187725614341113,-0.6089609504540762,-0.05770134495956856,-0.666583410686616,-2.5945537190019037,-0.05562001796704269,2.507974607439527,0.87631507312267,-0.6090851748156966,-0.05753196718556838,-0.666603097082616,-2.5945565370258534,-0.05562143941554,2.507976027223799,0.8763108487046415,0.0007362798879335935,-0.00021721702743190944,0.000774095473973404,-3.705449848600562e-05,-5.463739248806878e-06,0.0005662914700159475,-0.0008649490077645717,0.0,0.0,0.0,0.0,0.0,0.0,0.0,-0.0001242243616204064,0.00016937777400017479,-1.9686396000029305e-05,-2.8180239497466175e-06,-1.4214484973101849e-06,1.419784271927682e-06,-4.224418028497823e-06,-0.0007362798879335935,0.00021721702743190944,-0.000774095473973404,3.705449848600562e-05,5.463739248806878e-06,-0.0005662914700159475,0.0008649490077645717,-0.08103066682815552,18.106531143188477,-1.1164276599884033,-17.999910354614258,-0.4928489327430725,-2.2232089042663574,0.17337362468242645,0
24,0.11500406265258789,0.08103066682815552,-18.106531143188477,1.1680023670196533,17.999910354614258,0.4983420968055725,2.2360262870788574,-0.22098104655742645,0.0,0.0,0.0,0.0,0.0,0.0,0.0,0.11754086834703117,0.5358762031049066,0.32982509237989194,0.3761433289237834,0.07019794349886307,0.056237671953507644,-0.1821533570535142,-0.6089609504540762,-0.05770134495956856,-0.6665838538933226,-2.5945537190019037,-0.05562051587079351,2.507973184946074,0.8763207160529092,-0.6090851748156966,-0.05753196718556838,-0.666603097082616,-2.5945565370258534,-0.05562143941554,2.507976027223799,0.8763108487046415,0.001162144522759415,-0.000448958469743291,-0.0010069597258435445,0.0003712793519829242,-5.153305759842279e-05,0.00021979170060075438,0.0017233919227749661,0.0,0.0,0.0,0.0,0.0,0.0,0.0,-0.0001242243616204064,0.00016937777400017479,-1.9243189293360885e-05,-2.8180239497466175e-06,-9.235447464908675e-07,2.8422777251790876e-06,-9.867348267689202e-06,-0.001162144522759415,0.000448958469743291,0.0010069597258435445,-0.0003712793519829242,5.153305759842279e-05,-0.00021979170060075438,-0.0017233919227749661,-0.08103066682815552,18.106531143188477,-1.1680023670196533,-17.999910354614258,-0.4983420968055725,-2.2360262870788574,0.22098104655742645,0
25,0.11500406265258789,0.08103066682815552,-18.106531143188477,1.1680023670196533,17.999910354614258,0.4983420968055725,2.2360262870788574,-0.22098104655742645,0.0,0.0,0.0,0.0,0.0,0.0,0.0,0.11754086834703117,0.5358762031049066,0.32982509237989194,0.3761433289237834,0.07019794349886307,0.056237671953507644,-0.1821533570535142,-0.6089609504540762,-0.05770134495956856,-0.6665838538933226,-2.5945537190019037,-0.05562051587079351,2.507973184946074,0.8763207160529092,-0.6090851748156966,-0.05753196718556838,-0.666603097082616,-2.5945565370258534,-0.05562143941554,2.507976027223799,0.8763108487046415,0.001162144522759415,-0.000448958469743291,-0.0010069597258435445,0.0003712793519829242,-5.153305759842279e-05,0.00021979170060075438,0.0017233919227749661,0.0,0.0,0.0,0.0,0.0,0.0,0.0,-0.0001242243616204064,0.00016937777400017479,-1.9243189293360885e-05,-2.8180239497466175e-06,-9.235447464908675e-07,2.8422777251790876e-06,-9.867348267689202e-06,-0.001162144522759415,0.000448958469743291,0.0010069597258435445,-0.0003712793519829242,5.153305759842279e-05,-0.00021979170060075438,-0.0017233919227749661,-0.08103066682815552,18.106531143188477,-1.1680023670196533,-17.999910354614258,-0.4983420968055725,-2.2360262870788574,0.22098104655742645,0
26,0.12499499320983887,0.10880166292190552,-18.154138565063477,1.1441986560821533,18.023714065551758,0.4928489327430725,2.2424349784851074,-0.15964071452617645,0.0,0.0,0.0,0.0,0.0,0.0,0.0,0.12135406825637426,0.5348600548364881,0.33049999714251144,0.3783732337140566,0.07041440899357827,0.05663657956726238,-0.18120396950411577,-0.6089628992959073,-0.05769800408785803,-0.6665831581425546,-2.594555389437759,-0.05562175855794858,2.5079756462924583,0.8763135472497453,-0.6090851748156966,-0.05753196718556838,-0.666603097082616,-2.5945565370258534,-0.05562143941554,2.507976027223799,0.8763108487046415,0.0005083591021918379,0.0005598536264968906,-0.0003423663503429154,-8.061228430585019e-05,0.00026548962594223125,2.5859264072041473e-05,-0.00034032257609629166,0.0,0.0,0.0,0.0,0.0,0.0,0.0,-0.0001222755197892722,0.00016603690228964713,-1.993894006135921e-05,-1.147588094330132e-06,3.1914240857661147e-07,3.8093134069328016e-07,-2.698545103818617e-06,-0.0005083591021918379,-0.0005598536264968906,0.0003423663503429154,8.061228430585019e-05,-0.00026548962594223125,-2.5859264072041473e-05,0.00034032257609629166,-0.10880166292190552,18.154138565063477,-1.1441986560821533,-18.023714065551758,-0.4928489327430725,-2.2424349784851074,0.15964071452617645,0
27,0.12999176979064941,0.10880166292190552,-18.154138565063477,1.1441986560821533,18.023714065551758,0.4928489327430725,2.2424349784851074,-0.15964071452617645,0.0,0.0,0.0,0.0,0.0,0.0,0.0,0.12135406825637426,0.5348600548364881,0.33049999714251144,0.3783732337140566,0.07041440899357827,0.05663657956726238,-0.18120396950411577,-0.6089628992959073,-0.05769800408785803,-0.6665831581425546,-2.594555389437759,-0.05562175855794858,2.5079756462924583,0.8763135472497453,-0.6090851748156966,-0.05753196718556838,-0.666603097082616,-2.5945565370258534,-0.05562143941554,2.507976027223799,0.8763108487046415,0.0005083591021918379,0.0005598536264968906,-0.0003423663503429154,-8.061228430585019e-05,0.00026548962594223125,2.5859264072041473e-05,-0.00034032257609629166,0.0,0.0,0.0,0.0,0.0,0.0,0.0,-0.0001222755197892722,0.00016603690228964713,-1.993894006135921e-05,-1.147588094330132e-06,3.1914240857661147e-07,3.8093134069328016e-07,-2.698545103818617e-06,-0.0005083591021918379,-0.0005598536264968906,0.0003423663503429154,8.061228430585019e-05,-0.00026548962594223125,-2.5859264072041473e-05,0.00034032257609629166,-0.10880166292190552,18.154138565063477,-1.1441986560821533,-18.023714065551758,-0.4928489327430725,-2.2424349784851074,0.15964071452617645,0
28,0.13499784469604492,0.10880166292190552,-18.106531143188477,1.1918060779571533,18.023714065551758,0.4983420968055725,2.2360262870788574,-0.19351522624492645,0.0,0.0,0.0,0.0,0.0,0.0,0.0,0.1141112190983638,0.535620942352184,0.32207624018762737,0.37487904645040193,0.07145403410023236,0.0560892290963442,-0.18011299586912935,-0.6089628992959073,-0.057701344995654956,-0.6665855162111897,-2.5945553619656594,-0.055622640493543866,2.507973571554527,0.8763176642950967,-0.6090851748156966,-0.05753196718556838,-0.666603097082616,-2.5945565370258534,-0.05562143941554,2.507976027223799,0.8763108487046415,-0.0001468959037510163,-0.0007157922748159208,-0.0018261533245634094,-0.0007676434130745812,-0.00021125388937358227,0.0002300044020976503,-0.000151873015774631,0.0,0.0,0.0,0.0,0.0,0.0,0.0,-0.0001222755197892722,0.00016937781008657254,-1.758087142633702e-05,-1.175060194036348e-06,1.2010780038665403e-06,2.455669271927974e-06,-6.815590455233611e-06,0.0001468959037510163,0.0007157922748159208,0.0018261533245634094,0.0007676434130745812,0.00021125388937358227,-0.0002300044020976503,0.000151873015774631,-0.10880166292190552,18.106531143188477,-1.1918060779571533,-18.023714065551758,-0.4983420968055725,-2.2360262870788574,0.19351522624492645,0
29,0.13999581336975098,0.10880166292190552,-18.106531143188477,1.1918060779571533,18.023714065551758,0.4983420968055725,2.2360262870788574,-0.19351522624492645,0.0,0.0,0.0,0.0,0.0,0.0,0.0,0.1141112190983638,0.535620942352184,0.32207624018762737,0.37487904645040193,0.07145403410023236,0.0560892290963442,-0.18011299586912935,-0.6089628992959073,-0.057701344995654956,-0.6665855162111897,-2.5945553619656594,-0.055622640493543866,2.507973571554527,0.8763176642950967,-0.6090851748156966,-0.05753196718556838,-0.666603097082616,-2.5945565370258534,-0.05562143941554,2.507976027223799,0.8763108487046415,-0.0001468959037510163,-0.0007157922748159208,-0.0018261533245634094,-0.0007676434130745812,-0.00021125388937358227,0.0002300044020976503,-0.000151873015774631,0.0,0.0,0.0,0.0,0.0,0.0,0.0,-0.0001222755197892722,0.00016937781008657254,-1.758087142633702e-05,-1.175060194036348e-06,1.2010780038665403e-06,2.455669271927974e-06,-6.815590455233611e-06,0.0001468959037510163,0.0007157922748159208,0.0018261533245634094,0.0007676434130745812,0.00021125388937358227,-0.0002300044020976503,0.000151873015774631,-0.10880166292190552,18.106531143188477,-1.1918060779571533,-18.023714065551758,-0.4983420968055725,-2.2360262870788574,0.19351522624492645,0
30,0.14499688148498535,0.10880166292190552,-18.130334854125977,1.1164276599884033,17.972139358520508,0.4983420968055725,2.2360262870788574,-0.20724813640117645,0.0,0.0,0.0,0.0,0.0,0.0,0.0,0.11397392469630858,0.5284628683966828,0.3209786878817164,0.37701808192618247,0.07088610942664941,0.05689320391223648,-0.17979616202365017,-0.6089628992959073,-0.057699674523713496,-0.6665802528444277,-2.5945517701599177,-0.055622722437710326,2.5079735757379407,0.876315658048899,-0.6090851748156966,-0.05753196718556838,-0.666603097082616,-2.5945565370258534,-0.05562143941554,2.507976027223799,0.8763108487046415,-2.362536755531091e-05,-0.000564351727094146,0.0003652696662471163,0.000609325864571212,-0.00021398734751552627,0.0003898039028843051,0.0011921106890196056,0.0,0.0,0.0,0.0,0.0,0.0,0.0,-0.0001222755197892722,0.00016770733814511218,-2.2844238188324262e-05,-4.766865935756925e-06,1.2830221703258315e-06,2.451485858312452e-06,-4.809344257505899e-06,2.362536755531091e-05,0.000564351727094146,-0.0003652696662471163,-0.000609325864571212,0.00021398734751552627,-0.0003898039028843051,-0.0011921106890196056,-0.10880166292190552,18.130334854125977,-1.1164276599884033,-17.972139358520508,-0.4983420968055725,-2.2360262870788574,0.20724813640117645,0
31,0.15000152587890625,0.10880166292190552,-18.130334854125977,1.1164276599884033,17.972139358520508,0.4983420968055725,2.2360262870788574,-0.20724813640117645,0.0,0.0,0.0,0.0,0.0,0.0,0.0,0.11397392469630858,0.5284628683966828,0.3209786878817164,0.37701808192618247,0.07088610942664941,0.05689320391223648,-0.17979616202365017,-0.6089628992959073,-0.057699674523713496,-0.6665802528444277,-2.5945517701599177,-0.055622722437710326,2.5079735757379407,0.876315658048899,-0.6090851748156966,-0.05753196718556838,-0.666603097082616,-2.5945565370258534,-0.05562143941554,2.507976027223799,0.8763108487046415,-2.362536755531091e-05,-0.000564351727094146,0.0003652696662471163,0.000609325864571212,-0.00021398734751552627,0.0003898039028843051,0.0011921106890196056,0.0,0.0,0.0,0.0,0.0,0.0,0.0,-0.0001222755197892722,0.00016770733814511218,-2.2844238188324262e-05,-4.766865935756925e-06,1.2830221703258315e-06,2.451485858312452e-06,-4.809344257505899e-06,2.362536755531091e-05,0.000564351727094146,-0.0003652696662471163,-0.000609325864571212,0.00021398734751552627,-0.0003898039028843051,-0.0011921106890196056,-0.10880166292190552,18.130334854125977,-1.1164276599884033,-17.972139358520508,-0.4983420968055725,-2.2360262870788574,0.20724813640117645,0
32,0.15499520301818848,0.13260537385940552,-18.078760147094727,1.2156097888946533,17.972139358520508,0.5047507882118225,2.2360262870788574,-0.13858358561992645,0.0,0.0,0.0,0.0,0.0,0.0,0.0,0.11906909488554206,0.5349515853698606,0.3257880657009919,0.36890042696044806,0.06989110095320301,0.05652620922605838,-0.1802901191172755,-0.6089645697317625,-0.0577032938013997,-0.6665893814722349,-2.5945517701600727,-0.05562417043015717,2.5079745937614883,0.8763115564008759,-0.6090851748156966,-0.05753196718556838,-0.666603097082616,-2.5945565370258534,-0.05562143941554,2.507976027223799,0.8763108487046415,-6.897291614463135e-05,-0.0010493174992810942,-0.0010661848850599968,0.00029172112778149756,-0.0003599803733090393,0.00019407934336274378,-0.0018957968300104828,0.0,0.0,0.0,0.0,0.0,0.0,0.0,-0.00012060508393407776,0.00017132661583131592,-1.3715610381104248e-05,-4.766865780769791e-06,2.73101461716746e-06,1.433462310629352e-06,-7.076962343921522e-07,6.897291614463135e-05,0.0010493174992810942,0.0010661848850599968,-0.00029172112778149756,0.0003599803733090393,-0.00019407934336274378,0.0018957968300104828,-0.13260537385940552,18.078760147094727,-1.2156097888946533,-17.972139358520508,-0.5047507882118225,-2.2360262870788574,0.13858358561992645,0
33,0.16000628471374512,0.13260537385940552,-18.078760147094727,1.2156097888946533,17.972139358520508,0.5047507882118225,2.2360262870788574,-0.13858358561992645,0.0,0.0,0.0,0.0,0.0,0.0,0.0,0.11906909488554206,0.5349515853698606,0.3257880657009919,0.36890042696044806,0.06989110095320301,0.05652620922605838,-0.1802901191172755,-0.6089645697317625,-0.0577032938013997,-0.6665893814722349,-2.5945517701600727,-0.05562417043015717,2.5079745937614883,0.8763115564008759,-0.6090851748156966,-0.05753196718556838,-0.666603097082616,-2.5945565370258534,-0.05562143941554,2.507976027223799,0.8763108487046415,-6.897291614463135e-05,-0.0010493174992810942,-0.0010661848850599968,0.00029172112778149756,-0.0003599803733090393,0.00019407934336274378,-0.0018957968300104828,0.0,0.0,0.0,0.0,0.0,0.0,0.0,-0.00012060508393407776,0.00017132661583131592,-1.3715610381104248e-05,-4.766865780769791e-06,2.73101461716746e-06,1.433462310629352e-06,-7.076962343921522e-07,6.897291614463135e-05,0.0010493174992810942,0.0010661848850599968,-0.00029172112778149756,0.0003599803733090393,-0.00019407934336274378,0.0018957968300104828,-0.13260537385940552,18.078760147094727,-1.2156097888946533,-17.972139358520508,-0.5047507882118225,-2.2360262870788574,0.13858358561992645,0
34,0.16500496864318848,0.13260537385940552,-18.106531143188477,1.1164276599884033,18.023714065551758,0.4928489327430725,2.2360262870788574,-0.20724813640117645,0.0,0.0,0.0,0.0,0.0,0.0,0.0,0.11135689701215577,0.5298610197483448,0.3203952998382857,0.3766600414290844,0.0706333824408462,0.05768513366310414,-0.18189745723895404,-0.6089645697317625,-0.05770134495956856,-0.6665834634241733,-2.594555389437759,-0.05562305975449836,2.5079731791019735,0.8763191901759226,-0.6090851748156966,-0.05753196718556838,-0.666603097082616,-2.5945565370258534,-0.05562143941554,2.507976027223799,0.8763108487046415,-0.00018289620085839499,6.109251938327345e-05,0.0008283648501224502,-0.000100487285832759,0.00013206129577981638,7.557542487135176e-05,0.0009221465475702471,0.0,0.0,0.0,0.0,0.0,0.0,0.0,-0.00012060508393407776,0.00016937777400017479,-1.9633658442708146e-05,-1.147588094330132e-06,1.6203389583621663e-06,2.8481218254938767e-06,-8.341471281148038e-06,0.00018289620085839499,-6.109251938327345e-05,-0.0008283648501224502,0.000100487285832759,-0.00013206129577981638,-7.557542487135176e-05,-0.0009221465475702471,-0.13260537385940552,18.106531143188477,-1.1164276599884033,-18.023714065551758,-0.4928489327430725,-2.2360262870788574,0.20724813640117645,0
35,0.17114782333374023,0.13260537385940552,-18.106531143188477,1.1164276599884033,18.023714065551758,0.4928489327430725,2.2360262870788574,-0.20724813640117645,0.0,0.0,0.0,0.0,0.0,0.0,0.0,0.11135689701215577,0.5298610197483448,0.3203952998382857,0.3766600414290844,0.0706333824408462,0.05768513366310414,-0.18189745723895404,-0.6089645697317625,-0.05770134495956856,-0.6665834634241733,-2.594555389437759,-0.05562305975449836,2.5079731791019735,0.8763191901759226,-0.6090851748156966,-0.05753196718556838,-0.666603097082616,-2.5945565370258534,-0.05562143941554,2.507976027223799,0.8763108487046415,-0.00018289620085839499,6.109251938327345e-05,0.0008283648501224502,-0.000100487285832759,0.00013206129577981638,7.557542487135176e-05,0.0009221465475702471,0.0,0.0,0.0,0.0,0.0,0.0,0.0,-0.00012060508393407776,0.00016937777400017479,-1.9633658442708146e-05,-1.147588094330132e-06,1.6203389583621663e-06,2.8481218254938767e-06,-8.341471281148038e-06,0.00018289620085839499,-6.109251938327345e-05,-0.0008283648501224502,0.000100487285832759,-0.00013206129577981638,-7.557542487135176e-05,-0.0009221465475702471,-0.13260537385940552,18.106531143188477,-1.1164276599884033,-18.023714065551758,-0.4928489327430725,-2.2360262870788574,0.20724813640117645,0
36,0.175004243850708,0.18418008089065552,-18.130334854125977,1.1918060779571533,18.047517776489258,0.4928489327430725,2.2296175956726074,-0.18710653483867645,0.0,0.0,0.0,0.0,0.0,0.0,0.0,0.11794394951360712,0.5338959289460324,0.32655620570179417,0.3748926232552222,0.0700985299541257,0.05660006308054023,-0.18245718369015196,-0.6089681890094489,-0.057699674523713294,-0.6665884307100738,-2.5945570598736145,-0.05562321715522226,2.5079739041291176,0.8763169522202676,-0.6090851748156966,-0.05753196718556838,-0.666603097082616,-2.5945565370258534,-0.05562143941554,2.507976027223799,0.8763108487046415,-0.0017058017028043217,0.00014161400156203737,-0.0004823903694203618,-0.0007007789617237698,8.838819927126507e-05,0.00041139660455882397,0.0006593027369238265,0.0,0.0,0.0,0.0,0.0,0.0,0.0,-0.0001169858062476381,0.00016770733814491096,-1.4666372542215811e-05,5.228477610863536e-07,1.7777396822613034e-06,2.1230946813943774e-06,-6.1035156261324275e-06,0.0017058017028043217,-0.00014161400156203737,0.0004823903694203618,0.0007007789617237698,-8.838819927126507e-05,-0.00041139660455882397,-0.0006593027369238265,-0.18418008089065552,18.130334854125977,-1.1918060779571533,-18.047517776489258,-0.4928489327430725,-2.2296175956726074,0.18710653483867645,0
37,0.18027043342590332,0.18418008089065552,-18.130334854125977,1.1918060779571533,18.047517776489258,0.4928489327430725,2.2296175956726074,-0.18710653483867645,0.0,0.0,0.0,0.0,0.0,0.0,0.0,0.11794394951360712,0.5338959289460324,0.32655620570179417,0.3748926232552222,0.0700985299541257,0.05660006308054023,-0.18245718369015196,-0.6089681890094489,-0.057699674523713294,-0.6665884307100738,-2.5945570598736145,-0.05562321715522226,2.5079739041291176,0.8763169522202676,-0.6090851748156966,-0.05753196718556838,-0.666603097082616,-2.5945565370258534,-0.05562143941554,2.507976027223799,0.8763108487046415,-0.0017058017028043217,0.00014161400156203737,-0.0004823903694203618,-0.0007007789617237698,8.838819927126507e-05,0.00041139660455882397,0.0006593027369238265,0.0,0.0,0.0,0.0,0.0,0.0,0.0,-0.0001169858062476381,0.00016770733814491096,-1.4666372542215811e-05,5.228477610863536e-07,1.7777396822613034e-06,2.1230946813943774e-06,-6.1035156261324275e-06,0.0017058017028043217,-0.00014161400156203737,0.0004823903694203618,0.0007007789617237698,-8.838819927126507e-05,-0.00041139660455882397,-0.0006593027369238265,-0.18418008089065552,18.130334854125977,-1.1918060779571533,-18.047517776489258,-0.4928489327430725,-2.2296175956726074,0.18710653483867645,0
38,0.1849534511566162,0.10880166292190552,-18.130334854125977,1.1441986560821533,18.023714065551758,0.4928489327430725,2.2360262870788574,-0.16604940593242645,0.0,0.0,0.0,0.0,0.0,0.0,0.0,0.11910635210170589,0.5325473070047333,0.32986612181814823,0.3791925604698126,0.06973149578380118,0.056636499853584134,-0.18120008284569972,-0.6089628992959073,-0.057699674523713294,-0.6665825014604377,-2.594555389437759,-0.05562284378918125,2.507973297138668,0.876314612539278,-0.6090851748156966,-0.05753196718556838,-0.666603097082616,-2.5945565370258534,-0.05562143941554,2.507976027223799,0.8763108487046415,0.0006915081016552844,-0.00035526597238822117,-7.489906499427036e-05,6.061220773534044e-05,7.447201274355507e-05,0.00016260956765891586,-0.0006903489285572083,0.0,0.0,0.0,0.0,0.0,0.0,0.0,-0.0001222755197892722,0.00016770733814491096,-2.0595622178265494e-05,-1.147588094330132e-06,1.4043736412533425e-06,2.730085130853155e-06,-3.7638346365165276e-06,-0.0006915081016552844,0.00035526597238822117,7.489906499427036e-05,-6.061220773534044e-05,-7.447201274355507e-05,-0.00016260956765891586,0.0006903489285572083,-0.10880166292190552,18.130334854125977,-1.1441986560821533,-18.023714065551758,-0.4928489327430725,-2.2360262870788574,0.16604940593242645,0
39,0.18999719619750977,0.10880166292190552,-18.130334854125977,1.1441986560821533,18.023714065551758,0.4928489327430725,2.2360262870788574,-0.16604940593242645,0.0,0.0,0.0,0.0,0.0,0.0,0.0,0.11910635210170589,0.5325473070047333,0.32986612181814823,0.3791925604698126,0.06973149578380118,0.056636499853584134,-0.18120008284569972,-0.6089628992959073,-0.057699674523713294,-0.6665825014604377,-2.594555389437759,-0.05562284378918125,2.507973297138668,0.876314612539278,-0.6090851748156966,-0.05753196718556838,-0.666603097082616,-2.5945565370258534,-0.05562143941554,2.507976027223799,0.8763108487046415,0.0006915081016552844,-0.00035526597238822117,-7.489906499427036e-05,6.061220773534044e-05,7.447201274355507e-05,0.00016260956765891586,-0.0006903489285572083,0.0,0.0,0.0,0.0,0.0,0.0,0.0,-0.0001222755197892722,0.00016770733814491096,-2.0595622178265494e-05,-1.147588094330132e-06,1.4043736412533425e-06,2.730085130853155e-06,-3.7638346365165276e-06,-0.0006915081016552844,0.00035526597238822117,7.489906499427036e-05,-6.061220773534044e-05,-7.447201274355507e-05,-0.00016260956765891586,0.0006903489285572083,-0.10880166292190552,18.130334854125977,-1.1441986560821533,-18.023714065551758,-0.4928489327430725,-2.2360262870788574,0.16604940593242645,0
40,0.19499421119689941,0.13260537385940552,-18.154138565063477,1.1680023670196533,17.972139358520508,0.4928489327430725,2.2424349784851074,-0.20724813640117645,0.0,0.0,0.0,0.0,0.0,0.0,0.0,0.11986879575948105,0.5371317303077469,0.3303518382748319,0.3772591257865753,0.06910048128148852,0.055907410447738434,-0.18079933825325814,-0.6089645697317625,-0.05769800408785803,-0.6665849375056265,-2.5945517701600727,-0.05561961568001972,2.5079725191681606,0.8763190724384269,-0.6090851748156966,-0.05753196718556838,-0.666603097082616,-2.5945565370258534,-0.05562143941554,2.507976027223799,0.8763108487046415,-0.0006526662506238172,0.0008603803530934031,-0.000578385393152017,0.000736115152587896,-2.9370575724099398e-05,-0.0001903981346160555,0.0005137947335701555,0.0,0.0,0.0,0.0,0.0,0.0,0.0,-0.00012060508393407776,0.00016603690228964713,-1.815957698947379e-05,-4.766865780769791e-06,-1.8237355202815886e-06,3.5080556384237127e-06,-8.223733785395204e-06,0.0006526662506238172,-0.0008603803530934031,0.000578385393152017,-0.000736115152587896,2.9370575724099398e-05,0.0001903981346160555,-0.0005137947335701555,-0.13260537385940552,18.154138565063477,-1.1680023670196533,-17.972139358520508,-0.4928489327430725,-2.2424349784851074,0.20724813640117645,0
41,0.1999979019165039,0.13260537385940552,-18.154138565063477,1.1680023670196533,17.972139358520508,0.4928489327430725,2.2424349784851074,-0.20724813640117645,0.0,0.0,0.0,0.0,0.0,0.0,0.0,0.11986879575948105,0.5371317303077469,0.3303518382748319,0.3772591257865753,0.06910048128148852,0.055907410447738434,-0.18079933825325814,-0.6089645697317625,-0.05769800408785803,-0.6665849375056265,-2.5945517701600727,-0.05561961568001972,2.5079725191681606,0.8763190724384269,-0.6090851748156966,-0.05753196718556838,-0.666603097082616,-2.5945565370258534,-0.05562143941554,2.507976027223799,0.8763108487046415,-0.0006526662506238172,0.0008603803530934031,-0.000578385393152017,0.000736115152587896,-2.9370575724099398e-05,-0.0001903981346160555,0.0005137947335701555,0.0,0.0,0.0,0.0,0.0,0.0,0.0,-0.00012060508393407776,0.00016603690228964713,-1.815957698947379e-05,-4.766865780769791e-06,-1.8237355202815886e-06,3.5080556384237127e-06,-8.223733785395204e-06,0.0006526662506238172,-0.0008603803530934031,0.000578385393152017,-0.000736115152587896,2.9370575724099398e-05,0.0001903981346160555,-0.0005137947335701555,-0.13260537385940552,18.154138565063477,-1.1680023670196533,-17.972139358520508,-0.4928489327430725,-2.2424349784851074,0.20724813640117645,0
42,0.20499897003173828,0.13260537385940552,-18.154138565063477,1.1680023670196533,17.972139358520508,0.4928489327430725,2.2424349784851074,-0.20724813640117645,0.0,0.0,0.0,0.0,0.0,0.0,0.0,0.11986879575948105,0.5371317303077469,0.3303518382748319,0.3772591257865753,0.06910048128148852,0.055907410447738434,-0.18079933825325814,-0.6089645697317625,-0.05769800408785803,-0.6665849375056265,-2.5945517701600727,-0.05561961568001972,2.5079725191681606,0.8763190724384269,-0.6090851748156966,-0.05753196718556838,-0.666603097082616,-2.5945565370258534,-0.05562143941554,2.507976027223799,0.8763108487046415,-0.0006526662506238172,0.0008603803530934031,-0.000578385393152017,0.000736115152587896,-2.9370575724099398e-05,-0.0001903981346160555,0.0005137947335701555,0.0,0.0,0.0,0.0,0.0,0.0,0.0,-0.00012060508393407776,0.00016603690228964713,-1.815957698947379e-05,-4.766865780769791e-06,-1.8237355202815886e-06,3.5080556384237127e-06,-8.223733785395204e-06,0.0006526662506238172,-0.0008603803530934031,0.000578385393152017,-0.000736115152587896,2.9370575724099398e-05,0.0001903981346160555,-0.0005137947335701555,-0.13260537385940552,18.154138565063477,-1.1680023670196533,-17.972139358520508,-0.4928489327430725,-2.2424349784851074,0.20724813640117645,0
43,0.21000051498413086,0.13260537385940552,-18.154138565063477,1.1680023670196533,17.972139358520508,0.4928489327430725,2.2424349784851074,-0.20724813640117645,0.0,0.0,0.0,0.0,0.0,0.0,0.0,0.11986879575948105,0.5371317303077469,0.3303518382748319,0.3772591257865753,0.06910048128148852,0.055907410447738434,-0.18079933825325814,-0.6089645697317625,-0.05769800408785803,-0.6665849375056265,-2.5945517701600727,-0.05561961568001972,2.5079725191681606,0.8763190724384269,-0.6090851748156966,-0.05753196718556838,-0.666603097082616,-2.5945565370258534,-0.05562143941554,2.507976027223799,0.8763108487046415,-0.0006526662506238172,0.0008603803530934031,-0.000578385393152017,0.000736115152587896,-2.9370575724099398e-05,-0.0001903981346160555,0.0005137947335701555,0.0,0.0,0.0,0.0,0.0,0.0,0.0,-0.00012060508393407776,0.00016603690228964713,-1.815957698947379e-05,-4.766865780769791e-06,-1.8237355202815886e-06,3.5080556384237127e-06,-8.223733785395204e-06,0.0006526662506238172,-0.0008603803530934031,0.000578385393152017,-0.000736115152587896,2.9370575724099398e-05,0.0001903981346160555,-0.0005137947335701555,-0.13260537385940552,18.154138565063477,-1.1680023670196533,-17.972139358520508,-0.4928489327430725,-2.2424349784851074,0.20724813640117645,0
44,0.2149980068206787,0.08103066682815552,-18.106531143188477,1.1164276599884033,17.999910354614258,0.4983420968055725,2.2424349784851074,-0.22098104655742645,0.0,0.0,0.0,0.0,0.0,0.0,0.0,0.1181256113849197,0.5359689026866847,0.32906459860964393,0.37915918730489406,0.06891188920338237,0.05591884867323591,-0.1814427836434806,-0.6089609505630924,-0.05770134495956856,-0.6665804787699834,-2.5945537190019037,-0.05561955489507913,2.5079726296376075,0.8763207160542384,-0.6090851748156966,-0.05753196718556838,-0.666603097082616,-2.5945565370258534,-0.05562143941554,2.507976027223799,0.8763108487046415,0.0005126275230206078,-0.0005066287211180038,0.0005245284165306046,-0.00022982596834974448,-0.00012739922598280923,4.252594415316133e-05,0.0011439074668406137,0.0,0.0,0.0,0.0,0.0,0.0,0.0,-0.00012422425260416592,0.00016937777400017479,-2.2618312632616266e-05,-2.8180239497466175e-06,-1.8845204608694544e-06,3.3975861915003236e-06,-9.86734959695923e-06,-0.0005126275230206078,0.0005066287211180038,-0.0005245284165306046,0.00022982596834974448,0.00012739922598280923,-4.252594415316133e-05,-0.0011439074668406137,-0.08103066682815552,18.106531143188477,-1.1164276599884033,-17.999910354614258,-0.4983420968055725,-2.2424349784851074,0.22098104655742645,0
45,0.21999740600585938,0.08103066682815552,-18.106531143188477,1.1164276599884033,17.999910354614258,0.4983420968055725,2.2424349784851074,-0.22098104655742645,0.0,0.0,0.0,0.0,0.0,0.0,0.0,0.1181256113849197,0.5359689026866847,0.32906459860964393,0.37915918730489406,0.06891188920338237,0.05591884867323591,-0.1814427836434806,-0.6089609505630924,-0.05770134495956856,-0.6665804787699834,-2.5945537190019037,-0.05561955489507913,2.5079726296376075,0.8763207160542384,-0.6090851748156966,-0.05753196718556838,-0.666603097082616,-2.5945565370258534,-0.05562143941554,2.507976027223799,0.8763108487046415,0.0005126275230206078,-0.0005066287211180038,0.0005245284165306046,-0.00022982596834974448,-0.00012739922598280923,4.252594415316133e-05,0.0011439074668406137,0.0,0.0,0.0,0.0,0.0,0.0,0.0,-0.00012422425260416592,0.00016937777400017479,-2.2618312632616266e-05,-2.8180239497466175e-06,-1.8845204608694544e-06,3.3975861915003236e-06,-9.86734959695923e-06,-0.0005126275230206078,0.0005066287211180038,-0.0005245284165306046,0.00022982596834974448,0.00012739922598280923,-4.252594415316133e-05,-0.0011439074668406137,-0.08103066682815552,18.106531143188477,-1.1164276599884033,-17.999910354614258,-0.4983420968055725,-2.2424349784851074,0.22098104655742645,0
46,0.22499656677246094,0.08103066682815552,-18.106531143188477,1.1164276599884033,17.999910354614258,0.4864402413368225,2.2424349784851074,-0.17337362468242645,0.0,0.0,0.0,0.0,0.0,0.0,0.0,0.11669215219686316,0.5369122650398898,0.32478710623715873,0.37916934818016806,0.0690521930463776,0.05659278895325389,-0.18246562939235092,-0.6089609501270276,-0.05770134495956856,-0.6665810469678496,-2.5945537190019037,-0.05562107146219953,2.507973897294938,0.8763153870955048,-0.6090851748156966,-0.05753196718556838,-0.666603097082616,-2.5945565370258534,-0.05562143941554,2.507976027223799,0.8763108487046415,0.0006788772904946105,-4.5671867406609935e-05,0.0001243436962683949,0.00027475341044521555,0.0005284807656889466,-6.671940229428236e-05,0.0002723507258935533,0.0,0.0,0.0,0.0,0.0,0.0,0.0,-0.00012422468866901681,0.00016937777400017479,-2.2050114766414275e-05,-2.8180239497466175e-06,-3.67953340470184e-07,2.129928860838959e-06,-4.538390863340069e-06,-0.0006788772904946105,4.5671867406609935e-05,-0.0001243436962683949,-0.00027475341044521555,-0.0005284807656889466,6.671940229428236e-05,-0.0002723507258935533,-0.08103066682815552,18.106531143188477,-1.1164276599884033,-17.999910354614258,-0.4864402413368225,-2.2424349784851074,0.17337362468242645,0
47,0.23000454902648926,0.08103066682815552,-18.106531143188477,1.1164276599884033,17.999910354614258,0.4864402413368225,2.2424349784851074,-0.17337362468242645,0.0,0.0,0.0,0.0,0.0,0.0,0.0,0.11669215219686316,0.5369122650398898,0.32478710623715873,0.37916934818016806,0.0690521930463776,0.05659278895325389,-0.18246562939235092,-0.6089609501270276,-0.05770134495956856,-0.6665810469678496,-2.5945537190019037,-0.05562107146219953,2.507973897294938,0.8763153870955048,-0.6090851748156966,-0.05753196718556838,-0.666603097082616,-2.5945565370258534,-0.05562143941554,2.507976027223799,0.8763108487046415,0.0006788772904946105,-4.5671867406609935e-05,0.0001243436962683949,0.00027475341044521555,0.0005284807656889466,-6.671940229428236e-05,0.0002723507258935533,0.0,0.0,0.0,0.0,0.0,0.0,0.0,-0.00012422468866901681,0.00016937777400017479,-2.2050114766414275e-05,-2.8180239497466175e-06,-3.67953340470184e-07,2.129928860838959e-06,-4.538390863340069e-06,-0.0006788772904946105,4.5671867406609935e-05,-0.0001243436962683949,-0.00027475341044521555,-0.0005284807656889466,6.671940229428236e-05,-0.0002723507258935533,-0.08103066682815552,18.106531143188477,-1.1164276599884033,-17.999910354614258,-0.4864402413368225,-2.2424349784851074,0.17337362468242645,0
48,0.23500680923461914,0.16037636995315552,-18.106531143188477,1.1164276599884033,17.972139358520508,0.4983420968055725,2.2424349784851074,-0.17337362468242645,0.0,0.0,0.0,0.0,0.0,0.0,0.0,0.1155693757927986,0.532588333935268,0.3209404862427753,0.38011986755058896,0.06942684122692425,0.056681532927654314,-0.18145464618635948,-0.6089665185735881,-0.05770134495956856,-0.6665805805969025,-2.5945517701600727,-0.055620629772942604,2.507972937814189,0.8763154088980939,-0.6090851748156966,-0.05753196718556838,-0.666603097082616,-2.5945565370258534,-0.05562143941554,2.507976027223799,0.8763108487046415,-0.0014029684429574727,-0.0007669989861306203,0.00042284641491935733,0.0008950046341089576,1.5337193045409738e-05,-4.651122963875643e-05,-0.0007849850561948129,0.0,0.0,0.0,0.0,0.0,0.0,0.0,-0.00011865624210849468,0.00016937777400017479,-2.2516485713497403e-05,-4.766865780769791e-06,-8.096425973963539e-07,3.0894096099132184e-06,-4.560193452407546e-06,0.0014029684429574727,0.0007669989861306203,-0.00042284641491935733,-0.0008950046341089576,-1.5337193045409738e-05,4.651122963875643e-05,0.0007849850561948129,-0.16037636995315552,18.106531143188477,-1.1164276599884033,-17.972139358520508,-0.4983420968055725,-2.2424349784851074,0.17337362468242645,0
49,0.23995208740234375,0.16037636995315552,-18.106531143188477,1.1164276599884033,17.972139358520508,0.4983420968055725,2.2424349784851074,-0.17337362468242645,0.0,0.0,0.0,0.0,0.0,0.0,0.0,0.1155693757927986,0.532588333935268,0.3209404862427753,0.38011986755058896,0.06942684122692425,0.056681532927654314,-0.18145464618635948,-0.6089665185735881,-0.05770134495956856,-0.6665805805969025,-2.5945517701600727,-0.055620629772942604,2.507972937814189,0.8763154088980939,-0.6090851748156966,-0.05753196718556838,-0.666603097082616,-2.5945565370258534,-0.05562143941554,2.507976027223799,0.8763108487046415,-0.0014029684429574727,-0.0007669989861306203,0.00042284641491935733,0.0008950046341089576,1.5337193045409738e-05,-4.651122963875643e-05,-0.0007849850561948129,0.0,0.0,0.0,0.0,0.0,0.0,0.0,-0.00011865624210849468,0.00016937777400017479,-2.2516485713497403e-05,-4.766865780769791e-06,-8.096425973963539e-07,3.0894096099132184e-06,-4.560193452407546e-06,0.0014029684429574727,0.0007669989861306203,-0.00042284641491935733,-0.0008950046341089576,-1.5337193045409738e-05,4.651122963875643e-05,0.0007849850561948129,-0.16037636995315552,18.106531143188477,-1.1164276599884033,-17.972139358520508,-0.4983420968055725,-2.2424349784851074,0.17337362468242645,0
50,0.2449967861175537,0.16037636995315552,-18.154138565063477,1.1680023670196533,18.023714065551758,0.4983420968055725,2.2296175956726074,-0.17337362468242645,0.0,0.0,0.0,0.0,0.0,0.0,0.0,0.11714617773223082,0.5308953356933178,0.32033952787116005,0.38118613765448084,0.06951807315081533,0.05713308091980281,-0.1811519394117886,-0.6089665185735935,-0.05769800408785803,-0.666584087974988,-2.594555389437759,-0.055623827338801196,2.507973895354867,0.8763154262874935,-0.6090851748156966,-0.05753196718556838,-0.666603097082616,-2.5945565370258534,-0.05562143941554,2.507976027223799,0.8763108487046415,-0.0013541739525106105,8.648341794906584e-05,-0.00041839133473823404,-0.00026461426011217245,-3.691657633246713e-05,0.0003981031191722201,-8.075674859048125e-05,0.0,0.0,0.0,0.0,0.0,0.0,0.0,-0.00011865624210305459,0.00016603690228964713,-1.9009107627976363e-05,-1.147588094330132e-06,2.38792326119619e-06,2.1318689320537487e-06,-4.5775828519944994e-06,0.0013541739525106105,-8.648341794906584e-05,0.00041839133473823404,0.00026461426011217245,3.691657633246713e-05,-0.0003981031191722201,8.075674859048125e-05,-0.16037636995315552,18.154138565063477,-1.1680023670196533,-18.023714065551758,-0.4983420968055725,-2.2296175956726074,0.17337362468242645,0
51,0.24999737739562988,0.16037636995315552,-18.154138565063477,1.1680023670196533,18.023714065551758,0.4983420968055725,2.2296175956726074,-0.17337362468242645,0.0,0.0,0.0,0.0,0.0,0.0,0.0,0.11714617773223082,0.5308953356933178,0.32033952787116005,0.38118613765448084,0.06951807315081533,0.05713308091980281,-0.1811519394117886,-0.6089665185735935,-0.05769800408785803,-0.666584087974988,-2.594555389437759,-0.055623827338801196,2.507973895354867,0.8763154262874935,-0.6090851748156966,-0.05753196718556838,-0.666603097082616,-2.5945565370258534,-0.05562143941554,2.507976027223799,0.8763108487046415,-0.0013541739525106105,8.648341794906584e-05,-0.00041839133473823404,-0.00026461426011217245,-3.691657633246713e-05,0.0003981031191722201,-8.075674859048125e-05,0.0,0.0,0.0,0.0,0.0,0.0,0.0,-0.00011865624210305459,0.00016603690228964713,-1.9009107627976363e-05,-1.147588094330132e-06,2.38792326119619e-06,2.1318689320537487e-06,-4.5775828519944994e-06,0.0013541739525106105,-8.648341794906584e-05,0.00041839133473823404,0.00026461426011217245,3.691657633246713e-05,-0.0003981031191722201,8.075674859048125e-05,-0.16037636995315552,18.154138565063477,-1.1680023670196533,-18.023714065551758,-0.4983420968055725,-2.2296175956726074,0.17337362468242645,0
52,0.25499725341796875,0.13260537385940552,-18.130334854125977,1.1680023670196533,17.972139358520508,0.4983420968055725,2.2360262870788574,-0.14590780436992645,0.0,0.0,0.0,0.0,0.0,0.0,0.0,0.11939768820282674,0.5382397435173875,0.3233914130646008,0.37427063883685546,0.0699154605907754,0.05617330379404706,-0.18053673315937196,-0.6089645697317624,-0.057699674523713294,-0.6665846125822188,-2.5945517701600727,-0.055620588907032815,2.5079743693742325,0.8763113149454186,-0.6090851748156966,-0.05753196718556838,-0.666603097082616,-2.5945565370258534,-0.05562143941554,2.507976027223799,0.8763108487046415,-3.5302890389098626e-06,9.44573361170313e-05,-0.0002025249305441544,0.00048535742158037413,-8.442670222678533e-05,0.0002612056704719643,-0.0010118431130005092,0.0,0.0,0.0,0.0,0.0,0.0,0.0,-0.00012060508393418878,0.00016770733814491096,-1.8484500397208947e-05,-4.766865780769791e-06,-8.505085071844332e-07,1.6578495665164894e-06,-4.6624077709722656e-07,3.5302890389098626e-06,-9.44573361170313e-05,0.0002025249305441544,-0.00048535742158037413,8.442670222678533e-05,-0.0002612056704719643,0.0010118431130005092,-0.13260537385940552,18.130334854125977,-1.1680023670196533,-17.972139358520508,-0.4983420968055725,-2.2360262870788574,0.14590780436992645,0
53,0.2599971294403076,0.13260537385940552,-18.130334854125977,1.1680023670196533,17.972139358520508,0.4983420968055725,2.2360262870788574,-0.14590780436992645,0.0,0.0,0.0,0.0,0.0,0.0,0.0,0.11939768820282674,0.5382397435173875,0.3233914130646008,0.37427063883685546,0.0699154605907754,0.05617330379404706,-0.18053673315937196,-0.6089645697317624,-0.057699674523713294,-0.6665846125822188,-2.5945517701600727,-0.055620588907032815,2.5079743693742325,0.8763113149454186,-0.6090851748156966,-0.05753196718556838,-0.666603097082616,-2.5945565370258534,-0.05562143941554,2.507976027223799,0.8763108487046415,-3.5302890389098626e-06,9.44573361170313e-05,-0.0002025249305441544,0.00048535742158037413,-8.442670222678533e-05,0.0002612056704719643,-0.0010118431130005092,0.0,0.0,0.0,0.0,0.0,0.0,0.0,-0.00012060508393418878,0.00016770733814491096,-1.8484500397208947e-05,-4.766865780769791e-06,-8.505085071844332e-07,1.6578495665164894e-06,-4.6624077709722656e-07,3.5302890389098626e-06,-9.44573361170313e-05,0.0002025249305441544,-0.00048535742158037413,8.442670222678533e-05,-0.0002612056704719643,0.0010118431130005092,-0.13260537385940552,18.130334854125977,-1.1680023670196533,-17.972139358520508,-0.4983420968055725,-2.2360262870788574,0.14590780436992645,0
54,0.2651031017303467,0.10880166292190552,-18.078760147094727,1.1680023670196533,17.999910354614258,0.4983420968055725,2.2424349784851074,-0.13858358561992645,0.0,0.0,0.0,0.0,0.0,0.0,0.0,0.11751805450422044,0.5314444785749288,0.3226726617444923,0.37743142999724166,0.07045393770645084,0.05775903438330916,-0.18087259464750843,-0.6089628992959072,-0.0577032938013997,-0.6665838757506993,-2.5945537190019037,-0.05562276192222803,2.507972860754041,0.8763115607615266,-0.6090851748156966,-0.05753196718556838,-0.666603097082616,-2.5945565370258534,-0.05562143941554,2.507976027223799,0.8763108487046415,0.00051227675071715,-0.0011830006901118499,-0.00037099926494919307,1.4490629484351507e-05,-0.000272444455536394,-5.3135666100609314e-05,-0.002005097158750368,0.0,0.0,0.0,0.0,0.0,0.0,0.0,-0.00012227551978938322,0.00017132661583131592,-1.9221331916674522e-05,-2.8180239497466175e-06,1.3225066880298564e-06,3.1664697579536494e-06,-7.120568851215481e-07,-0.00051227675071715,0.0011830006901118499,0.00037099926494919307,-1.4490629484351507e-05,0.000272444455536394,5.3135666100609314e-05,0.002005097158750368,-0.10880166292190552,18.078760147094727,-1.1680023670196533,-17.999910354614258,-0.4983420968055725,-2.2424349784851074,0.13858358561992645,0
55,0.2700064182281494,0.10880166292190552,-18.078760147094727,1.1680023670196533,17.999910354614258,0.4983420968055725,2.2424349784851074,-0.13858358561992645,0.0,0.0,0.0,0.0,0.0,0.0,0.0,0.11751805450422044,0.5314444785749288,0.3226726617444923,0.37743142999724166,0.07045393770645084,0.05775903438330916,-0.18087259464750843,-0.6089628992959072,-0.0577032938013997,-0.6665838757506993,-2.5945537190019037,-0.05562276192222803,2.507972860754041,0.8763115607615266,-0.6090851748156966,-0.05753196718556838,-0.666603097082616,-2.5945565370258534,-0.05562143941554,2.507976027223799,0.8763108487046415,0.00051227675071715,-0.0011830006901118499,-0.00037099926494919307,1.4490629484351507e-05,-0.000272444455536394,-5.3135666100609314e-05,-0.002005097158750368,0.0,0.0,0.0,0.0,0.0,0.0,0.0,-0.00012227551978938322,0.00017132661583131592,-1.9221331916674522e-05,-2.8180239497466175e-06,1.3225066880298564e-06,3.1664697579536494e-06,-7.120568851215481e-07,-0.00051227675071715,0.0011830006901118499,0.00037099926494919307,-1.4490629484351507e-05,0.000272444455536394,5.3135666100609314e-05,0.002005097158750368,-0.10880166292190552,18.078760147094727,-1.1680023670196533,-17.999910354614258,-0.4983420968055725,-2.2424349784851074,0.13858358561992645,0
56,0.2750105857849121,0.10880166292190552,-18.054956436157227,1.1441986560821533,18.047517776489258,0.4983420968055725,2.2296175956726074,-0.19351522624492645,0.0,0.0,0.0,0.0,0.0,0.0,0.0,0.11574065865531026,0.5365860916455409,0.3221432088054309,0.37232887448167584,0.07002139259097531,0.05720904955876242,-0.18177158440268174,-0.6089628992959072,-0.05770496423725496,-0.6665821843649542,-2.5945570598736145,-0.05562047207192488,2.5079738909955536,0.8763176642970905,-0.6090851748156966,-0.05753196718556838,-0.666603097082616,-2.5945565370258534,-0.05562143941554,2.507976027223799,0.8763108487046415,0.00020553575614367034,-0.0012578338001018898,-0.0003232520704094334,-0.0010357842734332607,-0.00021721225011714024,0.000449852762485293,0.0005947195805433018,0.0,0.0,0.0,0.0,0.0,0.0,0.0,-0.00012227551978938322,0.00017299705168657975,-2.0912717661802915e-05,5.228477610863536e-07,-9.673436151200199e-07,2.136228245408489e-06,-6.815592448972119e-06,-0.00020553575614367034,0.0012578338001018898,0.0003232520704094334,0.0010357842734332607,0.00021721225011714024,-0.000449852762485293,-0.0005947195805433018,-0.10880166292190552,18.054956436157227,-1.1441986560821533,-18.047517776489258,-0.4983420968055725,-2.2296175956726074,0.19351522624492645,0
57,0.2799971103668213,0.10880166292190552,-18.054956436157227,1.1441986560821533,18.047517776489258,0.4983420968055725,2.2296175956726074,-0.19351522624492645,0.0,0.0,0.0,0.0,0.0,0.0,0.0,0.11574065865531026,0.5365860916455409,0.3221432088054309,0.37232887448167584,0.07002139259097531,0.05720904955876242,-0.18177158440268174,-0.6089628992959072,-0.05770496423725496,-0.6665821843649542,-2.5945570598736145,-0.05562047207192488,2.5079738909955536,0.8763176642970905,-0.6090851748156966,-0.05753196718556838,-0.666603097082616,-2.5945565370258534,-0.05562143941554,2.507976027223799,0.8763108487046415,0.00020553575614367034,-0.0012578338001018898,-0.0003232520704094334,-0.0010357842734332607,-0.00021721225011714024,0.000449852762485293,0.0005947195805433018,0.0,0.0,0.0,0.0,0.0,0.0,0.0,-0.00012227551978938322,0.00017299705168657975,-2.0912717661802915e-05,5.228477610863536e-07,-9.673436151200199e-07,2.136228245408489e-06,-6.815592448972119e-06,-0.00020553575614367034,0.0012578338001018898,0.0003232520704094334,0.0010357842734332607,0.00021721225011714024,-0.000449852762485293,-0.0005947195805433018,-0.10880166292190552,18.054956436157227,-1.1441986560821533,-18.047517776489258,-0.4983420968055725,-2.2296175956726074,0.19351522624492645,0
58,0.28499388694763184,0.13260537385940552,-18.106531143188477,1.1164276599884033,17.999910354614258,0.4983420968055725,2.2488436698913574,-0.19351522624492645,0.0,0.0,0.0,0.0,0.0,0.0,0.0,0.11783542628343,0.5436213048507464,0.3250291998698899,0.372230373552544,0.0695039376420639,0.05679629981882343,-0.18114107349170566,-0.6089645697317624,-0.05770134495956856,-0.6665803334559527,-2.5945537190019037,-0.055620588888099634,2.507971874115487,0.8763176512151384,-0.6090851748156966,-0.05753196718556838,-0.666603097082616,-2.5945565370258534,-0.05562143941554,2.507976027223799,0.8763108487046415,-0.0003558471240100587,0.00026236953322974257,0.00026608314745551136,0.00017387443241709006,-0.00022231211051920808,-0.00026992321411109673,0.0011125126376867597,0.0,0.0,0.0,0.0,0.0,0.0,0.0,-0.00012060508393418878,0.00016937777400017479,-2.2763626663313552e-05,-2.8180239497466175e-06,-8.505274403658447e-07,4.153108311921727e-06,-6.8025104968949535e-06,0.0003558471240100587,-0.00026236953322974257,-0.00026608314745551136,-0.00017387443241709006,0.00022231211051920808,0.00026992321411109673,-0.0011125126376867597,-0.13260537385940552,18.106531143188477,-1.1164276599884033,-17.999910354614258,-0.4983420968055725,-2.2488436698913574,0.19351522624492645,0
59,0.2900071144104004,0.13260537385940552,-18.106531143188477,1.1164276599884033,17.999910354614258,0.4983420968055725,2.2488436698913574,-0.19351522624492645,0.0,0.0,0.0,0.0,0.0,0.0,0.0,0.11783542628343,0.5436213048507464,0.3250291998698899,0.372230373552544,0.0695039376420639,0.05679629981882343,-0.18114107349170566,-0.6089645697317624,-0.05770134495956856,-0.6665803334559527,-2.5945537190019037,-0.055620588888099634,2.507971874115487,0.8763176512151384,-0.6090851748156966,-0.05753196718556838,-0.666603097082616,-2.5945565370258534,-0.05562143941554,2.507976027223799,0.8763108487046415,-0.0003558471240100587,0.00026236953322974257,0.00026608314745551136,0.00017387443241709006,-0.00022231211051920808,-0.00026992321411109673,0.0011125126376867597,0.0,0.0,0.0,0.0,0.0,0.0,0.0,-0.00012060508393418878,0.00016937777400017479,-2.2763626663313552e-05,-2.8180239497466175e-06,-8.505274403658447e-07,4.153108311921727e-06,-6.8025104968949535e-06,0.0003558471240100587,-0.00026236953322974257,-0.00026608314745551136,-0.00017387443241709006,0.00022231211051920808,0.00026992321411109673,-0.0011125126376867597,-0.13260537385940552,18.106531143188477,-1.1164276599884033,-17.999910354614258,-0.4983420968055725,-2.2488436698913574,0.19351522624492645,0
60,0.29499316215515137,0.10880166292190552,-18.154138565063477,1.1164276599884033,17.999910354614258,0.4864402413368225,2.2488436698913574,-0.15231649577617645,0.0,0.0,0.0,0.0,0.0,0.0,0.0,0.11958876453824996,0.54178794723344,0.3254237110515396,0.37611727728391114,0.069010244706087,0.05762947102669617,-0.18081249144941758,-0.6089628992959072,-0.05769800408785803,-0.6665803065609334,-2.5945537190019037,-0.0556225040449381,2.50797295008385,0.8763130866603472,-0.6090851748156966,-0.05753196718556838,-0.666603097082616,-2.5945565370258534,-0.05562143941554,2.507976027223799,0.8763108487046415,0.00018332968653138017,0.0007019512070432158,0.00044382142726591417,0.0004891552452080316,0.00032997835527995425,-8.349528432895003e-05,-0.0008492229277756014,0.0,0.0,0.0,0.0,0.0,0.0,0.0,-0.00012227551978938322,0.00016603690228964713,-2.279052168263629e-05,-2.8180239497466175e-06,1.0646293980981492e-06,3.077139949070329e-06,-2.2379557057528032e-06,-0.00018332968653138017,-0.0007019512070432158,-0.00044382142726591417,-0.0004891552452080316,-0.00032997835527995425,8.349528432895003e-05,0.0008492229277756014,-0.10880166292190552,18.154138565063477,-1.1164276599884033,-17.999910354614258,-0.4864402413368225,-2.2488436698913574,0.15231649577617645,0
61,0.2999918460845947,0.10880166292190552,-18.154138565063477,1.1164276599884033,17.999910354614258,0.4864402413368225,2.2488436698913574,-0.15231649577617645,0.0,0.0,0.0,0.0,0.0,0.0,0.0,0.11958876453824996,0.54178794723344,0.3254237110515396,0.37611727728391114,0.069010244706087,0.05762947102669617,-0.18081249144941758,-0.6089628992959072,-0.05769800408785803,-0.6665803065609334,-2.5945537190019037,-0.0556225040449381,2.50797295008385,0.8763130866603472,-0.6090851748156966,-0.05753196718556838,-0.666603097082616,-2.5945565370258534,-0.05562143941554,2.507976027223799,0.8763108487046415,0.00018332968653138017,0.0007019512070432158,0.00044382142726591417,0.0004891552452080316,0.00032997835527995425,-8.349528432895003e-05,-0.0008492229277756014,0.0,0.0,0.0,0.0,0.0,0.0,0.0,-0.00012227551978938322,0.00016603690228964713,-2.279052168263629e-05,-2.8180239497466175e-06,1.0646293980981492e-06,3.077139949070329e-06,-2.2379557057528032e-06,-0.00018332968653138017,-0.0007019512070432158,-0.00044382142726591417,-0.0004891552452080316,-0.00032997835527995425,8.349528432895003e-05,0.0008492229277756014,-0.10880166292190552,18.154138565063477,-1.1164276599884033,-17.999910354614258,-0.4864402413368225,-2.2488436698913574,0.15231649577617645,0
62,0.3049945831298828,0.10880166292190552,-18.078760147094727,1.1680023670196533,18.023714065551758,0.4928489327430725,2.2488436698913574,-0.22830526530742645,0.0,0.0,0.0,0.0,0.0,0.0,0.0,0.11759567705993529,0.5423542259997953,0.3218616572165917,0.3745037270565343,0.06879619547027718,0.05767777813392423,-0.17996968431960597,-0.6089628992959072,-0.0577032938013997,-0.6665838718634841,-2.594555389437759,-0.05562321758821115,2.5079753282421358,0.8763215298569863,-0.6090851748156966,-0.05753196718556838,-0.666603097082616,-2.5945565370258534,-0.05562143941554,2.507976027223799,0.8763108487046415,-4.578790588973112e-05,-0.0011039291636724716,-0.001057668583142448,-0.00042220465572969675,2.066601996387426e-05,-0.00017076120633783583,0.0018510382451315678,0.0,0.0,0.0,0.0,0.0,0.0,0.0,-0.00012227551978938322,0.00017132661583131592,-1.9225219131890903e-05,-1.147588094330132e-06,1.778172671149103e-06,6.989816632163581e-07,-1.0681152344815814e-05,4.578790588973112e-05,0.0011039291636724716,0.001057668583142448,0.00042220465572969675,-2.066601996387426e-05,0.00017076120633783583,-0.0018510382451315678,-0.10880166292190552,18.078760147094727,-1.1680023670196533,-18.023714065551758,-0.4928489327430725,-2.2488436698913574,0.22830526530742645,0
63,0.3099966049194336,0.10880166292190552,-18.078760147094727,1.1680023670196533,18.023714065551758,0.4928489327430725,2.2488436698913574,-0.22830526530742645,0.0,0.0,0.0,0.0,0.0,0.0,0.0,0.11759567705993529,0.5423542259997953,0.3218616572165917,0.3745037270565343,0.06879619547027718,0.05767777813392423,-0.17996968431960597,-0.6089628992959072,-0.0577032938013997,-0.6665838718634841,-2.594555389437759,-0.05562321758821115,2.5079753282421358,0.8763215298569863,-0.6090851748156966,-0.05753196718556838,-0.666603097082616,-2.5945565370258534,-0.05562143941554,2.507976027223799,0.8763108487046415,-4.578790588973112e-05,-0.0011039291636724716,-0.001057668583142448,-0.00042220465572969675,2.066601996387426e-05,-0.00017076120633783583,0.0018510382451315678,0.0,0.0,0.0,0.0,0.0,0.0,0.0,-0.00012227551978938322,0.00017132661583131592,-1.9225219131890903e-05,-1.147588094330132e-06,1.778172671149103e-06,6.989816632163581e-07,-1.0681152344815814e-05,4.578790588973112e-05,0.0011039291636724716,0.001057668583142448,0.00042220465572969675,-2.066601996387426e-05,0.00017076120633783583,-0.0018510382451315678,-0.10880166292190552,18.078760147094727,-1.1680023670196533,-18.023714065551758,-0.4928489327430725,-2.2488436698913574,0.22830526530742645,0
64,0.31501221656799316,0.10880166292190552,-18.078760147094727,1.1164276599884033,17.972139358520508,0.4983420968055725,2.2424349784851074,-0.17978231608867645,0.0,0.0,0.0,0.0,0.0,0.0,0.0,0.11158639389605704,0.542568099479515,0.3173812842611257,0.375167831631201,0.06905560011224968,0.05734477434181743,-0.18120079151727347,-0.6089628992959072,-0.0577032938013997,-0.666583223551349,-2.5945517701600727,-0.055620514374404156,2.5079771938052566,0.8763161369646341,-0.6090851748156966,-0.05753196718556838,-0.666603097082616,-2.5945565370258534,-0.05562143941554,2.507976027223799,0.8763108487046415,-0.000769195890435163,-0.0008387205492810156,0.00035760036677557933,0.0009202831879886218,-0.0001868853242012015,-0.0001861686351283979,0.0004837715674546204,0.0,0.0,0.0,0.0,0.0,0.0,0.0,-0.00012227551978938322,0.00017132661583131592,-1.987353126697844e-05,-4.766865780769791e-06,-9.25041135843574e-07,-1.1665814576566902e-06,-5.288259992575206e-06,0.000769195890435163,0.0008387205492810156,-0.00035760036677557933,-0.0009202831879886218,0.0001868853242012015,0.0001861686351283979,-0.0004837715674546204,-0.10880166292190552,18.078760147094727,-1.1164276599884033,-17.972139358520508,-0.4983420968055725,-2.2424349784851074,0.17978231608867645,0
65,0.31999635696411133,0.10880166292190552,-18.078760147094727,1.1164276599884033,17.972139358520508,0.4983420968055725,2.2424349784851074,-0.17978231608867645,0.0,0.0,0.0,0.0,0.0,0.0,0.0,0.11158639389605704,0.542568099479515,0.3173812842611257,0.375167831631201,0.06905560011224968,0.05734477434181743,-0.18120079151727347,-0.6089628992959072,-0.0577032938013997,-0.666583223551349,-2.5945517701600727,-0.055620514374404156,2.5079771938052566,0.8763161369646341,-0.6090851748156966,-0.05753196718556838,-0.666603097082616,-2.5945565370258534,-0.05562143941554,2.507976027223799,0.8763108487046415,-0.000769195890435163,-0.0008387205492810156,0.00035760036677557933,0.0009202831879886218,-0.0001868853242012015,-0.0001861686351283979,0.0004837715674546204,0.0,0.0,0.0,0.0,0.0,0.0,0.0,-0.00012227551978938322,0.00017132661583131592,-1.987353126697844e-05,-4.766865780769791e-06,-9.25041135843574e-07,-1.1665814576566902e-06,-5.288259992575206e-06,0.000769195890435163,0.0008387205492810156,-0.00035760036677557933,-0.0009202831879886218,0.0001868853242012015,0.0001861686351283979,-0.0004837715674546204,-0.10880166292190552,18.078760147094727,-1.1164276599884033,-17.972139358520508,-0.4983420968055725,-2.2424349784851074,0.17978231608867645,0
66,0.32499146461486816,0.10880166292190552,-18.078760147094727,1.1164276599884033,17.972139358520508,0.4983420968055725,2.2424349784851074,-0.17978231608867645,0.0,0.0,0.0,0.0,0.0,0.0,0.0,0.11158639389605704,0.542568099479515,0.3173812842611257,0.375167831631201,0.06905560011224968,0.05734477434181743,-0.18120079151727347,-0.6089628992959072,-0.0577032938013997,-0.666583223551349,-2.5945517701600727,-0.055620514374404156,2.5079771938052566,0.8763161369646341,-0.6090851748156966,-0.05753196718556838,-0.666603097082616,-2.5945565370258534,-0.05562143941554,2.507976027223799,0.8763108487046415,-0.000769195890435163,-0.0008387205492810156,0.00035760036677557933,0.0009202831879886218,-0.0001868853242012015,-0.0001861686351283979,0.0004837715674546204,0.0,0.0,0.0,0.0,0.0,0.0,0.0,-0.00012227551978938322,0.00017132661583131592,-1.987353126697844e-05,-4.766865780769791e-06,-9.25041135843574e-07,-1.1665814576566902e-06,-5.288259992575206e-06,0.000769195890435163,0.0008387205492810156,-0.00035760036677557933,-0.0009202831879886218,0.0001868853242012015,0.0001861686351283979,-0.0004837715674546204,-0.10880166292190552,18.078760147094727,-1.1164276599884033,-17.972139358520508,-0.4983420968055725,-2.2424349784851074,0.17978231608867645,0
67,0.32999444007873535,0.10880166292190552,-18.078760147094727,1.1164276599884033,17.972139358520508,0.4983420968055725,2.2424349784851074,-0.17978231608867645,0.0,0.0,0.0,0.0,0.0,0.0,0.0,0.11158639389605704,0.542568099479515,0.3173812842611257,0.375167831631201,0.06905560011224968,0.05734477434181743,-0.18120079151727347,-0.6089628992959072,-0.0577032938013997,-0.666583223551349,-2.5945517701600727,-0.055620514374404156,2.5079771938052566,0.8763161369646341,-0.6090851748156966,-0.05753196718556838,-0.666603097082616,-2.5945565370258534,-0.05562143941554,2.507976027223799,0.8763108487046415,-0.000769195890435163,-0.0008387205492810156,0.00035760036677557933,0.0009202831879886218,-0.0001868853242012015,-0.0001861686351283979,0.0004837715674546204,0.0,0.0,0.0,0.0,0.0,0.0,0.0,-0.00012227551978938322,0.00017132661583131592,-1.987353126697844e-05,-4.766865780769791e-06,-9.25041135843574e-07,-1.1665814576566902e-06,-5.288259992575206e-06,0.000769195890435163,0.0008387205492810156,-0.00035760036677557933,-0.0009202831879886218,0.0001868853242012015,0.0001861686351283979,-0.0004837715674546204,-0.10880166292190552,18.078760147094727,-1.1164276599884033,-17.972139358520508,-0.4983420968055725,-2.2424349784851074,0.17978231608867645,0
68,0.3350179195404053,0.10880166292190552,-18.078760147094727,1.1164276599884033,17.972139358520508,0.4983420968055725,2.2424349784851074,-0.17978231608867645,0.0,0.0,0.0,0.0,0.0,0.0,0.0,0.11158639389605704,0.542568099479515,0.3173812842611257,0.375167831631201,0.06905560011224968,0.05734477434181743,-0.18120079151727347,-0.6089628992959072,-0.0577032938013997,-0.666583223551349,-2.5945517701600727,-0.055620514374404156,2.5079771938052566,0.8763161369646341,-0.6090851748156966,-0.05753196718556838,-0.666603097082616,-2.5945565370258534,-0.05562143941554,2.507976027223799,0.8763108487046415,-0.000769195890435163,-0.0008387205492810156,0.00035760036677557933,0.0009202831879886218,-0.0001868853242012015,-0.0001861686351283979,0.0004837715674546204,0.0,0.0,0.0,0.0,0.0,0.0,0.0,-0.00012227551978938322,0.00017132661583131592,-1.987353126697844e-05,-4.766865780769791e-06,-9.25041135843574e-07,-1.1665814576566902e-06,-5.288259992575206e-06,0.000769195890435163,0.0008387205492810156,-0.00035760036677557933,-0.0009202831879886218,0.0001868853242012015,0.0001861686351283979,-0.0004837715674546204,-0.10880166292190552,18.078760147094727,-1.1164276599884033,-17.972139358520508,-0.4983420968055725,-2.2424349784851074,0.17978231608867645,0
69,0.3400075435638428,0.10880166292190552,-18.154138565063477,1.0926239490509033,17.999910354614258,0.4864402413368225,2.2296175956726074,-0.15231649577617645,0.0,0.0,0.0,0.0,0.0,0.0,0.0,0.111902541829492,0.540714186484439,0.31984369608506913,0.3737766951121518,0.06887471020945546,0.057139437475670296,-0.1808570620542473,-0.6089628992959072,-0.05769800408785803,-0.6665795295547935,-2.5945537190019037,-0.05562245297368342,2.507973949162024,0.8763129689227936,-0.6090851748156966,-0.05753196718556838,-0.666603097082616,-2.5945565370258534,-0.05562143941554,2.507976027223799,0.8763108487046415,5.2689272610660726e-05,0.0005949867237815259,0.0010710388815002427,-0.0002479784235547125,0.00046374727510788187,0.0002071009376722719,-0.0010051340245151791,0.0,0.0,0.0,0.0,0.0,0.0,0.0,-0.00012227551978938322,0.00016603690228964713,-2.3567527822510037e-05,-2.8180239497466175e-06,1.0135581434214669e-06,2.078061775101503e-06,-2.1202181521573493e-06,-5.2689272610660726e-05,-0.0005949867237815259,-0.0010710388815002427,0.0002479784235547125,-0.00046374727510788187,-0.0002071009376722719,0.0010051340245151791,-0.10880166292190552,18.154138565063477,-1.0926239490509033,-17.999910354614258,-0.4864402413368225,-2.2296175956726074,0.15231649577617645,0
70,0.3449976444244385,0.10880166292190552,-18.154138565063477,1.0926239490509033,17.999910354614258,0.4864402413368225,2.2296175956726074,-0.15231649577617645,0.0,0.0,0.0,0.0,0.0,0.0,0.0,0.111902541829492,0.540714186484439,0.31984369608506913,0.3737766951121518,0.06887471020945546,0.057139437475670296,-0.1808570620542473,-0.6089628992959072,-0.05769800408785803,-0.6665795295547935,-2.5945537190019037,-0.05562245297368342,2.507973949162024,0.8763129689227936,-0.6090851748156966,-0.05753196718556838,-0.666603097082616,-2.5945565370258534,-0.05562143941554,2.507976027223799,0.8763108487046415,5.2689272610660726e-05,0.0005949867237815259,0.0010710388815002427,-0.0002479784235547125,0.00046374727510788187,0.0002071009376722719,-0.0010051340245151791,0.0,0.0,0.0,0.0,0.0,0.0,0.0,-0.00012227551978938322,0.00016603690228964713,-2.3567527822510037e-05,-2.8180239497466175e-06,1.0135581434214669e-06,2.078061775101503e-06,-2.1202181521573493e-06,-5.2689272610660726e-05,-0.0005949867237815259,-0.0010710388815002427,0.0002479784235547125,-0.00046374727510788187,-0.0002071009376722719,0.0010051340245151791,-0.10880166292190552,18.154138565063477,-1.0926239490509033,-17.999910354614258,-0.4864402413368225,-2.2296175956726074,0.15231649577617645,0
71,0.350017786026001,0.13260537385940552,-18.106531143188477,1.1164276599884033,17.999910354614258,0.4928489327430725,2.2424349784851074,-0.19351522624492645,0.0,0.0,0.0,0.0,0.0,0.0,0.0,0.10535446149160323,0.5392886652264883,0.3116530811512526,0.37128572715200253,0.06917013215721442,0.05667012193226262,-0.17959038241530906,-0.6089645697317624,-0.05770134495956856,-0.666581035055108,-2.5945537190019037,-0.05562203409831198,2.5079725850620993,0.8763176636504036,-0.6090851748156966,-0.05753196718556838,-0.666603097082616,-2.5945565370258534,-0.05562143941554,2.507976027223799,0.8763108487046415,-0.0007604963786651983,-0.00035390482610482516,6.482378043310163e-05,0.0001216580539394597,-6.19926096708989e-05,5.6743687889313035e-06,-6.15036348573901e-05,0.0,0.0,0.0,0.0,0.0,0.0,0.0,-0.00012060508393418878,0.00016937777400017479,-2.206202750798525e-05,-2.8180239497466175e-06,5.946827719774395e-07,3.442161699673818e-06,-6.81494576215691e-06,0.0007604963786651983,0.00035390482610482516,-6.482378043310163e-05,-0.0001216580539394597,6.19926096708989e-05,-5.6743687889313035e-06,6.15036348573901e-05,-0.13260537385940552,18.106531143188477,-1.1164276599884033,-17.999910354614258,-0.4928489327430725,-2.2424349784851074,0.19351522624492645,0
72,0.354996919631958,0.13260537385940552,-18.106531143188477,1.1164276599884033,17.999910354614258,0.4928489327430725,2.2424349784851074,-0.19351522624492645,0.0,0.0,0.0,0.0,0.0,0.0,0.0,0.10535446149160323,0.5392886652264883,0.3116530811512526,0.37128572715200253,0.06917013215721442,0.05667012193226262,-0.17959038241530906,-0.6089645697317624,-0.05770134495956856,-0.666581035055108,-2.5945537190019037,-0.05562203409831198,2.5079725850620993,0.8763176636504036,-0.6090851748156966,-0.05753196718556838,-0.666603097082616,-2.5945565370258534,-0.05562143941554,2.507976027223799,0.8763108487046415,-0.0007604963786651983,-0.00035390482610482516,6.482378043310163e-05,0.0001216580539394597,-6.19926096708989e-05,5.6743687889313035e-06,-6.15036348573901e-05,0.0,0.0,0.0,0.0,0.0,0.0,0.0,-0.00012060508393418878,0.00016937777400017479,-2.206202750798525e-05,-2.8180239497466175e-06,5.946827719774395e-07,3.442161699673818e-06,-6.81494576215691e-06,0.0007604963786651983,0.00035390482610482516,-6.482378043310163e-05,-0.0001216580539394597,6.19926096708989e-05,-5.6743687889313035e-06,6.15036348573901e-05,-0.13260537385940552,18.106531143188477,-1.1164276599884033,-17.999910354614258,-0.4928489327430725,-2.2424349784851074,0.19351522624492645,0
73,0.3600046634674072,0.10880166292190552,-18.177942276000977,1.1441986560821533,17.999910354614258,0.4928489327430725,2.2424349784851074,-0.21457235515117645,0.0,0.0,0.0,0.0,0.0,0.0,0.0,0.11367893228139941,0.5359541867518693,0.32089722139105725,0.3696780117069446,0.06852243741019216,0.056698899117270364,-0.17929510109446553,-0.6089628992959072,-0.05769633365200277,-0.6665851154365969,-2.5945537190019037,-0.05561985230846611,2.5079725992749298,0.8763200039780765,-0.6090851748156966,-0.05753196718556838,-0.666603097082616,-2.5945565370258534,-0.05562143941554,2.507976027223799,0.8763108487046415,0.00042294640866451726,0.0009191664408934562,8.61522816500959e-05,-6.882089641712447e-05,0.00019837417722215543,2.1378021769399977e-05,0.001565429121687718,0.0,0.0,0.0,0.0,0.0,0.0,0.0,-0.00012227551978938322,0.0001643664664343833,-1.7981646019071817e-05,-2.8180239497466175e-06,-1.5871070738887605e-06,3.4279488692057214e-06,-9.155273435035305e-06,-0.00042294640866451726,-0.0009191664408934562,-8.61522816500959e-05,6.882089641712447e-05,-0.00019837417722215543,-2.1378021769399977e-05,-0.001565429121687718,-0.10880166292190552,18.177942276000977,-1.1441986560821533,-17.999910354614258,-0.4928489327430725,-2.2424349784851074,0.21457235515117645,0
74,0.3649942874908447,0.10880166292190552,-18.177942276000977,1.1441986560821533,17.999910354614258,0.4928489327430725,2.2424349784851074,-0.21457235515117645,0.0,0.0,0.0,0.0,0.0,0.0,0.0,0.11367893228139941,0.5359541867518693,0.32089722139105725,0.3696780117069446,0.06852243741019216,0.056698899117270364,-0.17929510109446553,-0.6089628992959072,-0.05769633365200277,-0.6665851154365969,-2.5945537190019037,-0.05561985230846611,2.5079725992749298,0.8763200039780765,-0.6090851748156966,-0.05753196718556838,-0.666603097082616,-2.5945565370258534,-0.05562143941554,2.507976027223799,0.8763108487046415,0.00042294640866451726,0.0009191664408934562,8.61522816500959e-05,-6.882089641712447e-05,0.00019837417722215543,2.1378021769399977e-05,0.001565429121687718,0.0,0.0,0.0,0.0,0.0,0.0,0.0,-0.00012227551978938322,0.0001643664664343833,-1.7981646019071817e-05,-2.8180239497466175e-06,-1.5871070738887605e-06,3.4279488692057214e-06,-9.155273435035305e-06,-0.00042294640866451726,-0.0009191664408934562,-8.61522816500959e-05,6.882089641712447e-05,-0.00019837417722215543,-2.1378021769399977e-05,-0.001565429121687718,-0.10880166292190552,18.177942276000977,-1.1441986560821533,-17.999910354614258,-0.4928489327430725,-2.2424349784851074,0.21457235515117645,0
75,0.37000298500061035,0.10880166292190552,-18.130334854125977,1.1918060779571533,18.023714065551758,0.4928489327430725,2.2424349784851074,-0.15964071452617645,0.0,0.0,0.0,0.0,0.0,0.0,0.0,0.10722857193557445,0.5328067414933633,0.3173389793454217,0.371567592517768,0.06931886571342223,0.05692245125094395,-0.1791578679419489,-0.6089628992959072,-0.057699674523713294,-0.6665862738146456,-2.594555389437759,-0.05562317381239698,2.5079724668404317,0.8763138873805029,-0.6090851748156966,-0.05753196718556838,-0.666603097082616,-2.5945565370258534,-0.05562143941554,2.507976027223799,0.8763108487046415,7.203101612989009e-06,-0.00017708029638615738,-0.0010701189911571899,-0.00016617300448479246,0.00011744961606952216,6.674643253498409e-06,-0.0012579098474635602,0.0,0.0,0.0,0.0,0.0,0.0,0.0,-0.00012227551978938322,0.00016770733814491096,-1.682326797036726e-05,-1.147588094330132e-06,1.7343968569810686e-06,3.560383367240405e-06,-3.0386758613776266e-06,-7.203101612989009e-06,0.00017708029638615738,0.0010701189911571899,0.00016617300448479246,-0.00011744961606952216,-6.674643253498409e-06,0.0012579098474635602,-0.10880166292190552,18.130334854125977,-1.1918060779571533,-18.023714065551758,-0.4928489327430725,-2.2424349784851074,0.15964071452617645,0
76,0.3749966621398926,0.10880166292190552,-18.130334854125977,1.1918060779571533,18.023714065551758,0.4928489327430725,2.2424349784851074,-0.15964071452617645,0.0,0.0,0.0,0.0,0.0,0.0,0.0,0.10722857193557445,0.5328067414933633,0.3173389793454217,0.371567592517768,0.06931886571342223,0.05692245125094395,-0.1791578679419489,-0.6089628992959072,-0.057699674523713294,-0.6665862738146456,-2.594555389437759,-0.05562317381239698,2.5079724668404317,0.8763138873805029,-0.6090851748156966,-0.05753196718556838,-0.666603097082616,-2.5945565370258534,-0.05562143941554,2.507976027223799,0.8763108487046415,7.203101612989009e-06,-0.00017708029638615738,-0.0010701189911571899,-0.00016617300448479246,0.00011744961606952216,6.674643253498409e-06,-0.0012579098474635602,0.0,0.0,0.0,0.0,0.0,0.0,0.0,-0.00012227551978938322,0.00016770733814491096,-1.682326797036726e-05,-1.147588094330132e-06,1.7343968569810686e-06,3.560383367240405e-06,-3.0386758613776266e-06,-7.203101612989009e-06,0.00017708029638615738,0.0010701189911571899,0.00016617300448479246,-0.00011744961606952216,-6.674643253498409e-06,0.0012579098474635602,-0.10880166292190552,18.130334854125977,-1.1918060779571533,-18.023714065551758,-0.4928489327430725,-2.2424349784851074,0.15964071452617645,0
77,0.37999606132507324,0.10880166292190552,-18.078760147094727,1.1164276599884033,18.023714065551758,0.4864402413368225,2.2424349784851074,-0.20083944499492645,0.0,0.0,0.0,0.0,0.0,0.0,0.0,0.11001058899401868,0.5375963566428223,0.3221008138954781,0.36748032777113415,0.0696858274887983,0.05595738971048664,-0.17931971463562296,-0.6089628992959072,-0.0577032938013997,-0.6665834634282808,-2.594555389437759,-0.05562238532862047,2.5079724801369774,0.8763184779375944,-0.6090851748156966,-0.05753196718556838,-0.666603097082616,-2.5945565370258534,-0.05562143941554,2.507976027223799,0.8763108487046415,7.046625218483864e-05,-0.0006048004806814405,0.0006053323096575506,-0.0006984712022770005,0.00035193779079199274,2.1409684434971628e-05,-3.586605171217953e-05,0.0,0.0,0.0,0.0,0.0,0.0,0.0,-0.00012227551978938322,0.00017132661583131592,-1.9633654335216022e-05,-1.147588094330132e-06,9.459130804675975e-07,3.5470868215981e-06,-7.62923295294371e-06,-7.046625218483864e-05,0.0006048004806814405,-0.0006053323096575506,0.0006984712022770005,-0.00035193779079199274,-2.1409684434971628e-05,3.586605171217953e-05,-0.10880166292190552,18.078760147094727,-1.1164276599884033,-18.023714065551758,-0.4864402413368225,-2.2424349784851074,0.20083944499492645,0
78,0.38499951362609863,0.10880166292190552,-18.078760147094727,1.1164276599884033,18.023714065551758,0.4864402413368225,2.2424349784851074,-0.20083944499492645,0.0,0.0,0.0,0.0,0.0,0.0,0.0,0.11001058899401868,0.5375963566428223,0.3221008138954781,0.36748032777113415,0.0696858274887983,0.05595738971048664,-0.17931971463562296,-0.6089628992959072,-0.0577032938013997,-0.6665834634282808,-2.594555389437759,-0.05562238532862047,2.5079724801369774,0.8763184779375944,-0.6090851748156966,-0.05753196718556838,-0.666603097082616,-2.5945565370258534,-0.05562143941554,2.507976027223799,0.8763108487046415,7.046625218483864e-05,-0.0006048004806814405,0.0006053323096575506,-0.0006984712022770005,0.00035193779079199274,2.1409684434971628e-05,-3.586605171217953e-05,0.0,0.0,0.0,0.0,0.0,0.0,0.0,-0.00012227551978938322,0.00017132661583131592,-1.9633654335216022e-05,-1.147588094330132e-06,9.459130804675975e-07,3.5470868215981e-06,-7.62923295294371e-06,-7.046625218483864e-05,0.0006048004806814405,-0.0006053323096575506,0.0006984712022770005,-0.00035193779079199274,-2.1409684434971628e-05,3.586605171217953e-05,-0.10880166292190552,18.078760147094727,-1.1164276599884033,-18.023714065551758,-0.4864402413368225,-2.2424349784851074,0.20083944499492645,0
79,0.3899960517883301,0.10880166292190552,-18.054956436157227,1.1441986560821533,18.023714065551758,0.4983420968055725,2.2232089042663574,-0.20724813640117645,0.0,0.0,0.0,0.0,0.0,0.0,0.0,0.10903319569690488,0.5395238961480789,0.3188556075826372,0.37150832590618765,0.06969003386484081,0.05640428925310522,-0.18004082061082233,-0.6089628992959072,-0.05770496423725496,-0.6665824443161992,-2.594555389437759,-0.05562347166443291,2.5079757809304444,0.8763181305378666,-0.6090851748156966,-0.05753196718556838,-0.666603097082616,-2.5945565370258534,-0.05562143941554,2.507976027223799,0.8763108487046415,-7.197916479649826e-05,-0.0008060991577777587,-0.00039118010612733666,-0.0005255024475955847,-1.380624741433948e-05,0.0003944147414977857,0.00020978264280395012,0.0,0.0,0.0,0.0,0.0,0.0,0.0,-0.00012227551978938322,0.00017299705168657975,-2.0652766416828783e-05,-1.147588094330132e-06,2.0322488929122584e-06,2.4629335459991353e-07,-7.2818332250701445e-06,7.197916479649826e-05,0.0008060991577777587,0.00039118010612733666,0.0005255024475955847,1.380624741433948e-05,-0.0003944147414977857,-0.00020978264280395012,-0.10880166292190552,18.054956436157227,-1.1441986560821533,-18.023714065551758,-0.4983420968055725,-2.2232089042663574,0.20724813640117645,0
