rezayati/contactInterpretation/dataset/franka_main/labeled_data/link2/f5_7.csv
index,time,tau_J0,tau_J1,tau_J2,tau_J3,tau_J4,tau_J5,tau_J6,tau_J_d0,tau_J_d1,tau_J_d2,tau_J_d3,tau_J_d4,tau_J_d5,tau_J_d6,tau_ext0,tau_ext1,tau_ext2,tau_ext3,tau_ext4,tau_ext5,tau_ext6,q0,q1,q2,q3,q4,q5,q6,q_d0,q_d1,q_d2,q_d3,q_d4,q_d5,q_d6,dq0,dq1,dq2,dq3,dq4,dq5,dq6,dq_d0,dq_d1,dq_d2,dq_d3,dq_d4,dq_d5,dq_d6,e0,e1,e2,e3,e4,e5,e6,de0,de1,de2,de3,de4,de5,de6,etau_J0,etau_J1,etau_J2,etau_J3,etau_J4,etau_J5,etau_J6,label
1,0.0,-0.14510458707809448,-11.949304580688477,1.2909882068634033,21.717256546020508,0.3857322335243225,2.5143465995788574,-0.16604940593242645,0.0,0.0,0.0,0.0,0.0,0.0,0.0,-0.13781293028080813,0.3051110415680365,0.10192988112437096,0.40099794277327855,-0.14317268024151908,0.12175244086083485,-0.20903013845334606,0.17280674509207405,-0.4874659481217363,-0.11147039044007735,-1.946400808049921,0.13361000843290508,2.5955517839325797,0.9452430330829488,0.1728802376190821,-0.48752024683155326,-0.11147110072896137,-1.9463801863486305,0.1336059019074957,2.595550359778934,0.9452445589611904,-6.653951172935513e-05,-0.0010425206794973808,-0.0004386022023641749,-0.0007957271652904869,0.0002890389256645663,3.984399955458011e-05,-0.0008384425516878581,0.0,0.0,0.0,0.0,0.0,0.0,0.0,7.349252700805664e-05,-5.429870981693563e-05,-7.102888840149202e-07,2.0621701290579608e-05,-4.106525409386386e-06,-1.4241536456793824e-06,1.525878241648293e-06,6.653951172935513e-05,0.0010425206794973808,0.0004386022023641749,0.0007957271652904869,-0.0002890389256645663,-3.984399955458011e-05,0.0008384425516878581,0.14510458707809448,11.949304580688477,-1.2909882068634033,-21.717256546020508,-0.3857322335243225,-2.5143465995788574,0.16604940593242645,0
2,0.00500798225402832,-0.09352988004684448,-12.024682998657227,1.3147919178009033,21.717256546020508,0.3857322335243225,2.5207552909851074,-0.17337362468242645,0.0,0.0,0.0,0.0,0.0,0.0,0.0,-0.13409541969426225,0.3070696045439622,0.10785843217633354,0.4046684288885457,-0.14316771888235583,0.12150508613767504,-0.20660776783652288,0.17280312581438764,-0.4874609184118481,-0.11147206087593445,-1.946400808049921,0.13360990317713756,2.595551071855757,0.9452438468850322,0.1728802376190821,-0.48752024683155326,-0.11147110072896137,-1.9463801863486305,0.1336059019074957,2.595550359778934,0.9452445589611904,-0.001116560006048907,0.00048506885715092897,-8.612209133946048e-05,-0.0005316854446232805,8.603563663732124e-05,0.00011291278717008571,-0.0008004027861308552,0.0,0.0,0.0,0.0,0.0,0.0,0.0,7.711180469446854e-05,-5.9328419705184654e-05,9.601469730807777e-07,2.0621701290579608e-05,-4.001269641867866e-06,-7.120768228396912e-07,7.120761582601887e-07,0.001116560006048907,-0.00048506885715092897,8.612209133946048e-05,0.0005316854446232805,-8.603563663732124e-05,-0.00011291278717008571,0.0008004027861308552,0.09352988004684448,12.024682998657227,-1.3147919178009033,-21.717256546020508,-0.3857322335243225,-2.5207552909851074,0.17337362468242645,0
3,0.010008573532104492,-0.09352988004684448,-12.024682998657227,1.3147919178009033,21.717256546020508,0.3857322335243225,2.5207552909851074,-0.17337362468242645,0.0,0.0,0.0,0.0,0.0,0.0,0.0,-0.13409541969426225,0.3070696045439622,0.10785843217633354,0.4046684288885457,-0.14316771888235583,0.12150508613767504,-0.20660776783652288,0.17280312581438764,-0.4874609184118481,-0.11147206087593445,-1.946400808049921,0.13360990317713756,2.595551071855757,0.9452438468850322,0.1728802376190821,-0.48752024683155326,-0.11147110072896137,-1.9463801863486305,0.1336059019074957,2.595550359778934,0.9452445589611904,-0.001116560006048907,0.00048506885715092897,-8.612209133946048e-05,-0.0005316854446232805,8.603563663732124e-05,0.00011291278717008571,-0.0008004027861308552,0.0,0.0,0.0,0.0,0.0,0.0,0.0,7.711180469446854e-05,-5.9328419705184654e-05,9.601469730807777e-07,2.0621701290579608e-05,-4.001269641867866e-06,-7.120768228396912e-07,7.120761582601887e-07,0.001116560006048907,-0.00048506885715092897,8.612209133946048e-05,0.0005316854446232805,-8.603563663732124e-05,-0.00011291278717008571,0.0008004027861308552,0.09352988004684448,12.024682998657227,-1.3147919178009033,-21.717256546020508,-0.3857322335243225,-2.5207552909851074,0.17337362468242645,0
4,0.014996051788330078,-0.14510458707809448,-12.048486709594727,1.3425629138946533,21.717256546020508,0.3912253975868225,2.5207552909851074,-0.16604940593242645,0.0,0.0,0.0,0.0,0.0,0.0,0.0,-0.13346838587819174,0.31941142548113227,0.1053696542874301,0.40107119591256213,-0.14362934279948034,0.1202917968076324,-0.20499929080301377,0.17280674509207405,-0.4874592220949881,-0.1114740097177656,-1.946400808049921,0.13360609402491583,2.595551071855757,0.9452430330829488,0.1728802376190821,-0.48752024683155326,-0.11147110072896137,-1.9463801863486305,0.1336059019074957,2.595550359778934,0.9452445589611904,0.0006557012095071156,0.0006504560605208948,-0.0005251461376693176,-0.000716552648889614,-0.00011244841717013312,0.0002181896819438579,-0.0008317011078639693,0.0,0.0,0.0,0.0,0.0,0.0,0.0,7.349252700805664e-05,-6.102473656516283e-05,2.9089888042288514e-06,2.0621701290579608e-05,-1.9211742013913735e-07,-7.120768228396912e-07,1.525878241648293e-06,-0.0006557012095071156,-0.0006504560605208948,0.0005251461376693176,0.000716552648889614,0.00011244841717013312,-0.0002181896819438579,0.0008317011078639693,0.14510458707809448,12.048486709594727,-1.3425629138946533,-21.717256546020508,-0.3912253975868225,-2.5207552909851074,0.16604940593242645,0
5,0.020413875579833984,-0.14510458707809448,-12.048486709594727,1.3425629138946533,21.717256546020508,0.3912253975868225,2.5207552909851074,-0.16604940593242645,0.0,0.0,0.0,0.0,0.0,0.0,0.0,-0.13346838587819174,0.31941142548113227,0.1053696542874301,0.40107119591256213,-0.14362934279948034,0.1202917968076324,-0.20499929080301377,0.17280674509207405,-0.4874592220949881,-0.1114740097177656,-1.946400808049921,0.13360609402491583,2.595551071855757,0.9452430330829488,0.1728802376190821,-0.48752024683155326,-0.11147110072896137,-1.9463801863486305,0.1336059019074957,2.595550359778934,0.9452445589611904,0.0006557012095071156,0.0006504560605208948,-0.0005251461376693176,-0.000716552648889614,-0.00011244841717013312,0.0002181896819438579,-0.0008317011078639693,0.0,0.0,0.0,0.0,0.0,0.0,0.0,7.349252700805664e-05,-6.102473656516283e-05,2.9089888042288514e-06,2.0621701290579608e-05,-1.9211742013913735e-07,-7.120768228396912e-07,1.525878241648293e-06,-0.0006557012095071156,-0.0006504560605208948,0.0005251461376693176,0.000716552648889614,0.00011244841717013312,-0.0002181896819438579,0.0008317011078639693,0.14510458707809448,12.048486709594727,-1.3425629138946533,-21.717256546020508,-0.3912253975868225,-2.5207552909851074,0.16604940593242645,0
6,0.024994373321533203,-0.12130087614059448,-12.024682998657227,1.2909882068634033,21.641878128051758,0.3976340889930725,2.5207552909851074,-0.22830526530742645,0.0,0.0,0.0,0.0,0.0,0.0,0.0,-0.13151500936807425,0.3064270942219655,0.10841613094705282,0.40846622905818164,-0.14384347802149833,0.12162953799907457,-0.20451558475777273,0.17280507465621878,-0.4874606593723465,-0.11147039044007918,-1.9463955183363795,0.1336082253099607,2.595551071855757,0.9452499504006571,0.1728802376190821,-0.48752024683155326,-0.11147110072896137,-1.9463801863486305,0.1336059019074957,2.595550359778934,0.9452445589611904,0.0002696150904902423,-0.0008222099304331506,0.0008783475216459546,0.001367753097755724,-0.00024039029921436397,4.520283434721473e-06,0.0016539025270273465,0.0,0.0,0.0,0.0,0.0,0.0,0.0,7.516296286333435e-05,-5.958745920675579e-05,-7.102888821830522e-07,1.5331987748945508e-05,-2.3234024650042873e-06,-7.120768228396912e-07,-5.3914394666509935e-06,-0.0002696150904902423,0.0008222099304331506,-0.0008783475216459546,-0.001367753097755724,0.00024039029921436397,-4.520283434721473e-06,-0.0016539025270273465,0.12130087614059448,12.024682998657227,-1.2909882068634033,-21.641878128051758,-0.3976340889930725,-2.5207552909851074,0.22830526530742645,0
7,0.029986858367919922,-0.12130087614059448,-12.024682998657227,1.2909882068634033,21.641878128051758,0.3976340889930725,2.5207552909851074,-0.22830526530742645,0.0,0.0,0.0,0.0,0.0,0.0,0.0,-0.13151500936807425,0.3064270942219655,0.10841613094705282,0.40846622905818164,-0.14384347802149833,0.12162953799907457,-0.20451558475777273,0.17280507465621878,-0.4874606593723465,-0.11147039044007918,-1.9463955183363795,0.1336082253099607,2.595551071855757,0.9452499504006571,0.1728802376190821,-0.48752024683155326,-0.11147110072896137,-1.9463801863486305,0.1336059019074957,2.595550359778934,0.9452445589611904,0.0002696150904902423,-0.0008222099304331506,0.0008783475216459546,0.001367753097755724,-0.00024039029921436397,4.520283434721473e-06,0.0016539025270273465,0.0,0.0,0.0,0.0,0.0,0.0,0.0,7.516296286333435e-05,-5.958745920675579e-05,-7.102888821830522e-07,1.5331987748945508e-05,-2.3234024650042873e-06,-7.120768228396912e-07,-5.3914394666509935e-06,-0.0002696150904902423,0.0008222099304331506,-0.0008783475216459546,-0.001367753097755724,0.00024039029921436397,-4.520283434721473e-06,-0.0016539025270273465,0.12130087614059448,12.024682998657227,-1.2909882068634033,-21.641878128051758,-0.3976340889930725,-2.5207552909851074,0.22830526530742645,0
8,0.034987688064575195,-0.12130087614059448,-12.048486709594727,1.2671844959259033,21.741060256958008,0.3912253975868225,2.5271639823913574,-0.21457235515117645,0.0,0.0,0.0,0.0,0.0,0.0,0.0,-0.13284705870807093,0.30746569395408674,0.10422772221397028,0.40374568039675773,-0.14349075705809014,0.12149948092753927,-0.20481621319890508,0.17280507465621878,-0.48745898797219805,-0.11146872000422392,-1.9464024784857765,0.1336094112965534,2.595550359778934,0.9452484245217508,0.1728802376190821,-0.48752024683155326,-0.11147110072896137,-1.9463801863486305,0.1336059019074957,2.595550359778934,0.9452445589611904,-0.00047452507847887113,-0.00010603700761433181,0.0010006978687664874,-0.0009055656753852051,-2.4801914765875782e-05,-1.1958588101411194e-05,0.00043939191994083035,0.0,0.0,0.0,0.0,0.0,0.0,0.0,7.516296286333435e-05,-6.125885935520659e-05,-2.380724737446882e-06,2.2292137145996094e-05,-3.509389057715362e-06,0.0,-3.865560560423198e-06,0.00047452507847887113,0.00010603700761433181,-0.0010006978687664874,0.0009055656753852051,2.4801914765875782e-05,1.1958588101411194e-05,-0.00043939191994083035,0.12130087614059448,12.048486709594727,-1.2671844959259033,-21.741060256958008,-0.3912253975868225,-2.5271639823913574,0.21457235515117645,0
9,0.03998732566833496,-0.12130087614059448,-12.048486709594727,1.2671844959259033,21.741060256958008,0.3912253975868225,2.5271639823913574,-0.21457235515117645,0.0,0.0,0.0,0.0,0.0,0.0,0.0,-0.13284705870807093,0.30746569395408674,0.10422772221397028,0.40374568039675773,-0.14349075705809014,0.12149948092753927,-0.20481621319890508,0.17280507465621878,-0.48745898797219805,-0.11146872000422392,-1.9464024784857765,0.1336094112965534,2.595550359778934,0.9452484245217508,0.1728802376190821,-0.48752024683155326,-0.11147110072896137,-1.9463801863486305,0.1336059019074957,2.595550359778934,0.9452445589611904,-0.00047452507847887113,-0.00010603700761433181,0.0010006978687664874,-0.0009055656753852051,-2.4801914765875782e-05,-1.1958588101411194e-05,0.00043939191994083035,0.0,0.0,0.0,0.0,0.0,0.0,0.0,7.516296286333435e-05,-6.125885935520659e-05,-2.380724737446882e-06,2.2292137145996094e-05,-3.509389057715362e-06,0.0,-3.865560560423198e-06,0.00047452507847887113,0.00010603700761433181,-0.0010006978687664874,0.0009055656753852051,2.4801914765875782e-05,1.1958588101411194e-05,-0.00043939191994083035,0.12130087614059448,12.048486709594727,-1.2671844959259033,-21.741060256958008,-0.3912253975868225,-2.5271639823913574,0.21457235515117645,0
10,0.044988393783569336,-0.09352988004684448,-12.024682998657227,1.3147919178009033,21.693452835083008,0.3912253975868225,2.5207552909851074,-0.20724813640117645,0.0,0.0,0.0,0.0,0.0,0.0,0.0,-0.12230321141098988,0.3087393608705652,0.1180336524809034,0.4008609204295877,-0.14394682870150682,0.12119039303577198,-0.20574019476325442,0.17280312581438764,-0.48746065840804786,-0.11147206087593445,-1.946399137614066,0.1336092884378941,2.595551071855757,0.9452476107196676,0.1728802376190821,-0.48752024683155326,-0.11147110072896137,-1.9463801863486305,0.1336059019074957,2.595550359778934,0.9452445589611904,-0.0004632802366057131,-0.0002801740772465178,-4.4197917056413796e-05,0.0003293850878442794,4.797543955177471e-05,4.16062739846449e-05,0.0007268854508585342,0.0,0.0,0.0,0.0,0.0,0.0,0.0,7.711180469446854e-05,-5.9588423505396726e-05,9.601469730807777e-07,1.8951265435385167e-05,-3.386530398413745e-06,-7.120768228396912e-07,-3.051758477146116e-06,0.0004632802366057131,0.0002801740772465178,4.4197917056413796e-05,-0.0003293850878442794,-4.797543955177471e-05,-4.16062739846449e-05,-0.0007268854508585342,0.09352988004684448,12.024682998657227,-1.3147919178009033,-21.693452835083008,-0.3912253975868225,-2.5207552909851074,0.20724813640117645,0
11,0.04998588562011719,-0.09352988004684448,-12.024682998657227,1.3147919178009033,21.693452835083008,0.3912253975868225,2.5207552909851074,-0.20724813640117645,0.0,0.0,0.0,0.0,0.0,0.0,0.0,-0.12230321141098988,0.3087393608705652,0.1180336524809034,0.4008609204295877,-0.14394682870150682,0.12119039303577198,-0.20574019476325442,0.17280312581438764,-0.48746065840804786,-0.11147206087593445,-1.946399137614066,0.1336092884378941,2.595551071855757,0.9452476107196676,0.1728802376190821,-0.48752024683155326,-0.11147110072896137,-1.9463801863486305,0.1336059019074957,2.595550359778934,0.9452445589611904,-0.0004632802366057131,-0.0002801740772465178,-4.4197917056413796e-05,0.0003293850878442794,4.797543955177471e-05,4.16062739846449e-05,0.0007268854508585342,0.0,0.0,0.0,0.0,0.0,0.0,0.0,7.711180469446854e-05,-5.9588423505396726e-05,9.601469730807777e-07,1.8951265435385167e-05,-3.386530398413745e-06,-7.120768228396912e-07,-3.051758477146116e-06,0.0004632802366057131,0.0002801740772465178,4.4197917056413796e-05,-0.0003293850878442794,-4.797543955177471e-05,-4.16062739846449e-05,-0.0007268854508585342,0.09352988004684448,12.024682998657227,-1.3147919178009033,-21.693452835083008,-0.3912253975868225,-2.5207552909851074,0.20724813640117645,0
12,0.05499124526977539,-0.14510458707809448,-12.024682998657227,1.3147919178009033,21.669649124145508,0.3912253975868225,2.5207552909851074,-0.22098104655742645,0.0,0.0,0.0,0.0,0.0,0.0,0.0,-0.13105501358199184,0.30738540825426586,0.10357690510738388,0.40203908052893317,-0.14301256676982319,0.12116127764159301,-0.20555078349147768,0.17280674509207405,-0.4874606587290402,-0.11147203456894617,-1.9463974671782107,0.1336093981348207,2.595551071855757,0.9452491365985738,0.1728802376190821,-0.48752024683155326,-0.11147110072896137,-1.9463801863486305,0.1336059019074957,2.595550359778934,0.9452445589611904,-0.00010244690738375326,0.0004365696411179872,-0.0005630938762439487,0.0006140924339705719,-4.905987005028572e-05,4.4187149343163964e-05,0.0012235916413300347,0.0,0.0,0.0,0.0,0.0,0.0,0.0,7.349252700805664e-05,-5.958810251305291e-05,9.338399847985679e-07,1.7280829580190726e-05,-3.496227325011647e-06,-7.120768228396912e-07,-4.5776373833739115e-06,0.00010244690738375326,-0.0004365696411179872,0.0005630938762439487,-0.0006140924339705719,4.905987005028572e-05,-4.4187149343163964e-05,-0.0012235916413300347,0.14510458707809448,12.024682998657227,-1.3147919178009033,-21.669649124145508,-0.3912253975868225,-2.5207552909851074,0.22098104655742645,0
13,0.0599977970123291,-0.14510458707809448,-12.024682998657227,1.3147919178009033,21.669649124145508,0.3912253975868225,2.5207552909851074,-0.22098104655742645,0.0,0.0,0.0,0.0,0.0,0.0,0.0,-0.13105501358199184,0.30738540825426586,0.10357690510738388,0.40203908052893317,-0.14301256676982319,0.12116127764159301,-0.20555078349147768,0.17280674509207405,-0.4874606587290402,-0.11147203456894617,-1.9463974671782107,0.1336093981348207,2.595551071855757,0.9452491365985738,0.1728802376190821,-0.48752024683155326,-0.11147110072896137,-1.9463801863486305,0.1336059019074957,2.595550359778934,0.9452445589611904,-0.00010244690738375326,0.0004365696411179872,-0.0005630938762439487,0.0006140924339705719,-4.905987005028572e-05,4.4187149343163964e-05,0.0012235916413300347,0.0,0.0,0.0,0.0,0.0,0.0,0.0,7.349252700805664e-05,-5.958810251305291e-05,9.338399847985679e-07,1.7280829580190726e-05,-3.496227325011647e-06,-7.120768228396912e-07,-4.5776373833739115e-06,0.00010244690738375326,-0.0004365696411179872,0.0005630938762439487,-0.0006140924339705719,4.905987005028572e-05,-4.4187149343163964e-05,-0.0012235916413300347,0.14510458707809448,12.024682998657227,-1.3147919178009033,-21.669649124145508,-0.3912253975868225,-2.5207552909851074,0.22098104655742645,0
14,0.06499171257019043,-0.12130087614059448,-12.048486709594727,1.2909882068634033,21.693452835083008,0.3857322335243225,2.5271639823913574,-0.21457235515117645,0.0,0.0,0.0,0.0,0.0,0.0,0.0,-0.13191615370196236,0.28743046663143723,0.1095279358582713,0.41238661759524536,-0.14350156130558694,0.12283908498695248,-0.20536654788517383,0.17280507462004827,-0.48746109400297644,-0.11147039043993068,-1.946399137614066,0.1336099821595736,2.595550359778934,0.9452484245217508,0.1728802376190821,-0.48752024683155326,-0.11147110072896137,-1.9463801863486305,0.1336059019074957,2.595550359778934,0.9452445589611904,-0.0007099112969680398,8.36622598764787e-05,0.00031978456107709097,-6.071857477846589e-05,7.14875646367114e-05,-0.0001225159215811315,0.0010159474400905754,0.0,0.0,0.0,0.0,0.0,0.0,0.0,7.516299903384538e-05,-5.915282857682502e-05,-7.102890306892595e-07,1.8951265435385167e-05,-4.0802520779037454e-06,0.0,-3.865560560423198e-06,0.0007099112969680398,-8.36622598764787e-05,-0.00031978456107709097,6.071857477846589e-05,-7.14875646367114e-05,0.0001225159215811315,-0.0010159474400905754,0.12130087614059448,12.048486709594727,-1.2909882068634033,-21.693452835083008,-0.3857322335243225,-2.5271639823913574,0.21457235515117645,0
15,0.06999349594116211,-0.12130087614059448,-12.048486709594727,1.2909882068634033,21.693452835083008,0.3857322335243225,2.5271639823913574,-0.21457235515117645,0.0,0.0,0.0,0.0,0.0,0.0,0.0,-0.13191615370196236,0.28743046663143723,0.1095279358582713,0.41238661759524536,-0.14350156130558694,0.12283908498695248,-0.20536654788517383,0.17280507462004827,-0.48746109400297644,-0.11147039043993068,-1.946399137614066,0.1336099821595736,2.595550359778934,0.9452484245217508,0.1728802376190821,-0.48752024683155326,-0.11147110072896137,-1.9463801863486305,0.1336059019074957,2.595550359778934,0.9452445589611904,-0.0007099112969680398,8.36622598764787e-05,0.00031978456107709097,-6.071857477846589e-05,7.14875646367114e-05,-0.0001225159215811315,0.0010159474400905754,0.0,0.0,0.0,0.0,0.0,0.0,0.0,7.516299903384538e-05,-5.915282857682502e-05,-7.102890306892595e-07,1.8951265435385167e-05,-4.0802520779037454e-06,0.0,-3.865560560423198e-06,0.0007099112969680398,-8.36622598764787e-05,-0.00031978456107709097,6.071857477846589e-05,-7.14875646367114e-05,0.0001225159215811315,-0.0010159474400905754,0.12130087614059448,12.048486709594727,-1.2909882068634033,-21.693452835083008,-0.3857322335243225,-2.5271639823913574,0.21457235515117645,0
16,0.07499289512634277,-0.12130087614059448,-12.048486709594727,1.2909882068634033,21.693452835083008,0.3857322335243225,2.5271639823913574,-0.21457235515117645,0.0,0.0,0.0,0.0,0.0,0.0,0.0,-0.13191615370196236,0.28743046663143723,0.1095279358582713,0.41238661759524536,-0.14350156130558694,0.12283908498695248,-0.20536654788517383,0.17280507462004827,-0.48746109400297644,-0.11147039043993068,-1.946399137614066,0.1336099821595736,2.595550359778934,0.9452484245217508,0.1728802376190821,-0.48752024683155326,-0.11147110072896137,-1.9463801863486305,0.1336059019074957,2.595550359778934,0.9452445589611904,-0.0007099112969680398,8.36622598764787e-05,0.00031978456107709097,-6.071857477846589e-05,7.14875646367114e-05,-0.0001225159215811315,0.0010159474400905754,0.0,0.0,0.0,0.0,0.0,0.0,0.0,7.516299903384538e-05,-5.915282857682502e-05,-7.102890306892595e-07,1.8951265435385167e-05,-4.0802520779037454e-06,0.0,-3.865560560423198e-06,0.0007099112969680398,-8.36622598764787e-05,-0.00031978456107709097,6.071857477846589e-05,-7.14875646367114e-05,0.0001225159215811315,-0.0010159474400905754,0.12130087614059448,12.048486709594727,-1.2909882068634033,-21.693452835083008,-0.3857322335243225,-2.5271639823913574,0.21457235515117645,0
17,0.07999491691589355,-0.12130087614059448,-12.048486709594727,1.2909882068634033,21.693452835083008,0.3857322335243225,2.5271639823913574,-0.21457235515117645,0.0,0.0,0.0,0.0,0.0,0.0,0.0,-0.13191615370196236,0.28743046663143723,0.1095279358582713,0.41238661759524536,-0.14350156130558694,0.12283908498695248,-0.20536654788517383,0.17280507462004827,-0.48746109400297644,-0.11147039043993068,-1.946399137614066,0.1336099821595736,2.595550359778934,0.9452484245217508,0.1728802376190821,-0.48752024683155326,-0.11147110072896137,-1.9463801863486305,0.1336059019074957,2.595550359778934,0.9452445589611904,-0.0007099112969680398,8.36622598764787e-05,0.00031978456107709097,-6.071857477846589e-05,7.14875646367114e-05,-0.0001225159215811315,0.0010159474400905754,0.0,0.0,0.0,0.0,0.0,0.0,0.0,7.516299903384538e-05,-5.915282857682502e-05,-7.102890306892595e-07,1.8951265435385167e-05,-4.0802520779037454e-06,0.0,-3.865560560423198e-06,0.0007099112969680398,-8.36622598764787e-05,-0.00031978456107709097,6.071857477846589e-05,-7.14875646367114e-05,0.0001225159215811315,-0.0010159474400905754,0.12130087614059448,12.048486709594727,-1.2909882068634033,-21.693452835083008,-0.3857322335243225,-2.5271639823913574,0.21457235515117645,0
18,0.08499670028686523,-0.14510458707809448,-12.072290420532227,1.2909882068634033,21.717256546020508,0.3912253975868225,2.5271639823913574,-0.19351522624492645,0.0,0.0,0.0,0.0,0.0,0.0,0.0,-0.13147021555345836,0.29497173061760273,0.11207793044293127,0.40753638936167125,-0.1443334873623978,0.12295555785297353,-0.20474771389393465,0.17280674509207386,-0.48745734358427173,-0.11146825957402846,-1.946400808049921,0.13360834455059312,2.595550359778934,0.9452460848407613,0.1728802376190821,-0.48752024683155326,-0.11147110072896137,-1.9463801863486305,0.1336059019074957,2.595550359778934,0.9452445589611904,0.00022793022942138138,0.000645163825503028,0.0005664826766065996,-0.0002542089291607593,-0.00013280425504618018,4.528038208055882e-05,-0.000340792730288597,0.0,0.0,0.0,0.0,0.0,0.0,0.0,7.349252700825093e-05,-6.290324728153163e-05,-2.841154932903267e-06,2.0621701290579608e-05,-2.44264309742781e-06,0.0,-1.5258795709183204e-06,-0.00022793022942138138,-0.000645163825503028,-0.0005664826766065996,0.0002542089291607593,0.00013280425504618018,-4.528038208055882e-05,0.000340792730288597,0.14510458707809448,12.072290420532227,-1.2909882068634033,-21.717256546020508,-0.3912253975868225,-2.5271639823913574,0.19351522624492645,0
19,0.09104156494140625,-0.14510458707809448,-12.072290420532227,1.2909882068634033,21.717256546020508,0.3912253975868225,2.5271639823913574,-0.19351522624492645,0.0,0.0,0.0,0.0,0.0,0.0,0.0,-0.13147021555345836,0.29497173061760273,0.11207793044293127,0.40753638936167125,-0.1443334873623978,0.12295555785297353,-0.20474771389393465,0.17280674509207386,-0.48745734358427173,-0.11146825957402846,-1.946400808049921,0.13360834455059312,2.595550359778934,0.9452460848407613,0.1728802376190821,-0.48752024683155326,-0.11147110072896137,-1.9463801863486305,0.1336059019074957,2.595550359778934,0.9452445589611904,0.00022793022942138138,0.000645163825503028,0.0005664826766065996,-0.0002542089291607593,-0.00013280425504618018,4.528038208055882e-05,-0.000340792730288597,0.0,0.0,0.0,0.0,0.0,0.0,0.0,7.349252700825093e-05,-6.290324728153163e-05,-2.841154932903267e-06,2.0621701290579608e-05,-2.44264309742781e-06,0.0,-1.5258795709183204e-06,-0.00022793022942138138,-0.000645163825503028,-0.0005664826766065996,0.0002542089291607593,0.00013280425504618018,-4.528038208055882e-05,0.000340792730288597,0.14510458707809448,12.072290420532227,-1.2909882068634033,-21.717256546020508,-0.3912253975868225,-2.5271639823913574,0.19351522624492645,0
20,0.09499287605285645,-0.12130087614059448,-12.000879287719727,1.2671844959259033,21.693452835083008,0.3857322335243225,2.5143465995788574,-0.19351522624492645,0.0,0.0,0.0,0.0,0.0,0.0,0.0,-0.13783124149290468,0.3130965750366331,0.10079618704152465,0.3956761571786873,-0.14410402717729226,0.12188993011045345,-0.205651626774095,0.17280507465621878,-0.4874624069521877,-0.11146871999219513,-1.946399137614066,0.1336099819911111,2.5955517839325797,0.9452460848407613,0.1728802376190821,-0.48752024683155326,-0.11147110072896137,-1.9463801863486305,0.1336059019074957,2.595550359778934,0.9452445589611904,-0.001328851645949485,-0.0003197032774121214,0.0008402582996663761,-0.00010045573610687841,0.0002039066396995316,1.2574531533727076e-05,6.674986181488285e-05,0.0,0.0,0.0,0.0,0.0,0.0,0.0,7.516296286333435e-05,-5.7839879365584324e-05,-2.380736766241509e-06,1.8951265435385167e-05,-4.080083615409791e-06,-1.4241536456793824e-06,-1.5258795709183204e-06,0.001328851645949485,0.0003197032774121214,-0.0008402582996663761,0.00010045573610687841,-0.0002039066396995316,-1.2574531533727076e-05,-6.674986181488285e-05,0.12130087614059448,12.000879287719727,-1.2671844959259033,-21.693452835083008,-0.3857322335243225,-2.5143465995788574,0.19351522624492645,0
21,0.09998726844787598,-0.12130087614059448,-12.000879287719727,1.2671844959259033,21.693452835083008,0.3857322335243225,2.5143465995788574,-0.19351522624492645,0.0,0.0,0.0,0.0,0.0,0.0,0.0,-0.13783124149290468,0.3130965750366331,0.10079618704152465,0.3956761571786873,-0.14410402717729226,0.12188993011045345,-0.205651626774095,0.17280507465621878,-0.4874624069521877,-0.11146871999219513,-1.946399137614066,0.1336099819911111,2.5955517839325797,0.9452460848407613,0.1728802376190821,-0.48752024683155326,-0.11147110072896137,-1.9463801863486305,0.1336059019074957,2.595550359778934,0.9452445589611904,-0.001328851645949485,-0.0003197032774121214,0.0008402582996663761,-0.00010045573610687841,0.0002039066396995316,1.2574531533727076e-05,6.674986181488285e-05,0.0,0.0,0.0,0.0,0.0,0.0,0.0,7.516296286333435e-05,-5.7839879365584324e-05,-2.380736766241509e-06,1.8951265435385167e-05,-4.080083615409791e-06,-1.4241536456793824e-06,-1.5258795709183204e-06,0.001328851645949485,0.0003197032774121214,-0.0008402582996663761,0.00010045573610687841,-0.0002039066396995316,-1.2574531533727076e-05,-6.674986181488285e-05,0.12130087614059448,12.000879287719727,-1.2671844959259033,-21.693452835083008,-0.3857322335243225,-2.5143465995788574,0.19351522624492645,0
22,0.10498857498168945,-0.17287558317184448,-11.949304580688477,1.2909882068634033,21.669649124145508,0.3912253975868225,2.5143465995788574,-0.19351522624492645,0.0,0.0,0.0,0.0,0.0,0.0,0.0,-0.13362038602943976,0.3207263552132671,0.1107749633510795,0.3933374235185874,-0.1447943925528439,0.12063279640616506,-0.2060497174622973,0.1728086939339052,-0.4874666502392886,-0.11147039011530148,-1.9463974671782107,0.13360937164534656,2.5955517839325797,0.9452460848407613,0.1728802376190821,-0.48752024683155326,-0.11147110072896137,-1.9463801863486305,0.1336059019074957,2.595550359778934,0.9452445589611904,0.0005673774912166256,-0.0006266806818285573,0.00023439473500015245,0.0004846075278516412,-0.00017200147447029367,0.0002519068808023717,-0.000338564022932949,0.0,0.0,0.0,0.0,0.0,0.0,0.0,7.154368517692244e-05,-5.359659226467084e-05,-7.106136598877821e-07,1.7280829580190726e-05,-3.4697378508696808e-06,-1.4241536456793824e-06,-1.5258795709183204e-06,-0.0005673774912166256,0.0006266806818285573,-0.00023439473500015245,-0.0004846075278516412,0.00017200147447029367,-0.0002519068808023717,0.000338564022932949,0.17287558317184448,11.949304580688477,-1.2909882068634033,-21.669649124145508,-0.3912253975868225,-2.5143465995788574,0.19351522624492645,0
23,0.10999274253845215,-0.17287558317184448,-11.949304580688477,1.2909882068634033,21.669649124145508,0.3912253975868225,2.5143465995788574,-0.19351522624492645,0.0,0.0,0.0,0.0,0.0,0.0,0.0,-0.13362038602943976,0.3207263552132671,0.1107749633510795,0.3933374235185874,-0.1447943925528439,0.12063279640616506,-0.2060497174622973,0.1728086939339052,-0.4874666502392886,-0.11147039011530148,-1.9463974671782107,0.13360937164534656,2.5955517839325797,0.9452460848407613,0.1728802376190821,-0.48752024683155326,-0.11147110072896137,-1.9463801863486305,0.1336059019074957,2.595550359778934,0.9452445589611904,0.0005673774912166256,-0.0006266806818285573,0.00023439473500015245,0.0004846075278516412,-0.00017200147447029367,0.0002519068808023717,-0.000338564022932949,0.0,0.0,0.0,0.0,0.0,0.0,0.0,7.154368517692244e-05,-5.359659226467084e-05,-7.106136598877821e-07,1.7280829580190726e-05,-3.4697378508696808e-06,-1.4241536456793824e-06,-1.5258795709183204e-06,-0.0005673774912166256,0.0006266806818285573,-0.00023439473500015245,-0.0004846075278516412,0.00017200147447029367,-0.0002519068808023717,0.000338564022932949,0.17287558317184448,11.949304580688477,-1.2909882068634033,-21.669649124145508,-0.3912253975868225,-2.5143465995788574,0.19351522624492645,0
24,0.11499190330505371,-0.12130087614059448,-11.973108291625977,1.2909882068634033,21.669649124145508,0.4031272530555725,2.5207552909851074,-0.17337362468242645,0.0,0.0,0.0,0.0,0.0,0.0,0.0,-0.13799069336403025,0.30212479873240516,0.10863368905670312,0.4067056106019251,-0.1446029395751613,0.121810310398999,-0.20617274353668835,0.17280506586678215,-0.4874649796999584,-0.11147039044007735,-1.9463974671782107,0.1336080887081044,2.595551071855757,0.9452438468850322,0.1728802376190821,-0.48752024683155326,-0.11147110072896137,-1.9463801863486305,0.1336059019074957,2.595550359778934,0.9452445589611904,-0.00018920969414727175,-0.000493028110970264,5.7467873736464396e-05,0.0004201963875504266,-0.0005345193635539773,-0.000202586541832972,-0.0012651771364860353,0.0,0.0,0.0,0.0,0.0,0.0,0.0,7.517175229995732e-05,-5.526713159487162e-05,-7.102888840149202e-07,1.7280829580190726e-05,-2.1868006087055747e-06,-7.120768228396912e-07,7.120761582601887e-07,0.00018920969414727175,0.000493028110970264,-5.7467873736464396e-05,-0.0004201963875504266,0.0005345193635539773,0.000202586541832972,0.0012651771364860353,0.12130087614059448,11.973108291625977,-1.2909882068634033,-21.669649124145508,-0.4031272530555725,-2.5207552909851074,0.17337362468242645,0
25,0.12041091918945312,-0.12130087614059448,-11.973108291625977,1.2909882068634033,21.669649124145508,0.4031272530555725,2.5207552909851074,-0.17337362468242645,0.0,0.0,0.0,0.0,0.0,0.0,0.0,-0.13799069336403025,0.30212479873240516,0.10863368905670312,0.4067056106019251,-0.1446029395751613,0.121810310398999,-0.20617274353668835,0.17280506586678215,-0.4874649796999584,-0.11147039044007735,-1.9463974671782107,0.1336080887081044,2.595551071855757,0.9452438468850322,0.1728802376190821,-0.48752024683155326,-0.11147110072896137,-1.9463801863486305,0.1336059019074957,2.595550359778934,0.9452445589611904,-0.00018920969414727175,-0.000493028110970264,5.7467873736464396e-05,0.0004201963875504266,-0.0005345193635539773,-0.000202586541832972,-0.0012651771364860353,0.0,0.0,0.0,0.0,0.0,0.0,0.0,7.517175229995732e-05,-5.526713159487162e-05,-7.102888840149202e-07,1.7280829580190726e-05,-2.1868006087055747e-06,-7.120768228396912e-07,7.120761582601887e-07,0.00018920969414727175,0.000493028110970264,-5.7467873736464396e-05,-0.0004201963875504266,0.0005345193635539773,0.000202586541832972,0.0012651771364860353,0.12130087614059448,11.973108291625977,-1.2909882068634033,-21.669649124145508,-0.4031272530555725,-2.5207552909851074,0.17337362468242645,0
26,0.12499046325683594,-0.09352988004684448,-12.000879287719727,1.2909882068634033,21.741060256958008,0.3912253975868225,2.5207552909851074,-0.17337362468242645,0.0,0.0,0.0,0.0,0.0,0.0,0.0,-0.1327611023046396,0.3145685679073408,0.10931634706664396,0.4035232088845824,-0.14471108983769418,0.120863284567551,-0.2062696857500596,0.17280312581433804,-0.487462354848246,-0.11147039044007918,-1.9464024784857765,0.133609292825798,2.595551071855757,0.9452438468850322,0.1728802376190821,-0.48752024683155326,-0.11147110072896137,-1.9463801863486305,0.1336059019074957,2.595550359778934,0.9452445589611904,-0.0004454867418097162,8.424646897851152e-05,0.00014386319329956813,-0.0011280968062482267,6.91029724398722e-05,9.301308605596052e-05,-0.0008148893418554603,0.0,0.0,0.0,0.0,0.0,0.0,0.0,7.711180474406776e-05,-5.789198330724554e-05,-7.102888821830522e-07,2.2292137145996094e-05,-3.3909183023150824e-06,-7.120768228396912e-07,7.120761582601887e-07,0.0004454867418097162,-8.424646897851152e-05,-0.00014386319329956813,0.0011280968062482267,-6.91029724398722e-05,-9.301308605596052e-05,0.0008148893418554603,0.09352988004684448,12.000879287719727,-1.2909882068634033,-21.741060256958008,-0.3912253975868225,-2.5207552909851074,0.17337362468242645,0
27,0.1299910545349121,-0.09352988004684448,-12.000879287719727,1.2909882068634033,21.741060256958008,0.3912253975868225,2.5207552909851074,-0.17337362468242645,0.0,0.0,0.0,0.0,0.0,0.0,0.0,-0.1327611023046396,0.3145685679073408,0.10931634706664396,0.4035232088845824,-0.14471108983769418,0.120863284567551,-0.2062696857500596,0.17280312581433804,-0.487462354848246,-0.11147039044007918,-1.9464024784857765,0.133609292825798,2.595551071855757,0.9452438468850322,0.1728802376190821,-0.48752024683155326,-0.11147110072896137,-1.9463801863486305,0.1336059019074957,2.595550359778934,0.9452445589611904,-0.0004454867418097162,8.424646897851152e-05,0.00014386319329956813,-0.0011280968062482267,6.91029724398722e-05,9.301308605596052e-05,-0.0008148893418554603,0.0,0.0,0.0,0.0,0.0,0.0,0.0,7.711180474406776e-05,-5.789198330724554e-05,-7.102888821830522e-07,2.2292137145996094e-05,-3.3909183023150824e-06,-7.120768228396912e-07,7.120761582601887e-07,0.0004454867418097162,-8.424646897851152e-05,-0.00014386319329956813,0.0011280968062482267,-6.91029724398722e-05,-9.301308605596052e-05,0.0008148893418554603,0.09352988004684448,12.000879287719727,-1.2909882068634033,-21.741060256958008,-0.3912253975868225,-2.5207552909851074,0.17337362468242645,0
28,0.13500404357910156,-0.14510458707809448,-12.000879287719727,1.3147919178009033,21.693452835083008,0.3857322335243225,2.5271639823913574,-0.22098104655742645,0.0,0.0,0.0,0.0,0.0,0.0,0.0,-0.12788859691190385,0.3129767095535797,0.11107563423448405,0.40488293355090244,-0.14447858452116896,0.12134802656976411,-0.20664703421836528,0.1728067449835625,-0.4874625631684625,-0.11147206087593445,-1.9463989080258046,0.1336089553892547,2.595550359778934,0.9452491365985738,0.1728802376190821,-0.48752024683155326,-0.11147110072896137,-1.9463801863486305,0.1336059019074957,2.595550359778934,0.9452445589611904,0.0005022502559378874,-0.0004311967400751793,0.00018528067427341972,0.0002197731951164809,0.00017505954864671352,-0.0001557570747609277,0.0009841252167545106,0.0,0.0,0.0,0.0,0.0,0.0,0.0,7.349263551961749e-05,-5.768366309077955e-05,9.601469730807777e-07,1.8721677174093898e-05,-3.0534817590244234e-06,0.0,-4.5776373833739115e-06,-0.0005022502559378874,0.0004311967400751793,-0.00018528067427341972,-0.0002197731951164809,-0.00017505954864671352,0.0001557570747609277,-0.0009841252167545106,0.14510458707809448,12.000879287719727,-1.3147919178009033,-21.693452835083008,-0.3857322335243225,-2.5271639823913574,0.22098104655742645,0
29,0.14003872871398926,-0.14510458707809448,-12.000879287719727,1.3147919178009033,21.693452835083008,0.3857322335243225,2.5271639823913574,-0.22098104655742645,0.0,0.0,0.0,0.0,0.0,0.0,0.0,-0.12788859691190385,0.3129767095535797,0.11107563423448405,0.40488293355090244,-0.14447858452116896,0.12134802656976411,-0.20664703421836528,0.1728067449835625,-0.4874625631684625,-0.11147206087593445,-1.9463989080258046,0.1336089553892547,2.595550359778934,0.9452491365985738,0.1728802376190821,-0.48752024683155326,-0.11147110072896137,-1.9463801863486305,0.1336059019074957,2.595550359778934,0.9452445589611904,0.0005022502559378874,-0.0004311967400751793,0.00018528067427341972,0.0002197731951164809,0.00017505954864671352,-0.0001557570747609277,0.0009841252167545106,0.0,0.0,0.0,0.0,0.0,0.0,0.0,7.349263551961749e-05,-5.768366309077955e-05,9.601469730807777e-07,1.8721677174093898e-05,-3.0534817590244234e-06,0.0,-4.5776373833739115e-06,-0.0005022502559378874,0.0004311967400751793,-0.00018528067427341972,-0.0002197731951164809,-0.00017505954864671352,0.0001557570747609277,-0.0009841252167545106,0.14510458707809448,12.000879287719727,-1.3147919178009033,-21.693452835083008,-0.3857322335243225,-2.5271639823913574,0.22098104655742645,0
30,0.14510178565979004,-0.14510458707809448,-12.024682998657227,1.3147919178009033,21.669649124145508,0.3912253975868225,2.5207552909851074,-0.17337362468242645,0.0,0.0,0.0,0.0,0.0,0.0,0.0,-0.13120337530630138,0.3110234789880285,0.10784857716863612,0.40495459364980557,-0.14416648281478123,0.12147099470517819,-0.20685540499819005,0.17280674509207344,-0.48746065844503644,-0.11147206087593445,-1.9463974671769146,0.13360939812949518,2.595551071855757,0.9452438468850322,0.1728802376190821,-0.48752024683155326,-0.11147110072896137,-1.9463801863486305,0.1336059019074957,2.595550359778934,0.9452445589611904,0.0007489391150047121,-0.0004475284145203092,-0.0006930878869861196,0.0007743678453078137,-1.5458358721832888e-05,0.00019348408791470997,-0.0008462530440164294,0.0,0.0,0.0,0.0,0.0,0.0,0.0,7.349252700866726e-05,-5.958838651681786e-05,9.601469730807777e-07,1.7280828284116367e-05,-3.4962219994938426e-06,-7.120768228396912e-07,7.120761582601887e-07,-0.0007489391150047121,0.0004475284145203092,0.0006930878869861196,-0.0007743678453078137,1.5458358721832888e-05,-0.00019348408791470997,0.0008462530440164294,0.14510458707809448,12.024682998657227,-1.3147919178009033,-21.669649124145508,-0.3912253975868225,-2.5207552909851074,0.17337362468242645,0
31,0.1499927043914795,-0.14510458707809448,-12.024682998657227,1.3147919178009033,21.669649124145508,0.3912253975868225,2.5207552909851074,-0.17337362468242645,0.0,0.0,0.0,0.0,0.0,0.0,0.0,-0.13120337530630138,0.3110234789880285,0.10784857716863612,0.40495459364980557,-0.14416648281478123,0.12147099470517819,-0.20685540499819005,0.17280674509207344,-0.48746065844503644,-0.11147206087593445,-1.9463974671769146,0.13360939812949518,2.595551071855757,0.9452438468850322,0.1728802376190821,-0.48752024683155326,-0.11147110072896137,-1.9463801863486305,0.1336059019074957,2.595550359778934,0.9452445589611904,0.0007489391150047121,-0.0004475284145203092,-0.0006930878869861196,0.0007743678453078137,-1.5458358721832888e-05,0.00019348408791470997,-0.0008462530440164294,0.0,0.0,0.0,0.0,0.0,0.0,0.0,7.349252700866726e-05,-5.958838651681786e-05,9.601469730807777e-07,1.7280828284116367e-05,-3.4962219994938426e-06,-7.120768228396912e-07,7.120761582601887e-07,-0.0007489391150047121,0.0004475284145203092,0.0006930878869861196,-0.0007743678453078137,1.5458358721832888e-05,-0.00019348408791470997,0.0008462530440164294,0.14510458707809448,12.024682998657227,-1.3147919178009033,-21.669649124145508,-0.3912253975868225,-2.5207552909851074,0.17337362468242645,0
32,0.15499639511108398,-0.12130087614059448,-12.048486709594727,1.2671844959259033,21.641878128051758,0.3976340889930725,2.5143465995788574,-0.15231649577617645,0.0,0.0,0.0,0.0,0.0,0.0,0.0,-0.12915610439478067,0.31761604170354046,0.11050399149958039,0.3983834974500583,-0.14437303545856248,0.12078403884408148,-0.20668505978694,0.17280507465621878,-0.4874592220826109,-0.11146872000422392,-1.9463955183363795,0.1336086860584683,2.5955517839325797,0.9452415072040425,0.1728802376190821,-0.48752024683155326,-0.11147110072896137,-1.9463801863486305,0.1336059019074957,2.595550359778934,0.9452445589611904,-0.0002892234007013073,0.0002321862830509121,0.0008190449583853327,0.00108087087026313,-0.00032587883123211074,0.000262010592571665,-0.0018353230208993081,0.0,0.0,0.0,0.0,0.0,0.0,0.0,7.516296286333435e-05,-6.10247489423732e-05,-2.380724737446882e-06,1.5331987748945508e-05,-2.784150972601207e-06,-1.4241536456793824e-06,3.0517571478760885e-06,0.0002892234007013073,-0.0002321862830509121,-0.0008190449583853327,-0.00108087087026313,0.00032587883123211074,-0.000262010592571665,0.0018353230208993081,0.12130087614059448,12.048486709594727,-1.2671844959259033,-21.641878128051758,-0.3976340889930725,-2.5143465995788574,0.15231649577617645,0
33,0.15994644165039062,-0.12130087614059448,-12.048486709594727,1.2671844959259033,21.641878128051758,0.3976340889930725,2.5143465995788574,-0.15231649577617645,0.0,0.0,0.0,0.0,0.0,0.0,0.0,-0.12915610439478067,0.31761604170354046,0.11050399149958039,0.3983834974500583,-0.14437303545856248,0.12078403884408148,-0.20668505978694,0.17280507465621878,-0.4874592220826109,-0.11146872000422392,-1.9463955183363795,0.1336086860584683,2.5955517839325797,0.9452415072040425,0.1728802376190821,-0.48752024683155326,-0.11147110072896137,-1.9463801863486305,0.1336059019074957,2.595550359778934,0.9452445589611904,-0.0002892234007013073,0.0002321862830509121,0.0008190449583853327,0.00108087087026313,-0.00032587883123211074,0.000262010592571665,-0.0018353230208993081,0.0,0.0,0.0,0.0,0.0,0.0,0.0,7.516296286333435e-05,-6.10247489423732e-05,-2.380724737446882e-06,1.5331987748945508e-05,-2.784150972601207e-06,-1.4241536456793824e-06,3.0517571478760885e-06,0.0002892234007013073,-0.0002321862830509121,-0.0008190449583853327,-0.00108087087026313,0.00032587883123211074,-0.000262010592571665,0.0018353230208993081,0.12130087614059448,12.048486709594727,-1.2671844959259033,-21.641878128051758,-0.3976340889930725,-2.5143465995788574,0.15231649577617645,0
34,0.16597723960876465,-0.17287558317184448,-12.000879287719727,1.2909882068634033,21.693452835083008,0.3976340889930725,2.5335726737976074,-0.22098104655742645,0.0,0.0,0.0,0.0,0.0,0.0,0.0,-0.12938665226744597,0.30898666586804807,0.10832915506719522,0.40050392219972203,-0.14403418005858798,0.12143860678147009,-0.20819105426763682,0.1728086939339052,-0.4874623288443436,-0.11147039044007918,-1.946399137614066,0.13360869922238097,2.595549647702111,0.9452491365985738,0.1728802376190821,-0.48752024683155326,-0.11147110072896137,-1.9463801863486305,0.1336059019074957,2.595550359778934,0.9452445589611904,0.0006670660692710523,-0.0007585396049486303,0.00024144959985797273,6.861341059635619e-05,-0.00023326758390604442,-0.0004805114217113303,0.0006750914480264323,0.0,0.0,0.0,0.0,0.0,0.0,0.0,7.154368517692244e-05,-5.791798720966579e-05,-7.102888821830522e-07,1.8951265435385167e-05,-2.797314885283342e-06,7.120768228396912e-07,-4.5776373833739115e-06,-0.0006670660692710523,0.0007585396049486303,-0.00024144959985797273,-6.861341059635619e-05,0.00023326758390604442,0.0004805114217113303,-0.0006750914480264323,0.17287558317184448,12.000879287719727,-1.2909882068634033,-21.693452835083008,-0.3976340889930725,-2.5335726737976074,0.22098104655742645,0
35,0.16998505592346191,-0.17287558317184448,-12.000879287719727,1.2909882068634033,21.693452835083008,0.3976340889930725,2.5335726737976074,-0.22098104655742645,0.0,0.0,0.0,0.0,0.0,0.0,0.0,-0.12938665226744597,0.30898666586804807,0.10832915506719522,0.40050392219972203,-0.14403418005858798,0.12143860678147009,-0.20819105426763682,0.1728086939339052,-0.4874623288443436,-0.11147039044007918,-1.946399137614066,0.13360869922238097,2.595549647702111,0.9452491365985738,0.1728802376190821,-0.48752024683155326,-0.11147110072896137,-1.9463801863486305,0.1336059019074957,2.595550359778934,0.9452445589611904,0.0006670660692710523,-0.0007585396049486303,0.00024144959985797273,6.861341059635619e-05,-0.00023326758390604442,-0.0004805114217113303,0.0006750914480264323,0.0,0.0,0.0,0.0,0.0,0.0,0.0,7.154368517692244e-05,-5.791798720966579e-05,-7.102888821830522e-07,1.8951265435385167e-05,-2.797314885283342e-06,7.120768228396912e-07,-4.5776373833739115e-06,-0.0006670660692710523,0.0007585396049486303,-0.00024144959985797273,-6.861341059635619e-05,0.00023326758390604442,0.0004805114217113303,-0.0006750914480264323,0.17287558317184448,12.000879287719727,-1.2909882068634033,-21.693452835083008,-0.3976340889930725,-2.5335726737976074,0.22098104655742645,0
36,0.17499017715454102,-0.14510458707809448,-12.048486709594727,1.3147919178009033,21.669649124145508,0.4031272530555725,2.5207552909851074,-0.21457235515117645,0.0,0.0,0.0,0.0,0.0,0.0,0.0,-0.13453160352866006,0.3053366393261336,0.10176012091540876,0.4012595439912631,-0.14375566327047812,0.12137090547182267,-0.21037664433391354,0.17280674509207405,-0.4874589879721926,-0.11147206087593445,-1.9463974671782107,0.13360808887084322,2.595551071855757,0.9452484245217508,0.1728802376190821,-0.48752024683155326,-0.11147110072896137,-1.9463801863486305,0.1336059019074957,2.595550359778934,0.9452445589611904,-0.0005527728399193443,0.0005650818546007549,-0.0007485167007489993,0.0005276848838173129,-0.0006248467513113286,-0.0002738577514204788,0.00047477667632311144,0.0,0.0,0.0,0.0,0.0,0.0,0.0,7.349252700805664e-05,-6.125885936064668e-05,9.601469730807777e-07,1.7280829580190726e-05,-2.1869633475279926e-06,-7.120768228396912e-07,-3.865560560423198e-06,0.0005527728399193443,-0.0005650818546007549,0.0007485167007489993,-0.0005276848838173129,0.0006248467513113286,0.0002738577514204788,-0.00047477667632311144,0.14510458707809448,12.048486709594727,-1.3147919178009033,-21.669649124145508,-0.4031272530555725,-2.5207552909851074,0.21457235515117645,0
37,0.17998886108398438,-0.14510458707809448,-12.048486709594727,1.3147919178009033,21.669649124145508,0.4031272530555725,2.5207552909851074,-0.21457235515117645,0.0,0.0,0.0,0.0,0.0,0.0,0.0,-0.13453160352866006,0.3053366393261336,0.10176012091540876,0.4012595439912631,-0.14375566327047812,0.12137090547182267,-0.21037664433391354,0.17280674509207405,-0.4874589879721926,-0.11147206087593445,-1.9463974671782107,0.13360808887084322,2.595551071855757,0.9452484245217508,0.1728802376190821,-0.48752024683155326,-0.11147110072896137,-1.9463801863486305,0.1336059019074957,2.595550359778934,0.9452445589611904,-0.0005527728399193443,0.0005650818546007549,-0.0007485167007489993,0.0005276848838173129,-0.0006248467513113286,-0.0002738577514204788,0.00047477667632311144,0.0,0.0,0.0,0.0,0.0,0.0,0.0,7.349252700805664e-05,-6.125885936064668e-05,9.601469730807777e-07,1.7280829580190726e-05,-2.1869633475279926e-06,-7.120768228396912e-07,-3.865560560423198e-06,0.0005527728399193443,-0.0005650818546007549,0.0007485167007489993,-0.0005276848838173129,0.0006248467513113286,0.0002738577514204788,-0.00047477667632311144,0.14510458707809448,12.048486709594727,-1.3147919178009033,-21.669649124145508,-0.4031272530555725,-2.5207552909851074,0.21457235515117645,0
38,0.18498778343200684,-0.14510458707809448,-12.072290420532227,1.2909882068634033,21.717256546020508,0.3857322335243225,2.5207552909851074,-0.20724813640117645,0.0,0.0,0.0,0.0,0.0,0.0,0.0,-0.1316257868851439,0.29323080741521634,0.10668779792505027,0.4067450760347919,-0.14459155525548495,0.12110456661105189,-0.2102687108232192,0.17280674509207405,-0.4874573435367173,-0.11147039044007918,-1.946400808049921,0.1336100215966195,2.595551071855757,0.9452476107196676,0.1728802376190821,-0.48752024683155326,-0.11147110072896137,-1.9463801863486305,0.1336059019074957,2.595550359778934,0.9452445589611904,0.0006121038786008651,0.00029194985015454735,-0.00030274583062135586,-0.0007293185530091723,8.626044668047478e-05,0.00015527018408638746,0.0007472006361758959,0.0,0.0,0.0,0.0,0.0,0.0,0.0,7.349252700805664e-05,-6.290329483593649e-05,-7.102888821830522e-07,2.0621701290579608e-05,-4.119689123810444e-06,-7.120768228396912e-07,-3.051758477146116e-06,-0.0006121038786008651,-0.00029194985015454735,0.00030274583062135586,0.0007293185530091723,-8.626044668047478e-05,-0.00015527018408638746,-0.0007472006361758959,0.14510458707809448,12.072290420532227,-1.2909882068634033,-21.717256546020508,-0.3857322335243225,-2.5207552909851074,0.20724813640117645,0
39,0.1899855136871338,-0.14510458707809448,-12.072290420532227,1.2909882068634033,21.717256546020508,0.3857322335243225,2.5207552909851074,-0.20724813640117645,0.0,0.0,0.0,0.0,0.0,0.0,0.0,-0.1316257868851439,0.29323080741521634,0.10668779792505027,0.4067450760347919,-0.14459155525548495,0.12110456661105189,-0.2102687108232192,0.17280674509207405,-0.4874573435367173,-0.11147039044007918,-1.946400808049921,0.1336100215966195,2.595551071855757,0.9452476107196676,0.1728802376190821,-0.48752024683155326,-0.11147110072896137,-1.9463801863486305,0.1336059019074957,2.595550359778934,0.9452445589611904,0.0006121038786008651,0.00029194985015454735,-0.00030274583062135586,-0.0007293185530091723,8.626044668047478e-05,0.00015527018408638746,0.0007472006361758959,0.0,0.0,0.0,0.0,0.0,0.0,0.0,7.349252700805664e-05,-6.290329483593649e-05,-7.102888821830522e-07,2.0621701290579608e-05,-4.119689123810444e-06,-7.120768228396912e-07,-3.051758477146116e-06,-0.0006121038786008651,-0.00029194985015454735,0.00030274583062135586,0.0007293185530091723,-8.626044668047478e-05,-0.00015527018408638746,-0.0007472006361758959,0.14510458707809448,12.072290420532227,-1.2909882068634033,-21.717256546020508,-0.3857322335243225,-2.5207552909851074,0.20724813640117645,0
40,0.19498729705810547,-0.14510458707809448,-12.072290420532227,1.2909882068634033,21.717256546020508,0.3857322335243225,2.5207552909851074,-0.20724813640117645,0.0,0.0,0.0,0.0,0.0,0.0,0.0,-0.1316257868851439,0.29323080741521634,0.10668779792505027,0.4067450760347919,-0.14459155525548495,0.12110456661105189,-0.2102687108232192,0.17280674509207405,-0.4874573435367173,-0.11147039044007918,-1.946400808049921,0.1336100215966195,2.595551071855757,0.9452476107196676,0.1728802376190821,-0.48752024683155326,-0.11147110072896137,-1.9463801863486305,0.1336059019074957,2.595550359778934,0.9452445589611904,0.0006121038786008651,0.00029194985015454735,-0.00030274583062135586,-0.0007293185530091723,8.626044668047478e-05,0.00015527018408638746,0.0007472006361758959,0.0,0.0,0.0,0.0,0.0,0.0,0.0,7.349252700805664e-05,-6.290329483593649e-05,-7.102888821830522e-07,2.0621701290579608e-05,-4.119689123810444e-06,-7.120768228396912e-07,-3.051758477146116e-06,-0.0006121038786008651,-0.00029194985015454735,0.00030274583062135586,0.0007293185530091723,-8.626044668047478e-05,-0.00015527018408638746,-0.0007472006361758959,0.14510458707809448,12.072290420532227,-1.2909882068634033,-21.717256546020508,-0.3857322335243225,-2.5207552909851074,0.20724813640117645,0
41,0.19998717308044434,-0.14510458707809448,-12.072290420532227,1.2909882068634033,21.717256546020508,0.3857322335243225,2.5207552909851074,-0.20724813640117645,0.0,0.0,0.0,0.0,0.0,0.0,0.0,-0.1316257868851439,0.29323080741521634,0.10668779792505027,0.4067450760347919,-0.14459155525548495,0.12110456661105189,-0.2102687108232192,0.17280674509207405,-0.4874573435367173,-0.11147039044007918,-1.946400808049921,0.1336100215966195,2.595551071855757,0.9452476107196676,0.1728802376190821,-0.48752024683155326,-0.11147110072896137,-1.9463801863486305,0.1336059019074957,2.595550359778934,0.9452445589611904,0.0006121038786008651,0.00029194985015454735,-0.00030274583062135586,-0.0007293185530091723,8.626044668047478e-05,0.00015527018408638746,0.0007472006361758959,0.0,0.0,0.0,0.0,0.0,0.0,0.0,7.349252700805664e-05,-6.290329483593649e-05,-7.102888821830522e-07,2.0621701290579608e-05,-4.119689123810444e-06,-7.120768228396912e-07,-3.051758477146116e-06,-0.0006121038786008651,-0.00029194985015454735,0.00030274583062135586,0.0007293185530091723,-8.626044668047478e-05,-0.00015527018408638746,-0.0007472006361758959,0.14510458707809448,12.072290420532227,-1.2909882068634033,-21.717256546020508,-0.3857322335243225,-2.5207552909851074,0.20724813640117645,0
42,0.20500993728637695,-0.14510458707809448,-12.072290420532227,1.3147919178009033,21.669649124145508,0.3857322335243225,2.5207552909851074,-0.20083944499492645,0.0,0.0,0.0,0.0,0.0,0.0,0.0,-0.1353687462468844,0.30204366488627576,0.09750749599415814,0.40109850263363933,-0.14468691566862393,0.12070199569121216,-0.2090063867835471,0.17280674509207405,-0.48745732652426976,-0.11147182411303992,-1.9463974671782107,0.1336099777717428,2.595551071855757,0.9452468986428446,0.1728802376190821,-0.48752024683155326,-0.11147110072896137,-1.9463801863486305,0.1336059019074957,2.595550359778934,0.9452445589611904,2.3370996411281655e-05,0.0009188537107675558,-0.0008205234506061834,0.0009488579157078457,6.053927075753439e-05,0.00013782556352256512,0.0006569622952428675,0.0,0.0,0.0,0.0,0.0,0.0,0.0,7.349252700805664e-05,-6.292030728349829e-05,7.233840785547674e-07,1.7280829580190726e-05,-4.075864247110594e-06,-7.120768228396912e-07,-2.3396816541954024e-06,-2.3370996411281655e-05,-0.0009188537107675558,0.0008205234506061834,-0.0009488579157078457,-6.053927075753439e-05,-0.00013782556352256512,-0.0006569622952428675,0.14510458707809448,12.072290420532227,-1.3147919178009033,-21.669649124145508,-0.3857322335243225,-2.5207552909851074,0.20083944499492645,0
43,0.20999622344970703,-0.14510458707809448,-12.072290420532227,1.3147919178009033,21.669649124145508,0.3857322335243225,2.5207552909851074,-0.20083944499492645,0.0,0.0,0.0,0.0,0.0,0.0,0.0,-0.1353687462468844,0.30204366488627576,0.09750749599415814,0.40109850263363933,-0.14468691566862393,0.12070199569121216,-0.2090063867835471,0.17280674509207405,-0.48745732652426976,-0.11147182411303992,-1.9463974671782107,0.1336099777717428,2.595551071855757,0.9452468986428446,0.1728802376190821,-0.48752024683155326,-0.11147110072896137,-1.9463801863486305,0.1336059019074957,2.595550359778934,0.9452445589611904,2.3370996411281655e-05,0.0009188537107675558,-0.0008205234506061834,0.0009488579157078457,6.053927075753439e-05,0.00013782556352256512,0.0006569622952428675,0.0,0.0,0.0,0.0,0.0,0.0,0.0,7.349252700805664e-05,-6.292030728349829e-05,7.233840785547674e-07,1.7280829580190726e-05,-4.075864247110594e-06,-7.120768228396912e-07,-2.3396816541954024e-06,-2.3370996411281655e-05,-0.0009188537107675558,0.0008205234506061834,-0.0009488579157078457,-6.053927075753439e-05,-0.00013782556352256512,-0.0006569622952428675,0.14510458707809448,12.072290420532227,-1.3147919178009033,-21.669649124145508,-0.3857322335243225,-2.5207552909851074,0.20083944499492645,0
44,0.2149972915649414,-0.06972616910934448,-12.000879287719727,1.3147919178009033,21.669649124145508,0.3857322335243225,2.5207552909851074,-0.25485557317733765,0.0,0.0,0.0,0.0,0.0,0.0,0.0,-0.13090135378105888,0.3008526684939009,0.10734319987149013,0.40220786743738596,-0.14511926813007173,0.12104733147145018,-0.20730386179229415,0.1728014553785324,-0.4874644348748373,-0.11147206087192485,-1.9463974671782107,0.13361002165004807,2.595551071855757,0.9452529004348649,0.1728802376190821,-0.48752024683155326,-0.11147110072896137,-1.9463801863486305,0.1336059019074957,2.595550359778934,0.9452445589611904,-0.0016066491114733856,-0.0004985573117215376,-0.0001567207135833166,0.0007429438890531252,0.00045405965245275625,0.00016412653433598264,0.0025294625725959846,0.0,0.0,0.0,0.0,0.0,0.0,0.0,7.87822405497185e-05,-5.581195671594541e-05,9.601429634825687e-07,1.7280829580190726e-05,-4.11974255237757e-06,-7.120768228396912e-07,-8.341473674455813e-06,0.0016066491114733856,0.0004985573117215376,0.0001567207135833166,-0.0007429438890531252,-0.00045405965245275625,-0.00016412653433598264,-0.0025294625725959846,0.06972616910934448,12.000879287719727,-1.3147919178009033,-21.669649124145508,-0.3857322335243225,-2.5207552909851074,0.25485557317733765,0
45,0.21999478340148926,-0.06972616910934448,-12.000879287719727,1.3147919178009033,21.669649124145508,0.3857322335243225,2.5207552909851074,-0.25485557317733765,0.0,0.0,0.0,0.0,0.0,0.0,0.0,-0.13090135378105888,0.3008526684939009,0.10734319987149013,0.40220786743738596,-0.14511926813007173,0.12104733147145018,-0.20730386179229415,0.1728014553785324,-0.4874644348748373,-0.11147206087192485,-1.9463974671782107,0.13361002165004807,2.595551071855757,0.9452529004348649,0.1728802376190821,-0.48752024683155326,-0.11147110072896137,-1.9463801863486305,0.1336059019074957,2.595550359778934,0.9452445589611904,-0.0016066491114733856,-0.0004985573117215376,-0.0001567207135833166,0.0007429438890531252,0.00045405965245275625,0.00016412653433598264,0.0025294625725959846,0.0,0.0,0.0,0.0,0.0,0.0,0.0,7.87822405497185e-05,-5.581195671594541e-05,9.601429634825687e-07,1.7280829580190726e-05,-4.11974255237757e-06,-7.120768228396912e-07,-8.341473674455813e-06,0.0016066491114733856,0.0004985573117215376,0.0001567207135833166,-0.0007429438890531252,-0.00045405965245275625,-0.00016412653433598264,-0.0025294625725959846,0.06972616910934448,12.000879287719727,-1.3147919178009033,-21.669649124145508,-0.3857322335243225,-2.5207552909851074,0.25485557317733765,0
46,0.22499370574951172,-0.06972616910934448,-11.973108291625977,1.3147919178009033,21.693452835083008,0.3857322335243225,2.5079379081726074,-0.18710653483867645,0.0,0.0,0.0,0.0,0.0,0.0,0.0,-0.1321594664692779,0.3015216491842001,0.10549708148046065,0.40282411057313394,-0.14417631322093677,0.12092986928370746,-0.20770161092766343,0.1728014553785324,-0.4874643036900771,-0.11147203456894617,-1.946399137614066,0.13361002165079114,2.595552496009403,0.9452453727639384,0.1728802376190821,-0.48752024683155326,-0.11147110072896137,-1.9463801863486305,0.1336059019074957,2.595550359778934,0.9452445589611904,-0.0012089915740147613,-0.0006435438303297691,2.2160890351125588e-05,-0.00016297047872183758,7.070084790787499e-05,0.0003655725731004919,0.0038113931507380164,0.0,0.0,0.0,0.0,0.0,0.0,0.0,7.87822405497185e-05,-5.594314147616686e-05,9.338399847985679e-07,1.8951265435385167e-05,-4.11974329544984e-06,-2.136230468963163e-06,-8.138027479676069e-07,0.0012089915740147613,0.0006435438303297691,-2.2160890351125588e-05,0.00016297047872183758,-7.070084790787499e-05,-0.0003655725731004919,-0.0038113931507380164,0.06972616910934448,11.973108291625977,-1.3147919178009033,-21.693452835083008,-0.3857322335243225,-2.5079379081726074,0.18710653483867645,0
47,0.22998929023742676,-0.06972616910934448,-11.973108291625977,1.3147919178009033,21.693452835083008,0.3857322335243225,2.5079379081726074,-0.18710653483867645,0.0,0.0,0.0,0.0,0.0,0.0,0.0,-0.1321594664692779,0.3015216491842001,0.10549708148046065,0.40282411057313394,-0.14417631322093677,0.12092986928370746,-0.20770161092766343,0.1728014553785324,-0.4874643036900771,-0.11147203456894617,-1.946399137614066,0.13361002165079114,2.595552496009403,0.9452453727639384,0.1728802376190821,-0.48752024683155326,-0.11147110072896137,-1.9463801863486305,0.1336059019074957,2.595550359778934,0.9452445589611904,-0.0012089915740147613,-0.0006435438303297691,2.2160890351125588e-05,-0.00016297047872183758,7.070084790787499e-05,0.0003655725731004919,0.0038113931507380164,0.0,0.0,0.0,0.0,0.0,0.0,0.0,7.87822405497185e-05,-5.594314147616686e-05,9.338399847985679e-07,1.8951265435385167e-05,-4.11974329544984e-06,-2.136230468963163e-06,-8.138027479676069e-07,0.0012089915740147613,0.0006435438303297691,-2.2160890351125588e-05,0.00016297047872183758,-7.070084790787499e-05,-0.0003655725731004919,-0.0038113931507380164,0.06972616910934448,11.973108291625977,-1.3147919178009033,-21.693452835083008,-0.3857322335243225,-2.5079379081726074,0.18710653483867645,0
48,0.23498988151550293,-0.12130087614059448,-12.000879287719727,1.3147919178009033,21.693452835083008,0.3857322335243225,2.5015292167663574,-0.17337362468242645,0.0,0.0,0.0,0.0,0.0,0.0,0.0,-0.12844346583607516,0.3043987490597522,0.10670821033650701,0.40303242741577067,-0.1440882039919,0.12053829415611515,-0.2065902693425874,0.17280507465621878,-0.48746443583780896,-0.11147206087578594,-1.946399137614066,0.13361002148827616,2.595553208086226,0.9452438468850322,0.1728802376190821,-0.48752024683155326,-0.11147110072896137,-1.9463801863486305,0.1336059019074957,2.595550359778934,0.9452445589611904,0.0005734764539367283,-2.494147071010962e-05,-0.00029910719116666025,-0.00018918542754613082,0.00015109652428523765,0.0006222463829446814,-0.000656296378633302,0.0,0.0,0.0,0.0,0.0,0.0,0.0,7.516296286333435e-05,-5.581099374429854e-05,9.601468245745703e-07,1.8951265435385167e-05,-4.11958078047614e-06,-2.848307291802854e-06,7.120761582601887e-07,-0.0005734764539367283,2.494147071010962e-05,0.00029910719116666025,0.00018918542754613082,-0.00015109652428523765,-0.0006222463829446814,0.000656296378633302,0.12130087614059448,12.000879287719727,-1.3147919178009033,-21.693452835083008,-0.3857322335243225,-2.5015292167663574,0.17337362468242645,0
49,0.23999238014221191,-0.12130087614059448,-12.000879287719727,1.3147919178009033,21.693452835083008,0.3857322335243225,2.5015292167663574,-0.17337362468242645,0.0,0.0,0.0,0.0,0.0,0.0,0.0,-0.12844346583607516,0.3043987490597522,0.10670821033650701,0.40303242741577067,-0.1440882039919,0.12053829415611515,-0.2065902693425874,0.17280507465621878,-0.48746443583780896,-0.11147206087578594,-1.946399137614066,0.13361002148827616,2.595553208086226,0.9452438468850322,0.1728802376190821,-0.48752024683155326,-0.11147110072896137,-1.9463801863486305,0.1336059019074957,2.595550359778934,0.9452445589611904,0.0005734764539367283,-2.494147071010962e-05,-0.00029910719116666025,-0.00018918542754613082,0.00015109652428523765,0.0006222463829446814,-0.000656296378633302,0.0,0.0,0.0,0.0,0.0,0.0,0.0,7.516296286333435e-05,-5.581099374429854e-05,9.601468245745703e-07,1.8951265435385167e-05,-4.11958078047614e-06,-2.848307291802854e-06,7.120761582601887e-07,-0.0005734764539367283,2.494147071010962e-05,0.00029910719116666025,0.00018918542754613082,-0.00015109652428523765,-0.0006222463829446814,0.000656296378633302,0.12130087614059448,12.000879287719727,-1.3147919178009033,-21.693452835083008,-0.3857322335243225,-2.5015292167663574,0.17337362468242645,0
50,0.24498939514160156,-0.12130087614059448,-12.024682998657227,1.2909882068634033,21.693452835083008,0.3857322335243225,2.5143465995788574,-0.15964071452617645,0.0,0.0,0.0,0.0,0.0,0.0,0.0,-0.12682916262026486,0.29390351695960326,0.10562010969950197,0.4088975279584312,-0.14385116308978063,0.12110190796285474,-0.20518731766930273,0.17280507465621878,-0.4874609184237421,-0.11147039044007918,-1.946399137614066,0.1336096647678661,2.5955517839325797,0.9452423210061258,0.1728802376190821,-0.48752024683155326,-0.11147110072896137,-1.9463801863486305,0.1336059019074957,2.595550359778934,0.9452445589611904,-0.0005599841098709988,-0.0002658086952898683,0.0004186607141715408,0.00022886776522266074,-1.0913485041632583e-05,0.00022098929461260682,-0.0013684565985502323,0.0,0.0,0.0,0.0,0.0,0.0,0.0,7.516296286333435e-05,-5.9328407811143347e-05,-7.102888821830522e-07,1.8951265435385167e-05,-3.7628603704042973e-06,-1.4241536456793824e-06,2.2379550645990065e-06,0.0005599841098709988,0.0002658086952898683,-0.0004186607141715408,-0.00022886776522266074,1.0913485041632583e-05,-0.00022098929461260682,0.0013684565985502323,0.12130087614059448,12.024682998657227,-1.2909882068634033,-21.693452835083008,-0.3857322335243225,-2.5143465995788574,0.15964071452617645,0
51,0.24998807907104492,-0.12130087614059448,-12.024682998657227,1.2909882068634033,21.693452835083008,0.3857322335243225,2.5143465995788574,-0.15964071452617645,0.0,0.0,0.0,0.0,0.0,0.0,0.0,-0.12682916262026486,0.29390351695960326,0.10562010969950197,0.4088975279584312,-0.14385116308978063,0.12110190796285474,-0.20518731766930273,0.17280507465621878,-0.4874609184237421,-0.11147039044007918,-1.946399137614066,0.1336096647678661,2.5955517839325797,0.9452423210061258,0.1728802376190821,-0.48752024683155326,-0.11147110072896137,-1.9463801863486305,0.1336059019074957,2.595550359778934,0.9452445589611904,-0.0005599841098709988,-0.0002658086952898683,0.0004186607141715408,0.00022886776522266074,-1.0913485041632583e-05,0.00022098929461260682,-0.0013684565985502323,0.0,0.0,0.0,0.0,0.0,0.0,0.0,7.516296286333435e-05,-5.9328407811143347e-05,-7.102888821830522e-07,1.8951265435385167e-05,-3.7628603704042973e-06,-1.4241536456793824e-06,2.2379550645990065e-06,0.0005599841098709988,0.0002658086952898683,-0.0004186607141715408,-0.00022886776522266074,1.0913485041632583e-05,-0.00022098929461260682,0.0013684565985502323,0.12130087614059448,12.024682998657227,-1.2909882068634033,-21.693452835083008,-0.3857322335243225,-2.5143465995788574,0.15964071452617645,0
52,0.2549872398376465,-0.14510458707809448,-12.048486709594727,1.3147919178009033,21.717256546020508,0.3976340889930725,2.5399813652038574,-0.21457235515117645,0.0,0.0,0.0,0.0,0.0,0.0,0.0,-0.12785222895137796,0.2959612895285751,0.10632981882335384,0.4060755201075319,-0.14439717726317866,0.12123001990974766,-0.20385824532914482,0.17280674509207405,-0.48745898797268183,-0.11147206087593445,-1.9464008080862598,0.13360763296086656,2.5955489356252883,0.9452484245217508,0.1728802376190821,-0.48752024683155326,-0.11147110072896137,-1.9463801863486305,0.1336059019074957,2.595550359778934,0.9452445589611904,0.00015567389440946993,3.4488116177486137e-06,-0.00038416878638311124,-0.00021821636755188926,-0.0002424045064907474,-0.0004984673464708769,0.0008836251930255312,0.0,0.0,0.0,0.0,0.0,0.0,0.0,7.349252700805664e-05,-6.12588588714269e-05,9.601469730807777e-07,2.0621737629289427e-05,-1.7310533708680964e-06,1.4241536456793824e-06,-3.865560560423198e-06,-0.00015567389440946993,-3.4488116177486137e-06,0.00038416878638311124,0.00021821636755188926,0.0002424045064907474,0.0004984673464708769,-0.0008836251930255312,0.14510458707809448,12.048486709594727,-1.3147919178009033,-21.717256546020508,-0.3976340889930725,-2.5399813652038574,0.21457235515117645,0
53,0.26007795333862305,-0.14510458707809448,-12.048486709594727,1.3147919178009033,21.717256546020508,0.3976340889930725,2.5399813652038574,-0.21457235515117645,0.0,0.0,0.0,0.0,0.0,0.0,0.0,-0.12785222895137796,0.2959612895285751,0.10632981882335384,0.4060755201075319,-0.14439717726317866,0.12123001990974766,-0.20385824532914482,0.17280674509207405,-0.48745898797268183,-0.11147206087593445,-1.9464008080862598,0.13360763296086656,2.5955489356252883,0.9452484245217508,0.1728802376190821,-0.48752024683155326,-0.11147110072896137,-1.9463801863486305,0.1336059019074957,2.595550359778934,0.9452445589611904,0.00015567389440946993,3.4488116177486137e-06,-0.00038416878638311124,-0.00021821636755188926,-0.0002424045064907474,-0.0004984673464708769,0.0008836251930255312,0.0,0.0,0.0,0.0,0.0,0.0,0.0,7.349252700805664e-05,-6.12588588714269e-05,9.601469730807777e-07,2.0621737629289427e-05,-1.7310533708680964e-06,1.4241536456793824e-06,-3.865560560423198e-06,-0.00015567389440946993,-3.4488116177486137e-06,0.00038416878638311124,0.00021821636755188926,0.0002424045064907474,0.0004984673464708769,-0.0008836251930255312,0.14510458707809448,12.048486709594727,-1.3147919178009033,-21.717256546020508,-0.3976340889930725,-2.5399813652038574,0.21457235515117645,0
54,0.26498937606811523,-0.12130087614059448,-12.048486709594727,1.3147919178009033,21.693452835083008,0.3793235421180725,2.5335726737976074,-0.19351522624492645,0.0,0.0,0.0,0.0,0.0,0.0,0.0,-0.125620301470799,0.29724910872668026,0.10927310022010465,0.40371067353857193,-0.14406864212641024,0.12232190260533723,-0.20358408529613434,0.17280507465621878,-0.48745898893516965,-0.11147206087593445,-1.946399137614066,0.13361073367143605,2.595549647702111,0.9452460847869262,0.1728802376190821,-0.48752024683155326,-0.11147110072896137,-1.9463801863486305,0.1336059019074957,2.595550359778934,0.9452445589611904,-0.0002895212782520941,6.08258811057889e-05,-0.000435873437048637,0.00029665369161384765,0.00045809022522707785,-0.0004573692530217939,0.00020702189542700676,0.0,0.0,0.0,0.0,0.0,0.0,0.0,7.516296286333435e-05,-6.125789638361523e-05,9.601469730807777e-07,1.8951265435385167e-05,-4.831763940366107e-06,7.120768228396912e-07,-1.525825735759767e-06,0.0002895212782520941,-6.08258811057889e-05,0.000435873437048637,-0.00029665369161384765,-0.00045809022522707785,0.0004573692530217939,-0.00020702189542700676,0.12130087614059448,12.048486709594727,-1.3147919178009033,-21.693452835083008,-0.3793235421180725,-2.5335726737976074,0.19351522624492645,0
55,0.2699882984161377,-0.12130087614059448,-12.048486709594727,1.3147919178009033,21.693452835083008,0.3793235421180725,2.5335726737976074,-0.19351522624492645,0.0,0.0,0.0,0.0,0.0,0.0,0.0,-0.125620301470799,0.29724910872668026,0.10927310022010465,0.40371067353857193,-0.14406864212641024,0.12232190260533723,-0.20358408529613434,0.17280507465621878,-0.48745898893516965,-0.11147206087593445,-1.946399137614066,0.13361073367143605,2.595549647702111,0.9452460847869262,0.1728802376190821,-0.48752024683155326,-0.11147110072896137,-1.9463801863486305,0.1336059019074957,2.595550359778934,0.9452445589611904,-0.0002895212782520941,6.08258811057889e-05,-0.000435873437048637,0.00029665369161384765,0.00045809022522707785,-0.0004573692530217939,0.00020702189542700676,0.0,0.0,0.0,0.0,0.0,0.0,0.0,7.516296286333435e-05,-6.125789638361523e-05,9.601469730807777e-07,1.8951265435385167e-05,-4.831763940366107e-06,7.120768228396912e-07,-1.525825735759767e-06,0.0002895212782520941,-6.08258811057889e-05,0.000435873437048637,-0.00029665369161384765,-0.00045809022522707785,0.0004573692530217939,-0.00020702189542700676,0.12130087614059448,12.048486709594727,-1.3147919178009033,-21.693452835083008,-0.3793235421180725,-2.5335726737976074,0.19351522624492645,0
56,0.2749958038330078,-0.12130087614059448,-12.048486709594727,1.3147919178009033,21.693452835083008,0.3793235421180725,2.5335726737976074,-0.19351522624492645,0.0,0.0,0.0,0.0,0.0,0.0,0.0,-0.125620301470799,0.29724910872668026,0.10927310022010465,0.40371067353857193,-0.14406864212641024,0.12232190260533723,-0.20358408529613434,0.17280507465621878,-0.48745898893516965,-0.11147206087593445,-1.946399137614066,0.13361073367143605,2.595549647702111,0.9452460847869262,0.1728802376190821,-0.48752024683155326,-0.11147110072896137,-1.9463801863486305,0.1336059019074957,2.595550359778934,0.9452445589611904,-0.0002895212782520941,6.08258811057889e-05,-0.000435873437048637,0.00029665369161384765,0.00045809022522707785,-0.0004573692530217939,0.00020702189542700676,0.0,0.0,0.0,0.0,0.0,0.0,0.0,7.516296286333435e-05,-6.125789638361523e-05,9.601469730807777e-07,1.8951265435385167e-05,-4.831763940366107e-06,7.120768228396912e-07,-1.525825735759767e-06,0.0002895212782520941,-6.08258811057889e-05,0.000435873437048637,-0.00029665369161384765,-0.00045809022522707785,0.0004573692530217939,-0.00020702189542700676,0.12130087614059448,12.048486709594727,-1.3147919178009033,-21.693452835083008,-0.3793235421180725,-2.5335726737976074,0.19351522624492645,0
57,0.2804243564605713,-0.17287558317184448,-12.048486709594727,1.2909882068634033,21.693452835083008,0.3857322335243225,2.5143465995788574,-0.17337362468242645,0.0,0.0,0.0,0.0,0.0,0.0,0.0,-0.13017131660742376,0.2984890898005019,0.1042371007831091,0.4042528612629212,-0.14358907243208446,0.12256253331223962,-0.20340132390956725,0.1728086939339052,-0.48745922197561464,-0.11147031151911434,-1.946399137614066,0.1336089553899234,2.5955517839325797,0.9452438468311969,0.1728802376190821,-0.48752024683155326,-0.11147110072896137,-1.9463801863486305,0.1336059019074957,2.595550359778934,0.9452445589611904,0.0004248849769526883,0.00034784802494562466,0.00021057439599648844,0.00044938742189828723,0.0001502851126848373,0.00026005296497574486,-0.0009693568526242095,0.0,0.0,0.0,0.0,0.0,0.0,0.0,7.154368517692244e-05,-6.1024855938618394e-05,-7.892098470296816e-07,1.8951265435385167e-05,-3.053482427711751e-06,-1.4241536456793824e-06,7.121299935297642e-07,-0.0004248849769526883,-0.00034784802494562466,-0.00021057439599648844,-0.00044938742189828723,-0.0001502851126848373,-0.00026005296497574486,0.0009693568526242095,0.17287558317184448,12.048486709594727,-1.2909882068634033,-21.693452835083008,-0.3857322335243225,-2.5143465995788574,0.17337362468242645,0
58,0.2851448059082031,-0.17287558317184448,-12.048486709594727,1.2909882068634033,21.693452835083008,0.3857322335243225,2.5143465995788574,-0.17337362468242645,0.0,0.0,0.0,0.0,0.0,0.0,0.0,-0.13017131660742376,0.2984890898005019,0.1042371007831091,0.4042528612629212,-0.14358907243208446,0.12256253331223962,-0.20340132390956725,0.1728086939339052,-0.48745922197561464,-0.11147031151911434,-1.946399137614066,0.1336089553899234,2.5955517839325797,0.9452438468311969,0.1728802376190821,-0.48752024683155326,-0.11147110072896137,-1.9463801863486305,0.1336059019074957,2.595550359778934,0.9452445589611904,0.0004248849769526883,0.00034784802494562466,0.00021057439599648844,0.00044938742189828723,0.0001502851126848373,0.00026005296497574486,-0.0009693568526242095,0.0,0.0,0.0,0.0,0.0,0.0,0.0,7.154368517692244e-05,-6.1024855938618394e-05,-7.892098470296816e-07,1.8951265435385167e-05,-3.053482427711751e-06,-1.4241536456793824e-06,7.121299935297642e-07,-0.0004248849769526883,-0.00034784802494562466,-0.00021057439599648844,-0.00044938742189828723,-0.0001502851126848373,-0.00026005296497574486,0.0009693568526242095,0.17287558317184448,12.048486709594727,-1.2909882068634033,-21.693452835083008,-0.3857322335243225,-2.5143465995788574,0.17337362468242645,0
59,0.2899925708770752,-0.14510458707809448,-12.048486709594727,1.3147919178009033,21.693452835083008,0.3912253975868225,2.5207552909851074,-0.17337362468242645,0.0,0.0,0.0,0.0,0.0,0.0,0.0,-0.13196770377417072,0.3033796432600954,0.10299537890192192,0.4027956632820589,-0.14341055506961256,0.12185611175148552,-0.20420951842155302,0.17280674509207405,-0.4874589966403069,-0.11147206087548894,-1.946399137614066,0.1336094112932096,2.595551071855757,0.9452438468850318,0.1728802376190821,-0.48752024683155326,-0.11147110072896137,-1.9463801863486305,0.1336059019074957,2.595550359778934,0.9452445589611904,0.0003826579686403817,0.0007056352778536689,-0.0007360493129544018,-0.00010538623761409092,6.465657882646783e-05,9.729243188201697e-05,-0.000838251426692027,0.0,0.0,0.0,0.0,0.0,0.0,0.0,7.349252700805664e-05,-6.125019124636477e-05,9.601465275760335e-07,1.8951265435385167e-05,-3.5093857139179008e-06,-7.120768228396912e-07,7.120761585932556e-07,-0.0003826579686403817,-0.0007056352778536689,0.0007360493129544018,0.00010538623761409092,-6.465657882646783e-05,-9.729243188201697e-05,0.000838251426692027,0.14510458707809448,12.048486709594727,-1.3147919178009033,-21.693452835083008,-0.3912253975868225,-2.5207552909851074,0.17337362468242645,0
60,0.29498982429504395,-0.14510458707809448,-12.048486709594727,1.3147919178009033,21.693452835083008,0.3912253975868225,2.5207552909851074,-0.17337362468242645,0.0,0.0,0.0,0.0,0.0,0.0,0.0,-0.13196770377417072,0.3033796432600954,0.10299537890192192,0.4027956632820589,-0.14341055506961256,0.12185611175148552,-0.20420951842155302,0.17280674509207405,-0.4874589966403069,-0.11147206087548894,-1.946399137614066,0.1336094112932096,2.595551071855757,0.9452438468850318,0.1728802376190821,-0.48752024683155326,-0.11147110072896137,-1.9463801863486305,0.1336059019074957,2.595550359778934,0.9452445589611904,0.0003826579686403817,0.0007056352778536689,-0.0007360493129544018,-0.00010538623761409092,6.465657882646783e-05,9.729243188201697e-05,-0.000838251426692027,0.0,0.0,0.0,0.0,0.0,0.0,0.0,7.349252700805664e-05,-6.125019124636477e-05,9.601465275760335e-07,1.8951265435385167e-05,-3.5093857139179008e-06,-7.120768228396912e-07,7.120761585932556e-07,-0.0003826579686403817,-0.0007056352778536689,0.0007360493129544018,0.00010538623761409092,-6.465657882646783e-05,-9.729243188201697e-05,0.000838251426692027,0.14510458707809448,12.048486709594727,-1.3147919178009033,-21.693452835083008,-0.3912253975868225,-2.5207552909851074,0.17337362468242645,0
61,0.2999882698059082,-0.14510458707809448,-12.048486709594727,1.3147919178009033,21.693452835083008,0.3912253975868225,2.5207552909851074,-0.17337362468242645,0.0,0.0,0.0,0.0,0.0,0.0,0.0,-0.13196770377417072,0.3033796432600954,0.10299537890192192,0.4027956632820589,-0.14341055506961256,0.12185611175148552,-0.20420951842155302,0.17280674509207405,-0.4874589966403069,-0.11147206087548894,-1.946399137614066,0.1336094112932096,2.595551071855757,0.9452438468850318,0.1728802376190821,-0.48752024683155326,-0.11147110072896137,-1.9463801863486305,0.1336059019074957,2.595550359778934,0.9452445589611904,0.0003826579686403817,0.0007056352778536689,-0.0007360493129544018,-0.00010538623761409092,6.465657882646783e-05,9.729243188201697e-05,-0.000838251426692027,0.0,0.0,0.0,0.0,0.0,0.0,0.0,7.349252700805664e-05,-6.125019124636477e-05,9.601465275760335e-07,1.8951265435385167e-05,-3.5093857139179008e-06,-7.120768228396912e-07,7.120761585932556e-07,-0.0003826579686403817,-0.0007056352778536689,0.0007360493129544018,0.00010538623761409092,-6.465657882646783e-05,-9.729243188201697e-05,0.000838251426692027,0.14510458707809448,12.048486709594727,-1.3147919178009033,-21.693452835083008,-0.3912253975868225,-2.5207552909851074,0.17337362468242645,0
62,0.3049921989440918,-0.14510458707809448,-12.048486709594727,1.3147919178009033,21.693452835083008,0.3912253975868225,2.5207552909851074,-0.17337362468242645,0.0,0.0,0.0,0.0,0.0,0.0,0.0,-0.13196770377417072,0.3033796432600954,0.10299537890192192,0.4027956632820589,-0.14341055506961256,0.12185611175148552,-0.20420951842155302,0.17280674509207405,-0.4874589966403069,-0.11147206087548894,-1.946399137614066,0.1336094112932096,2.595551071855757,0.9452438468850318,0.1728802376190821,-0.48752024683155326,-0.11147110072896137,-1.9463801863486305,0.1336059019074957,2.595550359778934,0.9452445589611904,0.0003826579686403817,0.0007056352778536689,-0.0007360493129544018,-0.00010538623761409092,6.465657882646783e-05,9.729243188201697e-05,-0.000838251426692027,0.0,0.0,0.0,0.0,0.0,0.0,0.0,7.349252700805664e-05,-6.125019124636477e-05,9.601465275760335e-07,1.8951265435385167e-05,-3.5093857139179008e-06,-7.120768228396912e-07,7.120761585932556e-07,-0.0003826579686403817,-0.0007056352778536689,0.0007360493129544018,0.00010538623761409092,-6.465657882646783e-05,-9.729243188201697e-05,0.000838251426692027,0.14510458707809448,12.048486709594727,-1.3147919178009033,-21.693452835083008,-0.3912253975868225,-2.5207552909851074,0.17337362468242645,0
63,0.30999159812927246,-0.09352988004684448,-12.000879287719727,1.3147919178009033,21.693452835083008,0.3912253975868225,2.5079379081726074,-0.17337362468242645,0.0,0.0,0.0,0.0,0.0,0.0,0.0,-0.1300149079837366,0.30236173157934243,0.10507831764008264,0.40558640923247136,-0.1435138857949541,0.12134939157169418,-0.20440943732940134,0.17280312581438764,-0.4874623288439031,-0.11147206087593424,-1.946399137614066,0.1336090163877953,2.595552496009403,0.9452438468850322,0.1728802376190821,-0.48752024683155326,-0.11147110072896137,-1.9463801863486305,0.1336059019074957,2.595550359778934,0.9452445589611904,-0.0008800193568751647,-0.0005052430973865241,-0.00030692294824372735,0.00011478104273552914,-7.762118302859611e-05,0.0004609238727234927,-0.002181800005830762,0.0,0.0,0.0,0.0,0.0,0.0,0.0,7.711180469446854e-05,-5.7917987650146774e-05,9.601469728726109e-07,1.8951265435385167e-05,-3.11448029960415e-06,-2.136230468963163e-06,7.120761582601887e-07,0.0008800193568751647,0.0005052430973865241,0.00030692294824372735,-0.00011478104273552914,7.762118302859611e-05,-0.0004609238727234927,0.002181800005830762,0.09352988004684448,12.000879287719727,-1.3147919178009033,-21.693452835083008,-0.3912253975868225,-2.5079379081726074,0.17337362468242645,0
64,0.3149874210357666,-0.09352988004684448,-12.000879287719727,1.3147919178009033,21.693452835083008,0.3912253975868225,2.5079379081726074,-0.17337362468242645,0.0,0.0,0.0,0.0,0.0,0.0,0.0,-0.1300149079837366,0.30236173157934243,0.10507831764008264,0.40558640923247136,-0.1435138857949541,0.12134939157169418,-0.20440943732940134,0.17280312581438764,-0.4874623288439031,-0.11147206087593424,-1.946399137614066,0.1336090163877953,2.595552496009403,0.9452438468850322,0.1728802376190821,-0.48752024683155326,-0.11147110072896137,-1.9463801863486305,0.1336059019074957,2.595550359778934,0.9452445589611904,-0.0008800193568751647,-0.0005052430973865241,-0.00030692294824372735,0.00011478104273552914,-7.762118302859611e-05,0.0004609238727234927,-0.002181800005830762,0.0,0.0,0.0,0.0,0.0,0.0,0.0,7.711180469446854e-05,-5.7917987650146774e-05,9.601469728726109e-07,1.8951265435385167e-05,-3.11448029960415e-06,-2.136230468963163e-06,7.120761582601887e-07,0.0008800193568751647,0.0005052430973865241,0.00030692294824372735,-0.00011478104273552914,7.762118302859611e-05,-0.0004609238727234927,0.002181800005830762,0.09352988004684448,12.000879287719727,-1.3147919178009033,-21.693452835083008,-0.3912253975868225,-2.5079379081726074,0.17337362468242645,0
65,0.3199892044067383,-0.09352988004684448,-12.000879287719727,1.3147919178009033,21.693452835083008,0.3912253975868225,2.5079379081726074,-0.17337362468242645,0.0,0.0,0.0,0.0,0.0,0.0,0.0,-0.1300149079837366,0.30236173157934243,0.10507831764008264,0.40558640923247136,-0.1435138857949541,0.12134939157169418,-0.20440943732940134,0.17280312581438764,-0.4874623288439031,-0.11147206087593424,-1.946399137614066,0.1336090163877953,2.595552496009403,0.9452438468850322,0.1728802376190821,-0.48752024683155326,-0.11147110072896137,-1.9463801863486305,0.1336059019074957,2.595550359778934,0.9452445589611904,-0.0008800193568751647,-0.0005052430973865241,-0.00030692294824372735,0.00011478104273552914,-7.762118302859611e-05,0.0004609238727234927,-0.002181800005830762,0.0,0.0,0.0,0.0,0.0,0.0,0.0,7.711180469446854e-05,-5.7917987650146774e-05,9.601469728726109e-07,1.8951265435385167e-05,-3.11448029960415e-06,-2.136230468963163e-06,7.120761582601887e-07,0.0008800193568751647,0.0005052430973865241,0.00030692294824372735,-0.00011478104273552914,7.762118302859611e-05,-0.0004609238727234927,0.002181800005830762,0.09352988004684448,12.000879287719727,-1.3147919178009033,-21.693452835083008,-0.3912253975868225,-2.5079379081726074,0.17337362468242645,0
66,0.32499146461486816,-0.12130087614059448,-12.000879287719727,1.2909882068634033,21.641878128051758,0.3857322335243225,2.5079379081726074,-0.21457235515117645,0.0,0.0,0.0,0.0,0.0,0.0,0.0,-0.1254684149467538,0.30303111153258416,0.11260303538487576,0.40665017140892357,-0.14411938125746898,0.12077722705557102,-0.20369231551484757,0.172804995551289,-0.48746303085416376,-0.11147039044007918,-1.9463955183363795,0.13360678321230068,2.595552496009403,0.9452484245217508,0.1728802376190821,-0.48752024683155326,-0.11147110072896137,-1.9463801863486305,0.1336059019074957,2.595550359778934,0.9452445589611904,0.0003098089939861691,-0.0002545766784285321,0.0004884818500667421,0.0014473322351190488,-3.460653818479416e-05,0.000539236633652267,0.0008233274401611905,0.0,0.0,0.0,0.0,0.0,0.0,0.0,7.52420677931076e-05,-5.7215977389502015e-05,-7.102888821830522e-07,1.5331987748945508e-05,-8.813048049949312e-07,-2.136230468963163e-06,-3.865560560423198e-06,-0.0003098089939861691,0.0002545766784285321,-0.0004884818500667421,-0.0014473322351190488,3.460653818479416e-05,-0.000539236633652267,-0.0008233274401611905,0.12130087614059448,12.000879287719727,-1.2909882068634033,-21.641878128051758,-0.3857322335243225,-2.5079379081726074,0.21457235515117645,0
67,0.329988956451416,-0.12130087614059448,-12.000879287719727,1.2909882068634033,21.641878128051758,0.3857322335243225,2.5079379081726074,-0.21457235515117645,0.0,0.0,0.0,0.0,0.0,0.0,0.0,-0.1254684149467538,0.30303111153258416,0.11260303538487576,0.40665017140892357,-0.14411938125746898,0.12077722705557102,-0.20369231551484757,0.172804995551289,-0.48746303085416376,-0.11147039044007918,-1.9463955183363795,0.13360678321230068,2.595552496009403,0.9452484245217508,0.1728802376190821,-0.48752024683155326,-0.11147110072896137,-1.9463801863486305,0.1336059019074957,2.595550359778934,0.9452445589611904,0.0003098089939861691,-0.0002545766784285321,0.0004884818500667421,0.0014473322351190488,-3.460653818479416e-05,0.000539236633652267,0.0008233274401611905,0.0,0.0,0.0,0.0,0.0,0.0,0.0,7.52420677931076e-05,-5.7215977389502015e-05,-7.102888821830522e-07,1.5331987748945508e-05,-8.813048049949312e-07,-2.136230468963163e-06,-3.865560560423198e-06,-0.0003098089939861691,0.0002545766784285321,-0.0004884818500667421,-0.0014473322351190488,3.460653818479416e-05,-0.000539236633652267,-0.0008233274401611905,0.12130087614059448,12.000879287719727,-1.2909882068634033,-21.641878128051758,-0.3857322335243225,-2.5079379081726074,0.21457235515117645,0
68,0.3349900245666504,-0.14510458707809448,-12.048486709594727,1.2909882068634033,21.717256546020508,0.3857322335243225,2.5271639823913574,-0.18710653483867645,0.0,0.0,0.0,0.0,0.0,0.0,0.0,-0.12416340175900954,0.2984891701888736,0.11221467823460357,0.40729639106317683,-0.14460345674600023,0.12075612186128173,-0.2047973635839295,0.17280674509162752,-0.4874589889391325,-0.11147039044007918,-1.946400808049921,0.1336096661580492,2.595550359778934,0.9452453727639384,0.1728802376190821,-0.48752024683155326,-0.11147110072896137,-1.9463801863486305,0.1336059019074957,2.595550359778934,0.9452445589611904,0.0010764584820402495,0.000483108622342562,0.00047482004667059044,-0.001068823885779346,-1.256310821570716e-05,-0.00029187445858764753,8.07950631694715e-05,0.0,0.0,0.0,0.0,0.0,0.0,0.0,7.349252745458834e-05,-6.125789242078516e-05,-7.102888821830522e-07,2.0621701290579608e-05,-3.7642505535118165e-06,0.0,-8.138027479676069e-07,-0.0010764584820402495,-0.000483108622342562,-0.00047482004667059044,0.001068823885779346,1.256310821570716e-05,0.00029187445858764753,-8.07950631694715e-05,0.14510458707809448,12.048486709594727,-1.2909882068634033,-21.717256546020508,-0.3857322335243225,-2.5271639823913574,0.18710653483867645,0
69,0.34042787551879883,-0.14510458707809448,-12.048486709594727,1.2909882068634033,21.717256546020508,0.3857322335243225,2.5271639823913574,-0.18710653483867645,0.0,0.0,0.0,0.0,0.0,0.0,0.0,-0.12416340175900954,0.2984891701888736,0.11221467823460357,0.40729639106317683,-0.14460345674600023,0.12075612186128173,-0.2047973635839295,0.17280674509162752,-0.4874589889391325,-0.11147039044007918,-1.946400808049921,0.1336096661580492,2.595550359778934,0.9452453727639384,0.1728802376190821,-0.48752024683155326,-0.11147110072896137,-1.9463801863486305,0.1336059019074957,2.595550359778934,0.9452445589611904,0.0010764584820402495,0.000483108622342562,0.00047482004667059044,-0.001068823885779346,-1.256310821570716e-05,-0.00029187445858764753,8.07950631694715e-05,0.0,0.0,0.0,0.0,0.0,0.0,0.0,7.349252745458834e-05,-6.125789242078516e-05,-7.102888821830522e-07,2.0621701290579608e-05,-3.7642505535118165e-06,0.0,-8.138027479676069e-07,-0.0010764584820402495,-0.000483108622342562,-0.00047482004667059044,0.001068823885779346,1.256310821570716e-05,0.00029187445858764753,-8.07950631694715e-05,0.14510458707809448,12.048486709594727,-1.2909882068634033,-21.717256546020508,-0.3857322335243225,-2.5271639823913574,0.18710653483867645,0
70,0.34499073028564453,-0.12130087614059448,-12.024682998657227,1.2909882068634033,21.669649124145508,0.4031272530555725,2.5207552909851074,-0.22098104655742645,0.0,0.0,0.0,0.0,0.0,0.0,0.0,-0.12449330489496753,0.3053662427185036,0.11006877606106742,0.4025181964355807,-0.14503378967222805,0.12037964750520894,-0.20360856191624105,0.17280293882311434,-0.4874608924114735,-0.11147039044007918,-1.9463974671782107,0.1336045215022299,2.595551071855757,0.9452491365985738,0.1728802376190821,-0.48752024683155326,-0.11147110072896137,-1.9463801863486305,0.1336059019074957,2.595550359778934,0.9452445589611904,-4.984737132804955e-05,0.000196582977453261,0.0004967212186015686,0.0005008525129108664,-0.0004008479150807706,-0.00014656794387682501,0.0007712353582358843,0.0,0.0,0.0,0.0,0.0,0.0,0.0,7.729879596776734e-05,-5.935442007976022e-05,-7.102888821830522e-07,1.7280829580190726e-05,1.3804052657884203e-06,-7.120768228396912e-07,-4.5776373833739115e-06,4.984737132804955e-05,-0.000196582977453261,-0.0004967212186015686,-0.0005008525129108664,0.0004008479150807706,0.00014656794387682501,-0.0007712353582358843,0.12130087614059448,12.024682998657227,-1.2909882068634033,-21.669649124145508,-0.4031272530555725,-2.5207552909851074,0.22098104655742645,0
71,0.3500063419342041,-0.12130087614059448,-12.024682998657227,1.2909882068634033,21.669649124145508,0.4031272530555725,2.5207552909851074,-0.22098104655742645,0.0,0.0,0.0,0.0,0.0,0.0,0.0,-0.12449330489496753,0.3053662427185036,0.11006877606106742,0.4025181964355807,-0.14503378967222805,0.12037964750520894,-0.20360856191624105,0.17280293882311434,-0.4874608924114735,-0.11147039044007918,-1.9463974671782107,0.1336045215022299,2.595551071855757,0.9452491365985738,0.1728802376190821,-0.48752024683155326,-0.11147110072896137,-1.9463801863486305,0.1336059019074957,2.595550359778934,0.9452445589611904,-4.984737132804955e-05,0.000196582977453261,0.0004967212186015686,0.0005008525129108664,-0.0004008479150807706,-0.00014656794387682501,0.0007712353582358843,0.0,0.0,0.0,0.0,0.0,0.0,0.0,7.729879596776734e-05,-5.935442007976022e-05,-7.102888821830522e-07,1.7280829580190726e-05,1.3804052657884203e-06,-7.120768228396912e-07,-4.5776373833739115e-06,4.984737132804955e-05,-0.000196582977453261,-0.0004967212186015686,-0.0005008525129108664,0.0004008479150807706,0.00014656794387682501,-0.0007712353582358843,0.12130087614059448,12.024682998657227,-1.2909882068634033,-21.669649124145508,-0.4031272530555725,-2.5207552909851074,0.22098104655742645,0
72,0.35494422912597656,-0.14510458707809448,-12.024682998657227,1.2671844959259033,21.717256546020508,0.3912253975868225,2.5271639823913574,-0.22098104655742645,0.0,0.0,0.0,0.0,0.0,0.0,0.0,-0.1313609517021367,0.29341462224873816,0.10338461142419537,0.40592857926235626,-0.1437900438638985,0.12109654735171137,-0.2042779643873701,0.17280674508001723,-0.48746073641050885,-0.11146864108325907,-1.946400808049921,0.13360941127909076,2.595550359778934,0.9452491365985738,0.1728802376190821,-0.48752024683155326,-0.11147110072896137,-1.9463801863486305,0.1336059019074957,2.595550359778934,0.9452445589611904,0.00022382603063639308,-0.00035553257903427375,0.00038455087714343216,-0.0008400500729375253,0.00011697475567824084,-0.00035809666873355504,0.001557026510304222,0.0,0.0,0.0,0.0,0.0,0.0,0.0,7.34925390648844e-05,-5.95104210444064e-05,-2.4596457022935114e-06,2.0621701290579608e-05,-3.5093715950729187e-06,0.0,-4.5776373833739115e-06,-0.00022382603063639308,0.00035553257903427375,-0.00038455087714343216,0.0008400500729375253,-0.00011697475567824084,0.00035809666873355504,-0.001557026510304222,0.14510458707809448,12.024682998657227,-1.2671844959259033,-21.717256546020508,-0.3912253975868225,-2.5271639823913574,0.22098104655742645,0
73,0.3599894046783447,-0.14510458707809448,-12.024682998657227,1.2671844959259033,21.717256546020508,0.3912253975868225,2.5271639823913574,-0.22098104655742645,0.0,0.0,0.0,0.0,0.0,0.0,0.0,-0.1313609517021367,0.29341462224873816,0.10338461142419537,0.40592857926235626,-0.1437900438638985,0.12109654735171137,-0.2042779643873701,0.17280674508001723,-0.48746073641050885,-0.11146864108325907,-1.946400808049921,0.13360941127909076,2.595550359778934,0.9452491365985738,0.1728802376190821,-0.48752024683155326,-0.11147110072896137,-1.9463801863486305,0.1336059019074957,2.595550359778934,0.9452445589611904,0.00022382603063639308,-0.00035553257903427375,0.00038455087714343216,-0.0008400500729375253,0.00011697475567824084,-0.00035809666873355504,0.001557026510304222,0.0,0.0,0.0,0.0,0.0,0.0,0.0,7.34925390648844e-05,-5.95104210444064e-05,-2.4596457022935114e-06,2.0621701290579608e-05,-3.5093715950729187e-06,0.0,-4.5776373833739115e-06,-0.00022382603063639308,0.00035553257903427375,-0.00038455087714343216,0.0008400500729375253,-0.00011697475567824084,0.00035809666873355504,-0.001557026510304222,0.14510458707809448,12.024682998657227,-1.2671844959259033,-21.717256546020508,-0.3912253975868225,-2.5271639823913574,0.22098104655742645,0
74,0.3649942874908447,-0.12130087614059448,-12.048486709594727,1.3147919178009033,21.669649124145508,0.3976340889930725,2.5207552909851074,-0.15231649577617645,0.0,0.0,0.0,0.0,0.0,0.0,0.0,-0.12660073212275114,0.30058966760336336,0.11037294880462514,0.4009184040101303,-0.14366661638411168,0.11989560109720188,-0.20449505295486725,0.17280507465621878,-0.4874589908612705,-0.11147206083969954,-1.9463974671782107,0.1336055003856311,2.595551071855757,0.9452415072040425,0.1728802376190821,-0.48752024683155326,-0.11147110072896137,-1.9463801863486305,0.1336059019074957,2.595550359778934,0.9452445589611904,-0.00013237093682224397,0.00016208080200569736,-0.0006674063285265353,0.0006854895581224553,-0.00029372883484177583,-0.0001319717151975073,-0.0016581876299977356,0.0,0.0,0.0,0.0,0.0,0.0,0.0,7.516296286333435e-05,-6.125597028278085e-05,9.601107381768115e-07,1.7280829580190726e-05,4.0152186459030403e-07,-7.120768228396912e-07,3.0517571478760885e-06,0.00013237093682224397,-0.00016208080200569736,0.0006674063285265353,-0.0006854895581224553,0.00029372883484177583,0.0001319717151975073,0.0016581876299977356,0.12130087614059448,12.048486709594727,-1.3147919178009033,-21.669649124145508,-0.3976340889930725,-2.5207552909851074,0.15231649577617645,0
75,0.36998939514160156,-0.12130087614059448,-12.048486709594727,1.3147919178009033,21.669649124145508,0.3976340889930725,2.5207552909851074,-0.15231649577617645,0.0,0.0,0.0,0.0,0.0,0.0,0.0,-0.12660073212275114,0.30058966760336336,0.11037294880462514,0.4009184040101303,-0.14366661638411168,0.11989560109720188,-0.20449505295486725,0.17280507465621878,-0.4874589908612705,-0.11147206083969954,-1.9463974671782107,0.1336055003856311,2.595551071855757,0.9452415072040425,0.1728802376190821,-0.48752024683155326,-0.11147110072896137,-1.9463801863486305,0.1336059019074957,2.595550359778934,0.9452445589611904,-0.00013237093682224397,0.00016208080200569736,-0.0006674063285265353,0.0006854895581224553,-0.00029372883484177583,-0.0001319717151975073,-0.0016581876299977356,0.0,0.0,0.0,0.0,0.0,0.0,0.0,7.516296286333435e-05,-6.125597028278085e-05,9.601107381768115e-07,1.7280829580190726e-05,4.0152186459030403e-07,-7.120768228396912e-07,3.0517571478760885e-06,0.00013237093682224397,-0.00016208080200569736,0.0006674063285265353,-0.0006854895581224553,0.00029372883484177583,0.0001319717151975073,0.0016581876299977356,0.12130087614059448,12.048486709594727,-1.3147919178009033,-21.669649124145508,-0.3976340889930725,-2.5207552909851074,0.15231649577617645,0
76,0.37499070167541504,-0.09352988004684448,-12.048486709594727,1.3147919178009033,21.669649124145508,0.3857322335243225,2.5207552909851074,-0.20083944499492645,0.0,0.0,0.0,0.0,0.0,0.0,0.0,-0.12382956579036537,0.2960286497141404,0.10940036722142694,0.3986849005225393,-0.14332460679857592,0.11982015225660197,-0.20491405640590468,0.17280312581438764,-0.487459065973349,-0.11147206087593424,-1.9463974671782107,0.13360894074551663,2.595551071855757,0.9452468986428446,0.1728802376190821,-0.48752024683155326,-0.11147110072896137,-1.9463801863486305,0.1336059019074957,2.595550359778934,0.9452445589611904,-0.0007532392079490633,-0.0001588358639928553,-0.0001385477057735723,0.00027754720669598845,0.0003260261993593497,9.703316199748942e-05,0.00040140914236738847,0.0,0.0,0.0,0.0,0.0,0.0,0.0,7.711180469446854e-05,-6.118085820427943e-05,9.601469728726109e-07,1.7280829580190726e-05,-3.0388380209411814e-06,-7.120768228396912e-07,-2.3396816541954024e-06,0.0007532392079490633,0.0001588358639928553,0.0001385477057735723,-0.00027754720669598845,-0.0003260261993593497,-9.703316199748942e-05,-0.00040140914236738847,0.09352988004684448,12.048486709594727,-1.3147919178009033,-21.669649124145508,-0.3857322335243225,-2.5207552909851074,0.20083944499492645,0
77,0.37999844551086426,-0.09352988004684448,-12.048486709594727,1.3147919178009033,21.669649124145508,0.3857322335243225,2.5207552909851074,-0.20083944499492645,0.0,0.0,0.0,0.0,0.0,0.0,0.0,-0.12382956579036537,0.2960286497141404,0.10940036722142694,0.3986849005225393,-0.14332460679857592,0.11982015225660197,-0.20491405640590468,0.17280312581438764,-0.487459065973349,-0.11147206087593424,-1.9463974671782107,0.13360894074551663,2.595551071855757,0.9452468986428446,0.1728802376190821,-0.48752024683155326,-0.11147110072896137,-1.9463801863486305,0.1336059019074957,2.595550359778934,0.9452445589611904,-0.0007532392079490633,-0.0001588358639928553,-0.0001385477057735723,0.00027754720669598845,0.0003260261993593497,9.703316199748942e-05,0.00040140914236738847,0.0,0.0,0.0,0.0,0.0,0.0,0.0,7.711180469446854e-05,-6.118085820427943e-05,9.601469728726109e-07,1.7280829580190726e-05,-3.0388380209411814e-06,-7.120768228396912e-07,-2.3396816541954024e-06,0.0007532392079490633,0.0001588358639928553,0.0001385477057735723,-0.00027754720669598845,-0.0003260261993593497,-9.703316199748942e-05,-0.00040140914236738847,0.09352988004684448,12.048486709594727,-1.3147919178009033,-21.669649124145508,-0.3857322335243225,-2.5207552909851074,0.20083944499492645,0
78,0.38498544692993164,-0.09352988004684448,-12.048486709594727,1.3147919178009033,21.669649124145508,0.3857322335243225,2.5207552909851074,-0.20083944499492645,0.0,0.0,0.0,0.0,0.0,0.0,0.0,-0.12382956579036537,0.2960286497141404,0.10940036722142694,0.3986849005225393,-0.14332460679857592,0.11982015225660197,-0.20491405640590468,0.17280312581438764,-0.487459065973349,-0.11147206087593424,-1.9463974671782107,0.13360894074551663,2.595551071855757,0.9452468986428446,0.1728802376190821,-0.48752024683155326,-0.11147110072896137,-1.9463801863486305,0.1336059019074957,2.595550359778934,0.9452445589611904,-0.0007532392079490633,-0.0001588358639928553,-0.0001385477057735723,0.00027754720669598845,0.0003260261993593497,9.703316199748942e-05,0.00040140914236738847,0.0,0.0,0.0,0.0,0.0,0.0,0.0,7.711180469446854e-05,-6.118085820427943e-05,9.601469728726109e-07,1.7280829580190726e-05,-3.0388380209411814e-06,-7.120768228396912e-07,-2.3396816541954024e-06,0.0007532392079490633,0.0001588358639928553,0.0001385477057735723,-0.00027754720669598845,-0.0003260261993593497,-9.703316199748942e-05,-0.00040140914236738847,0.09352988004684448,12.048486709594727,-1.3147919178009033,-21.669649124145508,-0.3857322335243225,-2.5207552909851074,0.20083944499492645,0
79,0.3900120258331299,-0.09352988004684448,-12.048486709594727,1.3147919178009033,21.669649124145508,0.3857322335243225,2.5207552909851074,-0.20083944499492645,0.0,0.0,0.0,0.0,0.0,0.0,0.0,-0.12382956579036537,0.2960286497141404,0.10940036722142694,0.3986849005225393,-0.14332460679857592,0.11982015225660197,-0.20491405640590468,0.17280312581438764,-0.487459065973349,-0.11147206087593424,-1.9463974671782107,0.13360894074551663,2.595551071855757,0.9452468986428446,0.1728802376190821,-0.48752024683155326,-0.11147110072896137,-1.9463801863486305,0.1336059019074957,2.595550359778934,0.9452445589611904,-0.0007532392079490633,-0.0001588358639928553,-0.0001385477057735723,0.00027754720669598845,0.0003260261993593497,9.703316199748942e-05,0.00040140914236738847,0.0,0.0,0.0,0.0,0.0,0.0,0.0,7.711180469446854e-05,-6.118085820427943e-05,9.601469728726109e-07,1.7280829580190726e-05,-3.0388380209411814e-06,-7.120768228396912e-07,-2.3396816541954024e-06,0.0007532392079490633,0.0001588358639928553,0.0001385477057735723,-0.00027754720669598845,-0.0003260261993593497,-9.703316199748942e-05,-0.00040140914236738847,0.09352988004684448,12.048486709594727,-1.3147919178009033,-21.669649124145508,-0.3857322335243225,-2.5207552909851074,0.20083944499492645,0
