rezayati/contactInterpretation/dataset/franka_main/labeled_data/link2/f5_8.csv
index,time,tau_J0,tau_J1,tau_J2,tau_J3,tau_J4,tau_J5,tau_J6,tau_J_d0,tau_J_d1,tau_J_d2,tau_J_d3,tau_J_d4,tau_J_d5,tau_J_d6,tau_ext0,tau_ext1,tau_ext2,tau_ext3,tau_ext4,tau_ext5,tau_ext6,q0,q1,q2,q3,q4,q5,q6,q_d0,q_d1,q_d2,q_d3,q_d4,q_d5,q_d6,dq0,dq1,dq2,dq3,dq4,dq5,dq6,dq_d0,dq_d1,dq_d2,dq_d3,dq_d4,dq_d5,dq_d6,e0,e1,e2,e3,e4,e5,e6,de0,de1,de2,de3,de4,de5,de6,etau_J0,etau_J1,etau_J2,etau_J3,etau_J4,etau_J5,etau_J6,label
1,0.0,-0.3236324191093445,-22.672876358032227,-0.1253325641155243,14.131807327270508,0.1293845772743225,2.1517977714538574,-0.21457235515117645,0.0,0.0,0.0,0.0,0.0,0.0,0.0,-0.3363919624360725,0.1536622226557212,-0.22786804467894223,0.2629726868624658,-0.10790343821332858,-0.032710224759165595,-0.24288002737616848,1.6755228655421943,0.052065443353171925,0.029975751272157614,-2.752403859021371,0.03425055208569462,2.766364049749425,0.7691570515549844,1.6754973547542302,0.052104326824870026,0.029969505109285054,-2.752394845125968,0.0342448039870148,2.7663679543071322,0.7691630533470046,0.0006863542828570053,0.0012255491818984094,-0.00035706947396360285,9.296536838902933e-05,-0.00033514632383411245,0.00034169814492945915,-0.0010695863895196632,0.0,0.0,0.0,0.0,0.0,0.0,0.0,-2.5510787964089232e-05,3.888347169810069e-05,-6.246162872560607e-06,9.013895402976146e-06,-5.748098679821123e-06,3.904557707379297e-06,6.00179202026041e-06,-0.0006863542828570053,-0.0012255491818984094,0.00035706947396360285,-9.296536838902933e-05,0.00033514632383411245,-0.00034169814492945915,0.0010695863895196632,0.3236324191093445,22.672876358032227,0.1253325641155243,-14.131807327270508,-0.1293845772743225,-2.1517977714538574,0.21457235515117645,0
2,0.004795074462890625,-0.3236324191093445,-22.672876358032227,-0.1253325641155243,14.131807327270508,0.1293845772743225,2.1517977714538574,-0.21457235515117645,0.0,0.0,0.0,0.0,0.0,0.0,0.0,-0.3363919624360725,0.1536622226557212,-0.22786804467894223,0.2629726868624658,-0.10790343821332858,-0.032710224759165595,-0.24288002737616848,1.6755228655421943,0.052065443353171925,0.029975751272157614,-2.752403859021371,0.03425055208569462,2.766364049749425,0.7691570515549844,1.6754973547542302,0.052104326824870026,0.029969505109285054,-2.752394845125968,0.0342448039870148,2.7663679543071322,0.7691630533470046,0.0006863542828570053,0.0012255491818984094,-0.00035706947396360285,9.296536838902933e-05,-0.00033514632383411245,0.00034169814492945915,-0.0010695863895196632,0.0,0.0,0.0,0.0,0.0,0.0,0.0,-2.5510787964089232e-05,3.888347169810069e-05,-6.246162872560607e-06,9.013895402976146e-06,-5.748098679821123e-06,3.904557707379297e-06,6.00179202026041e-06,-0.0006863542828570053,-0.0012255491818984094,0.00035706947396360285,-9.296536838902933e-05,0.00033514632383411245,-0.00034169814492945915,0.0010695863895196632,0.3236324191093445,22.672876358032227,0.1253325641155243,-14.131807327270508,-0.1293845772743225,-2.1517977714538574,0.21457235515117645,0
3,0.009792566299438477,-0.3236324191093445,-22.672876358032227,-0.1253325641155243,14.131807327270508,0.1293845772743225,2.1517977714538574,-0.21457235515117645,0.0,0.0,0.0,0.0,0.0,0.0,0.0,-0.3363919624360725,0.1536622226557212,-0.22786804467894223,0.2629726868624658,-0.10790343821332858,-0.032710224759165595,-0.24288002737616848,1.6755228655421943,0.052065443353171925,0.029975751272157614,-2.752403859021371,0.03425055208569462,2.766364049749425,0.7691570515549844,1.6754973547542302,0.052104326824870026,0.029969505109285054,-2.752394845125968,0.0342448039870148,2.7663679543071322,0.7691630533470046,0.0006863542828570053,0.0012255491818984094,-0.00035706947396360285,9.296536838902933e-05,-0.00033514632383411245,0.00034169814492945915,-0.0010695863895196632,0.0,0.0,0.0,0.0,0.0,0.0,0.0,-2.5510787964089232e-05,3.888347169810069e-05,-6.246162872560607e-06,9.013895402976146e-06,-5.748098679821123e-06,3.904557707379297e-06,6.00179202026041e-06,-0.0006863542828570053,-0.0012255491818984094,0.00035706947396360285,-9.296536838902933e-05,0.00033514632383411245,-0.00034169814492945915,0.0010695863895196632,0.3236324191093445,22.672876358032227,0.1253325641155243,-14.131807327270508,-0.1293845772743225,-2.1517977714538574,0.21457235515117645,0
4,0.014789819717407227,-0.3236324191093445,-22.672876358032227,-0.1253325641155243,14.131807327270508,0.1293845772743225,2.1517977714538574,-0.21457235515117645,0.0,0.0,0.0,0.0,0.0,0.0,0.0,-0.3363919624360725,0.1536622226557212,-0.22786804467894223,0.2629726868624658,-0.10790343821332858,-0.032710224759165595,-0.24288002737616848,1.6755228655421943,0.052065443353171925,0.029975751272157614,-2.752403859021371,0.03425055208569462,2.766364049749425,0.7691570515549844,1.6754973547542302,0.052104326824870026,0.029969505109285054,-2.752394845125968,0.0342448039870148,2.7663679543071322,0.7691630533470046,0.0006863542828570053,0.0012255491818984094,-0.00035706947396360285,9.296536838902933e-05,-0.00033514632383411245,0.00034169814492945915,-0.0010695863895196632,0.0,0.0,0.0,0.0,0.0,0.0,0.0,-2.5510787964089232e-05,3.888347169810069e-05,-6.246162872560607e-06,9.013895402976146e-06,-5.748098679821123e-06,3.904557707379297e-06,6.00179202026041e-06,-0.0006863542828570053,-0.0012255491818984094,0.00035706947396360285,-9.296536838902933e-05,0.00033514632383411245,-0.00034169814492945915,0.0010695863895196632,0.3236324191093445,22.672876358032227,0.1253325641155243,-14.131807327270508,-0.1293845772743225,-2.1517977714538574,0.21457235515117645,0
5,0.019787073135375977,-0.3514034152030945,-22.597497940063477,-0.2007109820842743,14.155611038208008,0.1293845772743225,2.1517977714538574,-0.24844686686992645,0.0,0.0,0.0,0.0,0.0,0.0,0.0,-0.32686385962223496,0.15201890930586015,-0.22260420218709245,0.2647059889440348,-0.10862177099764667,-0.03225059874076308,-0.24223386490709406,1.6755248143840253,0.05206015363963026,0.029981040985699283,-2.752405529457226,0.03424766692151201,2.7663640616828435,0.7691608153896198,1.6754973547542302,0.052104326824870026,0.029969505109285054,-2.752394845125968,0.0342448039870148,2.7663679543071322,0.7691630533470046,-0.0005258686275200875,-0.0007919258263625299,-0.002749983290422425,-0.0008007480147576651,-0.0003110246588292125,-2.155056288713781e-05,0.0006375212352877651,0.0,0.0,0.0,0.0,0.0,0.0,0.0,-2.7459629795112406e-05,4.417318523976255e-05,-1.1535876414229401e-05,1.0684331257948543e-05,-2.8629344972080917e-06,3.892624288681645e-06,2.2379573848541057e-06,0.0005258686275200875,0.0007919258263625299,0.002749983290422425,0.0008007480147576651,0.0003110246588292125,2.155056288713781e-05,-0.0006375212352877651,0.3514034152030945,22.597497940063477,0.2007109820842743,-14.155611038208008,-0.1293845772743225,-2.1517977714538574,0.24844686686992645,0
6,0.024785280227661133,-0.3514034152030945,-22.597497940063477,-0.2007109820842743,14.155611038208008,0.1293845772743225,2.1517977714538574,-0.24844686686992645,0.0,0.0,0.0,0.0,0.0,0.0,0.0,-0.32686385962223496,0.15201890930586015,-0.22260420218709245,0.2647059889440348,-0.10862177099764667,-0.03225059874076308,-0.24223386490709406,1.6755248143840253,0.05206015363963026,0.029981040985699283,-2.752405529457226,0.03424766692151201,2.7663640616828435,0.7691608153896198,1.6754973547542302,0.052104326824870026,0.029969505109285054,-2.752394845125968,0.0342448039870148,2.7663679543071322,0.7691630533470046,-0.0005258686275200875,-0.0007919258263625299,-0.002749983290422425,-0.0008007480147576651,-0.0003110246588292125,-2.155056288713781e-05,0.0006375212352877651,0.0,0.0,0.0,0.0,0.0,0.0,0.0,-2.7459629795112406e-05,4.417318523976255e-05,-1.1535876414229401e-05,1.0684331257948543e-05,-2.8629344972080917e-06,3.892624288681645e-06,2.2379573848541057e-06,0.0005258686275200875,0.0007919258263625299,0.002749983290422425,0.0008007480147576651,0.0003110246588292125,2.155056288713781e-05,-0.0006375212352877651,0.3514034152030945,22.597497940063477,0.2007109820842743,-14.155611038208008,-0.1293845772743225,-2.1517977714538574,0.24844686686992645,0
7,0.02978658676147461,-0.4029781222343445,-22.649072647094727,-0.1729399859905243,14.131807327270508,0.11748272180557251,2.1582064628601074,-0.26217979192733765,0.0,0.0,0.0,0.0,0.0,0.0,0.0,-0.33300680191177084,0.14422101052570155,-0.22784383460662144,0.270779495713349,-0.10900652144927155,-0.03144514087951733,-0.24257992976988463,1.6755284336617118,0.05206377291731666,0.029979092143868142,-2.752403859021371,0.03425184813459628,2.766364986465171,0.7691623412701818,1.6754973547542302,0.052104326824870026,0.029969505109285054,-2.752394845125968,0.0342448039870148,2.7663679543071322,0.7691630533470046,-0.00031090274408484474,-0.000502537247164339,-0.0007422606687486135,7.239395607320465e-05,0.00020869980919224255,-0.00029285936270695586,0.0009908010954885423,0.0,0.0,0.0,0.0,0.0,0.0,0.0,-3.1078907481552065e-05,4.055390755336452e-05,-9.587034583088266e-06,9.013895402976146e-06,-7.044147581479476e-06,2.9678419610768003e-06,7.120768228396912e-07,0.00031090274408484474,0.000502537247164339,0.0007422606687486135,-7.239395607320465e-05,-0.00020869980919224255,0.00029285936270695586,-0.0009908010954885423,0.4029781222343445,22.649072647094727,0.1729399859905243,-14.131807327270508,-0.11748272180557251,-2.1582064628601074,0.26217979192733765,0
8,0.034783363342285156,-0.4029781222343445,-22.649072647094727,-0.1729399859905243,14.131807327270508,0.11748272180557251,2.1582064628601074,-0.26217979192733765,0.0,0.0,0.0,0.0,0.0,0.0,0.0,-0.33300680191177084,0.14422101052570155,-0.22784383460662144,0.270779495713349,-0.10900652144927155,-0.03144514087951733,-0.24257992976988463,1.6755284336617118,0.05206377291731666,0.029979092143868142,-2.752403859021371,0.03425184813459628,2.766364986465171,0.7691623412701818,1.6754973547542302,0.052104326824870026,0.029969505109285054,-2.752394845125968,0.0342448039870148,2.7663679543071322,0.7691630533470046,-0.00031090274408484474,-0.000502537247164339,-0.0007422606687486135,7.239395607320465e-05,0.00020869980919224255,-0.00029285936270695586,0.0009908010954885423,0.0,0.0,0.0,0.0,0.0,0.0,0.0,-3.1078907481552065e-05,4.055390755336452e-05,-9.587034583088266e-06,9.013895402976146e-06,-7.044147581479476e-06,2.9678419610768003e-06,7.120768228396912e-07,0.00031090274408484474,0.000502537247164339,0.0007422606687486135,-7.239395607320465e-05,-0.00020869980919224255,0.00029285936270695586,-0.0009908010954885423,0.4029781222343445,22.649072647094727,0.1729399859905243,-14.131807327270508,-0.11748272180557251,-2.1582064628601074,0.26217979192733765,0
9,0.039785146713256836,-0.3752071261405945,-22.720483779907227,-0.1729399859905243,14.108003616333008,0.1293845772743225,2.1517977714538574,-0.26858848333358765,0.0,0.0,0.0,0.0,0.0,0.0,0.0,-0.3620795732429039,0.14927781582633678,-0.24857856170890197,0.2655582489514792,-0.10768930712052249,-0.03211895968605694,-0.24254575576131682,1.6755264848198808,0.05206878422488245,0.029979092468645774,-2.7524021885855157,0.034249693209015955,2.766366769817765,0.7691630533470046,1.6754973547542302,0.052104326824870026,0.029969505109285054,-2.752394845125968,0.0342448039870148,2.7663679543071322,0.7691630533470046,-0.0006573101983320735,0.001534760744305158,-0.00022941546622079964,0.0006095591741474358,-4.036136083981638e-05,0.000163857082503156,0.0007884596054681898,0.0,0.0,0.0,0.0,0.0,0.0,0.0,-2.913006565052889e-05,3.554259998757303e-05,-9.587359360720138e-06,7.343459547559661e-06,-4.889222001154547e-06,1.1844893670343026e-06,0.0,0.0006573101983320735,-0.001534760744305158,0.00022941546622079964,-0.0006095591741474358,4.036136083981638e-05,-0.000163857082503156,-0.0007884596054681898,0.3752071261405945,22.720483779907227,0.1729399859905243,-14.108003616333008,-0.1293845772743225,-2.1517977714538574,0.26858848333358765,0
10,0.044914960861206055,-0.3752071261405945,-22.720483779907227,-0.1729399859905243,14.108003616333008,0.1293845772743225,2.1517977714538574,-0.26858848333358765,0.0,0.0,0.0,0.0,0.0,0.0,0.0,-0.3620795732429039,0.14927781582633678,-0.24857856170890197,0.2655582489514792,-0.10768930712052249,-0.03211895968605694,-0.24254575576131682,1.6755264848198808,0.05206878422488245,0.029979092468645774,-2.7524021885855157,0.034249693209015955,2.766366769817765,0.7691630533470046,1.6754973547542302,0.052104326824870026,0.029969505109285054,-2.752394845125968,0.0342448039870148,2.7663679543071322,0.7691630533470046,-0.0006573101983320735,0.001534760744305158,-0.00022941546622079964,0.0006095591741474358,-4.036136083981638e-05,0.000163857082503156,0.0007884596054681898,0.0,0.0,0.0,0.0,0.0,0.0,0.0,-2.913006565052889e-05,3.554259998757303e-05,-9.587359360720138e-06,7.343459547559661e-06,-4.889222001154547e-06,1.1844893670343026e-06,0.0,0.0006573101983320735,-0.001534760744305158,0.00022941546622079964,-0.0006095591741474358,4.036136083981638e-05,-0.000163857082503156,-0.0007884596054681898,0.3752071261405945,22.720483779907227,0.1729399859905243,-14.108003616333008,-0.1293845772743225,-2.1517977714538574,0.26858848333358765,0
11,0.04980039596557617,-0.3752071261405945,-22.649072647094727,-0.1253325641155243,14.155611038208008,0.11198955774307251,2.1517977714538574,-0.24844686686992645,0.0,0.0,0.0,0.0,0.0,0.0,0.0,-0.36623359796914845,0.14772563978004985,-0.24641813009955865,0.2620943843464469,-0.10792277480062515,-0.03222845976211862,-0.24304821592415374,1.6755264848198808,0.05206377288123026,0.029975751272159446,-2.752405529457226,0.034251745177655744,2.7663668758791453,0.7691608153896198,1.6754973547542302,0.052104326824870026,0.029969505109285054,-2.752394845125968,0.0342448039870148,2.7663679543071322,0.7691630533470046,0.00041850512472407515,2.8125454458623083e-05,-0.0007350023405217698,-0.0006367440033290296,0.0004729712778672165,-2.6559391837016908e-06,-0.00031967001323633437,0.0,0.0,0.0,0.0,0.0,0.0,0.0,-2.913006565052889e-05,4.055394363976922e-05,-6.246162874392475e-06,1.0684331257948543e-05,-6.941190640943895e-06,1.0784279869113789e-06,2.2379573848541057e-06,-0.00041850512472407515,-2.8125454458623083e-05,0.0007350023405217698,0.0006367440033290296,-0.0004729712778672165,2.6559391837016908e-06,0.00031967001323633437,0.3752071261405945,22.649072647094727,0.1253325641155243,-14.155611038208008,-0.11198955774307251,-2.1517977714538574,0.24844686686992645,0
12,0.05479884147644043,-0.3752071261405945,-22.649072647094727,-0.1253325641155243,14.155611038208008,0.11198955774307251,2.1517977714538574,-0.24844686686992645,0.0,0.0,0.0,0.0,0.0,0.0,0.0,-0.36623359796914845,0.14772563978004985,-0.24641813009955865,0.2620943843464469,-0.10792277480062515,-0.03222845976211862,-0.24304821592415374,1.6755264848198808,0.05206377288123026,0.029975751272159446,-2.752405529457226,0.034251745177655744,2.7663668758791453,0.7691608153896198,1.6754973547542302,0.052104326824870026,0.029969505109285054,-2.752394845125968,0.0342448039870148,2.7663679543071322,0.7691630533470046,0.00041850512472407515,2.8125454458623083e-05,-0.0007350023405217698,-0.0006367440033290296,0.0004729712778672165,-2.6559391837016908e-06,-0.00031967001323633437,0.0,0.0,0.0,0.0,0.0,0.0,0.0,-2.913006565052889e-05,4.055394363976922e-05,-6.246162874392475e-06,1.0684331257948543e-05,-6.941190640943895e-06,1.0784279869113789e-06,2.2379573848541057e-06,-0.00041850512472407515,-2.8125454458623083e-05,0.0007350023405217698,0.0006367440033290296,-0.0004729712778672165,2.6559391837016908e-06,0.00031967001323633437,0.3752071261405945,22.649072647094727,0.1253325641155243,-14.155611038208008,-0.11198955774307251,-2.1517977714538574,0.24844686686992645,0
13,0.05979585647583008,-0.2998287081718445,-22.649072647094727,-0.1253325641155243,14.131807327270508,0.1293845772743225,2.1453890800476074,-0.22098104655742645,0.0,0.0,0.0,0.0,0.0,0.0,0.0,-0.35852444155308993,0.14268600909846635,-0.24016385138492324,0.26306492786394,-0.10870366838811064,-0.03262411469360564,-0.2432607972887937,1.6755211951063391,0.05206377291731646,0.029977882138208335,-2.752403859021371,0.03424772115520117,2.7663678364059887,0.7691577636318073,1.6754973547542302,0.052104326824870026,0.029969505109285054,-2.752394845125968,0.0342448039870148,2.7663679543071322,0.7691630533470046,-0.00029176372900465894,-9.577407055288245e-05,0.0002248376021784879,-3.463198480492983e-05,-3.7624817470100256e-05,0.00019267344932274769,-0.0008381711967498591,0.0,0.0,0.0,0.0,0.0,0.0,0.0,-2.384035210889479e-05,4.055390755356575e-05,-8.377028923280821e-06,9.013895402976146e-06,-2.917168186372665e-06,1.1790114351484249e-07,5.289715197309697e-06,0.00029176372900465894,9.577407055288245e-05,-0.0002248376021784879,3.463198480492983e-05,3.7624817470100256e-05,-0.00019267344932274769,0.0008381711967498591,0.2998287081718445,22.649072647094727,0.1253325641155243,-14.131807327270508,-0.1293845772743225,-2.1453890800476074,0.22098104655742645,0
14,0.06479072570800781,-0.2998287081718445,-22.649072647094727,-0.1253325641155243,14.131807327270508,0.1293845772743225,2.1453890800476074,-0.22098104655742645,0.0,0.0,0.0,0.0,0.0,0.0,0.0,-0.35852444155308993,0.14268600909846635,-0.24016385138492324,0.26306492786394,-0.10870366838811064,-0.03262411469360564,-0.2432607972887937,1.6755211951063391,0.05206377291731646,0.029977882138208335,-2.752403859021371,0.03424772115520117,2.7663678364059887,0.7691577636318073,1.6754973547542302,0.052104326824870026,0.029969505109285054,-2.752394845125968,0.0342448039870148,2.7663679543071322,0.7691630533470046,-0.00029176372900465894,-9.577407055288245e-05,0.0002248376021784879,-3.463198480492983e-05,-3.7624817470100256e-05,0.00019267344932274769,-0.0008381711967498591,0.0,0.0,0.0,0.0,0.0,0.0,0.0,-2.384035210889479e-05,4.055390755356575e-05,-8.377028923280821e-06,9.013895402976146e-06,-2.917168186372665e-06,1.1790114351484249e-07,5.289715197309697e-06,0.00029176372900465894,9.577407055288245e-05,-0.0002248376021784879,3.463198480492983e-05,3.7624817470100256e-05,-0.00019267344932274769,0.0008381711967498591,0.2998287081718445,22.649072647094727,0.1253325641155243,-14.131807327270508,-0.1293845772743225,-2.1453890800476074,0.22098104655742645,0
15,0.06979012489318848,-0.3236324191093445,-22.696680068969727,-0.1491362750530243,14.131807327270508,0.12389141321182251,2.1453890800476074,-0.24112264811992645,0.0,0.0,0.0,0.0,0.0,0.0,0.0,-0.3504606935459654,0.14351959380225612,-0.23794064612991903,0.2658684337586886,-0.1079376006967431,-0.03329823792894859,-0.2435454316387284,1.6755228655421943,0.05206711378902719,0.02997742171202248,-2.752403859021371,0.03425105913391403,2.7663675965540993,0.7691600015875365,1.6754973547542302,0.052104326824870026,0.029969505109285054,-2.752394845125968,0.0342448039870148,2.7663679543071322,0.7691630533470046,0.0009666885825614357,0.0010358454231026975,0.0007595031323230671,0.00017244671894949578,-4.910113791444165e-05,0.00023591645594681673,-0.0003926953025488262,0.0,0.0,0.0,0.0,0.0,0.0,0.0,-2.5510787964089232e-05,3.721303584283686e-05,-7.916602737426115e-06,9.013895402976146e-06,-6.255146899232511e-06,3.5775303297569394e-07,3.0517594681311877e-06,-0.0009666885825614357,-0.0010358454231026975,-0.0007595031323230671,-0.00017244671894949578,4.910113791444165e-05,-0.00023591645594681673,0.0003926953025488262,0.3236324191093445,22.696680068969727,0.1491362750530243,-14.131807327270508,-0.12389141321182251,-2.1453890800476074,0.24112264811992645,0
16,0.07558536529541016,-0.3236324191093445,-22.696680068969727,-0.1491362750530243,14.131807327270508,0.12389141321182251,2.1453890800476074,-0.24112264811992645,0.0,0.0,0.0,0.0,0.0,0.0,0.0,-0.3504606935459654,0.14351959380225612,-0.23794064612991903,0.2658684337586886,-0.1079376006967431,-0.03329823792894859,-0.2435454316387284,1.6755228655421943,0.05206711378902719,0.02997742171202248,-2.752403859021371,0.03425105913391403,2.7663675965540993,0.7691600015875365,1.6754973547542302,0.052104326824870026,0.029969505109285054,-2.752394845125968,0.0342448039870148,2.7663679543071322,0.7691630533470046,0.0009666885825614357,0.0010358454231026975,0.0007595031323230671,0.00017244671894949578,-4.910113791444165e-05,0.00023591645594681673,-0.0003926953025488262,0.0,0.0,0.0,0.0,0.0,0.0,0.0,-2.5510787964089232e-05,3.721303584283686e-05,-7.916602737426115e-06,9.013895402976146e-06,-6.255146899232511e-06,3.5775303297569394e-07,3.0517594681311877e-06,-0.0009666885825614357,-0.0010358454231026975,-0.0007595031323230671,-0.00017244671894949578,4.910113791444165e-05,-0.00023591645594681673,0.0003926953025488262,0.3236324191093445,22.696680068969727,0.1491362750530243,-14.131807327270508,-0.12389141321182251,-2.1453890800476074,0.24112264811992645,0
17,0.07978582382202148,-0.3236324191093445,-22.649072647094727,-0.1253325641155243,14.155611038208008,0.1293845772743225,2.1582064628601074,-0.21457235515117645,0.0,0.0,0.0,0.0,0.0,0.0,0.0,-0.3431426762058528,0.1445092844100954,-0.2374316550511118,0.26396270190537063,-0.1073655786784331,-0.03406213331983175,-0.24347407518621553,1.6755228655421943,0.05206377291731666,0.02997575127215764,-2.752405529457226,0.03424759433312786,2.766366059201187,0.7691570515549844,1.6754973547542302,0.052104326824870026,0.029969505109285054,-2.752394845125968,0.0342448039870148,2.7663679543071322,0.7691630533470046,5.574519064385578e-05,-0.0004074526726596509,-0.00026981554808268494,-0.000683495422547075,-0.00019079453362256363,-0.00025713777566731353,-0.0011268418896376359,0.0,0.0,0.0,0.0,0.0,0.0,0.0,-2.5510787964089232e-05,4.055390755336452e-05,-6.246162872584893e-06,1.0684331257948543e-05,-2.790346113057396e-06,1.8951059450600383e-06,6.00179202026041e-06,-5.574519064385578e-05,0.0004074526726596509,0.00026981554808268494,0.000683495422547075,0.00019079453362256363,0.00025713777566731353,0.0011268418896376359,0.3236324191093445,22.649072647094727,0.1253325641155243,-14.155611038208008,-0.1293845772743225,-2.1582064628601074,0.21457235515117645,0
18,0.08479046821594238,-0.3236324191093445,-22.649072647094727,-0.1253325641155243,14.155611038208008,0.1293845772743225,2.1582064628601074,-0.21457235515117645,0.0,0.0,0.0,0.0,0.0,0.0,0.0,-0.3431426762058528,0.1445092844100954,-0.2374316550511118,0.26396270190537063,-0.1073655786784331,-0.03406213331983175,-0.24347407518621553,1.6755228655421943,0.05206377291731666,0.02997575127215764,-2.752405529457226,0.03424759433312786,2.766366059201187,0.7691570515549844,1.6754973547542302,0.052104326824870026,0.029969505109285054,-2.752394845125968,0.0342448039870148,2.7663679543071322,0.7691630533470046,5.574519064385578e-05,-0.0004074526726596509,-0.00026981554808268494,-0.000683495422547075,-0.00019079453362256363,-0.00025713777566731353,-0.0011268418896376359,0.0,0.0,0.0,0.0,0.0,0.0,0.0,-2.5510787964089232e-05,4.055390755336452e-05,-6.246162872584893e-06,1.0684331257948543e-05,-2.790346113057396e-06,1.8951059450600383e-06,6.00179202026041e-06,-5.574519064385578e-05,0.0004074526726596509,0.00026981554808268494,0.000683495422547075,0.00019079453362256363,0.00025713777566731353,0.0011268418896376359,0.3236324191093445,22.649072647094727,0.1253325641155243,-14.155611038208008,-0.1293845772743225,-2.1582064628601074,0.21457235515117645,0
19,0.08978486061096191,-0.3752071261405945,-22.672876358032227,-0.09756157547235489,14.179414749145508,0.11198955774307251,2.1453890800476074,-0.22830526530742645,0.0,0.0,0.0,0.0,0.0,0.0,0.0,-0.3431858823134048,0.14000281027317438,-0.2373771634213233,0.2682009548190781,-0.10744855834884079,-0.0335719140226992,-0.24341735218412397,1.6755264848198808,0.052065443353171925,0.029973802430849322,-2.7524071998930815,0.03425174949617597,2.7663679148971116,0.7691585774338906,1.6754973547542302,0.052104326824870026,0.029969505109285054,-2.752394845125968,0.0342448039870148,2.7663679543071322,0.7691630533470046,-0.0002057220508166648,0.0001900338985206609,-0.0014842781881613204,-0.0007560227837580629,0.000345180239622586,0.00021023182172395438,-0.0004433377543957575,0.0,0.0,0.0,0.0,0.0,0.0,0.0,-2.913006565052889e-05,3.888347169810069e-05,-4.297321564268597e-06,1.2354767113365028e-05,-6.945509161172814e-06,3.9410020580277205e-08,4.475913114032615e-06,0.0002057220508166648,-0.0001900338985206609,0.0014842781881613204,0.0007560227837580629,-0.000345180239622586,-0.00021023182172395438,0.0004433377543957575,0.3752071261405945,22.672876358032227,0.09756157547235489,-14.179414749145508,-0.11198955774307251,-2.1453890800476074,0.22830526530742645,0
20,0.09478521347045898,-0.3752071261405945,-22.672876358032227,-0.09756157547235489,14.179414749145508,0.11198955774307251,2.1453890800476074,-0.22830526530742645,0.0,0.0,0.0,0.0,0.0,0.0,0.0,-0.3431858823134048,0.14000281027317438,-0.2373771634213233,0.2682009548190781,-0.10744855834884079,-0.0335719140226992,-0.24341735218412397,1.6755264848198808,0.052065443353171925,0.029973802430849322,-2.7524071998930815,0.03425174949617597,2.7663679148971116,0.7691585774338906,1.6754973547542302,0.052104326824870026,0.029969505109285054,-2.752394845125968,0.0342448039870148,2.7663679543071322,0.7691630533470046,-0.0002057220508166648,0.0001900338985206609,-0.0014842781881613204,-0.0007560227837580629,0.000345180239622586,0.00021023182172395438,-0.0004433377543957575,0.0,0.0,0.0,0.0,0.0,0.0,0.0,-2.913006565052889e-05,3.888347169810069e-05,-4.297321564268597e-06,1.2354767113365028e-05,-6.945509161172814e-06,3.9410020580277205e-08,4.475913114032615e-06,0.0002057220508166648,-0.0001900338985206609,0.0014842781881613204,0.0007560227837580629,-0.000345180239622586,-0.00021023182172395438,0.0004433377543957575,0.3752071261405945,22.672876358032227,0.09756157547235489,-14.179414749145508,-0.11198955774307251,-2.1453890800476074,0.22830526530742645,0
21,0.09978556632995605,-0.3514034152030945,-22.649072647094727,-0.2007109820842743,14.108003616333008,0.11198955774307251,2.1582064628601074,-0.26217979192733765,0.0,0.0,0.0,0.0,0.0,0.0,0.0,-0.3428705361889864,0.15098981554403984,-0.23061316588768127,0.2617832207349421,-0.10937085212489392,-0.034733304741315495,-0.243405315076029,1.6755248143840253,0.052063769994317964,0.029981040985699283,-2.7524021885855157,0.034251789185722234,2.766365470353629,0.7691659175488683,1.6754973547542302,0.052104326824870026,0.029969505109285054,-2.752394845125968,0.0342448039870148,2.7663679543071322,0.7691630533470046,-0.000420998651507647,0.0007698419748090897,0.001010768919932018,0.0004577825695165763,0.00047424493394943636,-5.1302484923920095e-05,0.0007839775876965928,0.0,0.0,0.0,0.0,0.0,0.0,0.0,-2.7459629795112406e-05,4.055683055206177e-05,-1.1535876414229401e-05,7.343459547559661e-06,-6.985198707433471e-06,2.483953503329417e-06,-2.8642018636837463e-06,0.000420998651507647,-0.0007698419748090897,-0.001010768919932018,-0.0004577825695165763,-0.00047424493394943636,5.1302484923920095e-05,-0.0007839775876965928,0.3514034152030945,22.649072647094727,0.2007109820842743,-14.108003616333008,-0.11198955774307251,-2.1582064628601074,0.26217979192733765,0
22,0.10479307174682617,-0.3514034152030945,-22.649072647094727,-0.2007109820842743,14.108003616333008,0.11198955774307251,2.1582064628601074,-0.26217979192733765,0.0,0.0,0.0,0.0,0.0,0.0,0.0,-0.3428705361889864,0.15098981554403984,-0.23061316588768127,0.2617832207349421,-0.10937085212489392,-0.034733304741315495,-0.243405315076029,1.6755248143840253,0.052063769994317964,0.029981040985699283,-2.7524021885855157,0.034251789185722234,2.766365470353629,0.7691659175488683,1.6754973547542302,0.052104326824870026,0.029969505109285054,-2.752394845125968,0.0342448039870148,2.7663679543071322,0.7691630533470046,-0.000420998651507647,0.0007698419748090897,0.001010768919932018,0.0004577825695165763,0.00047424493394943636,-5.1302484923920095e-05,0.0007839775876965928,0.0,0.0,0.0,0.0,0.0,0.0,0.0,-2.7459629795112406e-05,4.055683055206177e-05,-1.1535876414229401e-05,7.343459547559661e-06,-6.985198707433471e-06,2.483953503329417e-06,-2.8642018636837463e-06,0.000420998651507647,-0.0007698419748090897,-0.001010768919932018,-0.0004577825695165763,-0.00047424493394943636,5.1302484923920095e-05,-0.0007839775876965928,0.3514034152030945,22.649072647094727,0.2007109820842743,-14.108003616333008,-0.11198955774307251,-2.1582064628601074,0.26217979192733765,0
23,0.11059737205505371,-0.3236324191093445,-22.597497940063477,-0.1491362750530243,14.080232620239258,0.12389141321182251,2.1655306816101074,-0.22098104655742645,0.0,0.0,0.0,0.0,0.0,0.0,0.0,-0.3454381901640489,0.14847452553176502,-0.23095059111806732,0.26077067063497966,-0.10973507062777757,-0.03386039974751782,-0.24290752527706777,1.6755228655421943,0.05206015363961376,0.029977421708012878,-2.7524002397436846,0.034248291072196776,2.7663655983925097,0.7691620551864193,1.6754973547542302,0.052104326824870026,0.029969505109285054,-2.752394845125968,0.0342448039870148,2.7663679543071322,0.7691630533470046,-0.0006633685714061188,-0.0009024575531906533,0.00024338947815211515,0.0005071106121577526,0.0002086076807179049,-0.000382136195038638,-0.0010022544870423005,0.0,0.0,0.0,0.0,0.0,0.0,0.0,-2.5510787964089232e-05,4.4173185256263237e-05,-7.916598727824437e-06,5.394617716536487e-06,-3.4870851819759907e-06,2.3559146224982896e-06,9.981605852971143e-07,0.0006633685714061188,0.0009024575531906533,-0.00024338947815211515,-0.0005071106121577526,-0.0002086076807179049,0.000382136195038638,0.0010022544870423005,0.3236324191093445,22.597497940063477,0.1491362750530243,-14.080232620239258,-0.12389141321182251,-2.1655306816101074,0.22098104655742645,0
24,0.11479830741882324,-0.3236324191093445,-22.597497940063477,-0.1491362750530243,14.080232620239258,0.12389141321182251,2.1655306816101074,-0.22098104655742645,0.0,0.0,0.0,0.0,0.0,0.0,0.0,-0.3454381901640489,0.14847452553176502,-0.23095059111806732,0.26077067063497966,-0.10973507062777757,-0.03386039974751782,-0.24290752527706777,1.6755228655421943,0.05206015363961376,0.029977421708012878,-2.7524002397436846,0.034248291072196776,2.7663655983925097,0.7691620551864193,1.6754973547542302,0.052104326824870026,0.029969505109285054,-2.752394845125968,0.0342448039870148,2.7663679543071322,0.7691630533470046,-0.0006633685714061188,-0.0009024575531906533,0.00024338947815211515,0.0005071106121577526,0.0002086076807179049,-0.000382136195038638,-0.0010022544870423005,0.0,0.0,0.0,0.0,0.0,0.0,0.0,-2.5510787964089232e-05,4.4173185256263237e-05,-7.916598727824437e-06,5.394617716536487e-06,-3.4870851819759907e-06,2.3559146224982896e-06,9.981605852971143e-07,0.0006633685714061188,0.0009024575531906533,-0.00024338947815211515,-0.0005071106121577526,-0.0002086076807179049,0.000382136195038638,0.0010022544870423005,0.3236324191093445,22.597497940063477,0.1491362750530243,-14.080232620239258,-0.12389141321182251,-2.1655306816101074,0.22098104655742645,0
25,0.11974406242370605,-0.3236324191093445,-22.597497940063477,-0.1491362750530243,14.080232620239258,0.12389141321182251,2.1655306816101074,-0.22098104655742645,0.0,0.0,0.0,0.0,0.0,0.0,0.0,-0.3454381901640489,0.14847452553176502,-0.23095059111806732,0.26077067063497966,-0.10973507062777757,-0.03386039974751782,-0.24290752527706777,1.6755228655421943,0.05206015363961376,0.029977421708012878,-2.7524002397436846,0.034248291072196776,2.7663655983925097,0.7691620551864193,1.6754973547542302,0.052104326824870026,0.029969505109285054,-2.752394845125968,0.0342448039870148,2.7663679543071322,0.7691630533470046,-0.0006633685714061188,-0.0009024575531906533,0.00024338947815211515,0.0005071106121577526,0.0002086076807179049,-0.000382136195038638,-0.0010022544870423005,0.0,0.0,0.0,0.0,0.0,0.0,0.0,-2.5510787964089232e-05,4.4173185256263237e-05,-7.916598727824437e-06,5.394617716536487e-06,-3.4870851819759907e-06,2.3559146224982896e-06,9.981605852971143e-07,0.0006633685714061188,0.0009024575531906533,-0.00024338947815211515,-0.0005071106121577526,-0.0002086076807179049,0.000382136195038638,0.0010022544870423005,0.3236324191093445,22.597497940063477,0.1491362750530243,-14.080232620239258,-0.12389141321182251,-2.1655306816101074,0.22098104655742645,0
26,0.12504196166992188,-0.3236324191093445,-22.597497940063477,-0.1491362750530243,14.080232620239258,0.12389141321182251,2.1655306816101074,-0.22098104655742645,0.0,0.0,0.0,0.0,0.0,0.0,0.0,-0.3454381901640489,0.14847452553176502,-0.23095059111806732,0.26077067063497966,-0.10973507062777757,-0.03386039974751782,-0.24290752527706777,1.6755228655421943,0.05206015363961376,0.029977421708012878,-2.7524002397436846,0.034248291072196776,2.7663655983925097,0.7691620551864193,1.6754973547542302,0.052104326824870026,0.029969505109285054,-2.752394845125968,0.0342448039870148,2.7663679543071322,0.7691630533470046,-0.0006633685714061188,-0.0009024575531906533,0.00024338947815211515,0.0005071106121577526,0.0002086076807179049,-0.000382136195038638,-0.0010022544870423005,0.0,0.0,0.0,0.0,0.0,0.0,0.0,-2.5510787964089232e-05,4.4173185256263237e-05,-7.916598727824437e-06,5.394617716536487e-06,-3.4870851819759907e-06,2.3559146224982896e-06,9.981605852971143e-07,0.0006633685714061188,0.0009024575531906533,-0.00024338947815211515,-0.0005071106121577526,-0.0002086076807179049,0.000382136195038638,0.0010022544870423005,0.3236324191093445,22.597497940063477,0.1491362750530243,-14.080232620239258,-0.12389141321182251,-2.1655306816101074,0.22098104655742645,0
27,0.12979960441589355,-0.3236324191093445,-22.621301651000977,-0.1729399859905243,14.131807327270508,0.12389141321182251,2.1517977714538574,-0.20724813640117645,0.0,0.0,0.0,0.0,0.0,0.0,0.0,-0.35763751437197017,0.14472752471620826,-0.24137079617717808,0.2676288745650266,-0.10816009714877342,-0.03121235148389894,-0.24029460044782686,1.6755228655421943,0.052059693101175586,0.029979092143868142,-2.752403859021371,0.0342514868718246,2.7663672420681378,0.7691562372926103,1.6754973547542302,0.052104326824870026,0.029969505109285054,-2.752394845125968,0.0342448039870148,2.7663679543071322,0.7691630533470046,-0.0013263536350579604,-0.00047497920853624615,-8.605494446395993e-06,0.0005023562803601903,0.0001155931073202144,2.2125881386988594e-05,-0.0013929042143685144,0.0,0.0,0.0,0.0,0.0,0.0,0.0,-2.5510787964089232e-05,4.4633723694439964e-05,-9.587034583088266e-06,9.013895402976146e-06,-6.682884809802725e-06,7.122389944491658e-07,6.816054394342963e-06,0.0013263536350579604,0.00047497920853624615,8.605494446395993e-06,-0.0005023562803601903,-0.0001155931073202144,-2.2125881386988594e-05,0.0013929042143685144,0.3236324191093445,22.621301651000977,0.1729399859905243,-14.131807327270508,-0.12389141321182251,-2.1517977714538574,0.20724813640117645,0
28,0.13478565216064453,-0.3236324191093445,-22.621301651000977,-0.1729399859905243,14.131807327270508,0.12389141321182251,2.1517977714538574,-0.20724813640117645,0.0,0.0,0.0,0.0,0.0,0.0,0.0,-0.35763751437197017,0.14472752471620826,-0.24137079617717808,0.2676288745650266,-0.10816009714877342,-0.03121235148389894,-0.24029460044782686,1.6755228655421943,0.052059693101175586,0.029979092143868142,-2.752403859021371,0.0342514868718246,2.7663672420681378,0.7691562372926103,1.6754973547542302,0.052104326824870026,0.029969505109285054,-2.752394845125968,0.0342448039870148,2.7663679543071322,0.7691630533470046,-0.0013263536350579604,-0.00047497920853624615,-8.605494446395993e-06,0.0005023562803601903,0.0001155931073202144,2.2125881386988594e-05,-0.0013929042143685144,0.0,0.0,0.0,0.0,0.0,0.0,0.0,-2.5510787964089232e-05,4.4633723694439964e-05,-9.587034583088266e-06,9.013895402976146e-06,-6.682884809802725e-06,7.122389944491658e-07,6.816054394342963e-06,0.0013263536350579604,0.00047497920853624615,8.605494446395993e-06,-0.0005023562803601903,-0.0001155931073202144,-2.2125881386988594e-05,0.0013929042143685144,0.3236324191093445,22.621301651000977,0.1729399859905243,-14.131807327270508,-0.12389141321182251,-2.1517977714538574,0.20724813640117645,0
29,0.13978290557861328,-0.3752071261405945,-22.696680068969727,-0.1729399859905243,14.155611038208008,0.12389141321182251,2.1517977714538574,-0.22098104655742645,0.0,0.0,0.0,0.0,0.0,0.0,0.0,-0.3559704469204361,0.14855247814902459,-0.2376003556432491,0.2637777807943292,-0.10834801792458608,-0.03228058421404436,-0.23962318487373632,1.6755264848198808,0.052067105008001685,0.029979092143868142,-2.752405529457226,0.0342471520827961,2.766367236254602,0.7691577636318048,1.6754973547542302,0.052104326824870026,0.029969505109285054,-2.752394845125968,0.0342448039870148,2.7663679543071322,0.7691630533470046,7.380614010499635e-05,0.0013804847940152773,0.0003533807124170709,-0.0002529609594176244,-8.765692320266228e-06,8.938505831243104e-05,-0.0005675236401456858,0.0,0.0,0.0,0.0,0.0,0.0,0.0,-2.913006565052889e-05,3.722181686834081e-05,-9.587034583088266e-06,1.0684331257948543e-05,-2.348095781298798e-06,7.18052530324087e-07,5.28971519986321e-06,-7.380614010499635e-05,-0.0013804847940152773,-0.0003533807124170709,0.0002529609594176244,8.765692320266228e-06,-8.938505831243104e-05,0.0005675236401456858,0.3752071261405945,22.696680068969727,0.1729399859905243,-14.155611038208008,-0.12389141321182251,-2.1517977714538574,0.22098104655742645,0
30,0.14478588104248047,-0.3752071261405945,-22.696680068969727,-0.1729399859905243,14.155611038208008,0.12389141321182251,2.1517977714538574,-0.22098104655742645,0.0,0.0,0.0,0.0,0.0,0.0,0.0,-0.3559704469204361,0.14855247814902459,-0.2376003556432491,0.2637777807943292,-0.10834801792458608,-0.03228058421404436,-0.23962318487373632,1.6755264848198808,0.052067105008001685,0.029979092143868142,-2.752405529457226,0.0342471520827961,2.766367236254602,0.7691577636318048,1.6754973547542302,0.052104326824870026,0.029969505109285054,-2.752394845125968,0.0342448039870148,2.7663679543071322,0.7691630533470046,7.380614010499635e-05,0.0013804847940152773,0.0003533807124170709,-0.0002529609594176244,-8.765692320266228e-06,8.938505831243104e-05,-0.0005675236401456858,0.0,0.0,0.0,0.0,0.0,0.0,0.0,-2.913006565052889e-05,3.722181686834081e-05,-9.587034583088266e-06,1.0684331257948543e-05,-2.348095781298798e-06,7.18052530324087e-07,5.28971519986321e-06,-7.380614010499635e-05,-0.0013804847940152773,-0.0003533807124170709,0.0002529609594176244,8.765692320266228e-06,-8.938505831243104e-05,0.0005675236401456858,0.3752071261405945,22.696680068969727,0.1729399859905243,-14.155611038208008,-0.12389141321182251,-2.1517977714538574,0.22098104655742645,0
31,0.14978313446044922,-0.3752071261405945,-22.649072647094727,-0.1491362750530243,14.131807327270508,0.1293845772743225,2.1582064628601074,-0.22830526530742645,0.0,0.0,0.0,0.0,0.0,0.0,0.0,-0.3543779491673503,0.14731853717016327,-0.23450783594613153,0.2656965923171089,-0.10899814449938422,-0.0324638106558033,-0.2389754865098329,1.6755264848198808,0.05206377291726709,0.02997742181627209,-2.752403859021371,0.03425088073594171,2.7663664109623327,0.7691585818490495,1.6754973547542302,0.052104326824870026,0.029969505109285054,-2.752394845125968,0.0342448039870148,2.7663679543071322,0.7691630533470046,0.0006511885869073099,-0.0004507045966512283,6.679267578073665e-05,0.0003303196728147397,-0.00010068443327820624,-0.000119656222419052,0.001146120891019443,0.0,0.0,0.0,0.0,0.0,0.0,0.0,-2.913006565052889e-05,4.055390760293598e-05,-7.91670698703506e-06,9.013895402976146e-06,-6.076748926907294e-06,1.5433447995150118e-06,4.471497955127468e-06,-0.0006511885869073099,0.0004507045966512283,-6.679267578073665e-05,-0.0003303196728147397,0.00010068443327820624,0.000119656222419052,-0.001146120891019443,0.3752071261405945,22.649072647094727,0.1491362750530243,-14.131807327270508,-0.1293845772743225,-2.1582064628601074,0.22830526530742645,0
32,0.1547856330871582,-0.3752071261405945,-22.649072647094727,-0.1491362750530243,14.131807327270508,0.1293845772743225,2.1582064628601074,-0.22830526530742645,0.0,0.0,0.0,0.0,0.0,0.0,0.0,-0.3543779491673503,0.14731853717016327,-0.23450783594613153,0.2656965923171089,-0.10899814449938422,-0.0324638106558033,-0.2389754865098329,1.6755264848198808,0.05206377291726709,0.02997742181627209,-2.752403859021371,0.03425088073594171,2.7663664109623327,0.7691585818490495,1.6754973547542302,0.052104326824870026,0.029969505109285054,-2.752394845125968,0.0342448039870148,2.7663679543071322,0.7691630533470046,0.0006511885869073099,-0.0004507045966512283,6.679267578073665e-05,0.0003303196728147397,-0.00010068443327820624,-0.000119656222419052,0.001146120891019443,0.0,0.0,0.0,0.0,0.0,0.0,0.0,-2.913006565052889e-05,4.055390760293598e-05,-7.91670698703506e-06,9.013895402976146e-06,-6.076748926907294e-06,1.5433447995150118e-06,4.471497955127468e-06,-0.0006511885869073099,0.0004507045966512283,-6.679267578073665e-05,-0.0003303196728147397,0.00010068443327820624,0.000119656222419052,-0.001146120891019443,0.3752071261405945,22.649072647094727,0.1491362750530243,-14.131807327270508,-0.1293845772743225,-2.1582064628601074,0.22830526530742645,0
33,0.15978336334228516,-0.2998287081718445,-22.672876358032227,-0.1491362750530243,14.131807327270508,0.1293845772743225,2.1517977714538574,-0.25485557317733765,0.0,0.0,0.0,0.0,0.0,0.0,0.0,-0.349172285744293,0.14867495561095465,-0.23076477467709766,0.26747861386324817,-0.10864633318237028,-0.03269373345734694,-0.2380624149415368,1.6755211951063391,0.05206544302839429,0.02997742170801349,-2.752403859021371,0.03424624699555537,2.7663640632614133,0.7691615276316477,1.6754973547542302,0.052104326824870026,0.029969505109285054,-2.752394845125968,0.0342448039870148,2.7663679543071322,0.7691630533470046,-0.0001320164088475992,0.0009335261225495692,0.0002716485809862306,0.0006155868384552517,-2.4390383847463853e-05,0.0002045438789182169,0.00010899949518919529,0.0,0.0,0.0,0.0,0.0,0.0,0.0,-2.384035210889479e-05,3.888379647573603e-05,-7.91659872843506e-06,9.013895402976146e-06,-1.4430085405678361e-06,3.8910457189622605e-06,1.5257153569425697e-06,0.0001320164088475992,-0.0009335261225495692,-0.0002716485809862306,-0.0006155868384552517,2.4390383847463853e-05,-0.0002045438789182169,-0.00010899949518919529,0.2998287081718445,22.672876358032227,0.1491362750530243,-14.131807327270508,-0.1293845772743225,-2.1517977714538574,0.25485557317733765,0
34,0.16602826118469238,-0.2998287081718445,-22.672876358032227,-0.1491362750530243,14.131807327270508,0.1293845772743225,2.1517977714538574,-0.25485557317733765,0.0,0.0,0.0,0.0,0.0,0.0,0.0,-0.349172285744293,0.14867495561095465,-0.23076477467709766,0.26747861386324817,-0.10864633318237028,-0.03269373345734694,-0.2380624149415368,1.6755211951063391,0.05206544302839429,0.02997742170801349,-2.752403859021371,0.03424624699555537,2.7663640632614133,0.7691615276316477,1.6754973547542302,0.052104326824870026,0.029969505109285054,-2.752394845125968,0.0342448039870148,2.7663679543071322,0.7691630533470046,-0.0001320164088475992,0.0009335261225495692,0.0002716485809862306,0.0006155868384552517,-2.4390383847463853e-05,0.0002045438789182169,0.00010899949518919529,0.0,0.0,0.0,0.0,0.0,0.0,0.0,-2.384035210889479e-05,3.888379647573603e-05,-7.91659872843506e-06,9.013895402976146e-06,-1.4430085405678361e-06,3.8910457189622605e-06,1.5257153569425697e-06,0.0001320164088475992,-0.0009335261225495692,-0.0002716485809862306,-0.0006155868384552517,2.4390383847463853e-05,-0.0002045438789182169,-0.00010899949518919529,0.2998287081718445,22.672876358032227,0.1491362750530243,-14.131807327270508,-0.1293845772743225,-2.1517977714538574,0.25485557317733765,0
35,0.1697998046875,-0.24825400114059448,-22.621301651000977,-0.1491362750530243,14.155611038208008,0.12389141321182251,2.1517977714538574,-0.21457235515117645,0.0,0.0,0.0,0.0,0.0,0.0,0.0,-0.3458746351753596,0.14911904593444195,-0.2352013251273588,0.26737462968147563,-0.10719552558006072,-0.03270410570331892,-0.23925443100029745,1.6755175758286527,0.05206182310115079,0.029977421708012878,-2.752405529457226,0.034251137998423636,2.766364063297976,0.7691570515549853,1.6754973547542302,0.052104326824870026,0.029969505109285054,-2.752394845125968,0.0342448039870148,2.7663679543071322,0.7691630533470046,-0.0015523515862619008,-0.0005373017176145342,0.00044424578826741213,-0.0006763260347203555,-2.666230799108151e-06,4.8443068244896445e-05,-0.0009304639926440495,0.0,0.0,0.0,0.0,0.0,0.0,0.0,-2.0221074422455132e-05,4.250372371923661e-05,-7.916598727824437e-06,1.0684331257948543e-05,-6.334011408835882e-06,3.891009156209435e-06,6.001792019372232e-06,0.0015523515862619008,0.0005373017176145342,-0.00044424578826741213,0.0006763260347203555,2.666230799108151e-06,-4.8443068244896445e-05,0.0009304639926440495,0.24825400114059448,22.621301651000977,0.1491362750530243,-14.155611038208008,-0.12389141321182251,-2.1517977714538574,0.21457235515117645,0
36,0.1747894287109375,-0.24825400114059448,-22.621301651000977,-0.1491362750530243,14.155611038208008,0.12389141321182251,2.1517977714538574,-0.21457235515117645,0.0,0.0,0.0,0.0,0.0,0.0,0.0,-0.3458746351753596,0.14911904593444195,-0.2352013251273588,0.26737462968147563,-0.10719552558006072,-0.03270410570331892,-0.23925443100029745,1.6755175758286527,0.05206182310115079,0.029977421708012878,-2.752405529457226,0.034251137998423636,2.766364063297976,0.7691570515549853,1.6754973547542302,0.052104326824870026,0.029969505109285054,-2.752394845125968,0.0342448039870148,2.7663679543071322,0.7691630533470046,-0.0015523515862619008,-0.0005373017176145342,0.00044424578826741213,-0.0006763260347203555,-2.666230799108151e-06,4.8443068244896445e-05,-0.0009304639926440495,0.0,0.0,0.0,0.0,0.0,0.0,0.0,-2.0221074422455132e-05,4.250372371923661e-05,-7.916598727824437e-06,1.0684331257948543e-05,-6.334011408835882e-06,3.891009156209435e-06,6.001792019372232e-06,0.0015523515862619008,0.0005373017176145342,-0.00044424578826741213,0.0006763260347203555,2.666230799108151e-06,-4.8443068244896445e-05,0.0009304639926440495,0.24825400114059448,22.621301651000977,0.1491362750530243,-14.155611038208008,-0.12389141321182251,-2.1517977714538574,0.21457235515117645,0
37,0.17979192733764648,-0.3514034152030945,-22.672876358032227,-0.1491362750530243,14.155611038208008,0.12389141321182251,2.1453890800476074,-0.22830526530742645,0.0,0.0,0.0,0.0,0.0,0.0,0.0,-0.3356781496295295,0.14744195777799718,-0.23048246500473538,0.27152795510065836,-0.10741938957951193,-0.03128318365992622,-0.23895056319877145,1.6755248143840253,0.05206544335316642,0.029977421708012878,-2.752405529457226,0.034248277381195756,2.7663668552436955,0.7691585774338906,1.6754973547542302,0.052104326824870026,0.029969505109285054,-2.752394845125968,0.0342448039870148,2.7663679543071322,0.7691630533470046,0.0007800397218635157,0.0007141670660251337,0.0004784890962414109,-0.0005423581152738117,1.7768382931680614e-05,0.000499276657916371,-0.0058673988961576795,0.0,0.0,0.0,0.0,0.0,0.0,0.0,-2.7459629795112406e-05,3.8883471703603234e-05,-7.916598727824437e-06,1.0684331257948543e-05,-3.4733941809556024e-06,1.0990634367047392e-06,4.475913114032615e-06,-0.0007800397218635157,-0.0007141670660251337,-0.0004784890962414109,0.0005423581152738117,-1.7768382931680614e-05,-0.000499276657916371,0.0058673988961576795,0.3514034152030945,22.672876358032227,0.1491362750530243,-14.155611038208008,-0.12389141321182251,-2.1453890800476074,0.22830526530742645,0
38,0.18479347229003906,-0.3514034152030945,-22.672876358032227,-0.1491362750530243,14.155611038208008,0.12389141321182251,2.1453890800476074,-0.22830526530742645,0.0,0.0,0.0,0.0,0.0,0.0,0.0,-0.3356781496295295,0.14744195777799718,-0.23048246500473538,0.27152795510065836,-0.10741938957951193,-0.03128318365992622,-0.23895056319877145,1.6755248143840253,0.05206544335316642,0.029977421708012878,-2.752405529457226,0.034248277381195756,2.7663668552436955,0.7691585774338906,1.6754973547542302,0.052104326824870026,0.029969505109285054,-2.752394845125968,0.0342448039870148,2.7663679543071322,0.7691630533470046,0.0007800397218635157,0.0007141670660251337,0.0004784890962414109,-0.0005423581152738117,1.7768382931680614e-05,0.000499276657916371,-0.0058673988961576795,0.0,0.0,0.0,0.0,0.0,0.0,0.0,-2.7459629795112406e-05,3.8883471703603234e-05,-7.916598727824437e-06,1.0684331257948543e-05,-3.4733941809556024e-06,1.0990634367047392e-06,4.475913114032615e-06,-0.0007800397218635157,-0.0007141670660251337,-0.0004784890962414109,0.0005423581152738117,-1.7768382931680614e-05,-0.000499276657916371,0.0058673988961576795,0.3514034152030945,22.672876358032227,0.1491362750530243,-14.155611038208008,-0.12389141321182251,-2.1453890800476074,0.22830526530742645,0
39,0.18979263305664062,-0.3514034152030945,-22.696680068969727,-0.1729399859905243,14.155611038208008,0.12389141321182251,2.1582064628601074,-0.20724813640117645,0.0,0.0,0.0,0.0,0.0,0.0,0.0,-0.33794081216942495,0.14846970020111508,-0.23288097952063921,0.26893665256058363,-0.10795272536572935,-0.031254894378425616,-0.24122416375458197,1.6755248143840253,0.05206711378902719,0.029979092143868142,-2.752405529457226,0.03424832305043454,2.7663660533828014,0.7691562377529011,1.6754973547542302,0.052104326824870026,0.029969505109285054,-2.752394845125968,0.0342448039870148,2.7663679543071322,0.7691630533470046,-0.000490249401120619,0.0012179356276184527,0.0004220681620554787,-0.0006020455169518104,-6.150894914390591e-05,-0.0002629030849961696,0.0023999125973159594,0.0,0.0,0.0,0.0,0.0,0.0,0.0,-2.7459629795112406e-05,3.721303584283686e-05,-9.587034583088266e-06,1.0684331257948543e-05,-3.519063419742119e-06,1.9009243308332202e-06,6.815594103537492e-06,0.000490249401120619,-0.0012179356276184527,-0.0004220681620554787,0.0006020455169518104,6.150894914390591e-05,0.0002629030849961696,-0.0023999125973159594,0.3514034152030945,22.696680068969727,0.1729399859905243,-14.155611038208008,-0.12389141321182251,-2.1582064628601074,0.20724813640117645,0
40,0.19558095932006836,-0.3514034152030945,-22.696680068969727,-0.1729399859905243,14.155611038208008,0.12389141321182251,2.1582064628601074,-0.20724813640117645,0.0,0.0,0.0,0.0,0.0,0.0,0.0,-0.33794081216942495,0.14846970020111508,-0.23288097952063921,0.26893665256058363,-0.10795272536572935,-0.031254894378425616,-0.24122416375458197,1.6755248143840253,0.05206711378902719,0.029979092143868142,-2.752405529457226,0.03424832305043454,2.7663660533828014,0.7691562377529011,1.6754973547542302,0.052104326824870026,0.029969505109285054,-2.752394845125968,0.0342448039870148,2.7663679543071322,0.7691630533470046,-0.000490249401120619,0.0012179356276184527,0.0004220681620554787,-0.0006020455169518104,-6.150894914390591e-05,-0.0002629030849961696,0.0023999125973159594,0.0,0.0,0.0,0.0,0.0,0.0,0.0,-2.7459629795112406e-05,3.721303584283686e-05,-9.587034583088266e-06,1.0684331257948543e-05,-3.519063419742119e-06,1.9009243308332202e-06,6.815594103537492e-06,0.000490249401120619,-0.0012179356276184527,-0.0004220681620554787,0.0006020455169518104,6.150894914390591e-05,0.0002629030849961696,-0.0023999125973159594,0.3514034152030945,22.696680068969727,0.1729399859905243,-14.155611038208008,-0.12389141321182251,-2.1582064628601074,0.20724813640117645,0
41,0.19978737831115723,-0.4505855441093445,-22.696680068969727,-0.1729399859905243,14.131807327270508,0.12389141321182251,2.1453890800476074,-0.27591270208358765,0.0,0.0,0.0,0.0,0.0,0.0,0.0,-0.34492618503067773,0.1464113350232529,-0.23581767865635428,0.2681364100644749,-0.10850194714578582,-0.03124799297237263,-0.23944406699058646,1.6755317745334224,0.05206711086602849,0.029979092143868142,-2.752403859021371,0.0342514122754445,2.7663675967328745,0.7691638656955377,1.6754973547542302,0.052104326824870026,0.029969505109285054,-2.752394845125968,0.0342448039870148,2.7663679543071322,0.7691630533470046,0.0014948567988748924,0.000758683495792822,-9.340307763508334e-05,-0.00017249753860927754,9.833901666115548e-05,0.000190715769459438,0.0017617853565817534,0.0,0.0,0.0,0.0,0.0,0.0,0.0,-3.441977919216299e-05,3.7215958841534114e-05,-9.587034583088266e-06,9.013895402976146e-06,-6.608288429701958e-06,3.5757425775884144e-07,-8.12348533107965e-07,-0.0014948567988748924,-0.000758683495792822,9.340307763508334e-05,0.00017249753860927754,-9.833901666115548e-05,-0.000190715769459438,-0.0017617853565817534,0.4505855441093445,22.696680068969727,0.1729399859905243,-14.131807327270508,-0.12389141321182251,-2.1453890800476074,0.27591270208358765,0
42,0.2047863006591797,-0.4505855441093445,-22.696680068969727,-0.1729399859905243,14.131807327270508,0.12389141321182251,2.1453890800476074,-0.27591270208358765,0.0,0.0,0.0,0.0,0.0,0.0,0.0,-0.34492618503067773,0.1464113350232529,-0.23581767865635428,0.2681364100644749,-0.10850194714578582,-0.03124799297237263,-0.23944406699058646,1.6755317745334224,0.05206711086602849,0.029979092143868142,-2.752403859021371,0.0342514122754445,2.7663675967328745,0.7691638656955377,1.6754973547542302,0.052104326824870026,0.029969505109285054,-2.752394845125968,0.0342448039870148,2.7663679543071322,0.7691630533470046,0.0014948567988748924,0.000758683495792822,-9.340307763508334e-05,-0.00017249753860927754,9.833901666115548e-05,0.000190715769459438,0.0017617853565817534,0.0,0.0,0.0,0.0,0.0,0.0,0.0,-3.441977919216299e-05,3.7215958841534114e-05,-9.587034583088266e-06,9.013895402976146e-06,-6.608288429701958e-06,3.5757425775884144e-07,-8.12348533107965e-07,-0.0014948567988748924,-0.000758683495792822,9.340307763508334e-05,0.00017249753860927754,-9.833901666115548e-05,-0.000190715769459438,-0.0017617853565817534,0.4505855441093445,22.696680068969727,0.1729399859905243,-14.131807327270508,-0.12389141321182251,-2.1453890800476074,0.27591270208358765,0
43,0.20978760719299316,-0.4029781222343445,-22.621301651000977,-0.1491362750530243,14.155611038208008,0.1293845772743225,2.1655306816101074,-0.26217979192733765,0.0,0.0,0.0,0.0,0.0,0.0,0.0,-0.3492349853532063,0.1462398474336051,-0.23414140090509955,0.2666408054058317,-0.10874541442806615,-0.03174782768492263,-0.2391310380634576,1.6755284336617118,0.052061824075469026,0.029977421708012878,-2.752405529457226,0.03424771239179098,2.766365323890818,0.7691623412701736,1.6754973547542302,0.052104326824870026,0.029969505109285054,-2.752394845125968,0.0342448039870148,2.7663679543071322,0.7691630533470046,0.0006323394548793637,-0.0006903736457482682,-0.0003827012897618836,-0.00046223705839080543,-0.0002050975470679179,-0.0005775901245239429,0.00011940180203865598,0.0,0.0,0.0,0.0,0.0,0.0,0.0,-3.1078907481552065e-05,4.250274940099941e-05,-7.916598727824437e-06,1.0684331257948543e-05,-2.9084047761807064e-06,2.630416314097772e-06,7.120768310553416e-07,-0.0006323394548793637,0.0006903736457482682,0.0003827012897618836,0.00046223705839080543,0.0002050975470679179,0.0005775901245239429,-0.00011940180203865598,0.4029781222343445,22.621301651000977,0.1491362750530243,-14.155611038208008,-0.1293845772743225,-2.1655306816101074,0.26217979192733765,0
44,0.2155752182006836,-0.4029781222343445,-22.621301651000977,-0.1491362750530243,14.155611038208008,0.1293845772743225,2.1655306816101074,-0.26217979192733765,0.0,0.0,0.0,0.0,0.0,0.0,0.0,-0.3492349853532063,0.1462398474336051,-0.23414140090509955,0.2666408054058317,-0.10874541442806615,-0.03174782768492263,-0.2391310380634576,1.6755284336617118,0.052061824075469026,0.029977421708012878,-2.752405529457226,0.03424771239179098,2.766365323890818,0.7691623412701736,1.6754973547542302,0.052104326824870026,0.029969505109285054,-2.752394845125968,0.0342448039870148,2.7663679543071322,0.7691630533470046,0.0006323394548793637,-0.0006903736457482682,-0.0003827012897618836,-0.00046223705839080543,-0.0002050975470679179,-0.0005775901245239429,0.00011940180203865598,0.0,0.0,0.0,0.0,0.0,0.0,0.0,-3.1078907481552065e-05,4.250274940099941e-05,-7.916598727824437e-06,1.0684331257948543e-05,-2.9084047761807064e-06,2.630416314097772e-06,7.120768310553416e-07,-0.0006323394548793637,0.0006903736457482682,0.0003827012897618836,0.00046223705839080543,0.0002050975470679179,0.0005775901245239429,-0.00011940180203865598,0.4029781222343445,22.621301651000977,0.1491362750530243,-14.155611038208008,-0.1293845772743225,-2.1655306816101074,0.26217979192733765,0
45,0.2197866439819336,-0.3752071261405945,-22.649072647094727,-0.1253325641155243,14.131807327270508,0.12389141321182251,2.1517977714538574,-0.24844686686992645,0.0,0.0,0.0,0.0,0.0,0.0,0.0,-0.35488782031185495,0.11614703480167297,-0.23672740770725773,0.3169909550827459,-0.10781884439461782,-0.023847400068825006,-0.24197813979474644,1.6755264848198808,0.052063772592539026,0.029975751272157614,-2.7524038681787375,0.03424726649492056,2.766366143344108,0.7691608153896198,1.6754973547542302,0.052104326824870026,0.029969505109285054,-2.752394845125968,0.0342448039870148,2.7663679543071322,0.7691630533470046,0.0008133624804790104,-0.00020112913484195456,-0.0005522058986123174,-0.001595193043511854,4.041424391481774e-06,0.000349423185774185,0.00015634122478221652,0.0,0.0,0.0,0.0,0.0,0.0,0.0,-2.913006565052889e-05,4.055423233099986e-05,-6.246162872560607e-06,9.023052769396855e-06,-2.4625079057608024e-06,1.8109630244289576e-06,2.2379573848541057e-06,-0.0008133624804790104,0.00020112913484195456,0.0005522058986123174,0.001595193043511854,-4.041424391481774e-06,-0.000349423185774185,-0.00015634122478221652,0.3752071261405945,22.649072647094727,0.1253325641155243,-14.131807327270508,-0.12389141321182251,-2.1517977714538574,0.24844686686992645,0
46,0.22478890419006348,-0.3752071261405945,-22.649072647094727,-0.1253325641155243,14.131807327270508,0.12389141321182251,2.1517977714538574,-0.24844686686992645,0.0,0.0,0.0,0.0,0.0,0.0,0.0,-0.35488782031185495,0.11614703480167297,-0.23672740770725773,0.3169909550827459,-0.10781884439461782,-0.023847400068825006,-0.24197813979474644,1.6755264848198808,0.052063772592539026,0.029975751272157614,-2.7524038681787375,0.03424726649492056,2.766366143344108,0.7691608153896198,1.6754973547542302,0.052104326824870026,0.029969505109285054,-2.752394845125968,0.0342448039870148,2.7663679543071322,0.7691630533470046,0.0008133624804790104,-0.00020112913484195456,-0.0005522058986123174,-0.001595193043511854,4.041424391481774e-06,0.000349423185774185,0.00015634122478221652,0.0,0.0,0.0,0.0,0.0,0.0,0.0,-2.913006565052889e-05,4.055423233099986e-05,-6.246162872560607e-06,9.023052769396855e-06,-2.4625079057608024e-06,1.8109630244289576e-06,2.2379573848541057e-06,-0.0008133624804790104,0.00020112913484195456,0.0005522058986123174,0.001595193043511854,-4.041424391481774e-06,-0.000349423185774185,-0.00015634122478221652,0.3752071261405945,22.649072647094727,0.1253325641155243,-14.131807327270508,-0.12389141321182251,-2.1517977714538574,0.24844686686992645,0
47,0.22978639602661133,-0.3236324191093445,-22.597497940063477,-0.1253325641155243,14.155611038208008,0.1293845772743225,2.1517977714538574,-0.19351522624492645,0.0,0.0,0.0,0.0,0.0,0.0,0.0,-0.3535554452192738,0.1435533421372417,-0.23588778110136097,0.2715876746443391,-0.10826340873123369,-0.03040075184766388,-0.2417339738177836,1.6755228655421943,0.05206015363962843,0.029975751272157614,-2.7524055294572776,0.03424736453154289,2.7663630031870716,0.7691547118739949,1.6754973547542302,0.052104326824870026,0.029969505109285054,-2.752394845125968,0.0342448039870148,2.7663679543071322,0.7691630533470046,0.0005637588253662729,-0.001177218372722073,-0.00042488179145372114,-0.0008085729878937537,-8.300590795728264e-05,0.00011259153859410612,-0.002103120556262981,0.0,0.0,0.0,0.0,0.0,0.0,0.0,-2.5510787964089232e-05,4.4173185241594415e-05,-6.246162872560607e-06,1.0684331309462891e-05,-2.56054452808796e-06,4.951120060603387e-06,8.341473009765288e-06,-0.0005637588253662729,0.001177218372722073,0.00042488179145372114,0.0008085729878937537,8.300590795728264e-05,-0.00011259153859410612,0.002103120556262981,0.3236324191093445,22.597497940063477,0.1253325641155243,-14.155611038208008,-0.1293845772743225,-2.1517977714538574,0.19351522624492645,0
48,0.23480749130249023,-0.3236324191093445,-22.597497940063477,-0.1253325641155243,14.155611038208008,0.1293845772743225,2.1517977714538574,-0.19351522624492645,0.0,0.0,0.0,0.0,0.0,0.0,0.0,-0.3535554452192738,0.1435533421372417,-0.23588778110136097,0.2715876746443391,-0.10826340873123369,-0.03040075184766388,-0.2417339738177836,1.6755228655421943,0.05206015363962843,0.029975751272157614,-2.7524055294572776,0.03424736453154289,2.7663630031870716,0.7691547118739949,1.6754973547542302,0.052104326824870026,0.029969505109285054,-2.752394845125968,0.0342448039870148,2.7663679543071322,0.7691630533470046,0.0005637588253662729,-0.001177218372722073,-0.00042488179145372114,-0.0008085729878937537,-8.300590795728264e-05,0.00011259153859410612,-0.002103120556262981,0.0,0.0,0.0,0.0,0.0,0.0,0.0,-2.5510787964089232e-05,4.4173185241594415e-05,-6.246162872560607e-06,1.0684331309462891e-05,-2.56054452808796e-06,4.951120060603387e-06,8.341473009765288e-06,-0.0005637588253662729,0.001177218372722073,0.00042488179145372114,0.0008085729878937537,8.300590795728264e-05,-0.00011259153859410612,0.002103120556262981,0.3236324191093445,22.597497940063477,0.1253325641155243,-14.155611038208008,-0.1293845772743225,-2.1517977714538574,0.19351522624492645,0
49,0.24002623558044434,-0.3236324191093445,-22.597497940063477,-0.1253325641155243,14.155611038208008,0.1293845772743225,2.1517977714538574,-0.19351522624492645,0.0,0.0,0.0,0.0,0.0,0.0,0.0,-0.3535554452192738,0.1435533421372417,-0.23588778110136097,0.2715876746443391,-0.10826340873123369,-0.03040075184766388,-0.2417339738177836,1.6755228655421943,0.05206015363962843,0.029975751272157614,-2.7524055294572776,0.03424736453154289,2.7663630031870716,0.7691547118739949,1.6754973547542302,0.052104326824870026,0.029969505109285054,-2.752394845125968,0.0342448039870148,2.7663679543071322,0.7691630533470046,0.0005637588253662729,-0.001177218372722073,-0.00042488179145372114,-0.0008085729878937537,-8.300590795728264e-05,0.00011259153859410612,-0.002103120556262981,0.0,0.0,0.0,0.0,0.0,0.0,0.0,-2.5510787964089232e-05,4.4173185241594415e-05,-6.246162872560607e-06,1.0684331309462891e-05,-2.56054452808796e-06,4.951120060603387e-06,8.341473009765288e-06,-0.0005637588253662729,0.001177218372722073,0.00042488179145372114,0.0008085729878937537,8.300590795728264e-05,-0.00011259153859410612,0.002103120556262981,0.3236324191093445,22.597497940063477,0.1253325641155243,-14.155611038208008,-0.1293845772743225,-2.1517977714538574,0.19351522624492645,0
50,0.2447948455810547,-0.3236324191093445,-22.597497940063477,-0.1253325641155243,14.155611038208008,0.1293845772743225,2.1517977714538574,-0.19351522624492645,0.0,0.0,0.0,0.0,0.0,0.0,0.0,-0.3535554452192738,0.1435533421372417,-0.23588778110136097,0.2715876746443391,-0.10826340873123369,-0.03040075184766388,-0.2417339738177836,1.6755228655421943,0.05206015363962843,0.029975751272157614,-2.7524055294572776,0.03424736453154289,2.7663630031870716,0.7691547118739949,1.6754973547542302,0.052104326824870026,0.029969505109285054,-2.752394845125968,0.0342448039870148,2.7663679543071322,0.7691630533470046,0.0005637588253662729,-0.001177218372722073,-0.00042488179145372114,-0.0008085729878937537,-8.300590795728264e-05,0.00011259153859410612,-0.002103120556262981,0.0,0.0,0.0,0.0,0.0,0.0,0.0,-2.5510787964089232e-05,4.4173185241594415e-05,-6.246162872560607e-06,1.0684331309462891e-05,-2.56054452808796e-06,4.951120060603387e-06,8.341473009765288e-06,-0.0005637588253662729,0.001177218372722073,0.00042488179145372114,0.0008085729878937537,8.300590795728264e-05,-0.00011259153859410612,0.002103120556262981,0.3236324191093445,22.597497940063477,0.1253325641155243,-14.155611038208008,-0.1293845772743225,-2.1517977714538574,0.19351522624492645,0
51,0.24979114532470703,-0.3236324191093445,-22.672876358032227,-0.1253325641155243,14.131807327270508,0.1293845772743225,2.1453890800476074,-0.27591270208358765,0.0,0.0,0.0,0.0,0.0,0.0,0.0,-0.3479249241436962,0.15122328139747804,-0.23699293391757123,0.25837507266273746,-0.10798206140168165,-0.03258898369094654,-0.2422152129801217,1.6755228655421943,0.052065443353171925,0.029975751272157614,-2.752403859021371,0.034250764249021425,2.766363714293088,0.769163867149088,1.6754973547542302,0.052104326824870026,0.029969505109285054,-2.752394845125968,0.0342448039870148,2.7663679543071322,0.7691630533470046,0.00010829764875868327,0.0007342275219795306,-3.6333002261671433e-05,0.00039836082708768605,-0.0002799673695596096,0.00030728641452437455,0.001550596288587708,0.0,0.0,0.0,0.0,0.0,0.0,0.0,-2.5510787964089232e-05,3.888347169810069e-05,-6.246162872560607e-06,9.013895402976146e-06,-5.960262006624029e-06,4.240014044309959e-06,-8.138020833881043e-07,-0.00010829764875868327,-0.0007342275219795306,3.6333002261671433e-05,-0.00039836082708768605,0.0002799673695596096,-0.00030728641452437455,-0.001550596288587708,0.3236324191093445,22.672876358032227,0.1253325641155243,-14.131807327270508,-0.1293845772743225,-2.1453890800476074,0.27591270208358765,0
52,0.2547919750213623,-0.3236324191093445,-22.672876358032227,-0.1253325641155243,14.131807327270508,0.1293845772743225,2.1453890800476074,-0.27591270208358765,0.0,0.0,0.0,0.0,0.0,0.0,0.0,-0.3479249241436962,0.15122328139747804,-0.23699293391757123,0.25837507266273746,-0.10798206140168165,-0.03258898369094654,-0.2422152129801217,1.6755228655421943,0.052065443353171925,0.029975751272157614,-2.752403859021371,0.034250764249021425,2.766363714293088,0.769163867149088,1.6754973547542302,0.052104326824870026,0.029969505109285054,-2.752394845125968,0.0342448039870148,2.7663679543071322,0.7691630533470046,0.00010829764875868327,0.0007342275219795306,-3.6333002261671433e-05,0.00039836082708768605,-0.0002799673695596096,0.00030728641452437455,0.001550596288587708,0.0,0.0,0.0,0.0,0.0,0.0,0.0,-2.5510787964089232e-05,3.888347169810069e-05,-6.246162872560607e-06,9.013895402976146e-06,-5.960262006624029e-06,4.240014044309959e-06,-8.138020833881043e-07,-0.00010829764875868327,-0.0007342275219795306,3.6333002261671433e-05,-0.00039836082708768605,0.0002799673695596096,-0.00030728641452437455,-0.001550596288587708,0.3236324191093445,22.672876358032227,0.1253325641155243,-14.131807327270508,-0.1293845772743225,-2.1453890800476074,0.27591270208358765,0
53,0.25978851318359375,-0.3514034152030945,-22.597497940063477,-0.1253325641155243,14.131807327270508,0.11748272180557251,2.1517977714538574,-0.28232139348983765,0.0,0.0,0.0,0.0,0.0,0.0,0.0,-0.3421513402304436,0.1565991217457505,-0.23370692444213167,0.2566193325045499,-0.10820672061330112,-0.03406708466982356,-0.24230156068733855,1.6755248143840253,0.05206015363963026,0.029975751272157614,-2.752403859021371,0.03424887286418402,2.7663640221080628,0.769164579225911,1.6754973547542302,0.052104326824870026,0.029969505109285054,-2.752394845125968,0.0342448039870148,2.7663679543071322,0.7691630533470046,0.00047802032009963853,-0.0010822449865433962,5.5206053226432095e-06,0.0005022955163832717,0.00027393099006290354,0.00015219969876929001,0.0014569941014627732,0.0,0.0,0.0,0.0,0.0,0.0,0.0,-2.7459629795112406e-05,4.417318523976255e-05,-6.246162872560607e-06,9.013895402976146e-06,-4.068877169222107e-06,3.932199069467401e-06,-1.5258789063388178e-06,-0.00047802032009963853,0.0010822449865433962,-5.5206053226432095e-06,-0.0005022955163832717,-0.00027393099006290354,-0.00015219969876929001,-0.0014569941014627732,0.3514034152030945,22.597497940063477,0.1253325641155243,-14.131807327270508,-0.11748272180557251,-2.1517977714538574,0.28232139348983765,0
54,0.2647864818572998,-0.3514034152030945,-22.597497940063477,-0.1253325641155243,14.131807327270508,0.11748272180557251,2.1517977714538574,-0.28232139348983765,0.0,0.0,0.0,0.0,0.0,0.0,0.0,-0.3421513402304436,0.1565991217457505,-0.23370692444213167,0.2566193325045499,-0.10820672061330112,-0.03406708466982356,-0.24230156068733855,1.6755248143840253,0.05206015363963026,0.029975751272157614,-2.752403859021371,0.03424887286418402,2.7663640221080628,0.769164579225911,1.6754973547542302,0.052104326824870026,0.029969505109285054,-2.752394845125968,0.0342448039870148,2.7663679543071322,0.7691630533470046,0.00047802032009963853,-0.0010822449865433962,5.5206053226432095e-06,0.0005022955163832717,0.00027393099006290354,0.00015219969876929001,0.0014569941014627732,0.0,0.0,0.0,0.0,0.0,0.0,0.0,-2.7459629795112406e-05,4.417318523976255e-05,-6.246162872560607e-06,9.013895402976146e-06,-4.068877169222107e-06,3.932199069467401e-06,-1.5258789063388178e-06,-0.00047802032009963853,0.0010822449865433962,-5.5206053226432095e-06,-0.0005022955163832717,-0.00027393099006290354,-0.00015219969876929001,-0.0014569941014627732,0.3514034152030945,22.597497940063477,0.1253325641155243,-14.131807327270508,-0.11748272180557251,-2.1517977714538574,0.28232139348983765,0
55,0.2647864818572998,-0.3514034152030945,-22.597497940063477,-0.1253325641155243,14.131807327270508,0.11748272180557251,2.1517977714538574,-0.28232139348983765,0.0,0.0,0.0,0.0,0.0,0.0,0.0,-0.3421513402304436,0.1565991217457505,-0.23370692444213167,0.2566193325045499,-0.10820672061330112,-0.03406708466982356,-0.24230156068733855,1.6755248143840253,0.05206015363963026,0.029975751272157614,-2.752403859021371,0.03424887286418402,2.7663640221080628,0.769164579225911,1.6754973547542302,0.052104326824870026,0.029969505109285054,-2.752394845125968,0.0342448039870148,2.7663679543071322,0.7691630533470046,0.00047802032009963853,-0.0010822449865433962,5.5206053226432095e-06,0.0005022955163832717,0.00027393099006290354,0.00015219969876929001,0.0014569941014627732,0.0,0.0,0.0,0.0,0.0,0.0,0.0,-2.7459629795112406e-05,4.417318523976255e-05,-6.246162872560607e-06,9.013895402976146e-06,-4.068877169222107e-06,3.932199069467401e-06,-1.5258789063388178e-06,-0.00047802032009963853,0.0010822449865433962,-5.5206053226432095e-06,-0.0005022955163832717,-0.00027393099006290354,-0.00015219969876929001,-0.0014569941014627732,0.3514034152030945,22.597497940063477,0.1253325641155243,-14.131807327270508,-0.11748272180557251,-2.1517977714538574,0.28232139348983765,0
56,0.2747836112976074,-0.3236324191093445,-22.649072647094727,-0.1491362750530243,14.131807327270508,0.11748272180557251,2.1517977714538574,-0.21457235515117645,0.0,0.0,0.0,0.0,0.0,0.0,0.0,-0.3378622155065118,0.14857453649653976,-0.228639511101295,0.2617566122333029,-0.10831527845263411,-0.0327191117066966,-0.24351226405559387,1.6755228655421943,0.05206377291731666,0.029977421708012878,-2.752403859021371,0.03425219191106334,2.766364044347755,0.7691570515549844,1.6754973547542302,0.052104326824870026,0.029969505109285054,-2.752394845125968,0.0342448039870148,2.7663679543071322,0.7691630533470046,-0.00021174237737898102,-9.525554458387216e-05,6.891917879266489e-05,-0.00012471156620365946,0.0002791195238199823,2.4444442584856115e-05,-0.0016280328968539541,0.0,0.0,0.0,0.0,0.0,0.0,0.0,-2.5510787964089232e-05,4.055390755336452e-05,-7.916598727824437e-06,9.013895402976146e-06,-7.387924048536665e-06,3.909959377157435e-06,6.00179202026041e-06,0.00021174237737898102,9.525554458387216e-05,-6.891917879266489e-05,0.00012471156620365946,-0.0002791195238199823,-2.4444442584856115e-05,0.0016280328968539541,0.3236324191093445,22.649072647094727,0.1491362750530243,-14.131807327270508,-0.11748272180557251,-2.1517977714538574,0.21457235515117645,0
57,0.2797839641571045,-0.3236324191093445,-22.649072647094727,-0.1491362750530243,14.131807327270508,0.11748272180557251,2.1517977714538574,-0.21457235515117645,0.0,0.0,0.0,0.0,0.0,0.0,0.0,-0.3378622155065118,0.14857453649653976,-0.228639511101295,0.2617566122333029,-0.10831527845263411,-0.0327191117066966,-0.24351226405559387,1.6755228655421943,0.05206377291731666,0.029977421708012878,-2.752403859021371,0.03425219191106334,2.766364044347755,0.7691570515549844,1.6754973547542302,0.052104326824870026,0.029969505109285054,-2.752394845125968,0.0342448039870148,2.7663679543071322,0.7691630533470046,-0.00021174237737898102,-9.525554458387216e-05,6.891917879266489e-05,-0.00012471156620365946,0.0002791195238199823,2.4444442584856115e-05,-0.0016280328968539541,0.0,0.0,0.0,0.0,0.0,0.0,0.0,-2.5510787964089232e-05,4.055390755336452e-05,-7.916598727824437e-06,9.013895402976146e-06,-7.387924048536665e-06,3.909959377157435e-06,6.00179202026041e-06,0.00021174237737898102,9.525554458387216e-05,-6.891917879266489e-05,0.00012471156620365946,-0.0002791195238199823,-2.4444442584856115e-05,0.0016280328968539541,0.3236324191093445,22.649072647094727,0.1491362750530243,-14.131807327270508,-0.11748272180557251,-2.1517977714538574,0.21457235515117645,0
58,0.28478384017944336,-0.3236324191093445,-22.672876358032227,-0.1491362750530243,14.108003616333008,0.1293845772743225,2.1517977714538574,-0.22098104655742645,0.0,0.0,0.0,0.0,0.0,0.0,0.0,-0.33710706368129045,0.15038542404475333,-0.22882235652699603,0.26217682135768733,-0.107988942767336,-0.03243762722801219,-0.24420530129755658,1.6755228655421943,0.052065443353171925,0.029977421708012878,-2.7524021885855157,0.03424736498836416,2.7663672401126846,0.7691577636318073,1.6754973547542302,0.052104326824870026,0.029969505109285054,-2.752394845125968,0.0342448039870148,2.7663679543071322,0.7691630533470046,-0.0004674606047482805,0.0008232537088721817,7.691298583578376e-05,0.0010485978039227971,-5.768754418474963e-05,0.00022025693915768188,-0.000580912426524518,0.0,0.0,0.0,0.0,0.0,0.0,0.0,-2.5510787964089232e-05,3.888347169810069e-05,-7.916598727824437e-06,7.343459547559661e-06,-2.5610013493562733e-06,7.141944475819173e-07,5.289715197309697e-06,0.0004674606047482805,-0.0008232537088721817,-7.691298583578376e-05,-0.0010485978039227971,5.768754418474963e-05,-0.00022025693915768188,0.000580912426524518,0.3236324191093445,22.672876358032227,0.1491362750530243,-14.108003616333008,-0.1293845772743225,-2.1517977714538574,0.22098104655742645,0
59,0.28978681564331055,-0.3236324191093445,-22.672876358032227,-0.1491362750530243,14.108003616333008,0.1293845772743225,2.1517977714538574,-0.22098104655742645,0.0,0.0,0.0,0.0,0.0,0.0,0.0,-0.33710706368129045,0.15038542404475333,-0.22882235652699603,0.26217682135768733,-0.107988942767336,-0.03243762722801219,-0.24420530129755658,1.6755228655421943,0.052065443353171925,0.029977421708012878,-2.7524021885855157,0.03424736498836416,2.7663672401126846,0.7691577636318073,1.6754973547542302,0.052104326824870026,0.029969505109285054,-2.752394845125968,0.0342448039870148,2.7663679543071322,0.7691630533470046,-0.0004674606047482805,0.0008232537088721817,7.691298583578376e-05,0.0010485978039227971,-5.768754418474963e-05,0.00022025693915768188,-0.000580912426524518,0.0,0.0,0.0,0.0,0.0,0.0,0.0,-2.5510787964089232e-05,3.888347169810069e-05,-7.916598727824437e-06,7.343459547559661e-06,-2.5610013493562733e-06,7.141944475819173e-07,5.289715197309697e-06,0.0004674606047482805,-0.0008232537088721817,-7.691298583578376e-05,-0.0010485978039227971,5.768754418474963e-05,-0.00022025693915768188,0.000580912426524518,0.3236324191093445,22.672876358032227,0.1491362750530243,-14.108003616333008,-0.1293845772743225,-2.1517977714538574,0.22098104655742645,0
60,0.294785737991333,-0.3514034152030945,-22.672876358032227,-0.1491362750530243,14.131807327270508,0.1293845772743225,2.1582064628601074,-0.27591270208358765,0.0,0.0,0.0,0.0,0.0,0.0,0.0,-0.34213264264597587,0.15058909982375496,-0.23260151298816922,0.26527825563620705,-0.1076167758542148,-0.03225437160809392,-0.2434667310500567,1.6755248143840253,0.052065443353171925,0.029977421708012878,-2.752403859021371,0.03425043417134351,2.7663661767792593,0.769163867149088,1.6754973547542302,0.052104326824870026,0.029969505109285054,-2.752394845125968,0.0342448039870148,2.7663679543071322,0.7691630533470046,-0.000458854634368448,0.0008853569808149127,-0.0002625094920202216,0.0007296633497576658,-0.00018178402499860493,-0.0001868053346029996,0.0012895349058531325,0.0,0.0,0.0,0.0,0.0,0.0,0.0,-2.7459629795112406e-05,3.888347169810069e-05,-7.916598727824437e-06,9.013895402976146e-06,-5.6301843287115405e-06,1.777527872892648e-06,-8.138020833881043e-07,0.000458854634368448,-0.0008853569808149127,0.0002625094920202216,-0.0007296633497576658,0.00018178402499860493,0.0001868053346029996,-0.0012895349058531325,0.3514034152030945,22.672876358032227,0.1491362750530243,-14.131807327270508,-0.1293845772743225,-2.1582064628601074,0.27591270208358765,0
61,0.30057764053344727,-0.3514034152030945,-22.672876358032227,-0.1491362750530243,14.131807327270508,0.1293845772743225,2.1582064628601074,-0.27591270208358765,0.0,0.0,0.0,0.0,0.0,0.0,0.0,-0.34213264264597587,0.15058909982375496,-0.23260151298816922,0.26527825563620705,-0.1076167758542148,-0.03225437160809392,-0.2434667310500567,1.6755248143840253,0.052065443353171925,0.029977421708012878,-2.752403859021371,0.03425043417134351,2.7663661767792593,0.769163867149088,1.6754973547542302,0.052104326824870026,0.029969505109285054,-2.752394845125968,0.0342448039870148,2.7663679543071322,0.7691630533470046,-0.000458854634368448,0.0008853569808149127,-0.0002625094920202216,0.0007296633497576658,-0.00018178402499860493,-0.0001868053346029996,0.0012895349058531325,0.0,0.0,0.0,0.0,0.0,0.0,0.0,-2.7459629795112406e-05,3.888347169810069e-05,-7.916598727824437e-06,9.013895402976146e-06,-5.6301843287115405e-06,1.777527872892648e-06,-8.138020833881043e-07,0.000458854634368448,-0.0008853569808149127,0.0002625094920202216,-0.0007296633497576658,0.00018178402499860493,0.0001868053346029996,-0.0012895349058531325,0.3514034152030945,22.672876358032227,0.1491362750530243,-14.131807327270508,-0.1293845772743225,-2.1582064628601074,0.27591270208358765,0
62,0.3047928810119629,-0.4267818331718445,-22.672876358032227,-0.1729399859905243,14.179414749145508,0.11748272180557251,2.1453890800476074,-0.23471395671367645,0.0,0.0,0.0,0.0,0.0,0.0,0.0,-0.34828124971512214,0.15040419916628936,-0.23288036716053376,0.26512637511915144,-0.10795525187674801,-0.03270512089062072,-0.2441977069835333,1.6755301040975672,0.052065443353171925,0.029979092143868142,-2.7524071998930815,0.03425224475783709,2.7663675967317767,0.7691592895107136,1.6754973547542302,0.052104326824870026,0.029969505109285054,-2.752394845125968,0.0342448039870148,2.7663679543071322,0.7691630533470046,0.0012540686048341592,0.0007632646469225364,-3.1811055934714574e-05,-0.0011352405753488793,0.00031810668148534333,0.0005183230179552137,0.0003726357396068453,0.0,0.0,0.0,0.0,0.0,0.0,0.0,-3.274934333696855e-05,3.888347169810069e-05,-9.587034583088266e-06,1.2354767113365028e-05,-7.440770822292331e-06,3.575753555473682e-07,3.763836291081901e-06,-0.0012540686048341592,-0.0007632646469225364,3.1811055934714574e-05,0.0011352405753488793,-0.00031810668148534333,-0.0005183230179552137,-0.0003726357396068453,0.4267818331718445,22.672876358032227,0.1729399859905243,-14.179414749145508,-0.11748272180557251,-2.1453890800476074,0.23471395671367645,0
63,0.3097987174987793,-0.4267818331718445,-22.672876358032227,-0.1729399859905243,14.179414749145508,0.11748272180557251,2.1453890800476074,-0.23471395671367645,0.0,0.0,0.0,0.0,0.0,0.0,0.0,-0.34828124971512214,0.15040419916628936,-0.23288036716053376,0.26512637511915144,-0.10795525187674801,-0.03270512089062072,-0.2441977069835333,1.6755301040975672,0.052065443353171925,0.029979092143868142,-2.7524071998930815,0.03425224475783709,2.7663675967317767,0.7691592895107136,1.6754973547542302,0.052104326824870026,0.029969505109285054,-2.752394845125968,0.0342448039870148,2.7663679543071322,0.7691630533470046,0.0012540686048341592,0.0007632646469225364,-3.1811055934714574e-05,-0.0011352405753488793,0.00031810668148534333,0.0005183230179552137,0.0003726357396068453,0.0,0.0,0.0,0.0,0.0,0.0,0.0,-3.274934333696855e-05,3.888347169810069e-05,-9.587034583088266e-06,1.2354767113365028e-05,-7.440770822292331e-06,3.575753555473682e-07,3.763836291081901e-06,-0.0012540686048341592,-0.0007632646469225364,3.1811055934714574e-05,0.0011352405753488793,-0.00031810668148534333,-0.0005183230179552137,-0.0003726357396068453,0.4267818331718445,22.672876358032227,0.1729399859905243,-14.179414749145508,-0.11748272180557251,-2.1453890800476074,0.23471395671367645,0
64,0.3147926330566406,-0.3752071261405945,-22.649072647094727,-0.1491362750530243,14.131807327270508,0.1293845772743225,2.1453890800476074,-0.28232139348983765,0.0,0.0,0.0,0.0,0.0,0.0,0.0,-0.3560154238311402,0.1524473742229058,-0.23621269975145548,0.26407988915851444,-0.1085188952744111,-0.033220443377690465,-0.242325849855333,1.6755264848198808,0.05206377291731666,0.029977421708012878,-2.752403859021371,0.03425056258684909,2.766367836567544,0.769164579225911,1.6754973547542302,0.052104326824870026,0.029969505109285054,-2.752394845125968,0.0342448039870148,2.7663679543071322,0.7691630533470046,-0.0009183040163119759,-2.6716268080122672e-05,-0.00025462910150253785,-6.493108711212964e-05,-0.00018879796865483008,9.148320553305415e-05,0.001212464769899071,0.0,0.0,0.0,0.0,0.0,0.0,0.0,-2.913006565052889e-05,4.055390755336452e-05,-7.916598727824437e-06,9.013895402976146e-06,-5.758599834287947e-06,1.1773958830119113e-07,-1.5258789063388178e-06,0.0009183040163119759,2.6716268080122672e-05,0.00025462910150253785,6.493108711212964e-05,0.00018879796865483008,-9.148320553305415e-05,-0.001212464769899071,0.3752071261405945,22.649072647094727,0.1491362750530243,-14.131807327270508,-0.1293845772743225,-2.1453890800476074,0.28232139348983765,0
65,0.31978940963745117,-0.3752071261405945,-22.649072647094727,-0.1491362750530243,14.131807327270508,0.1293845772743225,2.1453890800476074,-0.28232139348983765,0.0,0.0,0.0,0.0,0.0,0.0,0.0,-0.3560154238311402,0.1524473742229058,-0.23621269975145548,0.26407988915851444,-0.1085188952744111,-0.033220443377690465,-0.242325849855333,1.6755264848198808,0.05206377291731666,0.029977421708012878,-2.752403859021371,0.03425056258684909,2.766367836567544,0.769164579225911,1.6754973547542302,0.052104326824870026,0.029969505109285054,-2.752394845125968,0.0342448039870148,2.7663679543071322,0.7691630533470046,-0.0009183040163119759,-2.6716268080122672e-05,-0.00025462910150253785,-6.493108711212964e-05,-0.00018879796865483008,9.148320553305415e-05,0.001212464769899071,0.0,0.0,0.0,0.0,0.0,0.0,0.0,-2.913006565052889e-05,4.055390755336452e-05,-7.916598727824437e-06,9.013895402976146e-06,-5.758599834287947e-06,1.1773958830119113e-07,-1.5258789063388178e-06,0.0009183040163119759,2.6716268080122672e-05,0.00025462910150253785,6.493108711212964e-05,0.00018879796865483008,-9.148320553305415e-05,-0.001212464769899071,0.3752071261405945,22.649072647094727,0.1491362750530243,-14.131807327270508,-0.1293845772743225,-2.1453890800476074,0.28232139348983765,0
66,0.3247835636138916,-0.3514034152030945,-22.649072647094727,-0.1491362750530243,14.131807327270508,0.12389141321182251,2.1582064628601074,-0.24112264811992645,0.0,0.0,0.0,0.0,0.0,0.0,0.0,-0.3537600852429493,0.15351214918774367,-0.23102578468858118,0.2652263304211144,-0.10918626888255056,-0.033502172161366,-0.2430033095104678,1.6755248143840253,0.05206377291731666,0.02997750062897772,-2.752403859021371,0.034247937230878905,2.7663653091174436,0.7691600015875365,1.6754973547542302,0.052104326824870026,0.029969505109285054,-2.752394845125968,0.0342448039870148,2.7663679543071322,0.7691630533470046,0.0001566813735880508,0.00047263035108746594,-0.0003746537781533023,0.00018027611429635525,5.202254830232361e-05,-0.00017665344933799073,-0.00027472669061455874,0.0,0.0,0.0,0.0,0.0,0.0,0.0,-2.7459629795112406e-05,4.055390755336452e-05,-7.995519692667596e-06,9.013895402976146e-06,-3.1332438641049065e-06,2.6451896886214854e-06,3.0517594681311877e-06,-0.0001566813735880508,-0.00047263035108746594,0.0003746537781533023,-0.00018027611429635525,-5.202254830232361e-05,0.00017665344933799073,0.00027472669061455874,0.3514034152030945,22.649072647094727,0.1491362750530243,-14.131807327270508,-0.12389141321182251,-2.1582064628601074,0.24112264811992645,0
67,0.3297877311706543,-0.3514034152030945,-22.649072647094727,-0.1491362750530243,14.131807327270508,0.12389141321182251,2.1582064628601074,-0.24112264811992645,0.0,0.0,0.0,0.0,0.0,0.0,0.0,-0.3537600852429493,0.15351214918774367,-0.23102578468858118,0.2652263304211144,-0.10918626888255056,-0.033502172161366,-0.2430033095104678,1.6755248143840253,0.05206377291731666,0.02997750062897772,-2.752403859021371,0.034247937230878905,2.7663653091174436,0.7691600015875365,1.6754973547542302,0.052104326824870026,0.029969505109285054,-2.752394845125968,0.0342448039870148,2.7663679543071322,0.7691630533470046,0.0001566813735880508,0.00047263035108746594,-0.0003746537781533023,0.00018027611429635525,5.202254830232361e-05,-0.00017665344933799073,-0.00027472669061455874,0.0,0.0,0.0,0.0,0.0,0.0,0.0,-2.7459629795112406e-05,4.055390755336452e-05,-7.995519692667596e-06,9.013895402976146e-06,-3.1332438641049065e-06,2.6451896886214854e-06,3.0517594681311877e-06,-0.0001566813735880508,-0.00047263035108746594,0.0003746537781533023,-0.00018027611429635525,-5.202254830232361e-05,0.00017665344933799073,0.00027472669061455874,0.3514034152030945,22.649072647094727,0.1491362750530243,-14.131807327270508,-0.12389141321182251,-2.1582064628601074,0.24112264811992645,0
68,0.3347809314727783,-0.2998287081718445,-22.597497940063477,-0.09756157547235489,14.131807327270508,0.1357932686805725,2.1453890800476074,-0.26858848333358765,0.0,0.0,0.0,0.0,0.0,0.0,0.0,-0.3524507281892186,0.15208228992245224,-0.2319685116740751,0.2641099306284969,-0.10886319100820437,-0.03372331109320641,-0.2427695261650705,1.6755211951063391,0.05205802277357954,0.029973802430865823,-2.752403859021371,0.03424687592506258,2.766367941224925,0.7691630533470046,1.6754973547542302,0.052104326824870026,0.029969505109285054,-2.752394845125968,0.0342448039870148,2.7663679543071322,0.7691630533470046,-0.0003090255004062426,-0.0012117806630788487,-0.0009803614119946616,-0.00015913661101237057,-0.0005325262610139205,0.0002824845413224145,0.0009536942280607213,0.0,0.0,0.0,0.0,0.0,0.0,0.0,-2.384035210889479e-05,4.630405129048276e-05,-4.297321580769287e-06,9.013895402976146e-06,-2.071938047777666e-06,1.3082207317438588e-08,0.0,0.0003090255004062426,0.0012117806630788487,0.0009803614119946616,0.00015913661101237057,0.0005325262610139205,-0.0002824845413224145,-0.0009536942280607213,0.2998287081718445,22.597497940063477,0.09756157547235489,-14.131807327270508,-0.1357932686805725,-2.1453890800476074,0.26858848333358765,0
69,0.33980512619018555,-0.2998287081718445,-22.597497940063477,-0.09756157547235489,14.131807327270508,0.1357932686805725,2.1453890800476074,-0.26858848333358765,0.0,0.0,0.0,0.0,0.0,0.0,0.0,-0.3524507281892186,0.15208228992245224,-0.2319685116740751,0.2641099306284969,-0.10886319100820437,-0.03372331109320641,-0.2427695261650705,1.6755211951063391,0.05205802277357954,0.029973802430865823,-2.752403859021371,0.03424687592506258,2.766367941224925,0.7691630533470046,1.6754973547542302,0.052104326824870026,0.029969505109285054,-2.752394845125968,0.0342448039870148,2.7663679543071322,0.7691630533470046,-0.0003090255004062426,-0.0012117806630788487,-0.0009803614119946616,-0.00015913661101237057,-0.0005325262610139205,0.0002824845413224145,0.0009536942280607213,0.0,0.0,0.0,0.0,0.0,0.0,0.0,-2.384035210889479e-05,4.630405129048276e-05,-4.297321580769287e-06,9.013895402976146e-06,-2.071938047777666e-06,1.3082207317438588e-08,0.0,0.0003090255004062426,0.0012117806630788487,0.0009803614119946616,0.00015913661101237057,0.0005325262610139205,-0.0002824845413224145,-0.0009536942280607213,0.2998287081718445,22.597497940063477,0.09756157547235489,-14.131807327270508,-0.1357932686805725,-2.1453890800476074,0.26858848333358765,0
70,0.3448057174682617,-0.2998287081718445,-22.649072647094727,-0.1253325641155243,14.155611038208008,0.11748272180557251,2.1453890800476074,-0.22830526530742645,0.0,0.0,0.0,0.0,0.0,0.0,0.0,-0.345795678240487,0.1468428016464293,-0.23009531935520225,0.26889441881962545,-0.10831253942228057,-0.03288310906666551,-0.24336310267836136,1.6755211951063391,0.05206377290528786,0.029975751272157614,-2.752405529457226,0.034247468074731675,2.7663679499464076,0.7691585774338906,1.6754973547542302,0.052104326824870026,0.029969505109285054,-2.752394845125968,0.0342448039870148,2.7663679543071322,0.7691630533470046,-0.0002654500047150031,-9.736132214831915e-05,0.0004176038231688419,-0.00018490718710129122,4.2554111317423696e-05,0.00025951329487894223,-0.0009182350596114045,0.0,0.0,0.0,0.0,0.0,0.0,0.0,-2.384035210889479e-05,4.055391958216609e-05,-6.246162872560607e-06,1.0684331257948543e-05,-2.6640877168748744e-06,4.360724670249283e-09,4.475913114032615e-06,0.0002654500047150031,9.736132214831915e-05,-0.0004176038231688419,0.00018490718710129122,-4.2554111317423696e-05,-0.00025951329487894223,0.0009182350596114045,0.2998287081718445,22.649072647094727,0.1253325641155243,-14.155611038208008,-0.11748272180557251,-2.1453890800476074,0.22830526530742645,0
71,0.34981608390808105,-0.2998287081718445,-22.649072647094727,-0.1253325641155243,14.155611038208008,0.11748272180557251,2.1453890800476074,-0.22830526530742645,0.0,0.0,0.0,0.0,0.0,0.0,0.0,-0.345795678240487,0.1468428016464293,-0.23009531935520225,0.26889441881962545,-0.10831253942228057,-0.03288310906666551,-0.24336310267836136,1.6755211951063391,0.05206377290528786,0.029975751272157614,-2.752405529457226,0.034247468074731675,2.7663679499464076,0.7691585774338906,1.6754973547542302,0.052104326824870026,0.029969505109285054,-2.752394845125968,0.0342448039870148,2.7663679543071322,0.7691630533470046,-0.0002654500047150031,-9.736132214831915e-05,0.0004176038231688419,-0.00018490718710129122,4.2554111317423696e-05,0.00025951329487894223,-0.0009182350596114045,0.0,0.0,0.0,0.0,0.0,0.0,0.0,-2.384035210889479e-05,4.055391958216609e-05,-6.246162872560607e-06,1.0684331257948543e-05,-2.6640877168748744e-06,4.360724670249283e-09,4.475913114032615e-06,0.0002654500047150031,9.736132214831915e-05,-0.0004176038231688419,0.00018490718710129122,-4.2554111317423696e-05,-0.00025951329487894223,0.0009182350596114045,0.2998287081718445,22.649072647094727,0.1253325641155243,-14.155611038208008,-0.11748272180557251,-2.1453890800476074,0.22830526530742645,0
72,0.3547995090484619,-0.3236324191093445,-22.621301651000977,-0.1491362750530243,14.155611038208008,0.11748272180557251,2.1582064628601074,-0.24844686686992645,0.0,0.0,0.0,0.0,0.0,0.0,0.0,-0.3401901586324386,0.14988767754239066,-0.2264250021911053,0.26946586036680303,-0.10846410340720479,-0.03324288970264501,-0.2434393886887875,1.6755228655421943,0.05206182407548546,0.029977421708012878,-2.7524055294195415,0.03424794142998977,2.766365424970758,0.7691608153896198,1.6754973547542302,0.052104326824870026,0.029969505109285054,-2.752394845125968,0.0342448039870148,2.7663679543071322,0.7691630533470046,0.00031287186190528645,-0.0006932358711267231,0.0003772176785360199,-0.00011916921719732483,0.00017191298968529056,-9.471049571003889e-05,0.0002305467508137322,0.0,0.0,0.0,0.0,0.0,0.0,0.0,-2.5510787964089232e-05,4.2502749384568106e-05,-7.916598727824437e-06,1.0684293573426373e-05,-3.1374429749694843e-06,2.5293363741241137e-06,2.2379573848541057e-06,-0.00031287186190528645,0.0006932358711267231,-0.0003772176785360199,0.00011916921719732483,-0.00017191298968529056,9.471049571003889e-05,-0.0002305467508137322,0.3236324191093445,22.621301651000977,0.1491362750530243,-14.155611038208008,-0.11748272180557251,-2.1582064628601074,0.24844686686992645,0
73,0.3598339557647705,-0.3236324191093445,-22.621301651000977,-0.1491362750530243,14.155611038208008,0.11748272180557251,2.1582064628601074,-0.24844686686992645,0.0,0.0,0.0,0.0,0.0,0.0,0.0,-0.3401901586324386,0.14988767754239066,-0.2264250021911053,0.26946586036680303,-0.10846410340720479,-0.03324288970264501,-0.2434393886887875,1.6755228655421943,0.05206182407548546,0.029977421708012878,-2.7524055294195415,0.03424794142998977,2.766365424970758,0.7691608153896198,1.6754973547542302,0.052104326824870026,0.029969505109285054,-2.752394845125968,0.0342448039870148,2.7663679543071322,0.7691630533470046,0.00031287186190528645,-0.0006932358711267231,0.0003772176785360199,-0.00011916921719732483,0.00017191298968529056,-9.471049571003889e-05,0.0002305467508137322,0.0,0.0,0.0,0.0,0.0,0.0,0.0,-2.5510787964089232e-05,4.2502749384568106e-05,-7.916598727824437e-06,1.0684293573426373e-05,-3.1374429749694843e-06,2.5293363741241137e-06,2.2379573848541057e-06,-0.00031287186190528645,0.0006932358711267231,-0.0003772176785360199,0.00011916921719732483,-0.00017191298968529056,9.471049571003889e-05,-0.0002305467508137322,0.3236324191093445,22.621301651000977,0.1491362750530243,-14.155611038208008,-0.11748272180557251,-2.1582064628601074,0.24844686686992645,0
74,0.3648343086242676,-0.3514034152030945,-22.672876358032227,-0.1729399859905243,14.131807327270508,0.11748272180557251,2.1389803886413574,-0.27591270208358765,0.0,0.0,0.0,0.0,0.0,0.0,0.0,-0.3394720702266421,0.15152019078858958,-0.22587222282341876,0.26747972357706995,-0.10812275895439637,-0.03351259641706659,-0.24436606357612686,1.6755248143840253,0.052065443353171925,0.029979092143868142,-2.752403859021371,0.03425212467683532,2.766368661801725,0.769163867149088,1.6754973547542302,0.052104326824870026,0.029969505109285054,-2.752394845125968,0.0342448039870148,2.7663679543071322,0.7691630533470046,0.00020536625007769348,0.0006488225490020752,0.0007600633467249601,0.00023074277552731785,0.00025609075506653403,0.0006755442462089183,0.001430875290968423,0.0,0.0,0.0,0.0,0.0,0.0,0.0,-2.7459629795112406e-05,3.888347169810069e-05,-9.587034583088266e-06,9.013895402976146e-06,-7.320689820518311e-06,-7.074945926888176e-07,-8.138020833881043e-07,-0.00020536625007769348,-0.0006488225490020752,-0.0007600633467249601,-0.00023074277552731785,-0.00025609075506653403,-0.0006755442462089183,-0.001430875290968423,0.3514034152030945,22.672876358032227,0.1729399859905243,-14.131807327270508,-0.11748272180557251,-2.1389803886413574,0.27591270208358765,0
75,0.36981964111328125,-0.3514034152030945,-22.672876358032227,-0.1729399859905243,14.131807327270508,0.11748272180557251,2.1389803886413574,-0.27591270208358765,0.0,0.0,0.0,0.0,0.0,0.0,0.0,-0.3394720702266421,0.15152019078858958,-0.22587222282341876,0.26747972357706995,-0.10812275895439637,-0.03351259641706659,-0.24436606357612686,1.6755248143840253,0.052065443353171925,0.029979092143868142,-2.752403859021371,0.03425212467683532,2.766368661801725,0.769163867149088,1.6754973547542302,0.052104326824870026,0.029969505109285054,-2.752394845125968,0.0342448039870148,2.7663679543071322,0.7691630533470046,0.00020536625007769348,0.0006488225490020752,0.0007600633467249601,0.00023074277552731785,0.00025609075506653403,0.0006755442462089183,0.001430875290968423,0.0,0.0,0.0,0.0,0.0,0.0,0.0,-2.7459629795112406e-05,3.888347169810069e-05,-9.587034583088266e-06,9.013895402976146e-06,-7.320689820518311e-06,-7.074945926888176e-07,-8.138020833881043e-07,-0.00020536625007769348,-0.0006488225490020752,-0.0007600633467249601,-0.00023074277552731785,-0.00025609075506653403,-0.0006755442462089183,-0.001430875290968423,0.3514034152030945,22.672876358032227,0.1729399859905243,-14.131807327270508,-0.11748272180557251,-2.1389803886413574,0.27591270208358765,0
76,0.37508606910705566,-0.3752071261405945,-22.649072647094727,-0.1729399859905243,14.131807327270508,0.12389141321182251,2.1517977714538574,-0.26217979192733765,0.0,0.0,0.0,0.0,0.0,0.0,0.0,-0.34412552069246094,0.15064347592329336,-0.22733341296798254,0.2690250127675506,-0.10755737473798085,-0.033332499480073746,-0.24399618531862916,1.6755264848198808,0.05206377291731666,0.029979328906762668,-2.752403859021371,0.034246915752519154,2.766366889017574,0.7691623398166315,1.6754973547542302,0.052104326824870026,0.029969505109285054,-2.752394845125968,0.0342448039870148,2.7663679543071322,0.7691630533470046,1.9875690965850605e-05,7.801604264263094e-05,0.00027677802469514966,0.00021392970869162745,7.288727597890223e-05,9.720396665526156e-05,0.0009494816084903231,0.0,0.0,0.0,0.0,0.0,0.0,0.0,-2.913006565052889e-05,4.055390755336452e-05,-9.823797477614277e-06,9.013895402976146e-06,-2.1117655043534356e-06,1.0652895583440625e-06,7.135303731198306e-07,-1.9875690965850605e-05,-7.801604264263094e-05,-0.00027677802469514966,-0.00021392970869162745,-7.288727597890223e-05,-9.720396665526156e-05,-0.0009494816084903231,0.3752071261405945,22.649072647094727,0.1729399859905243,-14.131807327270508,-0.12389141321182251,-2.1517977714538574,0.26217979192733765,0
77,0.3797779083251953,-0.3752071261405945,-22.649072647094727,-0.1729399859905243,14.131807327270508,0.12389141321182251,2.1517977714538574,-0.26217979192733765,0.0,0.0,0.0,0.0,0.0,0.0,0.0,-0.34412552069246094,0.15064347592329336,-0.22733341296798254,0.2690250127675506,-0.10755737473798085,-0.033332499480073746,-0.24399618531862916,1.6755264848198808,0.05206377291731666,0.029979328906762668,-2.752403859021371,0.034246915752519154,2.766366889017574,0.7691623398166315,1.6754973547542302,0.052104326824870026,0.029969505109285054,-2.752394845125968,0.0342448039870148,2.7663679543071322,0.7691630533470046,1.9875690965850605e-05,7.801604264263094e-05,0.00027677802469514966,0.00021392970869162745,7.288727597890223e-05,9.720396665526156e-05,0.0009494816084903231,0.0,0.0,0.0,0.0,0.0,0.0,0.0,-2.913006565052889e-05,4.055390755336452e-05,-9.823797477614277e-06,9.013895402976146e-06,-2.1117655043534356e-06,1.0652895583440625e-06,7.135303731198306e-07,-1.9875690965850605e-05,-7.801604264263094e-05,-0.00027677802469514966,-0.00021392970869162745,-7.288727597890223e-05,-9.720396665526156e-05,-0.0009494816084903231,0.3752071261405945,22.649072647094727,0.1729399859905243,-14.131807327270508,-0.12389141321182251,-2.1517977714538574,0.26217979192733765,0
78,0.3848083019256592,-0.3514034152030945,-22.621301651000977,-0.1491362750530243,14.155611038208008,0.11748272180557251,2.1517977714538574,-0.20083944499492645,0.0,0.0,0.0,0.0,0.0,0.0,0.0,-0.3478168658380413,0.1479950267653607,-0.22749581870997315,0.2701937313521752,-0.10801436492721109,-0.032823101291243384,-0.24313346927783785,1.6755248143840253,0.05206182407548553,0.029977421709349413,-2.752405529457226,0.034252242569345843,2.7663657101325207,0.7691555256760699,1.6754973547542302,0.052104326824870026,0.029969505109285054,-2.752394845125968,0.0342448039870148,2.7663679543071322,0.7691630533470046,-0.00047972415879488724,-0.000490317296668256,-0.0004912522069582177,-0.0004532716177938279,0.00030222498937033113,6.976752585930033e-05,-0.0018041473291186283,0.0,0.0,0.0,0.0,0.0,0.0,0.0,-2.7459629795112406e-05,4.250274938449872e-05,-7.916600064359486e-06,1.0684331257948543e-05,-7.438582331042998e-06,2.2441746114765238e-06,7.527670934703856e-06,0.00047972415879488724,0.000490317296668256,0.0004912522069582177,0.0004532716177938279,-0.00030222498937033113,-6.976752585930033e-05,0.0018041473291186283,0.3514034152030945,22.621301651000977,0.1491362750530243,-14.155611038208008,-0.11748272180557251,-2.1517977714538574,0.20083944499492645,0
79,0.38981151580810547,-0.3514034152030945,-22.621301651000977,-0.1491362750530243,14.155611038208008,0.11748272180557251,2.1517977714538574,-0.20083944499492645,0.0,0.0,0.0,0.0,0.0,0.0,0.0,-0.3478168658380413,0.1479950267653607,-0.22749581870997315,0.2701937313521752,-0.10801436492721109,-0.032823101291243384,-0.24313346927783785,1.6755248143840253,0.05206182407548553,0.029977421709349413,-2.752405529457226,0.034252242569345843,2.7663657101325207,0.7691555256760699,1.6754973547542302,0.052104326824870026,0.029969505109285054,-2.752394845125968,0.0342448039870148,2.7663679543071322,0.7691630533470046,-0.00047972415879488724,-0.000490317296668256,-0.0004912522069582177,-0.0004532716177938279,0.00030222498937033113,6.976752585930033e-05,-0.0018041473291186283,0.0,0.0,0.0,0.0,0.0,0.0,0.0,-2.7459629795112406e-05,4.250274938449872e-05,-7.916600064359486e-06,1.0684331257948543e-05,-7.438582331042998e-06,2.2441746114765238e-06,7.527670934703856e-06,0.00047972415879488724,0.000490317296668256,0.0004912522069582177,0.0004532716177938279,-0.00030222498937033113,-6.976752585930033e-05,0.0018041473291186283,0.3514034152030945,22.621301651000977,0.1491362750530243,-14.155611038208008,-0.11748272180557251,-2.1517977714538574,0.20083944499492645,0
