rezayati/contactInterpretation/dataset/franka_main/labeled_data/link2/f6_3.csv
index,time,tau_J0,tau_J1,tau_J2,tau_J3,tau_J4,tau_J5,tau_J6,tau_J_d0,tau_J_d1,tau_J_d2,tau_J_d3,tau_J_d4,tau_J_d5,tau_J_d6,tau_ext0,tau_ext1,tau_ext2,tau_ext3,tau_ext4,tau_ext5,tau_ext6,q0,q1,q2,q3,q4,q5,q6,q_d0,q_d1,q_d2,q_d3,q_d4,q_d5,q_d6,dq0,dq1,dq2,dq3,dq4,dq5,dq6,dq_d0,dq_d1,dq_d2,dq_d3,dq_d4,dq_d5,dq_d6,e0,e1,e2,e3,e4,e5,e6,de0,de1,de2,de3,de4,de5,de6,etau_J0,etau_J1,etau_J2,etau_J3,etau_J4,etau_J5,etau_J6,label
1,0.0,-0.4029781222343445,-34.09072494506836,-3.7752349376678467,19.459871292114258,0.2548118233680725,1.790164589881897,-0.06351034343242645,0.0,0.0,0.0,0.0,0.0,0.0,0.0,-0.38354318283093,-0.06665055411659171,-0.2287725265848118,0.4412305665205276,0.20750797532368911,-0.11792162935347159,-0.10145721477397157,1.0544611579360605,0.3237709202519914,-0.39251492042610375,-2.15350349282283,0.8647482058670142,2.4659916562402304,0.5444839879485253,1.0544104758940245,0.3238615046091247,-0.39250456234122666,-2.153291787532338,0.8647539153680389,2.46587817577521,0.5445020185570556,0.00033112538636735314,-0.001112344405762626,-3.763039660140105e-05,0.0003395984023390288,0.0001918663041676594,-0.00015957778873196846,-0.0013341586631237152,0.0,0.0,0.0,0.0,0.0,0.0,0.0,-5.068204203606541e-05,9.058435713332758e-05,1.0358084877093443e-05,0.0002117052904919703,5.709501024742103e-06,-0.00011348046502046572,1.8030608530339443e-05,-0.00033112538636735314,0.001112344405762626,3.763039660140105e-05,-0.0003395984023390288,-0.0001918663041676594,0.00015957778873196846,0.0013341586631237152,0.4029781222343445,34.09072494506836,3.7752349376678467,-19.459871292114258,-0.2548118233680725,-1.790164589881897,0.06351034343242645,0
2,0.0050525665283203125,-0.3752071261405945,-34.13833236694336,-3.7990386486053467,19.511445999145508,0.2603049874305725,1.783755898475647,-0.05710165575146675,0.0,0.0,0.0,0.0,0.0,0.0,0.0,-0.3887266246629842,-0.07214143997364172,-0.23024701920687815,0.4453562609196045,0.207488655282959,-0.11768642513213198,-0.10052886201047653,1.054461424849337,0.3237742641474477,-0.39251561208696584,-2.153507130403934,0.8647479691301572,2.4659920151587778,0.5444832709551963,1.0544104758940245,0.3238615046091247,-0.39250456234122666,-2.153291787532338,0.8647539153680389,2.46587817577521,0.5445020185570556,-0.00026829296076085884,-0.0002020470903100058,0.0004661444961878066,-0.0009227453744089976,-5.1409148497328775e-05,2.8640481146601006e-05,-0.0015662945924261218,0.0,0.0,0.0,0.0,0.0,0.0,0.0,-5.094895531243537e-05,8.724046167701838e-05,1.104974573917783e-05,0.0002153428715963024,5.9462378817487505e-06,-0.0001138393835677931,1.874760185927027e-05,0.00026829296076085884,0.0002020470903100058,-0.0004661444961878066,0.0009227453744089976,5.1409148497328775e-05,-2.8640481146601006e-05,0.0015662945924261218,0.3752071261405945,34.13833236694336,3.7990386486053467,-19.511445999145508,-0.2603049874305725,-1.783755898475647,0.05710165575146675,0
3,0.010039806365966797,-0.3752071261405945,-34.13833236694336,-3.7990386486053467,19.511445999145508,0.2603049874305725,1.783755898475647,-0.05710165575146675,0.0,0.0,0.0,0.0,0.0,0.0,0.0,-0.3887266246629842,-0.07214143997364172,-0.23024701920687815,0.4453562609196045,0.207488655282959,-0.11768642513213198,-0.10052886201047653,1.054461424849337,0.3237742641474477,-0.39251561208696584,-2.153507130403934,0.8647479691301572,2.4659920151587778,0.5444832709551963,1.0544104758940245,0.3238615046091247,-0.39250456234122666,-2.153291787532338,0.8647539153680389,2.46587817577521,0.5445020185570556,-0.00026829296076085884,-0.0002020470903100058,0.0004661444961878066,-0.0009227453744089976,-5.1409148497328775e-05,2.8640481146601006e-05,-0.0015662945924261218,0.0,0.0,0.0,0.0,0.0,0.0,0.0,-5.094895531243537e-05,8.724046167701838e-05,1.104974573917783e-05,0.0002153428715963024,5.9462378817487505e-06,-0.0001138393835677931,1.874760185927027e-05,0.00026829296076085884,0.0002020470903100058,-0.0004661444961878066,0.0009227453744089976,5.1409148497328775e-05,-2.8640481146601006e-05,0.0015662945924261218,0.3752071261405945,34.13833236694336,3.7990386486053467,-19.511445999145508,-0.2603049874305725,-1.783755898475647,0.05710165575146675,0
4,0.015036582946777344,-0.4029781222343445,-34.13833236694336,-3.7990386486053467,19.436067581176758,0.2667136788368225,1.790164589881897,-0.10470907390117645,0.0,0.0,0.0,0.0,0.0,0.0,0.0,-0.39055419430464433,-0.06562463546200023,-0.22949934754245013,0.44354759670728494,0.20755931741413552,-0.11779468700150274,-0.10070685589882329,1.054461148488731,0.32377426123131375,-0.3925156121002998,-2.1535040750627075,0.8647472744978494,2.4659884507257264,0.5444889138810061,1.0544104758940245,0.3238615046091247,-0.39250456234122666,-2.153291787532338,0.8647539153680389,2.46587817577521,0.5445020185570556,0.0005631873278955168,0.00019780056098452447,5.606176522248689e-05,0.000948237424430586,-0.00030736278465216766,9.661573237663401e-06,-4.6101600155681084e-05,0.0,0.0,0.0,0.0,0.0,0.0,0.0,-5.067259470648011e-05,8.724337781096381e-05,1.1049759073122889e-05,0.00021228753036961479,6.640870189533743e-06,-0.00011027495051640912,1.310467604953569e-05,-0.0005631873278955168,-0.00019780056098452447,-5.606176522248689e-05,-0.000948237424430586,0.00030736278465216766,-9.661573237663401e-06,4.6101600155681084e-05,0.4029781222343445,34.13833236694336,3.7990386486053467,-19.436067581176758,-0.2667136788368225,-1.790164589881897,0.10470907390117645,0
5,0.020036697387695312,-0.4029781222343445,-34.13833236694336,-3.7990386486053467,19.436067581176758,0.2667136788368225,1.790164589881897,-0.10470907390117645,0.0,0.0,0.0,0.0,0.0,0.0,0.0,-0.39055419430464433,-0.06562463546200023,-0.22949934754245013,0.44354759670728494,0.20755931741413552,-0.11779468700150274,-0.10070685589882329,1.054461148488731,0.32377426123131375,-0.3925156121002998,-2.1535040750627075,0.8647472744978494,2.4659884507257264,0.5444889138810061,1.0544104758940245,0.3238615046091247,-0.39250456234122666,-2.153291787532338,0.8647539153680389,2.46587817577521,0.5445020185570556,0.0005631873278955168,0.00019780056098452447,5.606176522248689e-05,0.000948237424430586,-0.00030736278465216766,9.661573237663401e-06,-4.6101600155681084e-05,0.0,0.0,0.0,0.0,0.0,0.0,0.0,-5.067259470648011e-05,8.724337781096381e-05,1.1049759073122889e-05,0.00021228753036961479,6.640870189533743e-06,-0.00011027495051640912,1.310467604953569e-05,-0.0005631873278955168,-0.00019780056098452447,-5.606176522248689e-05,-0.000948237424430586,0.00030736278465216766,-9.661573237663401e-06,4.6101600155681084e-05,0.4029781222343445,34.13833236694336,3.7990386486053467,-19.436067581176758,-0.2667136788368225,-1.790164589881897,0.10470907390117645,0
6,0.025037527084350586,-0.4267818331718445,-34.13833236694336,-3.7990386486053467,19.436067581176758,0.2667136788368225,1.770938515663147,-0.06991903483867645,0.0,0.0,0.0,0.0,0.0,0.0,0.0,-0.38876971502848917,-0.07034378104686091,-0.23149704353518505,0.44491639414559475,0.20775902711896016,-0.11733528697258147,-0.10129238077027262,1.0544635367590247,0.32377426112325586,-0.39251561195629087,-2.153504065905496,0.8647471567426298,2.465993748751138,0.544484695109065,1.0544104758940245,0.3238615046091247,-0.39250456234122666,-2.153291787532338,0.8647539153680389,2.46587817577521,0.5445020185570556,0.0006817663560196222,-0.00029798975072374616,0.00017151858701958779,0.0007843238456253649,-5.602230249590631e-05,0.0007376388309843587,-0.0012655629722871954,0.0,0.0,0.0,0.0,0.0,0.0,0.0,-5.306086500023177e-05,8.724348586885977e-05,1.1049615064206986e-05,0.0002122783731581812,6.758625409108987e-06,-0.00011557297592812432,1.732344799054708e-05,-0.0006817663560196222,0.00029798975072374616,-0.00017151858701958779,-0.0007843238456253649,5.602230249590631e-05,-0.0007376388309843587,0.0012655629722871954,0.4267818331718445,34.13833236694336,3.7990386486053467,-19.436067581176758,-0.2667136788368225,-1.770938515663147,0.06991903483867645,0
7,0.0300443172454834,-0.4267818331718445,-34.13833236694336,-3.7990386486053467,19.436067581176758,0.2667136788368225,1.770938515663147,-0.06991903483867645,0.0,0.0,0.0,0.0,0.0,0.0,0.0,-0.38876971502848917,-0.07034378104686091,-0.23149704353518505,0.44491639414559475,0.20775902711896016,-0.11733528697258147,-0.10129238077027262,1.0544635367590247,0.32377426112325586,-0.39251561195629087,-2.153504065905496,0.8647471567426298,2.465993748751138,0.544484695109065,1.0544104758940245,0.3238615046091247,-0.39250456234122666,-2.153291787532338,0.8647539153680389,2.46587817577521,0.5445020185570556,0.0006817663560196222,-0.00029798975072374616,0.00017151858701958779,0.0007843238456253649,-5.602230249590631e-05,0.0007376388309843587,-0.0012655629722871954,0.0,0.0,0.0,0.0,0.0,0.0,0.0,-5.306086500023177e-05,8.724348586885977e-05,1.1049615064206986e-05,0.0002122783731581812,6.758625409108987e-06,-0.00011557297592812432,1.732344799054708e-05,-0.0006817663560196222,0.00029798975072374616,-0.00017151858701958779,-0.0007843238456253649,5.602230249590631e-05,-0.0007376388309843587,0.0012655629722871954,0.4267818331718445,34.13833236694336,3.7990386486053467,-19.436067581176758,-0.2667136788368225,-1.770938515663147,0.06991903483867645,0
8,0.03515744209289551,-0.4029781222343445,-34.11452865600586,-3.7990386486053467,19.459871292114258,0.2603049874305725,1.790164589881897,-0.06991903483867645,0.0,0.0,0.0,0.0,0.0,0.0,0.0,-0.38993609075298713,-0.06575802912262753,-0.23231543371911914,0.439555614034267,0.20817728547195394,-0.11729126856477157,-0.1004763632733173,1.0544611482370625,0.323772591011421,-0.39251561210029917,-2.153503520296279,0.8647479822136522,2.4659874264093666,0.5444857552310465,1.0544104758940245,0.3238615046091247,-0.39250456234122666,-2.153291787532338,0.8647539153680389,2.46587817577521,0.5445020185570556,0.0002815966348165753,-0.000625463111235647,-0.0005762484930393872,-0.00017976134377553106,-7.84770000102972e-05,0.00010207016811997786,-0.0017279760295726189,0.0,0.0,0.0,0.0,0.0,0.0,0.0,-5.0672343038016265e-05,8.891359770374363e-05,1.1049759072512266e-05,0.0002117327639412636,5.933154386683626e-06,-0.0001092506341566768,1.6263326009124945e-05,-0.0002815966348165753,0.000625463111235647,0.0005762484930393872,0.00017976134377553106,7.84770000102972e-05,-0.00010207016811997786,0.0017279760295726189,0.4029781222343445,34.11452865600586,3.7990386486053467,-19.459871292114258,-0.2603049874305725,-1.790164589881897,0.06991903483867645,0
9,0.040041446685791016,-0.4029781222343445,-34.11452865600586,-3.7990386486053467,19.459871292114258,0.2603049874305725,1.790164589881897,-0.06991903483867645,0.0,0.0,0.0,0.0,0.0,0.0,0.0,-0.38993609075298713,-0.06575802912262753,-0.23231543371911914,0.439555614034267,0.20817728547195394,-0.11729126856477157,-0.1004763632733173,1.0544611482370625,0.323772591011421,-0.39251561210029917,-2.153503520296279,0.8647479822136522,2.4659874264093666,0.5444857552310465,1.0544104758940245,0.3238615046091247,-0.39250456234122666,-2.153291787532338,0.8647539153680389,2.46587817577521,0.5445020185570556,0.0002815966348165753,-0.000625463111235647,-0.0005762484930393872,-0.00017976134377553106,-7.84770000102972e-05,0.00010207016811997786,-0.0017279760295726189,0.0,0.0,0.0,0.0,0.0,0.0,0.0,-5.0672343038016265e-05,8.891359770374363e-05,1.1049759072512266e-05,0.0002117327639412636,5.933154386683626e-06,-0.0001092506341566768,1.6263326009124945e-05,-0.0002815966348165753,0.000625463111235647,0.0005762484930393872,0.00017976134377553106,7.84770000102972e-05,-0.00010207016811997786,0.0017279760295726189,0.4029781222343445,34.11452865600586,3.7990386486053467,-19.459871292114258,-0.2603049874305725,-1.790164589881897,0.06991903483867645,0
10,0.04503512382507324,-0.3514034152030945,-34.11452865600586,-3.7990386486053467,19.436067581176758,0.2484031319618225,1.790164589881897,-0.08365194499492645,0.0,0.0,0.0,0.0,0.0,0.0,0.0,-0.38462707816084246,-0.07223834199126605,-0.22989556623409707,0.44432609281154556,0.20723947349417726,-0.11675907681893266,-0.10146943690695735,1.0544575406200631,0.32377259943595776,-0.3925156121003,-2.1535017572567634,0.8647461300889404,2.465991669298904,0.5444862214778078,1.0544104758940245,0.3238615046091247,-0.39250456234122666,-2.153291787532338,0.8647539153680389,2.46587817577521,0.5445020185570556,-0.0006309550509426061,-0.00044332444495343335,-5.455023930808763e-06,0.001381439815781144,0.0003933127798174548,-1.091120582919055e-05,-0.0006852515366223751,0.0,0.0,0.0,0.0,0.0,0.0,0.0,-4.706472603865919e-05,8.890517316695323e-05,1.1049759073344934e-05,0.00020996972442555162,7.78527909850446e-06,-0.00011349352369416366,1.5797079247814594e-05,0.0006309550509426061,0.00044332444495343335,5.455023930808763e-06,-0.001381439815781144,-0.0003933127798174548,1.091120582919055e-05,0.0006852515366223751,0.3514034152030945,34.11452865600586,3.7990386486053467,-19.436067581176758,-0.2484031319618225,-1.790164589881897,0.08365194499492645,0
11,0.0501248836517334,-0.3514034152030945,-34.11452865600586,-3.7990386486053467,19.436067581176758,0.2484031319618225,1.790164589881897,-0.08365194499492645,0.0,0.0,0.0,0.0,0.0,0.0,0.0,-0.38462707816084246,-0.07223834199126605,-0.22989556623409707,0.44432609281154556,0.20723947349417726,-0.11675907681893266,-0.10146943690695735,1.0544575406200631,0.32377259943595776,-0.3925156121003,-2.1535017572567634,0.8647461300889404,2.465991669298904,0.5444862214778078,1.0544104758940245,0.3238615046091247,-0.39250456234122666,-2.153291787532338,0.8647539153680389,2.46587817577521,0.5445020185570556,-0.0006309550509426061,-0.00044332444495343335,-5.455023930808763e-06,0.001381439815781144,0.0003933127798174548,-1.091120582919055e-05,-0.0006852515366223751,0.0,0.0,0.0,0.0,0.0,0.0,0.0,-4.706472603865919e-05,8.890517316695323e-05,1.1049759073344934e-05,0.00020996972442555162,7.78527909850446e-06,-0.00011349352369416366,1.5797079247814594e-05,0.0006309550509426061,0.00044332444495343335,5.455023930808763e-06,-0.001381439815781144,-0.0003933127798174548,1.091120582919055e-05,0.0006852515366223751,0.3514034152030945,34.11452865600586,3.7990386486053467,-19.436067581176758,-0.2484031319618225,-1.790164589881897,0.08365194499492645,0
12,0.05499839782714844,-0.4267818331718445,-34.13833236694336,-3.7990386486053467,19.487642288208008,0.2667136788368225,1.790164589881897,-0.11844198405742645,0.0,0.0,0.0,0.0,0.0,0.0,0.0,-0.39070531341477743,-0.0790412456680381,-0.23902957131222427,0.44700303375471995,0.20680907604921747,-0.11600121467000295,-0.10216596096630962,1.054465679582863,0.32377426112330504,-0.3925156121003,-2.15350769119964,0.8647472613982475,2.4659916672232827,0.5444900880007555,1.0544104758940245,0.3238615046091247,-0.39250456234122666,-2.153291787532338,0.8647539153680389,2.46587817577521,0.5445020185570556,0.00051040009784823,-0.00036768625301178003,0.0002047302749445092,-0.00021244378385927885,-0.00029606231139784624,-9.125261915278845e-05,0.0004554492261525003,0.0,0.0,0.0,0.0,0.0,0.0,0.0,-5.520368883860094e-05,8.724348581967689e-05,1.1049759073344934e-05,0.00021590366730217525,6.653969791381442e-06,-0.00011349144807271117,1.1930556300110418e-05,-0.00051040009784823,0.00036768625301178003,-0.0002047302749445092,0.00021244378385927885,0.00029606231139784624,9.125261915278845e-05,-0.0004554492261525003,0.4267818331718445,34.13833236694336,3.7990386486053467,-19.487642288208008,-0.2667136788368225,-1.790164589881897,0.11844198405742645,0
13,0.0599827766418457,-0.4267818331718445,-34.13833236694336,-3.7990386486053467,19.487642288208008,0.2667136788368225,1.790164589881897,-0.11844198405742645,0.0,0.0,0.0,0.0,0.0,0.0,0.0,-0.39070531341477743,-0.0790412456680381,-0.23902957131222427,0.44700303375471995,0.20680907604921747,-0.11600121467000295,-0.10216596096630962,1.054465679582863,0.32377426112330504,-0.3925156121003,-2.15350769119964,0.8647472613982475,2.4659916672232827,0.5444900880007555,1.0544104758940245,0.3238615046091247,-0.39250456234122666,-2.153291787532338,0.8647539153680389,2.46587817577521,0.5445020185570556,0.00051040009784823,-0.00036768625301178003,0.0002047302749445092,-0.00021244378385927885,-0.00029606231139784624,-9.125261915278845e-05,0.0004554492261525003,0.0,0.0,0.0,0.0,0.0,0.0,0.0,-5.520368883860094e-05,8.724348581967689e-05,1.1049759073344934e-05,0.00021590366730217525,6.653969791381442e-06,-0.00011349144807271117,1.1930556300110418e-05,-0.00051040009784823,0.00036768625301178003,-0.0002047302749445092,0.00021244378385927885,0.00029606231139784624,9.125261915278845e-05,-0.0004554492261525003,0.4267818331718445,34.13833236694336,3.7990386486053467,-19.487642288208008,-0.2667136788368225,-1.790164589881897,0.11844198405742645,0
14,0.06508302688598633,-0.4029781222343445,-34.11452865600586,-3.7990386486053467,19.487642288208008,0.2667136788368225,1.783755898475647,-0.12485067546367645,0.0,0.0,0.0,0.0,0.0,0.0,0.0,-0.3903183546811819,-0.06747982184681559,-0.23698707340602718,0.4380655663299417,0.2065780398059689,-0.11718574764548385,-0.10207434822522035,1.0544633027376722,0.32377259068740044,-0.3925156121003,-2.153507694340531,0.8647472614161187,2.465992341992304,0.5444909168461203,1.0544104758940245,0.3238615046091247,-0.39250456234122666,-2.153291787532338,0.8647539153680389,2.46587817577521,0.5445020185570556,0.00012887607580614832,-0.0007734469961765902,0.0001588520868046225,-0.000935472134229657,-0.00027024723248290423,7.172963509699385e-05,0.001111082268110747,0.0,0.0,0.0,0.0,0.0,0.0,0.0,-5.282684364771306e-05,8.891392172427626e-05,1.1049759073344934e-05,0.000215906808193278,6.653951920232437e-06,-0.00011416621709425812,1.1101710935323972e-05,-0.00012887607580614832,0.0007734469961765902,-0.0001588520868046225,0.000935472134229657,0.00027024723248290423,-7.172963509699385e-05,-0.001111082268110747,0.4029781222343445,34.11452865600586,3.7990386486053467,-19.487642288208008,-0.2667136788368225,-1.783755898475647,0.12485067546367645,0
15,0.07145142555236816,-0.4029781222343445,-34.11452865600586,-3.7990386486053467,19.487642288208008,0.2667136788368225,1.783755898475647,-0.12485067546367645,0.0,0.0,0.0,0.0,0.0,0.0,0.0,-0.3903183546811819,-0.06747982184681559,-0.23698707340602718,0.4380655663299417,0.2065780398059689,-0.11718574764548385,-0.10207434822522035,1.0544633027376722,0.32377259068740044,-0.3925156121003,-2.153507694340531,0.8647472614161187,2.465992341992304,0.5444909168461203,1.0544104758940245,0.3238615046091247,-0.39250456234122666,-2.153291787532338,0.8647539153680389,2.46587817577521,0.5445020185570556,0.00012887607580614832,-0.0007734469961765902,0.0001588520868046225,-0.000935472134229657,-0.00027024723248290423,7.172963509699385e-05,0.001111082268110747,0.0,0.0,0.0,0.0,0.0,0.0,0.0,-5.282684364771306e-05,8.891392172427626e-05,1.1049759073344934e-05,0.000215906808193278,6.653951920232437e-06,-0.00011416621709425812,1.1101710935323972e-05,-0.00012887607580614832,0.0007734469961765902,-0.0001588520868046225,0.000935472134229657,0.00027024723248290423,-7.172963509699385e-05,-0.001111082268110747,0.4029781222343445,34.11452865600586,3.7990386486053467,-19.487642288208008,-0.2667136788368225,-1.783755898475647,0.12485067546367645,0
16,0.07499194145202637,-0.3752071261405945,-34.16213607788086,-3.8228423595428467,19.436067581176758,0.2548118233680725,1.790164589881897,-0.11111776530742645,0.0,0.0,0.0,0.0,0.0,0.0,0.0,-0.3805833858279657,-0.07438364741961513,-0.2280562504626082,0.44339481220019683,0.20601562859295508,-0.11697270412703263,-0.10145535873913164,1.0544594378219192,0.32377593155911094,-0.3925139416644447,-2.1535040750628625,0.8647484397815242,2.4659916688381163,0.5444904501214858,1.0544104758940245,0.3238615046091247,-0.39250456234122666,-2.153291787532338,0.8647539153680389,2.46587817577521,0.5445020185570556,0.0004558580720481084,0.0006024678429284053,0.0009927710985555235,0.0009661558406039518,0.0001103022574834272,-0.00020402240374830244,0.00019183420129002547,0.0,0.0,0.0,0.0,0.0,0.0,0.0,-4.896192789471954e-05,8.557305001377635e-05,9.37932321803947e-06,0.00021228753052460192,5.475586514758213e-06,-0.00011349306290631134,1.156843556981979e-05,-0.0004558580720481084,-0.0006024678429284053,-0.0009927710985555235,-0.0009661558406039518,-0.0001103022574834272,0.00020402240374830244,-0.00019183420129002547,0.3752071261405945,34.16213607788086,3.8228423595428467,-19.436067581176758,-0.2548118233680725,-1.790164589881897,0.11111776530742645,0
17,0.0804445743560791,-0.3752071261405945,-34.16213607788086,-3.8228423595428467,19.436067581176758,0.2548118233680725,1.790164589881897,-0.11111776530742645,0.0,0.0,0.0,0.0,0.0,0.0,0.0,-0.3805833858279657,-0.07438364741961513,-0.2280562504626082,0.44339481220019683,0.20601562859295508,-0.11697270412703263,-0.10145535873913164,1.0544594378219192,0.32377593155911094,-0.3925139416644447,-2.1535040750628625,0.8647484397815242,2.4659916688381163,0.5444904501214858,1.0544104758940245,0.3238615046091247,-0.39250456234122666,-2.153291787532338,0.8647539153680389,2.46587817577521,0.5445020185570556,0.0004558580720481084,0.0006024678429284053,0.0009927710985555235,0.0009661558406039518,0.0001103022574834272,-0.00020402240374830244,0.00019183420129002547,0.0,0.0,0.0,0.0,0.0,0.0,0.0,-4.896192789471954e-05,8.557305001377635e-05,9.37932321803947e-06,0.00021228753052460192,5.475586514758213e-06,-0.00011349306290631134,1.156843556981979e-05,-0.0004558580720481084,-0.0006024678429284053,-0.0009927710985555235,-0.0009661558406039518,-0.0001103022574834272,0.00020402240374830244,-0.00019183420129002547,0.3752071261405945,34.16213607788086,3.8228423595428467,-19.436067581176758,-0.2548118233680725,-1.790164589881897,0.11111776530742645,0
18,0.08506631851196289,-0.4029781222343445,-34.16213607788086,-3.7514312267303467,19.459871292114258,0.2548118233680725,1.790164589881897,-0.07724325358867645,0.0,0.0,0.0,0.0,0.0,0.0,0.0,-0.3875684319972202,-0.07016902076703445,-0.23727548212762362,0.43843449090939746,0.20650320463210292,-0.11669636248525554,-0.10192101045468442,1.054461177559731,0.3237760102961108,-0.39251887412700376,-2.1535057445189176,0.8647485969256431,2.465991669322853,0.5444865685552593,1.0544104758940245,0.3238615046091247,-0.39250456234122666,-2.153291787532338,0.8647539153680389,2.46587817577521,0.5445020185570556,0.00032770795422120005,0.000605418469952038,-0.0007684591035401635,0.0002608246916265961,0.00016346987997546423,-1.128680559445115e-06,-0.0011639840108722541,0.0,0.0,0.0,0.0,0.0,0.0,0.0,-5.0701665706531784e-05,8.549431301391186e-05,1.4311785777099129e-05,0.00021395698657977746,5.318442395818579e-06,-0.00011349354764300656,1.5450001796257773e-05,-0.00032770795422120005,-0.000605418469952038,0.0007684591035401635,-0.0002608246916265961,-0.00016346987997546423,1.128680559445115e-06,0.0011639840108722541,0.4029781222343445,34.16213607788086,3.7514312267303467,-19.459871292114258,-0.2548118233680725,-1.790164589881897,0.07724325358867645,0
19,0.08998680114746094,-0.4029781222343445,-34.16213607788086,-3.7514312267303467,19.459871292114258,0.2548118233680725,1.790164589881897,-0.07724325358867645,0.0,0.0,0.0,0.0,0.0,0.0,0.0,-0.3875684319972202,-0.07016902076703445,-0.23727548212762362,0.43843449090939746,0.20650320463210292,-0.11669636248525554,-0.10192101045468442,1.054461177559731,0.3237760102961108,-0.39251887412700376,-2.1535057445189176,0.8647485969256431,2.465991669322853,0.5444865685552593,1.0544104758940245,0.3238615046091247,-0.39250456234122666,-2.153291787532338,0.8647539153680389,2.46587817577521,0.5445020185570556,0.00032770795422120005,0.000605418469952038,-0.0007684591035401635,0.0002608246916265961,0.00016346987997546423,-1.128680559445115e-06,-0.0011639840108722541,0.0,0.0,0.0,0.0,0.0,0.0,0.0,-5.0701665706531784e-05,8.549431301391186e-05,1.4311785777099129e-05,0.00021395698657977746,5.318442395818579e-06,-0.00011349354764300656,1.5450001796257773e-05,-0.00032770795422120005,-0.000605418469952038,0.0007684591035401635,-0.0002608246916265961,-0.00016346987997546423,1.128680559445115e-06,0.0011639840108722541,0.4029781222343445,34.16213607788086,3.7514312267303467,-19.459871292114258,-0.2548118233680725,-1.790164589881897,0.07724325358867645,0
20,0.09519839286804199,-0.4029781222343445,-34.16213607788086,-3.7514312267303467,19.459871292114258,0.2548118233680725,1.790164589881897,-0.07724325358867645,0.0,0.0,0.0,0.0,0.0,0.0,0.0,-0.3875684319972202,-0.07016902076703445,-0.23727548212762362,0.43843449090939746,0.20650320463210292,-0.11669636248525554,-0.10192101045468442,1.054461177559731,0.3237760102961108,-0.39251887412700376,-2.1535057445189176,0.8647485969256431,2.465991669322853,0.5444865685552593,1.0544104758940245,0.3238615046091247,-0.39250456234122666,-2.153291787532338,0.8647539153680389,2.46587817577521,0.5445020185570556,0.00032770795422120005,0.000605418469952038,-0.0007684591035401635,0.0002608246916265961,0.00016346987997546423,-1.128680559445115e-06,-0.0011639840108722541,0.0,0.0,0.0,0.0,0.0,0.0,0.0,-5.0701665706531784e-05,8.549431301391186e-05,1.4311785777099129e-05,0.00021395698657977746,5.318442395818579e-06,-0.00011349354764300656,1.5450001796257773e-05,-0.00032770795422120005,-0.000605418469952038,0.0007684591035401635,-0.0002608246916265961,-0.00016346987997546423,1.128680559445115e-06,0.0011639840108722541,0.4029781222343445,34.16213607788086,3.7514312267303467,-19.459871292114258,-0.2548118233680725,-1.790164589881897,0.07724325358867645,0
21,0.09998536109924316,-0.4029781222343445,-34.16213607788086,-3.7514312267303467,19.459871292114258,0.2548118233680725,1.790164589881897,-0.07724325358867645,0.0,0.0,0.0,0.0,0.0,0.0,0.0,-0.3875684319972202,-0.07016902076703445,-0.23727548212762362,0.43843449090939746,0.20650320463210292,-0.11669636248525554,-0.10192101045468442,1.054461177559731,0.3237760102961108,-0.39251887412700376,-2.1535057445189176,0.8647485969256431,2.465991669322853,0.5444865685552593,1.0544104758940245,0.3238615046091247,-0.39250456234122666,-2.153291787532338,0.8647539153680389,2.46587817577521,0.5445020185570556,0.00032770795422120005,0.000605418469952038,-0.0007684591035401635,0.0002608246916265961,0.00016346987997546423,-1.128680559445115e-06,-0.0011639840108722541,0.0,0.0,0.0,0.0,0.0,0.0,0.0,-5.0701665706531784e-05,8.549431301391186e-05,1.4311785777099129e-05,0.00021395698657977746,5.318442395818579e-06,-0.00011349354764300656,1.5450001796257773e-05,-0.00032770795422120005,-0.000605418469952038,0.0007684591035401635,-0.0002608246916265961,-0.00016346987997546423,1.128680559445115e-06,0.0011639840108722541,0.4029781222343445,34.16213607788086,3.7514312267303467,-19.459871292114258,-0.2548118233680725,-1.790164589881897,0.07724325358867645,0
22,0.10503244400024414,-0.3752071261405945,-34.11452865600586,-3.7990386486053467,19.459871292114258,0.2603049874305725,1.790164589881897,-0.06351034343242645,0.0,0.0,0.0,0.0,0.0,0.0,0.0,-0.39182490014016835,-0.06301176714893897,-0.23844943286234468,0.430940421821863,0.20639736757943147,-0.11641175386314873,-0.10112453317501681,1.0544592797363332,0.3237726169335115,-0.3925156119918481,-2.1535050036766528,0.8647479865749677,2.465987417742221,0.5444839830913943,1.0544104758940245,0.3238615046091247,-0.39250456234122666,-2.153291787532338,0.8647539153680389,2.46587817577521,0.5445020185570556,-0.0006846189238616187,-0.0002939200324402678,0.0001952679527307666,-0.0002535656299754399,-8.869106597309155e-05,0.00011214446744926582,-0.0017579749722649465,0.0,0.0,0.0,0.0,0.0,0.0,0.0,-4.8803842308764445e-05,8.888767561321398e-05,1.1049650621430818e-05,0.00021321614431490943,5.928793071263705e-06,-0.00010924196701100897,1.803546566125913e-05,0.0006846189238616187,0.0002939200324402678,-0.0001952679527307666,0.0002535656299754399,8.869106597309155e-05,-0.00011214446744926582,0.0017579749722649465,0.3752071261405945,34.11452865600586,3.7990386486053467,-19.459871292114258,-0.2603049874305725,-1.790164589881897,0.06351034343242645,0
23,0.11003589630126953,-0.3752071261405945,-34.11452865600586,-3.7990386486053467,19.459871292114258,0.2603049874305725,1.790164589881897,-0.06351034343242645,0.0,0.0,0.0,0.0,0.0,0.0,0.0,-0.39182490014016835,-0.06301176714893897,-0.23844943286234468,0.430940421821863,0.20639736757943147,-0.11641175386314873,-0.10112453317501681,1.0544592797363332,0.3237726169335115,-0.3925156119918481,-2.1535050036766528,0.8647479865749677,2.465987417742221,0.5444839830913943,1.0544104758940245,0.3238615046091247,-0.39250456234122666,-2.153291787532338,0.8647539153680389,2.46587817577521,0.5445020185570556,-0.0006846189238616187,-0.0002939200324402678,0.0001952679527307666,-0.0002535656299754399,-8.869106597309155e-05,0.00011214446744926582,-0.0017579749722649465,0.0,0.0,0.0,0.0,0.0,0.0,0.0,-4.8803842308764445e-05,8.888767561321398e-05,1.1049650621430818e-05,0.00021321614431490943,5.928793071263705e-06,-0.00010924196701100897,1.803546566125913e-05,0.0006846189238616187,0.0002939200324402678,-0.0001952679527307666,0.0002535656299754399,8.869106597309155e-05,-0.00011214446744926582,0.0017579749722649465,0.3752071261405945,34.11452865600586,3.7990386486053467,-19.459871292114258,-0.2603049874305725,-1.790164589881897,0.06351034343242645,0
24,0.1150360107421875,-0.3752071261405945,-34.16213607788086,-3.8228423595428467,19.459871292114258,0.2603049874305725,1.796573281288147,-0.13217489421367645,0.0,0.0,0.0,0.0,0.0,0.0,0.0,-0.39457990270389526,-0.07364947886318168,-0.24162279902162545,0.4377185864531351,0.206082127261877,-0.11467427894142539,-0.10016266460060433,1.0544592002755717,0.3237759344753455,-0.3925129968204458,-2.1535035111375684,0.8647479472752758,2.465990604061213,0.5444917694274805,1.0544104758940245,0.3238615046091247,-0.39250456234122666,-2.153291787532338,0.8647539153680389,2.46587817577521,0.5445020185570556,-0.0009133103520684655,0.000781135034620283,0.0003658701762045943,0.0001736730861797444,1.1161892683099763e-05,-0.0003793679464665894,0.0014276688836109017,0.0,0.0,0.0,0.0,0.0,0.0,0.0,-4.872438154723824e-05,8.557013377924472e-05,8.434479219165958e-06,0.00021172360523058487,5.968092763097843e-06,-0.00011242828600321886,1.0249129575146121e-05,0.0009133103520684655,-0.000781135034620283,-0.0003658701762045943,-0.0001736730861797444,-1.1161892683099763e-05,0.0003793679464665894,-0.0014276688836109017,0.3752071261405945,34.16213607788086,3.8228423595428467,-19.459871292114258,-0.2603049874305725,-1.796573281288147,0.13217489421367645,0
25,0.12043642997741699,-0.3752071261405945,-34.16213607788086,-3.8228423595428467,19.459871292114258,0.2603049874305725,1.796573281288147,-0.13217489421367645,0.0,0.0,0.0,0.0,0.0,0.0,0.0,-0.39457990270389526,-0.07364947886318168,-0.24162279902162545,0.4377185864531351,0.206082127261877,-0.11467427894142539,-0.10016266460060433,1.0544592002755717,0.3237759344753455,-0.3925129968204458,-2.1535035111375684,0.8647479472752758,2.465990604061213,0.5444917694274805,1.0544104758940245,0.3238615046091247,-0.39250456234122666,-2.153291787532338,0.8647539153680389,2.46587817577521,0.5445020185570556,-0.0009133103520684655,0.000781135034620283,0.0003658701762045943,0.0001736730861797444,1.1161892683099763e-05,-0.0003793679464665894,0.0014276688836109017,0.0,0.0,0.0,0.0,0.0,0.0,0.0,-4.872438154723824e-05,8.557013377924472e-05,8.434479219165958e-06,0.00021172360523058487,5.968092763097843e-06,-0.00011242828600321886,1.0249129575146121e-05,0.0009133103520684655,-0.000781135034620283,-0.0003658701762045943,-0.0001736730861797444,-1.1161892683099763e-05,0.0003793679464665894,-0.0014276688836109017,0.3752071261405945,34.16213607788086,3.8228423595428467,-19.459871292114258,-0.2603049874305725,-1.796573281288147,0.13217489421367645,0
26,0.1250603199005127,-0.3752071261405945,-34.11452865600586,-3.7990386486053467,19.459871292114258,0.2603049874305725,1.790164589881897,-0.13217489421367645,0.0,0.0,0.0,0.0,0.0,0.0,0.0,-0.38255749183914944,-0.06541605831499613,-0.22919140099345708,0.43352177051309326,0.20563063041211702,-0.11682894024331326,-0.10054065635961731,1.0544591992821666,0.3237725995439793,-0.3925155304417813,-2.1535054148411086,0.8647448076603578,2.465990202742499,0.5444948305872397,1.0544104758940245,0.3238615046091247,-0.39250456234122666,-2.153291787532338,0.8647539153680389,2.46587817577521,0.5445020185570556,-0.00041224656909509024,-0.0003402438626002417,6.867212403108962e-05,0.0002729203779698825,5.861395536286582e-07,-0.00015444509605393072,0.0008139604426922493,0.0,0.0,0.0,0.0,0.0,0.0,0.0,-4.872338814210231e-05,8.890506514541707e-05,1.0968100554620275e-05,0.00021362730877072522,9.107707681144106e-06,-0.00011202696728895845,7.187969815913853e-06,0.00041224656909509024,0.0003402438626002417,-6.867212403108962e-05,-0.0002729203779698825,-5.861395536286582e-07,0.00015444509605393072,-0.0008139604426922493,0.3752071261405945,34.11452865600586,3.7990386486053467,-19.459871292114258,-0.2603049874305725,-1.790164589881897,0.13217489421367645,0
27,0.13003945350646973,-0.3752071261405945,-34.11452865600586,-3.7990386486053467,19.459871292114258,0.2603049874305725,1.790164589881897,-0.13217489421367645,0.0,0.0,0.0,0.0,0.0,0.0,0.0,-0.38255749183914944,-0.06541605831499613,-0.22919140099345708,0.43352177051309326,0.20563063041211702,-0.11682894024331326,-0.10054065635961731,1.0544591992821666,0.3237725995439793,-0.3925155304417813,-2.1535054148411086,0.8647448076603578,2.465990202742499,0.5444948305872397,1.0544104758940245,0.3238615046091247,-0.39250456234122666,-2.153291787532338,0.8647539153680389,2.46587817577521,0.5445020185570556,-0.00041224656909509024,-0.0003402438626002417,6.867212403108962e-05,0.0002729203779698825,5.861395536286582e-07,-0.00015444509605393072,0.0008139604426922493,0.0,0.0,0.0,0.0,0.0,0.0,0.0,-4.872338814210231e-05,8.890506514541707e-05,1.0968100554620275e-05,0.00021362730877072522,9.107707681144106e-06,-0.00011202696728895845,7.187969815913853e-06,0.00041224656909509024,0.0003402438626002417,-6.867212403108962e-05,-0.0002729203779698825,-5.861395536286582e-07,0.00015444509605393072,-0.0008139604426922493,0.3752071261405945,34.11452865600586,3.7990386486053467,-19.459871292114258,-0.2603049874305725,-1.790164589881897,0.13217489421367645,0
28,0.13505792617797852,-0.4029781222343445,-34.11452865600586,-3.7990386486053467,19.487642288208008,0.2603049874305725,1.790164589881897,-0.09097616374492645,0.0,0.0,0.0,0.0,0.0,0.0,0.0,-0.3903286633038928,-0.07481207091851855,-0.23719923485781047,0.4409106663655527,0.20658684426649734,-0.11639168096605362,-0.1008769241353593,1.0544613865789099,0.3237725906874504,-0.3925155858541724,-2.1535076942633133,0.8647479865570226,2.4659881241593617,0.5444870391682073,1.0544104758940245,0.3238615046091247,-0.39250456234122666,-2.153291787532338,0.8647539153680389,2.46587817577521,0.5445020185570556,0.00013722581886820484,-0.0010222000399618678,-0.00028717844543721264,-0.00024807131663429023,0.00011522902245971096,-0.00018796573333869444,-0.0005897189385601918,0.0,0.0,0.0,0.0,0.0,0.0,0.0,-5.091068488538575e-05,8.891392167431622e-05,1.1023512945740332e-05,0.0002159067309754903,5.9288110163535634e-06,-0.00010994838415179231,1.4979388848312958e-05,-0.00013722581886820484,0.0010222000399618678,0.00028717844543721264,0.00024807131663429023,-0.00011522902245971096,0.00018796573333869444,0.0005897189385601918,0.4029781222343445,34.11452865600586,3.7990386486053467,-19.487642288208008,-0.2603049874305725,-1.790164589881897,0.09097616374492645,0
29,0.14003348350524902,-0.4029781222343445,-34.11452865600586,-3.7990386486053467,19.487642288208008,0.2603049874305725,1.790164589881897,-0.09097616374492645,0.0,0.0,0.0,0.0,0.0,0.0,0.0,-0.3903286633038928,-0.07481207091851855,-0.23719923485781047,0.4409106663655527,0.20658684426649734,-0.11639168096605362,-0.1008769241353593,1.0544613865789099,0.3237725906874504,-0.3925155858541724,-2.1535076942633133,0.8647479865570226,2.4659881241593617,0.5444870391682073,1.0544104758940245,0.3238615046091247,-0.39250456234122666,-2.153291787532338,0.8647539153680389,2.46587817577521,0.5445020185570556,0.00013722581886820484,-0.0010222000399618678,-0.00028717844543721264,-0.00024807131663429023,0.00011522902245971096,-0.00018796573333869444,-0.0005897189385601918,0.0,0.0,0.0,0.0,0.0,0.0,0.0,-5.091068488538575e-05,8.891392167431622e-05,1.1023512945740332e-05,0.0002159067309754903,5.9288110163535634e-06,-0.00010994838415179231,1.4979388848312958e-05,-0.00013722581886820484,0.0010222000399618678,0.00028717844543721264,0.00024807131663429023,-0.00011522902245971096,0.00018796573333869444,0.0005897189385601918,0.4029781222343445,34.11452865600586,3.7990386486053467,-19.487642288208008,-0.2603049874305725,-1.790164589881897,0.09097616374492645,0
30,0.1450338363647461,-0.4029781222343445,-34.16213607788086,-3.7990386486053467,19.459871292114258,0.2667136788368225,1.783755898475647,-0.11844198405742645,0.0,0.0,0.0,0.0,0.0,0.0,0.0,-0.3885257277557946,-0.06394724323136197,-0.2348223729339844,0.4329922945705533,0.207042426781279,-0.11836401223922065,-0.10052864015782552,1.0544612629194687,0.3237759319191338,-0.39251561210015184,-2.1535034836291795,0.8647472744981447,2.465991851856695,0.5444900865472272,1.0544104758940245,0.3238615046091247,-0.39250456234122666,-2.153291787532338,0.8647539153680389,2.46587817577521,0.5445020185570556,0.0005659562941086765,0.0004562989013699754,-5.144905678063171e-05,-0.00011218128282502757,-0.00020606052763425534,0.00011568838706194251,0.0010497750216028644,0.0,0.0,0.0,0.0,0.0,0.0,0.0,-5.07870254442544e-05,8.557268999093148e-05,1.1049758925185671e-05,0.00021169609684168478,6.640869894214418e-06,-0.00011367608148482589,1.1932009828408141e-05,-0.0005659562941086765,-0.0004562989013699754,5.144905678063171e-05,0.00011218128282502757,0.00020606052763425534,-0.00011568838706194251,-0.0010497750216028644,0.4029781222343445,34.16213607788086,3.7990386486053467,-19.459871292114258,-0.2667136788368225,-1.783755898475647,0.11844198405742645,0
31,0.1502532958984375,-0.4029781222343445,-34.16213607788086,-3.7990386486053467,19.459871292114258,0.2667136788368225,1.783755898475647,-0.11844198405742645,0.0,0.0,0.0,0.0,0.0,0.0,0.0,-0.3885257277557946,-0.06394724323136197,-0.2348223729339844,0.4329922945705533,0.207042426781279,-0.11836401223922065,-0.10052864015782552,1.0544612629194687,0.3237759319191338,-0.39251561210015184,-2.1535034836291795,0.8647472744981447,2.465991851856695,0.5444900865472272,1.0544104758940245,0.3238615046091247,-0.39250456234122666,-2.153291787532338,0.8647539153680389,2.46587817577521,0.5445020185570556,0.0005659562941086765,0.0004562989013699754,-5.144905678063171e-05,-0.00011218128282502757,-0.00020606052763425534,0.00011568838706194251,0.0010497750216028644,0.0,0.0,0.0,0.0,0.0,0.0,0.0,-5.07870254442544e-05,8.557268999093148e-05,1.1049758925185671e-05,0.00021169609684168478,6.640869894214418e-06,-0.00011367608148482589,1.1932009828408141e-05,-0.0005659562941086765,-0.0004562989013699754,5.144905678063171e-05,0.00011218128282502757,0.00020606052763425534,-0.00011568838706194251,-0.0010497750216028644,0.4029781222343445,34.16213607788086,3.7990386486053467,-19.459871292114258,-0.2667136788368225,-1.783755898475647,0.11844198405742645,0
32,0.1549973487854004,-0.4029781222343445,-34.16213607788086,-3.8228423595428467,19.487642288208008,0.2548118233680725,1.790164589881897,-0.11844198405742645,0.0,0.0,0.0,0.0,0.0,0.0,0.0,-0.3882426930426102,-0.0725231119570996,-0.23716624794562083,0.43681650885010126,0.20707278923549344,-0.1177297762368687,-0.09976632295257754,1.0544614926160485,0.32377593155911294,-0.3925139416644447,-2.1535069248075134,0.8647485954729799,2.465988485614146,0.5444900865472025,1.0544104758940245,0.3238615046091247,-0.39250456234122666,-2.153291787532338,0.8647539153680389,2.46587817577521,0.5445020185570556,0.0009107326309439749,0.00035559655319529704,0.00038857666522311446,-0.0004890900621971416,0.00015811264697262282,-0.0001581398841396861,-1.8732486887814496e-05,0.0,0.0,0.0,0.0,0.0,0.0,0.0,-5.1016722024010974e-05,8.557305001177795e-05,9.37932321803947e-06,0.0002151372751755254,5.319895059030522e-06,-0.0001103098389361179,1.1932009853055092e-05,-0.0009107326309439749,-0.00035559655319529704,-0.00038857666522311446,0.0004890900621971416,-0.00015811264697262282,0.0001581398841396861,1.8732486887814496e-05,0.4029781222343445,34.16213607788086,3.8228423595428467,-19.487642288208008,-0.2548118233680725,-1.790164589881897,0.11844198405742645,0
33,0.159989595413208,-0.4029781222343445,-34.16213607788086,-3.8228423595428467,19.487642288208008,0.2548118233680725,1.790164589881897,-0.11844198405742645,0.0,0.0,0.0,0.0,0.0,0.0,0.0,-0.3882426930426102,-0.0725231119570996,-0.23716624794562083,0.43681650885010126,0.20707278923549344,-0.1177297762368687,-0.09976632295257754,1.0544614926160485,0.32377593155911294,-0.3925139416644447,-2.1535069248075134,0.8647485954729799,2.465988485614146,0.5444900865472025,1.0544104758940245,0.3238615046091247,-0.39250456234122666,-2.153291787532338,0.8647539153680389,2.46587817577521,0.5445020185570556,0.0009107326309439749,0.00035559655319529704,0.00038857666522311446,-0.0004890900621971416,0.00015811264697262282,-0.0001581398841396861,-1.8732486887814496e-05,0.0,0.0,0.0,0.0,0.0,0.0,0.0,-5.1016722024010974e-05,8.557305001177795e-05,9.37932321803947e-06,0.0002151372751755254,5.319895059030522e-06,-0.0001103098389361179,1.1932009853055092e-05,-0.0009107326309439749,-0.00035559655319529704,-0.00038857666522311446,0.0004890900621971416,-0.00015811264697262282,0.0001581398841396861,1.8732486887814496e-05,0.4029781222343445,34.16213607788086,3.8228423595428467,-19.487642288208008,-0.2548118233680725,-1.790164589881897,0.11844198405742645,0
34,0.1650378704071045,-0.4267818331718445,-34.13833236694336,-3.8228423595428467,19.487642288208008,0.2548118233680725,1.809390664100647,-0.11111776530742645,0.0,0.0,0.0,0.0,0.0,0.0,0.0,-0.3777278890568027,-0.07056373111600778,-0.22849230823856517,0.4340643234075639,0.2064557431068533,-0.11833392720143422,-0.10184899105450125,1.0544650438018637,0.32377638702225264,-0.3925139415564378,-2.15350769437389,0.864748596926522,2.465986354213862,0.5444892727451192,1.0544104758940245,0.3238615046091247,-0.39250456234122666,-2.153291787532338,0.8647539153680389,2.46587817577521,0.5445020185570556,0.0016133683407115102,-5.4843171073522505e-05,0.000918047164807346,-0.0008178387931552603,0.00028576710438993894,-0.0008511133335894728,0.00030728546923117765,0.0,0.0,0.0,0.0,0.0,0.0,0.0,-5.456790783919807e-05,8.511758687207438e-05,9.379215211158254e-06,0.0002159068415519272,5.318441516966033e-06,-0.0001081784386518514,1.2745811936443197e-05,-0.0016133683407115102,5.4843171073522505e-05,-0.000918047164807346,0.0008178387931552603,-0.00028576710438993894,0.0008511133335894728,-0.00030728546923117765,0.4267818331718445,34.13833236694336,3.8228423595428467,-19.487642288208008,-0.2548118233680725,-1.809390664100647,0.11111776530742645,0
35,0.17004704475402832,-0.4267818331718445,-34.13833236694336,-3.8228423595428467,19.487642288208008,0.2548118233680725,1.809390664100647,-0.11111776530742645,0.0,0.0,0.0,0.0,0.0,0.0,0.0,-0.3777278890568027,-0.07056373111600778,-0.22849230823856517,0.4340643234075639,0.2064557431068533,-0.11833392720143422,-0.10184899105450125,1.0544650438018637,0.32377638702225264,-0.3925139415564378,-2.15350769437389,0.864748596926522,2.465986354213862,0.5444892727451192,1.0544104758940245,0.3238615046091247,-0.39250456234122666,-2.153291787532338,0.8647539153680389,2.46587817577521,0.5445020185570556,0.0016133683407115102,-5.4843171073522505e-05,0.000918047164807346,-0.0008178387931552603,0.00028576710438993894,-0.0008511133335894728,0.00030728546923117765,0.0,0.0,0.0,0.0,0.0,0.0,0.0,-5.456790783919807e-05,8.511758687207438e-05,9.379215211158254e-06,0.0002159068415519272,5.318441516966033e-06,-0.0001081784386518514,1.2745811936443197e-05,-0.0016133683407115102,5.4843171073522505e-05,-0.000918047164807346,0.0008178387931552603,-0.00028576710438993894,0.0008511133335894728,-0.00030728546923117765,0.4267818331718445,34.13833236694336,3.8228423595428467,-19.487642288208008,-0.2548118233680725,-1.809390664100647,0.11111776530742645,0
36,0.17503595352172852,-0.3752071261405945,-34.16213607788086,-3.7990386486053467,19.487642288208008,0.2667136788368225,1.790164589881897,-0.09738485515117645,0.0,0.0,0.0,0.0,0.0,0.0,0.0,-0.3899252100134624,-0.0772436297178595,-0.24095688933146175,0.437178605060786,0.20698004337588968,-0.11607471727764776,-0.10162458264602356,1.054459225810799,0.32377601033211306,-0.3925134862013012,-2.153507694378234,0.864747261254687,2.465991315625629,0.5444877468662129,1.0544104758940245,0.3238615046091247,-0.39250456234122666,-2.153291787532338,0.8647539153680389,2.46587817577521,0.5445020185570556,0.00011770148354470973,0.0006964005294063034,-0.00022818524781627238,-0.00027187159030227383,-0.00030586723900119875,-7.705683281314028e-05,0.00012740979176541513,0.0,0.0,0.0,0.0,0.0,0.0,0.0,-4.874991677450424e-05,8.549427701165513e-05,8.92386007456114e-06,0.00021590684589600784,6.654113351878266e-06,-0.00011313985041905283,1.4271690842670992e-05,-0.00011770148354470973,-0.0006964005294063034,0.00022818524781627238,0.00027187159030227383,0.00030586723900119875,7.705683281314028e-05,-0.00012740979176541513,0.3752071261405945,34.16213607788086,3.7990386486053467,-19.487642288208008,-0.2667136788368225,-1.790164589881897,0.09738485515117645,0
37,0.18006062507629395,-0.3752071261405945,-34.16213607788086,-3.7990386486053467,19.487642288208008,0.2667136788368225,1.790164589881897,-0.09738485515117645,0.0,0.0,0.0,0.0,0.0,0.0,0.0,-0.3899252100134624,-0.0772436297178595,-0.24095688933146175,0.437178605060786,0.20698004337588968,-0.11607471727764776,-0.10162458264602356,1.054459225810799,0.32377601033211306,-0.3925134862013012,-2.153507694378234,0.864747261254687,2.465991315625629,0.5444877468662129,1.0544104758940245,0.3238615046091247,-0.39250456234122666,-2.153291787532338,0.8647539153680389,2.46587817577521,0.5445020185570556,0.00011770148354470973,0.0006964005294063034,-0.00022818524781627238,-0.00027187159030227383,-0.00030586723900119875,-7.705683281314028e-05,0.00012740979176541513,0.0,0.0,0.0,0.0,0.0,0.0,0.0,-4.874991677450424e-05,8.549427701165513e-05,8.92386007456114e-06,0.00021590684589600784,6.654113351878266e-06,-0.00011313985041905283,1.4271690842670992e-05,-0.00011770148354470973,-0.0006964005294063034,0.00022818524781627238,0.00027187159030227383,0.00030586723900119875,7.705683281314028e-05,-0.00012740979176541513,0.3752071261405945,34.16213607788086,3.7990386486053467,-19.487642288208008,-0.2667136788368225,-1.790164589881897,0.09738485515117645,0
38,0.18006062507629395,-0.3752071261405945,-34.16213607788086,-3.7990386486053467,19.487642288208008,0.2667136788368225,1.790164589881897,-0.09738485515117645,0.0,0.0,0.0,0.0,0.0,0.0,0.0,-0.3899252100134624,-0.0772436297178595,-0.24095688933146175,0.437178605060786,0.20698004337588968,-0.11607471727764776,-0.10162458264602356,1.054459225810799,0.32377601033211306,-0.3925134862013012,-2.153507694378234,0.864747261254687,2.465991315625629,0.5444877468662129,1.0544104758940245,0.3238615046091247,-0.39250456234122666,-2.153291787532338,0.8647539153680389,2.46587817577521,0.5445020185570556,0.00011770148354470973,0.0006964005294063034,-0.00022818524781627238,-0.00027187159030227383,-0.00030586723900119875,-7.705683281314028e-05,0.00012740979176541513,0.0,0.0,0.0,0.0,0.0,0.0,0.0,-4.874991677450424e-05,8.549427701165513e-05,8.92386007456114e-06,0.00021590684589600784,6.654113351878266e-06,-0.00011313985041905283,1.4271690842670992e-05,-0.00011770148354470973,-0.0006964005294063034,0.00022818524781627238,0.00027187159030227383,0.00030586723900119875,7.705683281314028e-05,-0.00012740979176541513,0.3752071261405945,34.16213607788086,3.7990386486053467,-19.487642288208008,-0.2667136788368225,-1.790164589881897,0.09738485515117645,0
39,0.19003534317016602,-0.4029781222343445,-34.11452865600586,-3.7990386486053467,19.459871292114258,0.2722068428993225,1.777347207069397,-0.06351034343242645,0.0,0.0,0.0,0.0,0.0,0.0,0.0,-0.3754592420985728,-0.06821753031902361,-0.23163194487115044,0.43514024555443964,0.2064363136414263,-0.11745851075315009,-0.10125135293814527,1.0544632968346932,0.3237725907355517,-0.39251490346330076,-2.153504994619784,0.8647466510646051,2.465989792517062,0.5444839830315775,1.0544104758940245,0.3238615046091247,-0.39250456234122666,-2.153291787532338,0.8647539153680389,2.46587817577521,0.5445020185570556,0.0011957000052491105,-0.0001629069653394609,0.00023197426216300254,0.00017450115522574196,-0.0003294780582980224,0.00023307495769371128,-0.001351230990389831,0.0,0.0,0.0,0.0,0.0,0.0,0.0,-5.2820940668718563e-05,8.89138735730155e-05,1.0341122074097875e-05,0.000213207087446321,7.264303433784924e-06,-0.00011161674185222736,1.8035525478077297e-05,-0.0011957000052491105,0.0001629069653394609,-0.00023197426216300254,-0.00017450115522574196,0.0003294780582980224,-0.00023307495769371128,0.001351230990389831,0.4029781222343445,34.11452865600586,3.7990386486053467,-19.459871292114258,-0.2722068428993225,-1.777347207069397,0.06351034343242645,0
40,0.1950383186340332,-0.4029781222343445,-34.11452865600586,-3.7990386486053467,19.459871292114258,0.2722068428993225,1.777347207069397,-0.06351034343242645,0.0,0.0,0.0,0.0,0.0,0.0,0.0,-0.3754592420985728,-0.06821753031902361,-0.23163194487115044,0.43514024555443964,0.2064363136414263,-0.11745851075315009,-0.10125135293814527,1.0544632968346932,0.3237725907355517,-0.39251490346330076,-2.153504994619784,0.8647466510646051,2.465989792517062,0.5444839830315775,1.0544104758940245,0.3238615046091247,-0.39250456234122666,-2.153291787532338,0.8647539153680389,2.46587817577521,0.5445020185570556,0.0011957000052491105,-0.0001629069653394609,0.00023197426216300254,0.00017450115522574196,-0.0003294780582980224,0.00023307495769371128,-0.001351230990389831,0.0,0.0,0.0,0.0,0.0,0.0,0.0,-5.2820940668718563e-05,8.89138735730155e-05,1.0341122074097875e-05,0.000213207087446321,7.264303433784924e-06,-0.00011161674185222736,1.8035525478077297e-05,-0.0011957000052491105,0.0001629069653394609,-0.00023197426216300254,-0.00017450115522574196,0.0003294780582980224,-0.00023307495769371128,0.001351230990389831,0.4029781222343445,34.11452865600586,3.7990386486053467,-19.459871292114258,-0.2722068428993225,-1.777347207069397,0.06351034343242645,0
41,0.20007801055908203,-0.4267818331718445,-34.09072494506836,-3.7990386486053467,19.487642288208008,0.2548118233680725,1.790164589881897,-0.06991903483867645,0.0,0.0,0.0,0.0,0.0,0.0,0.0,-0.3821568002229927,-0.07386936108301058,-0.2387604941168565,0.44028126622369385,0.20752816459241658,-0.11721957166364766,-0.10123081268168044,1.0544630570995723,0.32377092025154536,-0.39251558487857136,-2.153507694034833,0.8647485569807422,2.4659916284971444,0.5444878754763387,1.0544104758940245,0.3238615046091247,-0.39250456234122666,-2.153291787532338,0.8647539153680389,2.46587817577521,0.5445020185570556,0.0009194574200301393,-0.0011179778449195445,9.800628489201099e-05,-0.0007534884630490933,0.00011036687462949454,7.572841374073307e-05,-0.001123051464934111,0.0,0.0,0.0,0.0,0.0,0.0,0.0,-5.2581205547852505e-05,9.058435757935968e-05,1.1022537344695937e-05,0.00021590650249514454,5.35838729676108e-06,-0.00011345272193441502,1.4143080716899625e-05,-0.0009194574200301393,0.0011179778449195445,-9.800628489201099e-05,0.0007534884630490933,-0.00011036687462949454,-7.572841374073307e-05,0.001123051464934111,0.4267818331718445,34.09072494506836,3.7990386486053467,-19.487642288208008,-0.2548118233680725,-1.790164589881897,0.06991903483867645,0
42,0.20503783226013184,-0.4267818331718445,-34.09072494506836,-3.7990386486053467,19.487642288208008,0.2548118233680725,1.790164589881897,-0.06991903483867645,0.0,0.0,0.0,0.0,0.0,0.0,0.0,-0.3821568002229927,-0.07386936108301058,-0.2387604941168565,0.44028126622369385,0.20752816459241658,-0.11721957166364766,-0.10123081268168044,1.0544630570995723,0.32377092025154536,-0.39251558487857136,-2.153507694034833,0.8647485569807422,2.4659916284971444,0.5444878754763387,1.0544104758940245,0.3238615046091247,-0.39250456234122666,-2.153291787532338,0.8647539153680389,2.46587817577521,0.5445020185570556,0.0009194574200301393,-0.0011179778449195445,9.800628489201099e-05,-0.0007534884630490933,0.00011036687462949454,7.572841374073307e-05,-0.001123051464934111,0.0,0.0,0.0,0.0,0.0,0.0,0.0,-5.2581205547852505e-05,9.058435757935968e-05,1.1022537344695937e-05,0.00021590650249514454,5.35838729676108e-06,-0.00011345272193441502,1.4143080716899625e-05,-0.0009194574200301393,0.0011179778449195445,-9.800628489201099e-05,0.0007534884630490933,-0.00011036687462949454,-7.572841374073307e-05,0.001123051464934111,0.4267818331718445,34.09072494506836,3.7990386486053467,-19.487642288208008,-0.2548118233680725,-1.790164589881897,0.06991903483867645,0
43,0.21006011962890625,-0.4267818331718445,-34.09072494506836,-3.7990386486053467,19.487642288208008,0.2548118233680725,1.790164589881897,-0.06991903483867645,0.0,0.0,0.0,0.0,0.0,0.0,0.0,-0.3821568002229927,-0.07386936108301058,-0.2387604941168565,0.44028126622369385,0.20752816459241658,-0.11721957166364766,-0.10123081268168044,1.0544630570995723,0.32377092025154536,-0.39251558487857136,-2.153507694034833,0.8647485569807422,2.4659916284971444,0.5444878754763387,1.0544104758940245,0.3238615046091247,-0.39250456234122666,-2.153291787532338,0.8647539153680389,2.46587817577521,0.5445020185570556,0.0009194574200301393,-0.0011179778449195445,9.800628489201099e-05,-0.0007534884630490933,0.00011036687462949454,7.572841374073307e-05,-0.001123051464934111,0.0,0.0,0.0,0.0,0.0,0.0,0.0,-5.2581205547852505e-05,9.058435757935968e-05,1.1022537344695937e-05,0.00021590650249514454,5.35838729676108e-06,-0.00011345272193441502,1.4143080716899625e-05,-0.0009194574200301393,0.0011179778449195445,-9.800628489201099e-05,0.0007534884630490933,-0.00011036687462949454,-7.572841374073307e-05,0.001123051464934111,0.4267818331718445,34.09072494506836,3.7990386486053467,-19.487642288208008,-0.2548118233680725,-1.790164589881897,0.06991903483867645,0
44,0.21506381034851074,-0.4267818331718445,-34.09072494506836,-3.7990386486053467,19.487642288208008,0.2548118233680725,1.790164589881897,-0.06991903483867645,0.0,0.0,0.0,0.0,0.0,0.0,0.0,-0.3821568002229927,-0.07386936108301058,-0.2387604941168565,0.44028126622369385,0.20752816459241658,-0.11721957166364766,-0.10123081268168044,1.0544630570995723,0.32377092025154536,-0.39251558487857136,-2.153507694034833,0.8647485569807422,2.4659916284971444,0.5444878754763387,1.0544104758940245,0.3238615046091247,-0.39250456234122666,-2.153291787532338,0.8647539153680389,2.46587817577521,0.5445020185570556,0.0009194574200301393,-0.0011179778449195445,9.800628489201099e-05,-0.0007534884630490933,0.00011036687462949454,7.572841374073307e-05,-0.001123051464934111,0.0,0.0,0.0,0.0,0.0,0.0,0.0,-5.2581205547852505e-05,9.058435757935968e-05,1.1022537344695937e-05,0.00021590650249514454,5.35838729676108e-06,-0.00011345272193441502,1.4143080716899625e-05,-0.0009194574200301393,0.0011179778449195445,-9.800628489201099e-05,0.0007534884630490933,-0.00011036687462949454,-7.572841374073307e-05,0.001123051464934111,0.4267818331718445,34.09072494506836,3.7990386486053467,-19.487642288208008,-0.2548118233680725,-1.790164589881897,0.06991903483867645,0
45,0.2200324535369873,-0.4029781222343445,-34.11452865600586,-3.7990386486053467,19.487642288208008,0.2548118233680725,1.796573281288147,-0.06351034343242645,0.0,0.0,0.0,0.0,0.0,0.0,0.0,-0.3882751509879396,-0.07103827288082878,-0.23821561708998717,0.43991520523681943,0.2075500779290753,-0.11715334246640899,-0.10021542909988453,1.054461227634537,0.32377259068740044,-0.39251561210014635,-2.153507691175038,0.8647443583737873,2.4659909398570345,0.544483983103366,1.0544104758940245,0.3238615046091247,-0.39250456234122666,-2.153291787532338,0.8647539153680389,2.46587817577521,0.5445020185570556,-0.0002570593025170553,-0.0004800042780580265,0.00025244290250513564,-0.00030969953342941753,0.00035417986474434345,-0.00032562820836304395,-0.0007171606348549534,0.0,0.0,0.0,0.0,0.0,0.0,0.0,-5.075174051261122e-05,8.891392172427626e-05,1.1049758919690067e-05,0.00021590364270007711,9.556994251647133e-06,-0.00011276408182459008,1.8035453689613234e-05,0.0002570593025170553,0.0004800042780580265,-0.00025244290250513564,0.00030969953342941753,-0.00035417986474434345,0.00032562820836304395,0.0007171606348549534,0.4029781222343445,34.11452865600586,3.7990386486053467,-19.487642288208008,-0.2548118233680725,-1.796573281288147,0.06351034343242645,0
46,0.22503280639648438,-0.4029781222343445,-34.11452865600586,-3.7990386486053467,19.487642288208008,0.2548118233680725,1.796573281288147,-0.06351034343242645,0.0,0.0,0.0,0.0,0.0,0.0,0.0,-0.3882751509879396,-0.07103827288082878,-0.23821561708998717,0.43991520523681943,0.2075500779290753,-0.11715334246640899,-0.10021542909988453,1.054461227634537,0.32377259068740044,-0.39251561210014635,-2.153507691175038,0.8647443583737873,2.4659909398570345,0.544483983103366,1.0544104758940245,0.3238615046091247,-0.39250456234122666,-2.153291787532338,0.8647539153680389,2.46587817577521,0.5445020185570556,-0.0002570593025170553,-0.0004800042780580265,0.00025244290250513564,-0.00030969953342941753,0.00035417986474434345,-0.00032562820836304395,-0.0007171606348549534,0.0,0.0,0.0,0.0,0.0,0.0,0.0,-5.075174051261122e-05,8.891392172427626e-05,1.1049758919690067e-05,0.00021590364270007711,9.556994251647133e-06,-0.00011276408182459008,1.8035453689613234e-05,0.0002570593025170553,0.0004800042780580265,-0.00025244290250513564,0.00030969953342941753,-0.00035417986474434345,0.00032562820836304395,0.0007171606348549534,0.4029781222343445,34.11452865600586,3.7990386486053467,-19.487642288208008,-0.2548118233680725,-1.796573281288147,0.06351034343242645,0
47,0.2300429344177246,-0.4267818331718445,-34.09072494506836,-3.8228423595428467,19.487642288208008,0.2667136788368225,1.783755898475647,-0.06991903483867645,0.0,0.0,0.0,0.0,0.0,0.0,0.0,-0.38546704134391985,-0.07411168252156336,-0.23098768162827257,0.44182846787325464,0.20725688673378084,-0.1171169180382625,-0.09865570038374602,1.054465079121639,0.3237709464972117,-0.3925139416644447,-2.1535068702152262,0.8647472744742181,2.4659913174008,0.5444846952699064,1.0544104758940245,0.3238615046091247,-0.39250456234122666,-2.153291787532338,0.8647539153680389,2.46587817577521,0.5445020185570556,0.0006385262825564181,-0.0014579101785919155,0.0007228069770455371,-0.0005191549225268054,-0.0003080512510459383,0.00019299543223549032,-0.0014662894539452553,0.0,0.0,0.0,0.0,0.0,0.0,0.0,-5.460322761452474e-05,9.055811191299723e-05,9.37932321803947e-06,0.00021508268288839005,6.640893820852867e-06,-0.00011314162559017404,1.7323287149206834e-05,-0.0006385262825564181,0.0014579101785919155,-0.0007228069770455371,0.0005191549225268054,0.0003080512510459383,-0.00019299543223549032,0.0014662894539452553,0.4267818331718445,34.09072494506836,3.8228423595428467,-19.487642288208008,-0.2667136788368225,-1.783755898475647,0.06991903483867645,0
48,0.23504328727722168,-0.4267818331718445,-34.09072494506836,-3.8228423595428467,19.487642288208008,0.2667136788368225,1.783755898475647,-0.06991903483867645,0.0,0.0,0.0,0.0,0.0,0.0,0.0,-0.38546704134391985,-0.07411168252156336,-0.23098768162827257,0.44182846787325464,0.20725688673378084,-0.1171169180382625,-0.09865570038374602,1.054465079121639,0.3237709464972117,-0.3925139416644447,-2.1535068702152262,0.8647472744742181,2.4659913174008,0.5444846952699064,1.0544104758940245,0.3238615046091247,-0.39250456234122666,-2.153291787532338,0.8647539153680389,2.46587817577521,0.5445020185570556,0.0006385262825564181,-0.0014579101785919155,0.0007228069770455371,-0.0005191549225268054,-0.0003080512510459383,0.00019299543223549032,-0.0014662894539452553,0.0,0.0,0.0,0.0,0.0,0.0,0.0,-5.460322761452474e-05,9.055811191299723e-05,9.37932321803947e-06,0.00021508268288839005,6.640893820852867e-06,-0.00011314162559017404,1.7323287149206834e-05,-0.0006385262825564181,0.0014579101785919155,-0.0007228069770455371,0.0005191549225268054,0.0003080512510459383,-0.00019299543223549032,0.0014662894539452553,0.4267818331718445,34.09072494506836,3.8228423595428467,-19.487642288208008,-0.2667136788368225,-1.783755898475647,0.06991903483867645,0
49,0.24005913734436035,-0.4505855441093445,-34.13833236694336,-3.8506133556365967,19.487642288208008,0.2603049874305725,1.796573281288147,-0.09097616374492645,0.0,0.0,0.0,0.0,0.0,0.0,0.0,-0.38386263087480843,-0.08516905421177925,-0.23072702723732202,0.44857057638230174,0.20697494224006874,-0.11654688070791096,-0.09945786428345654,1.0544668831510737,0.3237742611234038,-0.39251175369542873,-2.1535076943358966,0.8647479429684601,2.4659898839277576,0.5444870347893909,1.0544104758940245,0.3238615046091247,-0.39250456234122666,-2.153291787532338,0.8647539153680389,2.46587817577521,0.5445020185570556,0.0013514856511026778,-0.0006495190597804495,0.0013095786462451553,-0.00010472420680020913,0.00011468366970118509,-0.0003673957646997177,7.369460649140323e-05,0.0,0.0,0.0,0.0,0.0,0.0,0.0,-5.6407257049251314e-05,8.724348572092255e-05,7.191354202074063e-06,0.00021590680355876302,5.972399578779708e-06,-0.00011170815254768485,1.4983767664733527e-05,-0.0013514856511026778,0.0006495190597804495,-0.0013095786462451553,0.00010472420680020913,-0.00011468366970118509,0.0003673957646997177,-7.369460649140323e-05,0.4505855441093445,34.13833236694336,3.8506133556365967,-19.487642288208008,-0.2603049874305725,-1.796573281288147,0.09097616374492645,0
50,0.24503397941589355,-0.4505855441093445,-34.13833236694336,-3.8506133556365967,19.487642288208008,0.2603049874305725,1.796573281288147,-0.09097616374492645,0.0,0.0,0.0,0.0,0.0,0.0,0.0,-0.38386263087480843,-0.08516905421177925,-0.23072702723732202,0.44857057638230174,0.20697494224006874,-0.11654688070791096,-0.09945786428345654,1.0544668831510737,0.3237742611234038,-0.39251175369542873,-2.1535076943358966,0.8647479429684601,2.4659898839277576,0.5444870347893909,1.0544104758940245,0.3238615046091247,-0.39250456234122666,-2.153291787532338,0.8647539153680389,2.46587817577521,0.5445020185570556,0.0013514856511026778,-0.0006495190597804495,0.0013095786462451553,-0.00010472420680020913,0.00011468366970118509,-0.0003673957646997177,7.369460649140323e-05,0.0,0.0,0.0,0.0,0.0,0.0,0.0,-5.6407257049251314e-05,8.724348572092255e-05,7.191354202074063e-06,0.00021590680355876302,5.972399578779708e-06,-0.00011170815254768485,1.4983767664733527e-05,-0.0013514856511026778,0.0006495190597804495,-0.0013095786462451553,0.00010472420680020913,-0.00011468366970118509,0.0003673957646997177,-7.369460649140323e-05,0.4505855441093445,34.13833236694336,3.8506133556365967,-19.487642288208008,-0.2603049874305725,-1.796573281288147,0.09097616374492645,0
51,0.25003671646118164,-0.4029781222343445,-34.13833236694336,-3.7990386486053467,19.487642288208008,0.2603049874305725,1.783755898475647,-0.13217489421367645,0.0,0.0,0.0,0.0,0.0,0.0,0.0,-0.3794090577946297,-0.05984137685867128,-0.22433417499741407,0.43635766301326867,0.20622246937228636,-0.118573777495451,-0.10045791863481465,1.0544633213678087,0.3237742614472762,-0.39251561209985003,-2.1535076943405493,0.8647478688373157,2.4659920238242985,0.5444947913404967,1.0544104758940245,0.3238615046091247,-0.39250456234122666,-2.153291787532338,0.8647539153680389,2.46587817577521,0.5445020185570556,0.0004246094381134243,0.00032100868551548337,0.0005856064381825768,-0.000300497958149814,7.599342997957094e-05,0.00014404397110017144,0.001154631844591137,0.0,0.0,0.0,0.0,0.0,0.0,0.0,-5.2845473784257635e-05,8.724316184849368e-05,1.1049758623371542e-05,0.00021590680821148567,6.046530723224919e-06,-0.00011384804908853852,7.227216558880478e-06,-0.0004246094381134243,-0.00032100868551548337,-0.0005856064381825768,0.000300497958149814,-7.599342997957094e-05,-0.00014404397110017144,-0.001154631844591137,0.4029781222343445,34.13833236694336,3.7990386486053467,-19.487642288208008,-0.2603049874305725,-1.783755898475647,0.13217489421367645,0
52,0.255037784576416,-0.4029781222343445,-34.13833236694336,-3.7990386486053467,19.487642288208008,0.2603049874305725,1.783755898475647,-0.13217489421367645,0.0,0.0,0.0,0.0,0.0,0.0,0.0,-0.3794090577946297,-0.05984137685867128,-0.22433417499741407,0.43635766301326867,0.20622246937228636,-0.118573777495451,-0.10045791863481465,1.0544633213678087,0.3237742614472762,-0.39251561209985003,-2.1535076943405493,0.8647478688373157,2.4659920238242985,0.5444947913404967,1.0544104758940245,0.3238615046091247,-0.39250456234122666,-2.153291787532338,0.8647539153680389,2.46587817577521,0.5445020185570556,0.0004246094381134243,0.00032100868551548337,0.0005856064381825768,-0.000300497958149814,7.599342997957094e-05,0.00014404397110017144,0.001154631844591137,0.0,0.0,0.0,0.0,0.0,0.0,0.0,-5.2845473784257635e-05,8.724316184849368e-05,1.1049758623371542e-05,0.00021590680821148567,6.046530723224919e-06,-0.00011384804908853852,7.227216558880478e-06,-0.0004246094381134243,-0.00032100868551548337,-0.0005856064381825768,0.000300497958149814,-7.599342997957094e-05,-0.00014404397110017144,-0.001154631844591137,0.4029781222343445,34.13833236694336,3.7990386486053467,-19.487642288208008,-0.2603049874305725,-1.783755898475647,0.13217489421367645,0
53,0.2600398063659668,-0.3752071261405945,-34.18990707397461,-3.7990386486053467,19.487642288208008,0.2603049874305725,1.777347207069397,-0.08365194499492645,0.0,0.0,0.0,0.0,0.0,0.0,0.0,-0.3859427814849458,-0.06700842662970576,-0.23102885106243434,0.44071496293805834,0.2067338233215179,-0.11784415437089778,-0.1005579282314243,1.0544595185304018,0.32377788331712903,-0.3925156121003,-2.15350761192425,0.8647479865743031,2.4659927401541024,0.5444862602511084,1.0544104758940245,0.3238615046091247,-0.39250456234122666,-2.153291787532338,0.8647539153680389,2.46587817577521,0.5445020185570556,0.0005783343580059967,0.001482390206469962,0.00016822483417282654,-0.000521094778998659,-9.32569413848725e-05,0.00044821315805870635,-0.0007405484325848951,0.0,0.0,0.0,0.0,0.0,0.0,0.0,-4.9042636377283344e-05,8.362129199568358e-05,1.1049759073344934e-05,0.00021582439191236702,5.9287937358432075e-06,-0.00011456437889245663,1.5758305947244367e-05,-0.0005783343580059967,-0.001482390206469962,-0.00016822483417282654,0.000521094778998659,9.32569413848725e-05,-0.00044821315805870635,0.0007405484325848951,0.3752071261405945,34.18990707397461,3.7990386486053467,-19.487642288208008,-0.2603049874305725,-1.777347207069397,0.08365194499492645,0
54,0.26551246643066406,-0.3752071261405945,-34.18990707397461,-3.7990386486053467,19.487642288208008,0.2603049874305725,1.777347207069397,-0.08365194499492645,0.0,0.0,0.0,0.0,0.0,0.0,0.0,-0.3859427814849458,-0.06700842662970576,-0.23102885106243434,0.44071496293805834,0.2067338233215179,-0.11784415437089778,-0.1005579282314243,1.0544595185304018,0.32377788331712903,-0.3925156121003,-2.15350761192425,0.8647479865743031,2.4659927401541024,0.5444862602511084,1.0544104758940245,0.3238615046091247,-0.39250456234122666,-2.153291787532338,0.8647539153680389,2.46587817577521,0.5445020185570556,0.0005783343580059967,0.001482390206469962,0.00016822483417282654,-0.000521094778998659,-9.32569413848725e-05,0.00044821315805870635,-0.0007405484325848951,0.0,0.0,0.0,0.0,0.0,0.0,0.0,-4.9042636377283344e-05,8.362129199568358e-05,1.1049759073344934e-05,0.00021582439191236702,5.9287937358432075e-06,-0.00011456437889245663,1.5758305947244367e-05,-0.0005783343580059967,-0.001482390206469962,-0.00016822483417282654,0.000521094778998659,9.32569413848725e-05,-0.00044821315805870635,0.0007405484325848951,0.3752071261405945,34.18990707397461,3.7990386486053467,-19.487642288208008,-0.2603049874305725,-1.777347207069397,0.08365194499492645,0
55,0.2700357437133789,-0.3752071261405945,-34.13833236694336,-3.7990386486053467,19.436067581176758,0.2548118233680725,1.783755898475647,-0.10470907390117645,0.0,0.0,0.0,0.0,0.0,0.0,0.0,-0.3932856083045351,-0.07222500907135627,-0.24041299237053212,0.4394770312675398,0.20706505435106823,-0.11720711775121113,-0.10044528007323951,1.0544593052477762,0.3237742611232721,-0.39251348620130305,-2.153503980360907,0.8647485954729799,2.4659923799979686,0.5444885606685179,1.0544104758940245,0.3238615046091247,-0.39250456234122666,-2.153291787532338,0.8647539153680389,2.46587817577521,0.5445020185570556,-0.0003436681412565762,-0.00018155126505923193,0.00030660771284912145,0.00043264022008558477,0.00033301359545134145,0.00023079519488079382,0.0003008722819343487,0.0,0.0,0.0,0.0,0.0,0.0,0.0,-4.882935375172259e-05,8.7243485852595e-05,8.923860076393009e-06,0.00021219282856899113,5.319895059030522e-06,-0.0001142042227586515,1.3457888537682372e-05,0.0003436681412565762,0.00018155126505923193,-0.00030660771284912145,-0.00043264022008558477,-0.00033301359545134145,-0.00023079519488079382,-0.0003008722819343487,0.3752071261405945,34.13833236694336,3.7990386486053467,-19.436067581176758,-0.2548118233680725,-1.783755898475647,0.10470907390117645,0
56,0.2749931812286377,-0.3752071261405945,-34.13833236694336,-3.7990386486053467,19.436067581176758,0.2548118233680725,1.783755898475647,-0.10470907390117645,0.0,0.0,0.0,0.0,0.0,0.0,0.0,-0.3932856083045351,-0.07222500907135627,-0.24041299237053212,0.4394770312675398,0.20706505435106823,-0.11720711775121113,-0.10044528007323951,1.0544593052477762,0.3237742611232721,-0.39251348620130305,-2.153503980360907,0.8647485954729799,2.4659923799979686,0.5444885606685179,1.0544104758940245,0.3238615046091247,-0.39250456234122666,-2.153291787532338,0.8647539153680389,2.46587817577521,0.5445020185570556,-0.0003436681412565762,-0.00018155126505923193,0.00030660771284912145,0.00043264022008558477,0.00033301359545134145,0.00023079519488079382,0.0003008722819343487,0.0,0.0,0.0,0.0,0.0,0.0,0.0,-4.882935375172259e-05,8.7243485852595e-05,8.923860076393009e-06,0.00021219282856899113,5.319895059030522e-06,-0.0001142042227586515,1.3457888537682372e-05,0.0003436681412565762,0.00018155126505923193,-0.00030660771284912145,-0.00043264022008558477,-0.00033301359545134145,-0.00023079519488079382,-0.0003008722819343487,0.3752071261405945,34.13833236694336,3.7990386486053467,-19.436067581176758,-0.2548118233680725,-1.783755898475647,0.10470907390117645,0
57,0.28006815910339355,-0.4029781222343445,-34.13833236694336,-3.7990386486053467,19.412263870239258,0.2667136788368225,1.802981972694397,-0.06351034343242645,0.0,0.0,0.0,0.0,0.0,0.0,0.0,-0.38922179982130956,-0.07275468018830304,-0.23611234604968287,0.4376003744504094,0.20667378528397154,-0.11748794532053593,-0.1007612273455075,1.0544612275974499,0.3237742611232557,-0.3925156120882992,-2.1535024046641573,0.8647440432559397,2.465988710220142,0.5444840224389397,1.0544104758940245,0.3238615046091247,-0.39250456234122666,-2.153291787532338,0.8647539153680389,2.46587817577521,0.5445020185570556,0.0001861853551228266,9.19116421626143e-05,1.384188583415115e-05,0.0013786155169943145,-0.0002487998820600795,-0.0008280889269149161,-0.0014470203536239056,0.0,0.0,0.0,0.0,0.0,0.0,0.0,-5.075170342538904e-05,8.72434858690263e-05,1.1049747072555682e-05,0.00021061713181946828,9.87211209924066e-06,-0.00011053444493214215,1.7996118115926052e-05,-0.0001861853551228266,-9.19116421626143e-05,-1.384188583415115e-05,-0.0013786155169943145,0.0002487998820600795,0.0008280889269149161,0.0014470203536239056,0.4029781222343445,34.13833236694336,3.7990386486053467,-19.412263870239258,-0.2667136788368225,-1.802981972694397,0.06351034343242645,0
58,0.285036563873291,-0.4029781222343445,-34.13833236694336,-3.7990386486053467,19.412263870239258,0.2667136788368225,1.802981972694397,-0.06351034343242645,0.0,0.0,0.0,0.0,0.0,0.0,0.0,-0.38922179982130956,-0.07275468018830304,-0.23611234604968287,0.4376003744504094,0.20667378528397154,-0.11748794532053593,-0.1007612273455075,1.0544612275974499,0.3237742611232557,-0.3925156120882992,-2.1535024046641573,0.8647440432559397,2.465988710220142,0.5444840224389397,1.0544104758940245,0.3238615046091247,-0.39250456234122666,-2.153291787532338,0.8647539153680389,2.46587817577521,0.5445020185570556,0.0001861853551228266,9.19116421626143e-05,1.384188583415115e-05,0.0013786155169943145,-0.0002487998820600795,-0.0008280889269149161,-0.0014470203536239056,0.0,0.0,0.0,0.0,0.0,0.0,0.0,-5.075170342538904e-05,8.72434858690263e-05,1.1049747072555682e-05,0.00021061713181946828,9.87211209924066e-06,-0.00011053444493214215,1.7996118115926052e-05,-0.0001861853551228266,-9.19116421626143e-05,-1.384188583415115e-05,-0.0013786155169943145,0.0002487998820600795,0.0008280889269149161,0.0014470203536239056,0.4029781222343445,34.13833236694336,3.7990386486053467,-19.412263870239258,-0.2667136788368225,-1.802981972694397,0.06351034343242645,0
59,0.2899916172027588,-0.4029781222343445,-34.16213607788086,-3.8228423595428467,19.487642288208008,0.2603049874305725,1.783755898475647,-0.07724325358867645,0.0,0.0,0.0,0.0,0.0,0.0,0.0,-0.3796983120883581,-0.08117260260829923,-0.22989976850920743,0.44141929072471586,0.20581588684038346,-0.11767365364385078,-0.100722457574002,1.0544618633801779,0.3237766401921099,-0.39251394166444464,-2.1535074193180757,0.8647479865567272,2.4659923814448486,0.5444891602289241,1.0544104758940245,0.3238615046091247,-0.39250456234122666,-2.153291787532338,0.8647539153680389,2.46587817577521,0.5445020185570556,0.0008246340937466289,4.129894854305702e-05,0.00044181697875295015,-0.0003642232278506409,-2.8781031247511305e-06,0.0001332381538623944,-0.0009725268229775441,0.0,0.0,0.0,0.0,0.0,0.0,0.0,-5.1387486153409156e-05,8.486441701482939e-05,9.37932321798396e-06,0.00021563178573780206,5.928811311672888e-06,-0.00011420566963860068,1.285832813147092e-05,-0.0008246340937466289,-4.129894854305702e-05,-0.00044181697875295015,0.0003642232278506409,2.8781031247511305e-06,-0.0001332381538623944,0.0009725268229775441,0.4029781222343445,34.16213607788086,3.8228423595428467,-19.487642288208008,-0.2603049874305725,-1.783755898475647,0.07724325358867645,0
60,0.29505443572998047,-0.4029781222343445,-34.16213607788086,-3.8228423595428467,19.487642288208008,0.2603049874305725,1.783755898475647,-0.07724325358867645,0.0,0.0,0.0,0.0,0.0,0.0,0.0,-0.3796983120883581,-0.08117260260829923,-0.22989976850920743,0.44141929072471586,0.20581588684038346,-0.11767365364385078,-0.100722457574002,1.0544618633801779,0.3237766401921099,-0.39251394166444464,-2.1535074193180757,0.8647479865567272,2.4659923814448486,0.5444891602289241,1.0544104758940245,0.3238615046091247,-0.39250456234122666,-2.153291787532338,0.8647539153680389,2.46587817577521,0.5445020185570556,0.0008246340937466289,4.129894854305702e-05,0.00044181697875295015,-0.0003642232278506409,-2.8781031247511305e-06,0.0001332381538623944,-0.0009725268229775441,0.0,0.0,0.0,0.0,0.0,0.0,0.0,-5.1387486153409156e-05,8.486441701482939e-05,9.37932321798396e-06,0.00021563178573780206,5.928811311672888e-06,-0.00011420566963860068,1.285832813147092e-05,-0.0008246340937466289,-4.129894854305702e-05,-0.00044181697875295015,0.0003642232278506409,2.8781031247511305e-06,-0.0001332381538623944,0.0009725268229775441,0.4029781222343445,34.16213607788086,3.8228423595428467,-19.487642288208008,-0.2603049874305725,-1.783755898475647,0.07724325358867645,0
61,0.3000636100769043,-0.4029781222343445,-34.11452865600586,-3.7752349376678467,19.487642288208008,0.2667136788368225,1.790164589881897,-0.13217489421367645,0.0,0.0,0.0,0.0,0.0,0.0,0.0,-0.387599504149805,-0.06085345567086995,-0.23815114576224974,0.4280626394804559,0.20607683108880864,-0.1183509092393884,-0.10197726185209537,1.0544611511777935,0.3237725907967407,-0.39251728210412784,-2.1535069526310258,0.8647472744981448,2.4659916154338264,0.5444917301705492,1.0544104758940245,0.3238615046091247,-0.39250456234122666,-2.153291787532338,0.8647539153680389,2.46587817577521,0.5445020185570556,0.00038984636374173466,-9.884399184219834e-05,-0.0006167111612245396,-0.0007015517587915922,-0.00019514676756261323,-0.00016736077007864085,0.0014158937146768662,0.0,0.0,0.0,0.0,0.0,0.0,0.0,-5.067528376900832e-05,8.891381238401719e-05,1.2719762901181042e-05,0.00021516509868790834,6.640869894103396e-06,-0.00011343965861643213,1.0288386506407399e-05,-0.00038984636374173466,9.884399184219834e-05,0.0006167111612245396,0.0007015517587915922,0.00019514676756261323,0.00016736077007864085,-0.0014158937146768662,0.4029781222343445,34.11452865600586,3.7752349376678467,-19.487642288208008,-0.2667136788368225,-1.790164589881897,0.13217489421367645,0
62,0.3050377368927002,-0.4029781222343445,-34.11452865600586,-3.7752349376678467,19.487642288208008,0.2667136788368225,1.790164589881897,-0.13217489421367645,0.0,0.0,0.0,0.0,0.0,0.0,0.0,-0.387599504149805,-0.06085345567086995,-0.23815114576224974,0.4280626394804559,0.20607683108880864,-0.1183509092393884,-0.10197726185209537,1.0544611511777935,0.3237725907967407,-0.39251728210412784,-2.1535069526310258,0.8647472744981448,2.4659916154338264,0.5444917301705492,1.0544104758940245,0.3238615046091247,-0.39250456234122666,-2.153291787532338,0.8647539153680389,2.46587817577521,0.5445020185570556,0.00038984636374173466,-9.884399184219834e-05,-0.0006167111612245396,-0.0007015517587915922,-0.00019514676756261323,-0.00016736077007864085,0.0014158937146768662,0.0,0.0,0.0,0.0,0.0,0.0,0.0,-5.067528376900832e-05,8.891381238401719e-05,1.2719762901181042e-05,0.00021516509868790834,6.640869894103396e-06,-0.00011343965861643213,1.0288386506407399e-05,-0.00038984636374173466,9.884399184219834e-05,0.0006167111612245396,0.0007015517587915922,0.00019514676756261323,0.00016736077007864085,-0.0014158937146768662,0.4029781222343445,34.11452865600586,3.7752349376678467,-19.487642288208008,-0.2667136788368225,-1.790164589881897,0.13217489421367645,0
63,0.3100461959838867,-0.4029781222343445,-34.11452865600586,-3.7752349376678467,19.487642288208008,0.2667136788368225,1.790164589881897,-0.13217489421367645,0.0,0.0,0.0,0.0,0.0,0.0,0.0,-0.387599504149805,-0.06085345567086995,-0.23815114576224974,0.4280626394804559,0.20607683108880864,-0.1183509092393884,-0.10197726185209537,1.0544611511777935,0.3237725907967407,-0.39251728210412784,-2.1535069526310258,0.8647472744981448,2.4659916154338264,0.5444917301705492,1.0544104758940245,0.3238615046091247,-0.39250456234122666,-2.153291787532338,0.8647539153680389,2.46587817577521,0.5445020185570556,0.00038984636374173466,-9.884399184219834e-05,-0.0006167111612245396,-0.0007015517587915922,-0.00019514676756261323,-0.00016736077007864085,0.0014158937146768662,0.0,0.0,0.0,0.0,0.0,0.0,0.0,-5.067528376900832e-05,8.891381238401719e-05,1.2719762901181042e-05,0.00021516509868790834,6.640869894103396e-06,-0.00011343965861643213,1.0288386506407399e-05,-0.00038984636374173466,9.884399184219834e-05,0.0006167111612245396,0.0007015517587915922,0.00019514676756261323,0.00016736077007864085,-0.0014158937146768662,0.4029781222343445,34.11452865600586,3.7752349376678467,-19.487642288208008,-0.2667136788368225,-1.790164589881897,0.13217489421367645,0
64,0.31504106521606445,-0.4029781222343445,-34.11452865600586,-3.7752349376678467,19.487642288208008,0.2667136788368225,1.790164589881897,-0.13217489421367645,0.0,0.0,0.0,0.0,0.0,0.0,0.0,-0.387599504149805,-0.06085345567086995,-0.23815114576224974,0.4280626394804559,0.20607683108880864,-0.1183509092393884,-0.10197726185209537,1.0544611511777935,0.3237725907967407,-0.39251728210412784,-2.1535069526310258,0.8647472744981448,2.4659916154338264,0.5444917301705492,1.0544104758940245,0.3238615046091247,-0.39250456234122666,-2.153291787532338,0.8647539153680389,2.46587817577521,0.5445020185570556,0.00038984636374173466,-9.884399184219834e-05,-0.0006167111612245396,-0.0007015517587915922,-0.00019514676756261323,-0.00016736077007864085,0.0014158937146768662,0.0,0.0,0.0,0.0,0.0,0.0,0.0,-5.067528376900832e-05,8.891381238401719e-05,1.2719762901181042e-05,0.00021516509868790834,6.640869894103396e-06,-0.00011343965861643213,1.0288386506407399e-05,-0.00038984636374173466,9.884399184219834e-05,0.0006167111612245396,0.0007015517587915922,0.00019514676756261323,0.00016736077007864085,-0.0014158937146768662,0.4029781222343445,34.11452865600586,3.7752349376678467,-19.487642288208008,-0.2667136788368225,-1.790164589881897,0.13217489421367645,0
65,0.3200397491455078,-0.4029781222343445,-34.11452865600586,-3.8228423595428467,19.436067581176758,0.2722068428993225,1.790164589881897,-0.12485067546367645,0.0,0.0,0.0,0.0,0.0,0.0,0.0,-0.38895792064205226,-0.06850415412921904,-0.24057418296206753,0.43344914822510205,0.20686657450899834,-0.11731615790743531,-0.10187108912545255,1.054461148160348,0.3237728268984007,-0.39251394166444226,-2.153504065599832,0.8647466641465823,2.465991316002171,0.5444939789926284,1.0544104758940245,0.3238615046091247,-0.39250456234122666,-2.153291787532338,0.8647539153680389,2.46587817577521,0.5445020185570556,5.248512808301586e-05,3.6788067156108915e-05,0.00044371163055427964,0.00041603542124750436,-0.0003271915466364064,-0.000113895412317561,0.0007583203679700679,0.0,0.0,0.0,0.0,0.0,0.0,0.0,-5.0672266323603665e-05,8.867771072401665e-05,9.37932321559698e-06,0.0002122780674942426,7.251221456616719e-06,-0.0001131402269609616,8.039564427186896e-06,-5.248512808301586e-05,-3.6788067156108915e-05,-0.00044371163055427964,-0.00041603542124750436,0.0003271915466364064,0.000113895412317561,-0.0007583203679700679,0.4029781222343445,34.11452865600586,3.8228423595428467,-19.436067581176758,-0.2722068428993225,-1.790164589881897,0.12485067546367645,0
66,0.32504844665527344,-0.4029781222343445,-34.11452865600586,-3.8228423595428467,19.436067581176758,0.2722068428993225,1.790164589881897,-0.12485067546367645,0.0,0.0,0.0,0.0,0.0,0.0,0.0,-0.38895792064205226,-0.06850415412921904,-0.24057418296206753,0.43344914822510205,0.20686657450899834,-0.11731615790743531,-0.10187108912545255,1.054461148160348,0.3237728268984007,-0.39251394166444226,-2.153504065599832,0.8647466641465823,2.465991316002171,0.5444939789926284,1.0544104758940245,0.3238615046091247,-0.39250456234122666,-2.153291787532338,0.8647539153680389,2.46587817577521,0.5445020185570556,5.248512808301586e-05,3.6788067156108915e-05,0.00044371163055427964,0.00041603542124750436,-0.0003271915466364064,-0.000113895412317561,0.0007583203679700679,0.0,0.0,0.0,0.0,0.0,0.0,0.0,-5.0672266323603665e-05,8.867771072401665e-05,9.37932321559698e-06,0.0002122780674942426,7.251221456616719e-06,-0.0001131402269609616,8.039564427186896e-06,-5.248512808301586e-05,-3.6788067156108915e-05,-0.00044371163055427964,-0.00041603542124750436,0.0003271915466364064,0.000113895412317561,-0.0007583203679700679,0.4029781222343445,34.11452865600586,3.8228423595428467,-19.436067581176758,-0.2722068428993225,-1.790164589881897,0.12485067546367645,0
67,0.33006882667541504,-0.4267818331718445,-34.11452865600586,-3.7990386486053467,19.459871292114258,0.2603049874305725,1.796573281288147,-0.10470907390117645,0.0,0.0,0.0,0.0,0.0,0.0,0.0,-0.38903280313389,-0.06233157802512949,-0.23930227346385885,0.4342986921478574,0.2073521779099945,-0.11705790123604834,-0.10194612146790169,1.0544628215032867,0.32377259068784486,-0.39251553336330014,-2.153505736379018,0.8647478686758922,2.465990955845653,0.5444889139408257,1.0544104758940245,0.3238615046091247,-0.39250456234122666,-2.153291787532338,0.8647539153680389,2.46587817577521,0.5445020185570556,0.00033271514431633024,0.00017940515540765804,-0.00035085717523063354,0.000432269123906977,6.313284879671143e-05,-0.00026335718326985153,6.075213359196425e-05,0.0,0.0,0.0,0.0,0.0,0.0,0.0,-5.234560926226095e-05,8.891392127985398e-05,1.0971022073480441e-05,0.0002139488466803563,6.0466921467661194e-06,-0.0001127800704430193,1.3104616229941968e-05,-0.00033271514431633024,-0.00017940515540765804,0.00035085717523063354,-0.000432269123906977,-6.313284879671143e-05,0.00026335718326985153,-6.075213359196425e-05,0.4267818331718445,34.11452865600586,3.7990386486053467,-19.459871292114258,-0.2603049874305725,-1.796573281288147,0.10470907390117645,0
68,0.33498716354370117,-0.4267818331718445,-34.11452865600586,-3.7990386486053467,19.459871292114258,0.2603049874305725,1.796573281288147,-0.10470907390117645,0.0,0.0,0.0,0.0,0.0,0.0,0.0,-0.38903280313389,-0.06233157802512949,-0.23930227346385885,0.4342986921478574,0.2073521779099945,-0.11705790123604834,-0.10194612146790169,1.0544628215032867,0.32377259068784486,-0.39251553336330014,-2.153505736379018,0.8647478686758922,2.465990955845653,0.5444889139408257,1.0544104758940245,0.3238615046091247,-0.39250456234122666,-2.153291787532338,0.8647539153680389,2.46587817577521,0.5445020185570556,0.00033271514431633024,0.00017940515540765804,-0.00035085717523063354,0.000432269123906977,6.313284879671143e-05,-0.00026335718326985153,6.075213359196425e-05,0.0,0.0,0.0,0.0,0.0,0.0,0.0,-5.234560926226095e-05,8.891392127985398e-05,1.0971022073480441e-05,0.0002139488466803563,6.0466921467661194e-06,-0.0001127800704430193,1.3104616229941968e-05,-0.00033271514431633024,-0.00017940515540765804,0.00035085717523063354,-0.000432269123906977,-6.313284879671143e-05,0.00026335718326985153,-6.075213359196425e-05,0.4267818331718445,34.11452865600586,3.7990386486053467,-19.459871292114258,-0.2603049874305725,-1.796573281288147,0.10470907390117645,0
69,0.34003472328186035,-0.3752071261405945,-34.16213607788086,-3.7752349376678467,19.436067581176758,0.2603049874305725,1.790164589881897,-0.11844198405742645,0.0,0.0,0.0,0.0,0.0,0.0,0.0,-0.3766563214072277,-0.06981292198526079,-0.22465541251665708,0.4405522526830573,0.20647526018324439,-0.11757838780724186,-0.1025527880332096,1.0544613451583948,0.32377593155911094,-0.39251720087082126,-2.15350407510053,0.8647478688371759,2.4659883683640795,0.5444900996298194,1.0544104758940245,0.3238615046091247,-0.39250456234122666,-2.153291787532338,0.8647539153680389,2.46587817577521,0.5445020185570556,-0.00013180043596888863,0.0005326151670246006,4.523935321246251e-05,0.0008347986666867932,-0.00012712550629547295,-0.0002396165087597455,0.0007583653669454742,0.0,0.0,0.0,0.0,0.0,0.0,0.0,-5.086926437036787e-05,8.557305001377635e-05,1.2638529594599657e-05,0.0002122875681922487,6.046530863001998e-06,-0.00011019258886957317,1.191892723617638e-05,0.00013180043596888863,-0.0005326151670246006,-4.523935321246251e-05,-0.0008347986666867932,0.00012712550629547295,0.0002396165087597455,-0.0007583653669454742,0.3752071261405945,34.16213607788086,3.7752349376678467,-19.436067581176758,-0.2603049874305725,-1.790164589881897,0.11844198405742645,0
70,0.3450345993041992,-0.3752071261405945,-34.16213607788086,-3.7752349376678467,19.436067581176758,0.2603049874305725,1.790164589881897,-0.11844198405742645,0.0,0.0,0.0,0.0,0.0,0.0,0.0,-0.3766563214072277,-0.06981292198526079,-0.22465541251665708,0.4405522526830573,0.20647526018324439,-0.11757838780724186,-0.1025527880332096,1.0544613451583948,0.32377593155911094,-0.39251720087082126,-2.15350407510053,0.8647478688371759,2.4659883683640795,0.5444900996298194,1.0544104758940245,0.3238615046091247,-0.39250456234122666,-2.153291787532338,0.8647539153680389,2.46587817577521,0.5445020185570556,-0.00013180043596888863,0.0005326151670246006,4.523935321246251e-05,0.0008347986666867932,-0.00012712550629547295,-0.0002396165087597455,0.0007583653669454742,0.0,0.0,0.0,0.0,0.0,0.0,0.0,-5.086926437036787e-05,8.557305001377635e-05,1.2638529594599657e-05,0.0002122875681922487,6.046530863001998e-06,-0.00011019258886957317,1.191892723617638e-05,0.00013180043596888863,-0.0005326151670246006,-4.523935321246251e-05,-0.0008347986666867932,0.00012712550629547295,0.0002396165087597455,-0.0007583653669454742,0.3752071261405945,34.16213607788086,3.7752349376678467,-19.436067581176758,-0.2603049874305725,-1.790164589881897,0.11844198405742645,0
71,0.3500831127166748,-0.4267818331718445,-34.13833236694336,-3.8506133556365967,19.511445999145508,0.2603049874305725,1.783755898475647,-0.13217489421367645,0.0,0.0,0.0,0.0,0.0,0.0,0.0,-0.40112131415714125,-0.0728696696018286,-0.24536683960091285,0.43875486044422074,0.20718329951521303,-0.11691012734697426,-0.10298842386029768,1.0544635338640371,0.32377638702225264,-0.39251199282215254,-2.1535093362114504,0.8647479865743031,2.465989201874469,0.5444919801743948,1.0544104758940245,0.3238615046091247,-0.39250456234122666,-2.153291787532338,0.8647539153680389,2.46587817577521,0.5445020185570556,0.0003967284832276015,-0.0005247039548041096,0.0012355396355172696,-0.0011865498775367868,-2.631830347475898e-05,0.00015802158875707537,0.0007632784922379328,0.0,0.0,0.0,0.0,0.0,0.0,0.0,-5.305797001264878e-05,8.511758687207438e-05,7.430480925885163e-06,0.0002175486791125003,5.9287937358432075e-06,-0.00011102609925917051,1.0038382660781942e-05,-0.0003967284832276015,0.0005247039548041096,-0.0012355396355172696,0.0011865498775367868,2.631830347475898e-05,-0.00015802158875707537,-0.0007632784922379328,0.4267818331718445,34.13833236694336,3.8506133556365967,-19.511445999145508,-0.2603049874305725,-1.783755898475647,0.13217489421367645,0
72,0.35503673553466797,-0.4267818331718445,-34.13833236694336,-3.8506133556365967,19.511445999145508,0.2603049874305725,1.783755898475647,-0.13217489421367645,0.0,0.0,0.0,0.0,0.0,0.0,0.0,-0.40112131415714125,-0.0728696696018286,-0.24536683960091285,0.43875486044422074,0.20718329951521303,-0.11691012734697426,-0.10298842386029768,1.0544635338640371,0.32377638702225264,-0.39251199282215254,-2.1535093362114504,0.8647479865743031,2.465989201874469,0.5444919801743948,1.0544104758940245,0.3238615046091247,-0.39250456234122666,-2.153291787532338,0.8647539153680389,2.46587817577521,0.5445020185570556,0.0003967284832276015,-0.0005247039548041096,0.0012355396355172696,-0.0011865498775367868,-2.631830347475898e-05,0.00015802158875707537,0.0007632784922379328,0.0,0.0,0.0,0.0,0.0,0.0,0.0,-5.305797001264878e-05,8.511758687207438e-05,7.430480925885163e-06,0.0002175486791125003,5.9287937358432075e-06,-0.00011102609925917051,1.0038382660781942e-05,-0.0003967284832276015,0.0005247039548041096,-0.0012355396355172696,0.0011865498775367868,2.631830347475898e-05,-0.00015802158875707537,-0.0007632784922379328,0.4267818331718445,34.13833236694336,3.8506133556365967,-19.511445999145508,-0.2603049874305725,-1.783755898475647,0.13217489421367645,0
73,0.36009669303894043,-0.4029781222343445,-34.16213607788086,-3.8228423595428467,19.535249710083008,0.2603049874305725,1.783755898475647,-0.13858358561992645,0.0,0.0,0.0,0.0,0.0,0.0,0.0,-0.3991789557560063,-0.07344462869302457,-0.24140380296036829,0.4392318707400371,0.20667012409104724,-0.11726843647637265,-0.10304654405338964,1.054461386546609,0.3237759315711117,-0.3925139416644447,-2.153511035136729,0.8647479865749677,2.465992211370186,0.5444923245050076,1.0544104758940245,0.3238615046091247,-0.39250456234122666,-2.153291787532338,0.8647539153680389,2.46587817577521,0.5445020185570556,-0.0006262104726818902,0.00010707093934420881,0.0005861677888964299,-0.0012344625599070443,-4.374494241221357e-06,0.00045588756260968717,0.0014916798155282269,0.0,0.0,0.0,0.0,0.0,0.0,0.0,-5.091065258455707e-05,8.557303801304261e-05,9.37932321803947e-06,0.00021924760439118174,5.928793071263705e-06,-0.00011403559497624727,9.694052047981572e-06,0.0006262104726818902,-0.00010707093934420881,-0.0005861677888964299,0.0012344625599070443,4.374494241221357e-06,-0.00045588756260968717,-0.0014916798155282269,0.4029781222343445,34.16213607788086,3.8228423595428467,-19.535249710083008,-0.2603049874305725,-1.783755898475647,0.13858358561992645,0
74,0.3650519847869873,-0.4029781222343445,-34.16213607788086,-3.8228423595428467,19.535249710083008,0.2603049874305725,1.783755898475647,-0.13858358561992645,0.0,0.0,0.0,0.0,0.0,0.0,0.0,-0.3991789557560063,-0.07344462869302457,-0.24140380296036829,0.4392318707400371,0.20667012409104724,-0.11726843647637265,-0.10304654405338964,1.054461386546609,0.3237759315711117,-0.3925139416644447,-2.153511035136729,0.8647479865749677,2.465992211370186,0.5444923245050076,1.0544104758940245,0.3238615046091247,-0.39250456234122666,-2.153291787532338,0.8647539153680389,2.46587817577521,0.5445020185570556,-0.0006262104726818902,0.00010707093934420881,0.0005861677888964299,-0.0012344625599070443,-4.374494241221357e-06,0.00045588756260968717,0.0014916798155282269,0.0,0.0,0.0,0.0,0.0,0.0,0.0,-5.091065258455707e-05,8.557303801304261e-05,9.37932321803947e-06,0.00021924760439118174,5.928793071263705e-06,-0.00011403559497624727,9.694052047981572e-06,0.0006262104726818902,-0.00010707093934420881,-0.0005861677888964299,0.0012344625599070443,4.374494241221357e-06,-0.00045588756260968717,-0.0014916798155282269,0.4029781222343445,34.16213607788086,3.8228423595428467,-19.535249710083008,-0.2603049874305725,-1.783755898475647,0.13858358561992645,0
75,0.36998796463012695,-0.3752071261405945,-34.16213607788086,-3.7752349376678467,19.459871292114258,0.2722068428993225,1.790164589881897,-0.07724325358867645,0.0,0.0,0.0,0.0,0.0,0.0,0.0,-0.38708630091106216,-0.06419792454844594,-0.22479836075793314,0.43723816481881517,0.20616375307700197,-0.11867466409390812,-0.1026594555337315,1.0544594740036062,0.3237780578181308,-0.39251728250015294,-2.153505745536403,0.8647452512777981,2.4659873116327335,0.5444855089104838,1.0544104758940245,0.3238615046091247,-0.39250456234122666,-2.153291787532338,0.8647539153680389,2.46587817577521,0.5445020185570556,-0.0008161244463938729,0.0009368289306378193,-0.000257051520872711,0.00033152019884971325,-0.0006012582747431739,9.631503066503639e-05,-0.001170367177614481,0.0,0.0,0.0,0.0,0.0,0.0,0.0,-4.899810958169937e-05,8.344679099392405e-05,1.2720158926282643e-05,0.00021395800406498466,8.664090240806388e-06,-0.00010913585752359012,1.65096465718495e-05,0.0008161244463938729,-0.0009368289306378193,0.000257051520872711,-0.00033152019884971325,0.0006012582747431739,-9.631503066503639e-05,0.001170367177614481,0.3752071261405945,34.16213607788086,3.7752349376678467,-19.459871292114258,-0.2722068428993225,-1.790164589881897,0.07724325358867645,0
76,0.3750312328338623,-0.3752071261405945,-34.16213607788086,-3.7752349376678467,19.459871292114258,0.2722068428993225,1.790164589881897,-0.07724325358867645,0.0,0.0,0.0,0.0,0.0,0.0,0.0,-0.38708630091106216,-0.06419792454844594,-0.22479836075793314,0.43723816481881517,0.20616375307700197,-0.11867466409390812,-0.1026594555337315,1.0544594740036062,0.3237780578181308,-0.39251728250015294,-2.153505745536403,0.8647452512777981,2.4659873116327335,0.5444855089104838,1.0544104758940245,0.3238615046091247,-0.39250456234122666,-2.153291787532338,0.8647539153680389,2.46587817577521,0.5445020185570556,-0.0008161244463938729,0.0009368289306378193,-0.000257051520872711,0.00033152019884971325,-0.0006012582747431739,9.631503066503639e-05,-0.001170367177614481,0.0,0.0,0.0,0.0,0.0,0.0,0.0,-4.899810958169937e-05,8.344679099392405e-05,1.2720158926282643e-05,0.00021395800406498466,8.664090240806388e-06,-0.00010913585752359012,1.65096465718495e-05,0.0008161244463938729,-0.0009368289306378193,0.000257051520872711,-0.00033152019884971325,0.0006012582747431739,-9.631503066503639e-05,0.001170367177614481,0.3752071261405945,34.16213607788086,3.7752349376678467,-19.459871292114258,-0.2722068428993225,-1.790164589881897,0.07724325358867645,0
77,0.3800513744354248,-0.3752071261405945,-34.11452865600586,-3.8228423595428467,19.511445999145508,0.2603049874305725,1.790164589881897,-0.11844198405742645,0.0,0.0,0.0,0.0,0.0,0.0,0.0,-0.39678267997802125,-0.07408151904061934,-0.23311185040245988,0.4426060060230929,0.20634187135974436,-0.11689502635732471,-0.1027911858574631,1.0544592002679598,0.3237725910474294,-0.39251391541877745,-2.153509355543669,0.8647465342928392,2.4659916256963847,0.544490086708708,1.0544104758940245,0.3238615046091247,-0.39250456234122666,-2.153291787532338,0.8647539153680389,2.46587817577521,0.5445020185570556,7.160047513331407e-05,-0.00027368768743956664,0.0007792601767487488,-0.0010849466194851152,-0.00014555738285864866,-7.014159239051894e-05,0.0002316148478706248,0.0,0.0,0.0,0.0,0.0,0.0,0.0,-4.8724373935327137e-05,8.891356169532516e-05,9.353077550788846e-06,0.00021756801133099302,7.38107519970832e-06,-0.0001134499211747908,1.1931848347579432e-05,-7.160047513331407e-05,0.00027368768743956664,-0.0007792601767487488,0.0010849466194851152,0.00014555738285864866,7.014159239051894e-05,-0.0002316148478706248,0.3752071261405945,34.11452865600586,3.8228423595428467,-19.511445999145508,-0.2603049874305725,-1.790164589881897,0.11844198405742645,0
78,0.38510918617248535,-0.3752071261405945,-34.11452865600586,-3.8228423595428467,19.511445999145508,0.2603049874305725,1.790164589881897,-0.11844198405742645,0.0,0.0,0.0,0.0,0.0,0.0,0.0,-0.39678267997802125,-0.07408151904061934,-0.23311185040245988,0.4426060060230929,0.20634187135974436,-0.11689502635732471,-0.1027911858574631,1.0544592002679598,0.3237725910474294,-0.39251391541877745,-2.153509355543669,0.8647465342928392,2.4659916256963847,0.544490086708708,1.0544104758940245,0.3238615046091247,-0.39250456234122666,-2.153291787532338,0.8647539153680389,2.46587817577521,0.5445020185570556,7.160047513331407e-05,-0.00027368768743956664,0.0007792601767487488,-0.0010849466194851152,-0.00014555738285864866,-7.014159239051894e-05,0.0002316148478706248,0.0,0.0,0.0,0.0,0.0,0.0,0.0,-4.8724373935327137e-05,8.891356169532516e-05,9.353077550788846e-06,0.00021756801133099302,7.38107519970832e-06,-0.0001134499211747908,1.1931848347579432e-05,-7.160047513331407e-05,0.00027368768743956664,-0.0007792601767487488,0.0010849466194851152,0.00014555738285864866,7.014159239051894e-05,-0.0002316148478706248,0.3752071261405945,34.11452865600586,3.8228423595428467,-19.511445999145508,-0.2603049874305725,-1.790164589881897,0.11844198405742645,0
79,0.3900876045227051,-0.3752071261405945,-34.11452865600586,-3.8228423595428467,19.511445999145508,0.2603049874305725,1.790164589881897,-0.11844198405742645,0.0,0.0,0.0,0.0,0.0,0.0,0.0,-0.39678267997802125,-0.07408151904061934,-0.23311185040245988,0.4426060060230929,0.20634187135974436,-0.11689502635732471,-0.1027911858574631,1.0544592002679598,0.3237725910474294,-0.39251391541877745,-2.153509355543669,0.8647465342928392,2.4659916256963847,0.544490086708708,1.0544104758940245,0.3238615046091247,-0.39250456234122666,-2.153291787532338,0.8647539153680389,2.46587817577521,0.5445020185570556,7.160047513331407e-05,-0.00027368768743956664,0.0007792601767487488,-0.0010849466194851152,-0.00014555738285864866,-7.014159239051894e-05,0.0002316148478706248,0.0,0.0,0.0,0.0,0.0,0.0,0.0,-4.8724373935327137e-05,8.891356169532516e-05,9.353077550788846e-06,0.00021756801133099302,7.38107519970832e-06,-0.0001134499211747908,1.1931848347579432e-05,-7.160047513331407e-05,0.00027368768743956664,-0.0007792601767487488,0.0010849466194851152,0.00014555738285864866,7.014159239051894e-05,-0.0002316148478706248,0.3752071261405945,34.11452865600586,3.8228423595428467,-19.511445999145508,-0.2603049874305725,-1.790164589881897,0.11844198405742645,0
80,0.39504051208496094,-0.3752071261405945,-34.11452865600586,-3.8228423595428467,19.511445999145508,0.2603049874305725,1.790164589881897,-0.11844198405742645,0.0,0.0,0.0,0.0,0.0,0.0,0.0,-0.39678267997802125,-0.07408151904061934,-0.23311185040245988,0.4426060060230929,0.20634187135974436,-0.11689502635732471,-0.1027911858574631,1.0544592002679598,0.3237725910474294,-0.39251391541877745,-2.153509355543669,0.8647465342928392,2.4659916256963847,0.544490086708708,1.0544104758940245,0.3238615046091247,-0.39250456234122666,-2.153291787532338,0.8647539153680389,2.46587817577521,0.5445020185570556,7.160047513331407e-05,-0.00027368768743956664,0.0007792601767487488,-0.0010849466194851152,-0.00014555738285864866,-7.014159239051894e-05,0.0002316148478706248,0.0,0.0,0.0,0.0,0.0,0.0,0.0,-4.8724373935327137e-05,8.891356169532516e-05,9.353077550788846e-06,0.00021756801133099302,7.38107519970832e-06,-0.0001134499211747908,1.1931848347579432e-05,-7.160047513331407e-05,0.00027368768743956664,-0.0007792601767487488,0.0010849466194851152,0.00014555738285864866,7.014159239051894e-05,-0.0002316148478706248,0.3752071261405945,34.11452865600586,3.8228423595428467,-19.511445999145508,-0.2603049874305725,-1.790164589881897,0.11844198405742645,0
