rezayati/contactInterpretation/dataset/franka_main/labeled_data/link2/f6_4.csv
index,time,tau_J0,tau_J1,tau_J2,tau_J3,tau_J4,tau_J5,tau_J6,tau_J_d0,tau_J_d1,tau_J_d2,tau_J_d3,tau_J_d4,tau_J_d5,tau_J_d6,tau_ext0,tau_ext1,tau_ext2,tau_ext3,tau_ext4,tau_ext5,tau_ext6,q0,q1,q2,q3,q4,q5,q6,q_d0,q_d1,q_d2,q_d3,q_d4,q_d5,q_d6,dq0,dq1,dq2,dq3,dq4,dq5,dq6,dq_d0,dq_d1,dq_d2,dq_d3,dq_d4,dq_d5,dq_d6,e0,e1,e2,e3,e4,e5,e6,de0,de1,de2,de3,de4,de5,de6,etau_J0,etau_J1,etau_J2,etau_J3,etau_J4,etau_J5,etau_J6,label
1,0.0,-0.4029781222343445,-19.745019912719727,-0.4982573688030243,19.983552932739258,0.6777854561805725,2.4694857597351074,-0.25485557317733765,0.0,0.0,0.0,0.0,0.0,0.0,0.0,-0.3483015553645917,0.03493690888161405,-0.29183093237881685,0.19582415709057624,0.09858140635180396,0.09223237144568419,-0.23997866216995037,1.2135669258644706,-0.22010204080322332,-0.007471952689991354,-2.603900170677586,-0.10888728402058283,2.4681835499339635,0.8264748642429398,1.2134413937687574,-0.2202432315892585,-0.0075118285948192216,-2.6038483821997875,-0.10888392708698907,2.4681821257803174,0.826474908251239,0.0015555546220586277,0.001195083767261565,-0.0001258763778714994,-0.00042255941447983395,0.0003180632973742763,-0.00019582583862041907,0.0005672214254275495,0.0,0.0,0.0,0.0,0.0,0.0,0.0,-0.0001255320957131989,-0.00014119078603516688,-3.987590482786799e-05,5.178847779863105e-05,3.3569335937538858e-06,-1.4241536461234716e-06,4.400829922701632e-08,-0.0015555546220586277,-0.001195083767261565,0.0001258763778714994,0.00042255941447983395,-0.0003180632973742763,0.00019582583862041907,-0.0005672214254275495,0.4029781222343445,19.745019912719727,0.4982573688030243,-19.983552932739258,-0.6777854561805725,-2.4694857597351074,0.25485557317733765,0
2,0.004995107650756836,-0.4029781222343445,-19.745019912719727,-0.4982573688030243,19.983552932739258,0.6777854561805725,2.4694857597351074,-0.25485557317733765,0.0,0.0,0.0,0.0,0.0,0.0,0.0,-0.3483015553645917,0.03493690888161405,-0.29183093237881685,0.19582415709057624,0.09858140635180396,0.09223237144568419,-0.23997866216995037,1.2135669258644706,-0.22010204080322332,-0.007471952689991354,-2.603900170677586,-0.10888728402058283,2.4681835499339635,0.8264748642429398,1.2134413937687574,-0.2202432315892585,-0.0075118285948192216,-2.6038483821997875,-0.10888392708698907,2.4681821257803174,0.826474908251239,0.0015555546220586277,0.001195083767261565,-0.0001258763778714994,-0.00042255941447983395,0.0003180632973742763,-0.00019582583862041907,0.0005672214254275495,0.0,0.0,0.0,0.0,0.0,0.0,0.0,-0.0001255320957131989,-0.00014119078603516688,-3.987590482786799e-05,5.178847779863105e-05,3.3569335937538858e-06,-1.4241536461234716e-06,4.400829922701632e-08,-0.0015555546220586277,-0.001195083767261565,0.0001258763778714994,0.00042255941447983395,-0.0003180632973742763,0.00019582583862041907,-0.0005672214254275495,0.4029781222343445,19.745019912719727,0.4982573688030243,-19.983552932739258,-0.6777854561805725,-2.4694857597351074,0.25485557317733765,0
3,0.009995222091674805,-0.4029781222343445,-19.745019912719727,-0.4982573688030243,19.983552932739258,0.6777854561805725,2.4694857597351074,-0.25485557317733765,0.0,0.0,0.0,0.0,0.0,0.0,0.0,-0.3483015553645917,0.03493690888161405,-0.29183093237881685,0.19582415709057624,0.09858140635180396,0.09223237144568419,-0.23997866216995037,1.2135669258644706,-0.22010204080322332,-0.007471952689991354,-2.603900170677586,-0.10888728402058283,2.4681835499339635,0.8264748642429398,1.2134413937687574,-0.2202432315892585,-0.0075118285948192216,-2.6038483821997875,-0.10888392708698907,2.4681821257803174,0.826474908251239,0.0015555546220586277,0.001195083767261565,-0.0001258763778714994,-0.00042255941447983395,0.0003180632973742763,-0.00019582583862041907,0.0005672214254275495,0.0,0.0,0.0,0.0,0.0,0.0,0.0,-0.0001255320957131989,-0.00014119078603516688,-3.987590482786799e-05,5.178847779863105e-05,3.3569335937538858e-06,-1.4241536461234716e-06,4.400829922701632e-08,-0.0015555546220586277,-0.001195083767261565,0.0001258763778714994,0.00042255941447983395,-0.0003180632973742763,0.00019582583862041907,-0.0005672214254275495,0.4029781222343445,19.745019912719727,0.4982573688030243,-19.983552932739258,-0.6777854561805725,-2.4694857597351074,0.25485557317733765,0
4,0.014995336532592773,-0.3752071261405945,-19.768823623657227,-0.4982573688030243,19.983552932739258,0.6832786202430725,2.4758944511413574,-0.26858848333358765,0.0,0.0,0.0,0.0,0.0,0.0,0.0,-0.3438123366743453,0.0324993867047677,-0.28999776422499585,0.19584553294173915,0.09854338765969917,0.0922512251617042,-0.2406208752629841,1.2135649770226395,-0.22010037036736807,-0.007471953664034858,-2.603900170677586,-0.10888793385605447,2.4681828378571407,0.8264763911188607,1.2134413937687574,-0.2202432315892585,-0.0075118285948192216,-2.6038483821997875,-0.10888392708698907,2.4681821257803174,0.826474908251239,0.0005203850440174881,0.0013389899822470683,0.00019794428555170744,-0.00037503549220353055,-7.520305192214648e-05,-0.000298390821097408,0.001408741203246174,0.0,0.0,0.0,0.0,0.0,0.0,0.0,-0.00012358325388217573,-0.00014286122189041683,-3.9874930784363286e-05,5.178847779863105e-05,4.0067690653955434e-06,-7.120768232837804e-07,-1.4828676216938064e-06,-0.0005203850440174881,-0.0013389899822470683,-0.00019794428555170744,0.00037503549220353055,7.520305192214648e-05,0.000298390821097408,-0.001408741203246174,0.3752071261405945,19.768823623657227,0.4982573688030243,-19.983552932739258,-0.6832786202430725,-2.4758944511413574,0.26858848333358765,0
5,0.01999521255493164,-0.3752071261405945,-19.768823623657227,-0.4982573688030243,19.983552932739258,0.6832786202430725,2.4758944511413574,-0.26858848333358765,0.0,0.0,0.0,0.0,0.0,0.0,0.0,-0.3438123366743453,0.0324993867047677,-0.28999776422499585,0.19584553294173915,0.09854338765969917,0.0922512251617042,-0.2406208752629841,1.2135649770226395,-0.22010037036736807,-0.007471953664034858,-2.603900170677586,-0.10888793385605447,2.4681828378571407,0.8264763911188607,1.2134413937687574,-0.2202432315892585,-0.0075118285948192216,-2.6038483821997875,-0.10888392708698907,2.4681821257803174,0.826474908251239,0.0005203850440174881,0.0013389899822470683,0.00019794428555170744,-0.00037503549220353055,-7.520305192214648e-05,-0.000298390821097408,0.001408741203246174,0.0,0.0,0.0,0.0,0.0,0.0,0.0,-0.00012358325388217573,-0.00014286122189041683,-3.9874930784363286e-05,5.178847779863105e-05,4.0067690653955434e-06,-7.120768232837804e-07,-1.4828676216938064e-06,-0.0005203850440174881,-0.0013389899822470683,-0.00019794428555170744,0.00037503549220353055,7.520305192214648e-05,0.000298390821097408,-0.001408741203246174,0.3752071261405945,19.768823623657227,0.4982573688030243,-19.983552932739258,-0.6832786202430725,-2.4758944511413574,0.26858848333358765,0
6,0.025036096572875977,-0.2998287081718445,-19.717248916625977,-0.4466826617717743,19.983552932739258,0.6896873116493225,2.4694857597351074,-0.24844686686992645,0.0,0.0,0.0,0.0,0.0,0.0,0.0,-0.3433794882982796,0.035700514415075456,-0.28910438816641765,0.18998516279623506,0.09829554207619265,0.09222102453743318,-0.2411484559478703,1.213559687309098,-0.22010398964505445,-0.00747557294172676,-2.603900170677586,-0.10888967105481998,2.4681836676715334,0.8264774395849189,1.2134413937687574,-0.2202432315892585,-0.0075118285948192216,-2.6038483821997875,-0.10888392708698907,2.4681821257803174,0.826474908251239,-0.0009595196076055216,7.23863784021469e-05,-0.0011647562332518717,-0.0005235413380524843,-0.0003346051454514391,-0.0001899197129144792,0.0001399778107330589,0.0,0.0,0.0,0.0,0.0,0.0,0.0,-0.00011829354034054163,-0.00013924194420403269,-3.625565309246185e-05,5.178847779863105e-05,5.743967830901253e-06,-1.541891216039204e-06,-2.531333679889336e-06,0.0009595196076055216,-7.23863784021469e-05,0.0011647562332518717,0.0005235413380524843,0.0003346051454514391,0.0001899197129144792,-0.0001399778107330589,0.2998287081718445,19.717248916625977,0.4466826617717743,-19.983552932739258,-0.6896873116493225,-2.4694857597351074,0.24844686686992645,0
7,0.0299985408782959,-0.2998287081718445,-19.717248916625977,-0.4466826617717743,19.983552932739258,0.6896873116493225,2.4694857597351074,-0.24844686686992645,0.0,0.0,0.0,0.0,0.0,0.0,0.0,-0.3433794882982796,0.035700514415075456,-0.28910438816641765,0.18998516279623506,0.09829554207619265,0.09222102453743318,-0.2411484559478703,1.213559687309098,-0.22010398964505445,-0.00747557294172676,-2.603900170677586,-0.10888967105481998,2.4681836676715334,0.8264774395849189,1.2134413937687574,-0.2202432315892585,-0.0075118285948192216,-2.6038483821997875,-0.10888392708698907,2.4681821257803174,0.826474908251239,-0.0009595196076055216,7.23863784021469e-05,-0.0011647562332518717,-0.0005235413380524843,-0.0003346051454514391,-0.0001899197129144792,0.0001399778107330589,0.0,0.0,0.0,0.0,0.0,0.0,0.0,-0.00011829354034054163,-0.00013924194420403269,-3.625565309246185e-05,5.178847779863105e-05,5.743967830901253e-06,-1.541891216039204e-06,-2.531333679889336e-06,0.0009595196076055216,-7.23863784021469e-05,0.0011647562332518717,0.0005235413380524843,0.0003346051454514391,0.0001899197129144792,-0.0001399778107330589,0.2998287081718445,19.717248916625977,0.4466826617717743,-19.983552932739258,-0.6896873116493225,-2.4694857597351074,0.24844686686992645,0
8,0.03500771522521973,-0.3514034152030945,-19.693445205688477,-0.4704863727092743,19.983552932739258,0.6832786202430725,2.4630770683288574,-0.24112264811992645,0.0,0.0,0.0,0.0,0.0,0.0,0.0,-0.34750328041655143,0.03440943975357188,-0.2959645591441423,0.19068991001268706,0.09821179494086943,0.09266379323681952,-0.2413888660942468,1.213563221519102,-0.22010566008090973,-0.007473902505871497,-2.603900170677586,-0.10888789437815506,2.4681843012573075,0.8264777259772517,1.2134413937687574,-0.2202432315892585,-0.0075118285948192216,-2.6038483821997875,-0.10888392708698907,2.4681821257803174,0.826474908251239,-8.848538238001551e-05,-7.995646048156127e-05,-0.0006470493728558407,-0.0005331501955542888,-0.00012592123230088787,0.00013248419888439578,0.0003413011974262325,0.0,0.0,0.0,0.0,0.0,0.0,0.0,-0.00012182775034452753,-0.00013757150834875498,-3.792608894772481e-05,5.178847779863105e-05,3.9672911659877075e-06,-2.175476990107228e-06,-2.8177260126271975e-06,8.848538238001551e-05,7.995646048156127e-05,0.0006470493728558407,0.0005331501955542888,0.00012592123230088787,-0.00013248419888439578,-0.0003413011974262325,0.3514034152030945,19.693445205688477,0.4704863727092743,-19.983552932739258,-0.6832786202430725,-2.4630770683288574,0.24112264811992645,0
9,0.04000377655029297,-0.3514034152030945,-19.693445205688477,-0.4704863727092743,19.983552932739258,0.6832786202430725,2.4630770683288574,-0.24112264811992645,0.0,0.0,0.0,0.0,0.0,0.0,0.0,-0.34750328041655143,0.03440943975357188,-0.2959645591441423,0.19068991001268706,0.09821179494086943,0.09266379323681952,-0.2413888660942468,1.213563221519102,-0.22010566008090973,-0.007473902505871497,-2.603900170677586,-0.10888789437815506,2.4681843012573075,0.8264777259772517,1.2134413937687574,-0.2202432315892585,-0.0075118285948192216,-2.6038483821997875,-0.10888392708698907,2.4681821257803174,0.826474908251239,-8.848538238001551e-05,-7.995646048156127e-05,-0.0006470493728558407,-0.0005331501955542888,-0.00012592123230088787,0.00013248419888439578,0.0003413011974262325,0.0,0.0,0.0,0.0,0.0,0.0,0.0,-0.00012182775034452753,-0.00013757150834875498,-3.792608894772481e-05,5.178847779863105e-05,3.9672911659877075e-06,-2.175476990107228e-06,-2.8177260126271975e-06,8.848538238001551e-05,7.995646048156127e-05,0.0006470493728558407,0.0005331501955542888,0.00012592123230088787,-0.00013248419888439578,-0.0003413011974262325,0.3514034152030945,19.693445205688477,0.4704863727092743,-19.983552932739258,-0.6832786202430725,-2.4630770683288574,0.24112264811992645,0
10,0.04494023323059082,-0.3236324191093445,-19.745019912719727,-0.5220611095428467,19.931978225708008,0.6832786202430725,2.4566683769226074,-0.24844686686992645,0.0,0.0,0.0,0.0,0.0,0.0,0.0,-0.3855540175493747,0.02989963673238822,-0.33733834564750875,0.19491424396136234,0.10020109528201063,0.09204521304292199,-0.24077497212427257,1.213561357744793,-0.22010204080322332,-0.007470280303946694,-2.6038965513998997,-0.10888789437214534,2.468184974087683,0.8264755556482718,1.2134413937687574,-0.2202432315892585,-0.0075118285948192216,-2.6038483821997875,-0.10888392708698907,2.4681821257803174,0.826474908251239,-0.0006647337873487813,0.000757178933957732,0.0015766331783330602,0.0012178630870641584,-4.359695297205042e-06,0.00010838982173484698,0.0004745323163884668,0.0,0.0,0.0,0.0,0.0,0.0,0.0,-0.0001199639760356419,-0.00014119078603516688,-4.154829087252721e-05,4.816920011219139e-05,3.9672851562672085e-06,-2.848307365521663e-06,-6.473970327602885e-07,0.0006647337873487813,-0.000757178933957732,-0.0015766331783330602,-0.0012178630870641584,4.359695297205042e-06,-0.00010838982173484698,-0.0004745323163884668,0.3236324191093445,19.745019912719727,0.5220611095428467,-19.931978225708008,-0.6832786202430725,-2.4566683769226074,0.24844686686992645,0
11,0.04999184608459473,-0.3236324191093445,-19.745019912719727,-0.5220611095428467,19.931978225708008,0.6832786202430725,2.4566683769226074,-0.24844686686992645,0.0,0.0,0.0,0.0,0.0,0.0,0.0,-0.3855540175493747,0.02989963673238822,-0.33733834564750875,0.19491424396136234,0.10020109528201063,0.09204521304292199,-0.24077497212427257,1.213561357744793,-0.22010204080322332,-0.007470280303946694,-2.6038965513998997,-0.10888789437214534,2.468184974087683,0.8264755556482718,1.2134413937687574,-0.2202432315892585,-0.0075118285948192216,-2.6038483821997875,-0.10888392708698907,2.4681821257803174,0.826474908251239,-0.0006647337873487813,0.000757178933957732,0.0015766331783330602,0.0012178630870641584,-4.359695297205042e-06,0.00010838982173484698,0.0004745323163884668,0.0,0.0,0.0,0.0,0.0,0.0,0.0,-0.0001199639760356419,-0.00014119078603516688,-4.154829087252721e-05,4.816920011219139e-05,3.9672851562672085e-06,-2.848307365521663e-06,-6.473970327602885e-07,0.0006647337873487813,-0.000757178933957732,-0.0015766331783330602,-0.0012178630870641584,4.359695297205042e-06,-0.00010838982173484698,-0.0004745323163884668,0.3236324191093445,19.745019912719727,0.5220611095428467,-19.931978225708008,-0.6832786202430725,-2.4566683769226074,0.24844686686992645,0
12,0.05540108680725098,-0.3514034152030945,-19.717248916625977,-0.4704863727092743,19.955781936645508,0.6896873116493225,2.4694857597351074,-0.21457235515117645,0.0,0.0,0.0,0.0,0.0,0.0,0.0,-0.35013835755132716,0.030601631740835303,-0.2995425012675827,0.19377390478814316,0.09854380623116842,0.09122230277545898,-0.2416741487153573,1.2135633065867841,-0.22010398964505445,-0.00747391127357356,-2.6038982217227016,-0.10888860644896825,2.4681839031466732,0.8264740395224419,1.2134413937687574,-0.2202432315892585,-0.0075118285948192216,-2.6038483821997875,-0.10888392708698907,2.4681821257803174,0.826474908251239,2.1689933911367397e-06,0.00045601507403277523,-0.0010031853068297458,0.0003966787357039901,-0.00030514349291584065,-0.00036728627736477067,-0.0010081884640173767,0.0,0.0,0.0,0.0,0.0,0.0,0.0,-0.00012191281802675924,-0.00013924194420403269,-3.791732124566131e-05,4.983952291404137e-05,4.679361979176289e-06,-1.7773663558706687e-06,8.687287971209656e-07,-2.1689933911367397e-06,-0.00045601507403277523,0.0010031853068297458,-0.0003966787357039901,0.00030514349291584065,0.00036728627736477067,0.0010081884640173767,0.3514034152030945,19.717248916625977,0.4704863727092743,-19.955781936645508,-0.6896873116493225,-2.4694857597351074,0.21457235515117645,0
13,0.06001758575439453,-0.3514034152030945,-19.717248916625977,-0.4704863727092743,19.955781936645508,0.6896873116493225,2.4694857597351074,-0.21457235515117645,0.0,0.0,0.0,0.0,0.0,0.0,0.0,-0.35013835755132716,0.030601631740835303,-0.2995425012675827,0.19377390478814316,0.09854380623116842,0.09122230277545898,-0.2416741487153573,1.2135633065867841,-0.22010398964505445,-0.00747391127357356,-2.6038982217227016,-0.10888860644896825,2.4681839031466732,0.8264740395224419,1.2134413937687574,-0.2202432315892585,-0.0075118285948192216,-2.6038483821997875,-0.10888392708698907,2.4681821257803174,0.826474908251239,2.1689933911367397e-06,0.00045601507403277523,-0.0010031853068297458,0.0003966787357039901,-0.00030514349291584065,-0.00036728627736477067,-0.0010081884640173767,0.0,0.0,0.0,0.0,0.0,0.0,0.0,-0.00012191281802675924,-0.00013924194420403269,-3.791732124566131e-05,4.983952291404137e-05,4.679361979176289e-06,-1.7773663558706687e-06,8.687287971209656e-07,-2.1689933911367397e-06,-0.00045601507403277523,0.0010031853068297458,-0.0003966787357039901,0.00030514349291584065,0.00036728627736477067,0.0010081884640173767,0.3514034152030945,19.717248916625977,0.4704863727092743,-19.955781936645508,-0.6896873116493225,-2.4694857597351074,0.21457235515117645,0
14,0.06500649452209473,-0.3236324191093445,-19.717248916625977,-0.4704863727092743,19.983552932739258,0.6832786202430725,2.4566683769226074,-0.24112264811992645,0.0,0.0,0.0,0.0,0.0,0.0,0.0,-0.340124418301935,0.030436926541618673,-0.28876293038296325,0.19368351587248153,0.09809497092642212,0.09117203204228388,-0.24194115819774986,1.213561357744953,-0.22010398964505445,-0.007473902505920991,-2.6039001706775857,-0.1088889589773284,2.4681849742511086,0.8264736826870377,1.2134413937687574,-0.2202432315892585,-0.0075118285948192216,-2.6038483821997875,-0.10888392708698907,2.4681821257803174,0.826474908251239,-0.0007748776077803821,0.0005083411795737824,-0.0008268947248550581,-0.00013228235068316825,-5.316812596437077e-05,0.0002667013042989995,0.0002583389714281119,0.0,0.0,0.0,0.0,0.0,0.0,0.0,-0.00011996397619573607,-0.00013924194420403269,-3.792608889823055e-05,5.178847779818696e-05,5.031890339332601e-06,-2.848470791239066e-06,1.2255642013458967e-06,0.0007748776077803821,-0.0005083411795737824,0.0008268947248550581,0.00013228235068316825,5.316812596437077e-05,-0.0002667013042989995,-0.0002583389714281119,0.3236324191093445,19.717248916625977,0.4704863727092743,-19.983552932739258,-0.6832786202430725,-2.4566683769226074,0.24112264811992645,0
15,0.07002973556518555,-0.3236324191093445,-19.717248916625977,-0.4704863727092743,19.983552932739258,0.6832786202430725,2.4566683769226074,-0.24112264811992645,0.0,0.0,0.0,0.0,0.0,0.0,0.0,-0.340124418301935,0.030436926541618673,-0.28876293038296325,0.19368351587248153,0.09809497092642212,0.09117203204228388,-0.24194115819774986,1.213561357744953,-0.22010398964505445,-0.007473902505920991,-2.6039001706775857,-0.1088889589773284,2.4681849742511086,0.8264736826870377,1.2134413937687574,-0.2202432315892585,-0.0075118285948192216,-2.6038483821997875,-0.10888392708698907,2.4681821257803174,0.826474908251239,-0.0007748776077803821,0.0005083411795737824,-0.0008268947248550581,-0.00013228235068316825,-5.316812596437077e-05,0.0002667013042989995,0.0002583389714281119,0.0,0.0,0.0,0.0,0.0,0.0,0.0,-0.00011996397619573607,-0.00013924194420403269,-3.792608889823055e-05,5.178847779818696e-05,5.031890339332601e-06,-2.848470791239066e-06,1.2255642013458967e-06,0.0007748776077803821,-0.0005083411795737824,0.0008268947248550581,0.00013228235068316825,5.316812596437077e-05,-0.0002667013042989995,-0.0002583389714281119,0.3236324191093445,19.717248916625977,0.4704863727092743,-19.983552932739258,-0.6832786202430725,-2.4566683769226074,0.24112264811992645,0
16,0.07500839233398438,-0.2998287081718445,-19.669641494750977,-0.4982573688030243,19.983552932739258,0.6777854561805725,2.4694857597351074,-0.20724813640117645,0.0,0.0,0.0,0.0,0.0,0.0,0.0,-0.34044782848320937,0.02627931933689604,-0.28765208203701526,0.1967647255250351,0.09803501821058067,0.09153550128281164,-0.2411484986304005,1.213559687309098,-0.22010733051676498,-0.0074719536640403565,-2.603900170677586,-0.10888728402659255,2.4681835499339644,0.8264711092913863,1.2134413937687574,-0.2202432315892585,-0.0075118285948192216,-2.6038483821997875,-0.10888392708698907,2.4681821257803174,0.826474908251239,-0.0011434579730572876,-0.0010221539435659515,0.00011067784943093149,-0.00025997113443269285,0.0001941998165403943,-0.00019230482303741044,-0.0018123553296222861,0.0,0.0,0.0,0.0,0.0,0.0,0.0,-0.00011829354034054163,-0.00013590107249350503,-3.987493077886508e-05,5.178847779863105e-05,3.356939603474385e-06,-1.42415364701165e-06,3.798959852696626e-06,0.0011434579730572876,0.0010221539435659515,-0.00011067784943093149,0.00025997113443269285,-0.0001941998165403943,0.00019230482303741044,0.0018123553296222861,0.2998287081718445,19.669641494750977,0.4982573688030243,-19.983552932739258,-0.6777854561805725,-2.4694857597351074,0.20724813640117645,0
17,0.08004045486450195,-0.2998287081718445,-19.669641494750977,-0.4982573688030243,19.983552932739258,0.6777854561805725,2.4694857597351074,-0.20724813640117645,0.0,0.0,0.0,0.0,0.0,0.0,0.0,-0.34044782848320937,0.02627931933689604,-0.28765208203701526,0.1967647255250351,0.09803501821058067,0.09153550128281164,-0.2411484986304005,1.213559687309098,-0.22010733051676498,-0.0074719536640403565,-2.603900170677586,-0.10888728402659255,2.4681835499339644,0.8264711092913863,1.2134413937687574,-0.2202432315892585,-0.0075118285948192216,-2.6038483821997875,-0.10888392708698907,2.4681821257803174,0.826474908251239,-0.0011434579730572876,-0.0010221539435659515,0.00011067784943093149,-0.00025997113443269285,0.0001941998165403943,-0.00019230482303741044,-0.0018123553296222861,0.0,0.0,0.0,0.0,0.0,0.0,0.0,-0.00011829354034054163,-0.00013590107249350503,-3.987493077886508e-05,5.178847779863105e-05,3.356939603474385e-06,-1.42415364701165e-06,3.798959852696626e-06,0.0011434579730572876,0.0010221539435659515,-0.00011067784943093149,0.00025997113443269285,-0.0001941998165403943,0.00019230482303741044,0.0018123553296222861,0.2998287081718445,19.669641494750977,0.4982573688030243,-19.983552932739258,-0.6777854561805725,-2.4694857597351074,0.20724813640117645,0
18,0.0850059986114502,-0.3752071261405945,-19.717248916625977,-0.5220611095428467,20.007356643676758,0.6832786202430725,2.4566683769226074,-0.26217979192733765,0.0,0.0,0.0,0.0,0.0,0.0,0.0,-0.34648682391026286,0.025534696229530536,-0.2946220125503491,0.19765260061651652,0.09816163935586181,0.09144646481595349,-0.2413311081770663,1.2135649770226395,-0.22010398964505445,-0.007470283226093702,-2.6039018411134416,-0.10889108818769458,2.468184974087609,0.8264790134949659,1.2134413937687574,-0.2202432315892585,-0.0075118285948192216,-2.6038483821997875,-0.10888392708698907,2.4681821257803174,0.826474908251239,0.0004943413008212016,-0.0001315486694251166,0.00031973460035687973,-0.0008881157864353718,-8.383948113593667e-05,0.0003160722499859028,0.00041196746187227936,0.0,0.0,0.0,0.0,0.0,0.0,0.0,-0.00012358325388217573,-0.00013924194420403269,-4.154536872551934e-05,5.3458913654047535e-05,7.161100705505019e-06,-2.848307291802854e-06,-4.1052437268485065e-06,-0.0004943413008212016,0.0001315486694251166,-0.00031973460035687973,0.0008881157864353718,8.383948113593667e-05,-0.0003160722499859028,-0.00041196746187227936,0.3752071261405945,19.717248916625977,0.5220611095428467,-20.007356643676758,-0.6832786202430725,-2.4566683769226074,0.26217979192733765,0
19,0.09003067016601562,-0.3752071261405945,-19.717248916625977,-0.5220611095428467,20.007356643676758,0.6832786202430725,2.4566683769226074,-0.26217979192733765,0.0,0.0,0.0,0.0,0.0,0.0,0.0,-0.34648682391026286,0.025534696229530536,-0.2946220125503491,0.19765260061651652,0.09816163935586181,0.09144646481595349,-0.2413311081770663,1.2135649770226395,-0.22010398964505445,-0.007470283226093702,-2.6039018411134416,-0.10889108818769458,2.468184974087609,0.8264790134949659,1.2134413937687574,-0.2202432315892585,-0.0075118285948192216,-2.6038483821997875,-0.10888392708698907,2.4681821257803174,0.826474908251239,0.0004943413008212016,-0.0001315486694251166,0.00031973460035687973,-0.0008881157864353718,-8.383948113593667e-05,0.0003160722499859028,0.00041196746187227936,0.0,0.0,0.0,0.0,0.0,0.0,0.0,-0.00012358325388217573,-0.00013924194420403269,-4.154536872551934e-05,5.3458913654047535e-05,7.161100705505019e-06,-2.848307291802854e-06,-4.1052437268485065e-06,-0.0004943413008212016,0.0001315486694251166,-0.00031973460035687973,0.0008881157864353718,8.383948113593667e-05,-0.0003160722499859028,-0.00041196746187227936,0.3752071261405945,19.717248916625977,0.5220611095428467,-20.007356643676758,-0.6832786202430725,-2.4566683769226074,0.26217979192733765,0
20,0.0950155258178711,-0.3236324191093445,-19.717248916625977,-0.4982573688030243,19.983552932739258,0.6896873116493225,2.4630770683288574,-0.24112264811992645,0.0,0.0,0.0,0.0,0.0,0.0,0.0,-0.3397288381327184,0.029714880538927645,-0.2878233513508389,0.19535071532236692,0.09791365597770527,0.09082869900968633,-0.24202999529147062,1.213561357744953,-0.22010398964505445,-0.0074719536640403565,-2.603900170677586,-0.10888860646699743,2.4681842620107863,0.8264749089971462,1.2134413937687574,-0.2202432315892585,-0.0075118285948192216,-2.6038483821997875,-0.10888392708698907,2.4681821257803174,0.826474908251239,-0.00036217520973615635,0.00010551522587517415,0.0002411165142995632,-0.0002553915177123261,-0.00022059331871871564,-2.780803132425397e-05,0.00046570504127699,0.0,0.0,0.0,0.0,0.0,0.0,0.0,-0.00011996397619573607,-0.00013924194420403269,-3.987493077886508e-05,5.178847779863105e-05,4.6793800083516635e-06,-2.136230468963163e-06,-7.459071138526951e-10,0.00036217520973615635,-0.00010551522587517415,-0.0002411165142995632,0.0002553915177123261,0.00022059331871871564,2.780803132425397e-05,-0.00046570504127699,0.3236324191093445,19.717248916625977,0.4982573688030243,-19.983552932739258,-0.6896873116493225,-2.4630770683288574,0.24112264811992645,0
21,0.10003232955932617,-0.3236324191093445,-19.717248916625977,-0.4982573688030243,19.983552932739258,0.6896873116493225,2.4630770683288574,-0.24112264811992645,0.0,0.0,0.0,0.0,0.0,0.0,0.0,-0.3397288381327184,0.029714880538927645,-0.2878233513508389,0.19535071532236692,0.09791365597770527,0.09082869900968633,-0.24202999529147062,1.213561357744953,-0.22010398964505445,-0.0074719536640403565,-2.603900170677586,-0.10888860646699743,2.4681842620107863,0.8264749089971462,1.2134413937687574,-0.2202432315892585,-0.0075118285948192216,-2.6038483821997875,-0.10888392708698907,2.4681821257803174,0.826474908251239,-0.00036217520973615635,0.00010551522587517415,0.0002411165142995632,-0.0002553915177123261,-0.00022059331871871564,-2.780803132425397e-05,0.00046570504127699,0.0,0.0,0.0,0.0,0.0,0.0,0.0,-0.00011996397619573607,-0.00013924194420403269,-3.987493077886508e-05,5.178847779863105e-05,4.6793800083516635e-06,-2.136230468963163e-06,-7.459071138526951e-10,0.00036217520973615635,-0.00010551522587517415,-0.0002411165142995632,0.0002553915177123261,0.00022059331871871564,2.780803132425397e-05,-0.00046570504127699,0.3236324191093445,19.717248916625977,0.4982573688030243,-19.983552932739258,-0.6896873116493225,-2.4630770683288574,0.24112264811992645,0
22,0.10500478744506836,-0.3752071261405945,-19.717248916625977,-0.4704863727092743,19.983552932739258,0.6777854561805725,2.4566683769226074,-0.27591270208358765,0.0,0.0,0.0,0.0,0.0,0.0,0.0,-0.34350577981618435,0.027629183567219478,-0.29410635194824936,0.19890393577835483,0.09848647543735614,0.0915094272826984,-0.24118296097102193,1.2135649770226395,-0.22010398964505445,-0.007473902505871497,-2.603900170677586,-0.10888728402058293,2.4681860337257384,0.8264777020439945,1.2134413937687574,-0.2202432315892585,-0.0075118285948192216,-2.6038483821997875,-0.10888392708698907,2.4681821257803174,0.826474908251239,0.000361292334991151,7.775097847498495e-05,-0.00046904913807025665,-0.00010563528972089349,-3.880276003601822e-05,0.00022812980873890523,0.0014053992616984434,0.0,0.0,0.0,0.0,0.0,0.0,0.0,-0.00012358325388217573,-0.00013924194420403269,-3.792608894772481e-05,5.178847779863105e-05,3.3569335938510303e-06,-3.907945421044445e-06,-2.793792755473312e-06,-0.000361292334991151,-7.775097847498495e-05,0.00046904913807025665,0.00010563528972089349,3.880276003601822e-05,-0.00022812980873890523,-0.0014053992616984434,0.3752071261405945,19.717248916625977,0.4704863727092743,-19.983552932739258,-0.6777854561805725,-2.4566683769226074,0.27591270208358765,0
23,0.1100308895111084,-0.3752071261405945,-19.717248916625977,-0.4704863727092743,19.983552932739258,0.6777854561805725,2.4566683769226074,-0.27591270208358765,0.0,0.0,0.0,0.0,0.0,0.0,0.0,-0.34350577981618435,0.027629183567219478,-0.29410635194824936,0.19890393577835483,0.09848647543735614,0.0915094272826984,-0.24118296097102193,1.2135649770226395,-0.22010398964505445,-0.007473902505871497,-2.603900170677586,-0.10888728402058293,2.4681860337257384,0.8264777020439945,1.2134413937687574,-0.2202432315892585,-0.0075118285948192216,-2.6038483821997875,-0.10888392708698907,2.4681821257803174,0.826474908251239,0.000361292334991151,7.775097847498495e-05,-0.00046904913807025665,-0.00010563528972089349,-3.880276003601822e-05,0.00022812980873890523,0.0014053992616984434,0.0,0.0,0.0,0.0,0.0,0.0,0.0,-0.00012358325388217573,-0.00013924194420403269,-3.792608894772481e-05,5.178847779863105e-05,3.3569335938510303e-06,-3.907945421044445e-06,-2.793792755473312e-06,-0.000361292334991151,-7.775097847498495e-05,0.00046904913807025665,0.00010563528972089349,3.880276003601822e-05,-0.00022812980873890523,-0.0014053992616984434,0.3752071261405945,19.717248916625977,0.4704863727092743,-19.983552932739258,-0.6777854561805725,-2.4566683769226074,0.27591270208358765,0
24,0.11499285697937012,-0.3752071261405945,-19.768823623657227,-0.4704863727092743,19.983552932739258,0.6896873116493225,2.4630770683288574,-0.23471395671367645,0.0,0.0,0.0,0.0,0.0,0.0,0.0,-0.34269806917289236,0.03305443621108432,-0.2914798356873542,0.19511340761592613,0.0976088089229286,0.09104377172328483,-0.24098458417253707,1.2135649770226395,-0.22010037036736807,-0.007473902505871497,-2.603900170677586,-0.10889183969433905,2.468184262028731,0.8264740400881645,1.2134413937687574,-0.2202432315892585,-0.0075118285948192216,-2.6038483821997875,-0.10888392708698907,2.4681821257803174,0.826474908251239,0.000722150951079549,0.0017845676161891127,-0.0004839030755846396,-0.00016800133364646265,-0.00033234765515143867,-0.00010154707910868704,-5.709783360439299e-05,0.0,0.0,0.0,0.0,0.0,0.0,0.0,-0.00012358325388217573,-0.00014286122189041683,-3.792608894772481e-05,5.178847779863105e-05,7.912607349974676e-06,-2.1362484137199544e-06,8.681630745410729e-07,-0.000722150951079549,-0.0017845676161891127,0.0004839030755846396,0.00016800133364646265,0.00033234765515143867,0.00010154707910868704,5.709783360439299e-05,0.3752071261405945,19.768823623657227,0.4704863727092743,-19.983552932739258,-0.6896873116493225,-2.4630770683288574,0.23471395671367645,0
25,0.12002944946289062,-0.3752071261405945,-19.768823623657227,-0.4704863727092743,19.983552932739258,0.6896873116493225,2.4630770683288574,-0.23471395671367645,0.0,0.0,0.0,0.0,0.0,0.0,0.0,-0.34269806917289236,0.03305443621108432,-0.2914798356873542,0.19511340761592613,0.0976088089229286,0.09104377172328483,-0.24098458417253707,1.2135649770226395,-0.22010037036736807,-0.007473902505871497,-2.603900170677586,-0.10889183969433905,2.468184262028731,0.8264740400881645,1.2134413937687574,-0.2202432315892585,-0.0075118285948192216,-2.6038483821997875,-0.10888392708698907,2.4681821257803174,0.826474908251239,0.000722150951079549,0.0017845676161891127,-0.0004839030755846396,-0.00016800133364646265,-0.00033234765515143867,-0.00010154707910868704,-5.709783360439299e-05,0.0,0.0,0.0,0.0,0.0,0.0,0.0,-0.00012358325388217573,-0.00014286122189041683,-3.792608894772481e-05,5.178847779863105e-05,7.912607349974676e-06,-2.1362484137199544e-06,8.681630745410729e-07,-0.000722150951079549,-0.0017845676161891127,0.0004839030755846396,0.00016800133364646265,0.00033234765515143867,0.00010154707910868704,5.709783360439299e-05,0.3752071261405945,19.768823623657227,0.4704863727092743,-19.983552932739258,-0.6896873116493225,-2.4630770683288574,0.23471395671367645,0
26,0.12500357627868652,-0.3236324191093445,-19.717248916625977,-0.4704863727092743,19.955781936645508,0.6832786202430725,2.4694857597351074,-0.21457235515117645,0.0,0.0,0.0,0.0,0.0,0.0,0.0,-0.34335506423752366,0.024568846193686846,-0.2903165365328077,0.202227473319035,0.09790381039974425,0.09191304146263102,-0.24158440767127476,1.2135605839474797,-0.22010398964505445,-0.007473902505871497,-2.603898221835755,-0.10888789437822925,2.4681835499339635,0.8264740767710822,1.2134413937687574,-0.2202432315892585,-0.0075118285948192216,-2.6038483821997875,-0.10888392708698907,2.4681821257803174,0.826474908251239,-0.00033834742743614634,3.937676098769987e-05,-0.0006218948018462183,0.0009540380832281744,-8.002462216584786e-06,-0.00019410795173491747,-0.0010700726748925353,0.0,0.0,0.0,0.0,0.0,0.0,0.0,-0.00011919017872230597,-0.00013924194420403269,-3.792608894772481e-05,4.9839635967607876e-05,3.967291240178361e-06,-1.4241536461234716e-06,8.314801568376495e-07,0.00033834742743614634,-3.937676098769987e-05,0.0006218948018462183,-0.0009540380832281744,8.002462216584786e-06,0.00019410795173491747,0.0010700726748925353,0.3236324191093445,19.717248916625977,0.4704863727092743,-19.955781936645508,-0.6832786202430725,-2.4694857597351074,0.21457235515117645,0
27,0.13003277778625488,-0.3236324191093445,-19.717248916625977,-0.4704863727092743,19.955781936645508,0.6832786202430725,2.4694857597351074,-0.21457235515117645,0.0,0.0,0.0,0.0,0.0,0.0,0.0,-0.34335506423752366,0.024568846193686846,-0.2903165365328077,0.202227473319035,0.09790381039974425,0.09191304146263102,-0.24158440767127476,1.2135605839474797,-0.22010398964505445,-0.007473902505871497,-2.603898221835755,-0.10888789437822925,2.4681835499339635,0.8264740767710822,1.2134413937687574,-0.2202432315892585,-0.0075118285948192216,-2.6038483821997875,-0.10888392708698907,2.4681821257803174,0.826474908251239,-0.00033834742743614634,3.937676098769987e-05,-0.0006218948018462183,0.0009540380832281744,-8.002462216584786e-06,-0.00019410795173491747,-0.0010700726748925353,0.0,0.0,0.0,0.0,0.0,0.0,0.0,-0.00011919017872230597,-0.00013924194420403269,-3.792608894772481e-05,4.9839635967607876e-05,3.967291240178361e-06,-1.4241536461234716e-06,8.314801568376495e-07,0.00033834742743614634,-3.937676098769987e-05,0.0006218948018462183,-0.0009540380832281744,8.002462216584786e-06,0.00019410795173491747,0.0010700726748925353,0.3236324191093445,19.717248916625977,0.4704863727092743,-19.955781936645508,-0.6832786202430725,-2.4694857597351074,0.21457235515117645,0
28,0.13003277778625488,-0.3236324191093445,-19.717248916625977,-0.4704863727092743,19.955781936645508,0.6832786202430725,2.4694857597351074,-0.21457235515117645,0.0,0.0,0.0,0.0,0.0,0.0,0.0,-0.34335506423752366,0.024568846193686846,-0.2903165365328077,0.202227473319035,0.09790381039974425,0.09191304146263102,-0.24158440767127476,1.2135605839474797,-0.22010398964505445,-0.007473902505871497,-2.603898221835755,-0.10888789437822925,2.4681835499339635,0.8264740767710822,1.2134413937687574,-0.2202432315892585,-0.0075118285948192216,-2.6038483821997875,-0.10888392708698907,2.4681821257803174,0.826474908251239,-0.00033834742743614634,3.937676098769987e-05,-0.0006218948018462183,0.0009540380832281744,-8.002462216584786e-06,-0.00019410795173491747,-0.0010700726748925353,0.0,0.0,0.0,0.0,0.0,0.0,0.0,-0.00011919017872230597,-0.00013924194420403269,-3.792608894772481e-05,4.9839635967607876e-05,3.967291240178361e-06,-1.4241536461234716e-06,8.314801568376495e-07,0.00033834742743614634,-3.937676098769987e-05,0.0006218948018462183,-0.0009540380832281744,8.002462216584786e-06,0.00019410795173491747,0.0010700726748925353,0.3236324191093445,19.717248916625977,0.4704863727092743,-19.955781936645508,-0.6832786202430725,-2.4694857597351074,0.21457235515117645,0
29,0.1400318145751953,-0.3236324191093445,-19.717248916625977,-0.4704863727092743,19.955781936645508,0.6832786202430725,2.4694857597351074,-0.21457235515117645,0.0,0.0,0.0,0.0,0.0,0.0,0.0,-0.34335506423752366,0.024568846193686846,-0.2903165365328077,0.202227473319035,0.09790381039974425,0.09191304146263102,-0.24158440767127476,1.2135605839474797,-0.22010398964505445,-0.007473902505871497,-2.603898221835755,-0.10888789437822925,2.4681835499339635,0.8264740767710822,1.2134413937687574,-0.2202432315892585,-0.0075118285948192216,-2.6038483821997875,-0.10888392708698907,2.4681821257803174,0.826474908251239,-0.00033834742743614634,3.937676098769987e-05,-0.0006218948018462183,0.0009540380832281744,-8.002462216584786e-06,-0.00019410795173491747,-0.0010700726748925353,0.0,0.0,0.0,0.0,0.0,0.0,0.0,-0.00011919017872230597,-0.00013924194420403269,-3.792608894772481e-05,4.9839635967607876e-05,3.967291240178361e-06,-1.4241536461234716e-06,8.314801568376495e-07,0.00033834742743614634,-3.937676098769987e-05,0.0006218948018462183,-0.0009540380832281744,8.002462216584786e-06,0.00019410795173491747,0.0010700726748925353,0.3236324191093445,19.717248916625977,0.4704863727092743,-19.955781936645508,-0.6832786202430725,-2.4694857597351074,0.21457235515117645,0
30,0.14501523971557617,-0.3236324191093445,-19.717248916625977,-0.4704863727092743,19.955781936645508,0.6832786202430725,2.4694857597351074,-0.21457235515117645,0.0,0.0,0.0,0.0,0.0,0.0,0.0,-0.34335506423752366,0.024568846193686846,-0.2903165365328077,0.202227473319035,0.09790381039974425,0.09191304146263102,-0.24158440767127476,1.2135605839474797,-0.22010398964505445,-0.007473902505871497,-2.603898221835755,-0.10888789437822925,2.4681835499339635,0.8264740767710822,1.2134413937687574,-0.2202432315892585,-0.0075118285948192216,-2.6038483821997875,-0.10888392708698907,2.4681821257803174,0.826474908251239,-0.00033834742743614634,3.937676098769987e-05,-0.0006218948018462183,0.0009540380832281744,-8.002462216584786e-06,-0.00019410795173491747,-0.0010700726748925353,0.0,0.0,0.0,0.0,0.0,0.0,0.0,-0.00011919017872230597,-0.00013924194420403269,-3.792608894772481e-05,4.9839635967607876e-05,3.967291240178361e-06,-1.4241536461234716e-06,8.314801568376495e-07,0.00033834742743614634,-3.937676098769987e-05,0.0006218948018462183,-0.0009540380832281744,8.002462216584786e-06,0.00019410795173491747,0.0010700726748925353,0.3236324191093445,19.717248916625977,0.4704863727092743,-19.955781936645508,-0.6832786202430725,-2.4694857597351074,0.21457235515117645,0
31,0.15003132820129395,-0.2998287081718445,-19.717248916625977,-0.4704863727092743,20.007356643676758,0.6777854561805725,2.4694857597351074,-0.24844686686992645,0.0,0.0,0.0,0.0,0.0,0.0,0.0,-0.34379691814049573,0.03785175882632542,-0.2899783837596295,0.19514367898752047,0.09791590398900944,0.09068669409574738,-0.24223934575469902,1.2135596873047299,-0.22010398964505445,-0.007473902505871497,-2.6039018411134416,-0.10888834862576592,2.4681835499339635,0.8264783818829738,1.2134413937687574,-0.2202432315892585,-0.0075118285948192216,-2.6038483821997875,-0.10888392708698907,2.4681821257803174,0.826474908251239,-0.0009271161482668358,0.0006356936636361931,-0.00045758642226581835,-0.0008562601171988568,-2.1797144239463934e-05,-0.00019740829362847304,0.0006196130511833545,0.0,0.0,0.0,0.0,0.0,0.0,0.0,-0.00011829353597248016,-0.00013924194420403269,-3.792608894772481e-05,5.3458913654047535e-05,4.421538776847034e-06,-1.4241536461234716e-06,-3.473631734807192e-06,0.0009271161482668358,-0.0006356936636361931,0.00045758642226581835,0.0008562601171988568,2.1797144239463934e-05,0.00019740829362847304,-0.0006196130511833545,0.2998287081718445,19.717248916625977,0.4704863727092743,-20.007356643676758,-0.6777854561805725,-2.4694857597351074,0.24844686686992645,0
32,0.15499162673950195,-0.2998287081718445,-19.717248916625977,-0.4704863727092743,20.007356643676758,0.6777854561805725,2.4694857597351074,-0.24844686686992645,0.0,0.0,0.0,0.0,0.0,0.0,0.0,-0.34379691814049573,0.03785175882632542,-0.2899783837596295,0.19514367898752047,0.09791590398900944,0.09068669409574738,-0.24223934575469902,1.2135596873047299,-0.22010398964505445,-0.007473902505871497,-2.6039018411134416,-0.10888834862576592,2.4681835499339635,0.8264783818829738,1.2134413937687574,-0.2202432315892585,-0.0075118285948192216,-2.6038483821997875,-0.10888392708698907,2.4681821257803174,0.826474908251239,-0.0009271161482668358,0.0006356936636361931,-0.00045758642226581835,-0.0008562601171988568,-2.1797144239463934e-05,-0.00019740829362847304,0.0006196130511833545,0.0,0.0,0.0,0.0,0.0,0.0,0.0,-0.00011829353597248016,-0.00013924194420403269,-3.792608894772481e-05,5.3458913654047535e-05,4.421538776847034e-06,-1.4241536461234716e-06,-3.473631734807192e-06,0.0009271161482668358,-0.0006356936636361931,0.00045758642226581835,0.0008562601171988568,2.1797144239463934e-05,0.00019740829362847304,-0.0006196130511833545,0.2998287081718445,19.717248916625977,0.4704863727092743,-20.007356643676758,-0.6777854561805725,-2.4694857597351074,0.24844686686992645,0
33,0.16003775596618652,-0.3236324191093445,-19.717248916625977,-0.4982573688030243,19.983552932739258,0.6713767647743225,2.4630770683288574,-0.20724813640117645,0.0,0.0,0.0,0.0,0.0,0.0,0.0,-0.3446936112759648,0.029628173936477216,-0.2913853911097353,0.20449303790105322,0.09740381617488211,0.09230451737493575,-0.24173328726121232,1.213561357744953,-0.22010398964505445,-0.0074719536640403565,-2.603900170677586,-0.10888657194976964,2.468184262172292,0.8264696845649024,1.2134413937687574,-0.2202432315892585,-0.0075118285948192216,-2.6038483821997875,-0.10888392708698907,2.4681821257803174,0.826474908251239,-0.0007451505657491986,0.0004465639378006643,0.00030279089692528284,-2.282573157667466e-05,0.00048614137454318585,-0.00012557143994281042,-0.0014971455078073785,0.0,0.0,0.0,0.0,0.0,0.0,0.0,-0.00011996397619573607,-0.00013924194420403269,-3.987493077886508e-05,5.178847779863105e-05,2.6448627805653047e-06,-2.1363919744388227e-06,5.223686336597311e-06,0.0007451505657491986,-0.0004465639378006643,-0.00030279089692528284,2.282573157667466e-05,-0.00048614137454318585,0.00012557143994281042,0.0014971455078073785,0.3236324191093445,19.717248916625977,0.4982573688030243,-19.983552932739258,-0.6713767647743225,-2.4630770683288574,0.20724813640117645,0
34,0.16501736640930176,-0.3236324191093445,-19.717248916625977,-0.4982573688030243,19.983552932739258,0.6713767647743225,2.4630770683288574,-0.20724813640117645,0.0,0.0,0.0,0.0,0.0,0.0,0.0,-0.3446936112759648,0.029628173936477216,-0.2913853911097353,0.20449303790105322,0.09740381617488211,0.09230451737493575,-0.24173328726121232,1.213561357744953,-0.22010398964505445,-0.0074719536640403565,-2.603900170677586,-0.10888657194976964,2.468184262172292,0.8264696845649024,1.2134413937687574,-0.2202432315892585,-0.0075118285948192216,-2.6038483821997875,-0.10888392708698907,2.4681821257803174,0.826474908251239,-0.0007451505657491986,0.0004465639378006643,0.00030279089692528284,-2.282573157667466e-05,0.00048614137454318585,-0.00012557143994281042,-0.0014971455078073785,0.0,0.0,0.0,0.0,0.0,0.0,0.0,-0.00011996397619573607,-0.00013924194420403269,-3.987493077886508e-05,5.178847779863105e-05,2.6448627805653047e-06,-2.1363919744388227e-06,5.223686336597311e-06,0.0007451505657491986,-0.0004465639378006643,-0.00030279089692528284,2.282573157667466e-05,-0.00048614137454318585,0.00012557143994281042,0.0014971455078073785,0.3236324191093445,19.717248916625977,0.4982573688030243,-19.983552932739258,-0.6713767647743225,-2.4630770683288574,0.20724813640117645,0
35,0.1700146198272705,-0.3514034152030945,-19.717248916625977,-0.4704863727092743,19.955781936645508,0.6777854561805725,2.4493441581726074,-0.26858848333358765,0.0,0.0,0.0,0.0,0.0,0.0,0.0,-0.35163171173942714,0.03536184885505268,-0.298928030875405,0.20152797398253672,0.09776416779228274,0.09109024224945557,-0.2420805638168788,1.2135630741640997,-0.22010398964505445,-0.007473902505871497,-2.603898221835755,-0.10888728402058286,2.4681857878896936,0.8264774797747809,1.2134413937687574,-0.2202432315892585,-0.0075118285948192216,-2.6038483821997875,-0.10888392708698907,2.4681821257803174,0.826474908251239,0.00037680062062335186,0.00041483428269473177,0.004421632893828726,0.0005262175638916336,0.00028923557852266217,0.0004013199330017775,0.0011347650062333136,0.0,0.0,0.0,0.0,0.0,0.0,0.0,-0.00012168039534232733,-0.00013924194420403269,-3.792608894772481e-05,4.9839635967607876e-05,3.3569335937816414e-06,-3.662109376190159e-06,-2.5715235418832805e-06,-0.00037680062062335186,-0.00041483428269473177,-0.004421632893828726,-0.0005262175638916336,-0.00028923557852266217,-0.0004013199330017775,-0.0011347650062333136,0.3514034152030945,19.717248916625977,0.4704863727092743,-19.955781936645508,-0.6777854561805725,-2.4493441581726074,0.26858848333358765,0
36,0.17502117156982422,-0.3514034152030945,-19.717248916625977,-0.4704863727092743,19.955781936645508,0.6777854561805725,2.4493441581726074,-0.26858848333358765,0.0,0.0,0.0,0.0,0.0,0.0,0.0,-0.35163171173942714,0.03536184885505268,-0.298928030875405,0.20152797398253672,0.09776416779228274,0.09109024224945557,-0.2420805638168788,1.2135630741640997,-0.22010398964505445,-0.007473902505871497,-2.603898221835755,-0.10888728402058286,2.4681857878896936,0.8264774797747809,1.2134413937687574,-0.2202432315892585,-0.0075118285948192216,-2.6038483821997875,-0.10888392708698907,2.4681821257803174,0.826474908251239,0.00037680062062335186,0.00041483428269473177,0.004421632893828726,0.0005262175638916336,0.00028923557852266217,0.0004013199330017775,0.0011347650062333136,0.0,0.0,0.0,0.0,0.0,0.0,0.0,-0.00012168039534232733,-0.00013924194420403269,-3.792608894772481e-05,4.9839635967607876e-05,3.3569335937816414e-06,-3.662109376190159e-06,-2.5715235418832805e-06,-0.00037680062062335186,-0.00041483428269473177,-0.004421632893828726,-0.0005262175638916336,-0.00028923557852266217,-0.0004013199330017775,-0.0011347650062333136,0.3514034152030945,19.717248916625977,0.4704863727092743,-19.955781936645508,-0.6777854561805725,-2.4493441581726074,0.26858848333358765,0
37,0.18003249168395996,-0.3752071261405945,-19.669641494750977,-0.5220611095428467,19.983552932739258,0.6832786202430725,2.4566683769226074,-0.24844686686992645,0.0,0.0,0.0,0.0,0.0,0.0,0.0,-0.3621226025583172,0.03398985693980628,-0.31161329957769224,0.2022002836822416,0.09897218508538647,0.09102895487976734,-0.24217060071713892,1.2135647190888363,-0.22010733051676498,-0.007470283226093702,-2.603900170677586,-0.10888789437214534,2.4681850133873007,0.8264787318509018,1.2134413937687574,-0.2202432315892585,-0.0075118285948192216,-2.6038483821997875,-0.10888392708698907,2.4681821257803174,0.826474908251239,0.0007305719804923225,-0.0010959282221765516,0.0009906895981079298,-0.0005723646932574949,0.0001299722746664366,0.0003179616470397592,0.0003476126556473372,0.0,0.0,0.0,0.0,0.0,0.0,0.0,-0.0001233253200789708,-0.00013590107249350503,-4.154536872551934e-05,5.178847779863105e-05,3.9672851562672085e-06,-2.8876069833039253e-06,-3.823599662777788e-06,-0.0007305719804923225,0.0010959282221765516,-0.0009906895981079298,0.0005723646932574949,-0.0001299722746664366,-0.0003179616470397592,-0.0003476126556473372,0.3752071261405945,19.669641494750977,0.5220611095428467,-19.983552932739258,-0.6832786202430725,-2.4566683769226074,0.24844686686992645,0
38,0.18501734733581543,-0.3752071261405945,-19.669641494750977,-0.5220611095428467,19.983552932739258,0.6832786202430725,2.4566683769226074,-0.24844686686992645,0.0,0.0,0.0,0.0,0.0,0.0,0.0,-0.3621226025583172,0.03398985693980628,-0.31161329957769224,0.2022002836822416,0.09897218508538647,0.09102895487976734,-0.24217060071713892,1.2135647190888363,-0.22010733051676498,-0.007470283226093702,-2.603900170677586,-0.10888789437214534,2.4681850133873007,0.8264787318509018,1.2134413937687574,-0.2202432315892585,-0.0075118285948192216,-2.6038483821997875,-0.10888392708698907,2.4681821257803174,0.826474908251239,0.0007305719804923225,-0.0010959282221765516,0.0009906895981079298,-0.0005723646932574949,0.0001299722746664366,0.0003179616470397592,0.0003476126556473372,0.0,0.0,0.0,0.0,0.0,0.0,0.0,-0.0001233253200789708,-0.00013590107249350503,-4.154536872551934e-05,5.178847779863105e-05,3.9672851562672085e-06,-2.8876069833039253e-06,-3.823599662777788e-06,-0.0007305719804923225,0.0010959282221765516,-0.0009906895981079298,0.0005723646932574949,-0.0001299722746664366,-0.0003179616470397592,-0.0003476126556473372,0.3752071261405945,19.669641494750977,0.5220611095428467,-19.983552932739258,-0.6832786202430725,-2.4566683769226074,0.24844686686992645,0
39,0.1900327205657959,-0.3752071261405945,-19.717248916625977,-0.4466826617717743,19.955781936645508,0.6713767647743225,2.4630770683288574,-0.20083944499492645,0.0,0.0,0.0,0.0,0.0,0.0,0.0,-0.33785170935363146,0.03128475985787883,-0.28643300662424354,0.2032476264748708,0.09815497297008627,0.091924662931607,-0.2429395529674102,1.2135649770211836,-0.22010398964505445,-0.00747557294172676,-2.603898221835755,-0.10888657248463537,2.468184262011008,0.8264699539594823,1.2134413937687574,-0.2202432315892585,-0.0075118285948192216,-2.6038483821997875,-0.10888392708698907,2.4681821257803174,0.826474908251239,0.00023994429294743247,-0.00010036587948407223,-0.0011151134821049647,0.0010164961991246458,0.0003122152353725895,-8.302728689473942e-06,-0.0019961459689133046,0.0,0.0,0.0,0.0,0.0,0.0,0.0,-0.00012358325242622925,-0.00013924194420403269,-3.625565309246185e-05,4.9839635967607876e-05,2.6453976463003404e-06,-2.1362306905636785e-06,4.954291756731344e-06,-0.00023994429294743247,0.00010036587948407223,0.0011151134821049647,-0.0010164961991246458,-0.0003122152353725895,8.302728689473942e-06,0.0019961459689133046,0.3752071261405945,19.717248916625977,0.4466826617717743,-19.955781936645508,-0.6713767647743225,-2.4630770683288574,0.20083944499492645,0
40,0.1949934959411621,-0.3752071261405945,-19.717248916625977,-0.4466826617717743,19.955781936645508,0.6713767647743225,2.4630770683288574,-0.20083944499492645,0.0,0.0,0.0,0.0,0.0,0.0,0.0,-0.33785170935363146,0.03128475985787883,-0.28643300662424354,0.2032476264748708,0.09815497297008627,0.091924662931607,-0.2429395529674102,1.2135649770211836,-0.22010398964505445,-0.00747557294172676,-2.603898221835755,-0.10888657248463537,2.468184262011008,0.8264699539594823,1.2134413937687574,-0.2202432315892585,-0.0075118285948192216,-2.6038483821997875,-0.10888392708698907,2.4681821257803174,0.826474908251239,0.00023994429294743247,-0.00010036587948407223,-0.0011151134821049647,0.0010164961991246458,0.0003122152353725895,-8.302728689473942e-06,-0.0019961459689133046,0.0,0.0,0.0,0.0,0.0,0.0,0.0,-0.00012358325242622925,-0.00013924194420403269,-3.625565309246185e-05,4.9839635967607876e-05,2.6453976463003404e-06,-2.1362306905636785e-06,4.954291756731344e-06,-0.00023994429294743247,0.00010036587948407223,0.0011151134821049647,-0.0010164961991246458,-0.0003122152353725895,8.302728689473942e-06,0.0019961459689133046,0.3752071261405945,19.717248916625977,0.4466826617717743,-19.955781936645508,-0.6713767647743225,-2.4630770683288574,0.20083944499492645,0
41,0.2000415325164795,-0.3236324191093445,-19.717248916625977,-0.4982573688030243,19.983552932739258,0.6832786202430725,2.4694857597351074,-0.25485557317733765,0.0,0.0,0.0,0.0,0.0,0.0,0.0,-0.339358396823366,0.03387884293263687,-0.2846963452285323,0.19577068878159404,0.09722499115524284,0.0910381558633169,-0.24322929078002425,1.2135613574300173,-0.22010398964505445,-0.0074719536640403565,-2.603900170677586,-0.10888789583251215,2.4681835499339635,0.8264749814763005,1.2134413937687574,-0.2202432315892585,-0.0075118285948192216,-2.6038483821997875,-0.10888392708698907,2.4681821257803174,0.826474908251239,-0.0008815315899492693,-0.00022578267440843586,0.00027544426176681993,-0.0005495251625999539,-6.0949064195500175e-05,-0.00023565008615033115,0.0005131408911433161,0.0,0.0,0.0,0.0,0.0,0.0,0.0,-0.0001199636612598809,-0.00013924194420403269,-3.987493077886508e-05,5.178847779863105e-05,3.968745523080797e-06,-1.4241536461234716e-06,-7.32250614587926e-08,0.0008815315899492693,0.00022578267440843586,-0.00027544426176681993,0.0005495251625999539,6.0949064195500175e-05,0.00023565008615033115,-0.0005131408911433161,0.3236324191093445,19.717248916625977,0.4982573688030243,-19.983552932739258,-0.6832786202430725,-2.4694857597351074,0.25485557317733765,0
42,0.20505571365356445,-0.3236324191093445,-19.717248916625977,-0.4982573688030243,19.983552932739258,0.6832786202430725,2.4694857597351074,-0.25485557317733765,0.0,0.0,0.0,0.0,0.0,0.0,0.0,-0.339358396823366,0.03387884293263687,-0.2846963452285323,0.19577068878159404,0.09722499115524284,0.0910381558633169,-0.24322929078002425,1.2135613574300173,-0.22010398964505445,-0.0074719536640403565,-2.603900170677586,-0.10888789583251215,2.4681835499339635,0.8264749814763005,1.2134413937687574,-0.2202432315892585,-0.0075118285948192216,-2.6038483821997875,-0.10888392708698907,2.4681821257803174,0.826474908251239,-0.0008815315899492693,-0.00022578267440843586,0.00027544426176681993,-0.0005495251625999539,-6.0949064195500175e-05,-0.00023565008615033115,0.0005131408911433161,0.0,0.0,0.0,0.0,0.0,0.0,0.0,-0.0001199636612598809,-0.00013924194420403269,-3.987493077886508e-05,5.178847779863105e-05,3.968745523080797e-06,-1.4241536461234716e-06,-7.32250614587926e-08,0.0008815315899492693,0.00022578267440843586,-0.00027544426176681993,0.0005495251625999539,6.0949064195500175e-05,0.00023565008615033115,-0.0005131408911433161,0.3236324191093445,19.717248916625977,0.4982573688030243,-19.983552932739258,-0.6832786202430725,-2.4694857597351074,0.25485557317733765,0
43,0.2100214958190918,-0.3236324191093445,-19.693445205688477,-0.4466826617717743,19.983552932739258,0.6777854561805725,2.4694857597351074,-0.20083944499492645,0.0,0.0,0.0,0.0,0.0,0.0,0.0,-0.3372318116782132,0.02180526676386255,-0.2852832582542001,0.2042402898566214,0.09658423396753503,0.09258304904929257,-0.24350384931913946,1.2135590618623378,-0.22010566008090973,-0.00747557294172676,-2.603900170677586,-0.10888728402059107,2.4681835499339635,0.8264732054723567,1.2134413937687574,-0.2202432315892585,-0.0075118285948192216,-2.6038483821997875,-0.10888392708698907,2.4681821257803174,0.826474908251239,-0.0004303534483626833,-0.0008662161949432365,-0.0008679261664258858,0.00041703863101441786,-0.00019793438980869642,-0.0002442356407442127,-0.002007071271980437,0.0,0.0,0.0,0.0,0.0,0.0,0.0,-0.00011766809358038088,-0.00013757150834875498,-3.625565309246185e-05,5.178847779863105e-05,3.3569336019972917e-06,-1.4241536461234716e-06,1.7027788823398282e-06,0.0004303534483626833,0.0008662161949432365,0.0008679261664258858,-0.00041703863101441786,0.00019793438980869642,0.0002442356407442127,0.002007071271980437,0.3236324191093445,19.693445205688477,0.4466826617717743,-19.983552932739258,-0.6777854561805725,-2.4694857597351074,0.20083944499492645,0
44,0.21502232551574707,-0.3236324191093445,-19.693445205688477,-0.4466826617717743,19.983552932739258,0.6777854561805725,2.4694857597351074,-0.20083944499492645,0.0,0.0,0.0,0.0,0.0,0.0,0.0,-0.3372318116782132,0.02180526676386255,-0.2852832582542001,0.2042402898566214,0.09658423396753503,0.09258304904929257,-0.24350384931913946,1.2135590618623378,-0.22010566008090973,-0.00747557294172676,-2.603900170677586,-0.10888728402059107,2.4681835499339635,0.8264732054723567,1.2134413937687574,-0.2202432315892585,-0.0075118285948192216,-2.6038483821997875,-0.10888392708698907,2.4681821257803174,0.826474908251239,-0.0004303534483626833,-0.0008662161949432365,-0.0008679261664258858,0.00041703863101441786,-0.00019793438980869642,-0.0002442356407442127,-0.002007071271980437,0.0,0.0,0.0,0.0,0.0,0.0,0.0,-0.00011766809358038088,-0.00013757150834875498,-3.625565309246185e-05,5.178847779863105e-05,3.3569336019972917e-06,-1.4241536461234716e-06,1.7027788823398282e-06,0.0004303534483626833,0.0008662161949432365,0.0008679261664258858,-0.00041703863101441786,0.00019793438980869642,0.0002442356407442127,0.002007071271980437,0.3236324191093445,19.693445205688477,0.4466826617717743,-19.983552932739258,-0.6777854561805725,-2.4694857597351074,0.20083944499492645,0
45,0.2200334072113037,-0.3514034152030945,-19.669641494750977,-0.5458648204803467,19.955781936645508,0.6777854561805725,2.4630770683288574,-0.26217979192733765,0.0,0.0,0.0,0.0,0.0,0.0,0.0,-0.3409684325931315,0.036782083959197874,-0.28883374404148227,0.1965918830676921,0.09641754828514223,0.0910474772869625,-0.24342261525253517,1.2135633065738238,-0.22010733051676498,-0.007468612790238439,-2.603898221835755,-0.10888728407467037,2.468184732961066,0.8264767638995546,1.2134413937687574,-0.2202432315892585,-0.0075118285948192216,-2.6038483821997875,-0.10888392708698907,2.4681821257803174,0.826474908251239,4.699152757940284e-05,-0.00020607581878256658,0.0017871186633216846,0.0003983980832261742,-0.0037416730836210377,0.00013959014359187814,0.0007372016328613124,0.0,0.0,0.0,0.0,0.0,0.0,0.0,-0.00012191280506645974,-0.00013590107249350503,-4.32158045807823e-05,4.9839635967607876e-05,3.356987681293888e-06,-2.6071807486260923e-06,-1.8556483155629522e-06,-4.699152757940284e-05,0.00020607581878256658,-0.0017871186633216846,-0.0003983980832261742,0.0037416730836210377,-0.00013959014359187814,-0.0007372016328613124,0.3514034152030945,19.669641494750977,0.5458648204803467,-19.955781936645508,-0.6777854561805725,-2.4630770683288574,0.26217979192733765,0
46,0.22501850128173828,-0.3514034152030945,-19.669641494750977,-0.5458648204803467,19.955781936645508,0.6777854561805725,2.4630770683288574,-0.26217979192733765,0.0,0.0,0.0,0.0,0.0,0.0,0.0,-0.3409684325931315,0.036782083959197874,-0.28883374404148227,0.1965918830676921,0.09641754828514223,0.0910474772869625,-0.24342261525253517,1.2135633065738238,-0.22010733051676498,-0.007468612790238439,-2.603898221835755,-0.10888728407467037,2.468184732961066,0.8264767638995546,1.2134413937687574,-0.2202432315892585,-0.0075118285948192216,-2.6038483821997875,-0.10888392708698907,2.4681821257803174,0.826474908251239,4.699152757940284e-05,-0.00020607581878256658,0.0017871186633216846,0.0003983980832261742,-0.0037416730836210377,0.00013959014359187814,0.0007372016328613124,0.0,0.0,0.0,0.0,0.0,0.0,0.0,-0.00012191280506645974,-0.00013590107249350503,-4.32158045807823e-05,4.9839635967607876e-05,3.356987681293888e-06,-2.6071807486260923e-06,-1.8556483155629522e-06,-4.699152757940284e-05,0.00020607581878256658,-0.0017871186633216846,-0.0003983980832261742,0.0037416730836210377,-0.00013959014359187814,-0.0007372016328613124,0.3514034152030945,19.669641494750977,0.5458648204803467,-19.955781936645508,-0.6777854561805725,-2.4630770683288574,0.26217979192733765,0
47,0.23003149032592773,-0.3514034152030945,-19.717248916625977,-0.5220611095428467,19.955781936645508,0.6896873116493225,2.4630770683288574,-0.19351522624492645,0.0,0.0,0.0,0.0,0.0,0.0,0.0,-0.33874960468736187,0.03146401071497277,-0.2851074444628088,0.19952669696245776,0.09590059160415894,0.09246597121625537,-0.24283701426588897,1.2135630769985226,-0.22010398964505445,-0.007470283226093702,-2.603898221835755,-0.10888860644896856,2.4681842664279308,0.8264715735422936,1.2134413937687574,-0.2202432315892585,-0.0075118285948192216,-2.6038483821997875,-0.10888392708698907,2.4681821257803174,0.826474908251239,0.0006498491781639953,0.0003563029336406109,0.001158071769251447,0.00016439617978181428,-0.0006037258642873136,0.0001609585144050746,-0.0022913497697741522,0.0,0.0,0.0,0.0,0.0,0.0,0.0,-0.00012168322976524593,-0.00013924194420403269,-4.154536872551934e-05,4.9839635967607876e-05,4.6793619794816e-06,-2.1406476133911667e-06,3.33470894542387e-06,-0.0006498491781639953,-0.0003563029336406109,-0.001158071769251447,-0.00016439617978181428,0.0006037258642873136,-0.0001609585144050746,0.0022913497697741522,0.3514034152030945,19.717248916625977,0.5220611095428467,-19.955781936645508,-0.6896873116493225,-2.4630770683288574,0.19351522624492645,0
48,0.2350177764892578,-0.3514034152030945,-19.717248916625977,-0.5220611095428467,19.955781936645508,0.6896873116493225,2.4630770683288574,-0.19351522624492645,0.0,0.0,0.0,0.0,0.0,0.0,0.0,-0.33874960468736187,0.03146401071497277,-0.2851074444628088,0.19952669696245776,0.09590059160415894,0.09246597121625537,-0.24283701426588897,1.2135630769985226,-0.22010398964505445,-0.007470283226093702,-2.603898221835755,-0.10888860644896856,2.4681842664279308,0.8264715735422936,1.2134413937687574,-0.2202432315892585,-0.0075118285948192216,-2.6038483821997875,-0.10888392708698907,2.4681821257803174,0.826474908251239,0.0006498491781639953,0.0003563029336406109,0.001158071769251447,0.00016439617978181428,-0.0006037258642873136,0.0001609585144050746,-0.0022913497697741522,0.0,0.0,0.0,0.0,0.0,0.0,0.0,-0.00012168322976524593,-0.00013924194420403269,-4.154536872551934e-05,4.9839635967607876e-05,4.6793619794816e-06,-2.1406476133911667e-06,3.33470894542387e-06,-0.0006498491781639953,-0.0003563029336406109,-0.001158071769251447,-0.00016439617978181428,0.0006037258642873136,-0.0001609585144050746,0.0022913497697741522,0.3514034152030945,19.717248916625977,0.5220611095428467,-19.955781936645508,-0.6896873116493225,-2.4630770683288574,0.19351522624492645,0
49,0.24000906944274902,-0.3514034152030945,-19.745019912719727,-0.4982573688030243,19.955781936645508,0.6832786202430725,2.4694857597351074,-0.22830526530742645,0.0,0.0,0.0,0.0,0.0,0.0,0.0,-0.3382790588324837,0.028713429064989568,-0.2868367370636353,0.20084160622520783,0.09572049943394607,0.09338047328629076,-0.24222886812095848,1.2135633056406805,-0.22010204080322332,-0.0074719536640403565,-2.603898221835755,-0.10888789875323662,2.4681835499339884,0.8264766249976178,1.2134413937687574,-0.2202432315892585,-0.0075118285948192216,-2.6038483821997875,-0.10888392708698907,2.4681821257803174,0.826474908251239,0.00014440328330558868,0.0006405505053398852,0.0002890645494198066,0.00042187403839735385,-9.845169187037215e-05,-0.00015257581838222913,-0.00022171094672339417,0.0,0.0,0.0,0.0,0.0,0.0,0.0,-0.00012191187192311936,-0.00014119078603516688,-3.987493077886508e-05,4.9839635967607876e-05,3.971666247548633e-06,-1.4241536709924674e-06,-1.7167463787215453e-06,-0.00014440328330558868,-0.0006405505053398852,-0.0002890645494198066,-0.00042187403839735385,9.845169187037215e-05,0.00015257581838222913,0.00022171094672339417,0.3514034152030945,19.745019912719727,0.4982573688030243,-19.955781936645508,-0.6832786202430725,-2.4694857597351074,0.22830526530742645,0
50,0.24500298500061035,-0.3514034152030945,-19.745019912719727,-0.4982573688030243,19.955781936645508,0.6832786202430725,2.4694857597351074,-0.22830526530742645,0.0,0.0,0.0,0.0,0.0,0.0,0.0,-0.3382790588324837,0.028713429064989568,-0.2868367370636353,0.20084160622520783,0.09572049943394607,0.09338047328629076,-0.24222886812095848,1.2135633056406805,-0.22010204080322332,-0.0074719536640403565,-2.603898221835755,-0.10888789875323662,2.4681835499339884,0.8264766249976178,1.2134413937687574,-0.2202432315892585,-0.0075118285948192216,-2.6038483821997875,-0.10888392708698907,2.4681821257803174,0.826474908251239,0.00014440328330558868,0.0006405505053398852,0.0002890645494198066,0.00042187403839735385,-9.845169187037215e-05,-0.00015257581838222913,-0.00022171094672339417,0.0,0.0,0.0,0.0,0.0,0.0,0.0,-0.00012191187192311936,-0.00014119078603516688,-3.987493077886508e-05,4.9839635967607876e-05,3.971666247548633e-06,-1.4241536709924674e-06,-1.7167463787215453e-06,-0.00014440328330558868,-0.0006405505053398852,-0.0002890645494198066,-0.00042187403839735385,9.845169187037215e-05,0.00015257581838222913,0.00022171094672339417,0.3514034152030945,19.745019912719727,0.4982573688030243,-19.955781936645508,-0.6832786202430725,-2.4694857597351074,0.22830526530742645,0
51,0.2500150203704834,-0.3514034152030945,-19.717248916625977,-0.4982573688030243,19.983552932739258,0.6896873116493225,2.4630770683288574,-0.18710653483867645,0.0,0.0,0.0,0.0,0.0,0.0,0.0,-0.3404567038398809,0.03250690121555602,-0.2909381584250642,0.19755447123663117,0.09598521615529984,0.09281328206276948,-0.24102593419092003,1.2135633065867788,-0.22010398964505445,-0.0074719536640403565,-2.603900170677586,-0.10888860644899298,2.4681843797483562,0.826467676057487,1.2134413937687574,-0.2202432315892585,-0.0075118285948192216,-2.6038483821997875,-0.10888392708698907,2.4681821257803174,0.826474908251239,0.00036542327140123056,0.00024111952281231664,-0.00019569959653628304,0.00018563757643160218,-0.000202368585199747,1.0729278449977665e-05,-0.0027589135061763196,0.0,0.0,0.0,0.0,0.0,0.0,0.0,-0.00012191281802143017,-0.00013924194420403269,-3.987493077886508e-05,5.178847779863105e-05,4.6793620039065065e-06,-2.253968038878895e-06,7.232193751982585e-06,-0.00036542327140123056,-0.00024111952281231664,0.00019569959653628304,-0.00018563757643160218,0.000202368585199747,-1.0729278449977665e-05,0.0027589135061763196,0.3514034152030945,19.717248916625977,0.4982573688030243,-19.983552932739258,-0.6896873116493225,-2.4630770683288574,0.18710653483867645,0
52,0.2550172805786133,-0.3514034152030945,-19.717248916625977,-0.4982573688030243,19.983552932739258,0.6896873116493225,2.4630770683288574,-0.18710653483867645,0.0,0.0,0.0,0.0,0.0,0.0,0.0,-0.3404567038398809,0.03250690121555602,-0.2909381584250642,0.19755447123663117,0.09598521615529984,0.09281328206276948,-0.24102593419092003,1.2135633065867788,-0.22010398964505445,-0.0074719536640403565,-2.603900170677586,-0.10888860644899298,2.4681843797483562,0.826467676057487,1.2134413937687574,-0.2202432315892585,-0.0075118285948192216,-2.6038483821997875,-0.10888392708698907,2.4681821257803174,0.826474908251239,0.00036542327140123056,0.00024111952281231664,-0.00019569959653628304,0.00018563757643160218,-0.000202368585199747,1.0729278449977665e-05,-0.0027589135061763196,0.0,0.0,0.0,0.0,0.0,0.0,0.0,-0.00012191281802143017,-0.00013924194420403269,-3.987493077886508e-05,5.178847779863105e-05,4.6793620039065065e-06,-2.253968038878895e-06,7.232193751982585e-06,-0.00036542327140123056,-0.00024111952281231664,0.00019569959653628304,-0.00018563757643160218,0.000202368585199747,-1.0729278449977665e-05,0.0027589135061763196,0.3514034152030945,19.717248916625977,0.4982573688030243,-19.983552932739258,-0.6896873116493225,-2.4630770683288574,0.18710653483867645,0
53,0.26003122329711914,-0.3514034152030945,-19.717248916625977,-0.4982573688030243,19.983552932739258,0.6896873116493225,2.4630770683288574,-0.18710653483867645,0.0,0.0,0.0,0.0,0.0,0.0,0.0,-0.3404567038398809,0.03250690121555602,-0.2909381584250642,0.19755447123663117,0.09598521615529984,0.09281328206276948,-0.24102593419092003,1.2135633065867788,-0.22010398964505445,-0.0074719536640403565,-2.603900170677586,-0.10888860644899298,2.4681843797483562,0.826467676057487,1.2134413937687574,-0.2202432315892585,-0.0075118285948192216,-2.6038483821997875,-0.10888392708698907,2.4681821257803174,0.826474908251239,0.00036542327140123056,0.00024111952281231664,-0.00019569959653628304,0.00018563757643160218,-0.000202368585199747,1.0729278449977665e-05,-0.0027589135061763196,0.0,0.0,0.0,0.0,0.0,0.0,0.0,-0.00012191281802143017,-0.00013924194420403269,-3.987493077886508e-05,5.178847779863105e-05,4.6793620039065065e-06,-2.253968038878895e-06,7.232193751982585e-06,-0.00036542327140123056,-0.00024111952281231664,0.00019569959653628304,-0.00018563757643160218,0.000202368585199747,-1.0729278449977665e-05,0.0027589135061763196,0.3514034152030945,19.717248916625977,0.4982573688030243,-19.983552932739258,-0.6896873116493225,-2.4630770683288574,0.18710653483867645,0
54,0.2650184631347656,-0.3514034152030945,-19.717248916625977,-0.4982573688030243,19.983552932739258,0.6896873116493225,2.4630770683288574,-0.18710653483867645,0.0,0.0,0.0,0.0,0.0,0.0,0.0,-0.3404567038398809,0.03250690121555602,-0.2909381584250642,0.19755447123663117,0.09598521615529984,0.09281328206276948,-0.24102593419092003,1.2135633065867788,-0.22010398964505445,-0.0074719536640403565,-2.603900170677586,-0.10888860644899298,2.4681843797483562,0.826467676057487,1.2134413937687574,-0.2202432315892585,-0.0075118285948192216,-2.6038483821997875,-0.10888392708698907,2.4681821257803174,0.826474908251239,0.00036542327140123056,0.00024111952281231664,-0.00019569959653628304,0.00018563757643160218,-0.000202368585199747,1.0729278449977665e-05,-0.0027589135061763196,0.0,0.0,0.0,0.0,0.0,0.0,0.0,-0.00012191281802143017,-0.00013924194420403269,-3.987493077886508e-05,5.178847779863105e-05,4.6793620039065065e-06,-2.253968038878895e-06,7.232193751982585e-06,-0.00036542327140123056,-0.00024111952281231664,0.00019569959653628304,-0.00018563757643160218,0.000202368585199747,-1.0729278449977665e-05,0.0027589135061763196,0.3514034152030945,19.717248916625977,0.4982573688030243,-19.983552932739258,-0.6896873116493225,-2.4630770683288574,0.18710653483867645,0
55,0.2700307369232178,-0.3236324191093445,-19.745019912719727,-0.4982573688030243,19.983552932739258,0.6777854561805725,2.4630770683288574,-0.25485557317733765,0.0,0.0,0.0,0.0,0.0,0.0,0.0,-0.34047225104142226,0.030429213174417095,-0.29234304761603847,0.19791250770010185,0.09695524067929222,0.09274222959804881,-0.24156458319751362,1.2135612811805399,-0.22010204080322332,-0.0074719536640403565,-2.603900170677586,-0.10888728402058283,2.4681842620114507,0.8264759159433579,1.2134413937687574,-0.2202432315892585,-0.0075118285948192216,-2.6038483821997875,-0.10888392708698907,2.4681821257803174,0.826474908251239,-0.000835821247462369,0.0008778929740646699,0.00025969656091737506,-0.00014225964273156233,0.00037739348861199235,1.3376974193307267e-05,0.0008511418284112361,0.0,0.0,0.0,0.0,0.0,0.0,0.0,-0.00011988741178248219,-0.00014119078603516688,-3.987493077886508e-05,5.178847779863105e-05,3.3569335937538858e-06,-2.1362311333206208e-06,-1.0076921188595378e-06,0.000835821247462369,-0.0008778929740646699,-0.00025969656091737506,0.00014225964273156233,-0.00037739348861199235,-1.3376974193307267e-05,-0.0008511418284112361,0.3236324191093445,19.745019912719727,0.4982573688030243,-19.983552932739258,-0.6777854561805725,-2.4630770683288574,0.25485557317733765,0
56,0.2750236988067627,-0.3236324191093445,-19.745019912719727,-0.4982573688030243,19.983552932739258,0.6777854561805725,2.4630770683288574,-0.25485557317733765,0.0,0.0,0.0,0.0,0.0,0.0,0.0,-0.34047225104142226,0.030429213174417095,-0.29234304761603847,0.19791250770010185,0.09695524067929222,0.09274222959804881,-0.24156458319751362,1.2135612811805399,-0.22010204080322332,-0.0074719536640403565,-2.603900170677586,-0.10888728402058283,2.4681842620114507,0.8264759159433579,1.2134413937687574,-0.2202432315892585,-0.0075118285948192216,-2.6038483821997875,-0.10888392708698907,2.4681821257803174,0.826474908251239,-0.000835821247462369,0.0008778929740646699,0.00025969656091737506,-0.00014225964273156233,0.00037739348861199235,1.3376974193307267e-05,0.0008511418284112361,0.0,0.0,0.0,0.0,0.0,0.0,0.0,-0.00011988741178248219,-0.00014119078603516688,-3.987493077886508e-05,5.178847779863105e-05,3.3569335937538858e-06,-2.1362311333206208e-06,-1.0076921188595378e-06,0.000835821247462369,-0.0008778929740646699,-0.00025969656091737506,0.00014225964273156233,-0.00037739348861199235,-1.3376974193307267e-05,-0.0008511418284112361,0.3236324191093445,19.745019912719727,0.4982573688030243,-19.983552932739258,-0.6777854561805725,-2.4630770683288574,0.25485557317733765,0
57,0.2800123691558838,-0.3514034152030945,-19.745019912719727,-0.4704863727092743,19.983552932739258,0.6951804757118225,2.4630770683288574,-0.20724813640117645,0.0,0.0,0.0,0.0,0.0,0.0,0.0,-0.344928763478269,0.030267652072683282,-0.2939829423181478,0.19927170131525038,0.09795865641734532,0.09288086666851916,-0.24076442506603202,1.213563306586352,-0.22010204080322332,-0.007473902505871497,-2.603900170677586,-0.10888921680053075,2.4681853217027507,0.826472754714258,1.2134413937687574,-0.2202432315892585,-0.0075118285948192216,-2.6038483821997875,-0.10888392708698907,2.4681821257803174,0.826474908251239,6.253681189630823e-05,0.0008825326963176321,-0.0004950598952220955,6.876659939449028e-05,-0.000446161249311075,-7.209428872266762e-06,-0.0019360617137108422,0.0,0.0,0.0,0.0,0.0,0.0,0.0,-0.00012191281759466044,-0.00014119078603516688,-3.792608894772481e-05,5.178847779863105e-05,5.2897135416757335e-06,-3.1959224333633074e-06,2.1535369810754545e-06,-6.253681189630823e-05,-0.0008825326963176321,0.0004950598952220955,-6.876659939449028e-05,0.000446161249311075,7.209428872266762e-06,0.0019360617137108422,0.3514034152030945,19.745019912719727,0.4704863727092743,-19.983552932739258,-0.6951804757118225,-2.4630770683288574,0.20724813640117645,0
58,0.28501176834106445,-0.3514034152030945,-19.745019912719727,-0.4704863727092743,19.983552932739258,0.6951804757118225,2.4630770683288574,-0.20724813640117645,0.0,0.0,0.0,0.0,0.0,0.0,0.0,-0.344928763478269,0.030267652072683282,-0.2939829423181478,0.19927170131525038,0.09795865641734532,0.09288086666851916,-0.24076442506603202,1.213563306586352,-0.22010204080322332,-0.007473902505871497,-2.603900170677586,-0.10888921680053075,2.4681853217027507,0.826472754714258,1.2134413937687574,-0.2202432315892585,-0.0075118285948192216,-2.6038483821997875,-0.10888392708698907,2.4681821257803174,0.826474908251239,6.253681189630823e-05,0.0008825326963176321,-0.0004950598952220955,6.876659939449028e-05,-0.000446161249311075,-7.209428872266762e-06,-0.0019360617137108422,0.0,0.0,0.0,0.0,0.0,0.0,0.0,-0.00012191281759466044,-0.00014119078603516688,-3.792608894772481e-05,5.178847779863105e-05,5.2897135416757335e-06,-3.1959224333633074e-06,2.1535369810754545e-06,-6.253681189630823e-05,-0.0008825326963176321,0.0004950598952220955,-6.876659939449028e-05,0.000446161249311075,7.209428872266762e-06,0.0019360617137108422,0.3514034152030945,19.745019912719727,0.4704863727092743,-19.983552932739258,-0.6951804757118225,-2.4630770683288574,0.20724813640117645,0
59,0.29001498222351074,-0.3514034152030945,-19.669641494750977,-0.4466826617717743,20.007356643676758,0.6832786202430725,2.4630770683288574,-0.22830526530742645,0.0,0.0,0.0,0.0,0.0,0.0,0.0,-0.34250366187045594,0.033118906473123294,-0.2908667292748214,0.19945529593130412,0.09837925410948582,0.09283326780488828,-0.24146488019833592,1.2135633065867841,-0.22010733051676498,-0.00747557294172676,-2.6039018411134416,-0.10888789437214534,2.468184262028732,0.8264750842684708,1.2134413937687574,-0.2202432315892585,-0.0075118285948192216,-2.6038483821997875,-0.10888392708698907,2.4681821257803174,0.826474908251239,0.000675696454500808,-0.0005371887006420425,-0.0010447161741534343,-0.00046212436179647473,-9.044688672277535e-06,-4.856636103611326e-05,-0.00046699005909895926,0.0,0.0,0.0,0.0,0.0,0.0,0.0,-0.00012191281802675924,-0.00013590107249350503,-3.625565309246185e-05,5.3458913654047535e-05,3.9672851562672085e-06,-2.136248414608133e-06,-1.7601723178994888e-07,-0.000675696454500808,0.0005371887006420425,0.0010447161741534343,0.00046212436179647473,9.044688672277535e-06,4.856636103611326e-05,0.00046699005909895926,0.3514034152030945,19.669641494750977,0.4466826617717743,-20.007356643676758,-0.6832786202430725,-2.4630770683288574,0.22830526530742645,0
60,0.29502248764038086,-0.3514034152030945,-19.669641494750977,-0.4466826617717743,20.007356643676758,0.6832786202430725,2.4630770683288574,-0.22830526530742645,0.0,0.0,0.0,0.0,0.0,0.0,0.0,-0.34250366187045594,0.033118906473123294,-0.2908667292748214,0.19945529593130412,0.09837925410948582,0.09283326780488828,-0.24146488019833592,1.2135633065867841,-0.22010733051676498,-0.00747557294172676,-2.6039018411134416,-0.10888789437214534,2.468184262028732,0.8264750842684708,1.2134413937687574,-0.2202432315892585,-0.0075118285948192216,-2.6038483821997875,-0.10888392708698907,2.4681821257803174,0.826474908251239,0.000675696454500808,-0.0005371887006420425,-0.0010447161741534343,-0.00046212436179647473,-9.044688672277535e-06,-4.856636103611326e-05,-0.00046699005909895926,0.0,0.0,0.0,0.0,0.0,0.0,0.0,-0.00012191281802675924,-0.00013590107249350503,-3.625565309246185e-05,5.3458913654047535e-05,3.9672851562672085e-06,-2.136248414608133e-06,-1.7601723178994888e-07,-0.000675696454500808,0.0005371887006420425,0.0010447161741534343,0.00046212436179647473,9.044688672277535e-06,4.856636103611326e-05,0.00046699005909895926,0.3514034152030945,19.669641494750977,0.4466826617717743,-20.007356643676758,-0.6832786202430725,-2.4630770683288574,0.22830526530742645,0
61,0.3000366687774658,-0.2998287081718445,-19.717248916625977,-0.4982573688030243,19.983552932739258,0.6777854561805725,2.4566683769226074,-0.20724813640117645,0.0,0.0,0.0,0.0,0.0,0.0,0.0,-0.3457474397216666,0.03072644568339495,-0.29505920814994696,0.20430979761369256,0.09889795257627934,0.09310269491153218,-0.2416436659936352,1.2135596868891834,-0.22010398964505445,-0.0074719536640403565,-2.603900170677586,-0.1088874023100476,2.4681849741414443,0.8264696181143091,1.2134413937687574,-0.2202432315892585,-0.0075118285948192216,-2.6038483821997875,-0.10888392708698907,2.4681821257803174,0.826474908251239,-0.001266968987466216,0.00023172062522350931,-5.974584396405318e-06,-5.262269834806384e-05,0.00018309857956085374,0.0002337099120677676,-0.001818828010310495,0.0,0.0,0.0,0.0,0.0,0.0,0.0,-0.00011829312042599405,-0.00013924194420403269,-3.987493077886508e-05,5.178847779863105e-05,3.4752230585327615e-06,-2.8483611269614073e-06,5.2901369299585e-06,0.001266968987466216,-0.00023172062522350931,5.974584396405318e-06,5.262269834806384e-05,-0.00018309857956085374,-0.0002337099120677676,0.001818828010310495,0.2998287081718445,19.717248916625977,0.4982573688030243,-19.983552932739258,-0.6777854561805725,-2.4566683769226074,0.20724813640117645,0
62,0.3050220012664795,-0.2998287081718445,-19.717248916625977,-0.4982573688030243,19.983552932739258,0.6777854561805725,2.4566683769226074,-0.20724813640117645,0.0,0.0,0.0,0.0,0.0,0.0,0.0,-0.3457474397216666,0.03072644568339495,-0.29505920814994696,0.20430979761369256,0.09889795257627934,0.09310269491153218,-0.2416436659936352,1.2135596868891834,-0.22010398964505445,-0.0074719536640403565,-2.603900170677586,-0.1088874023100476,2.4681849741414443,0.8264696181143091,1.2134413937687574,-0.2202432315892585,-0.0075118285948192216,-2.6038483821997875,-0.10888392708698907,2.4681821257803174,0.826474908251239,-0.001266968987466216,0.00023172062522350931,-5.974584396405318e-06,-5.262269834806384e-05,0.00018309857956085374,0.0002337099120677676,-0.001818828010310495,0.0,0.0,0.0,0.0,0.0,0.0,0.0,-0.00011829312042599405,-0.00013924194420403269,-3.987493077886508e-05,5.178847779863105e-05,3.4752230585327615e-06,-2.8483611269614073e-06,5.2901369299585e-06,0.001266968987466216,-0.00023172062522350931,5.974584396405318e-06,5.262269834806384e-05,-0.00018309857956085374,-0.0002337099120677676,0.001818828010310495,0.2998287081718445,19.717248916625977,0.4982573688030243,-19.983552932739258,-0.6777854561805725,-2.4566683769226074,0.20724813640117645,0
63,0.3100311756134033,-0.3514034152030945,-19.717248916625977,-0.4982573688030243,19.983552932739258,0.6832786202430725,2.4566683769226074,-0.23471395671367645,0.0,0.0,0.0,0.0,0.0,0.0,0.0,-0.34174002365635814,0.032703509529508054,-0.2923599525209125,0.20430620666083849,0.09866550386406331,0.09197886230637752,-0.24185951879280937,1.2135633064818032,-0.22010398964505445,-0.0074719536640403565,-2.603900170677586,-0.10888789437281308,2.4681881660839498,0.8264740793795113,1.2134413937687574,-0.2202432315892585,-0.0075118285948192216,-2.6038483821997875,-0.10888392708698907,2.4681821257803174,0.826474908251239,0.0004679169323371955,-0.00032338454718826363,1.2302522316449222e-05,-0.0002663786044859992,0.00022515300150076435,0.0003543706413621656,-0.0005597311988491726,0.0,0.0,0.0,0.0,0.0,0.0,0.0,-0.00012191271304584639,-0.00013924194420403269,-3.987493077886508e-05,5.178847779863105e-05,3.967285824010847e-06,-6.040303632381949e-06,8.288717276982993e-07,-0.0004679169323371955,0.00032338454718826363,-1.2302522316449222e-05,0.0002663786044859992,-0.00022515300150076435,-0.0003543706413621656,0.0005597311988491726,0.3514034152030945,19.717248916625977,0.4982573688030243,-19.983552932739258,-0.6832786202430725,-2.4566683769226074,0.23471395671367645,0
64,0.3150215148925781,-0.3514034152030945,-19.717248916625977,-0.4982573688030243,19.983552932739258,0.6832786202430725,2.4566683769226074,-0.23471395671367645,0.0,0.0,0.0,0.0,0.0,0.0,0.0,-0.34174002365635814,0.032703509529508054,-0.2923599525209125,0.20430620666083849,0.09866550386406331,0.09197886230637752,-0.24185951879280937,1.2135633064818032,-0.22010398964505445,-0.0074719536640403565,-2.603900170677586,-0.10888789437281308,2.4681881660839498,0.8264740793795113,1.2134413937687574,-0.2202432315892585,-0.0075118285948192216,-2.6038483821997875,-0.10888392708698907,2.4681821257803174,0.826474908251239,0.0004679169323371955,-0.00032338454718826363,1.2302522316449222e-05,-0.0002663786044859992,0.00022515300150076435,0.0003543706413621656,-0.0005597311988491726,0.0,0.0,0.0,0.0,0.0,0.0,0.0,-0.00012191271304584639,-0.00013924194420403269,-3.987493077886508e-05,5.178847779863105e-05,3.967285824010847e-06,-6.040303632381949e-06,8.288717276982993e-07,-0.0004679169323371955,0.00032338454718826363,-1.2302522316449222e-05,0.0002663786044859992,-0.00022515300150076435,-0.0003543706413621656,0.0005597311988491726,0.3514034152030945,19.717248916625977,0.4982573688030243,-19.983552932739258,-0.6832786202430725,-2.4566683769226074,0.23471395671367645,0
65,0.32003116607666016,-0.3514034152030945,-19.717248916625977,-0.5220611095428467,19.955781936645508,0.6896873116493225,2.4630770683288574,-0.27591270208358765,0.0,0.0,0.0,0.0,0.0,0.0,0.0,-0.34441821671131495,0.03314574153810277,-0.2966231442930874,0.20486572926789437,0.09855563042423776,0.09177638884507973,-0.24097063072059552,1.2135633065867835,-0.22010613541226637,-0.007470283117866035,-2.603898221835755,-0.10888860644896825,2.468184262028805,0.8264805019041158,1.2134413937687574,-0.2202432315892585,-0.0075118285948192216,-2.6038483821997875,-0.10888392708698907,2.4681821257803174,0.826474908251239,0.000261325835443677,-0.00011428726595324337,0.0005970434255572074,0.00038672364760837654,-0.0002741971851400799,-8.239890035965113e-05,0.0012924833022554716,0.0,0.0,0.0,0.0,0.0,0.0,0.0,-0.0001219128180260931,-0.00013709617699211862,-4.154547695318662e-05,4.9839635967607876e-05,4.679361979176289e-06,-2.1362484874387633e-06,-5.593652876778599e-06,-0.000261325835443677,0.00011428726595324337,-0.0005970434255572074,-0.00038672364760837654,0.0002741971851400799,8.239890035965113e-05,-0.0012924833022554716,0.3514034152030945,19.717248916625977,0.5220611095428467,-19.955781936645508,-0.6896873116493225,-2.4630770683288574,0.27591270208358765,0
66,0.32501721382141113,-0.3514034152030945,-19.717248916625977,-0.5220611095428467,19.955781936645508,0.6896873116493225,2.4630770683288574,-0.27591270208358765,0.0,0.0,0.0,0.0,0.0,0.0,0.0,-0.34441821671131495,0.03314574153810277,-0.2966231442930874,0.20486572926789437,0.09855563042423776,0.09177638884507973,-0.24097063072059552,1.2135633065867835,-0.22010613541226637,-0.007470283117866035,-2.603898221835755,-0.10888860644896825,2.468184262028805,0.8264805019041158,1.2134413937687574,-0.2202432315892585,-0.0075118285948192216,-2.6038483821997875,-0.10888392708698907,2.4681821257803174,0.826474908251239,0.000261325835443677,-0.00011428726595324337,0.0005970434255572074,0.00038672364760837654,-0.0002741971851400799,-8.239890035965113e-05,0.0012924833022554716,0.0,0.0,0.0,0.0,0.0,0.0,0.0,-0.0001219128180260931,-0.00013709617699211862,-4.154547695318662e-05,4.9839635967607876e-05,4.679361979176289e-06,-2.1362484874387633e-06,-5.593652876778599e-06,-0.000261325835443677,0.00011428726595324337,-0.0005970434255572074,-0.00038672364760837654,0.0002741971851400799,8.239890035965113e-05,-0.0012924833022554716,0.3514034152030945,19.717248916625977,0.5220611095428467,-19.955781936645508,-0.6896873116493225,-2.4630770683288574,0.27591270208358765,0
67,0.33001232147216797,-0.3236324191093445,-19.693445205688477,-0.4704863727092743,19.983552932739258,0.6777854561805725,2.4630770683288574,-0.23471395671367645,0.0,0.0,0.0,0.0,0.0,0.0,0.0,-0.33876595375816054,0.030511874133417122,-0.29150043774287193,0.20218609029021234,0.09829961133371871,0.0920186018997963,-0.24103265536374513,1.2135613574300173,-0.22010566009302265,-0.007473902505870886,-2.603900170677586,-0.10888728402058283,2.4681842620107863,0.8264768909947398,1.2134413937687574,-0.2202432315892585,-0.0075118285948192216,-2.6038483821997875,-0.10888392708698907,2.4681821257803174,0.826474908251239,-6.053471045789674e-05,-0.0007368519901377567,-0.00017560561726770712,-0.00038507773536370553,0.0002566096493247894,-1.6623681488861782e-05,-0.0004815653370181202,0.0,0.0,0.0,0.0,0.0,0.0,0.0,-0.0001199636612598809,-0.0001375714962358332,-3.7926088948335435e-05,5.178847779863105e-05,3.3569335937538858e-06,-2.136230468963163e-06,-1.9827435007169214e-06,6.053471045789674e-05,0.0007368519901377567,0.00017560561726770712,0.00038507773536370553,-0.0002566096493247894,1.6623681488861782e-05,0.0004815653370181202,0.3236324191093445,19.693445205688477,0.4704863727092743,-19.983552932739258,-0.6777854561805725,-2.4630770683288574,0.23471395671367645,0
68,0.3350210189819336,-0.3236324191093445,-19.693445205688477,-0.4704863727092743,19.983552932739258,0.6777854561805725,2.4630770683288574,-0.23471395671367645,0.0,0.0,0.0,0.0,0.0,0.0,0.0,-0.33876595375816054,0.030511874133417122,-0.29150043774287193,0.20218609029021234,0.09829961133371871,0.0920186018997963,-0.24103265536374513,1.2135613574300173,-0.22010566009302265,-0.007473902505870886,-2.603900170677586,-0.10888728402058283,2.4681842620107863,0.8264768909947398,1.2134413937687574,-0.2202432315892585,-0.0075118285948192216,-2.6038483821997875,-0.10888392708698907,2.4681821257803174,0.826474908251239,-6.053471045789674e-05,-0.0007368519901377567,-0.00017560561726770712,-0.00038507773536370553,0.0002566096493247894,-1.6623681488861782e-05,-0.0004815653370181202,0.0,0.0,0.0,0.0,0.0,0.0,0.0,-0.0001199636612598809,-0.0001375714962358332,-3.7926088948335435e-05,5.178847779863105e-05,3.3569335937538858e-06,-2.136230468963163e-06,-1.9827435007169214e-06,6.053471045789674e-05,0.0007368519901377567,0.00017560561726770712,0.00038507773536370553,-0.0002566096493247894,1.6623681488861782e-05,0.0004815653370181202,0.3236324191093445,19.693445205688477,0.4704863727092743,-19.983552932739258,-0.6777854561805725,-2.4630770683288574,0.23471395671367645,0
69,0.34003400802612305,-0.3514034152030945,-19.745019912719727,-0.5458648204803467,19.955781936645508,0.6832786202430725,2.4694857597351074,-0.26858848333358765,0.0,0.0,0.0,0.0,0.0,0.0,0.0,-0.3430015128195821,0.03616193768990376,-0.29781603949490004,0.19524208665508838,0.09840009673261765,0.09079920751421407,-0.24180702372698018,1.2135632980835134,-0.22010204080322338,-0.007468612790238439,-2.603898221835755,-0.10888789437214534,2.468183550095469,0.8264768494957793,1.2134413937687574,-0.2202432315892585,-0.0075118285948192216,-2.6038483821997875,-0.10888392708698907,2.4681821257803174,0.826474908251239,0.000263439058367831,0.0010437322054287455,0.0011869371569248608,0.00010209854383377194,-0.0001871648809301967,-0.0002896779518163918,0.0012896233467032457,0.0,0.0,0.0,0.0,0.0,0.0,0.0,-0.00012190431475600505,-0.00014119078603511137,-4.32158045807823e-05,4.9839635967607876e-05,3.9672851562672085e-06,-1.4243151515991315e-06,-1.9412445402267053e-06,-0.000263439058367831,-0.0010437322054287455,-0.0011869371569248608,-0.00010209854383377194,0.0001871648809301967,0.0002896779518163918,-0.0012896233467032457,0.3514034152030945,19.745019912719727,0.5458648204803467,-19.955781936645508,-0.6832786202430725,-2.4694857597351074,0.26858848333358765,0
70,0.34502243995666504,-0.3514034152030945,-19.745019912719727,-0.5458648204803467,19.955781936645508,0.6832786202430725,2.4694857597351074,-0.26858848333358765,0.0,0.0,0.0,0.0,0.0,0.0,0.0,-0.3430015128195821,0.03616193768990376,-0.29781603949490004,0.19524208665508838,0.09840009673261765,0.09079920751421407,-0.24180702372698018,1.2135632980835134,-0.22010204080322338,-0.007468612790238439,-2.603898221835755,-0.10888789437214534,2.468183550095469,0.8264768494957793,1.2134413937687574,-0.2202432315892585,-0.0075118285948192216,-2.6038483821997875,-0.10888392708698907,2.4681821257803174,0.826474908251239,0.000263439058367831,0.0010437322054287455,0.0011869371569248608,0.00010209854383377194,-0.0001871648809301967,-0.0002896779518163918,0.0012896233467032457,0.0,0.0,0.0,0.0,0.0,0.0,0.0,-0.00012190431475600505,-0.00014119078603511137,-4.32158045807823e-05,4.9839635967607876e-05,3.9672851562672085e-06,-1.4243151515991315e-06,-1.9412445402267053e-06,-0.000263439058367831,-0.0010437322054287455,-0.0011869371569248608,-0.00010209854383377194,0.0001871648809301967,0.0002896779518163918,-0.0012896233467032457,0.3514034152030945,19.745019912719727,0.5458648204803467,-19.955781936645508,-0.6832786202430725,-2.4694857597351074,0.26858848333358765,0
71,0.3500223159790039,-0.3236324191093445,-19.717248916625977,-0.4982573688030243,20.007356643676758,0.6832786202430725,2.4566683769226074,-0.22830526530742645,0.0,0.0,0.0,0.0,0.0,0.0,0.0,-0.3380517177927463,0.028069598455071353,-0.29069195344428017,0.1990317957423313,0.09752460406294255,0.09201330127631073,-0.24206589478465412,1.2135592149211323,-0.22010398964505445,-0.007472663849243643,-2.6039018411134416,-0.10888789437214534,2.46818497408761,0.8264724151757893,1.2134413937687574,-0.2202432315892585,-0.0075118285948192216,-2.6038483821997875,-0.10888392708698907,2.4681821257803174,0.826474908251239,-0.00037569506979588446,-0.00016480551056722936,0.0005756120153391878,-0.0007938499280214965,0.0001088480862918623,0.00024609317008345493,-0.00044692730926498364,0.0,0.0,0.0,0.0,0.0,0.0,0.0,-0.00011782115237490842,-0.00013924194420403269,-3.9164745575578225e-05,5.3458913654047535e-05,3.9672851562672085e-06,-2.8483072926910324e-06,2.4930754497498597e-06,0.00037569506979588446,0.00016480551056722936,-0.0005756120153391878,0.0007938499280214965,-0.0001088480862918623,-0.00024609317008345493,0.00044692730926498364,0.3236324191093445,19.717248916625977,0.4982573688030243,-20.007356643676758,-0.6832786202430725,-2.4566683769226074,0.22830526530742645,0
72,0.3550074100494385,-0.3236324191093445,-19.717248916625977,-0.4982573688030243,20.007356643676758,0.6832786202430725,2.4566683769226074,-0.22830526530742645,0.0,0.0,0.0,0.0,0.0,0.0,0.0,-0.3380517177927463,0.028069598455071353,-0.29069195344428017,0.1990317957423313,0.09752460406294255,0.09201330127631073,-0.24206589478465412,1.2135592149211323,-0.22010398964505445,-0.007472663849243643,-2.6039018411134416,-0.10888789437214534,2.46818497408761,0.8264724151757893,1.2134413937687574,-0.2202432315892585,-0.0075118285948192216,-2.6038483821997875,-0.10888392708698907,2.4681821257803174,0.826474908251239,-0.00037569506979588446,-0.00016480551056722936,0.0005756120153391878,-0.0007938499280214965,0.0001088480862918623,0.00024609317008345493,-0.00044692730926498364,0.0,0.0,0.0,0.0,0.0,0.0,0.0,-0.00011782115237490842,-0.00013924194420403269,-3.9164745575578225e-05,5.3458913654047535e-05,3.9672851562672085e-06,-2.8483072926910324e-06,2.4930754497498597e-06,0.00037569506979588446,0.00016480551056722936,-0.0005756120153391878,0.0007938499280214965,-0.0001088480862918623,-0.00024609317008345493,0.00044692730926498364,0.3236324191093445,19.717248916625977,0.4982573688030243,-20.007356643676758,-0.6832786202430725,-2.4566683769226074,0.22830526530742645,0
73,0.36002492904663086,-0.3514034152030945,-19.745019912719727,-0.5458648204803467,19.983552932739258,0.6832786202430725,2.4630770683288574,-0.20083944499492645,0.0,0.0,0.0,0.0,0.0,0.0,0.0,-0.3459934677213995,0.029889084347077745,-0.29563546015047765,0.19625813242943435,0.09761509166019978,0.0912962435320887,-0.2418880902586823,1.2135633065746878,-0.22010204080322332,-0.0074686127942474555,-2.603900170677586,-0.10888789442623288,2.4681842620107863,0.8264704361921283,1.2134413937687574,-0.2202432315892585,-0.0075118285948192216,-2.6038483821997875,-0.10888392708698907,2.4681821257803174,0.826474908251239,0.00023814498542497334,0.00039270863402364594,0.007757366280610365,-0.0003699800536537147,-0.00013569489394167988,0.0001850561173452679,-0.0009208815795161057,0.0,0.0,0.0,0.0,0.0,0.0,0.0,-0.0001219128059304353,-0.00014119078603516688,-4.321580057176609e-05,5.178847779863105e-05,3.967339243807211e-06,-2.136230468963163e-06,4.472059110693927e-06,-0.00023814498542497334,-0.00039270863402364594,-0.007757366280610365,0.0003699800536537147,0.00013569489394167988,-0.0001850561173452679,0.0009208815795161057,0.3514034152030945,19.745019912719727,0.5458648204803467,-19.983552932739258,-0.6832786202430725,-2.4630770683288574,0.20083944499492645,0
74,0.3650219440460205,-0.3514034152030945,-19.745019912719727,-0.5458648204803467,19.983552932739258,0.6832786202430725,2.4630770683288574,-0.20083944499492645,0.0,0.0,0.0,0.0,0.0,0.0,0.0,-0.3459934677213995,0.029889084347077745,-0.29563546015047765,0.19625813242943435,0.09761509166019978,0.0912962435320887,-0.2418880902586823,1.2135633065746878,-0.22010204080322332,-0.0074686127942474555,-2.603900170677586,-0.10888789442623288,2.4681842620107863,0.8264704361921283,1.2134413937687574,-0.2202432315892585,-0.0075118285948192216,-2.6038483821997875,-0.10888392708698907,2.4681821257803174,0.826474908251239,0.00023814498542497334,0.00039270863402364594,0.007757366280610365,-0.0003699800536537147,-0.00013569489394167988,0.0001850561173452679,-0.0009208815795161057,0.0,0.0,0.0,0.0,0.0,0.0,0.0,-0.0001219128059304353,-0.00014119078603516688,-4.321580057176609e-05,5.178847779863105e-05,3.967339243807211e-06,-2.136230468963163e-06,4.472059110693927e-06,-0.00023814498542497334,-0.00039270863402364594,-0.007757366280610365,0.0003699800536537147,0.00013569489394167988,-0.0001850561173452679,0.0009208815795161057,0.3514034152030945,19.745019912719727,0.5458648204803467,-19.983552932739258,-0.6832786202430725,-2.4630770683288574,0.20083944499492645,0
75,0.37221240997314453,-0.3514034152030945,-19.745019912719727,-0.5458648204803467,19.983552932739258,0.6832786202430725,2.4630770683288574,-0.20083944499492645,0.0,0.0,0.0,0.0,0.0,0.0,0.0,-0.3459934677213995,0.029889084347077745,-0.29563546015047765,0.19625813242943435,0.09761509166019978,0.0912962435320887,-0.2418880902586823,1.2135633065746878,-0.22010204080322332,-0.0074686127942474555,-2.603900170677586,-0.10888789442623288,2.4681842620107863,0.8264704361921283,1.2134413937687574,-0.2202432315892585,-0.0075118285948192216,-2.6038483821997875,-0.10888392708698907,2.4681821257803174,0.826474908251239,0.00023814498542497334,0.00039270863402364594,0.007757366280610365,-0.0003699800536537147,-0.00013569489394167988,0.0001850561173452679,-0.0009208815795161057,0.0,0.0,0.0,0.0,0.0,0.0,0.0,-0.0001219128059304353,-0.00014119078603516688,-4.321580057176609e-05,5.178847779863105e-05,3.967339243807211e-06,-2.136230468963163e-06,4.472059110693927e-06,-0.00023814498542497334,-0.00039270863402364594,-0.007757366280610365,0.0003699800536537147,0.00013569489394167988,-0.0001850561173452679,0.0009208815795161057,0.3514034152030945,19.745019912719727,0.5458648204803467,-19.983552932739258,-0.6832786202430725,-2.4630770683288574,0.20083944499492645,0
76,0.3750193119049072,-0.3514034152030945,-19.745019912719727,-0.5458648204803467,19.983552932739258,0.6832786202430725,2.4630770683288574,-0.20083944499492645,0.0,0.0,0.0,0.0,0.0,0.0,0.0,-0.3459934677213995,0.029889084347077745,-0.29563546015047765,0.19625813242943435,0.09761509166019978,0.0912962435320887,-0.2418880902586823,1.2135633065746878,-0.22010204080322332,-0.0074686127942474555,-2.603900170677586,-0.10888789442623288,2.4681842620107863,0.8264704361921283,1.2134413937687574,-0.2202432315892585,-0.0075118285948192216,-2.6038483821997875,-0.10888392708698907,2.4681821257803174,0.826474908251239,0.00023814498542497334,0.00039270863402364594,0.007757366280610365,-0.0003699800536537147,-0.00013569489394167988,0.0001850561173452679,-0.0009208815795161057,0.0,0.0,0.0,0.0,0.0,0.0,0.0,-0.0001219128059304353,-0.00014119078603516688,-4.321580057176609e-05,5.178847779863105e-05,3.967339243807211e-06,-2.136230468963163e-06,4.472059110693927e-06,-0.00023814498542497334,-0.00039270863402364594,-0.007757366280610365,0.0003699800536537147,0.00013569489394167988,-0.0001850561173452679,0.0009208815795161057,0.3514034152030945,19.745019912719727,0.5458648204803467,-19.983552932739258,-0.6832786202430725,-2.4630770683288574,0.20083944499492645,0
77,0.38002967834472656,-0.3514034152030945,-19.745019912719727,-0.4704863727092743,19.955781936645508,0.6832786202430725,2.4758944511413574,-0.21457235515117645,0.0,0.0,0.0,0.0,0.0,0.0,0.0,-0.3607137788941866,0.02955342401445269,-0.3100689931100513,0.19730662398758309,0.09802304229872269,0.0911618632051188,-0.23994627197686094,1.2135633065867841,-0.22010204080322332,-0.0074739025058715046,-2.603898221835755,-0.1088889589773285,2.4681828378571407,0.8264714487525384,1.2134413937687574,-0.2202432315892585,-0.0075118285948192216,-2.6038483821997875,-0.10888392708698907,2.4681821257803174,0.826474908251239,0.00010228176837883761,0.000711977340268603,0.0003049363491410546,0.0004485037925010122,-5.205845067969625e-05,-0.0004606253414951041,-0.0013145695427671832,0.0,0.0,0.0,0.0,0.0,0.0,0.0,-0.00012191281802675924,-0.00014119078603516688,-3.7926088947717006e-05,4.9839635967607876e-05,5.031890339429745e-06,-7.120768232837804e-07,3.4594987006197897e-06,-0.00010228176837883761,-0.000711977340268603,-0.0003049363491410546,-0.0004485037925010122,5.205845067969625e-05,0.0004606253414951041,0.0013145695427671832,0.3514034152030945,19.745019912719727,0.4704863727092743,-19.955781936645508,-0.6832786202430725,-2.4758944511413574,0.21457235515117645,0
78,0.3850219249725342,-0.3514034152030945,-19.745019912719727,-0.4704863727092743,19.955781936645508,0.6832786202430725,2.4758944511413574,-0.21457235515117645,0.0,0.0,0.0,0.0,0.0,0.0,0.0,-0.3607137788941866,0.02955342401445269,-0.3100689931100513,0.19730662398758309,0.09802304229872269,0.0911618632051188,-0.23994627197686094,1.2135633065867841,-0.22010204080322332,-0.0074739025058715046,-2.603898221835755,-0.1088889589773285,2.4681828378571407,0.8264714487525384,1.2134413937687574,-0.2202432315892585,-0.0075118285948192216,-2.6038483821997875,-0.10888392708698907,2.4681821257803174,0.826474908251239,0.00010228176837883761,0.000711977340268603,0.0003049363491410546,0.0004485037925010122,-5.205845067969625e-05,-0.0004606253414951041,-0.0013145695427671832,0.0,0.0,0.0,0.0,0.0,0.0,0.0,-0.00012191281802675924,-0.00014119078603516688,-3.7926088947717006e-05,4.9839635967607876e-05,5.031890339429745e-06,-7.120768232837804e-07,3.4594987006197897e-06,-0.00010228176837883761,-0.000711977340268603,-0.0003049363491410546,-0.0004485037925010122,5.205845067969625e-05,0.0004606253414951041,0.0013145695427671832,0.3514034152030945,19.745019912719727,0.4704863727092743,-19.955781936645508,-0.6832786202430725,-2.4758944511413574,0.21457235515117645,0
79,0.3900327682495117,-0.3236324191093445,-19.717248916625977,-0.4704863727092743,19.983552932739258,0.6832786202430725,2.4566683769226074,-0.26217979192733765,0.0,0.0,0.0,0.0,0.0,0.0,0.0,-0.33765489262070836,0.031665904209036755,-0.28186704163752535,0.1947393036235797,0.09714826790391853,0.09154557597492173,-0.2408940975724726,1.2135613549105302,-0.22010398964505445,-0.007473902505871497,-2.6039001615202197,-0.10888789437815506,2.468184987169561,0.8264758218189592,1.2134413937687574,-0.2202432315892585,-0.0075118285948192216,-2.6038483821997875,-0.10888392708698907,2.4681821257803174,0.826474908251239,-0.00010397707890201285,0.0005119290083916674,-0.0004796261160643699,-0.0005388920355854699,1.3414251718956467e-05,2.8718068266240417e-05,0.0008173065495249459,0.0,0.0,0.0,0.0,0.0,0.0,0.0,-0.00011996114177281747,-0.00013924194420403269,-3.792608894772481e-05,5.177932043221034e-05,3.9672911659877075e-06,-2.861389243768997e-06,-9.135677201399517e-07,0.00010397707890201285,-0.0005119290083916674,0.0004796261160643699,0.0005388920355854699,-1.3414251718956467e-05,-2.8718068266240417e-05,-0.0008173065495249459,0.3236324191093445,19.717248916625977,0.4704863727092743,-19.983552932739258,-0.6832786202430725,-2.4566683769226074,0.26217979192733765,0
